rpiRobotics/ARM-21-02-F-19-Robot-Motion-Program/data_performance_abb/curve_2/baseline/100L/curve_exe_v402.83203125_z10.csv
timestamp, cmd_num, J1, J2, J3, J4, J5, J6
0, -1, 39.6323, 32.4419, 11.8323, 12.5485, 113.716, -48.8694
0.002, -1, 39.6323, 32.4419, 11.8323, 12.5485, 113.716, -48.8694
0.006, -1, 39.6323, 32.4419, 11.8323, 12.5485, 113.716, -48.8694
0.008, -1, 39.6323, 32.4419, 11.8323, 12.5485, 113.716, -48.8694
0.011, -1, 39.6323, 32.4419, 11.8323, 12.5485, 113.716, -48.8694
0.016, -1, 39.6323, 32.4419, 11.8323, 12.5485, 113.716, -48.8694
0.02, -1, 39.6323, 32.4419, 11.8323, 12.5485, 113.716, -48.8694
0.024, -1, 39.6323, 32.4419, 11.8323, 12.5485, 113.716, -48.8694
0.028, -1, 39.6323, 32.4419, 11.8323, 12.5485, 113.716, -48.8694
0.032, -1, 39.6323, 32.4419, 11.8323, 12.5485, 113.716, -48.8694
0.036, -1, 39.6323, 32.4419, 11.8323, 12.5485, 113.716, -48.8694
0.04, -1, 39.632, 32.4419, 11.8323, 12.5485, 113.716, -48.8694
0.044, -1, 39.6314, 32.4417, 11.8323, 12.5485, 113.716, -48.8694
0.048, -1, 39.6303, 32.4415, 11.8322, 12.5485, 113.716, -48.8695
0.052, -1, 39.6285, 32.441, 11.832, 12.5484, 113.715, -48.8697
0.056, -1, 39.626, 32.4403, 11.8318, 12.5484, 113.715, -48.87
0.06, -1, 39.6227, 32.4393, 11.8315, 12.5484, 113.715, -48.8706
0.064, -1, 39.6185, 32.4379, 11.8312, 12.5484, 113.715, -48.8717
0.068, -1, 39.6134, 32.436, 11.8309, 12.5483, 113.714, -48.8734
0.072, -1, 39.6071, 32.4335, 11.8305, 12.5483, 113.713, -48.876
0.076, -1, 39.5995, 32.4304, 11.8303, 12.5483, 113.712, -48.8799
0.08, -1, 39.5903, 32.4264, 11.8302, 12.5482, 113.71, -48.8853
0.084, -1, 39.5792, 32.4215, 11.8303, 12.5482, 113.707, -48.8926
0.088, -1, 39.566, 32.4155, 11.8306, 12.5482, 113.703, -48.9023
0.092, -1, 39.5505, 32.4083, 11.8313, 12.5482, 113.698, -48.9148
0.096, -1, 39.5326, 32.3998, 11.8325, 12.5483, 113.692, -48.9307
0.1, -1, 39.512, 32.39, 11.8343, 12.5484, 113.685, -48.9504
0.104, -1, 39.4886, 32.3787, 11.8369, 12.5485, 113.675, -48.9744
0.108, -1, 39.4621, 32.3657, 11.8402, 12.5487, 113.664, -49.0032
0.112, -1, 39.4324, 32.351, 11.8444, 12.5489, 113.651, -49.0372
0.116, -1, 39.3993, 32.3344, 11.8496, 12.5492, 113.635, -49.0767
0.12, -1, 39.3627, 32.316, 11.8558, 12.5496, 113.617, -49.1221
0.124, -1, 39.3226, 32.2956, 11.8632, 12.5501, 113.597, -49.1736
0.128, -1, 39.2789, 32.2732, 11.8716, 12.5506, 113.574, -49.2315
0.131, -1, 39.2316, 32.2489, 11.8813, 12.5512, 113.549, -49.2957
0.136, -1, 39.1807, 32.2226, 11.8921, 12.5519, 113.521, -49.3663
0.139, -1, 39.1262, 32.1943, 11.904, 12.5527, 113.491, -49.4432
0.144, -1, 39.068, 32.164, 11.9171, 12.5535, 113.458, -49.5263
0.148, -1, 39.0063, 32.1318, 11.9311, 12.5544, 113.423, -49.6152
0.152, -1, 38.9413, 32.0979, 11.9462, 12.5554, 113.385, -49.7098
0.156, -1, 38.873, 32.0622, 11.9621, 12.5564, 113.346, -49.8095
0.16, -1, 38.8017, 32.025, 11.9788, 12.5575, 113.304, -49.9141
0.164, -1, 38.7275, 31.9862, 11.9962, 12.5587, 113.261, -50.0229
0.168, -1, 38.6505, 31.946, 12.0142, 12.5598, 113.217, -50.1357
0.172, -1, 38.5709, 31.9045, 12.0327, 12.561, 113.171, -50.2518
0.176, -1, 38.489, 31.8618, 12.0515, 12.5623, 113.124, -50.3707
0.18, -1, 38.4051, 31.818, 12.0706, 12.5635, 113.076, -50.4921
0.184, -1, 38.3194, 31.7732, 12.0899, 12.5647, 113.027, -50.6155
0.188, -1, 38.2322, 31.7277, 12.1094, 12.566, 112.977, -50.7406
0.192, -1, 38.1437, 31.6814, 12.1289, 12.5673, 112.927, -50.8669
0.196, -1, 38.0539, 31.6346, 12.1484, 12.5685, 112.877, -50.9942
0.2, -1, 37.963, 31.5872, 12.168, 12.5698, 112.826, -51.1223
0.204, -1, 37.871, 31.5394, 12.1875, 12.571, 112.776, -51.2509
0.208, -1, 37.7781, 31.4913, 12.207, 12.5723, 112.725, -51.3799
0.212, -1, 37.6842, 31.4428, 12.2264, 12.5735, 112.674, -51.5092
0.216, -1, 37.5898, 31.3942, 12.2458, 12.5748, 112.623, -51.6386
0.22, -1, 37.4948, 31.3455, 12.2652, 12.576, 112.571, -51.7682
0.224, -1, 37.3996, 31.2967, 12.2846, 12.5772, 112.52, -51.8979
0.228, -1, 37.3042, 31.2478, 12.304, 12.5785, 112.469, -52.0277
0.232, -1, 37.2086, 31.1988, 12.3233, 12.5797, 112.418, -52.1575
0.236, -1, 37.1129, 31.1498, 12.3427, 12.5809, 112.366, -52.2874
0.24, -1, 37.0171, 31.1008, 12.3621, 12.5822, 112.315, -52.4173
0.244, -1, 36.9213, 31.0518, 12.3814, 12.5834, 112.264, -52.5472
0.248, -1, 36.8254, 31.0027, 12.4008, 12.5846, 112.213, -52.6771
0.252, -1, 36.7295, 30.9537, 12.4201, 12.5859, 112.161, -52.8071
0.256, -1, 36.6335, 30.9046, 12.4395, 12.5871, 112.11, -52.9371
0.26, -1, 36.5376, 30.8556, 12.4589, 12.5883, 112.059, -53.0671
0.264, -1, 36.4416, 30.8065, 12.4782, 12.5896, 112.007, -53.1971
0.268, -1, 36.3456, 30.7574, 12.4976, 12.5908, 111.956, -53.3272
0.272, -1, 36.2497, 30.7083, 12.517, 12.592, 111.905, -53.4572
0.276, -1, 36.1536, 30.6592, 12.5363, 12.5933, 111.853, -53.5873
0.28, -1, 36.0576, 30.6101, 12.5557, 12.5945, 111.802, -53.7174
0.284, -1, 35.9616, 30.561, 12.5751, 12.5957, 111.751, -53.8475
0.288, -1, 35.8655, 30.5119, 12.5945, 12.597, 111.699, -53.9776
0.292, -1, 35.7695, 30.4627, 12.6139, 12.5982, 111.648, -54.1077
0.296, -1, 35.6734, 30.4136, 12.6332, 12.5994, 111.597, -54.2379
0.3, -1, 35.5773, 30.3645, 12.6526, 12.6007, 111.545, -54.368
0.304, -1, 35.4813, 30.3153, 12.672, 12.6019, 111.494, -54.4982
0.308, -1, 35.3852, 30.2662, 12.6914, 12.6031, 111.442, -54.6284
0.312, -1, 35.289, 30.217, 12.7108, 12.6044, 111.391, -54.7586
0.316, -1, 35.1929, 30.1679, 12.7302, 12.6056, 111.34, -54.8888
0.32, -1, 35.0968, 30.1187, 12.7496, 12.6069, 111.288, -55.019
0.324, -1, 35.0007, 30.0696, 12.769, 12.6081, 111.237, -55.1493
0.328, -1, 34.9045, 30.0204, 12.7884, 12.6093, 111.185, -55.2795
0.332, -1, 34.8083, 29.9712, 12.8078, 12.6106, 111.134, -55.4098
0.336, -1, 34.7122, 29.922, 12.8272, 12.6118, 111.083, -55.5401
0.34, -1, 34.616, 29.8729, 12.8466, 12.613, 111.031, -55.6704
0.344, -1, 34.5198, 29.8237, 12.866, 12.6143, 110.98, -55.8007
0.348, -1, 34.4236, 29.7745, 12.8854, 12.6155, 110.928, -55.931
0.352, -1, 34.3274, 29.7253, 12.9048, 12.6167, 110.877, -56.0613
0.356, -1, 34.2312, 29.6761, 12.9242, 12.618, 110.825, -56.1917
0.36, -1, 34.135, 29.6269, 12.9437, 12.6192, 110.774, -56.3221
0.364, -1, 34.0387, 29.5776, 12.9631, 12.6205, 110.722, -56.4524
0.368, -1, 33.9425, 29.5284, 12.9825, 12.6217, 110.671, -56.5828
0.372, -1, 33.8462, 29.4792, 13.0019, 12.6229, 110.62, -56.7132
0.376, -1, 33.75, 29.43, 13.0213, 12.6242, 110.568, -56.8436
0.38, -1, 33.6537, 29.3808, 13.0408, 12.6254, 110.517, -56.974
0.384, -1, 33.5574, 29.3315, 13.0602, 12.6266, 110.465, -57.1044
0.388, -1, 33.4612, 29.2823, 13.0796, 12.6279, 110.414, -57.2349
0.392, -1, 33.3649, 29.233, 13.099, 12.6291, 110.362, -57.3653
0.396, -1, 33.2686, 29.1838, 13.1185, 12.6304, 110.311, -57.4958
0.4, -1, 33.1723, 29.1345, 13.1379, 12.6316, 110.259, -57.6263
0.404, -1, 33.0759, 29.0853, 13.1573, 12.6328, 110.208, -57.7567
0.408, -1, 32.9796, 29.036, 13.1768, 12.6341, 110.156, -57.8872
0.412, -1, 32.8833, 28.9868, 13.1962, 12.6353, 110.105, -58.0177
0.416, -1, 32.7869, 28.9375, 13.2156, 12.6365, 110.053, -58.1483
0.42, -1, 32.6906, 28.8882, 13.2351, 12.6378, 110.002, -58.2788
0.424, -1, 32.5942, 28.8389, 13.2545, 12.639, 109.95, -58.4093
0.428, -1, 32.4979, 28.7897, 13.274, 12.6403, 109.899, -58.5399
0.432, -1, 32.4015, 28.7404, 13.2934, 12.6415, 109.847, -58.6704
0.436, -1, 32.3051, 28.6911, 13.3129, 12.6427, 109.795, -58.801
0.44, -1, 32.2087, 28.6418, 13.3323, 12.644, 109.744, -58.9315
0.444, -1, 32.1124, 28.5925, 13.3518, 12.6452, 109.692, -59.0621
0.448, -1, 32.016, 28.5432, 13.3712, 12.6465, 109.641, -59.1927
0.452, -1, 31.9195, 28.4939, 13.3907, 12.6477, 109.589, -59.3233
0.456, -1, 31.8231, 28.4446, 13.4101, 12.6489, 109.538, -59.4539
0.46, -1, 31.7267, 28.3953, 13.4296, 12.6502, 109.486, -59.5845
0.464, -1, 31.6303, 28.346, 13.449, 12.6514, 109.435, -59.7152
0.468, -1, 31.5339, 28.2967, 13.4685, 12.6526, 109.383, -59.8458
0.472, -1, 31.4374, 28.2474, 13.4879, 12.6539, 109.331, -59.9764
0.476, -1, 31.341, 28.198, 13.5074, 12.6551, 109.28, -60.1071
0.48, -1, 31.2445, 28.1487, 13.5269, 12.6564, 109.228, -60.2378
0.484, -1, 31.1481, 28.0994, 13.5463, 12.6576, 109.177, -60.3684
0.488, -1, 31.0516, 28.0501, 13.5658, 12.6588, 109.125, -60.4991
0.492, -1, 30.9552, 28.0007, 13.5852, 12.6601, 109.074, -60.6298
0.496, -1, 30.8587, 27.9514, 13.6047, 12.6613, 109.022, -60.7605
0.5, -1, 30.7622, 27.9021, 13.6242, 12.6626, 108.97, -60.8912
0.504, -1, 30.6657, 27.8527, 13.6436, 12.6638, 108.919, -61.0219
0.508, -1, 30.5692, 27.8034, 13.6631, 12.665, 108.867, -61.1526
0.512, -1, 30.4728, 27.754, 13.6826, 12.6663, 108.816, -61.2833
0.516, -1, 30.3763, 27.7047, 13.7021, 12.6675, 108.764, -61.414
0.52, -1, 30.2798, 27.6554, 13.7215, 12.6688, 108.712, -61.5448
0.524, -1, 30.1833, 27.606, 13.741, 12.67, 108.661, -61.6755
0.528, -1, 30.0867, 27.5566, 13.7605, 12.6713, 108.609, -61.8062
0.532, -1, 29.9902, 27.5073, 13.7799, 12.6725, 108.558, -61.937
0.536, -1, 29.8937, 27.4579, 13.7994, 12.6737, 108.506, -62.0678
0.54, -1, 29.7972, 27.4086, 13.8189, 12.675, 108.454, -62.1985
0.544, -1, 29.7007, 27.3592, 13.8384, 12.6762, 108.403, -62.3293
0.548, -1, 29.6041, 27.3098, 13.8578, 12.6775, 108.351, -62.4601
0.552, -1, 29.5076, 27.2605, 13.8773, 12.6787, 108.3, -62.5908
0.556, -1, 29.411, 27.2111, 13.8968, 12.6799, 108.248, -62.7216
0.56, -1, 29.3145, 27.1617, 13.9163, 12.6812, 108.196, -62.8524
0.564, -1, 29.218, 27.1124, 13.9358, 12.6824, 108.145, -62.9832
0.568, -1, 29.1214, 27.063, 13.9552, 12.6837, 108.093, -63.114
0.572, -1, 29.0248, 27.0136, 13.9747, 12.6849, 108.041, -63.2448
0.576, -1, 28.9283, 26.9642, 13.9942, 12.6861, 107.99, -63.3756
0.58, -1, 28.8317, 26.9149, 14.0137, 12.6874, 107.938, -63.5064
0.584, -1, 28.7352, 26.8655, 14.0332, 12.6886, 107.887, -63.6372
0.588, -1, 28.6386, 26.8161, 14.0527, 12.6899, 107.835, -63.7681
0.592, -1, 28.542, 26.7667, 14.0721, 12.6911, 107.783, -63.8989
0.596, -1, 28.4454, 26.7173, 14.0916, 12.6923, 107.732, -64.0297
0.6, -1, 28.3489, 26.6679, 14.1111, 12.6936, 107.68, -64.1605
0.604, -1, 28.2523, 26.6185, 14.1306, 12.6948, 107.628, -64.2914
0.608, -1, 28.1557, 26.5692, 14.1501, 12.6961, 107.577, -64.4222
0.612, -1, 28.0591, 26.5198, 14.1696, 12.6973, 107.525, -64.5531
0.616, -1, 27.9625, 26.4704, 14.1891, 12.6986, 107.473, -64.6839
0.62, -1, 27.866, 26.421, 14.2085, 12.6998, 107.422, -64.8148
0.624, -1, 27.7694, 26.3716, 14.228, 12.701, 107.37, -64.9456
0.628, -1, 27.6728, 26.3222, 14.2475, 12.7023, 107.318, -65.0765
0.632, -1, 27.5762, 26.2728, 14.267, 12.7035, 107.267, -65.2073
0.636, -1, 27.4796, 26.2234, 14.2865, 12.7048, 107.215, -65.3382
0.64, -1, 27.383, 26.174, 14.306, 12.706, 107.163, -65.469
0.644, -1, 27.2864, 26.1246, 14.3255, 12.7072, 107.112, -65.5999
0.648, -1, 27.1898, 26.0752, 14.345, 12.7085, 107.06, -65.7307
0.652, -1, 27.0932, 26.0258, 14.3645, 12.7097, 107.009, -65.8616
0.656, -1, 26.9966, 25.9764, 14.384, 12.711, 106.957, -65.9925
0.66, -1, 26.9, 25.927, 14.4034, 12.7122, 106.905, -66.1233
0.664, -1, 26.8034, 25.8776, 14.4229, 12.7135, 106.854, -66.2542
0.668, -1, 26.7068, 25.8282, 14.4424, 12.7147, 106.802, -66.3851
0.672, -1, 26.6102, 25.7788, 14.4619, 12.7159, 106.75, -66.5159
0.676, -1, 26.5136, 25.7294, 14.4814, 12.7172, 106.699, -66.6468
0.68, -1, 26.417, 25.68, 14.5009, 12.7184, 106.647, -66.7777
0.684, -1, 26.3204, 25.6306, 14.5204, 12.7197, 106.595, -66.9086
0.688, -1, 26.2238, 25.5812, 14.5399, 12.7209, 106.544, -67.0394
0.692, -1, 26.1271, 25.5318, 14.5594, 12.7221, 106.492, -67.1703
0.696, -1, 26.0305, 25.4824, 14.5789, 12.7234, 106.44, -67.3012
0.7, -1, 25.9339, 25.433, 14.5984, 12.7246, 106.389, -67.4321
0.704, -1, 25.8373, 25.3836, 14.6179, 12.7259, 106.337, -67.5629
0.708, -1, 25.7407, 25.3342, 14.6373, 12.7271, 106.285, -67.6938
0.712, -1, 25.6441, 25.2848, 14.6568, 12.7284, 106.234, -67.8247
0.716, -1, 25.5475, 25.2354, 14.6763, 12.7296, 106.182, -67.9555
0.72, -1, 25.4509, 25.186, 14.6958, 12.7308, 106.13, -68.0864
0.724, -1, 25.3543, 25.1366, 14.7153, 12.7321, 106.079, -68.2173
0.728, -1, 25.2577, 25.0872, 14.7348, 12.7333, 106.027, -68.3481
0.732, -1, 25.1611, 25.0378, 14.7543, 12.7346, 105.975, -68.479
0.736, -1, 25.0645, 24.9884, 14.7738, 12.7358, 105.924, -68.6099
0.74, -1, 24.9679, 24.939, 14.7933, 12.737, 105.872, -68.7407
0.744, -1, 24.8713, 24.8896, 14.8128, 12.7383, 105.82, -68.8716
0.748, -1, 24.7747, 24.8402, 14.8323, 12.7395, 105.769, -69.0025
0.752, -1, 24.6781, 24.7908, 14.8517, 12.7408, 105.717, -69.1333
0.756, -1, 24.5815, 24.7414, 14.8712, 12.742, 105.665, -69.2642
0.76, -1, 24.4849, 24.692, 14.8907, 12.7433, 105.614, -69.395
0.764, -1, 24.3883, 24.6426, 14.9102, 12.7445, 105.562, -69.5259
0.768, -1, 24.2917, 24.5932, 14.9297, 12.7457, 105.511, -69.6568
0.772, -1, 24.1951, 24.5438, 14.9492, 12.747, 105.459, -69.7876
0.776, -1, 24.0985, 24.4944, 14.9687, 12.7482, 105.407, -69.9184
0.78, -1, 24.0019, 24.445, 14.9882, 12.7495, 105.356, -70.0493
0.784, -1, 23.9054, 24.3956, 15.0077, 12.7507, 105.304, -70.1801
0.788, -1, 23.8088, 24.3462, 15.0271, 12.7519, 105.252, -70.311
0.792, -1, 23.7122, 24.2968, 15.0466, 12.7532, 105.201, -70.4418
0.796, -1, 23.6156, 24.2474, 15.0661, 12.7544, 105.149, -70.5726
0.8, -1, 23.519, 24.198, 15.0856, 12.7557, 105.097, -70.7035
0.804, -1, 23.4225, 24.1487, 15.1051, 12.7569, 105.046, -70.8343
0.808, -1, 23.3259, 24.0993, 15.1246, 12.7582, 104.994, -70.9651
0.812, -1, 23.2293, 24.0499, 15.144, 12.7594, 104.942, -71.0959
0.816, -1, 23.1328, 24.0005, 15.1635, 12.7606, 104.891, -71.2267
0.82, -1, 23.0362, 23.9511, 15.183, 12.7619, 104.839, -71.3575
0.824, -1, 22.9397, 23.9018, 15.2025, 12.7631, 104.788, -71.4883
0.828, -1, 22.8431, 23.8524, 15.222, 12.7644, 104.736, -71.6191
0.832, -1, 22.7466, 23.803, 15.2415, 12.7656, 104.684, -71.7499
0.836, -1, 22.65, 23.7536, 15.2609, 12.7668, 104.633, -71.8807
0.84, -1, 22.5535, 23.7043, 15.2804, 12.7681, 104.581, -72.0115
0.844, -1, 22.4569, 23.6549, 15.2999, 12.7693, 104.529, -72.1423
0.848, -1, 22.3604, 23.6055, 15.3194, 12.7706, 104.478, -72.2731
0.852, -1, 22.2639, 23.5562, 15.3388, 12.7718, 104.426, -72.4038
0.856, -1, 22.1673, 23.5068, 15.3583, 12.773, 104.375, -72.5346
0.86, -1, 22.0708, 23.4575, 15.3778, 12.7743, 104.323, -72.6653
0.864, -1, 21.9743, 23.4081, 15.3973, 12.7755, 104.271, -72.7961
0.868, -1, 21.8778, 23.3588, 15.4167, 12.7768, 104.22, -72.9268
0.872, -1, 21.7813, 23.3094, 15.4362, 12.778, 104.168, -73.0576
0.876, -1, 21.6848, 23.26, 15.4557, 12.7792, 104.117, -73.1883
0.88, -1, 21.5883, 23.2107, 15.4751, 12.7805, 104.065, -73.319
0.884, -1, 21.4918, 23.1614, 15.4946, 12.7817, 104.013, -73.4498
0.888, -1, 21.3953, 23.112, 15.5141, 12.783, 103.962, -73.5805
0.892, -1, 21.2988, 23.0627, 15.5336, 12.7842, 103.91, -73.7112
0.896, -1, 21.2023, 23.0133, 15.553, 12.7854, 103.859, -73.8419
0.9, -1, 21.1058, 22.964, 15.5725, 12.7867, 103.807, -73.9726
0.904, -1, 21.0094, 22.9147, 15.5919, 12.7879, 103.755, -74.1032
0.908, -1, 20.9129, 22.8653, 15.6114, 12.7892, 103.704, -74.2339
0.912, -1, 20.8165, 22.816, 15.6309, 12.7904, 103.652, -74.3646
0.916, -1, 20.72, 22.7667, 15.6503, 12.7916, 103.601, -74.4953
0.92, -1, 20.6236, 22.7174, 15.6698, 12.7929, 103.549, -74.6259
0.924, -1, 20.5271, 22.6681, 15.6892, 12.7941, 103.498, -74.7566
0.928, -1, 20.4307, 22.6187, 15.7087, 12.7954, 103.446, -74.8872
0.932, -1, 20.3343, 22.5694, 15.7282, 12.7966, 103.394, -75.0178
0.936, -1, 20.2378, 22.5201, 15.7476, 12.7978, 103.343, -75.1484
0.94, -1, 20.1414, 22.4708, 15.7671, 12.7991, 103.291, -75.2791
0.944, -1, 20.045, 22.4215, 15.7865, 12.8003, 103.24, -75.4097
0.948, -1, 19.9486, 22.3722, 15.806, 12.8016, 103.188, -75.5403
0.952, -1, 19.8522, 22.3229, 15.8254, 12.8028, 103.137, -75.6708
0.956, -1, 19.7558, 22.2736, 15.8449, 12.804, 103.085, -75.8014
0.96, -1, 19.6594, 22.2244, 15.8643, 12.8053, 103.034, -75.932
0.964, -1, 19.5631, 22.1751, 15.8838, 12.8065, 102.982, -76.0625
0.968, -1, 19.4667, 22.1258, 15.9032, 12.8078, 102.931, -76.1931
0.972, -1, 19.3703, 22.0765, 15.9226, 12.809, 102.879, -76.3236
0.976, -1, 19.274, 22.0272, 15.9421, 12.8102, 102.828, -76.4541
0.98, -1, 19.1776, 21.978, 15.9615, 12.8115, 102.776, -76.5847
0.984, -1, 19.0813, 21.9287, 15.981, 12.8127, 102.724, -76.7152
0.988, -1, 18.985, 21.8795, 16.0004, 12.8139, 102.673, -76.8457
0.992, -1, 18.8886, 21.8302, 16.0198, 12.8152, 102.621, -76.9762
0.996, -1, 18.7923, 21.7809, 16.0393, 12.8164, 102.57, -77.1066
1, -1, 18.696, 21.7317, 16.0587, 12.8177, 102.518, -77.2371
1.004, -1, 18.5997, 21.6825, 16.0781, 12.8189, 102.467, -77.3675
1.008, -1, 18.5034, 21.6332, 16.0975, 12.8201, 102.415, -77.498
1.012, -1, 18.4071, 21.584, 16.117, 12.8214, 102.364, -77.6284
1.016, -1, 18.3109, 21.5347, 16.1364, 12.8226, 102.313, -77.7588
1.02, -1, 18.2146, 21.4855, 16.1558, 12.8238, 102.261, -77.8892
1.024, -1, 18.1183, 21.4363, 16.1752, 12.8251, 102.21, -78.0196
1.027, -1, 18.0221, 21.3871, 16.1947, 12.8263, 102.158, -78.15
1.032, -1, 17.9258, 21.3379, 16.2141, 12.8276, 102.107, -78.2804
1.036, -1, 17.8296, 21.2887, 16.2335, 12.8288, 102.055, -78.4108
1.04, -1, 17.7334, 21.2394, 16.2529, 12.83, 102.004, -78.5411
1.044, -1, 17.6372, 21.1902, 16.2723, 12.8313, 101.952, -78.6715
1.048, -1, 17.5409, 21.1411, 16.2917, 12.8325, 101.901, -78.8018
1.052, -1, 17.4447, 21.0919, 16.3111, 12.8337, 101.849, -78.9321
1.055, -1, 17.3486, 21.0427, 16.3305, 12.835, 101.798, -79.0624
1.06, -1, 17.2524, 20.9935, 16.3499, 12.8362, 101.747, -79.1927
1.064, -1, 17.1562, 20.9443, 16.3693, 12.8374, 101.695, -79.323
1.068, -1, 17.06, 20.8951, 16.3887, 12.8387, 101.644, -79.4532
1.072, -1, 16.9639, 20.846, 16.4081, 12.8399, 101.592, -79.5835
1.076, -1, 16.8678, 20.7968, 16.4275, 12.8412, 101.541, -79.7137
1.08, -1, 16.7716, 20.7477, 16.4469, 12.8424, 101.49, -79.8439
1.084, -1, 16.6755, 20.6985, 16.4663, 12.8436, 101.438, -79.9742
1.088, -1, 16.5794, 20.6494, 16.4857, 12.8449, 101.387, -80.1043
1.091, -1, 16.4833, 20.6002, 16.5051, 12.8461, 101.335, -80.2345
1.096, -1, 16.3872, 20.5511, 16.5245, 12.8473, 101.284, -80.3647
1.1, -1, 16.2911, 20.5019, 16.5439, 12.8486, 101.233, -80.4949
1.104, -1, 16.195, 20.4528, 16.5633, 12.8498, 101.181, -80.625
1.108, -1, 16.099, 20.4037, 16.5826, 12.851, 101.13, -80.7551
1.112, -1, 16.0029, 20.3546, 16.602, 12.8523, 101.078, -80.8853
1.116, -1, 15.9069, 20.3055, 16.6214, 12.8535, 101.027, -81.0154
1.119, -1, 15.8108, 20.2564, 16.6408, 12.8547, 100.976, -81.1454
1.124, -1, 15.7148, 20.2073, 16.6601, 12.856, 100.924, -81.2755
1.128, -1, 15.6188, 20.1582, 16.6795, 12.8572, 100.873, -81.4056
1.132, -1, 15.5228, 20.1091, 16.6989, 12.8584, 100.822, -81.5356
1.136, -1, 15.4268, 20.06, 16.7182, 12.8597, 100.77, -81.6657
1.14, -1, 15.3308, 20.0109, 16.7376, 12.8609, 100.719, -81.7957
1.144, -1, 15.2349, 19.9618, 16.757, 12.8621, 100.668, -81.9257
1.147, -1, 15.1389, 19.9128, 16.7763, 12.8634, 100.617, -82.0557
1.152, -1, 15.043, 19.8637, 16.7957, 12.8646, 100.565, -82.1856
1.156, -1, 14.947, 19.8147, 16.815, 12.8658, 100.514, -82.3156
1.16, -1, 14.8511, 19.7656, 16.8344, 12.8671, 100.463, -82.4455
1.164, -1, 14.7552, 19.7166, 16.8537, 12.8683, 100.411, -82.5754
1.168, -1, 14.6593, 19.6675, 16.8731, 12.8695, 100.36, -82.7054
1.172, -1, 14.5634, 19.6185, 16.8924, 12.8708, 100.309, -82.8352
1.175, -1, 14.4675, 19.5695, 16.9118, 12.872, 100.258, -82.9651
1.18, -1, 14.3717, 19.5204, 16.9311, 12.8732, 100.206, -83.095
1.184, -1, 14.2758, 19.4714, 16.9505, 12.8745, 100.155, -83.2248
1.188, -1, 14.18, 19.4224, 16.9698, 12.8757, 100.104, -83.3547
1.192, -1, 14.0842, 19.3734, 16.9891, 12.8769, 100.053, -83.4845
1.196, -1, 13.9884, 19.3244, 17.0085, 12.8782, 100.001, -83.6143
1.2, -1, 13.8925, 19.2754, 17.0278, 12.8794, 99.9501, -83.744
1.204, -1, 13.7968, 19.2265, 17.0471, 12.8806, 99.8989, -83.8738
1.208, -1, 13.701, 19.1775, 17.0664, 12.8819, 99.8476, -84.0035
1.212, -1, 13.6052, 19.1285, 17.0858, 12.8831, 99.7964, -84.1333
1.216, -1, 13.5095, 19.0795, 17.1051, 12.8843, 99.7452, -84.263
1.22, -1, 13.4137, 19.0306, 17.1244, 12.8855, 99.6941, -84.3927
1.224, -1, 13.318, 18.9816, 17.1437, 12.8868, 99.6429, -84.5223
1.228, -1, 13.2223, 18.9327, 17.163, 12.888, 99.5917, -84.652
1.232, -1, 13.1266, 18.8838, 17.1823, 12.8892, 99.5405, -84.7816
1.236, -1, 13.0309, 18.8348, 17.2016, 12.8905, 99.4894, -84.9113
1.24, -1, 12.9352, 18.7859, 17.2209, 12.8917, 99.4382, -85.0409
1.244, -1, 12.8396, 18.737, 17.2402, 12.8929, 99.3871, -85.1704
1.248, -1, 12.7439, 18.6881, 17.2595, 12.8942, 99.3359, -85.3
1.252, -1, 12.6483, 18.6392, 17.2788, 12.8954, 99.2848, -85.4296
1.256, -1, 12.5527, 18.5903, 17.2981, 12.8966, 99.2337, -85.5591
1.26, -1, 12.457, 18.5414, 17.3174, 12.8978, 99.1825, -85.6886
1.264, -1, 12.3615, 18.4925, 17.3367, 12.8991, 99.1314, -85.8181
1.267, -1, 12.2659, 18.4436, 17.356, 12.9003, 99.0803, -85.9476
1.272, -1, 12.1703, 18.3948, 17.3752, 12.9015, 99.0292, -86.077
1.276, -1, 12.0748, 18.3459, 17.3945, 12.9028, 98.9781, -86.2065
1.28, -1, 11.9792, 18.2971, 17.4138, 12.904, 98.927, -86.3359
1.284, -1, 11.8837, 18.2482, 17.4331, 12.9052, 98.876, -86.4653
1.288, -1, 11.7882, 18.1994, 17.4523, 12.9064, 98.8249, -86.5947
1.292, -1, 11.6927, 18.1505, 17.4716, 12.9077, 98.7738, -86.724
1.295, -1, 11.5972, 18.1017, 17.4909, 12.9089, 98.7228, -86.8534
1.3, -1, 11.5017, 18.0529, 17.5101, 12.9101, 98.6717, -86.9827
1.304, -1, 11.4063, 18.0041, 17.5294, 12.9114, 98.6207, -87.112
1.308, -1, 11.3109, 17.9553, 17.5486, 12.9126, 98.5697, -87.2413
1.312, -1, 11.2154, 17.9065, 17.5679, 12.9138, 98.5186, -87.3705
1.316, -1, 11.12, 17.8577, 17.5871, 12.915, 98.4676, -87.4998
1.32, -1, 11.0246, 17.8089, 17.6064, 12.9163, 98.4166, -87.629
1.324, -1, 10.9293, 17.7602, 17.6256, 12.9175, 98.3656, -87.7582
1.328, -1, 10.8339, 17.7114, 17.6449, 12.9187, 98.3146, -87.8874
1.332, -1, 10.7386, 17.6626, 17.6641, 12.9199, 98.2637, -88.0165
1.336, -1, 10.6432, 17.6139, 17.6833, 12.9212, 98.2127, -88.1457
1.34, -1, 10.5479, 17.5652, 17.7026, 12.9224, 98.1617, -88.2748
1.344, -1, 10.4526, 17.5164, 17.7218, 12.9236, 98.1108, -88.4039
1.348, -1, 10.3573, 17.4677, 17.741, 12.9248, 98.0598, -88.533
1.352, -1, 10.2621, 17.419, 17.7602, 12.9261, 98.0089, -88.662
1.356, -1, 10.1668, 17.3703, 17.7795, 12.9273, 97.958, -88.791
1.36, -1, 10.0716, 17.3216, 17.7987, 12.9285, 97.907, -88.9201
1.364, -1, 9.97634, 17.2729, 17.8179, 12.9297, 97.8561, -89.049
1.368, -1, 9.88113, 17.2242, 17.8371, 12.931, 97.8052, -89.178
1.372, -1, 9.78594, 17.1755, 17.8563, 12.9322, 97.7543, -89.307
1.376, -1, 9.69077, 17.1269, 17.8755, 12.9334, 97.7034, -89.4359
1.38, -1, 9.59561, 17.0782, 17.8947, 12.9346, 97.6525, -89.5648
1.384, -1, 9.50046, 17.0296, 17.9139, 12.9358, 97.6017, -89.6937
1.388, -1, 9.40534, 16.9809, 17.9331, 12.9371, 97.5508, -89.8225
1.392, -1, 9.31022, 16.9323, 17.9523, 12.9383, 97.5, -89.9514
1.396, -1, 9.21513, 16.8837, 17.9715, 12.9395, 97.4491, -90.0802
1.4, -1, 9.12005, 16.835, 17.9906, 12.9407, 97.3983, -90.209
1.404, -1, 9.02499, 16.7864, 18.0098, 12.942, 97.3474, -90.3377
1.408, -1, 8.92994, 16.7378, 18.029, 12.9432, 97.2966, -90.4665
1.412, -1, 8.83491, 16.6892, 18.0482, 12.9444, 97.2458, -90.5952
1.416, -1, 8.7399, 16.6407, 18.0673, 12.9456, 97.195, -90.7239
1.42, -1, 8.6449, 16.5921, 18.0865, 12.9468, 97.1442, -90.8526
1.424, -1, 8.54992, 16.5435, 18.1057, 12.9481, 97.0934, -90.9813
1.428, -1, 8.45496, 16.495, 18.1248, 12.9493, 97.0427, -91.1099
1.432, -1, 8.36002, 16.4464, 18.144, 12.9505, 96.9919, -91.2385
1.436, -1, 8.26509, 16.3979, 18.1631, 12.9517, 96.9411, -91.3671
1.44, -1, 8.17017, 16.3493, 18.1823, 12.9529, 96.8904, -91.4957
1.444, -1, 8.07528, 16.3008, 18.2014, 12.9542, 96.8397, -91.6242
1.448, -1, 7.9804, 16.2523, 18.2205, 12.9554, 96.7889, -91.7527
1.452, -1, 7.88554, 16.2038, 18.2397, 12.9566, 96.7382, -91.8812
1.456, -1, 7.79069, 16.1553, 18.2588, 12.9578, 96.6875, -92.0097
1.46, -1, 7.69587, 16.1068, 18.278, 12.959, 96.6368, -92.1382
1.464, -1, 7.60106, 16.0583, 18.2971, 12.9603, 96.5861, -92.2666
1.468, -1, 7.50626, 16.0099, 18.3162, 12.9615, 96.5354, -92.395
1.472, -1, 7.41149, 15.9614, 18.3353, 12.9627, 96.4847, -92.5234
1.476, -1, 7.31673, 15.9129, 18.3544, 12.9639, 96.4341, -92.6518
1.48, -1, 7.22199, 15.8645, 18.3736, 12.9651, 96.3834, -92.7801
1.484, -1, 7.12727, 15.8161, 18.3927, 12.9663, 96.3328, -92.9084
1.488, -1, 7.03256, 15.7676, 18.4118, 12.9676, 96.2821, -93.0367
1.492, -1, 6.93788, 15.7192, 18.4309, 12.9688, 96.2315, -93.165
1.496, -1, 6.84321, 15.6708, 18.45, 12.97, 96.1809, -93.2932
1.5, -1, 6.74855, 15.6224, 18.4691, 12.9712, 96.1303, -93.4214
1.504, -1, 6.65392, 15.574, 18.4882, 12.9724, 96.0797, -93.5496
1.508, -1, 6.5593, 15.5256, 18.5072, 12.9736, 96.0291, -93.6778
1.512, -1, 6.4647, 15.4773, 18.5263, 12.9749, 95.9785, -93.8059
1.516, -1, 6.37012, 15.4289, 18.5454, 12.9761, 95.9279, -93.934
1.52, -1, 6.27556, 15.3805, 18.5645, 12.9773, 95.8774, -94.0621
1.524, -1, 6.18102, 15.3322, 18.5836, 12.9785, 95.8268, -94.1902
1.528, -1, 6.08649, 15.2839, 18.6026, 12.9797, 95.7763, -94.3183
1.532, -1, 5.99199, 15.2355, 18.6217, 12.9809, 95.7257, -94.4463
1.536, -1, 5.8975, 15.1872, 18.6408, 12.9822, 95.6752, -94.5743
1.54, -1, 5.80303, 15.1389, 18.6598, 12.9834, 95.6247, -94.7022
1.544, -1, 5.70857, 15.0906, 18.6789, 12.9846, 95.5742, -94.8302
1.548, -1, 5.61414, 15.0423, 18.6979, 12.9858, 95.5237, -94.9581
1.552, -1, 5.51973, 14.9941, 18.717, 12.987, 95.4732, -95.086
1.556, -1, 5.42533, 14.9458, 18.736, 12.9882, 95.4228, -95.2139
1.56, -1, 5.33095, 14.8975, 18.7551, 12.9894, 95.3723, -95.3417
1.564, -1, 5.2366, 14.8493, 18.7741, 12.9906, 95.3219, -95.4695
1.568, -1, 5.14226, 14.801, 18.7931, 12.9919, 95.2714, -95.5973
1.572, -1, 5.04794, 14.7528, 18.8122, 12.9931, 95.221, -95.7251
1.576, -1, 4.95363, 14.7046, 18.8312, 12.9943, 95.1706, -95.8528
1.58, -1, 4.85935, 14.6564, 18.8502, 12.9955, 95.1201, -95.9805
1.584, -1, 4.76509, 14.6082, 18.8692, 12.9967, 95.0697, -96.1082
1.588, -1, 4.67084, 14.56, 18.8882, 12.9979, 95.0194, -96.2359
1.592, -1, 4.57662, 14.5118, 18.9072, 12.9991, 94.969, -96.3635
1.596, -1, 4.48241, 14.4636, 18.9262, 13.0003, 94.9186, -96.4911
1.6, -1, 4.38823, 14.4155, 18.9452, 13.0015, 94.8682, -96.6187
1.604, -1, 4.29406, 14.3673, 18.9642, 13.0028, 94.8179, -96.7463
1.608, -1, 4.19991, 14.3192, 18.9832, 13.004, 94.7676, -96.8738
1.612, -1, 4.10578, 14.2711, 19.0022, 13.0052, 94.7172, -97.0013
1.616, -1, 4.01168, 14.2229, 19.0212, 13.0064, 94.6669, -97.1288
1.62, -1, 3.91759, 14.1748, 19.0402, 13.0076, 94.6166, -97.2563
1.624, -1, 3.82352, 14.1267, 19.0592, 13.0088, 94.5663, -97.3837
1.628, -1, 3.72947, 14.0786, 19.0781, 13.01, 94.516, -97.5111
1.632, -1, 3.63544, 14.0306, 19.0971, 13.0112, 94.4657, -97.6385
1.636, -1, 3.54143, 13.9825, 19.1161, 13.0124, 94.4155, -97.7658
1.64, -1, 3.44744, 13.9344, 19.135, 13.0136, 94.3652, -97.8931
1.644, -1, 3.35347, 13.8864, 19.154, 13.0148, 94.315, -98.0204
1.648, -1, 3.25952, 13.8383, 19.173, 13.0161, 94.2647, -98.1477
1.652, -1, 3.16559, 13.7903, 19.1919, 13.0173, 94.2145, -98.2749
1.656, -1, 3.07169, 13.7423, 19.2109, 13.0185, 94.1643, -98.4021
1.66, -1, 2.9778, 13.6943, 19.2298, 13.0197, 94.1141, -98.5293
1.664, -1, 2.88393, 13.6463, 19.2487, 13.0209, 94.0639, -98.6564
1.668, -1, 2.79008, 13.5983, 19.2677, 13.0221, 94.0137, -98.7836
1.672, -1, 2.69625, 13.5503, 19.2866, 13.0233, 93.9636, -98.9107
1.676, -1, 2.60245, 13.5024, 19.3055, 13.0245, 93.9134, -99.0378
1.68, -1, 2.50866, 13.4544, 19.3244, 13.0257, 93.8633, -99.1648
1.684, -1, 2.41489, 13.4065, 19.3434, 13.0269, 93.8131, -99.2918
1.688, -1, 2.32115, 13.3585, 19.3623, 13.0281, 93.763, -99.4188
1.692, -1, 2.22742, 13.3106, 19.3812, 13.0293, 93.7129, -99.5458
1.696, -1, 2.13372, 13.2627, 19.4001, 13.0305, 93.6628, -99.6727
1.7, -1, 2.04004, 13.2148, 19.419, 13.0317, 93.6127, -99.7996
1.704, -1, 1.94637, 13.1669, 19.4379, 13.0329, 93.5626, -99.9265
1.708, -1, 1.85273, 13.119, 19.4568, 13.0341, 93.5126, -100.053
1.712, -1, 1.75911, 13.0711, 19.4757, 13.0353, 93.4625, -100.18
1.716, -1, 1.66551, 13.0233, 19.4945, 13.0365, 93.4125, -100.307
1.72, -1, 1.57193, 12.9754, 19.5134, 13.0377, 93.3624, -100.434
1.724, -1, 1.47838, 12.9276, 19.5323, 13.0389, 93.3124, -100.56
1.728, -1, 1.38484, 12.8797, 19.5512, 13.0401, 93.2624, -100.687
1.732, -1, 1.29132, 12.8319, 19.57, 13.0414, 93.2124, -100.814
1.736, -1, 1.19783, 12.7841, 19.5889, 13.0426, 93.1624, -100.94
1.74, -1, 1.10435, 12.7363, 19.6077, 13.0438, 93.1124, -101.067
1.744, -1, 1.0109, 12.6885, 19.6266, 13.045, 93.0625, -101.194
1.748, -1, 0.917468, 12.6408, 19.6454, 13.0462, 93.0125, -101.32
1.752, -1, 0.824057, 12.593, 19.6643, 13.0474, 92.9626, -101.447
1.756, -1, 0.730667, 12.5453, 19.6831, 13.0486, 92.9126, -101.573
1.76, -1, 0.637299, 12.4975, 19.702, 13.0498, 92.8627, -101.7
1.764, -1, 0.543952, 12.4498, 19.7208, 13.051, 92.8128, -101.826
1.768, -1, 0.450626, 12.4021, 19.7396, 13.0522, 92.7629, -101.953
1.772, -1, 0.357322, 12.3544, 19.7584, 13.0534, 92.713, -102.079
1.776, -1, 0.264039, 12.3067, 19.7773, 13.0546, 92.6631, -102.205
1.78, -1, 0.170777, 12.259, 19.7961, 13.0558, 92.6133, -102.332
1.784, -1, 0.0775366, 12.2113, 19.8149, 13.0569, 92.5634, -102.458
1.788, -1, -0.0156824, 12.1636, 19.8337, 13.0581, 92.5136, -102.584
1.792, -1, -0.10888, 12.116, 19.8525, 13.0593, 92.4637, -102.71
1.796, -1, -0.202056, 12.0683, 19.8713, 13.0605, 92.4139, -102.837
1.8, -1, -0.295211, 12.0207, 19.8901, 13.0617, 92.3641, -102.963
1.804, -1, -0.388344, 11.9731, 19.9089, 13.0629, 92.3143, -103.089
1.808, -1, -0.481456, 11.9255, 19.9277, 13.0641, 92.2645, -103.215
1.812, -1, -0.574546, 11.8779, 19.9464, 13.0653, 92.2148, -103.341
1.816, -1, -0.667615, 11.8303, 19.9652, 13.0665, 92.165, -103.467
1.82, -1, -0.760662, 11.7827, 19.984, 13.0677, 92.1152, -103.593
1.824, -1, -0.853688, 11.7351, 20.0028, 13.0689, 92.0655, -103.719
1.828, -1, -0.946692, 11.6876, 20.0215, 13.0701, 92.0158, -103.845
1.832, -1, -1.03967, 11.64, 20.0403, 13.0713, 91.9661, -103.971
1.836, -1, -1.13263, 11.5925, 20.059, 13.0725, 91.9164, -104.097
1.84, -1, -1.22557, 11.545, 20.0778, 13.0737, 91.8667, -104.223
1.844, -1, -1.31849, 11.4975, 20.0965, 13.0749, 91.817, -104.349
1.848, -1, -1.41138, 11.45, 20.1153, 13.0761, 91.7673, -104.475
1.852, -1, -1.50426, 11.4025, 20.134, 13.0773, 91.7177, -104.601
1.856, -1, -1.59711, 11.355, 20.1527, 13.0785, 91.668, -104.726
1.86, -1, -1.68994, 11.3075, 20.1715, 13.0797, 91.6184, -104.852
1.864, -1, -1.78275, 11.2601, 20.1902, 13.0809, 91.5688, -104.978
1.868, -1, -1.87553, 11.2126, 20.2089, 13.0821, 91.5192, -105.104
1.872, -1, -1.96829, 11.1652, 20.2276, 13.0832, 91.4696, -105.229
1.876, -1, -2.06103, 11.1178, 20.2463, 13.0844, 91.42, -105.355
1.88, -1, -2.15375, 11.0704, 20.265, 13.0856, 91.3704, -105.48
1.884, -1, -2.24645, 11.023, 20.2837, 13.0868, 91.3208, -105.606
1.888, -1, -2.33912, 10.9756, 20.3024, 13.088, 91.2713, -105.732
1.892, -1, -2.43178, 10.9282, 20.3211, 13.0892, 91.2217, -105.857
1.896, -1, -2.52441, 10.8808, 20.3398, 13.0904, 91.1722, -105.982
1.9, -1, -2.61701, 10.8335, 20.3585, 13.0916, 91.1227, -106.108
1.904, -1, -2.7096, 10.7862, 20.3772, 13.0928, 91.0732, -106.233
1.908, -1, -2.80216, 10.7388, 20.3958, 13.094, 91.0237, -106.359
1.912, -1, -2.8947, 10.6915, 20.4145, 13.0951, 90.9742, -106.484
1.916, -1, -2.98722, 10.6442, 20.4332, 13.0963, 90.9248, -106.609
1.92, -1, -3.07972, 10.5969, 20.4518, 13.0975, 90.8753, -106.735
1.924, -1, -3.17219, 10.5496, 20.4705, 13.0987, 90.8259, -106.86
1.928, -1, -3.26464, 10.5023, 20.4891, 13.0999, 90.7764, -106.985
1.932, -1, -3.35707, 10.4551, 20.5078, 13.1011, 90.727, -107.11
1.936, -1, -3.44948, 10.4078, 20.5264, 13.1023, 90.6776, -107.236
1.94, -1, -3.54186, 10.3606, 20.5451, 13.1035, 90.6282, -107.361
1.944, -1, -3.63422, 10.3134, 20.5637, 13.1047, 90.5788, -107.486
1.948, -1, -3.72656, 10.2662, 20.5823, 13.1058, 90.5295, -107.611
1.952, -1, -3.81887, 10.219, 20.6009, 13.107, 90.4801, -107.736
1.956, -1, -3.91117, 10.1718, 20.6196, 13.1082, 90.4308, -107.861
1.96, -1, -4.00344, 10.1246, 20.6382, 13.1094, 90.3814, -107.986
1.964, -1, -4.09568, 10.0774, 20.6568, 13.1106, 90.3321, -108.111
1.968, -1, -4.18791, 10.0303, 20.6754, 13.1118, 90.2828, -108.236
1.972, -1, -4.28011, 9.98312, 20.694, 13.113, 90.2335, -108.361
1.976, -1, -4.37229, 9.93599, 20.7126, 13.1141, 90.1842, -108.486
1.98, -1, -4.46444, 9.88887, 20.7312, 13.1153, 90.1349, -108.61
1.984, -1, -4.55657, 9.84176, 20.7498, 13.1165, 90.0857, -108.735
1.988, -1, -4.64868, 9.79466, 20.7684, 13.1177, 90.0364, -108.86
1.992, -1, -4.74077, 9.74757, 20.7869, 13.1189, 89.9872, -108.985
1.996, -1, -4.83283, 9.7005, 20.8055, 13.1201, 89.938, -109.109
1.999, -1, -4.92487, 9.65344, 20.8241, 13.1212, 89.8888, -109.234
2.004, -1, -5.01689, 9.60639, 20.8426, 13.1224, 89.8396, -109.359
2.008, -1, -5.10888, 9.55935, 20.8612, 13.1236, 89.7904, -109.483
2.012, -1, -5.20085, 9.51232, 20.8797, 13.1248, 89.7412, -109.608
2.015, -1, -5.2928, 9.46531, 20.8983, 13.126, 89.692, -109.732
2.019, -1, -5.38472, 9.4183, 20.9168, 13.1271, 89.6429, -109.857
2.024, -1, -5.47662, 9.37131, 20.9354, 13.1283, 89.5938, -109.981
2.028, -1, -5.5685, 9.32433, 20.9539, 13.1295, 89.5446, -110.106
2.031, -1, -5.66036, 9.27737, 20.9724, 13.1307, 89.4955, -110.23
2.036, -1, -5.75219, 9.23041, 20.991, 13.1319, 89.4464, -110.355
2.04, -1, -5.844, 9.18347, 21.0095, 13.1331, 89.3973, -110.479
2.044, -1, -5.93578, 9.13654, 21.028, 13.1342, 89.3483, -110.603
2.048, -1, -6.02754, 9.08962, 21.0465, 13.1354, 89.2992, -110.728
2.051, -1, -6.11928, 9.04271, 21.065, 13.1366, 89.2502, -110.852
2.055, -1, -6.21099, 8.99582, 21.0835, 13.1378, 89.2011, -110.976
2.06, -1, -6.30268, 8.94893, 21.102, 13.1389, 89.1521, -111.1
2.064, -1, -6.39435, 8.90206, 21.1205, 13.1401, 89.1031, -111.225
2.068, -1, -6.48599, 8.8552, 21.139, 13.1413, 89.0541, -111.349
2.071, -1, -6.57761, 8.80836, 21.1575, 13.1425, 89.0051, -111.473
2.076, -1, -6.66921, 8.76152, 21.176, 13.1437, 88.9561, -111.597
2.08, -1, -6.76078, 8.7147, 21.1944, 13.1448, 88.9072, -111.721
2.084, -1, -6.85233, 8.66789, 21.2129, 13.146, 88.8582, -111.845
2.087, -1, -6.94386, 8.62109, 21.2314, 13.1472, 88.8093, -111.969
2.092, -1, -7.03536, 8.5743, 21.2498, 13.1484, 88.7604, -112.093
2.096, -1, -7.12684, 8.52753, 21.2683, 13.1495, 88.7114, -112.217
2.1, -1, -7.21829, 8.48076, 21.2867, 13.1507, 88.6626, -112.341
2.104, -1, -7.30973, 8.43401, 21.3052, 13.1519, 88.6137, -112.465
2.107, -1, -7.40114, 8.38727, 21.3236, 13.1531, 88.5648, -112.588
2.111, -1, -7.49252, 8.34055, 21.3421, 13.1542, 88.5159, -112.712
2.116, -1, -7.58388, 8.29383, 21.3605, 13.1554, 88.4671, -112.836
2.12, -1, -7.67522, 8.24713, 21.3789, 13.1566, 88.4182, -112.96
2.124, -1, -7.76654, 8.20044, 21.3973, 13.1578, 88.3694, -113.083
2.127, -1, -7.85783, 8.15376, 21.4157, 13.1589, 88.3206, -113.207
2.132, -1, -7.9491, 8.10709, 21.4342, 13.1601, 88.2718, -113.331
2.136, -1, -8.04034, 8.06044, 21.4526, 13.1613, 88.223, -113.454
2.14, -1, -8.13156, 8.0138, 21.471, 13.1624, 88.1743, -113.578
2.143, -1, -8.22276, 7.96717, 21.4894, 13.1636, 88.1255, -113.701
2.148, -1, -8.31393, 7.92055, 21.5078, 13.1648, 88.0768, -113.825
2.152, -1, -8.40508, 7.87394, 21.5261, 13.166, 88.028, -113.948
2.156, -1, -8.49621, 7.82735, 21.5445, 13.1671, 87.9793, -114.072
2.16, -1, -8.58732, 7.78076, 21.5629, 13.1683, 87.9306, -114.195
2.163, -1, -8.6784, 7.73419, 21.5813, 13.1695, 87.8819, -114.318
2.168, -1, -8.76945, 7.68763, 21.5997, 13.1706, 87.8332, -114.442
2.172, -1, -8.86049, 7.64108, 21.618, 13.1718, 87.7845, -114.565
2.176, -1, -8.9515, 7.59455, 21.6364, 13.173, 87.7359, -114.688
2.179, -1, -9.04248, 7.54803, 21.6547, 13.1742, 87.6872, -114.812
2.184, -1, -9.13345, 7.50152, 21.6731, 13.1753, 87.6386, -114.935
2.188, -1, -9.22439, 7.45502, 21.6914, 13.1765, 87.59, -115.058
2.192, -1, -9.3153, 7.40853, 21.7098, 13.1777, 87.5414, -115.181
2.196, -1, -9.4062, 7.36205, 21.7281, 13.1788, 87.4928, -115.304
2.199, -1, -9.49707, 7.31559, 21.7464, 13.18, 87.4442, -115.427
2.204, -1, -9.58791, 7.26914, 21.7648, 13.1812, 87.3956, -115.55
2.208, -1, -9.67874, 7.2227, 21.7831, 13.1823, 87.3471, -115.673
2.212, -1, -9.76953, 7.17627, 21.8014, 13.1835, 87.2985, -115.796
2.216, -1, -9.86031, 7.12986, 21.8197, 13.1847, 87.25, -115.919
2.219, -1, -9.95106, 7.08346, 21.838, 13.1858, 87.2014, -116.042
2.224, -1, -10.0418, 7.03706, 21.8563, 13.187, 87.1529, -116.165
2.228, -1, -10.1325, 6.99068, 21.8746, 13.1882, 87.1044, -116.288
2.232, -1, -10.2232, 6.94432, 21.8929, 13.1893, 87.0559, -116.411
2.235, -1, -10.3138, 6.89796, 21.9112, 13.1905, 87.0075, -116.534
2.24, -1, -10.4045, 6.85162, 21.9295, 13.1917, 86.959, -116.656
2.244, -1, -10.4951, 6.80529, 21.9478, 13.1928, 86.9106, -116.779
2.248, -1, -10.5857, 6.75897, 21.966, 13.194, 86.8621, -116.902
2.252, -1, -10.6762, 6.71266, 21.9843, 13.1952, 86.8137, -117.025
2.255, -1, -10.7668, 6.66637, 22.0026, 13.1963, 86.7653, -117.147
2.259, -1, -10.8573, 6.62009, 22.0208, 13.1975, 86.7169, -117.27
2.264, -1, -10.9478, 6.57382, 22.0391, 13.1986, 86.6685, -117.392
2.268, -1, -11.0382, 6.52756, 22.0574, 13.1998, 86.6202, -117.515
2.272, -1, -11.1287, 6.48131, 22.0756, 13.201, 86.5718, -117.637
2.275, -1, -11.2191, 6.43508, 22.0938, 13.2021, 86.5235, -117.76
2.28, -1, -11.3095, 6.38885, 22.1121, 13.2033, 86.4751, -117.882
2.284, -1, -11.3999, 6.34264, 22.1303, 13.2045, 86.4268, -118.005
2.288, -1, -11.4902, 6.29645, 22.1485, 13.2056, 86.3785, -118.127
2.291, -1, -11.5806, 6.25026, 22.1668, 13.2068, 86.3302, -118.25
2.296, -1, -11.6709, 6.20409, 22.185, 13.2079, 86.2819, -118.372
2.3, -1, -11.7612, 6.15792, 22.2032, 13.2091, 86.2337, -118.494
2.304, -1, -11.8514, 6.11177, 22.2214, 13.2103, 86.1854, -118.616
2.308, -1, -11.9416, 6.06564, 22.2396, 13.2114, 86.1371, -118.739
2.311, -1, -12.0318, 6.01951, 22.2578, 13.2126, 86.0889, -118.861
2.316, -1, -12.122, 5.9734, 22.276, 13.2137, 86.0407, -118.983
2.32, -1, -12.2122, 5.9273, 22.2942, 13.2149, 85.9925, -119.105
2.324, -1, -12.3023, 5.88121, 22.3124, 13.2161, 85.9443, -119.227
2.328, -1, -12.3924, 5.83513, 22.3305, 13.2172, 85.8961, -119.349
2.331, -1, -12.4825, 5.78907, 22.3487, 13.2184, 85.848, -119.471
2.336, -1, -12.5726, 5.74301, 22.3669, 13.2195, 85.7998, -119.593
2.34, -1, -12.6626, 5.69697, 22.385, 13.2207, 85.7516, -119.715
2.344, -1, -12.7527, 5.65094, 22.4032, 13.2218, 85.7035, -119.837
2.347, -1, -12.8427, 5.60493, 22.4214, 13.223, 85.6554, -119.959
2.352, -1, -12.9326, 5.55892, 22.4395, 13.2242, 85.6073, -120.081
2.356, -1, -13.0226, 5.51293, 22.4577, 13.2253, 85.5592, -120.203
2.36, -1, -13.1125, 5.46695, 22.4758, 13.2265, 85.5111, -120.325
2.364, -1, -13.2024, 5.42098, 22.4939, 13.2276, 85.4631, -120.446
2.367, -1, -13.2923, 5.37503, 22.5121, 13.2288, 85.415, -120.568
2.372, -1, -13.3821, 5.32908, 22.5302, 13.2299, 85.367, -120.69
2.376, -1, -13.472, 5.28315, 22.5483, 13.2311, 85.3189, -120.812
2.38, -1, -13.5618, 5.23723, 22.5664, 13.2322, 85.2709, -120.933
2.383, -1, -13.6516, 5.19133, 22.5845, 13.2334, 85.2229, -121.055
2.388, -1, -13.7413, 5.14543, 22.6027, 13.2345, 85.1749, -121.176
2.392, -1, -13.831, 5.09955, 22.6208, 13.2357, 85.127, -121.298
2.396, -1, -13.9208, 5.05368, 22.6389, 13.2369, 85.079, -121.419
2.4, -1, -14.0104, 5.00782, 22.6569, 13.238, 85.031, -121.541
2.403, -1, -14.1001, 4.96198, 22.675, 13.2392, 84.9831, -121.662
2.408, -1, -14.1897, 4.91614, 22.6931, 13.2403, 84.9352, -121.784
2.412, -1, -14.2794, 4.87032, 22.7112, 13.2415, 84.8873, -121.905
2.416, -1, -14.3689, 4.82451, 22.7293, 13.2426, 84.8394, -122.027
2.42, -1, -14.4585, 4.77871, 22.7473, 13.2438, 84.7915, -122.148
2.423, -1, -14.5481, 4.73293, 22.7654, 13.2449, 84.7436, -122.269
2.428, -1, -14.6376, 4.68716, 22.7835, 13.2461, 84.6957, -122.39
2.432, -1, -14.7271, 4.6414, 22.8015, 13.2472, 84.6479, -122.512
2.436, -1, -14.8165, 4.59565, 22.8196, 13.2484, 84.6, -122.633
2.439, -1, -14.906, 4.54991, 22.8376, 13.2495, 84.5522, -122.754
2.444, -1, -14.9954, 4.50419, 22.8557, 13.2507, 84.5044, -122.875
2.448, -1, -15.0848, 4.45847, 22.8737, 13.2518, 84.4566, -122.996
2.452, -1, -15.1742, 4.41277, 22.8917, 13.253, 84.4088, -123.117
2.456, -1, -15.2635, 4.36709, 22.9097, 13.2541, 84.3611, -123.238
2.459, -1, -15.3529, 4.32141, 22.9278, 13.2553, 84.3133, -123.359
2.464, -1, -15.4422, 4.27575, 22.9458, 13.2564, 84.2655, -123.48
2.468, -1, -15.5315, 4.23009, 22.9638, 13.2576, 84.2178, -123.601
2.472, -1, -15.6207, 4.18446, 22.9818, 13.2587, 84.1701, -123.722
2.476, -1, -15.71, 4.13883, 22.9998, 13.2598, 84.1224, -123.843
2.479, -1, -15.7992, 4.09321, 23.0178, 13.261, 84.0747, -123.964
2.484, -1, -15.8884, 4.04761, 23.0358, 13.2621, 84.027, -124.085
2.488, -1, -15.9775, 4.00202, 23.0538, 13.2633, 83.9793, -124.205
2.492, -1, -16.0667, 3.95644, 23.0718, 13.2644, 83.9317, -124.326
2.495, -1, -16.1558, 3.91087, 23.0897, 13.2656, 83.884, -124.447
2.5, -1, -16.2449, 3.86531, 23.1077, 13.2667, 83.8364, -124.568
2.504, -1, -16.334, 3.81977, 23.1257, 13.2679, 83.7888, -124.688
2.508, -1, -16.423, 3.77424, 23.1436, 13.269, 83.7411, -124.809
2.512, -1, -16.512, 3.72872, 23.1616, 13.2702, 83.6935, -124.929
2.515, -1, -16.601, 3.68321, 23.1796, 13.2713, 83.646, -125.05
2.52, -1, -16.69, 3.63772, 23.1975, 13.2724, 83.5984, -125.171
2.524, -1, -16.779, 3.59223, 23.2155, 13.2736, 83.5508, -125.291
2.528, -1, -16.8679, 3.54676, 23.2334, 13.2747, 83.5033, -125.412
2.531, -1, -16.9568, 3.5013, 23.2513, 13.2759, 83.4557, -125.532
2.536, -1, -17.0457, 3.45585, 23.2693, 13.277, 83.4082, -125.652
2.54, -1, -17.1346, 3.41041, 23.2872, 13.2782, 83.3607, -125.773
2.544, -1, -17.2234, 3.36499, 23.3051, 13.2793, 83.3132, -125.893
2.548, -1, -17.3122, 3.31957, 23.323, 13.2804, 83.2657, -126.013
2.551, -1, -17.401, 3.27417, 23.3409, 13.2816, 83.2182, -126.134
2.556, -1, -17.4898, 3.22878, 23.3588, 13.2827, 83.1708, -126.254
2.56, -1, -17.5785, 3.1834, 23.3768, 13.2839, 83.1233, -126.374
2.564, -1, -17.6672, 3.13804, 23.3946, 13.285, 83.0759, -126.494
2.568, -1, -17.7559, 3.09268, 23.4125, 13.2861, 83.0285, -126.614
2.571, -1, -17.8446, 3.04734, 23.4304, 13.2873, 82.981, -126.735
2.576, -1, -17.9333, 3.00201, 23.4483, 13.2884, 82.9336, -126.855
2.58, -1, -18.0219, 2.95669, 23.4662, 13.2896, 82.8863, -126.975
2.584, -1, -18.1105, 2.91138, 23.4841, 13.2907, 82.8389, -127.095
2.587, -1, -18.1991, 2.86608, 23.5019, 13.2918, 82.7915, -127.215
2.592, -1, -18.2877, 2.8208, 23.5198, 13.293, 82.7442, -127.335
2.596, -1, -18.3762, 2.77553, 23.5377, 13.2941, 82.6968, -127.455
2.6, -1, -18.4647, 2.73027, 23.5555, 13.2952, 82.6495, -127.575
2.604, -1, -18.5532, 2.68502, 23.5734, 13.2964, 82.6022, -127.694
2.607, -1, -18.6417, 2.63978, 23.5912, 13.2975, 82.5549, -127.814
2.612, -1, -18.7301, 2.59456, 23.6091, 13.2987, 82.5076, -127.934
2.616, -1, -18.8186, 2.54935, 23.6269, 13.2998, 82.4603, -128.054
2.62, -1, -18.907, 2.50414, 23.6447, 13.3009, 82.4131, -128.174
2.624, -1, -18.9954, 2.45895, 23.6626, 13.3021, 82.3658, -128.293
2.627, -1, -19.0837, 2.41377, 23.6804, 13.3032, 82.3186, -128.413
2.632, -1, -19.1721, 2.3686, 23.6982, 13.3043, 82.2713, -128.533
2.636, -1, -19.2604, 2.32345, 23.716, 13.3055, 82.2241, -128.652
2.64, -1, -19.3487, 2.2783, 23.7338, 13.3066, 82.1769, -128.772
2.643, -1, -19.4369, 2.23317, 23.7517, 13.3077, 82.1297, -128.891
2.648, -1, -19.5252, 2.18805, 23.7695, 13.3089, 82.0825, -129.011
2.652, -1, -19.6134, 2.14294, 23.7873, 13.31, 82.0354, -129.13
2.656, -1, -19.7016, 2.09784, 23.805, 13.3111, 81.9882, -129.25
2.66, -1, -19.7898, 2.05275, 23.8228, 13.3123, 81.9411, -129.369
2.663, -1, -19.8779, 2.00768, 23.8406, 13.3134, 81.8939, -129.489
2.668, -1, -19.966, 1.96261, 23.8584, 13.3145, 81.8468, -129.608
2.672, -1, -20.0542, 1.91756, 23.8762, 13.3157, 81.7997, -129.727
2.676, -1, -20.1422, 1.87252, 23.8939, 13.3168, 81.7526, -129.847
2.679, -1, -20.2303, 1.8275, 23.9117, 13.3179, 81.7055, -129.966
2.684, -1, -20.3183, 1.78248, 23.9295, 13.3191, 81.6584, -130.085
2.688, -1, -20.4064, 1.73748, 23.9472, 13.3202, 81.6114, -130.205
2.692, -1, -20.4943, 1.69248, 23.965, 13.3213, 81.5643, -130.324
2.696, -1, -20.5823, 1.6475, 23.9827, 13.3225, 81.5173, -130.443
2.699, -1, -20.6703, 1.60253, 24.0005, 13.3236, 81.4703, -130.562
2.704, -1, -20.7582, 1.55758, 24.0182, 13.3247, 81.4233, -130.681
2.708, -1, -20.8461, 1.51263, 24.0359, 13.3259, 81.3763, -130.8
2.712, -1, -20.934, 1.46769, 24.0537, 13.327, 81.3293, -130.919
2.716, -1, -21.0218, 1.42277, 24.0714, 13.3281, 81.2823, -131.038
2.719, -1, -21.1097, 1.37786, 24.0891, 13.3292, 81.2354, -131.157
2.724, -1, -21.1975, 1.33296, 24.1068, 13.3304, 81.1884, -131.276
2.728, -1, -21.2853, 1.28807, 24.1245, 13.3315, 81.1415, -131.395
2.732, -1, -21.373, 1.24319, 24.1422, 13.3326, 81.0945, -131.514
2.735, -1, -21.4608, 1.19833, 24.1599, 13.3338, 81.0476, -131.633
2.74, -1, -21.5485, 1.15347, 24.1776, 13.3349, 81.0007, -131.752
2.744, -1, -21.6362, 1.10863, 24.1953, 13.336, 80.9538, -131.87
2.748, -1, -21.7239, 1.0638, 24.213, 13.3371, 80.907, -131.989
2.752, -1, -21.8115, 1.01898, 24.2307, 13.3383, 80.8601, -132.108
2.755, -1, -21.8992, 0.974168, 24.2484, 13.3394, 80.8132, -132.227
2.76, -1, -21.9868, 0.929371, 24.2661, 13.3405, 80.7664, -132.345
2.764, -1, -22.0744, 0.884586, 24.2837, 13.3416, 80.7196, -132.464
2.768, -1, -22.1619, 0.839812, 24.3014, 13.3428, 80.6727, -132.583
2.772, -1, -22.2495, 0.795049, 24.3191, 13.3439, 80.6259, -132.701
2.775, -1, -22.337, 0.750298, 24.3367, 13.345, 80.5791, -132.82
2.78, -1, -22.4245, 0.705558, 24.3544, 13.3461, 80.5324, -132.938
2.784, -1, -22.512, 0.66083, 24.372, 13.3473, 80.4856, -133.057
2.788, -1, -22.5994, 0.616113, 24.3896, 13.3484, 80.4388, -133.175
2.791, -1, -22.6869, 0.571408, 24.4073, 13.3495, 80.3921, -133.294
2.796, -1, -22.7743, 0.526714, 24.4249, 13.3506, 80.3453, -133.412
2.8, -1, -22.8617, 0.482032, 24.4425, 13.3518, 80.2986, -133.53
2.804, -1, -22.949, 0.437361, 24.4602, 13.3529, 80.2519, -133.649
2.808, -1, -23.0364, 0.392701, 24.4778, 13.354, 80.2052, -133.767
2.811, -1, -23.1237, 0.348053, 24.4954, 13.3551, 80.1585, -133.885
2.816, -1, -23.211, 0.303416, 24.513, 13.3562, 80.1119, -134.004
2.82, -1, -23.2983, 0.25879, 24.5306, 13.3574, 80.0652, -134.122
2.824, -1, -23.3855, 0.214176, 24.5482, 13.3585, 80.0185, -134.24
2.828, -1, -23.4727, 0.169573, 24.5658, 13.3596, 79.9719, -134.358
2.831, -1, -23.56, 0.124981, 24.5834, 13.3607, 79.9253, -134.476
2.836, -1, -23.6471, 0.0804004, 24.601, 13.3618, 79.8787, -134.594
2.84, -1, -23.7343, 0.0358311, 24.6186, 13.363, 79.8321, -134.712
2.844, -1, -23.8215, -0.00872699, 24.6362, 13.3641, 79.7855, -134.83
2.847, -1, -23.9086, -0.0532739, 24.6537, 13.3652, 79.7389, -134.948
2.852, -1, -23.9957, -0.0978096, 24.6713, 13.3663, 79.6923, -135.066
2.856, -1, -24.0828, -0.142334, 24.6889, 13.3674, 79.6458, -135.184
2.86, -1, -24.1698, -0.186848, 24.7064, 13.3686, 79.5992, -135.302
2.864, -1, -24.2568, -0.23135, 24.724, 13.3697, 79.5527, -135.42
2.867, -1, -24.3439, -0.275841, 24.7416, 13.3708, 79.5062, -135.538
2.872, -1, -24.4309, -0.320322, 24.7591, 13.3719, 79.4596, -135.656
2.876, -1, -24.5178, -0.364791, 24.7767, 13.373, 79.4131, -135.774
2.88, -1, -24.6048, -0.409249, 24.7942, 13.3742, 79.3667, -135.891
2.883, -1, -24.6917, -0.453697, 24.8117, 13.3753, 79.3202, -136.009
2.888, -1, -24.7786, -0.498133, 24.8293, 13.3764, 79.2737, -136.127
2.892, -1, -24.8655, -0.542559, 24.8468, 13.3775, 79.2273, -136.245
2.896, -1, -24.9524, -0.586973, 24.8643, 13.3786, 79.1808, -136.362
2.9, -1, -25.0392, -0.631377, 24.8818, 13.3797, 79.1344, -136.48
2.903, -1, -25.126, -0.67577, 24.8993, 13.3809, 79.088, -136.598
2.908, -1, -25.2128, -0.720152, 24.9169, 13.382, 79.0416, -136.715
2.912, -1, -25.2996, -0.764524, 24.9344, 13.3831, 78.9952, -136.833
2.916, -1, -25.3864, -0.808884, 24.9519, 13.3842, 78.9488, -136.95
2.92, -1, -25.4731, -0.853234, 24.9694, 13.3853, 78.9024, -137.068
2.923, -1, -25.5598, -0.897573, 24.9869, 13.3864, 78.856, -137.185
2.928, -1, -25.6465, -0.941901, 25.0043, 13.3875, 78.8097, -137.303
2.932, -1, -25.7332, -0.986219, 25.0218, 13.3887, 78.7634, -137.42
2.936, -1, -25.8198, -1.03053, 25.0393, 13.3898, 78.717, -137.537
2.939, -1, -25.9065, -1.07482, 25.0568, 13.3909, 78.6707, -137.655
2.944, -1, -25.9931, -1.11911, 25.0743, 13.392, 78.6244, -137.772
2.948, -1, -26.0797, -1.16338, 25.0917, 13.3931, 78.5781, -137.889
2.952, -1, -26.1662, -1.20765, 25.1092, 13.3942, 78.5318, -138.007
2.956, -1, -26.2528, -1.2519, 25.1267, 13.3953, 78.4855, -138.124
2.959, -1, -26.3393, -1.29614, 25.1441, 13.3964, 78.4393, -138.241
2.964, -1, -26.4258, -1.34037, 25.1616, 13.3976, 78.393, -138.358
2.968, -1, -26.5123, -1.38459, 25.179, 13.3987, 78.3468, -138.475
2.972, -1, -26.5987, -1.42881, 25.1964, 13.3998, 78.3006, -138.592
2.976, -1, -26.6852, -1.47301, 25.2139, 13.4009, 78.2543, -138.71
2.98, -1, -26.7716, -1.51719, 25.2313, 13.402, 78.2081, -138.827
2.984, -1, -26.858, -1.56137, 25.2488, 13.4031, 78.1619, -138.944
2.988, -1, -26.9444, -1.60554, 25.2662, 13.4042, 78.1158, -139.061
2.992, -1, -27.0308, -1.6497, 25.2836, 13.4053, 78.0696, -139.178
2.995, -1, -27.1171, -1.69385, 25.301, 13.4064, 78.0234, -139.295
3, -1, -27.2034, -1.73798, 25.3184, 13.4076, 77.9773, -139.411
3.004, -1, -27.2897, -1.78211, 25.3358, 13.4087, 77.9311, -139.528
3.008, -1, -27.376, -1.82623, 25.3532, 13.4098, 77.885, -139.645
3.012, -1, -27.4622, -1.87033, 25.3706, 13.4109, 77.8389, -139.762
3.015, -1, -27.5485, -1.91443, 25.388, 13.412, 77.7928, -139.879
3.02, -1, -27.6347, -1.95851, 25.4054, 13.4131, 77.7467, -139.996
3.024, -1, -27.7209, -2.00258, 25.4228, 13.4142, 77.7006, -140.112
3.028, -1, -27.8071, -2.04665, 25.4402, 13.4153, 77.6545, -140.229
3.031, -1, -27.8932, -2.0907, 25.4576, 13.4164, 77.6085, -140.346
3.036, -1, -27.9794, -2.13474, 25.475, 13.4175, 77.5624, -140.463
3.04, -1, -28.0655, -2.17877, 25.4923, 13.4186, 77.5163, -140.579
3.044, -1, -28.1516, -2.2228, 25.5097, 13.4197, 77.4703, -140.696
3.048, -1, -28.2376, -2.26681, 25.5271, 13.4208, 77.4243, -140.812
3.051, -1, -28.3237, -2.31081, 25.5444, 13.4219, 77.3783, -140.929
3.056, -1, -28.4097, -2.3548, 25.5618, 13.4231, 77.3323, -141.045
3.06, -1, -28.4957, -2.39878, 25.5791, 13.4242, 77.2863, -141.162
3.064, -1, -28.5817, -2.44275, 25.5965, 13.4253, 77.2403, -141.278
3.068, -1, -28.6677, -2.48671, 25.6138, 13.4264, 77.1944, -141.395
3.071, -1, -28.7537, -2.53066, 25.6312, 13.4275, 77.1484, -141.511
3.076, -1, -28.8396, -2.57459, 25.6485, 13.4286, 77.1025, -141.628
3.08, -1, -28.9255, -2.61852, 25.6658, 13.4297, 77.0565, -141.744
3.084, -1, -29.0114, -2.66244, 25.6832, 13.4308, 77.0106, -141.86
3.087, -1, -29.0973, -2.70635, 25.7005, 13.4319, 76.9647, -141.977
3.092, -1, -29.1831, -2.75025, 25.7178, 13.433, 76.9188, -142.093
3.096, -1, -29.269, -2.79413, 25.7351, 13.4341, 76.8729, -142.209
3.1, -1, -29.3548, -2.83801, 25.7524, 13.4352, 76.827, -142.326
3.104, -1, -29.4406, -2.88188, 25.7697, 13.4363, 76.7812, -142.442
3.107, -1, -29.5263, -2.92573, 25.787, 13.4374, 76.7353, -142.558
3.112, -1, -29.6121, -2.96958, 25.8043, 13.4385, 76.6894, -142.674
3.116, -1, -29.6978, -3.01342, 25.8216, 13.4396, 76.6436, -142.79
3.12, -1, -29.7835, -3.05724, 25.8389, 13.4407, 76.5978, -142.906
3.124, -1, -29.8692, -3.10106, 25.8562, 13.4418, 76.552, -143.022
3.128, -1, -29.9549, -3.14487, 25.8735, 13.4429, 76.5062, -143.138
3.132, -1, -30.0405, -3.18866, 25.8908, 13.444, 76.4604, -143.255
3.136, -1, -30.1262, -3.23245, 25.9081, 13.4451, 76.4146, -143.37
3.14, -1, -30.2118, -3.27622, 25.9253, 13.4462, 76.3688, -143.486
3.143, -1, -30.2974, -3.31999, 25.9426, 13.4473, 76.323, -143.602
3.148, -1, -30.3829, -3.36374, 25.9599, 13.4484, 76.2773, -143.718
3.152, -1, -30.4685, -3.40749, 25.9771, 13.4495, 76.2316, -143.834
3.156, -1, -30.554, -3.45122, 25.9944, 13.4506, 76.1858, -143.95
3.16, -1, -30.6395, -3.49495, 26.0116, 13.4517, 76.1401, -144.066
3.163, -1, -30.725, -3.53866, 26.0289, 13.4528, 76.0944, -144.182
3.168, -1, -30.8105, -3.58237, 26.0461, 13.4539, 76.0487, -144.297
3.172, -1, -30.896, -3.62606, 26.0634, 13.455, 76.003, -144.413
3.176, -1, -30.9814, -3.66974, 26.0806, 13.4561, 75.9573, -144.529
3.179, -1, -31.0668, -3.71342, 26.0978, 13.4572, 75.9117, -144.645
3.184, -1, -31.1522, -3.75708, 26.115, 13.4583, 75.866, -144.76
3.188, -1, -31.2376, -3.80074, 26.1323, 13.4594, 75.8203, -144.876
3.192, -1, -31.3229, -3.84438, 26.1495, 13.4605, 75.7747, -144.992
3.196, -1, -31.4083, -3.88802, 26.1667, 13.4616, 75.7291, -145.107
3.199, -1, -31.4936, -3.93164, 26.1839, 13.4627, 75.6835, -145.223
3.204, -1, -31.5789, -3.97526, 26.2011, 13.4638, 75.6379, -145.338
3.208, -1, -31.6642, -4.01886, 26.2183, 13.4649, 75.5923, -145.454
3.212, -1, -31.7494, -4.06246, 26.2355, 13.466, 75.5467, -145.569
3.216, -1, -31.8347, -4.10604, 26.2527, 13.4671, 75.5011, -145.685
3.22, -1, -31.9199, -4.14962, 26.2699, 13.4682, 75.4555, -145.8
3.224, -1, -32.0051, -4.19318, 26.2871, 13.4693, 75.41, -145.916
3.228, -1, -32.0903, -4.23674, 26.3043, 13.4704, 75.3644, -146.031
3.232, -1, -32.1754, -4.28029, 26.3215, 13.4714, 75.3189, -146.146
3.235, -1, -32.2606, -4.32382, 26.3386, 13.4725, 75.2734, -146.262
3.24, -1, -32.3457, -4.36735, 26.3558, 13.4736, 75.2279, -146.377
3.244, -1, -32.4308, -4.41087, 26.373, 13.4747, 75.1824, -146.492
3.248, -1, -32.5159, -4.45437, 26.3902, 13.4758, 75.1369, -146.608
3.252, -1, -32.601, -4.49787, 26.4073, 13.4769, 75.0914, -146.723
3.255, -1, -32.686, -4.54136, 26.4245, 13.478, 75.0459, -146.838
3.26, -1, -32.7711, -4.58484, 26.4416, 13.4791, 75.0005, -146.953
3.264, -1, -32.8561, -4.62831, 26.4588, 13.4802, 74.955, -147.068
3.268, -1, -32.9411, -4.67177, 26.4759, 13.4813, 74.9096, -147.183
3.272, -1, -33.0261, -4.71522, 26.4931, 13.4824, 74.8641, -147.299
3.276, -1, -33.111, -4.75866, 26.5102, 13.4835, 74.8187, -147.414
3.28, -1, -33.196, -4.80209, 26.5273, 13.4846, 74.7733, -147.529
3.284, -1, -33.2809, -4.84552, 26.5445, 13.4857, 74.7279, -147.644
3.288, -1, -33.3658, -4.88893, 26.5616, 13.4867, 74.6825, -147.759
3.291, -1, -33.4507, -4.93233, 26.5787, 13.4878, 74.6371, -147.874
3.296, -1, -33.5355, -4.97573, 26.5958, 13.4889, 74.5917, -147.989
3.3, -1, -33.6204, -5.01911, 26.613, 13.49, 74.5464, -148.104
3.304, -1, -33.7052, -5.06249, 26.6301, 13.4911, 74.501, -148.218
3.308, -1, -33.79, -5.10586, 26.6472, 13.4922, 74.4557, -148.333
3.312, -1, -33.8748, -5.14922, 26.6643, 13.4933, 74.4103, -148.448
3.316, -1, -33.9596, -5.19256, 26.6814, 13.4944, 74.365, -148.563
3.32, -1, -34.0444, -5.2359, 26.6985, 13.4955, 74.3197, -148.678
3.324, -1, -34.1291, -5.27923, 26.7156, 13.4966, 74.2744, -148.793
3.328, -1, -34.2138, -5.32256, 26.7327, 13.4976, 74.2291, -148.907
3.332, -1, -34.2985, -5.36587, 26.7498, 13.4987, 74.1838, -149.022
3.336, -1, -34.3832, -5.40917, 26.7669, 13.4998, 74.1385, -149.137
3.34, -1, -34.4679, -5.45246, 26.7839, 13.5009, 74.0932, -149.252
3.344, -1, -34.5526, -5.49575, 26.801, 13.502, 74.048, -149.366
3.347, -1, -34.6372, -5.53903, 26.8181, 13.5031, 74.0027, -149.481
3.352, -1, -34.7218, -5.58229, 26.8352, 13.5042, 73.9575, -149.595
3.356, -1, -34.8064, -5.62555, 26.8522, 13.5053, 73.9122, -149.71
3.36, -1, -34.891, -5.6688, 26.8693, 13.5063, 73.867, -149.825
3.364, -1, -34.9755, -5.71204, 26.8864, 13.5074, 73.8218, -149.939
3.368, -1, -35.0601, -5.75527, 26.9034, 13.5085, 73.7766, -150.054
3.372, -1, -35.1446, -5.79849, 26.9205, 13.5096, 73.7314, -150.168
3.376, -1, -35.2291, -5.8417, 26.9375, 13.5107, 73.6862, -150.283
3.38, -1, -35.3136, -5.88491, 26.9546, 13.5118, 73.641, -150.397
3.383, -1, -35.3981, -5.9281, 26.9716, 13.5129, 73.5959, -150.512
3.388, -1, -35.4826, -5.97129, 26.9886, 13.5139, 73.5507, -150.626
3.392, -1, -35.567, -6.01447, 27.0057, 13.515, 73.5056, -150.74
3.396, -1, -35.6514, -6.05764, 27.0227, 13.5161, 73.4604, -150.855
3.4, -1, -35.7358, -6.10079, 27.0397, 13.5172, 73.4153, -150.969
3.403, -1, -35.8202, -6.14395, 27.0568, 13.5183, 73.3702, -151.083
3.408, -1, -35.9046, -6.18709, 27.0738, 13.5194, 73.3251, -151.198
3.412, -1, -35.989, -6.23022, 27.0908, 13.5205, 73.28, -151.312
3.416, -1, -36.0733, -6.27334, 27.1078, 13.5215, 73.2349, -151.426
3.42, -1, -36.1576, -6.31646, 27.1248, 13.5226, 73.1898, -151.54
3.424, -1, -36.2419, -6.35957, 27.1418, 13.5237, 73.1447, -151.655
3.428, -1, -36.3262, -6.40267, 27.1588, 13.5248, 73.0996, -151.769
3.432, -1, -36.4105, -6.44575, 27.1758, 13.5259, 73.0546, -151.883
3.436, -1, -36.4947, -6.48883, 27.1928, 13.527, 73.0095, -151.997
3.439, -1, -36.579, -6.53191, 27.2098, 13.528, 72.9645, -152.111
3.444, -1, -36.6632, -6.57497, 27.2268, 13.5291, 72.9195, -152.225
3.448, -1, -36.7474, -6.61802, 27.2438, 13.5302, 72.8745, -152.339
3.452, -1, -36.8316, -6.66107, 27.2608, 13.5313, 72.8294, -152.453
3.456, -1, -36.9157, -6.70411, 27.2778, 13.5324, 72.7844, -152.567
3.46, -1, -36.9999, -6.74714, 27.2947, 13.5334, 72.7394, -152.681
3.464, -1, -37.084, -6.79016, 27.3117, 13.5345, 72.6945, -152.795
3.468, -1, -37.1681, -6.83317, 27.3287, 13.5356, 72.6495, -152.909
3.472, -1, -37.2522, -6.87617, 27.3457, 13.5367, 72.6045, -153.023
3.476, -1, -37.3363, -6.91916, 27.3626, 13.5378, 72.5596, -153.137
3.48, -1, -37.4204, -6.96215, 27.3796, 13.5389, 72.5146, -153.251
3.484, -1, -37.5045, -7.00513, 27.3965, 13.5399, 72.4697, -153.365
3.488, -1, -37.5885, -7.04809, 27.4135, 13.541, 72.4248, -153.479
3.492, -1, -37.6725, -7.09105, 27.4304, 13.5421, 72.3798, -153.592
3.495, -1, -37.7565, -7.13401, 27.4474, 13.5432, 72.3349, -153.706
3.5, -1, -37.8405, -7.17695, 27.4643, 13.5443, 72.29, -153.82
3.504, -1, -37.9245, -7.21988, 27.4813, 13.5453, 72.2451, -153.934
3.508, -1, -38.0084, -7.26281, 27.4982, 13.5464, 72.2002, -154.047
3.512, -1, -38.0923, -7.30573, 27.5151, 13.5475, 72.1554, -154.161
3.516, -1, -38.1763, -7.34864, 27.5321, 13.5486, 72.1105, -154.275
3.52, -1, -38.2602, -7.39154, 27.549, 13.5496, 72.0656, -154.388
3.524, -1, -38.344, -7.43443, 27.5659, 13.5507, 72.0208, -154.502
3.528, -1, -38.4279, -7.47731, 27.5828, 13.5518, 71.9759, -154.616
3.531, -1, -38.5118, -7.52019, 27.5997, 13.5529, 71.9311, -154.729
3.536, -1, -38.5956, -7.56306, 27.6167, 13.554, 71.8863, -154.843
3.54, -1, -38.6794, -7.60592, 27.6336, 13.555, 71.8415, -154.956
3.544, -1, -38.7632, -7.64877, 27.6505, 13.5561, 71.7967, -155.07
3.548, -1, -38.847, -7.69161, 27.6674, 13.5572, 71.7519, -155.183
3.552, -1, -38.9308, -7.73444, 27.6843, 13.5583, 71.7071, -155.297
3.556, -1, -39.0145, -7.77727, 27.7012, 13.5593, 71.6623, -155.41
3.56, -1, -39.0983, -7.82009, 27.7181, 13.5604, 71.6175, -155.524
3.564, -1, -39.182, -7.8629, 27.735, 13.5615, 71.5728, -155.637
3.568, -1, -39.2657, -7.9057, 27.7518, 13.5626, 71.528, -155.75
3.572, -1, -39.3494, -7.94849, 27.7687, 13.5636, 71.4833, -155.864
3.576, -1, -39.4331, -7.99127, 27.7856, 13.5647, 71.4385, -155.977
3.58, -1, -39.5167, -8.03405, 27.8025, 13.5658, 71.3938, -156.09
3.584, -1, -39.6004, -8.07682, 27.8194, 13.5669, 71.3491, -156.204
3.587, -1, -39.684, -8.11958, 27.8362, 13.5679, 71.3044, -156.317
3.592, -1, -39.7676, -8.16233, 27.8531, 13.569, 71.2597, -156.43
3.596, -1, -39.8512, -8.20507, 27.87, 13.5701, 71.215, -156.544
3.6, -1, -39.9348, -8.24781, 27.8868, 13.5712, 71.1703, -156.657
3.604, -1, -40.0183, -8.29054, 27.9037, 13.5722, 71.1256, -156.77
3.608, -1, -40.1019, -8.33326, 27.9205, 13.5733, 71.0809, -156.883
3.612, -1, -40.1854, -8.37597, 27.9374, 13.5744, 71.0363, -156.996
3.616, -1, -40.2689, -8.41867, 27.9542, 13.5755, 70.9916, -157.109
3.62, -1, -40.3524, -8.46137, 27.9711, 13.5765, 70.947, -157.222
3.624, -1, -40.4359, -8.50406, 27.9879, 13.5776, 70.9023, -157.336
3.628, -1, -40.5194, -8.54673, 28.0048, 13.5787, 70.8577, -157.449
3.632, -1, -40.6028, -8.58941, 28.0216, 13.5798, 70.8131, -157.562
3.636, -1, -40.6863, -8.63207, 28.0384, 13.5808, 70.7685, -157.675
3.64, -1, -40.7697, -8.67473, 28.0553, 13.5819, 70.7239, -157.788
3.644, -1, -40.8531, -8.71738, 28.0721, 13.583, 70.6793, -157.901
3.648, -1, -40.9365, -8.76002, 28.0889, 13.584, 70.6347, -158.014
3.652, -1, -41.0199, -8.80265, 28.1057, 13.5851, 70.5901, -158.127
3.656, -1, -41.1032, -8.84527, 28.1226, 13.5862, 70.5455, -158.239
3.66, -1, -41.1866, -8.88789, 28.1394, 13.5873, 70.501, -158.352
3.664, -1, -41.2699, -8.9305, 28.1562, 13.5883, 70.4564, -158.465
3.668, -1, -41.3532, -8.9731, 28.173, 13.5894, 70.4119, -158.578
3.672, -1, -41.4365, -9.0157, 28.1898, 13.5905, 70.3673, -158.691
3.676, -1, -41.5198, -9.05829, 28.2066, 13.5915, 70.3228, -158.804
3.679, -1, -41.6031, -9.10087, 28.2234, 13.5926, 70.2783, -158.917
3.684, -1, -41.6864, -9.14344, 28.2402, 13.5937, 70.2338, -159.029
3.688, -1, -41.7696, -9.186, 28.257, 13.5947, 70.1893, -159.142
3.692, -1, -41.8528, -9.22856, 28.2738, 13.5958, 70.1448, -159.255
3.696, -1, -41.936, -9.27111, 28.2906, 13.5969, 70.1003, -159.368
3.7, -1, -42.0192, -9.31365, 28.3073, 13.598, 70.0558, -159.48
3.704, -1, -42.1024, -9.35619, 28.3241, 13.599, 70.0113, -159.593
3.708, -1, -42.1856, -9.39872, 28.3409, 13.6001, 69.9668, -159.706
3.712, -1, -42.2688, -9.44124, 28.3577, 13.6012, 69.9224, -159.818
3.716, -1, -42.3519, -9.48375, 28.3745, 13.6022, 69.8779, -159.931
3.72, -1, -42.435, -9.52625, 28.3912, 13.6033, 69.8335, -160.043
3.724, -1, -42.5181, -9.56875, 28.408, 13.6044, 69.789, -160.156
3.728, -1, -42.6012, -9.61124, 28.4248, 13.6054, 69.7446, -160.269
3.732, -1, -42.6843, -9.65372, 28.4415, 13.6065, 69.7002, -160.381
3.735, -1, -42.7674, -9.6962, 28.4583, 13.6076, 69.6558, -160.494
3.74, -1, -42.8504, -9.73867, 28.475, 13.6086, 69.6114, -160.606
3.744, -1, -42.9335, -9.78113, 28.4918, 13.6097, 69.567, -160.719
3.748, -1, -43.0165, -9.82359, 28.5085, 13.6108, 69.5226, -160.831
3.752, -1, -43.0995, -9.86603, 28.5253, 13.6118, 69.4782, -160.944
3.756, -1, -43.1825, -9.90847, 28.542, 13.6129, 69.4338, -161.056
3.76, -1, -43.2655, -9.95091, 28.5588, 13.614, 69.3894, -161.168
3.764, -1, -43.3485, -9.99333, 28.5755, 13.615, 69.3451, -161.281
3.768, -1, -43.4314, -10.0358, 28.5922, 13.6161, 69.3007, -161.393
3.772, -1, -43.5144, -10.0782, 28.609, 13.6172, 69.2564, -161.506
3.776, -1, -43.5973, -10.1206, 28.6257, 13.6182, 69.212, -161.618
3.78, -1, -43.6802, -10.163, 28.6424, 13.6193, 69.1677, -161.73
3.784, -1, -43.7631, -10.2054, 28.6592, 13.6204, 69.1234, -161.842
3.788, -1, -43.846, -10.2477, 28.6759, 13.6214, 69.0791, -161.955
3.792, -1, -43.9289, -10.2901, 28.6926, 13.6225, 69.0348, -162.067
3.796, -1, -44.0118, -10.3325, 28.7093, 13.6236, 68.9905, -162.179
3.8, -1, -44.0946, -10.3748, 28.726, 13.6246, 68.9462, -162.291
3.804, -1, -44.1774, -10.4172, 28.7427, 13.6257, 68.9019, -162.404
3.808, -1, -44.2603, -10.4595, 28.7595, 13.6268, 68.8576, -162.516
3.812, -1, -44.3431, -10.5019, 28.7762, 13.6278, 68.8133, -162.628
3.816, -1, -44.4259, -10.5442, 28.7929, 13.6289, 68.769, -162.74
3.82, -1, -44.5086, -10.5865, 28.8096, 13.6299, 68.7248, -162.852
3.824, -1, -44.5914, -10.6289, 28.8263, 13.631, 68.6805, -162.964
3.828, -1, -44.6741, -10.6712, 28.8429, 13.6321, 68.6363, -163.077
3.832, -1, -44.7569, -10.7135, 28.8596, 13.6331, 68.5921, -163.189
3.836, -1, -44.8396, -10.7558, 28.8763, 13.6342, 68.5478, -163.301
3.84, -1, -44.9223, -10.7981, 28.893, 13.6353, 68.5036, -163.413
3.844, -1, -45.005, -10.8404, 28.9097, 13.6363, 68.4594, -163.525
3.848, -1, -45.0877, -10.8826, 28.9264, 13.6374, 68.4152, -163.637
3.852, -1, -45.1704, -10.9249, 28.9431, 13.6385, 68.371, -163.749
3.856, -1, -45.253, -10.9672, 28.9597, 13.6395, 68.3268, -163.861
3.86, -1, -45.3357, -11.0094, 28.9764, 13.6406, 68.2826, -163.973
3.864, -1, -45.4183, -11.0517, 28.9931, 13.6416, 68.2384, -164.085
3.868, -1, -45.5009, -11.0939, 29.0097, 13.6427, 68.1942, -164.196
3.872, -1, -45.5835, -11.1362, 29.0264, 13.6438, 68.1501, -164.308
3.876, -1, -45.6661, -11.1784, 29.0431, 13.6448, 68.1059, -164.42
3.88, -1, -45.7487, -11.2206, 29.0597, 13.6459, 68.0618, -164.532
3.884, -1, -45.8311, -11.2628, 29.0764, 13.6469, 68.0176, -164.644
3.888, -1, -45.9133, -11.3048, 29.0931, 13.648, 67.9735, -164.756
3.892, -1, -45.995, -11.3466, 29.1098, 13.6491, 67.9294, -164.867
3.896, -1, -46.076, -11.388, 29.1266, 13.6502, 67.8853, -164.979
3.9, -1, -46.1561, -11.4288, 29.1434, 13.6513, 67.8414, -165.09
3.904, -1, -46.235, -11.4689, 29.1602, 13.6524, 67.7977, -165.201
3.908, -1, -46.3124, -11.508, 29.1771, 13.6535, 67.7543, -165.311
3.912, -1, -46.3881, -11.5461, 29.1938, 13.6546, 67.7115, -165.419
3.916, -1, -46.4618, -11.5829, 29.2104, 13.6557, 67.6694, -165.526
3.92, -1, -46.5335, -11.6185, 29.2267, 13.6568, 67.6283, -165.63
3.924, -1, -46.6026, -11.6526, 29.2424, 13.6579, 67.5885, -165.731
3.928, -1, -46.6689, -11.6851, 29.2576, 13.6589, 67.5503, -165.827
3.932, -1, -46.732, -11.7158, 29.272, 13.6599, 67.514, -165.919
3.936, -1, -46.7915, -11.7447, 29.2855, 13.6608, 67.4799, -166.005
3.94, -1, -46.8472, -11.7717, 29.298, 13.6617, 67.4482, -166.086
3.944, -1, -46.8989, -11.797, 29.3094, 13.6624, 67.4191, -166.159
3.948, -1, -46.9464, -11.8206, 29.3195, 13.6631, 67.3929, -166.226
3.952, -1, -46.9897, -11.8425, 29.3284, 13.6637, 67.3695, -166.285
3.956, -1, -47.029, -11.863, 29.3359, 13.6641, 67.3491, -166.336
3.96, -1, -47.0642, -11.8818, 29.3421, 13.6645, 67.3316, -166.381
3.964, -1, -47.0954, -11.8989, 29.3471, 13.6648, 67.3167, -166.419
3.968, -1, -47.1226, -11.9142, 29.3511, 13.665, 67.3045, -166.45
3.972, -1, -47.1459, -11.9275, 29.3541, 13.6651, 67.2944, -166.475
3.976, -1, -47.1658, -11.9389, 29.3564, 13.6652, 67.2865, -166.496
3.98, -1, -47.1824, -11.9485, 29.358, 13.6652, 67.2802, -166.511
3.984, -1, -47.1962, -11.9565, 29.3591, 13.6652, 67.2754, -166.524
3.988, -1, -47.2076, -11.9631, 29.3598, 13.6652, 67.2718, -166.533
3.992, -1, -47.2169, -11.9684, 29.3602, 13.6652, 67.2692, -166.539
3.996, -1, -47.2244, -11.9726, 29.3604, 13.6652, 67.2674, -166.544
3.999, -1, -47.2302, -11.9759, 29.3605, 13.6651, 67.2661, -166.548
4.004, 2, -47.2346, -11.9783, 29.3605, 13.6651, 67.2652, -166.55
4.008, 2, -47.2378, -11.98, 29.3605, 13.6651, 67.2645, -166.551
4.012, 2, -47.2401, -11.9812, 29.3605, 13.6651, 67.2641, -166.553
4.016, 2, -47.2416, -11.982, 29.3605, 13.6651, 67.2639, -166.553
4.02, 2, -47.2426, -11.9826, 29.3605, 13.6651, 67.2637, -166.554
4.024, 2, -47.2434, -11.983, 29.3605, 13.6651, 67.2635, -166.554
4.028, 2, -47.2438, -11.9832, 29.3605, 13.6651, 67.2634, -166.554
4.032, 2, -47.2442, -11.9834, 29.3605, 13.6651, 67.2634, -166.554
4.036, 2, -47.2444, -11.9835, 29.3605, 13.6651, 67.2633, -166.555
4.04, 2, -47.2445, -11.9836, 29.3605, 13.6651, 67.2633, -166.555
4.044, 2, -47.2446, -11.9836, 29.3605, 13.6651, 67.2633, -166.555
4.048, 2, -47.2447, -11.9837, 29.3605, 13.6651, 67.2633, -166.555
4.052, 2, -47.2447, -11.9837, 29.3605, 13.6651, 67.2633, -166.555
4.056, 2, -47.2448, -11.9837, 29.3605, 13.6651, 67.2633, -166.555
4.06, 2, -47.2448, -11.9837, 29.3605, 13.6651, 67.2633, -166.555
4.064, 2, -47.2448, -11.9837, 29.3605, 13.6651, 67.2633, -166.555
4.068, 2, -47.2448, -11.9837, 29.3605, 13.6651, 67.2633, -166.555
4.072, 2, -47.2448, -11.9837, 29.3605, 13.6651, 67.2633, -166.555
4.076, 2, -47.2448, -11.9837, 29.3605, 13.6651, 67.2633, -166.555
4.08, 2, -47.2448, -11.9837, 29.3605, 13.6651, 67.2633, -166.555
4.084, 2, -47.2448, -11.9837, 29.3605, 13.6651, 67.2633, -166.555
4.088, 2, -47.2448, -11.9837, 29.3605, 13.6651, 67.2633, -166.555
4.092, 2, -47.2448, -11.9837, 29.3605, 13.6651, 67.2633, -166.555
4.096, 2, -47.2448, -11.9837, 29.3605, 13.6651, 67.2633, -166.555
4.1, 2, -47.2448, -11.9837, 29.3605, 13.6651, 67.2633, -166.555
4.104, 2, -47.2448, -11.9837, 29.3605, 13.6651, 67.2633, -166.555
4.108, 2, -47.2448, -11.9837, 29.3605, 13.6651, 67.2633, -166.555
4.112, 2, -47.2448, -11.9837, 29.3605, 13.6651, 67.2633, -166.555
4.116, 2, -47.2448, -11.9837, 29.3605, 13.6651, 67.2633, -166.555
4.12, 2, -47.2448, -11.9837, 29.3605, 13.6651, 67.2633, -166.555
4.124, 2, -47.2448, -11.9837, 29.3605, 13.6651, 67.2633, -166.555
4.128, 2, -47.2448, -11.9837, 29.3605, 13.6651, 67.2633, -166.555
4.132, 2, -47.2448, -11.9837, 29.3605, 13.6651, 67.2633, -166.555
4.136, 2, -47.2448, -11.9837, 29.3605, 13.6651, 67.2633, -166.555
4.14, 2, -47.2448, -11.9837, 29.3605, 13.6651, 67.2633, -166.555
4.144, 2, -47.2448, -11.9837, 29.3605, 13.6651, 67.2633, -166.555
4.148, 2, -47.2448, -11.9837, 29.3605, 13.6651, 67.2633, -166.555
4.152, 2, -47.2448, -11.9837, 29.3605, 13.6651, 67.2633, -166.555
4.156, 2, -47.2448, -11.9837, 29.3605, 13.6651, 67.2633, -166.555
4.16, 2, -47.2448, -11.9837, 29.3605, 13.6651, 67.2633, -166.555
4.164, 2, -47.2448, -11.9837, 29.3605, 13.6651, 67.2633, -166.555
4.168, 2, -47.2448, -11.9837, 29.3605, 13.6651, 67.2633, -166.555
4.172, 2, -47.2448, -11.9837, 29.3605, 13.6651, 67.2633, -166.555
4.176, 2, -47.2448, -11.9837, 29.3605, 13.6651, 67.2633, -166.555
4.18, 2, -47.2448, -11.9837, 29.3605, 13.6651, 67.2633, -166.555
4.184, 2, -47.2448, -11.9837, 29.3605, 13.6651, 67.2633, -166.555
4.188, 2, -47.2448, -11.9837, 29.3605, 13.6651, 67.2633, -166.555
4.192, 2, -47.2448, -11.9837, 29.3605, 13.6651, 67.2633, -166.555
4.196, 2, -47.2448, -11.9837, 29.3605, 13.6651, 67.2633, -166.555
4.2, 2, -47.2448, -11.9837, 29.3605, 13.6651, 67.2633, -166.555
4.204, 2, -47.2448, -11.9837, 29.3605, 13.6651, 67.2633, -166.555
4.208, 2, -47.2448, -11.9837, 29.3605, 13.6651, 67.2633, -166.555
4.212, 2, -47.2448, -11.9837, 29.3605, 13.6651, 67.2633, -166.555
4.216, 2, -47.2448, -11.9837, 29.3605, 13.6651, 67.2633, -166.555
4.22, 2, -47.2448, -11.9837, 29.3605, 13.6651, 67.2633, -166.555
4.224, 2, -47.2448, -11.9837, 29.3605, 13.6651, 67.2633, -166.555
4.228, 2, -47.2448, -11.9837, 29.3605, 13.6651, 67.2633, -166.555
4.232, 2, -47.2448, -11.9837, 29.3605, 13.6651, 67.2633, -166.555
4.236, 2, -47.2448, -11.9837, 29.3605, 13.6651, 67.2633, -166.555
4.24, 2, -47.2448, -11.9837, 29.3605, 13.6651, 67.2633, -166.555
4.244, 2, -47.2448, -11.9837, 29.3605, 13.6651, 67.2633, -166.555
4.248, 2, -47.2448, -11.9837, 29.3605, 13.6651, 67.2633, -166.555
4.252, 2, -47.2448, -11.9837, 29.3605, 13.6651, 67.2633, -166.555
4.256, 2, -47.2448, -11.9837, 29.3605, 13.6651, 67.2633, -166.555
4.26, 2, -47.2448, -11.9837, 29.3605, 13.6651, 67.2633, -166.555
4.264, 2, -47.2448, -11.9837, 29.3605, 13.6651, 67.2633, -166.555
4.268, 2, -47.2448, -11.9837, 29.3605, 13.6651, 67.2633, -166.555
4.272, 2, -47.2448, -11.9837, 29.3605, 13.6651, 67.2633, -166.555
4.276, 2, -47.2448, -11.9837, 29.3605, 13.6651, 67.2633, -166.555
4.28, 2, -47.2448, -11.9837, 29.3605, 13.6651, 67.2633, -166.555
4.284, 2, -47.2448, -11.9837, 29.3605, 13.6651, 67.2633, -166.555
4.288, 2, -47.2448, -11.9837, 29.3605, 13.6651, 67.2633, -166.555
4.292, 2, -47.2448, -11.9837, 29.3605, 13.6651, 67.2633, -166.555
4.296, 2, -47.2448, -11.9837, 29.3605, 13.6651, 67.2633, -166.555
4.3, 2, -47.2448, -11.9837, 29.3605, 13.6651, 67.2633, -166.555
4.304, 2, -47.2448, -11.9837, 29.3605, 13.6651, 67.2633, -166.555
4.308, 2, -47.2448, -11.9837, 29.3605, 13.6651, 67.2633, -166.555
4.312, 2, -47.2448, -11.9837, 29.3605, 13.6651, 67.2633, -166.555
4.316, 2, -47.2448, -11.9837, 29.3605, 13.6651, 67.2633, -166.555
4.32, 2, -47.2448, -11.9837, 29.3605, 13.6651, 67.2633, -166.555
4.324, 2, -47.2448, -11.9837, 29.3605, 13.6651, 67.2633, -166.555
4.328, 2, -47.2448, -11.9837, 29.3605, 13.6651, 67.2633, -166.555
4.332, 2, -47.2448, -11.9837, 29.3605, 13.6651, 67.2633, -166.555
4.336, 2, -47.2448, -11.9837, 29.3605, 13.6651, 67.2633, -166.555
4.34, 2, -47.2448, -11.9837, 29.3605, 13.6651, 67.2633, -166.555
4.344, 2, -47.2448, -11.9837, 29.3605, 13.6651, 67.2633, -166.555
4.348, 2, -47.2448, -11.9837, 29.3605, 13.6651, 67.2633, -166.555
4.352, 2, -47.2448, -11.9837, 29.3605, 13.6651, 67.2633, -166.555
4.356, 2, -47.2448, -11.9837, 29.3605, 13.6651, 67.2633, -166.555
4.36, 2, -47.2448, -11.9837, 29.3605, 13.6651, 67.2633, -166.555
4.364, 2, -47.2448, -11.9837, 29.3605, 13.6651, 67.2633, -166.555
4.368, 2, -47.2448, -11.9837, 29.3605, 13.6651, 67.2633, -166.555
4.372, 2, -47.2448, -11.9837, 29.3605, 13.6651, 67.2633, -166.555
4.376, 2, -47.2448, -11.9837, 29.3605, 13.6651, 67.2633, -166.555
4.38, 2, -47.2448, -11.9837, 29.3605, 13.6651, 67.2633, -166.555
4.384, 2, -47.2448, -11.9837, 29.3605, 13.6651, 67.2633, -166.555
4.388, 2, -47.2448, -11.9837, 29.3605, 13.6651, 67.2633, -166.555
4.392, 2, -47.2448, -11.9837, 29.3605, 13.6651, 67.2633, -166.555
4.396, 2, -47.2448, -11.9837, 29.3605, 13.6651, 67.2633, -166.555
4.4, 2, -47.2448, -11.9837, 29.3605, 13.6651, 67.2633, -166.555
4.404, 2, -47.2448, -11.9837, 29.3605, 13.6651, 67.2633, -166.555
4.408, 2, -47.2448, -11.9837, 29.3605, 13.6651, 67.2633, -166.555
4.412, 2, -47.2448, -11.9837, 29.3605, 13.6651, 67.2633, -166.555
4.416, 2, -47.2448, -11.9837, 29.3605, 13.6651, 67.2633, -166.555
4.42, 2, -47.2448, -11.9837, 29.3605, 13.6651, 67.2633, -166.555
4.424, 2, -47.2448, -11.9837, 29.3605, 13.6651, 67.2633, -166.555
4.428, 2, -47.2448, -11.9837, 29.3605, 13.6651, 67.2633, -166.555
4.432, 2, -47.2448, -11.9837, 29.3605, 13.6651, 67.2633, -166.555
4.436, 2, -47.2448, -11.9837, 29.3605, 13.6651, 67.2633, -166.555
4.44, 2, -47.2448, -11.9837, 29.3605, 13.6651, 67.2633, -166.555
4.444, 2, -47.2448, -11.9837, 29.3605, 13.6651, 67.2633, -166.555
4.448, 2, -47.2448, -11.9837, 29.3605, 13.6651, 67.2633, -166.555
4.452, 2, -47.2448, -11.9837, 29.3605, 13.6651, 67.2633, -166.555
4.456, 2, -47.2448, -11.9837, 29.3605, 13.6651, 67.2633, -166.555
4.46, 2, -47.2448, -11.9837, 29.3605, 13.6651, 67.2633, -166.555
4.464, 2, -47.2448, -11.9837, 29.3605, 13.6651, 67.2633, -166.555
4.468, 2, -47.2448, -11.9837, 29.3605, 13.6651, 67.2633, -166.555
4.472, 2, -47.2448, -11.9837, 29.3605, 13.6651, 67.2633, -166.555
4.476, 2, -47.2448, -11.9837, 29.3605, 13.6651, 67.2633, -166.555
4.48, 2, -47.2448, -11.9837, 29.3605, 13.6651, 67.2633, -166.555
4.484, 2, -47.2448, -11.9837, 29.3605, 13.6651, 67.2633, -166.555
4.488, 2, -47.2448, -11.9837, 29.3605, 13.6651, 67.2633, -166.555
4.492, 2, -47.2448, -11.9837, 29.3605, 13.6651, 67.2633, -166.555
4.496, 2, -47.2448, -11.9837, 29.3605, 13.6651, 67.2633, -166.555
4.5, 2, -47.2448, -11.9837, 29.3605, 13.6651, 67.2633, -166.555
4.504, 2, -47.2448, -11.9837, 29.3605, 13.6651, 67.2633, -166.555
4.508, 2, -47.2448, -11.9837, 29.3605, 13.6651, 67.2633, -166.555
4.512, 2, -47.2448, -11.9837, 29.3605, 13.6651, 67.2633, -166.555
4.516, 2, -47.2448, -11.9837, 29.3605, 13.6651, 67.2633, -166.555
4.52, 2, -47.2448, -11.9837, 29.3605, 13.6651, 67.2633, -166.555
4.524, 2, -47.2448, -11.9837, 29.3605, 13.6651, 67.2633, -166.555
4.528, 2, -47.2448, -11.9837, 29.3605, 13.6651, 67.2633, -166.555
4.532, 2, -47.2448, -11.9837, 29.3605, 13.6651, 67.2633, -166.555
4.536, 2, -47.2448, -11.9837, 29.3605, 13.6651, 67.2633, -166.555
4.54, 2, -47.2448, -11.9837, 29.3605, 13.6651, 67.2633, -166.555
4.544, 2, -47.2448, -11.9837, 29.3605, 13.6651, 67.2633, -166.555
4.548, 2, -47.2448, -11.9837, 29.3605, 13.6651, 67.2633, -166.555
4.552, 2, -47.2448, -11.9837, 29.3605, 13.6651, 67.2633, -166.555
4.556, 2, -47.2448, -11.9837, 29.3605, 13.6651, 67.2633, -166.555
4.56, 2, -47.2448, -11.9837, 29.3605, 13.6651, 67.2633, -166.555
4.564, 2, -47.2448, -11.9837, 29.3605, 13.6651, 67.2633, -166.555
4.568, 2, -47.2448, -11.9837, 29.3605, 13.6651, 67.2633, -166.555
4.572, 2, -47.2448, -11.9837, 29.3605, 13.6651, 67.2633, -166.555
4.576, 2, -47.2448, -11.9837, 29.3605, 13.6651, 67.2633, -166.555
4.58, 2, -47.2448, -11.9837, 29.3605, 13.6651, 67.2633, -166.555
4.584, 2, -47.2448, -11.9837, 29.3605, 13.6651, 67.2633, -166.555
4.588, 2, -47.2448, -11.9837, 29.3605, 13.6651, 67.2633, -166.555
4.592, 2, -47.2448, -11.9837, 29.3605, 13.6651, 67.2633, -166.555
4.596, 2, -47.2448, -11.9837, 29.3605, 13.6651, 67.2633, -166.555
4.6, 2, -47.2448, -11.9837, 29.3605, 13.6651, 67.2633, -166.555
4.604, 2, -47.2448, -11.9837, 29.3605, 13.6651, 67.2633, -166.555
4.608, 2, -47.2448, -11.9837, 29.3605, 13.6651, 67.2633, -166.555
4.612, 2, -47.2448, -11.9837, 29.3605, 13.6651, 67.2633, -166.555
4.616, 2, -47.2448, -11.9837, 29.3605, 13.6651, 67.2633, -166.555
4.62, 2, -47.2448, -11.9837, 29.3605, 13.6651, 67.2633, -166.555
4.624, 2, -47.2448, -11.9837, 29.3605, 13.6651, 67.2633, -166.555
4.628, 2, -47.2448, -11.9837, 29.3605, 13.6651, 67.2633, -166.555
4.632, 2, -47.2448, -11.9837, 29.3605, 13.6651, 67.2633, -166.555
4.636, 2, -47.2448, -11.9837, 29.3605, 13.6651, 67.2633, -166.555
4.64, 2, -47.2448, -11.9837, 29.3605, 13.6651, 67.2633, -166.555
4.644, 2, -47.2448, -11.9837, 29.3605, 13.6651, 67.2633, -166.555
4.648, 2, -47.2448, -11.9837, 29.3605, 13.6651, 67.2633, -166.555
4.652, 2, -47.2448, -11.9837, 29.3605, 13.6651, 67.2633, -166.555
4.656, 2, -47.2448, -11.9837, 29.3605, 13.6651, 67.2633, -166.555
4.66, 2, -47.2448, -11.9837, 29.3605, 13.6651, 67.2633, -166.555
4.664, 2, -47.2448, -11.9837, 29.3605, 13.6651, 67.2633, -166.555
4.668, 2, -47.2448, -11.9837, 29.3605, 13.6651, 67.2633, -166.555
4.672, 2, -47.2448, -11.9837, 29.3605, 13.6651, 67.2633, -166.555
4.676, 2, -47.2448, -11.9837, 29.3605, 13.6651, 67.2633, -166.555
4.68, 2, -47.2448, -11.9837, 29.3605, 13.6651, 67.2633, -166.555
4.684, 2, -47.2448, -11.9837, 29.3605, 13.6651, 67.2633, -166.555
4.688, 2, -47.2448, -11.9837, 29.3605, 13.6651, 67.2633, -166.555
4.692, 2, -47.2448, -11.9837, 29.3605, 13.6651, 67.2633, -166.555
4.696, 2, -47.2448, -11.9837, 29.3605, 13.6651, 67.2633, -166.555
4.7, 2, -47.2448, -11.9837, 29.3605, 13.6651, 67.2633, -166.555
4.704, 2, -47.2448, -11.9837, 29.3605, 13.6651, 67.2633, -166.555
4.708, 2, -47.2448, -11.9837, 29.3605, 13.6651, 67.2633, -166.555
4.712, 2, -47.2448, -11.9837, 29.3605, 13.6651, 67.2633, -166.555
4.716, 2, -47.2448, -11.9837, 29.3605, 13.6651, 67.2633, -166.555
4.72, 2, -47.2448, -11.9837, 29.3605, 13.6651, 67.2633, -166.555
4.724, 2, -47.2448, -11.9837, 29.3605, 13.6651, 67.2633, -166.555
4.728, 2, -47.2448, -11.9837, 29.3605, 13.6651, 67.2633, -166.555
4.732, 2, -47.2448, -11.9837, 29.3605, 13.6651, 67.2633, -166.555
4.736, 2, -47.2448, -11.9837, 29.3605, 13.6651, 67.2633, -166.555
4.74, 2, -47.2448, -11.9837, 29.3605, 13.6651, 67.2633, -166.555
4.744, 2, -47.2448, -11.9837, 29.3605, 13.6651, 67.2633, -166.555
4.748, 2, -47.2448, -11.9837, 29.3605, 13.6651, 67.2633, -166.555
4.752, 2, -47.2448, -11.9837, 29.3605, 13.6651, 67.2633, -166.555
4.756, 2, -47.2448, -11.9837, 29.3605, 13.6651, 67.2633, -166.555
4.76, 2, -47.2448, -11.9837, 29.3605, 13.6651, 67.2633, -166.555
4.764, 2, -47.2448, -11.9837, 29.3605, 13.6651, 67.2633, -166.555
4.768, 2, -47.2448, -11.9837, 29.3605, 13.6651, 67.2633, -166.555
4.772, 2, -47.2448, -11.9837, 29.3605, 13.6651, 67.2633, -166.555
4.776, 2, -47.2448, -11.9837, 29.3605, 13.6651, 67.2633, -166.555
4.78, 2, -47.2448, -11.9837, 29.3605, 13.6651, 67.2633, -166.555
4.784, 2, -47.2448, -11.9837, 29.3605, 13.6651, 67.2633, -166.555
4.788, 2, -47.2448, -11.9837, 29.3605, 13.6651, 67.2633, -166.555
4.792, 2, -47.2448, -11.9837, 29.3605, 13.6651, 67.2633, -166.555
4.796, 2, -47.2448, -11.9837, 29.3605, 13.6651, 67.2633, -166.555
4.8, 2, -47.2448, -11.9837, 29.3605, 13.6651, 67.2633, -166.555
4.804, 2, -47.2448, -11.9837, 29.3605, 13.6651, 67.2633, -166.555
4.808, 2, -47.2448, -11.9837, 29.3605, 13.6651, 67.2633, -166.555
4.812, 2, -47.2448, -11.9837, 29.3605, 13.6651, 67.2633, -166.555
4.816, 2, -47.2448, -11.9837, 29.3605, 13.6651, 67.2633, -166.555
4.82, 2, -47.2448, -11.9837, 29.3605, 13.6651, 67.2633, -166.555
4.824, 2, -47.2448, -11.9837, 29.3605, 13.6651, 67.2633, -166.555
4.828, 2, -47.2448, -11.9837, 29.3605, 13.6651, 67.2633, -166.555
4.832, 2, -47.2448, -11.9837, 29.3605, 13.6651, 67.2633, -166.555
4.836, 2, -47.2448, -11.9837, 29.3605, 13.6651, 67.2633, -166.555
4.84, 2, -47.2448, -11.9837, 29.3605, 13.6651, 67.2633, -166.555
4.844, 2, -47.2448, -11.9837, 29.3605, 13.6651, 67.2633, -166.555
4.848, 2, -47.2448, -11.9837, 29.3605, 13.6651, 67.2633, -166.555
4.852, 2, -47.2448, -11.9837, 29.3605, 13.6651, 67.2633, -166.555
4.856, 2, -47.2448, -11.9837, 29.3605, 13.6651, 67.2633, -166.555
4.86, 2, -47.2448, -11.9837, 29.3605, 13.6651, 67.2633, -166.555
4.864, 2, -47.2448, -11.9837, 29.3605, 13.6651, 67.2633, -166.555
4.868, 2, -47.2448, -11.9837, 29.3605, 13.6651, 67.2633, -166.555
4.872, 2, -47.2448, -11.9837, 29.3605, 13.6651, 67.2633, -166.555
4.876, 2, -47.2448, -11.9837, 29.3605, 13.6651, 67.2633, -166.555
4.88, 2, -47.2448, -11.9837, 29.3605, 13.6651, 67.2633, -166.555
4.884, 2, -47.2448, -11.9837, 29.3605, 13.6651, 67.2633, -166.555
4.888, 2, -47.2448, -11.9837, 29.3605, 13.6651, 67.2633, -166.555
4.892, 2, -47.2448, -11.9837, 29.3605, 13.6651, 67.2633, -166.555
4.896, 2, -47.2448, -11.9837, 29.3605, 13.6651, 67.2633, -166.555
4.9, 2, -47.2448, -11.9837, 29.3605, 13.6651, 67.2633, -166.555
4.904, 2, -47.2448, -11.9837, 29.3605, 13.6651, 67.2633, -166.555
4.908, 2, -47.2448, -11.9837, 29.3605, 13.6651, 67.2633, -166.555
4.912, 2, -47.2448, -11.9837, 29.3605, 13.6651, 67.2633, -166.555
4.916, 2, -47.2448, -11.9837, 29.3605, 13.6651, 67.2633, -166.555
4.92, 2, -47.2448, -11.9837, 29.3605, 13.6651, 67.2633, -166.555
4.924, 2, -47.2448, -11.9837, 29.3605, 13.6651, 67.2633, -166.555
4.928, 2, -47.2448, -11.9837, 29.3605, 13.6651, 67.2633, -166.555
4.932, 2, -47.2448, -11.9837, 29.3605, 13.6651, 67.2633, -166.555
4.936, 2, -47.2448, -11.9837, 29.3605, 13.6651, 67.2633, -166.555
4.94, 2, -47.2448, -11.9837, 29.3605, 13.6651, 67.2633, -166.555
4.944, 2, -47.2448, -11.9837, 29.3605, 13.6651, 67.2633, -166.555
4.948, 2, -47.2448, -11.9837, 29.3605, 13.6651, 67.2633, -166.555
4.952, 2, -47.2448, -11.9837, 29.3605, 13.6651, 67.2633, -166.555
4.956, 2, -47.2448, -11.9837, 29.3605, 13.6651, 67.2633, -166.555
4.96, 2, -47.2448, -11.9837, 29.3605, 13.6651, 67.2633, -166.555
4.964, 2, -47.2448, -11.9837, 29.3605, 13.6651, 67.2633, -166.555
4.968, 2, -47.2448, -11.9837, 29.3605, 13.6651, 67.2633, -166.555
4.972, 2, -47.2448, -11.9837, 29.3605, 13.6651, 67.2633, -166.555
4.976, 2, -47.2448, -11.9837, 29.3605, 13.6651, 67.2633, -166.555
4.98, 2, -47.2448, -11.9837, 29.3605, 13.6651, 67.2633, -166.555
4.984, 2, -47.2448, -11.9837, 29.3605, 13.6651, 67.2633, -166.555
4.988, 2, -47.2448, -11.9837, 29.3605, 13.6651, 67.2633, -166.555
4.992, 2, -47.2448, -11.9837, 29.3605, 13.6651, 67.2633, -166.555
4.996, 2, -47.2448, -11.9837, 29.3605, 13.6651, 67.2633, -166.555
5, 2, -47.2448, -11.9837, 29.3605, 13.6651, 67.2633, -166.555
5.004, 2, -47.2448, -11.9837, 29.3605, 13.6651, 67.2633, -166.555
5.008, 2, -47.2448, -11.9837, 29.3605, 13.6651, 67.2633, -166.555
5.012, 2, -47.2448, -11.9837, 29.3605, 13.6651, 67.2633, -166.555
5.016, 2, -47.2448, -11.9837, 29.3605, 13.6651, 67.2633, -166.555
5.02, 2, -47.2448, -11.9837, 29.3605, 13.6651, 67.2633, -166.555
5.024, 2, -47.2448, -11.9837, 29.3605, 13.6651, 67.2633, -166.555
5.028, 2, -47.2448, -11.9837, 29.3605, 13.6651, 67.2633, -166.555
5.032, 2, -47.2448, -11.9837, 29.3605, 13.6651, 67.2633, -166.555
5.036, 2, -47.2448, -11.9837, 29.3605, 13.6651, 67.2633, -166.555
5.04, 2, -47.2448, -11.9837, 29.3605, 13.6651, 67.2633, -166.555
5.044, 2, -47.2448, -11.9837, 29.3605, 13.6651, 67.2633, -166.555
5.048, 2, -47.2448, -11.9837, 29.3605, 13.6651, 67.2633, -166.555
5.052, 2, -47.2448, -11.9837, 29.3605, 13.6651, 67.2633, -166.555
5.056, 2, -47.2448, -11.9837, 29.3605, 13.6651, 67.2633, -166.555
5.06, 2, -47.2448, -11.9837, 29.3605, 13.6651, 67.2633, -166.555
5.064, 2, -47.2448, -11.9837, 29.3605, 13.6651, 67.2633, -166.555
5.068, 2, -47.2448, -11.9837, 29.3605, 13.6651, 67.2633, -166.555
5.072, 2, -47.2448, -11.9837, 29.3605, 13.6651, 67.2633, -166.555
5.076, 4, -47.2448, -11.9837, 29.3605, 13.6651, 67.2633, -166.555
5.08, 4, -47.2448, -11.9837, 29.3605, 13.6651, 67.2633, -166.555
5.084, 4, -47.2448, -11.9837, 29.3605, 13.6651, 67.2633, -166.555
5.088, 4, -47.2448, -11.9837, 29.3605, 13.6651, 67.2633, -166.555
5.092, 4, -47.2448, -11.9837, 29.3605, 13.6651, 67.2633, -166.555
5.096, 4, -47.2448, -11.9837, 29.3605, 13.6651, 67.2633, -166.555
5.1, 4, -47.2448, -11.9837, 29.3605, 13.6651, 67.2633, -166.555
5.104, 4, -47.2448, -11.9837, 29.3605, 13.6651, 67.2633, -166.555
5.108, 4, -47.2448, -11.9837, 29.3605, 13.6651, 67.2633, -166.555
5.112, 4, -47.2448, -11.9837, 29.3605, 13.6651, 67.2633, -166.555
5.116, 4, -47.2448, -11.9837, 29.3605, 13.6651, 67.2633, -166.555
5.12, 4, -47.2448, -11.9837, 29.3605, 13.6651, 67.2633, -166.555
5.124, 4, -47.2448, -11.9837, 29.3605, 13.6651, 67.2633, -166.555
5.128, 4, -47.2448, -11.9837, 29.3605, 13.6651, 67.2633, -166.555
5.132, 4, -47.2448, -11.9837, 29.3605, 13.6651, 67.2633, -166.555
5.136, 4, -47.2448, -11.9837, 29.3605, 13.6651, 67.2633, -166.555
5.14, 4, -47.2448, -11.9837, 29.3605, 13.6651, 67.2633, -166.555
5.144, 4, -47.2448, -11.9837, 29.3605, 13.6651, 67.2633, -166.555
5.148, 4, -47.2448, -11.9837, 29.3605, 13.6651, 67.2633, -166.555
5.152, 4, -47.2448, -11.9837, 29.3605, 13.6651, 67.2633, -166.555
5.156, 4, -47.2448, -11.9837, 29.3605, 13.6651, 67.2633, -166.555
5.16, 4, -47.2448, -11.9837, 29.3605, 13.6651, 67.2633, -166.555
5.164, 4, -47.2448, -11.9837, 29.3605, 13.6651, 67.2633, -166.555
5.168, 4, -47.2448, -11.9837, 29.3605, 13.6651, 67.2633, -166.555
5.172, 4, -47.2448, -11.9837, 29.3605, 13.6651, 67.2633, -166.555
5.176, 4, -47.2448, -11.9837, 29.3605, 13.6651, 67.2633, -166.555
5.182, 4, -47.2448, -11.9837, 29.3605, 13.6651, 67.2633, -166.555
5.185, 4, -47.2448, -11.9837, 29.3605, 13.6651, 67.2633, -166.555
5.19, 4, -47.2448, -11.9837, 29.3605, 13.6651, 67.2633, -166.555
5.194, 4, -47.2448, -11.9837, 29.3605, 13.6651, 67.2633, -166.555
5.198, 4, -47.2448, -11.9837, 29.3605, 13.6651, 67.2633, -166.555
5.202, 4, -47.2448, -11.9837, 29.3605, 13.6651, 67.2633, -166.555
5.206, 4, -47.2449, -11.9838, 29.3605, 13.6651, 67.2633, -166.555
5.21, 4, -47.245, -11.9838, 29.3605, 13.6651, 67.2633, -166.555
5.214, 4, -47.2452, -11.984, 29.3607, 13.6652, 67.2633, -166.555
5.217, 4, -47.2452, -11.984, 29.3607, 13.6652, 67.2633, -166.555
5.222, 4, -47.2465, -11.9851, 29.3617, 13.6662, 67.2637, -166.555
5.224, 4, -47.2465, -11.9851, 29.3617, 13.6662, 67.2637, -166.555
5.228, 4, -47.2477, -11.9863, 29.3628, 13.6676, 67.2642, -166.554
5.232, 4, -47.2494, -11.988, 29.3647, 13.6702, 67.265, -166.554
5.236, 4, -47.2515, -11.9902, 29.3675, 13.6747, 67.2664, -166.553
5.24, 4, -47.2541, -11.9933, 29.3716, 13.6818, 67.2686, -166.551
5.244, 4, -47.2573, -11.9971, 29.3772, 13.6925, 67.2718, -166.548
5.248, 5, -47.2611, -12.0018, 29.3849, 13.7074, 67.2762, -166.545
5.252, 5, -47.2657, -12.0075, 29.3949, 13.7278, 67.2821, -166.54
5.256, 5, -47.2711, -12.0144, 29.4075, 13.7542, 67.2897, -166.534
5.26, 5, -47.2776, -12.0226, 29.4232, 13.7877, 67.2993, -166.526
5.264, 5, -47.2851, -12.0321, 29.4422, 13.8289, 67.311, -166.516
5.268, 5, -47.2938, -12.043, 29.4647, 13.8783, 67.325, -166.504
5.272, 5, -47.3036, -12.0553, 29.4909, 13.9363, 67.3414, -166.49
5.276, 5, -47.3145, -12.0689, 29.5207, 14.0031, 67.3601, -166.474
5.28, 5, -47.3267, -12.0839, 29.5542, 14.0785, 67.3812, -166.457
5.284, 5, -47.3399, -12.1003, 29.5912, 14.1621, 67.4045, -166.437
5.288, 5, -47.3543, -12.118, 29.6317, 14.2535, 67.4299, -166.415
5.292, 5, -47.3697, -12.137, 29.6753, 14.3519, 67.4572, -166.392
5.296, 5, -47.386, -12.1573, 29.7217, 14.4565, 67.4861, -166.367
5.3, 5, -47.4033, -12.1787, 29.7708, 14.5664, 67.5164, -166.341
5.304, 5, -47.4213, -12.2012, 29.822, 14.6809, 67.5478, -166.314
5.308, 5, -47.44, -12.2247, 29.8752, 14.7991, 67.5802, -166.286
5.312, 5, -47.4593, -12.2489, 29.93, 14.9202, 67.6134, -166.258
5.316, 5, -47.4791, -12.2739, 29.9861, 15.0438, 67.647, -166.229
5.32, 5, -47.4993, -12.2994, 30.0434, 15.1691, 67.681, -166.2
5.324, 5, -47.52, -12.3255, 30.1015, 15.2958, 67.7153, -166.17
5.328, 5, -47.5411, -12.3519, 30.1604, 15.4234, 67.7497, -166.141
5.332, 5, -47.5624, -12.3787, 30.2199, 15.5517, 67.7842, -166.111
5.336, 5, -47.584, -12.4057, 30.2799, 15.6804, 67.8186, -166.081
5.34, 5, -47.6058, -12.433, 30.3403, 15.8095, 67.8531, -166.052
5.344, 5, -47.6278, -12.4604, 30.4011, 15.9388, 67.8874, -166.022
5.348, 5, -47.6499, -12.4879, 30.4622, 16.0683, 67.9216, -165.992
5.352, 5, -47.672, -12.5156, 30.5235, 16.1979, 67.9557, -165.963
5.356, 5, -47.6942, -12.5433, 30.5852, 16.3276, 67.9897, -165.933
5.36, 5, -47.7165, -12.5711, 30.647, 16.4573, 68.0236, -165.904
5.364, 5, -47.7389, -12.599, 30.7092, 16.587, 68.0573, -165.874
5.368, 5, -47.7613, -12.6269, 30.7715, 16.7168, 68.0909, -165.845
5.372, 5, -47.7838, -12.6549, 30.8342, 16.8467, 68.1244, -165.816
5.376, 5, -47.8063, -12.683, 30.897, 16.9765, 68.1577, -165.787
5.38, 5, -47.8288, -12.7112, 30.9601, 17.1064, 68.1909, -165.758
5.384, 5, -47.8514, -12.7394, 31.0234, 17.2363, 68.2239, -165.729
5.388, 5, -47.8741, -12.7677, 31.0869, 17.3662, 68.2569, -165.7
5.392, 5, -47.8968, -12.796, 31.1507, 17.4961, 68.2896, -165.671
5.396, 5, -47.9195, -12.8244, 31.2146, 17.6261, 68.3223, -165.642
5.4, 5, -47.9423, -12.8528, 31.2789, 17.7561, 68.3548, -165.614
5.404, 5, -47.9651, -12.8813, 31.3433, 17.886, 68.3872, -165.585
5.408, 5, -47.988, -12.9099, 31.408, 18.016, 68.4194, -165.557
5.412, 5, -48.0109, -12.9385, 31.4729, 18.146, 68.4515, -165.528
5.416, 5, -48.0338, -12.9672, 31.538, 18.2761, 68.4835, -165.5
5.42, 5, -48.0568, -12.996, 31.6033, 18.4061, 68.5153, -165.472
5.424, 5, -48.0798, -13.0248, 31.6689, 18.5362, 68.547, -165.444
5.428, 5, -48.1029, -13.0537, 31.7347, 18.6662, 68.5786, -165.416
5.432, 5, -48.126, -13.0826, 31.8007, 18.7963, 68.6101, -165.388
5.436, 5, -48.1491, -13.1116, 31.867, 18.9264, 68.6414, -165.36
5.44, 5, -48.1723, -13.1407, 31.9335, 19.0565, 68.6726, -165.332
5.444, 5, -48.1955, -13.1698, 32.0002, 19.1866, 68.7037, -165.304
5.448, 5, -48.2187, -13.199, 32.0671, 19.3168, 68.7346, -165.277
5.452, 5, -48.242, -13.2282, 32.1343, 19.4469, 68.7654, -165.249
5.456, 5, -48.2653, -13.2575, 32.2016, 19.5771, 68.7961, -165.222
5.46, 5, -48.2887, -13.2868, 32.2692, 19.7073, 68.8267, -165.195
5.464, 5, -48.3121, -13.3162, 32.3371, 19.8375, 68.8571, -165.167
5.468, 5, -48.3355, -13.3457, 32.4051, 19.9677, 68.8874, -165.14
5.472, 5, -48.359, -13.3752, 32.4734, 20.0979, 68.9176, -165.113
5.476, 5, -48.3825, -13.4048, 32.5419, 20.2282, 68.9477, -165.086
5.48, 5, -48.406, -13.4345, 32.6106, 20.3584, 68.9776, -165.059
5.484, 5, -48.4296, -13.4642, 32.6796, 20.4887, 69.0075, -165.033
5.488, 5, -48.4532, -13.494, 32.7487, 20.619, 69.0372, -165.006
5.492, 5, -48.4768, -13.5238, 32.8181, 20.7493, 69.0668, -164.979
5.496, 5, -48.5004, -13.5537, 32.8877, 20.8796, 69.0962, -164.953
5.5, 5, -48.524, -13.5836, 32.9576, 21.01, 69.1256, -164.926
5.504, 5, -48.5474, -13.6135, 33.0276, 21.1403, 69.1548, -164.9
5.508, 5, -48.5706, -13.6434, 33.0978, 21.2705, 69.184, -164.874
5.512, 5, -48.5935, -13.6733, 33.1682, 21.4007, 69.213, -164.847
5.516, 5, -48.616, -13.7031, 33.2387, 21.5307, 69.2421, -164.821
5.52, 5, -48.638, -13.7327, 33.3092, 21.6604, 69.2711, -164.793
5.524, 5, -48.6596, -13.7622, 33.3797, 21.7896, 69.3002, -164.765
5.528, 5, -48.6807, -13.7914, 33.4501, 21.9181, 69.3294, -164.736
5.532, 5, -48.7013, -13.8204, 33.5202, 22.0457, 69.3588, -164.705
5.536, 6, -48.7211, -13.8491, 33.59, 22.1719, 69.3885, -164.673
5.54, 6, -48.7402, -13.8775, 33.6592, 22.2967, 69.4185, -164.637
5.544, 6, -48.7584, -13.9054, 33.7279, 22.4196, 69.449, -164.599
5.548, 6, -48.7755, -13.9329, 33.7957, 22.5403, 69.4799, -164.558
5.552, 6, -48.7916, -13.9598, 33.8626, 22.6586, 69.5115, -164.513
5.556, 6, -48.8064, -13.9862, 33.9285, 22.7742, 69.5437, -164.464
5.56, 6, -48.82, -14.0121, 33.9933, 22.8869, 69.5766, -164.41
5.564, 6, -48.8322, -14.0373, 34.0569, 22.9965, 69.6103, -164.352
5.568, 6, -48.8431, -14.0619, 34.1191, 23.1029, 69.6447, -164.288
5.572, 6, -48.8526, -14.0859, 34.1801, 23.2062, 69.6799, -164.221
5.576, 6, -48.8606, -14.1091, 34.2398, 23.3063, 69.7158, -164.148
5.58, 7, -48.8671, -14.1317, 34.2982, 23.4034, 69.7525, -164.071
5.584, 7, -48.8721, -14.1536, 34.3553, 23.4975, 69.7899, -163.989
5.588, 7, -48.8757, -14.1748, 34.4112, 23.5888, 69.828, -163.903
5.592, 7, -48.878, -14.1953, 34.4659, 23.6775, 69.8667, -163.813
5.596, 7, -48.8789, -14.2152, 34.5195, 23.7638, 69.9061, -163.719
5.6, 7, -48.8786, -14.2344, 34.5721, 23.8478, 69.946, -163.622
5.604, 7, -48.8771, -14.2531, 34.6236, 23.9298, 69.9865, -163.522
5.608, 7, -48.8745, -14.2712, 34.6742, 24.0099, 70.0276, -163.419
5.612, 7, -48.8709, -14.2887, 34.7239, 24.0883, 70.0691, -163.313
5.616, 7, -48.8663, -14.3058, 34.7729, 24.1651, 70.111, -163.204
5.62, 8, -48.8608, -14.3224, 34.821, 24.2405, 70.1534, -163.093
5.624, 8, -48.8545, -14.3385, 34.8685, 24.3147, 70.1962, -162.981
5.628, 8, -48.8474, -14.3542, 34.9153, 24.3878, 70.2393, -162.866
5.632, 8, -48.8397, -14.3695, 34.9614, 24.4598, 70.2828, -162.749
5.636, 8, -48.8314, -14.3845, 35.007, 24.5309, 70.3267, -162.631
5.64, 8, -48.8226, -14.3992, 35.0521, 24.6012, 70.3708, -162.512
5.644, 8, -48.8132, -14.4135, 35.0967, 24.6708, 70.4152, -162.391
5.648, 8, -48.8034, -14.4276, 35.1409, 24.7398, 70.4599, -162.269
5.652, 8, -48.7932, -14.4414, 35.1846, 24.8083, 70.5048, -162.146
5.656, 8, -48.7825, -14.4549, 35.2279, 24.8764, 70.5499, -162.023
5.66, 8, -48.7715, -14.4682, 35.2709, 24.9441, 70.5952, -161.898
5.664, 9, -48.7602, -14.4812, 35.3136, 25.0115, 70.6407, -161.773
5.668, 9, -48.7486, -14.4941, 35.356, 25.0787, 70.6863, -161.647
5.672, 9, -48.7368, -14.5068, 35.3981, 25.1458, 70.7321, -161.521
5.676, 9, -48.7247, -14.5193, 35.4399, 25.2127, 70.7781, -161.395
5.68, 9, -48.7125, -14.5317, 35.4816, 25.2795, 70.8241, -161.268
5.684, 9, -48.7, -14.544, 35.523, 25.3463, 70.8703, -161.141
5.688, 9, -48.6875, -14.5561, 35.5642, 25.4132, 70.9166, -161.013
5.692, 9, -48.6747, -14.5681, 35.6053, 25.48, 70.9629, -160.886
5.696, 9, -48.6618, -14.58, 35.6462, 25.547, 71.0094, -160.758
5.7, 9, -48.6488, -14.5918, 35.687, 25.6141, 71.0559, -160.631
5.704, 9, -48.6357, -14.6035, 35.7277, 25.6813, 71.1024, -160.503
5.708, 10, -48.6224, -14.6151, 35.7682, 25.7487, 71.149, -160.376
5.712, 10, -48.6092, -14.6267, 35.8087, 25.8163, 71.1956, -160.248
5.716, 10, -48.5958, -14.6382, 35.849, 25.884, 71.2423, -160.121
5.72, 10, -48.5824, -14.6496, 35.8893, 25.952, 71.289, -159.993
5.724, 10, -48.5689, -14.661, 35.9295, 26.0202, 71.3356, -159.866
5.728, 10, -48.5554, -14.6724, 35.9696, 26.0886, 71.3823, -159.74
5.732, 10, -48.5419, -14.6837, 36.0097, 26.1572, 71.4291, -159.613
5.736, 10, -48.5283, -14.695, 36.0497, 26.2261, 71.4757, -159.486
5.74, 10, -48.5147, -14.7062, 36.0896, 26.2952, 71.5224, -159.36
5.744, 10, -48.501, -14.7175, 36.1295, 26.3646, 71.5691, -159.234
5.748, 10, -48.4874, -14.7287, 36.1694, 26.4342, 71.6158, -159.108
5.752, 11, -48.4736, -14.7399, 36.2092, 26.5041, 71.6624, -158.983
5.756, 11, -48.4599, -14.7511, 36.249, 26.5742, 71.709, -158.857
5.76, 11, -48.4461, -14.7622, 36.2887, 26.6446, 71.7556, -158.732
5.764, 11, -48.4323, -14.7734, 36.3284, 26.7152, 71.8022, -158.608
5.768, 11, -48.4185, -14.7846, 36.368, 26.786, 71.8487, -158.483
5.772, 11, -48.4046, -14.7957, 36.4077, 26.857, 71.8952, -158.359
5.776, 11, -48.3907, -14.8068, 36.4472, 26.9283, 71.9416, -158.235
5.78, 11, -48.3768, -14.818, 36.4868, 26.9998, 71.988, -158.111
5.784, 11, -48.3628, -14.8291, 36.5263, 27.0715, 72.0344, -157.987
5.788, 11, -48.3488, -14.8402, 36.5657, 27.1433, 72.0807, -157.864
5.792, 11, -48.3347, -14.8514, 36.6051, 27.2154, 72.127, -157.741
5.796, 12, -48.3206, -14.8625, 36.6445, 27.2877, 72.1733, -157.618
5.8, 12, -48.3064, -14.8736, 36.6838, 27.3601, 72.2195, -157.495
5.804, 12, -48.2921, -14.8847, 36.723, 27.4326, 72.2656, -157.373
5.808, 12, -48.2778, -14.8958, 36.7622, 27.5054, 72.3117, -157.251
5.812, 12, -48.2634, -14.9069, 36.8014, 27.5782, 72.3578, -157.129
5.816, 12, -48.249, -14.918, 36.8405, 27.6512, 72.4038, -157.007
5.82, 12, -48.2344, -14.9291, 36.8795, 27.7243, 72.4498, -156.885
5.824, 12, -48.2198, -14.9402, 36.9185, 27.7976, 72.4957, -156.764
5.828, 12, -48.2051, -14.9513, 36.9574, 27.8709, 72.5416, -156.642
5.832, 12, -48.1903, -14.9623, 36.9962, 27.9443, 72.5874, -156.521
5.836, 13, -48.1754, -14.9734, 37.035, 28.0178, 72.6331, -156.4
5.84, 13, -48.1604, -14.9845, 37.0737, 28.0914, 72.6788, -156.279
5.844, 13, -48.1453, -14.9955, 37.1123, 28.1651, 72.7245, -156.158
5.848, 13, -48.1301, -15.0066, 37.1508, 28.2388, 72.7701, -156.038
5.852, 13, -48.1148, -15.0176, 37.1892, 28.3125, 72.8157, -155.917
5.856, 13, -48.0993, -15.0286, 37.2276, 28.3863, 72.8612, -155.797
5.86, 13, -48.0838, -15.0396, 37.2659, 28.4602, 72.9066, -155.677
5.864, 13, -48.0681, -15.0506, 37.304, 28.534, 72.952, -155.557
5.868, 13, -48.0523, -15.0616, 37.3421, 28.6079, 72.9974, -155.437
5.872, 13, -48.0363, -15.0726, 37.3801, 28.6818, 73.0427, -155.317
5.876, 13, -48.0203, -15.0836, 37.418, 28.7557, 73.0879, -155.197
5.88, 14, -48.004, -15.0945, 37.4558, 28.8296, 73.1331, -155.077
5.884, 14, -47.9877, -15.1055, 37.4935, 28.9034, 73.1782, -154.957
5.888, 14, -47.9712, -15.1164, 37.5311, 28.9773, 73.2233, -154.838
5.892, 14, -47.9546, -15.1273, 37.5686, 29.0512, 73.2683, -154.718
5.896, 14, -47.9378, -15.1382, 37.606, 29.125, 73.3132, -154.599
5.9, 14, -47.9208, -15.1491, 37.6433, 29.1988, 73.3581, -154.48
5.904, 14, -47.9037, -15.16, 37.6805, 29.2725, 73.4029, -154.361
5.908, 14, -47.8865, -15.1708, 37.7176, 29.3463, 73.4477, -154.242
5.912, 14, -47.869, -15.1817, 37.7546, 29.42, 73.4924, -154.123
5.916, 14, -47.8515, -15.1925, 37.7914, 29.4936, 73.537, -154.004
5.92, 14, -47.8338, -15.2034, 37.8282, 29.5672, 73.5815, -153.885
5.924, 15, -47.8159, -15.2142, 37.8648, 29.6407, 73.626, -153.766
5.928, 15, -47.7978, -15.225, 37.9014, 29.7142, 73.6704, -153.647
5.932, 15, -47.7796, -15.2358, 37.9378, 29.7877, 73.7148, -153.529
5.936, 15, -47.7612, -15.2466, 37.9741, 29.861, 73.759, -153.41
