rpiRobotics/ARM-21-02-F-19-Robot-Motion-Program/data_performance_abb/curve_2/dual_arm/diffevo_pose6_3/30L/grad_result/real/run_4.csv
timestamp,cmd_num,J1,J2,J3,J4,J5,J6,J1_2,J2_2,J3_2,J4_2,J5_2,J6_2
1.354600023478269577e-02,-1.000000000000000000e+00,3.547674560546875000e+01,1.285875034332275391e+01,3.555867004394531250e+01,-1.087569122314453125e+02,9.078111267089843750e+01,-6.390482711791992188e+01,5.343404769897460938e+01,-1.526754093170166016e+01,-1.041693725585937500e+02,-1.144057388305664062e+02,6.424048614501953125e+01,-3.517348861694335938e+01
1.622300036251544952e-02,-1.000000000000000000e+00,3.547671508789062500e+01,1.285875034332275391e+01,3.555867004394531250e+01,-1.087568664550781250e+02,9.078099822998046875e+01,-6.390503311157226562e+01,5.343415451049804688e+01,-1.526745033264160156e+01,-1.041692657470703125e+02,-1.144058837890625000e+02,6.424048614501953125e+01,-3.517359542846679688e+01
1.757300086319446564e-02,-1.000000000000000000e+00,3.547671508789062500e+01,1.285875034332275391e+01,3.555867004394531250e+01,-1.087568664550781250e+02,9.078099822998046875e+01,-6.390503311157226562e+01,5.343415451049804688e+01,-1.526745033264160156e+01,-1.041692657470703125e+02,-1.144058837890625000e+02,6.424048614501953125e+01,-3.517359542846679688e+01
2.006700076162815094e-02,-1.000000000000000000e+00,3.547660064697265625e+01,1.285875034332275391e+01,3.555867004394531250e+01,-1.087568664550781250e+02,9.078099822998046875e+01,-6.390516281127929688e+01,5.343415451049804688e+01,-1.526745033264160156e+01,-1.041692657470703125e+02,-1.144057388305664062e+02,6.424048614501953125e+01,-3.517359542846679688e+01
2.441800013184547424e-02,-1.000000000000000000e+00,3.547671508789062500e+01,1.285875034332275391e+01,3.555867004394531250e+01,-1.087567520141601562e+02,9.078099822998046875e+01,-6.390503311157226562e+01,5.343415451049804688e+01,-1.526745033264160156e+01,-1.041692657470703125e+02,-1.144057388305664062e+02,6.424048614501953125e+01,-3.517348861694335938e+01
2.567300014197826385e-02,-1.000000000000000000e+00,3.547671508789062500e+01,1.285875034332275391e+01,3.555867004394531250e+01,-1.087567520141601562e+02,9.078099822998046875e+01,-6.390503311157226562e+01,5.343415451049804688e+01,-1.526745033264160156e+01,-1.041692657470703125e+02,-1.144057388305664062e+02,6.424048614501953125e+01,-3.517348861694335938e+01
2.828099951148033142e-02,-1.000000000000000000e+00,3.547660064697265625e+01,1.285875034332275391e+01,3.555860900878906250e+01,-1.087568664550781250e+02,9.078111267089843750e+01,-6.390503311157226562e+01,5.343415451049804688e+01,-1.526745033264160156e+01,-1.041693725585937500e+02,-1.144058837890625000e+02,6.424048614501953125e+01,-3.517348861694335938e+01
2.961900085210800171e-02,-1.000000000000000000e+00,3.547660064697265625e+01,1.285875034332275391e+01,3.555860900878906250e+01,-1.087568664550781250e+02,9.078111267089843750e+01,-6.390503311157226562e+01,5.343415451049804688e+01,-1.526745033264160156e+01,-1.041693725585937500e+02,-1.144058837890625000e+02,6.424048614501953125e+01,-3.517348861694335938e+01
3.972600027918815613e-02,-1.000000000000000000e+00,3.547660064697265625e+01,1.285875034332275391e+01,3.555867004394531250e+01,-1.087570190429687500e+02,9.078099822998046875e+01,-6.390503311157226562e+01,5.343415451049804688e+01,-1.526745033264160156e+01,-1.041692657470703125e+02,-1.144058837890625000e+02,6.424048614501953125e+01,-3.517359542846679688e+01
4.122399911284446716e-02,-1.000000000000000000e+00,3.547671508789062500e+01,1.285875034332275391e+01,3.555867004394531250e+01,-1.087569122314453125e+02,9.078089904785156250e+01,-6.390503311157226562e+01,5.343415451049804688e+01,-1.526745033264160156e+01,-1.041692657470703125e+02,-1.144058837890625000e+02,6.424048614501953125e+01,-3.517359542846679688e+01
4.491699859499931335e-02,-1.000000000000000000e+00,3.547671508789062500e+01,1.285875034332275391e+01,3.555867004394531250e+01,-1.087569122314453125e+02,9.078089904785156250e+01,-6.390503311157226562e+01,5.343415451049804688e+01,-1.526745033264160156e+01,-1.041692657470703125e+02,-1.144058837890625000e+02,6.424048614501953125e+01,-3.517359542846679688e+01
4.947900027036666870e-02,2.000000000000000000e+00,3.547674560546875000e+01,1.285870552062988281e+01,3.555867004394531250e+01,-1.087568664550781250e+02,9.078089904785156250e+01,-6.390503311157226562e+01,5.343415451049804688e+01,-1.526745033264160156e+01,-1.041692657470703125e+02,-1.144057388305664062e+02,6.424048614501953125e+01,-3.517359542846679688e+01
5.748900026082992554e-02,2.000000000000000000e+00,3.547671508789062500e+01,1.285875034332275391e+01,3.555867004394531250e+01,-1.087569122314453125e+02,9.078099822998046875e+01,-6.390503311157226562e+01,5.343415451049804688e+01,-1.526745033264160156e+01,-1.041692657470703125e+02,-1.144057388305664062e+02,6.424048614501953125e+01,-3.517359542846679688e+01
6.413699686527252197e-02,2.000000000000000000e+00,3.547674560546875000e+01,1.285881805419921875e+01,3.555867004394531250e+01,-1.087569122314453125e+02,9.078111267089843750e+01,-6.390516281127929688e+01,5.343415451049804688e+01,-1.526745033264160156e+01,-1.041692657470703125e+02,-1.144057388305664062e+02,6.424048614501953125e+01,-3.517381668090820312e+01
6.964100152254104614e-02,2.000000000000000000e+00,3.547665786743164062e+01,1.285875034332275391e+01,3.555867004394531250e+01,-1.087568664550781250e+02,9.078099822998046875e+01,-6.390503311157226562e+01,5.343415451049804688e+01,-1.526745033264160156e+01,-1.041692657470703125e+02,-1.144057388305664062e+02,6.424048614501953125e+01,-3.517359542846679688e+01
1.084130033850669861e-01,2.000000000000000000e+00,3.547674560546875000e+01,1.285870552062988281e+01,3.555867004394531250e+01,-1.087569122314453125e+02,9.078099822998046875e+01,-6.390503311157226562e+01,5.343415451049804688e+01,-1.526745033264160156e+01,-1.041692657470703125e+02,-1.144058837890625000e+02,6.424034118652343750e+01,-3.517359542846679688e+01
1.097970008850097656e-01,2.000000000000000000e+00,3.547674560546875000e+01,1.285870552062988281e+01,3.555867004394531250e+01,-1.087569122314453125e+02,9.078099822998046875e+01,-6.390503311157226562e+01,5.343415451049804688e+01,-1.526745033264160156e+01,-1.041692657470703125e+02,-1.144058837890625000e+02,6.424034118652343750e+01,-3.517359542846679688e+01
1.186650022864341736e-01,2.000000000000000000e+00,3.547686004638671875e+01,1.285863685607910156e+01,3.555867004394531250e+01,-1.087570190429687500e+02,9.078099822998046875e+01,-6.390516281127929688e+01,5.343404769897460938e+01,-1.526745033264160156e+01,-1.041693725585937500e+02,-1.144057388305664062e+02,6.424048614501953125e+01,-3.517359542846679688e+01
1.216109991073608398e-01,2.000000000000000000e+00,3.547708892822265625e+01,1.285841083526611328e+01,3.555867004394531250e+01,-1.087567520141601562e+02,9.078099822998046875e+01,-6.390503311157226562e+01,5.343415451049804688e+01,-1.526745033264160156e+01,-1.041692657470703125e+02,-1.144057388305664062e+02,6.424048614501953125e+01,-3.517359542846679688e+01
1.229920014739036560e-01,2.000000000000000000e+00,3.547708892822265625e+01,1.285841083526611328e+01,3.555867004394531250e+01,-1.087567520141601562e+02,9.078099822998046875e+01,-6.390503311157226562e+01,5.343415451049804688e+01,-1.526745033264160156e+01,-1.041692657470703125e+02,-1.144057388305664062e+02,6.424048614501953125e+01,-3.517359542846679688e+01
1.254229992628097534e-01,2.000000000000000000e+00,3.547786331176757812e+01,1.285766410827636719e+01,3.555867004394531250e+01,-1.087568664550781250e+02,9.078111267089843750e+01,-6.390503311157226562e+01,5.343404769897460938e+01,-1.526745033264160156e+01,-1.041692657470703125e+02,-1.144057388305664062e+02,6.424048614501953125e+01,-3.517359542846679688e+01
1.292120069265365601e-01,2.000000000000000000e+00,3.547924041748046875e+01,1.285623931884765625e+01,3.555867004394531250e+01,-1.087569122314453125e+02,9.078111267089843750e+01,-6.390503311157226562e+01,5.343360900878906250e+01,-1.526754093170166016e+01,-1.041689910888671875e+02,-1.144058837890625000e+02,6.424048614501953125e+01,-3.517359542846679688e+01
1.329849958419799805e-01,2.000000000000000000e+00,3.548125076293945312e+01,1.285408878326416016e+01,3.555867004394531250e+01,-1.087570190429687500e+02,9.078099822998046875e+01,-6.390516281127929688e+01,5.343251037597656250e+01,-1.526767921447753906e+01,-1.041670837402343750e+02,-1.144063796997070312e+02,6.424034118652343750e+01,-3.517359542846679688e+01
1.343310028314590454e-01,2.000000000000000000e+00,3.548125076293945312e+01,1.285408878326416016e+01,3.555867004394531250e+01,-1.087570190429687500e+02,9.078099822998046875e+01,-6.390516281127929688e+01,5.343251037597656250e+01,-1.526767921447753906e+01,-1.041670837402343750e+02,-1.144063796997070312e+02,6.424034118652343750e+01,-3.517359542846679688e+01
1.381569951772689819e-01,2.000000000000000000e+00,3.548411941528320312e+01,1.285083007812500000e+01,3.555867004394531250e+01,-1.087570724487304688e+02,9.078111267089843750e+01,-6.390503311157226562e+01,5.343014526367187500e+01,-1.526831912994384766e+01,-1.041643676757812500e+02,-1.144071044921875000e+02,6.423976135253906250e+01,-3.517403793334960938e+01
1.418800055980682373e-01,2.000000000000000000e+00,3.548756790161132812e+01,1.284648513793945312e+01,3.555867004394531250e+01,-1.087581253051757812e+02,9.078111267089843750e+01,-6.390516281127929688e+01,5.342652130126953125e+01,-1.526854801177978516e+01,-1.041631164550781250e+02,-1.144077453613281250e+02,6.423837280273437500e+01,-3.517480468750000000e+01
1.445900052785873413e-01,2.000000000000000000e+00,3.548756790161132812e+01,1.284648513793945312e+01,3.555867004394531250e+01,-1.087581253051757812e+02,9.078111267089843750e+01,-6.390516281127929688e+01,5.342195892333984375e+01,-1.526877689361572266e+01,-1.041620330810546875e+02,-1.144088287353515625e+02,6.423495483398437500e+01,-3.517601394653320312e+01
1.459700018167495728e-01,2.000000000000000000e+00,3.549150085449218750e+01,1.284080505371093750e+01,3.555867004394531250e+01,-1.087595520019531250e+02,9.078121948242187500e+01,-6.390550613403320312e+01,5.342195892333984375e+01,-1.526877689361572266e+01,-1.041620330810546875e+02,-1.144088287353515625e+02,6.423495483398437500e+01,-3.517601394653320312e+01
1.482460051774978638e-01,2.000000000000000000e+00,3.549150085449218750e+01,1.284080505371093750e+01,3.555867004394531250e+01,-1.087595520019531250e+02,9.078121948242187500e+01,-6.390550613403320312e+01,5.342195892333984375e+01,-1.526877689361572266e+01,-1.041620330810546875e+02,-1.144088287353515625e+02,6.423495483398437500e+01,-3.517601394653320312e+01
1.497289985418319702e-01,2.000000000000000000e+00,3.549620819091796875e+01,1.283372116088867188e+01,3.555860900878906250e+01,-1.087628707885742188e+02,9.078121948242187500e+01,-6.390584564208984375e+01,5.341569900512695312e+01,-1.526868629455566406e+01,-1.041609420776367188e+02,-1.144104003906250000e+02,6.422948455810546875e+01,-3.517689132690429688e+01
1.535969972610473633e-01,2.000000000000000000e+00,3.550200653076171875e+01,1.282519054412841797e+01,3.555857086181640625e+01,-1.087676620483398438e+02,9.078132629394531250e+01,-6.390740203857421875e+01,5.340756988525390625e+01,-1.526800060272216797e+01,-1.041600189208984375e+02,-1.144137115478515625e+02,6.422504425048828125e+01,-3.517766189575195312e+01
1.573339998722076416e-01,2.000000000000000000e+00,3.550200653076171875e+01,1.282519054412841797e+01,3.555857086181640625e+01,-1.087676620483398438e+02,9.078132629394531250e+01,-6.390740203857421875e+01,5.340756988525390625e+01,-1.526800060272216797e+01,-1.041600189208984375e+02,-1.144137115478515625e+02,6.422504425048828125e+01,-3.517766189575195312e+01
1.587100028991699219e-01,2.000000000000000000e+00,3.550901031494140625e+01,1.281459999084472656e+01,3.555840682983398438e+01,-1.087738800048828125e+02,9.078179931640625000e+01,-6.391052627563476562e+01,5.339685821533203125e+01,-1.526635074615478516e+01,-1.041598510742187500e+02,-1.144179458618164062e+02,6.422256469726562500e+01,-3.517810058593750000e+01
1.621160060167312622e-01,2.000000000000000000e+00,3.551753616333007812e+01,1.280149650573730469e+01,3.555805969238281250e+01,-1.087819824218750000e+02,9.078206634521484375e+01,-6.391432189941406250e+01,5.338318252563476562e+01,-1.526502418518066406e+01,-1.041660003662109375e+02,-1.144231109619140625e+02,6.422008514404296875e+01,-3.517909240722656250e+01
1.655309945344924927e-01,2.000000000000000000e+00,3.552729797363281250e+01,1.278572368621826172e+01,3.555753326416015625e+01,-1.087928924560546875e+02,9.078276062011718750e+01,-6.391913604736328125e+01,5.336582183837890625e+01,-1.526378726959228516e+01,-1.041696472167968750e+02,-1.144302215576171875e+02,6.421702575683593750e+01,-3.518106842041015625e+01
1.669359952211380005e-01,2.000000000000000000e+00,3.552729797363281250e+01,1.278572368621826172e+01,3.555753326416015625e+01,-1.087928924560546875e+02,9.078276062011718750e+01,-6.391913604736328125e+01,5.336582183837890625e+01,-1.526378726959228516e+01,-1.041696472167968750e+02,-1.144302215576171875e+02,6.421702575683593750e+01,-3.518106842041015625e+01
1.700399965047836304e-01,2.000000000000000000e+00,3.553826522827148438e+01,1.276766490936279297e+01,3.555675888061523438e+01,-1.088064804077148438e+02,9.078334808349609375e+01,-6.392483520507812500e+01,5.334461975097656250e+01,-1.526223182678222656e+01,-1.041710052490234375e+02,-1.144406356811523438e+02,6.421367645263671875e+01,-3.518425369262695312e+01
1.713089942932128906e-01,2.000000000000000000e+00,3.553826522827148438e+01,1.276766490936279297e+01,3.555675888061523438e+01,-1.088064804077148438e+02,9.078334808349609375e+01,-6.392483520507812500e+01,5.334461975097656250e+01,-1.526223182678222656e+01,-1.041710052490234375e+02,-1.144406356811523438e+02,6.421367645263671875e+01,-3.518425369262695312e+01
1.793349981307983398e-01,2.000000000000000000e+00,3.556389617919921875e+01,1.272715759277343750e+01,3.555429840087890625e+01,-1.088432998657226562e+02,9.078548431396484375e+01,-6.394171905517578125e+01,5.328831481933593750e+01,-1.525797557830810547e+01,-1.041781845092773438e+02,-1.144720077514648438e+02,6.420944976806640625e+01,-3.519326019287109375e+01
1.830630004405975342e-01,2.000000000000000000e+00,3.557799530029296875e+01,1.270434665679931641e+01,3.555232620239257812e+01,-1.088675308227539062e+02,9.078675842285156250e+01,-6.395277786254882812e+01,5.325315475463867188e+01,-1.525449562072753906e+01,-1.041849288940429688e+02,-1.144942016601562500e+02,6.420791625976562500e+01,-3.520391845703125000e+01
1.855140030384063721e-01,2.000000000000000000e+00,3.559260559082031250e+01,1.268006420135498047e+01,3.554990386962890625e+01,-1.088964996337890625e+02,9.078771972656250000e+01,-6.396593093872070312e+01,5.321382522583007812e+01,-1.524959754943847656e+01,-1.041927032470703125e+02,-1.145211257934570312e+02,6.420645904541015625e+01,-3.521677398681640625e+01
1.867939978837966919e-01,2.000000000000000000e+00,3.559260559082031250e+01,1.268006420135498047e+01,3.554990386962890625e+01,-1.088964996337890625e+02,9.078771972656250000e+01,-6.396593093872070312e+01,5.321382522583007812e+01,-1.524959754943847656e+01,-1.041927032470703125e+02,-1.145211257934570312e+02,6.420645904541015625e+01,-3.521677398681640625e+01
1.909299939870834351e-01,2.000000000000000000e+00,3.560828018188476562e+01,1.265397262573242188e+01,3.554716491699218750e+01,-1.089297332763671875e+02,9.078910827636718750e+01,-6.398057556152343750e+01,5.317097854614257812e+01,-1.524414920806884766e+01,-1.042015686035156250e+02,-1.145542984008789062e+02,6.420529174804687500e+01,-3.522973632812500000e+01
1.944729983806610107e-01,2.000000000000000000e+00,3.562504577636718750e+01,1.262554931640625000e+01,3.554390716552734375e+01,-1.089659805297851562e+02,9.079081726074218750e+01,-6.399726104736328125e+01,5.312467193603515625e+01,-1.523806190490722656e+01,-1.042129364013671875e+02,-1.145918579101562500e+02,6.420346832275390625e+01,-3.524753189086914062e+01
1.969410032033920288e-01,2.000000000000000000e+00,3.562504577636718750e+01,1.262554931640625000e+01,3.554390716552734375e+01,-1.089659805297851562e+02,9.079081726074218750e+01,-6.399726104736328125e+01,5.312467193603515625e+01,-1.523806190490722656e+01,-1.042129364013671875e+02,-1.145918579101562500e+02,6.420346832275390625e+01,-3.524753189086914062e+01
1.982560008764266968e-01,2.000000000000000000e+00,3.564336013793945312e+01,1.259493160247802734e+01,3.554018783569335938e+01,-1.090045318603515625e+02,9.079247283935546875e+01,-6.401564025878906250e+01,5.307479476928710938e+01,-1.523087501525878906e+01,-1.042260971069335938e+02,-1.146330718994140625e+02,6.420230102539062500e+01,-3.526840972900390625e+01
1.995279937982559204e-01,2.000000000000000000e+00,3.564336013793945312e+01,1.259493160247802734e+01,3.554018783569335938e+01,-1.090045318603515625e+02,9.079247283935546875e+01,-6.401564025878906250e+01,5.307479476928710938e+01,-1.523087501525878906e+01,-1.042260971069335938e+02,-1.146330718994140625e+02,6.420230102539062500e+01,-3.526840972900390625e+01
2.050909996032714844e-01,2.000000000000000000e+00,3.566270446777343750e+01,1.256200504302978516e+01,3.553604125976562500e+01,-1.090460968017578125e+02,9.079438781738281250e+01,-6.403578186035156250e+01,5.296663284301757812e+01,-1.521393775939941406e+01,-1.042567749023437500e+02,-1.147267837524414062e+02,6.419968414306640625e+01,-3.531641769409179688e+01
2.076590061187744141e-01,2.000000000000000000e+00,3.568277359008789062e+01,1.252753829956054688e+01,3.553154754638671875e+01,-1.090927658081054688e+02,9.079640960693359375e+01,-6.405795288085937500e+01,5.296663284301757812e+01,-1.521393775939941406e+01,-1.042567749023437500e+02,-1.147267837524414062e+02,6.419968414306640625e+01,-3.531641769409179688e+01
2.101289927959442139e-01,2.000000000000000000e+00,3.570352554321289062e+01,1.249160289764404297e+01,3.552695465087890625e+01,-1.091410140991210938e+02,9.079881286621093750e+01,-6.408054351806640625e+01,5.290774536132812500e+01,-1.520514869689941406e+01,-1.042734756469726562e+02,-1.147779846191406250e+02,6.419757080078125000e+01,-3.534256362915039062e+01
2.114489972591400146e-01,2.000000000000000000e+00,3.570352554321289062e+01,1.249160289764404297e+01,3.552695465087890625e+01,-1.091410140991210938e+02,9.079881286621093750e+01,-6.408054351806640625e+01,5.290774536132812500e+01,-1.520514869689941406e+01,-1.042734756469726562e+02,-1.147779846191406250e+02,6.419757080078125000e+01,-3.534256362915039062e+01
2.155809998512268066e-01,2.000000000000000000e+00,3.572488403320312500e+01,1.245387840270996094e+01,3.552199172973632812e+01,-1.091896286010742188e+02,9.080100250244140625e+01,-6.410441589355468750e+01,5.284556198120117188e+01,-1.519622135162353516e+01,-1.042898406982421875e+02,-1.148298950195312500e+02,6.419567871093750000e+01,-3.537157058715820312e+01
2.195090055465698242e-01,2.000000000000000000e+00,3.574716186523437500e+01,1.241436672210693359e+01,3.551682662963867188e+01,-1.092410964965820312e+02,9.080349731445312500e+01,-6.412854766845703125e+01,5.278013992309570312e+01,-1.518706798553466797e+01,-1.043065414428710938e+02,-1.148828964233398438e+02,6.419371032714843750e+01,-3.540200042724609375e+01
2.220329940319061279e-01,2.000000000000000000e+00,3.577053070068359375e+01,1.237322616577148438e+01,3.551141738891601562e+01,-1.092938232421875000e+02,9.080579376220703125e+01,-6.415269470214843750e+01,5.271158599853515625e+01,-1.517786598205566406e+01,-1.043227996826171875e+02,-1.149374542236328125e+02,6.419130706787109375e+01,-3.543408203125000000e+01
2.232979983091354370e-01,2.000000000000000000e+00,3.577053070068359375e+01,1.237322616577148438e+01,3.551141738891601562e+01,-1.092938232421875000e+02,9.080579376220703125e+01,-6.415269470214843750e+01,5.271158599853515625e+01,-1.517786598205566406e+01,-1.043227996826171875e+02,-1.149374542236328125e+02,6.419130706787109375e+01,-3.543408203125000000e+01
2.273370027542114258e-01,2.000000000000000000e+00,3.579493331909179688e+01,1.233043193817138672e+01,3.550588989257812500e+01,-1.093468627929687500e+02,9.080835723876953125e+01,-6.417731475830078125e+01,5.264056015014648438e+01,-1.516857337951660156e+01,-1.043384094238281250e+02,-1.149923171997070312e+02,6.418853759765625000e+01,-3.546825027465820312e+01
2.299109995365142822e-01,2.000000000000000000e+00,3.582044982910156250e+01,1.228594207763671875e+01,3.550041961669921875e+01,-1.094004898071289062e+02,9.081118774414062500e+01,-6.420275115966796875e+01,5.256766510009765625e+01,-1.515946292877197266e+01,-1.043539123535156250e+02,-1.150476837158203125e+02,6.418540954589843750e+01,-3.550263595581054688e+01
2.338130027055740356e-01,2.000000000000000000e+00,3.584714889526367188e+01,1.224016189575195312e+01,3.549505233764648438e+01,-1.094544219970703125e+02,9.081400299072265625e+01,-6.422872161865234375e+01,5.249465942382812500e+01,-1.515012454986572266e+01,-1.043694076538085938e+02,-1.151028289794921875e+02,6.418227386474609375e+01,-3.553845214843750000e+01
2.351430058479309082e-01,2.000000000000000000e+00,3.584714889526367188e+01,1.224016189575195312e+01,3.549505233764648438e+01,-1.094544219970703125e+02,9.081400299072265625e+01,-6.422872161865234375e+01,5.249465942382812500e+01,-1.515012454986572266e+01,-1.043694076538085938e+02,-1.151028289794921875e+02,6.418227386474609375e+01,-3.553845214843750000e+01
2.439139932394027710e-01,2.000000000000000000e+00,3.587499618530273438e+01,1.219313716888427734e+01,3.548978805541992188e+01,-1.095087890625000000e+02,9.081656646728515625e+01,-6.425503540039062500e+01,5.242187500000000000e+01,-1.514128971099853516e+01,-1.043847503662109375e+02,-1.151576843261718750e+02,6.417869567871093750e+01,-3.557470703125000000e+01
2.464849948883056641e-01,2.000000000000000000e+00,3.593264007568359375e+01,1.209718513488769531e+01,3.547915267944335938e+01,-1.096170272827148438e+02,9.082211303710937500e+01,-6.430615997314453125e+01,5.227542877197265625e+01,-1.512293338775634766e+01,-1.044148788452148438e+02,-1.152676925659179688e+02,6.417075347900390625e+01,-3.564743804931640625e+01
2.479680031538009644e-01,2.000000000000000000e+00,3.593264007568359375e+01,1.209718513488769531e+01,3.547915267944335938e+01,-1.096170272827148438e+02,9.082211303710937500e+01,-6.430615997314453125e+01,5.227542877197265625e+01,-1.512293338775634766e+01,-1.044148788452148438e+02,-1.152676925659179688e+02,6.417075347900390625e+01,-3.564743804931640625e+01
2.505089938640594482e-01,2.000000000000000000e+00,3.596162796020507812e+01,1.204907417297363281e+01,3.547378540039062500e+01,-1.096713867187500000e+02,9.082509613037109375e+01,-6.433112335205078125e+01,5.220116043090820312e+01,-1.511359500885009766e+01,-1.044300537109375000e+02,-1.153212738037109375e+02,6.416580200195312500e+01,-3.568369293212890625e+01
2.519559860229492188e-01,2.000000000000000000e+00,3.596162796020507812e+01,1.204907417297363281e+01,3.547378540039062500e+01,-1.096713867187500000e+02,9.082509613037109375e+01,-6.433112335205078125e+01,5.220116043090820312e+01,-1.511359500885009766e+01,-1.044300537109375000e+02,-1.153212738037109375e+02,6.416580200195312500e+01,-3.568369293212890625e+01
2.559230029582977295e-01,2.000000000000000000e+00,3.599039459228515625e+01,1.200078296661376953e+01,3.546825408935546875e+01,-1.097257995605468750e+02,9.082792663574218750e+01,-6.435655975341796875e+01,5.212672805786132812e+01,-1.510434913635253906e+01,-1.044450607299804688e+02,-1.153753356933593750e+02,6.415990447998046875e+01,-3.571829605102539062e+01
2.597190141677856445e-01,2.000000000000000000e+00,3.601913070678710938e+01,1.195260334014892578e+01,3.546280670166015625e+01,-1.097801666259765625e+02,9.083042144775390625e+01,-6.438171386718750000e+01,5.205377960205078125e+01,-1.509505653381347656e+01,-1.044598007202148438e+02,-1.154301147460937500e+02,6.415414428710937500e+01,-3.575422286987304688e+01
2.640610039234161377e-01,2.000000000000000000e+00,3.604812240600585938e+01,1.190442371368408203e+01,3.545739746093750000e+01,-1.098352050781250000e+02,9.083303833007812500e+01,-6.440768432617187500e+01,5.198099517822265625e+01,-1.508558082580566406e+01,-1.044745407104492188e+02,-1.154846878051757812e+02,6.414853668212890625e+01,-3.579047775268554688e+01
2.679150104522705078e-01,2.000000000000000000e+00,3.607711791992187500e+01,1.185629081726074219e+01,3.545178604125976562e+01,-1.098890380859375000e+02,9.083608245849609375e+01,-6.443393707275390625e+01,5.190732955932617188e+01,-1.507628822326660156e+01,-1.044891738891601562e+02,-1.155391921997070312e+02,6.414335632324218750e+01,-3.582464599609375000e+01
2.709420025348663330e-01,2.000000000000000000e+00,3.610605239868164062e+01,1.180811119079589844e+01,3.544623565673828125e+01,-1.099431838989257812e+02,9.083869171142578125e+01,-6.446031188964843750e+01,5.183295440673828125e+01,-1.506662940979003906e+01,-1.045041275024414062e+02,-1.155928421020507812e+02,6.413789367675781250e+01,-3.585903167724609375e+01
2.760179936885833740e-01,2.000000000000000000e+00,3.610605239868164062e+01,1.180811119079589844e+01,3.544623565673828125e+01,-1.099431838989257812e+02,9.083869171142578125e+01,-6.446031188964843750e+01,5.183295440673828125e+01,-1.506662940979003906e+01,-1.045041275024414062e+02,-1.155928421020507812e+02,6.413789367675781250e+01,-3.585903167724609375e+01
2.790119946002960205e-01,2.000000000000000000e+00,3.616369628906250000e+01,1.171227359771728516e+01,3.543544006347656250e+01,-1.100519561767578125e+02,9.084423828125000000e+01,-6.451070404052734375e+01,5.168568038940429688e+01,-1.504781532287597656e+01,-1.045339889526367188e+02,-1.157020568847656250e+02,6.412791442871093750e+01,-3.592286300659179688e+01
2.840169966220855713e-01,2.000000000000000000e+00,3.616369628906250000e+01,1.171227359771728516e+01,3.543544006347656250e+01,-1.100519561767578125e+02,9.084423828125000000e+01,-6.451070404052734375e+01,5.168568038940429688e+01,-1.504781532287597656e+01,-1.045339889526367188e+02,-1.157020568847656250e+02,6.412791442871093750e+01,-3.592286300659179688e+01
2.869279980659484863e-01,2.000000000000000000e+00,3.622154235839843750e+01,1.161616420745849609e+01,3.542484664916992188e+01,-1.101607818603515625e+02,9.084957122802734375e+01,-6.456136322021484375e+01,5.153956222534179688e+01,-1.502950572967529297e+01,-1.045641174316406250e+02,-1.158100509643554688e+02,6.412098693847656250e+01,-3.597966384887695312e+01
2.919700145721435547e-01,2.000000000000000000e+00,3.622154235839843750e+01,1.161616420745849609e+01,3.542484664916992188e+01,-1.101607818603515625e+02,9.084957122802734375e+01,-6.456136322021484375e+01,5.153956222534179688e+01,-1.502950572967529297e+01,-1.045641174316406250e+02,-1.158100509643554688e+02,6.412098693847656250e+01,-3.597966384887695312e+01
2.949880063533782959e-01,2.000000000000000000e+00,3.627886962890625000e+01,1.152037143707275391e+01,3.541386795043945312e+01,-1.102693939208984375e+02,9.085506439208984375e+01,-6.461344909667968750e+01,5.139300918579101562e+01,-1.501068973541259766e+01,-1.045946807861328125e+02,-1.159186248779296875e+02,6.411545562744140625e+01,-3.603415679931640625e+01
2.990419864654541016e-01,2.000000000000000000e+00,3.627886962890625000e+01,1.152037143707275391e+01,3.541386795043945312e+01,-1.102693939208984375e+02,9.085506439208984375e+01,-6.461344909667968750e+01,5.139300918579101562e+01,-1.501068973541259766e+01,-1.045946807861328125e+02,-1.159186248779296875e+02,6.411545562744140625e+01,-3.603415679931640625e+01
3.029670119285583496e-01,2.000000000000000000e+00,3.630760574340820312e+01,1.147255420684814453e+01,3.540850067138671875e+01,-1.103229141235351562e+02,9.085762023925781250e+01,-6.463935089111328125e+01,5.132104492187500000e+01,-1.500158023834228516e+01,-1.046101303100585938e+02,-1.159735565185546875e+02,6.411231994628906250e+01,-3.606074142456054688e+01
3.082720041275024414e-01,2.000000000000000000e+00,3.633608245849609375e+01,1.142482852935791016e+01,3.540311050415039062e+01,-1.103773269653320312e+02,9.086061096191406250e+01,-6.466498565673828125e+01,5.124826049804687500e+01,-1.499238014221191406e+01,-1.046253585815429688e+02,-1.160281295776367188e+02,6.410962677001953125e+01,-3.608798980712890625e+01
3.119890093803405762e-01,2.000000000000000000e+00,3.639401626586914062e+01,1.132935237884521484e+01,3.539197158813476562e+01,-1.104856719970703125e+02,9.086588287353515625e+01,-6.471469879150390625e+01,5.110148620605468750e+01,-1.497406959533691406e+01,-1.046555480957031250e+02,-1.161366195678710938e+02,6.410408782958984375e+01,-3.614544677734375000e+01
3.161239922046661377e-01,2.000000000000000000e+00,3.642286300659179688e+01,1.128146839141845703e+01,3.538629913330078125e+01,-1.105403518676757812e+02,9.086860656738281250e+01,-6.473958587646484375e+01,5.102919387817382812e+01,-1.496477699279785156e+01,-1.046710433959960938e+02,-1.161909027099609375e+02,6.410073852539062500e+01,-3.617444992065429688e+01
3.191289901733398438e-01,2.000000000000000000e+00,3.645191574096679688e+01,1.123351478576660156e+01,3.538090896606445312e+01,-1.105946121215820312e+02,9.087142944335937500e+01,-6.476528930664062500e+01,5.095706558227539062e+01,-1.495580387115478516e+01,-1.046864395141601562e+02,-1.162450561523437500e+02,6.409716796875000000e+01,-3.620488357543945312e+01
3.229770064353942871e-01,2.000000000000000000e+00,3.645191574096679688e+01,1.123351478576660156e+01,3.538090896606445312e+01,-1.105946121215820312e+02,9.087142944335937500e+01,-6.476528930664062500e+01,5.095706558227539062e+01,-1.495580387115478516e+01,-1.046864395141601562e+02,-1.162450561523437500e+02,6.409716796875000000e+01,-3.620488357543945312e+01
3.279219865798950195e-01,2.000000000000000000e+00,3.650964355468750000e+01,1.113824272155761719e+01,3.537013626098632812e+01,-1.107036972045898438e+02,9.087713623046875000e+01,-6.481716156005859375e+01,5.081182861328125000e+01,-1.493808841705322266e+01,-1.047168426513671875e+02,-1.163533401489257812e+02,6.409046936035156250e+01,-3.626409912109375000e+01
3.309240043163299561e-01,2.000000000000000000e+00,3.653869628906250000e+01,1.109044933319091797e+01,3.536456298828125000e+01,-1.107577896118164062e+02,9.087974548339843750e+01,-6.484307098388671875e+01,5.073888015747070312e+01,-1.492907047271728516e+01,-1.047319564819335938e+02,-1.164075469970703125e+02,6.408696746826171875e+01,-3.629562759399414062e+01
3.349910080432891846e-01,2.000000000000000000e+00,3.656771469116210938e+01,1.104258632659912109e+01,3.535890960693359375e+01,-1.108116226196289062e+02,9.088262939453125000e+01,-6.486782073974609375e+01,5.066653442382812500e+01,-1.491982460021972656e+01,-1.047472457885742188e+02,-1.164623336791992188e+02,6.408368682861328125e+01,-3.632694244384765625e+01
3.399800062179565430e-01,2.000000000000000000e+00,3.656771469116210938e+01,1.104258632659912109e+01,3.535890960693359375e+01,-1.108116226196289062e+02,9.088262939453125000e+01,-6.486782073974609375e+01,5.066653442382812500e+01,-1.491982460021972656e+01,-1.047472457885742188e+02,-1.164623336791992188e+02,6.408368682861328125e+01,-3.632694244384765625e+01
3.429250121116638184e-01,2.000000000000000000e+00,3.662556076049804688e+01,1.094677066802978516e+01,3.534793090820312500e+01,-1.109202957153320312e+02,9.088838958740234375e+01,-6.491732788085937500e+01,5.052190017700195312e+01,-1.490165138244628906e+01,-1.047773132324218750e+02,-1.165719909667968750e+02,6.407691192626953125e+01,-3.639505767822265625e+01
3.479639887809753418e-01,2.000000000000000000e+00,3.662556076049804688e+01,1.094677066802978516e+01,3.534793090820312500e+01,-1.109202957153320312e+02,9.088838958740234375e+01,-6.491732788085937500e+01,5.052190017700195312e+01,-1.490165138244628906e+01,-1.047773132324218750e+02,-1.165719909667968750e+02,6.407691192626953125e+01,-3.639505767822265625e+01
3.509320020675659180e-01,2.000000000000000000e+00,3.668343353271484375e+01,1.085091114044189453e+01,3.533689117431640625e+01,-1.110288543701171875e+02,9.089418792724609375e+01,-6.496853637695312500e+01,5.037490463256835938e+01,-1.488334083557128906e+01,-1.048073959350585938e+02,-1.166804809570312500e+02,6.406977081298828125e+01,-3.646503829956054688e+01
3.559759855270385742e-01,2.000000000000000000e+00,3.668343353271484375e+01,1.085091114044189453e+01,3.533689117431640625e+01,-1.110288543701171875e+02,9.089418792724609375e+01,-6.496853637695312500e+01,5.037490463256835938e+01,-1.488334083557128906e+01,-1.048073959350585938e+02,-1.166804809570312500e+02,6.406977081298828125e+01,-3.646503829956054688e+01
3.598949909210205078e-01,2.000000000000000000e+00,3.674145126342773438e+01,1.075484657287597656e+01,3.532574844360351562e+01,-1.111370391845703125e+02,9.089994812011718750e+01,-6.502027893066406250e+01,5.022938919067382812e+01,-1.486461734771728516e+01,-1.048374176025390625e+02,-1.167891159057617188e+02,6.406139373779296875e+01,-3.653513336181640625e+01
3.662050068378448486e-01,2.000000000000000000e+00,3.677033233642578125e+01,1.070673561096191406e+01,3.532048416137695312e+01,-1.111914062500000000e+02,9.090299224853515625e+01,-6.504543304443359375e+01,5.015671539306640625e+01,-1.485532569885253906e+01,-1.048524246215820312e+02,-1.168436203002929688e+02,6.405709075927734375e+01,-3.656973648071289062e+01
3.677459955215454102e-01,2.000000000000000000e+00,3.679924011230468750e+01,1.065857982635498047e+01,3.531499481201171875e+01,-1.112457122802734375e+02,9.090592193603515625e+01,-6.506978607177734375e+01,5.008332443237304688e+01,-1.484612464904785156e+01,-1.048672790527343750e+02,-1.168977584838867188e+02,6.405250549316406250e+01,-3.660390472412109375e+01
3.729340136051177979e-01,2.000000000000000000e+00,3.679924011230468750e+01,1.065857982635498047e+01,3.531499481201171875e+01,-1.112457122802734375e+02,9.090592193603515625e+01,-6.506978607177734375e+01,5.008332443237304688e+01,-1.483701515197753906e+01,-1.048818511962890625e+02,-1.169519119262695312e+02,6.404783630371093750e+01,-3.663796615600585938e+01
3.755240142345428467e-01,2.000000000000000000e+00,3.685734176635742188e+01,1.056208515167236328e+01,3.530374908447265625e+01,-1.113535842895507812e+02,9.091205596923828125e+01,-6.511989593505859375e+01,4.993572616577148438e+01,-1.482781314849853516e+01,-1.048965377807617188e+02,-1.170064849853515625e+02,6.404273986816406250e+01,-3.667081451416015625e+01
3.790239989757537842e-01,2.000000000000000000e+00,3.685734176635742188e+01,1.056208515167236328e+01,3.530374908447265625e+01,-1.113535842895507812e+02,9.091205596923828125e+01,-6.511989593505859375e+01,4.993572616577148438e+01,-1.482781314849853516e+01,-1.048965377807617188e+02,-1.170064849853515625e+02,6.404273986816406250e+01,-3.667081451416015625e+01
3.841649889945983887e-01,2.000000000000000000e+00,3.688670730590820312e+01,1.051395130157470703e+01,3.529817962646484375e+01,-1.114082107543945312e+02,9.091509246826171875e+01,-6.514553833007812500e+01,4.986304855346679688e+01,-1.481865882873535156e+01,-1.049116058349609375e+02,-1.170606994628906250e+02,6.403749084472656250e+01,-3.670333480834960938e+01
3.878259956836700439e-01,2.000000000000000000e+00,3.694463729858398438e+01,1.041781997680664062e+01,3.528709793090820312e+01,-1.115166625976562500e+02,9.092095947265625000e+01,-6.519734954833984375e+01,4.971605300903320312e+01,-1.480025672912597656e+01,-1.049414062500000000e+02,-1.171692581176757812e+02,6.402692413330078125e+01,-3.676628494262695312e+01
3.919950127601623535e-01,2.000000000000000000e+00,3.694463729858398438e+01,1.041781997680664062e+01,3.528709793090820312e+01,-1.115166625976562500e+02,9.092095947265625000e+01,-6.519734954833984375e+01,4.971605300903320312e+01,-1.480025672912597656e+01,-1.049414062500000000e+02,-1.171692581176757812e+02,6.402692413330078125e+01,-3.676628494262695312e+01
3.960359990596771240e-01,2.000000000000000000e+00,3.697340393066406250e+01,1.036982154846191406e+01,3.528144454956054688e+01,-1.115712356567382812e+02,9.092420959472656250e+01,-6.522270965576171875e+01,4.956911087036132812e+01,-1.478190040588378906e+01,-1.049715423583984375e+02,-1.172767562866210938e+02,6.401716613769531250e+01,-3.682099533081054688e+01
3.999890089035034180e-01,2.000000000000000000e+00,3.700242233276367188e+01,1.032177734375000000e+01,3.527569198608398438e+01,-1.116249618530273438e+02,9.092724609375000000e+01,-6.524753570556640625e+01,4.956911087036132812e+01,-1.478190040588378906e+01,-1.049715423583984375e+02,-1.172767562866210938e+02,6.401716613769531250e+01,-3.682099533081054688e+01
4.050129950046539307e-01,2.000000000000000000e+00,3.703121566772460938e+01,1.027393817901611328e+01,3.527009963989257812e+01,-1.116793212890625000e+02,9.093050384521484375e+01,-6.527221679687500000e+01,4.949687576293945312e+01,-1.477260780334472656e+01,-1.049864959716796875e+02,-1.173309707641601562e+02,6.401191711425781250e+01,-3.684769439697265625e+01
4.077509939670562744e-01,2.000000000000000000e+00,3.708911895751953125e+01,1.017810058593750000e+01,3.525924301147460938e+01,-1.117874603271484375e+02,9.093669128417968750e+01,-6.532308197021484375e+01,4.935070419311523438e+01,-1.475388526916503906e+01,-1.050166244506835938e+02,-1.174391860961914062e+02,6.400331878662109375e+01,-3.689779281616210938e+01
4.128180146217346191e-01,2.000000000000000000e+00,3.711791229248046875e+01,1.013017082214355469e+01,3.525381851196289062e+01,-1.118416671752929688e+02,9.093950653076171875e+01,-6.534844207763671875e+01,4.927725982666015625e+01,-1.474482154846191406e+01,-1.050319137573242188e+02,-1.174929046630859375e+02,6.399894714355468750e+01,-3.692284011840820312e+01
4.155330061912536621e-01,2.000000000000000000e+00,3.714684677124023438e+01,1.008228588104248047e+01,3.524816131591796875e+01,-1.118954467773437500e+02,9.094244384765625000e+01,-6.537475585937500000e+01,4.920458602905273438e+01,-1.473584938049316406e+01,-1.050469741821289062e+02,-1.175469665527343750e+02,6.399501419067382812e+01,-3.694964599609375000e+01
4.200209975242614746e-01,2.000000000000000000e+00,3.714684677124023438e+01,1.008228588104248047e+01,3.524816131591796875e+01,-1.118954467773437500e+02,9.094244384765625000e+01,-6.537475585937500000e+01,4.920458602905273438e+01,-1.473584938049316406e+01,-1.050469741821289062e+02,-1.175469665527343750e+02,6.399501419067382812e+01,-3.694964599609375000e+01
4.240010082721710205e-01,2.000000000000000000e+00,3.717572784423828125e+01,1.003446865081787109e+01,3.524261093139648438e+01,-1.119492721557617188e+02,9.094543457031250000e+01,-6.540012359619140625e+01,4.913229370117187500e+01,-1.472669410705566406e+01,-1.050620956420898438e+02,-1.176016769409179688e+02,6.399137496948242188e+01,-3.697502517700195312e+01
4.279560148715972900e-01,2.000000000000000000e+00,3.720428848266601562e+01,9.986719131469726562e+00,3.523710250854492188e+01,-1.120038452148437500e+02,9.094825744628906250e+01,-6.542487335205078125e+01,4.906011581420898438e+01,-1.471744728088378906e+01,-1.050776443481445312e+02,-1.176552581787109375e+02,6.398743820190429688e+01,-3.700095367431640625e+01
4.319890141487121582e-01,2.000000000000000000e+00,3.723328399658203125e+01,9.938970565795898438e+00,3.523159027099609375e+01,-1.120574722290039062e+02,9.095134735107421875e+01,-6.544969177246093750e+01,4.898683547973632812e+01,-1.470833778381347656e+01,-1.050931472778320312e+02,-1.177087478637695312e+02,6.398357391357421875e+01,-3.702621841430664062e+01
4.387289881706237793e-01,2.000000000000000000e+00,3.729090118408203125e+01,9.843358993530273438e+00,3.522045135498046875e+01,-1.121659317016601562e+02,9.095705413818359375e+01,-6.549994659423828125e+01,4.884143066406250000e+01,-1.469021034240722656e+01,-1.051234436035156250e+02,-1.178168869018554688e+02,6.397679901123046875e+01,-3.707829666137695312e+01
4.403719902038574219e-01,2.000000000000000000e+00,3.731995391845703125e+01,9.795495986938476562e+00,3.521504211425781250e+01,-1.122192306518554688e+02,9.095987701416015625e+01,-6.552564239501953125e+01,4.877013015747070312e+01,-1.468128299713134766e+01,-1.051385650634765625e+02,-1.178713912963867188e+02,6.397366333007812500e+01,-3.710631179809570312e+01
4.449360072612762451e-01,2.000000000000000000e+00,3.731995391845703125e+01,9.795495986938476562e+00,3.521504211425781250e+01,-1.122192306518554688e+02,9.095987701416015625e+01,-6.552564239501953125e+01,4.877013015747070312e+01,-1.468128299713134766e+01,-1.051385650634765625e+02,-1.178713912963867188e+02,6.397366333007812500e+01,-3.710631179809570312e+01
4.475840032100677490e-01,2.000000000000000000e+00,3.737791061401367188e+01,9.699681282043457031e+00,3.520433044433593750e+01,-1.123277893066406250e+02,9.096558380126953125e+01,-6.557752990722656250e+01,4.862450790405273438e+01,-1.466279029846191406e+01,-1.051690216064453125e+02,-1.179798812866210938e+02,6.396703720092773438e+01,-3.716805648803710938e+01
4.520289897918701172e-01,2.000000000000000000e+00,3.737791061401367188e+01,9.699681282043457031e+00,3.520433044433593750e+01,-1.123277893066406250e+02,9.096558380126953125e+01,-6.557752990722656250e+01,4.862450790405273438e+01,-1.466279029846191406e+01,-1.051690216064453125e+02,-1.179798812866210938e+02,6.396703720092773438e+01,-3.716805648803710938e+01
4.551439881324768066e-01,2.000000000000000000e+00,3.740681838989257812e+01,9.652045249938964844e+00,3.519877624511718750e+01,-1.123817825317382812e+02,9.096857452392578125e+01,-6.560262298583984375e+01,4.855128479003906250e+01,-1.465390968322753906e+01,-1.051843566894531250e+02,-1.180344543457031250e+02,6.396353912353515625e+01,-3.720156097412109375e+01
4.602839946746826172e-01,2.000000000000000000e+00,3.743558120727539062e+01,9.604273796081542969e+00,3.519310379028320312e+01,-1.124364013671875000e+02,9.097138977050781250e+01,-6.562737274169921875e+01,4.847877502441406250e+01,-1.464512062072753906e+01,-1.051996383666992188e+02,-1.180886001586914062e+02,6.395996856689453125e+01,-3.723551177978515625e+01
4.640839993953704834e-01,2.000000000000000000e+00,3.749362564086914062e+01,9.508548736572265625e+00,3.518206405639648438e+01,-1.125439682006835938e+02,9.097683715820312500e+01,-6.567742919921875000e+01,4.833457946777343750e+01,-1.462690162658691406e+01,-1.052296066284179688e+02,-1.181968078613281250e+02,6.395347976684570312e+01,-3.730626296997070312e+01
4.671770036220550537e-01,2.000000000000000000e+00,3.749362564086914062e+01,9.508548736572265625e+00,3.518206405639648438e+01,-1.125439682006835938e+02,9.097683715820312500e+01,-6.567742919921875000e+01,4.833457946777343750e+01,-1.462690162658691406e+01,-1.052296066284179688e+02,-1.181968078613281250e+02,6.395347976684570312e+01,-3.730626296997070312e+01
4.710659980773925781e-01,2.000000000000000000e+00,3.752244949340820312e+01,9.460574150085449219e+00,3.517647171020507812e+01,-1.125982208251953125e+02,9.097966003417968750e+01,-6.570285797119140625e+01,4.826135253906250000e+01,-1.461756324768066406e+01,-1.052444534301757812e+02,-1.182510910034179688e+02,6.395013427734375000e+01,-3.734130859375000000e+01
4.751270115375518799e-01,2.000000000000000000e+00,3.755118560791015625e+01,9.412620544433593750e+00,3.517081832885742188e+01,-1.126520538330078125e+02,9.098237609863281250e+01,-6.572882843017578125e+01,4.818796539306640625e+01,-1.460840702056884766e+01,-1.052595214843750000e+02,-1.183053817749023438e+02,6.394626617431640625e+01,-3.737712478637695312e+01
4.792580008506774902e-01,2.000000000000000000e+00,3.758026504516601562e+01,9.364849090576171875e+00,3.516510772705078125e+01,-1.127060470581054688e+02,9.098526000976562500e+01,-6.575486755371093750e+01,4.811573028564453125e+01,-1.459934329986572266e+01,-1.052745895385742188e+02,-1.183603897094726562e+02,6.394211578369140625e+01,-3.741260910034179688e+01
4.840889871120452881e-01,2.000000000000000000e+00,3.760923004150390625e+01,9.316941261291503906e+00,3.515955734252929688e+01,-1.127600402832031250e+02,9.098782348632812500e+01,-6.577989196777343750e+01,4.804376983642578125e+01,-1.458991432189941406e+01,-1.052892150878906250e+02,-1.184148788452148438e+02,6.393745803833007812e+01,-3.744908523559570312e+01
4.871180057525634766e-01,2.000000000000000000e+00,3.763825225830078125e+01,9.269033432006835938e+00,3.515419006347656250e+01,-1.128135528564453125e+02,9.099053955078125000e+01,-6.580458068847656250e+01,4.797071075439453125e+01,-1.458057594299316406e+01,-1.053039016723632812e+02,-1.184685287475585938e+02,6.393315505981445312e+01,-3.748588943481445312e+01
4.912590086460113525e-01,2.000000000000000000e+00,3.766735839843750000e+01,9.221126556396484375e+00,3.514868164062500000e+01,-1.128678054809570312e+02,9.099336242675781250e+01,-6.582920074462890625e+01,4.789715576171875000e+01,-1.457110023498535156e+01,-1.053190765380859375e+02,-1.185226593017578125e+02,6.392907714843750000e+01,-3.752214431762695312e+01
4.952329993247985840e-01,2.000000000000000000e+00,3.769630050659179688e+01,9.173038482666015625e+00,3.514310836791992188e+01,-1.129216918945312500e+02,9.099608612060546875e+01,-6.585428619384765625e+01,4.782393264770507812e+01,-1.456166934967041016e+01,-1.053341369628906250e+02,-1.185766601562500000e+02,6.392404937744140625e+01,-3.755784988403320312e+01
4.993039965629577637e-01,2.000000000000000000e+00,3.772523498535156250e+01,9.125084877014160156e+00,3.513743591308593750e+01,-1.129758377075195312e+02,9.099880218505859375e+01,-6.587917327880859375e+01,4.775169754028320312e+01,-1.455246925354003906e+01,-1.053487701416015625e+02,-1.186303024291992188e+02,6.391843414306640625e+01,-3.759157943725585938e+01
5.033910274505615234e-01,2.000000000000000000e+00,3.775417327880859375e+01,9.077155113220214844e+00,3.513192367553710938e+01,-1.130295715332031250e+02,9.100167846679687500e+01,-6.590494537353515625e+01,4.767935180664062500e+01,-1.454326725006103516e+01,-1.053632888793945312e+02,-1.186848144531250000e+02,6.391348266601562500e+01,-3.762486648559570312e+01
5.085520148277282715e-01,2.000000000000000000e+00,3.778325271606445312e+01,9.029179573059082031e+00,3.512641525268554688e+01,-1.130830841064453125e+02,9.100424194335937500e+01,-6.593106079101562500e+01,4.760623931884765625e+01,-1.453415775299072266e+01,-1.053780288696289062e+02,-1.187384414672851562e+02,6.390889358520507812e+01,-3.765540695190429688e+01
5.155280232429504395e-01,2.000000000000000000e+00,3.781230163574218750e+01,8.981294631958007812e+00,3.512088394165039062e+01,-1.131377105712890625e+02,9.100695800781250000e+01,-6.595689392089843750e+01,4.753268432617187500e+01,-1.452486515045166016e+01,-1.053928222656250000e+02,-1.187921524047851562e+02,6.390436935424804688e+01,-3.768551254272460938e+01
5.169829726219177246e-01,2.000000000000000000e+00,3.787017440795898438e+01,8.885478973388671875e+00,3.510968399047851562e+01,-1.132456359863281250e+02,9.101250457763671875e+01,-6.600572967529296875e+01,4.738733673095703125e+01,-1.450595951080322266e+01,-1.054227447509765625e+02,-1.189006576538085938e+02,6.389482879638671875e+01,-3.774110031127929688e+01
5.209940075874328613e-01,2.000000000000000000e+00,3.787017440795898438e+01,8.885478973388671875e+00,3.510968399047851562e+01,-1.132456359863281250e+02,9.101250457763671875e+01,-6.600572967529296875e+01,4.738733673095703125e+01,-1.450595951080322266e+01,-1.054227447509765625e+02,-1.189006576538085938e+02,6.389482879638671875e+01,-3.774110031127929688e+01
5.239229798316955566e-01,2.000000000000000000e+00,3.789882659912109375e+01,8.837753295898437500e+00,3.510425186157226562e+01,-1.132997360229492188e+02,9.101522064208984375e+01,-6.603075408935546875e+01,4.724220657348632812e+01,-1.448783206939697266e+01,-1.054525451660156250e+02,-1.190074996948242188e+02,6.388674163818359375e+01,-3.779394531250000000e+01
5.276560187339782715e-01,2.000000000000000000e+00,3.792761611938476562e+01,8.790117263793945312e+00,3.509893035888671875e+01,-1.133530883789062500e+02,9.101794433593750000e+01,-6.605563354492187500e+01,4.724220657348632812e+01,-1.448783206939697266e+01,-1.054525451660156250e+02,-1.190074996948242188e+02,6.388674163818359375e+01,-3.779394531250000000e+01
5.324519872665405273e-01,2.000000000000000000e+00,3.795655441284179688e+01,8.742390632629394531e+00,3.509355926513671875e+01,-1.134076080322265625e+02,9.102076721191406250e+01,-6.608086395263671875e+01,4.716876602172851562e+01,-1.447835731506347656e+01,-1.054672241210937500e+02,-1.190604171752929688e+02,6.388236999511718750e+01,-3.781976318359375000e+01
5.355669856071472168e-01,2.000000000000000000e+00,3.798537826538085938e+01,8.694459915161132812e+00,3.508808898925781250e+01,-1.134620208740234375e+02,9.102348327636718750e+01,-6.610697937011718750e+01,4.709587097167968750e+01,-1.446874332427978516e+01,-1.054821319580078125e+02,-1.191137771606445312e+02,6.387784957885742188e+01,-3.784470367431640625e+01
5.410580039024353027e-01,2.000000000000000000e+00,3.801413726806640625e+01,8.646620750427246094e+00,3.508245849609375000e+01,-1.135153274536132812e+02,9.102620697021484375e+01,-6.613254547119140625e+01,4.702357864379882812e+01,-1.445940494537353516e+01,-1.054970855712890625e+02,-1.191682815551757812e+02,6.387319183349609375e+01,-3.786909484863281250e+01
5.451760292053222656e-01,2.000000000000000000e+00,3.807169723510742188e+01,8.551303863525390625e+00,3.507145690917968750e+01,-1.136230468750000000e+02,9.103185272216796875e+01,-6.618177795410156250e+01,4.687932968139648438e+01,-1.444159889221191406e+01,-1.055270538330078125e+02,-1.192760620117187500e+02,6.386481094360351562e+01,-3.791852951049804688e+01
5.477290153503417969e-01,2.000000000000000000e+00,3.807169723510742188e+01,8.551303863525390625e+00,3.507145690917968750e+01,-1.136230468750000000e+02,9.103185272216796875e+01,-6.618177795410156250e+01,4.687932968139648438e+01,-1.444159889221191406e+01,-1.055270538330078125e+02,-1.192760620117187500e+02,6.386481094360351562e+01,-3.791852951049804688e+01
5.519649982452392578e-01,2.000000000000000000e+00,3.810065841674804688e+01,8.503600120544433594e+00,3.506590652465820312e+01,-1.136768264770507812e+02,9.103468322753906250e+01,-6.620673370361328125e+01,4.680610656738281250e+01,-1.443267154693603516e+01,-1.055420684814453125e+02,-1.193300552368164062e+02,6.386058425903320312e+01,-3.794313812255859375e+01
5.570219755172729492e-01,2.000000000000000000e+00,3.812965393066406250e+01,8.455827713012695312e+00,3.506021499633789062e+01,-1.137312927246093750e+02,9.103750610351562500e+01,-6.623148345947265625e+01,4.673288345336914062e+01,-1.442356300354003906e+01,-1.055574035644531250e+02,-1.193833312988281250e+02,6.385606765747070312e+01,-3.796829986572265625e+01
5.596730113029479980e-01,2.000000000000000000e+00,3.815847778320312500e+01,8.408169746398925781e+00,3.505452346801757812e+01,-1.137845993041992188e+02,9.104049682617187500e+01,-6.625698852539062500e+01,4.666064453125000000e+01,-1.441449928283691406e+01,-1.055727386474609375e+02,-1.194370498657226562e+02,6.385169601440429688e+01,-3.799565124511718750e+01
5.643119812011718750e-01,2.000000000000000000e+00,3.818715286254882812e+01,8.360397338867187500e+00,3.504897308349609375e+01,-1.138386383056640625e+02,9.104347991943359375e+01,-6.628269195556640625e+01,4.658895874023437500e+01,-1.440575504302978516e+01,-1.055878601074218750e+02,-1.194914703369140625e+02,6.384783172607421875e+01,-3.802399826049804688e+01
5.678840279579162598e-01,2.000000000000000000e+00,3.821577453613281250e+01,8.312467575073242188e+00,3.504362487792968750e+01,-1.138923645019531250e+02,9.104630279541015625e+01,-6.630825805664062500e+01,4.651661300659179688e+01,-1.439664554595947266e+01,-1.056029739379882812e+02,-1.195446777343750000e+02,6.384411621093750000e+01,-3.805322647094726562e+01
5.719760060310363770e-01,2.000000000000000000e+00,3.824459457397460938e+01,8.264401435852050781e+00,3.503817749023437500e+01,-1.139459381103515625e+02,9.104924011230468750e+01,-6.633382415771484375e+01,4.644366455078125000e+01,-1.438781070709228516e+01,-1.056179885864257812e+02,-1.195981063842773438e+02,6.384083557128906250e+01,-3.808409500122070312e+01
5.760409832000732422e-01,2.000000000000000000e+00,3.827364730834960938e+01,8.216607093811035156e+00,3.503262329101562500e+01,-1.140005645751953125e+02,9.105216979980468750e+01,-6.635830688476562500e+01,4.637049484252929688e+01,-1.437883949279785156e+01,-1.056332244873046875e+02,-1.196523208618164062e+02,6.383749008178710938e+01,-3.811540603637695312e+01
5.809410214424133301e-01,2.000000000000000000e+00,3.830261611938476562e+01,8.169061660766601562e+00,3.502699279785156250e+01,-1.140543899536132812e+02,9.105499267578125000e+01,-6.638299560546875000e+01,4.629825973510742188e+01,-1.436959266662597656e+01,-1.056482849121093750e+02,-1.197060317993164062e+02,6.383413696289062500e+01,-3.814891052246093750e+01
5.841400027275085449e-01,2.000000000000000000e+00,3.833123397827148438e+01,8.121357917785644531e+00,3.502133941650390625e+01,-1.141078567504882812e+02,9.105809020996093750e+01,-6.640808105468750000e+01,4.622640991210937500e+01,-1.436048316955566406e+01,-1.056635665893554688e+02,-1.197608947753906250e+02,6.383063888549804688e+01,-3.818407058715820312e+01
5.892440080642700195e-01,2.000000000000000000e+00,3.835988235473632812e+01,8.073495864868164062e+00,3.501589584350585938e+01,-1.141624298095703125e+02,9.106118011474609375e+01,-6.643344879150390625e+01,4.615390014648437500e+01,-1.435160255432128906e+01,-1.056789093017578125e+02,-1.198152465820312500e+02,6.382655334472656250e+01,-3.821801757812500000e+01
5.920010209083557129e-01,2.000000000000000000e+00,3.838844680786132812e+01,8.025701522827148438e+00,3.501040267944335938e+01,-1.142158966064453125e+02,9.106422424316406250e+01,-6.645867156982421875e+01,4.608062362670898438e+01,-1.434290409088134766e+01,-1.056940765380859375e+02,-1.198685226440429688e+02,6.382299041748046875e+01,-3.825240707397460938e+01
5.961279869079589844e-01,2.000000000000000000e+00,3.841735458374023438e+01,7.977612495422363281e+00,3.500483322143554688e+01,-1.142696228027343750e+02,9.106742095947265625e+01,-6.648458099365234375e+01,4.600767135620117188e+01,-1.433388614654541016e+01,-1.057089843750000000e+02,-1.199227447509765625e+02,6.381949234008789062e+01,-3.828778076171875000e+01
6.004300117492675781e-01,2.000000000000000000e+00,3.844617462158203125e+01,7.929795742034912109e+00,3.499916076660156250e+01,-1.143239822387695312e+02,9.107035064697265625e+01,-6.651027679443359375e+01,4.593604278564453125e+01,-1.432482242584228516e+01,-1.057238311767578125e+02,-1.199768066406250000e+02,6.381548309326171875e+01,-3.832337570190429688e+01
6.053519845008850098e-01,2.000000000000000000e+00,3.847491455078125000e+01,7.882181644439697266e+00,3.499366760253906250e+01,-1.143778152465820312e+02,9.107338714599609375e+01,-6.653510284423828125e+01,4.586413574218750000e+01,-1.431571388244628906e+01,-1.057389526367187500e+02,-1.200301666259765625e+02,6.381183624267578125e+01,-3.835908508300781250e+01
6.079350113868713379e-01,2.000000000000000000e+00,3.850367736816406250e+01,7.834501266479492188e+00,3.498834609985351562e+01,-1.144313888549804688e+02,9.107632446289062500e+01,-6.655965423583984375e+01,4.579151916503906250e+01,-1.430669498443603516e+01,-1.057538452148437500e+02,-1.200843048095703125e+02,6.380833816528320312e+01,-3.839423751831054688e+01
6.121320128440856934e-01,2.000000000000000000e+00,3.853252792358398438e+01,7.786638736724853516e+00,3.498297500610351562e+01,-1.144852676391601562e+02,9.107952117919921875e+01,-6.658467102050781250e+01,4.571818161010742188e+01,-1.429740333557128906e+01,-1.057683715820312500e+02,-1.201388778686523438e+02,6.380447769165039062e+01,-3.842961502075195312e+01
6.161530017852783203e-01,2.000000000000000000e+00,3.856134796142578125e+01,7.738708496093750000e+00,3.497748565673828125e+01,-1.145388412475585938e+02,9.108229827880859375e+01,-6.660949707031250000e+01,4.564534378051757812e+01,-1.428820228576660156e+01,-1.057834396362304688e+02,-1.201927261352539062e+02,6.379996490478515625e+01,-3.846509933471679688e+01
6.209629774093627930e-01,2.000000000000000000e+00,3.859025573730468750e+01,7.690936565399169922e+00,3.497187423706054688e+01,-1.145930938720703125e+02,9.108533477783203125e+01,-6.663526916503906250e+01,4.557332611083984375e+01,-1.427863407135009766e+01,-1.057982330322265625e+02,-1.202472305297851562e+02,6.379551696777343750e+01,-3.850003814697265625e+01
6.243119835853576660e-01,2.000000000000000000e+00,3.861919403076171875e+01,7.643232822418212891e+00,3.496634292602539062e+01,-1.146470336914062500e+02,9.108821105957031250e+01,-6.666117095947265625e+01,4.550136947631835938e+01,-1.426906681060791016e+01,-1.058131332397460938e+02,-1.203010101318359375e+02,6.379122161865234375e+01,-3.853497314453125000e+01
6.269440054893493652e-01,2.000000000000000000e+00,3.864795684814453125e+01,7.595257759094238281e+00,3.496091461181640625e+01,-1.147007598876953125e+02,9.109124755859375000e+01,-6.668681335449218750e+01,4.542836380004882812e+01,-1.425963687896728516e+01,-1.058278198242187500e+02,-1.203545074462890625e+02,6.378691864013671875e+01,-3.856793212890625000e+01
6.309630274772644043e-01,2.000000000000000000e+00,3.867669296264648438e+01,7.547440052032470703e+00,3.495540618896484375e+01,-1.147542266845703125e+02,9.109413146972656250e+01,-6.671210479736328125e+01,4.535508728027343750e+01,-1.425043678283691406e+01,-1.058424530029296875e+02,-1.204084396362304688e+02,6.378232955932617188e+01,-3.859803390502929688e+01
6.349869966506958008e-01,2.000000000000000000e+00,3.870554351806640625e+01,7.499759674072265625e+00,3.494975280761718750e+01,-1.148077926635742188e+02,9.109700775146484375e+01,-6.673671722412109375e+01,4.528224563598632812e+01,-1.424123573303222656e+01,-1.058570785522460938e+02,-1.204617080688476562e+02,6.377730178833007812e+01,-3.862693023681640625e+01
6.412919759750366211e-01,2.000000000000000000e+00,3.873442459106445312e+01,7.452032566070556641e+00,3.494406127929687500e+01,-1.148624725341796875e+02,9.109989166259765625e+01,-6.676168060302734375e+01,4.521011734008789062e+01,-1.423189735412597656e+01,-1.058718719482421875e+02,-1.205154266357421875e+02,6.377227401733398438e+01,-3.865615463256835938e+01
6.429129838943481445e-01,2.000000000000000000e+00,3.876327514648437500e+01,7.404374122619628906e+00,3.493850708007812500e+01,-1.149161453247070312e+02,9.110276794433593750e+01,-6.678670501708984375e+01,4.513849258422851562e+01,-1.422237586975097656e+01,-1.058867263793945312e+02,-1.205694885253906250e+02,6.376819610595703125e+01,-3.868405914306640625e+01
6.469770073890686035e-01,2.000000000000000000e+00,3.879209518432617188e+01,7.356647491455078125e+00,3.493308258056640625e+01,-1.149701309204101562e+02,9.110564422607421875e+01,-6.681213378906250000e+01,4.506581497192382812e+01,-1.421299076080322266e+01,-1.059015197753906250e+02,-1.206232070922851562e+02,6.376375198364257812e+01,-3.871218490600585938e+01
6.509190201759338379e-01,2.000000000000000000e+00,3.882074356079101562e+01,7.309056282043457031e+00,3.492779541015625000e+01,-1.150241317749023438e+02,9.110820770263671875e+01,-6.683790588378906250e+01,4.499231719970703125e+01,-1.420378971099853516e+01,-1.059164123535156250e+02,-1.206771392822265625e+02,6.375828552246093750e+01,-3.873954010009765625e+01
6.549310088157653809e-01,2.000000000000000000e+00,3.884928131103515625e+01,7.261466026306152344e+00,3.492232513427734375e+01,-1.150774841308593750e+02,9.111092376708984375e+01,-6.686360168457031250e+01,4.491914749145507812e+01,-1.419463539123535156e+01,-1.059314804077148438e+02,-1.207309875488281250e+02,6.375282287597656250e+01,-3.876689529418945312e+01
6.590139865875244141e-01,2.000000000000000000e+00,3.887804031372070312e+01,7.213875293731689453e+00,3.491669082641601562e+01,-1.151315307617187500e+02,9.111391448974609375e+01,-6.688883209228515625e+01,4.484724044799804688e+01,-1.418557167053222656e+01,-1.059462738037109375e+02,-1.207844772338867188e+02,6.374888992309570312e+01,-3.879447174072265625e+01
6.629520058631896973e-01,2.000000000000000000e+00,3.890678024291992188e+01,7.166103839874267578e+00,3.491110229492187500e+01,-1.151855697631835938e+02,9.111652374267578125e+01,-6.691358947753906250e+01,4.477555465698242188e+01,-1.417623233795166016e+01,-1.059611816406250000e+02,-1.208382720947265625e+02,6.374495315551757812e+01,-3.882072448730468750e+01
6.669459939002990723e-01,2.000000000000000000e+00,3.893577194213867188e+01,7.118422508239746094e+00,3.490569686889648438e+01,-1.152390899658203125e+02,9.111919403076171875e+01,-6.693786621093750000e+01,4.470277404785156250e+01,-1.416680240631103516e+01,-1.059764022827148438e+02,-1.208919754028320312e+02,6.374094390869140625e+01,-3.884489822387695312e+01
6.709120273590087891e-01,2.000000000000000000e+00,3.896453475952148438e+01,7.070764064788818359e+00,3.490022659301757812e+01,-1.152931823730468750e+02,9.112191009521484375e+01,-6.696276092529296875e+01,4.462955093383789062e+01,-1.415769386291503906e+01,-1.059914169311523438e+02,-1.209447555541992188e+02,6.373627853393554688e+01,-3.887038421630859375e+01
6.749799847602844238e-01,2.000000000000000000e+00,3.899312591552734375e+01,7.023218154907226562e+00,3.489473724365234375e+01,-1.153467025756835938e+02,9.112473297119140625e+01,-6.698798370361328125e+01,4.455665588378906250e+01,-1.414867591857910156e+01,-1.060066986083984375e+02,-1.209983978271484375e+02,6.373226928710937500e+01,-3.889664459228515625e+01
6.789370179176330566e-01,2.000000000000000000e+00,3.902189254760742188e+01,6.975605010986328125e+00,3.488908004760742188e+01,-1.154000625610351562e+02,9.112718200683593750e+01,-6.701368713378906250e+01,4.448502349853515625e+01,-1.413974952697753906e+01,-1.060219268798828125e+02,-1.210529708862304688e+02,6.372848510742187500e+01,-3.892301177978515625e+01
6.829940080642700195e-01,2.000000000000000000e+00,3.905082702636718750e+01,6.928059577941894531e+00,3.488361358642578125e+01,-1.154544143676757812e+02,9.112995910644531250e+01,-6.703925323486328125e+01,4.441311645507812500e+01,-1.413077735900878906e+01,-1.060372695922851562e+02,-1.211067581176757812e+02,6.372499084472656250e+01,-3.895124435424804688e+01
6.870399713516235352e-01,2.000000000000000000e+00,3.907976531982421875e+01,6.880174636840820312e+00,3.487828445434570312e+01,-1.155078277587890625e+02,9.113262939453125000e+01,-6.706481933593750000e+01,4.434033203125000000e+01,-1.412171363830566406e+01,-1.060523834228515625e+02,-1.211610412597656250e+02,6.372112274169921875e+01,-3.898069000244140625e+01
6.911479830741882324e-01,2.000000000000000000e+00,3.910852813720703125e+01,6.832425117492675781e+00,3.487306213378906250e+01,-1.155618133544921875e+02,9.113529205322265625e+01,-6.708978271484375000e+01,4.426732635498046875e+01,-1.411283206939697266e+01,-1.060676116943359375e+02,-1.212151107788085938e+02,6.371755981445312500e+01,-3.901134109497070312e+01
6.949650049209594727e-01,2.000000000000000000e+00,3.913718032836914062e+01,6.784563064575195312e+00,3.486757278442382812e+01,-1.156154479980468750e+02,9.113795471191406250e+01,-6.711384582519531250e+01,4.419514846801757812e+01,-1.410395240783691406e+01,-1.060829544067382812e+02,-1.212686691284179688e+02,6.371413040161132812e+01,-3.904276275634765625e+01
6.989200115203857422e-01,2.000000000000000000e+00,3.916551589965820312e+01,6.736904621124267578e+00,3.486194229125976562e+01,-1.156684875488281250e+02,9.114072418212890625e+01,-6.713853454589843750e+01,4.412373733520507812e+01,-1.409488868713378906e+01,-1.060981826782226562e+02,-1.213226013183593750e+02,6.371041488647460938e+01,-3.907385253906250000e+01
7.029219865798950195e-01,2.000000000000000000e+00,3.919445037841796875e+01,6.689382076263427734e+00,3.485638809204101562e+01,-1.157227935791015625e+02,9.114339447021484375e+01,-6.716376495361328125e+01,4.405172348022460938e+01,-1.408600807189941406e+01,-1.061131896972656250e+02,-1.213768920898437500e+02,6.370742797851562500e+01,-3.910571289062500000e+01
7.069410085678100586e-01,2.000000000000000000e+00,3.922312545776367188e+01,6.641654968261718750e+00,3.485094070434570312e+01,-1.157766799926757812e+02,9.114589691162109375e+01,-6.718939971923828125e+01,4.397915649414062500e+01,-1.407712650299072266e+01,-1.061284255981445312e+02,-1.214303817749023438e+02,6.370451354980468750e+01,-3.913812255859375000e+01
7.109730243682861328e-01,2.000000000000000000e+00,3.925168991088867188e+01,6.593928813934326172e+00,3.484548950195312500e+01,-1.158300933837890625e+02,9.114867401123046875e+01,-6.721517181396484375e+01,4.390604400634765625e+01,-1.406797218322753906e+01,-1.061435394287109375e+02,-1.214848022460937500e+02,6.370093917846679688e+01,-3.917097091674804688e+01
7.172809839248657227e-01,2.000000000000000000e+00,3.928031158447265625e+01,6.546292781829833984e+00,3.483996200561523438e+01,-1.158844985961914062e+02,9.115117645263671875e+01,-6.724060058593750000e+01,4.383386230468750000e+01,-1.405890846252441406e+01,-1.061589355468750000e+02,-1.215390930175781250e+02,6.369708251953125000e+01,-3.920447921752929688e+01
7.189180254936218262e-01,2.000000000000000000e+00,3.930907440185546875e+01,6.498384952545166016e+00,3.483422851562500000e+01,-1.159377059936523438e+02,9.115389251708984375e+01,-6.726508331298828125e+01,4.376206588745117188e+01,-1.405007362365722656e+01,-1.061741561889648438e+02,-1.215933761596679688e+02,6.369241714477539062e+01,-3.923897552490234375e+01
7.229710221290588379e-01,2.000000000000000000e+00,3.933775329589843750e+01,6.450749397277832031e+00,3.482857513427734375e+01,-1.159915313720703125e+02,9.115650939941406250e+01,-6.728956604003906250e+01,4.369010925292968750e+01,-1.404110050201416016e+01,-1.061891708374023438e+02,-1.216478118896484375e+02,6.368870162963867188e+01,-3.927380371093750000e+01
7.269189953804016113e-01,2.000000000000000000e+00,3.936648941040039062e+01,6.403158664703369141e+00,3.482316589355468750e+01,-1.160454788208007812e+02,9.115923309326171875e+01,-6.731445312500000000e+01,4.361737823486328125e+01,-1.403231239318847656e+01,-1.062040176391601562e+02,-1.217016677856445312e+02,6.368520355224609375e+01,-3.930807876586914062e+01
7.309409976005554199e-01,2.000000000000000000e+00,3.939528274536132812e+01,6.355500221252441406e+00,3.481792068481445312e+01,-1.160988845825195312e+02,9.116184234619140625e+01,-6.733934020996093750e+01,4.354459381103515625e+01,-1.402315711975097656e+01,-1.062189788818359375e+02,-1.217550888061523438e+02,6.368104934692382812e+01,-3.934104156494140625e+01
7.349519729614257812e-01,2.000000000000000000e+00,3.942398834228515625e+01,6.307909011840820312e+00,3.481241226196289062e+01,-1.161528167724609375e+02,9.116439819335937500e+01,-6.736450195312500000e+01,4.347202682495117188e+01,-1.401400089263916016e+01,-1.062338256835937500e+02,-1.218091583251953125e+02,6.367653656005859375e+01,-3.937542724609375000e+01
7.389310002326965332e-01,2.000000000000000000e+00,3.945278167724609375e+01,6.260205268859863281e+00,3.480673980712890625e+01,-1.162063980102539062e+02,9.116722869873046875e+01,-6.739006805419921875e+01,4.340006637573242188e+01,-1.400475502014160156e+01,-1.062487258911132812e+02,-1.218629379272460938e+02,6.367194747924804688e+01,-3.940893554687500000e+01
7.429599761962890625e-01,2.000000000000000000e+00,3.948163223266601562e+01,6.212410926818847656e+00,3.480126953125000000e+01,-1.162596969604492188e+02,9.116967773437500000e+01,-6.741590881347656250e+01,4.332827377319335938e+01,-1.399546241760253906e+01,-1.062636260986328125e+02,-1.219159240722656250e+02,6.366786193847656250e+01,-3.944134521484375000e+01
7.504810094833374023e-01,2.000000000000000000e+00,3.951056671142578125e+01,6.164729595184326172e+00,3.479578018188476562e+01,-1.163136444091796875e+02,9.117260742187500000e+01,-6.744154357910156250e+01,4.325537490844726562e+01,-1.398630619049072266e+01,-1.062784729003906250e+02,-1.219704971313476562e+02,6.366327285766601562e+01,-3.947320556640625000e+01
7.519450187683105469e-01,2.000000000000000000e+00,3.953953552246093750e+01,6.116912364959716797e+00,3.479041290283203125e+01,-1.163675155639648438e+02,9.117527770996093750e+01,-6.746588897705078125e+01,4.318215560913085938e+01,-1.397683143615722656e+01,-1.062932662963867188e+02,-1.220241470336914062e+02,6.365810012817382812e+01,-3.950506591796875000e+01
7.549350261688232422e-01,2.000000000000000000e+00,3.956827163696289062e+01,6.069186210632324219e+00,3.478486251831054688e+01,-1.164211883544921875e+02,9.117794799804687500e+01,-6.749030303955078125e+01,4.310931396484375000e+01,-1.396735572814941406e+01,-1.063080062866210938e+02,-1.220774993896484375e+02,6.365329360961914062e+01,-3.953582763671875000e+01
7.613890171051025391e-01,2.000000000000000000e+00,3.956827163696289062e+01,6.069186210632324219e+00,3.478486251831054688e+01,-1.164211883544921875e+02,9.117794799804687500e+01,-6.749030303955078125e+01,4.303751754760742188e+01,-1.395801639556884766e+01,-1.063226928710937500e+02,-1.221318588256835938e+02,6.364884567260742188e+01,-3.956483078002929688e+01
7.629510164260864258e-01,2.000000000000000000e+00,3.962542343139648438e+01,5.974049568176269531e+00,3.477386474609375000e+01,-1.165278625488281250e+02,9.118359375000000000e+01,-6.754061889648437500e+01,4.296550369262695312e+01,-1.394886207580566406e+01,-1.063373260498046875e+02,-1.221857070922851562e+02,6.364455032348632812e+01,-3.959394454956054688e+01
7.679619789123535156e-01,2.000000000000000000e+00,3.965424346923828125e+01,5.926391124725341797e+00,3.476859664916992188e+01,-1.165822219848632812e+02,9.118636322021484375e+01,-6.756598663330078125e+01,4.289294052124023438e+01,-1.393970680236816406e+01,-1.063519515991210938e+02,-1.222387771606445312e+02,6.364024734497070312e+01,-3.962250900268554688e+01
7.709479928016662598e-01,2.000000000000000000e+00,3.968315505981445312e+01,5.878710269927978516e+00,3.476330947875976562e+01,-1.166360015869140625e+02,9.118924713134765625e+01,-6.759189605712890625e+01,4.281977081298828125e+01,-1.393045997619628906e+01,-1.063666381835937500e+02,-1.222924041748046875e+02,6.363660812377929688e+01,-3.965030288696289062e+01
7.780640125274658203e-01,2.000000000000000000e+00,3.968315505981445312e+01,5.878710269927978516e+00,3.476330947875976562e+01,-1.166360015869140625e+02,9.118924713134765625e+01,-6.759189605712890625e+01,4.281977081298828125e+01,-1.393045997619628906e+01,-1.063666381835937500e+02,-1.222924041748046875e+02,6.363660812377929688e+01,-3.965030288696289062e+01
7.795259952545166016e-01,2.000000000000000000e+00,3.974068069458007812e+01,5.783754825592041016e+00,3.475243377685546875e+01,-1.167436141967773438e+02,9.119495391845703125e+01,-6.764214324951171875e+01,4.267535400390625000e+01,-1.391155433654785156e+01,-1.063967132568359375e+02,-1.223994750976562500e+02,6.362778854370117188e+01,-3.970699310302734375e+01
7.839050292968750000e-01,2.000000000000000000e+00,3.976935958862304688e+01,5.736118793487548828e+00,3.474692535400390625e+01,-1.167965469360351562e+02,9.119799041748046875e+01,-6.766662597656250000e+01,4.260317611694335938e+01,-1.390248966217041016e+01,-1.064119415283203125e+02,-1.224535446166992188e+02,6.362341690063476562e+01,-3.973588943481445312e+01
7.869169712066650391e-01,2.000000000000000000e+00,3.979806900024414062e+01,5.688528060913085938e+00,3.474145507812500000e+01,-1.168508605957031250e+02,9.120081329345703125e+01,-6.769145202636718750e+01,4.253038787841796875e+01,-1.389347267150878906e+01,-1.064266815185546875e+02,-1.225066146850585938e+02,6.361904525756835938e+01,-3.976445388793945312e+01
7.921500205993652344e-01,2.000000000000000000e+00,3.979806900024414062e+01,5.688528060913085938e+00,3.474145507812500000e+01,-1.168508605957031250e+02,9.120081329345703125e+01,-6.769145202636718750e+01,4.253038787841796875e+01,-1.389347267150878906e+01,-1.064266815185546875e+02,-1.225066146850585938e+02,6.361904525756835938e+01,-3.976445388793945312e+01
7.949990034103393555e-01,2.000000000000000000e+00,3.985565185546875000e+01,5.593414783477783203e+00,3.473049545288085938e+01,-1.169582061767578125e+02,9.120678710937500000e+01,-6.774204254150390625e+01,4.238515090942382812e+01,-1.387511634826660156e+01,-1.064566497802734375e+02,-1.226138916015625000e+02,6.361037063598632812e+01,-3.981883621215820312e+01
8.000119924545288086e-01,2.000000000000000000e+00,3.985565185546875000e+01,5.593414783477783203e+00,3.473049545288085938e+01,-1.169582061767578125e+02,9.120678710937500000e+01,-6.774204254150390625e+01,4.238515090942382812e+01,-1.387511634826660156e+01,-1.064566497802734375e+02,-1.226138916015625000e+02,6.361037063598632812e+01,-3.981883621215820312e+01
8.029109835624694824e-01,2.000000000000000000e+00,3.991306686401367188e+01,5.498188018798828125e+00,3.471919250488281250e+01,-1.170653991699218750e+02,9.121269989013671875e+01,-6.779358673095703125e+01,4.224216079711914062e+01,-1.385662269592285156e+01,-1.064868927001953125e+02,-1.227210998535156250e+02,6.360156250000000000e+01,-3.987673568725585938e+01
8.079559803009033203e-01,2.000000000000000000e+00,3.991306686401367188e+01,5.498188018798828125e+00,3.471919250488281250e+01,-1.170653991699218750e+02,9.121269989013671875e+01,-6.779358673095703125e+01,4.224216079711914062e+01,-1.385662269592285156e+01,-1.064868927001953125e+02,-1.227210998535156250e+02,6.360156250000000000e+01,-3.987673568725585938e+01
8.109089732170104980e-01,2.000000000000000000e+00,3.997062301635742188e+01,5.403097152709960938e+00,3.470843505859375000e+01,-1.171728515625000000e+02,9.121878051757812500e+01,-6.784355926513671875e+01,4.209687042236328125e+01,-1.383899784088134766e+01,-1.065171279907226562e+02,-1.228280181884765625e+02,6.359369277954101562e+01,-3.993518066406250000e+01
8.184019923210144043e-01,2.000000000000000000e+00,3.997062301635742188e+01,5.403097152709960938e+00,3.470843505859375000e+01,-1.171728515625000000e+02,9.121878051757812500e+01,-6.784355926513671875e+01,4.209687042236328125e+01,-1.383899784088134766e+01,-1.065171279907226562e+02,-1.228280181884765625e+02,6.359369277954101562e+01,-3.993518066406250000e+01
8.198249936103820801e-01,2.000000000000000000e+00,4.002809524536132812e+01,5.307643890380859375e+00,3.469745635986328125e+01,-1.172799911499023438e+02,9.122464752197265625e+01,-6.789327239990234375e+01,4.195300292968750000e+01,-1.382128334045410156e+01,-1.065473098754882812e+02,-1.229365081787109375e+02,6.358647155761718750e+01,-3.999868011474609375e+01
8.235689997673034668e-01,2.000000000000000000e+00,4.005657196044921875e+01,5.260008335113525391e+00,3.469180679321289062e+01,-1.173339385986328125e+02,9.122757720947265625e+01,-6.791876983642578125e+01,4.188131713867187500e+01,-1.381240272521972656e+01,-1.065627593994140625e+02,-1.229901504516601562e+02,6.358269119262695312e+01,-4.003021240234375000e+01
8.279929757118225098e-01,2.000000000000000000e+00,4.008510589599609375e+01,5.212598323822021484e+00,3.468633270263671875e+01,-1.173869781494140625e+02,9.123040771484375000e+01,-6.794426727294921875e+01,4.180858993530273438e+01,-1.380365848541259766e+01,-1.065780410766601562e+02,-1.230439300537109375e+02,6.357919311523437500e+01,-4.006163406372070312e+01
8.309429883956909180e-01,2.000000000000000000e+00,4.011372756958007812e+01,5.164984703063964844e+00,3.468092346191406250e+01,-1.174409637451171875e+02,9.123344421386718750e+01,-6.796997070312500000e+01,4.173585891723632812e+01,-1.379487037658691406e+01,-1.065930557250976562e+02,-1.230981521606445312e+02,6.357532501220703125e+01,-4.009371185302734375e+01
8.359450101852416992e-01,2.000000000000000000e+00,4.011372756958007812e+01,5.164984703063964844e+00,3.468092346191406250e+01,-1.174409637451171875e+02,9.123344421386718750e+01,-6.796997070312500000e+01,4.173585891723632812e+01,-1.379487037658691406e+01,-1.065930557250976562e+02,-1.230981521606445312e+02,6.357532501220703125e+01,-4.009371185302734375e+01
8.389070034027099609e-01,2.000000000000000000e+00,4.017123031616210938e+01,5.069871425628662109e+00,3.466984558105468750e+01,-1.175481567382812500e+02,9.123930358886718750e+01,-6.801988983154296875e+01,4.159221267700195312e+01,-1.377692508697509766e+01,-1.066233978271484375e+02,-1.232051391601562500e+02,6.356804656982421875e+01,-4.015853118896484375e+01
8.439509868621826172e-01,2.000000000000000000e+00,4.017123031616210938e+01,5.069871425628662109e+00,3.466984558105468750e+01,-1.175481567382812500e+02,9.123930358886718750e+01,-6.801988983154296875e+01,4.159221267700195312e+01,-1.377692508697509766e+01,-1.066233978271484375e+02,-1.232051391601562500e+02,6.356804656982421875e+01,-4.015853118896484375e+01
8.477299809455871582e-01,2.000000000000000000e+00,4.022838211059570312e+01,4.974486351013183594e+00,3.465900802612304688e+01,-1.176559219360351562e+02,9.124479675292968750e+01,-6.806898498535156250e+01,4.144763565063476562e+01,-1.375866031646728516e+01,-1.066534271240234375e+02,-1.233124160766601562e+02,6.356068420410156250e+01,-4.022456359863281250e+01
8.541190028190612793e-01,2.000000000000000000e+00,4.022838211059570312e+01,4.974486351013183594e+00,3.465900802612304688e+01,-1.176559219360351562e+02,9.124479675292968750e+01,-6.806898498535156250e+01,4.137446212768554688e+01,-1.374991798400878906e+01,-1.066684417724609375e+02,-1.233656997680664062e+02,6.355660629272460938e+01,-4.025674819946289062e+01
8.555099964141845703e-01,2.000000000000000000e+00,4.028556442260742188e+01,4.879440784454345703e+00,3.464835357666015625e+01,-1.177632293701171875e+02,9.125055694580078125e+01,-6.811957550048828125e+01,4.130195236206054688e+01,-1.374131202697753906e+01,-1.066836090087890625e+02,-1.234197692871093750e+02,6.355194091796875000e+01,-4.028849792480468750e+01
8.599690198898315430e-01,2.000000000000000000e+00,4.028556442260742188e+01,4.879440784454345703e+00,3.464835357666015625e+01,-1.177632293701171875e+02,9.125055694580078125e+01,-6.811957550048828125e+01,4.130195236206054688e+01,-1.374131202697753906e+01,-1.066836090087890625e+02,-1.234197692871093750e+02,6.355194091796875000e+01,-4.028849792480468750e+01
8.630130290985107422e-01,2.000000000000000000e+00,4.034326934814453125e+01,4.784395217895507812e+00,3.463735580444335938e+01,-1.178709411621093750e+02,9.125605010986328125e+01,-6.817078399658203125e+01,4.115869140625000000e+01,-1.372323036193847656e+01,-1.067135238647460938e+02,-1.235274810791015625e+02,6.354275894165039062e+01,-4.035101318359375000e+01
8.681399822235107422e-01,2.000000000000000000e+00,4.034326934814453125e+01,4.784395217895507812e+00,3.463735580444335938e+01,-1.178709411621093750e+02,9.125605010986328125e+01,-6.817078399658203125e+01,4.115869140625000000e+01,-1.372323036193847656e+01,-1.067135238647460938e+02,-1.235274810791015625e+02,6.354275894165039062e+01,-4.035101318359375000e+01
8.709560036659240723e-01,2.000000000000000000e+00,4.040068054199218750e+01,4.689236164093017578e+00,3.462643814086914062e+01,-1.179770812988281250e+02,9.126159667968750000e+01,-6.821994018554687500e+01,4.101251983642578125e+01,-1.370501136779785156e+01,-1.067433242797851562e+02,-1.236337509155273438e+02,6.353379821777343750e+01,-4.040990066528320312e+01
8.760880231857299805e-01,2.000000000000000000e+00,4.040068054199218750e+01,4.689236164093017578e+00,3.462643814086914062e+01,-1.179770812988281250e+02,9.126159667968750000e+01,-6.821994018554687500e+01,4.101251983642578125e+01,-1.370501136779785156e+01,-1.067433242797851562e+02,-1.236337509155273438e+02,6.353379821777343750e+01,-4.040990066528320312e+01
8.796520233154296875e-01,2.000000000000000000e+00,4.045818328857421875e+01,4.593896389007568359e+00,3.461535644531250000e+01,-1.180852127075195312e+02,9.126698303222656250e+01,-6.826918029785156250e+01,4.086865234375000000e+01,-1.368669986724853516e+01,-1.067732391357421875e+02,-1.237411041259765625e+02,6.352367019653320312e+01,-4.046922683715820312e+01
8.839949965476989746e-01,2.000000000000000000e+00,4.045818328857421875e+01,4.593896389007568359e+00,3.461535644531250000e+01,-1.180852127075195312e+02,9.126698303222656250e+01,-6.826918029785156250e+01,4.086865234375000000e+01,-1.368669986724853516e+01,-1.067732391357421875e+02,-1.237411041259765625e+02,6.352367019653320312e+01,-4.046922683715820312e+01
8.879320025444030762e-01,2.000000000000000000e+00,4.051556777954101562e+01,4.498895645141601562e+00,3.460435867309570312e+01,-1.181920928955078125e+02,9.127242279052734375e+01,-6.831996917724609375e+01,4.072357940673828125e+01,-1.366811561584472656e+01,-1.068029403686523438e+02,-1.238474502563476562e+02,6.351478195190429688e+01,-4.052723693847656250e+01
8.946449756622314453e-01,2.000000000000000000e+00,4.051556777954101562e+01,4.498895645141601562e+00,3.460435867309570312e+01,-1.181920928955078125e+02,9.127242279052734375e+01,-6.831996917724609375e+01,4.072357940673828125e+01,-1.366811561584472656e+01,-1.068029403686523438e+02,-1.238474502563476562e+02,6.351478195190429688e+01,-4.052723693847656250e+01
8.961349725723266602e-01,2.000000000000000000e+00,4.057286453247070312e+01,4.403895378112792969e+00,3.459370422363281250e+01,-1.182992324829101562e+02,9.127785491943359375e+01,-6.837062835693359375e+01,4.057888793945312500e+01,-1.364966678619384766e+01,-1.068328475952148438e+02,-1.239536437988281250e+02,6.350516128540039062e+01,-4.058370208740234375e+01
9.000120162963867188e-01,2.000000000000000000e+00,4.060145568847656250e+01,4.356372833251953125e+00,3.458823013305664062e+01,-1.183531799316406250e+02,9.128031158447265625e+01,-6.839484405517578125e+01,4.050753402709960938e+01,-1.364046669006347656e+01,-1.068476409912109375e+02,-1.240077133178710938e+02,6.350122451782226562e+01,-4.061095046997070312e+01
9.050120115280151367e-01,2.000000000000000000e+00,4.060145568847656250e+01,4.356372833251953125e+00,3.458823013305664062e+01,-1.183531799316406250e+02,9.128031158447265625e+01,-6.839484405517578125e+01,4.050753402709960938e+01,-1.364046669006347656e+01,-1.068476409912109375e+02,-1.240077133178710938e+02,6.350122451782226562e+01,-4.061095046997070312e+01
9.078289866447448730e-01,2.000000000000000000e+00,4.065909957885742188e+01,4.261530399322509766e+00,3.457717514038085938e+01,-1.184606857299804688e+02,9.128579711914062500e+01,-6.844428253173828125e+01,4.036278915405273438e+01,-1.362224769592285156e+01,-1.068772277832031250e+02,-1.241149902343750000e+02,6.349372482299804688e+01,-4.066687011718750000e+01
9.118599891662597656e-01,2.000000000000000000e+00,4.068766403198242188e+01,4.213849544525146484e+00,3.457172393798828125e+01,-1.185137863159179688e+02,9.128841400146484375e+01,-6.846930694580078125e+01,4.029011154174804688e+01,-1.361300086975097656e+01,-1.068921356201171875e+02,-1.241686325073242188e+02,6.348979187011718750e+01,-4.069576263427734375e+01
9.159420132637023926e-01,2.000000000000000000e+00,4.068766403198242188e+01,4.213849544525146484e+00,3.457172393798828125e+01,-1.185137863159179688e+02,9.128841400146484375e+01,-6.846930694580078125e+01,4.029011154174804688e+01,-1.361300086975097656e+01,-1.068921356201171875e+02,-1.241686325073242188e+02,6.348979187011718750e+01,-4.069576263427734375e+01
9.198309779167175293e-01,2.000000000000000000e+00,4.074493408203125000e+01,4.118849277496337891e+00,3.456080627441406250e+01,-1.186216049194335938e+02,9.129385375976562500e+01,-6.852064514160156250e+01,4.014685058593750000e+01,-1.359496498107910156e+01,-1.069217224121093750e+02,-1.242760620117187500e+02,6.348213577270507812e+01,-4.075585937500000000e+01
9.239460229873657227e-01,2.000000000000000000e+00,4.074493408203125000e+01,4.118849277496337891e+00,3.456080627441406250e+01,-1.186216049194335938e+02,9.129385375976562500e+01,-6.852064514160156250e+01,4.014685058593750000e+01,-1.359496498107910156e+01,-1.069217224121093750e+02,-1.242760620117187500e+02,6.348213577270507812e+01,-4.075585937500000000e+01
9.275709986686706543e-01,2.000000000000000000e+00,4.077369689941406250e+01,4.071258544921875000e+00,3.455525588989257812e+01,-1.186747970581054688e+02,9.129641723632812500e+01,-6.854587554931640625e+01,4.007494735717773438e+01,-1.358594608306884766e+01,-1.069368362426757812e+02,-1.243296890258789062e+02,6.347879028320312500e+01,-4.078573989868164062e+01
9.319459795951843262e-01,2.000000000000000000e+00,4.080237579345703125e+01,4.023712635040283203e+00,3.454982757568359375e+01,-1.187285766601562500e+02,9.129907989501953125e+01,-6.857069396972656250e+01,4.000221633911132812e+01,-1.357674503326416016e+01,-1.069515762329101562e+02,-1.243833999633789062e+02,6.347557830810546875e+01,-4.081650543212890625e+01
9.359800219535827637e-01,2.000000000000000000e+00,4.083102416992187500e+01,3.976325750350952148e+00,3.454460144042968750e+01,-1.187821578979492188e+02,9.130179595947265625e+01,-6.859463500976562500e+01,3.992987060546875000e+01,-1.356740760803222656e+01,-1.069668121337890625e+02,-1.244371795654296875e+02,6.347164535522460938e+01,-4.084759521484375000e+01
9.390019774436950684e-01,2.000000000000000000e+00,4.085955810546875000e+01,3.928644657135009766e+00,3.453933334350585938e+01,-1.188351974487304688e+02,9.130440521240234375e+01,-6.861931610107421875e+01,3.985807418823242188e+01,-1.355834293365478516e+01,-1.069818191528320312e+02,-1.244910430908203125e+02,6.346763992309570312e+01,-4.087923431396484375e+01
9.443550109863281250e-01,2.000000000000000000e+00,4.088812255859375000e+01,3.880940914154052734e+00,3.453395080566406250e+01,-1.188891296386718750e+02,9.130723571777343750e+01,-6.864467620849609375e+01,3.978672027587890625e+01,-1.354950809478759766e+01,-1.069967727661132812e+02,-1.245444717407226562e+02,6.346326446533203125e+01,-4.091120910644531250e+01
9.479849934577941895e-01,2.000000000000000000e+00,4.091677093505859375e+01,3.833349704742431641e+00,3.452831268310546875e+01,-1.189423370361328125e+02,9.130989837646484375e+01,-6.866977691650390625e+01,3.971497726440429688e+01,-1.354058170318603516e+01,-1.070117874145507812e+02,-1.245983200073242188e+02,6.345932769775390625e+01,-4.094471359252929688e+01
9.519510269165039062e-01,2.000000000000000000e+00,4.094539260864257812e+01,3.785713911056518555e+00,3.452286529541015625e+01,-1.189958953857421875e+02,9.131256866455078125e+01,-6.869561004638671875e+01,3.964213943481445312e+01,-1.353165626525878906e+01,-1.070265274047851562e+02,-1.246525421142578125e+02,6.345554351806640625e+01,-4.097789382934570312e+01
9.559469819068908691e-01,2.000000000000000000e+00,4.097386932373046875e+01,3.738394737243652344e+00,3.451741790771484375e+01,-1.190498428344726562e+02,9.131533813476562500e+01,-6.872117614746093750e+01,3.956941223144531250e+01,-1.352250099182128906e+01,-1.070415954589843750e+02,-1.247059631347656250e+02,6.345131683349609375e+01,-4.101019287109375000e+01
9.590590000152587891e-01,2.000000000000000000e+00,4.100237274169921875e+01,3.690804243087768555e+00,3.451207351684570312e+01,-1.191027221679687500e+02,9.131826782226562500e+01,-6.874633789062500000e+01,3.949700927734375000e+01,-1.351357460021972656e+01,-1.070567626953125000e+02,-1.247590179443359375e+02,6.344680404663085938e+01,-4.104359054565429688e+01
9.631140232086181641e-01,2.000000000000000000e+00,4.103082656860351562e+01,3.643168210983276367e+00,3.450650024414062500e+01,-1.191565017700195312e+02,9.132077789306640625e+01,-6.877075195312500000e+01,3.942554092407226562e+01,-1.350460243225097656e+01,-1.070718307495117188e+02,-1.248130187988281250e+02,6.344301223754882812e+01,-4.107567214965820312e+01
9.670500159263610840e-01,2.000000000000000000e+00,4.105932998657226562e+01,3.595781326293945312e+00,3.450082778930664062e+01,-1.192102279663085938e+02,9.132376098632812500e+01,-6.879537200927734375e+01,3.935363769531250000e+01,-1.349567508697509766e+01,-1.070865707397460938e+02,-1.248668670654296875e+02,6.343951416015625000e+01,-4.110742187500000000e+01
9.729629755020141602e-01,2.000000000000000000e+00,4.108803939819335938e+01,3.548235654830932617e+00,3.449535751342773438e+01,-1.192633285522460938e+02,9.132653808593750000e+01,-6.882086944580078125e+01,3.928123855590820312e+01,-1.348665809631347656e+01,-1.071013641357421875e+02,-1.249205169677734375e+02,6.343550491333007812e+01,-4.113807296752929688e+01
9.764310121536254883e-01,2.000000000000000000e+00,4.114530563354492188e+01,3.453235149383544922e+00,3.448466110229492188e+01,-1.193713684082031250e+02,9.133208465576171875e+01,-6.887145996093750000e+01,3.913572311401367188e+01,-1.346821022033691406e+01,-1.071313781738281250e+02,-1.250279388427734375e+02,6.342632675170898438e+01,-4.120223617553710938e+01
9.792109727859497070e-01,2.000000000000000000e+00,4.114530563354492188e+01,3.453235149383544922e+00,3.448466110229492188e+01,-1.193713684082031250e+02,9.133208465576171875e+01,-6.887145996093750000e+01,3.913572311401367188e+01,-1.346821022033691406e+01,-1.071313781738281250e+02,-1.250279388427734375e+02,6.342632675170898438e+01,-4.120223617553710938e+01
9.831990003585815430e-01,2.000000000000000000e+00,4.117384338378906250e+01,3.405712604522705078e+00,3.447915267944335938e+01,-1.194243545532226562e+02,9.133489990234375000e+01,-6.889716339111328125e+01,3.906442260742187500e+01,-1.345910072326660156e+01,-1.071461181640625000e+02,-1.250819396972656250e+02,6.342209625244140625e+01,-4.123266601562500000e+01
9.871370196342468262e-01,2.000000000000000000e+00,4.120249176025390625e+01,3.358347892761230469e+00,3.447368240356445312e+01,-1.194780807495117188e+02,9.133794403076171875e+01,-6.892238616943359375e+01,3.899229812622070312e+01,-1.345017433166503906e+01,-1.071612396240234375e+02,-1.251354980468750000e+02,6.341765975952148438e+01,-4.126210784912109375e+01
9.915120005607604980e-01,2.000000000000000000e+00,4.123108291625976562e+01,3.310893058776855469e+00,3.446807098388671875e+01,-1.195316009521484375e+02,9.134082794189453125e+01,-6.894708251953125000e+01,3.891967773437500000e+01,-1.344138431549072266e+01,-1.071763076782226562e+02,-1.251881332397460938e+02,6.341357421875000000e+01,-4.129166412353515625e+01
9.979469776153564453e-01,2.000000000000000000e+00,4.125984954833984375e+01,3.263370275497436523e+00,3.446278381347656250e+01,-1.195853271484375000e+02,9.134381103515625000e+01,-6.897190093994140625e+01,3.884651184082031250e+01,-1.343236732482910156e+01,-1.071910476684570312e+02,-1.252414093017578125e+02,6.340934753417968750e+01,-4.132000732421875000e+01
1.001404047012329102e+00,2.000000000000000000e+00,4.131686019897460938e+01,3.168483018875122070e+00,3.445188903808593750e+01,-1.196915664672851562e+02,9.134956359863281250e+01,-6.902194213867187500e+01,3.870341491699218750e+01,-1.341414737701416016e+01,-1.072211761474609375e+02,-1.253485488891601562e+02,6.340075302124023438e+01,-4.137450027465820312e+01
1.004127025604248047e+00,2.000000000000000000e+00,4.134579467773437500e+01,3.120779037475585938e+00,3.444646072387695312e+01,-1.197453460693359375e+02,9.135260772705078125e+01,-6.904757690429687500e+01,3.863161849975585938e+01,-1.340508365631103516e+01,-1.072360839843750000e+02,-1.254026184082031250e+02,6.339666748046875000e+01,-4.140207672119140625e+01
1.007336020469665527e+00,2.000000000000000000e+00,4.134579467773437500e+01,3.120779037475585938e+00,3.444646072387695312e+01,-1.197453460693359375e+02,9.135260772705078125e+01,-6.904757690429687500e+01,3.863161849975585938e+01,-1.340508365631103516e+01,-1.072360839843750000e+02,-1.254026184082031250e+02,6.339666748046875000e+01,-4.140207672119140625e+01
1.011345028877258301e+00,2.000000000000000000e+00,4.137430191040039062e+01,3.073459863662719727e+00,3.444107055664062500e+01,-1.197990722656250000e+02,9.135559082031250000e+01,-6.907334899902343750e+01,3.855894088745117188e+01,-1.339597511291503906e+01,-1.072509841918945312e+02,-1.254561920166015625e+02,6.339266586303710938e+01,-4.143064117431640625e+01
1.015408039093017578e+00,2.000000000000000000e+00,4.140309524536132812e+01,3.026027679443359375e+00,3.443584823608398438e+01,-1.198523788452148438e+02,9.135862731933593750e+01,-6.909885406494140625e+01,3.848610305786132812e+01,-1.338695621490478516e+01,-1.072657241821289062e+02,-1.255096893310546875e+02,6.338887405395507812e+01,-4.145865631103515625e+01
1.021052002906799316e+00,2.000000000000000000e+00,4.143177032470703125e+01,2.978550195693969727e+00,3.443066406250000000e+01,-1.199060592651367188e+02,9.136167144775390625e+01,-6.912353515625000000e+01,3.841414260864257812e+01,-1.337775516510009766e+01,-1.072807312011718750e+02,-1.255638885498046875e+02,6.338435363769531250e+01,-4.148688888549804688e+01
1.024912953376770020e+00,2.000000000000000000e+00,4.146036529541015625e+01,2.931185483932495117e+00,3.442535781860351562e+01,-1.199589996337890625e+02,9.136465454101562500e+01,-6.914775085449218750e+01,3.827115631103515625e+01,-1.335917091369628906e+01,-1.073105926513671875e+02,-1.256695938110351562e+02,6.337598037719726562e+01,-4.154423904418945312e+01
1.028942942619323730e+00,2.000000000000000000e+00,4.148889923095703125e+01,2.883708000183105469e+00,3.441986465454101562e+01,-1.200128860473632812e+02,9.136759185791015625e+01,-6.917263031005859375e+01,3.827115631103515625e+01,-1.335917091369628906e+01,-1.073105926513671875e+02,-1.256695938110351562e+02,6.337598037719726562e+01,-4.154423904418945312e+01
1.032986998558044434e+00,2.000000000000000000e+00,4.151754760742187500e+01,2.836343765258789062e+00,3.441433715820312500e+01,-1.200666122436523438e+02,9.137078857421875000e+01,-6.919739532470703125e+01,3.819842910766601562e+01,-1.335010719299316406e+01,-1.073255538940429688e+02,-1.257236633300781250e+02,6.337226486206054688e+01,-4.157115554809570312e+01
1.036936998367309570e+00,2.000000000000000000e+00,4.154619598388671875e+01,2.789047241210937500e+00,3.440886688232421875e+01,-1.201198043823242188e+02,9.137366485595703125e+01,-6.922315979003906250e+01,3.812580490112304688e+01,-1.334113502502441406e+01,-1.073404541015625000e+02,-1.257771530151367188e+02,6.336789321899414062e+01,-4.159862136840820312e+01
1.039999008178710938e+00,2.000000000000000000e+00,4.157504653930664062e+01,2.741614818572998047e+00,3.440349960327148438e+01,-1.201738433837890625e+02,9.137660217285156250e+01,-6.924865722656250000e+01,3.805390167236328125e+01,-1.333211708068847656e+01,-1.073553543090820312e+02,-1.258302307128906250e+02,6.336279296875000000e+01,-4.162718582153320312e+01
1.045161008834838867e+00,2.000000000000000000e+00,4.160378265380859375e+01,2.694114685058593750e+00,3.439796829223632812e+01,-1.202272567749023438e+02,9.137947845458984375e+01,-6.927408599853515625e+01,3.798281860351562500e+01,-1.332300758361816406e+01,-1.073701477050781250e+02,-1.258846511840820312e+02,6.335870742797851562e+01,-4.165838623046875000e+01
1.048928976058959961e+00,2.000000000000000000e+00,4.166062164306640625e+01,2.599272489547729492e+00,3.438676452636718750e+01,-1.203347244262695312e+02,9.138529205322265625e+01,-6.932359313964843750e+01,3.783856964111328125e+01,-1.330488014221191406e+01,-1.073999481201171875e+02,-1.259914321899414062e+02,6.335091400146484375e+01,-4.172166824340820312e+01
1.052065014839172363e+00,2.000000000000000000e+00,4.166062164306640625e+01,2.599272489547729492e+00,3.438676452636718750e+01,-1.203347244262695312e+02,9.138529205322265625e+01,-6.932359313964843750e+01,3.783856964111328125e+01,-1.330488014221191406e+01,-1.073999481201171875e+02,-1.259914321899414062e+02,6.335091400146484375e+01,-4.172166824340820312e+01
1.055706977844238281e+00,2.000000000000000000e+00,4.168921279907226562e+01,2.551862955093383789e+00,3.438139724731445312e+01,-1.203878631591796875e+02,9.138827514648437500e+01,-6.934807586669921875e+01,3.776572799682617188e+01,-1.329599857330322266e+01,-1.074148559570312500e+02,-1.260452804565429688e+02,6.334668731689453125e+01,-4.175429534912109375e+01
1.060049057006835938e+00,2.000000000000000000e+00,4.171794891357421875e+01,2.504498481750488281e+00,3.437607192993164062e+01,-1.204414978027343750e+02,9.139104461669921875e+01,-6.937290191650390625e+01,3.769343948364257812e+01,-1.328711891174316406e+01,-1.074296493530273438e+02,-1.260987091064453125e+02,6.334260940551757812e+01,-4.178703689575195312e+01
1.063905000686645508e+00,2.000000000000000000e+00,4.174657058715820312e+01,2.456930160522460938e+00,3.437066268920898438e+01,-1.204950561523437500e+02,9.139376831054687500e+01,-6.939812469482421875e+01,3.762230300903320312e+01,-1.327782535552978516e+01,-1.074447631835937500e+02,-1.261521987915039062e+02,6.333881759643554688e+01,-4.181933593750000000e+01
1.067947983741760254e+00,2.000000000000000000e+00,4.177513504028320312e+01,2.409384965896606445e+00,3.436515045166015625e+01,-1.205479507446289062e+02,9.139659118652343750e+01,-6.942369842529296875e+01,3.755044937133789062e+01,-1.326857948303222656e+01,-1.074597244262695312e+02,-1.262059860229492188e+02,6.333524703979492188e+01,-4.185097885131835938e+01
1.072690010070800781e+00,2.000000000000000000e+00,4.180355453491210938e+01,2.361816883087158203e+00,3.435958099365234375e+01,-1.206018295288085938e+02,9.139942169189453125e+01,-6.944960021972656250e+01,3.747777938842773438e+01,-1.325956058502197266e+01,-1.074747390747070312e+02,-1.262592697143554688e+02,6.333204269409179688e+01,-4.188250732421875000e+01
1.076158046722412109e+00,2.000000000000000000e+00,4.183197402954101562e+01,2.314248800277709961e+00,3.435417556762695312e+01,-1.206553497314453125e+02,9.140219116210937500e+01,-6.947448730468750000e+01,3.740482711791992188e+01,-1.325063419342041016e+01,-1.074896392822265625e+02,-1.263126983642578125e+02,6.332788848876953125e+01,-4.191491699218750000e+01
1.080005049705505371e+00,2.000000000000000000e+00,4.186062622070312500e+01,2.266816377639770508e+00,3.434876632690429688e+01,-1.207083892822265625e+02,9.140491485595703125e+01,-6.949883270263671875e+01,3.733281326293945312e+01,-1.324175453186035156e+01,-1.075044860839843750e+02,-1.263669052124023438e+02,6.332395553588867188e+01,-4.194622802734375000e+01
1.084038972854614258e+00,2.000000000000000000e+00,4.188918685913085938e+01,2.219497203826904297e+00,3.434335708618164062e+01,-1.207622833251953125e+02,9.140768432617187500e+01,-6.952317810058593750e+01,3.726178741455078125e+01,-1.323291969299316406e+01,-1.075192718505859375e+02,-1.264211883544921875e+02,6.332002258300781250e+01,-4.197885894775390625e+01
1.088300943374633789e+00,2.000000000000000000e+00,4.191772079467773438e+01,2.171861171722412109e+00,3.433780670166015625e+01,-1.208155288696289062e+02,9.141034698486328125e+01,-6.954799652099609375e+01,3.718960571289062500e+01,-1.322385597229003906e+01,-1.075341796875000000e+02,-1.264744644165039062e+02,6.331586837768554688e+01,-4.201236724853515625e+01
1.092046976089477539e+00,2.000000000000000000e+00,4.194625473022460938e+01,2.124564647674560547e+00,3.433227920532226562e+01,-1.208688888549804688e+02,9.141312408447265625e+01,-6.957302856445312500e+01,3.711698532104492188e+01,-1.321479225158691406e+01,-1.075490798950195312e+02,-1.265281753540039062e+02,6.331222152709960938e+01,-4.204543685913085938e+01
1.098181009292602539e+00,2.000000000000000000e+00,4.197459030151367188e+01,2.077109813690185547e+00,3.432688903808593750e+01,-1.209230880737304688e+02,9.141557312011718750e+01,-6.959825897216796875e+01,3.704414749145507812e+01,-1.320582008361816406e+01,-1.075641479492187500e+02,-1.265810317993164062e+02,6.330821990966796875e+01,-4.207729721069335938e+01
1.100836992263793945e+00,2.000000000000000000e+00,4.203191757202148438e+01,1.982109427452087402e+00,3.431635665893554688e+01,-1.210299682617187500e+02,9.142106628417968750e+01,-6.964972686767578125e+01,3.690116119384765625e+01,-1.318787574768066406e+01,-1.075938949584960938e+02,-1.266883010864257812e+02,6.330078506469726562e+01,-4.214002609252929688e+01
1.104184985160827637e+00,2.000000000000000000e+00,4.203191757202148438e+01,1.982109427452087402e+00,3.431635665893554688e+01,-1.210299682617187500e+02,9.142106628417968750e+01,-6.964972686767578125e+01,3.690116119384765625e+01,-1.318787574768066406e+01,-1.075938949584960938e+02,-1.266883010864257812e+02,6.330078506469726562e+01,-4.214002609252929688e+01
1.108047962188720703e+00,2.000000000000000000e+00,4.206053924560546875e+01,1.934699773788452148e+00,3.431089019775390625e+01,-1.210838470458984375e+02,9.142372894287109375e+01,-6.967468261718750000e+01,3.682936477661132812e+01,-1.317862796783447266e+01,-1.076083145141601562e+02,-1.267416610717773438e+02,6.329677581787109375e+01,-4.216991043090820312e+01
1.111981987953186035e+00,2.000000000000000000e+00,4.208913040161132812e+01,1.887358069419860840e+00,3.430539703369140625e+01,-1.211364669799804688e+02,9.142639160156250000e+01,-6.969889068603515625e+01,3.675674438476562500e+01,-1.316942787170410156e+01,-1.076231079101562500e+02,-1.267950897216796875e+02,6.329276657104492188e+01,-4.219946289062500000e+01
1.116096019744873047e+00,2.000000000000000000e+00,4.211763381958007812e+01,1.839948177337646484e+00,3.429993057250976562e+01,-1.211903533935546875e+02,9.142900848388671875e+01,-6.972338104248046875e+01,3.668401336669921875e+01,-1.316013431549072266e+01,-1.076381683349609375e+02,-1.268488693237304688e+02,6.328825378417968750e+01,-4.222802734375000000e+01
