rpiRobotics/ARM-21-02-F-19-Robot-Motion-Program/data_performance_abb/curve_2/dual_arm/diffevo_pose6_3/30L/grad_result/real/run_0.csv
timestamp,cmd_num,J1,J2,J3,J4,J5,J6,J1_2,J2_2,J3_2,J4_2,J5_2,J6_2
1.524799969047307968e-02,-1.000000000000000000e+00,3.547691345214843750e+01,1.285727977752685547e+01,3.555923843383789062e+01,-1.087567520141601562e+02,9.078099822998046875e+01,-6.390482711791992188e+01,5.343443298339843750e+01,-1.526754093170166016e+01,-1.041692657470703125e+02,-1.144050903320312500e+02,6.424048614501953125e+01,-3.517381668090820312e+01
1.663099974393844604e-02,-1.000000000000000000e+00,3.547680282592773438e+01,1.285727977752685547e+01,3.555923843383789062e+01,-1.087569122314453125e+02,9.078089904785156250e+01,-6.390503311157226562e+01,5.343443298339843750e+01,-1.526754093170166016e+01,-1.041692657470703125e+02,-1.144050903320312500e+02,6.424048614501953125e+01,-3.517381668090820312e+01
2.082099951803684235e-02,-1.000000000000000000e+00,3.547691345214843750e+01,1.285727977752685547e+01,3.555923843383789062e+01,-1.087567520141601562e+02,9.078089904785156250e+01,-6.390516281127929688e+01,5.343443298339843750e+01,-1.526745033264160156e+01,-1.041692657470703125e+02,-1.144050903320312500e+02,6.424069976806640625e+01,-3.517359542846679688e+01
2.349199913442134857e-02,-1.000000000000000000e+00,3.547691345214843750e+01,1.285727977752685547e+01,3.555923843383789062e+01,-1.087567520141601562e+02,9.078111267089843750e+01,-6.390482711791992188e+01,5.343443298339843750e+01,-1.526745033264160156e+01,-1.041692657470703125e+02,-1.144050903320312500e+02,6.424069976806640625e+01,-3.517359542846679688e+01
2.476999908685684204e-02,-1.000000000000000000e+00,3.547691345214843750e+01,1.285727977752685547e+01,3.555923843383789062e+01,-1.087567520141601562e+02,9.078111267089843750e+01,-6.390482711791992188e+01,5.343443298339843750e+01,-1.526745033264160156e+01,-1.041692657470703125e+02,-1.144050903320312500e+02,6.424069976806640625e+01,-3.517359542846679688e+01
2.740499936044216156e-02,-1.000000000000000000e+00,3.547686004638671875e+01,1.285727977752685547e+01,3.555923843383789062e+01,-1.087567520141601562e+02,9.078099822998046875e+01,-6.390482711791992188e+01,5.343432235717773438e+01,-1.526754093170166016e+01,-1.041692657470703125e+02,-1.144050903320312500e+02,6.424069976806640625e+01,-3.517359542846679688e+01
2.873899973928928375e-02,-1.000000000000000000e+00,3.547686004638671875e+01,1.285727977752685547e+01,3.555923843383789062e+01,-1.087567520141601562e+02,9.078099822998046875e+01,-6.390482711791992188e+01,5.343432235717773438e+01,-1.526754093170166016e+01,-1.041692657470703125e+02,-1.144050903320312500e+02,6.424069976806640625e+01,-3.517359542846679688e+01
3.212599828839302063e-02,-1.000000000000000000e+00,3.547694396972656250e+01,1.285727977752685547e+01,3.555923843383789062e+01,-1.087567520141601562e+02,9.078099822998046875e+01,-6.390503311157226562e+01,5.343432235717773438e+01,-1.526745033264160156e+01,-1.041692657470703125e+02,-1.144050903320312500e+02,6.424069976806640625e+01,-3.517359542846679688e+01
3.469400107860565186e-02,-1.000000000000000000e+00,3.547694396972656250e+01,1.285727977752685547e+01,3.555923843383789062e+01,-1.087567520141601562e+02,9.078099822998046875e+01,-6.390503311157226562e+01,5.343432235717773438e+01,-1.526745033264160156e+01,-1.041692657470703125e+02,-1.144050903320312500e+02,6.424069976806640625e+01,-3.517359542846679688e+01
3.635900095105171204e-02,-1.000000000000000000e+00,3.547691345214843750e+01,1.285727977752685547e+01,3.555923843383789062e+01,-1.087568664550781250e+02,9.078111267089843750e+01,-6.390482711791992188e+01,5.343443298339843750e+01,-1.526754093170166016e+01,-1.041692657470703125e+02,-1.144050903320312500e+02,6.424048614501953125e+01,-3.517359542846679688e+01
4.005499929189682007e-02,-1.000000000000000000e+00,3.547691345214843750e+01,1.285721111297607422e+01,3.555923843383789062e+01,-1.087567520141601562e+02,9.078089904785156250e+01,-6.390482711791992188e+01,5.343443298339843750e+01,-1.526745033264160156e+01,-1.041692657470703125e+02,-1.144053115844726562e+02,6.424069976806640625e+01,-3.517381668090820312e+01
4.865200072526931763e-02,-1.000000000000000000e+00,3.547686004638671875e+01,1.285727977752685547e+01,3.555923843383789062e+01,-1.087567520141601562e+02,9.078099822998046875e+01,-6.390503311157226562e+01,5.343432235717773438e+01,-1.526754093170166016e+01,-1.041693725585937500e+02,-1.144053115844726562e+02,6.424069976806640625e+01,-3.517359542846679688e+01
5.511600151658058167e-02,2.000000000000000000e+00,3.547691345214843750e+01,1.285727977752685547e+01,3.555923843383789062e+01,-1.087567062377929688e+02,9.078099822998046875e+01,-6.390503311157226562e+01,5.343443298339843750e+01,-1.526745033264160156e+01,-1.041692657470703125e+02,-1.144050903320312500e+02,6.424069976806640625e+01,-3.517359542846679688e+01
5.945900082588195801e-02,2.000000000000000000e+00,3.547694396972656250e+01,1.285727977752685547e+01,3.555923843383789062e+01,-1.087567520141601562e+02,9.078099822998046875e+01,-6.390482711791992188e+01,5.343443298339843750e+01,-1.526745033264160156e+01,-1.041692657470703125e+02,-1.144050903320312500e+02,6.424069976806640625e+01,-3.517359542846679688e+01
6.817399710416793823e-02,2.000000000000000000e+00,3.547691345214843750e+01,1.285727977752685547e+01,3.555923843383789062e+01,-1.087568664550781250e+02,9.078099822998046875e+01,-6.390503311157226562e+01,5.343432235717773438e+01,-1.526754093170166016e+01,-1.041692657470703125e+02,-1.144050903320312500e+02,6.424069976806640625e+01,-3.517359542846679688e+01
1.075240001082420349e-01,2.000000000000000000e+00,3.547691345214843750e+01,1.285727977752685547e+01,3.555923843383789062e+01,-1.087567062377929688e+02,9.078099822998046875e+01,-6.390503311157226562e+01,5.343459701538085938e+01,-1.526754093170166016e+01,-1.041692657470703125e+02,-1.144050903320312500e+02,6.424069976806640625e+01,-3.517381668090820312e+01
1.113519966602325439e-01,2.000000000000000000e+00,3.547691345214843750e+01,1.285727977752685547e+01,3.555923843383789062e+01,-1.087567062377929688e+02,9.078111267089843750e+01,-6.390482711791992188e+01,5.343443298339843750e+01,-1.526745033264160156e+01,-1.041692657470703125e+02,-1.144053115844726562e+02,6.424069976806640625e+01,-3.517359542846679688e+01
1.126929968595504761e-01,2.000000000000000000e+00,3.547691345214843750e+01,1.285727977752685547e+01,3.555923843383789062e+01,-1.087567062377929688e+02,9.078111267089843750e+01,-6.390482711791992188e+01,5.343443298339843750e+01,-1.526745033264160156e+01,-1.041692657470703125e+02,-1.144053115844726562e+02,6.424069976806640625e+01,-3.517359542846679688e+01
1.161279976367950439e-01,2.000000000000000000e+00,3.547691345214843750e+01,1.285727977752685547e+01,3.555923843383789062e+01,-1.087567062377929688e+02,9.078111267089843750e+01,-6.390482711791992188e+01,5.343443298339843750e+01,-1.526745033264160156e+01,-1.041692657470703125e+02,-1.144053115844726562e+02,6.424069976806640625e+01,-3.517359542846679688e+01
1.174909994006156921e-01,2.000000000000000000e+00,3.547691345214843750e+01,1.285727977752685547e+01,3.555923843383789062e+01,-1.087567520141601562e+02,9.078099822998046875e+01,-6.390503311157226562e+01,5.343432235717773438e+01,-1.526754093170166016e+01,-1.041692657470703125e+02,-1.144050903320312500e+02,6.424069976806640625e+01,-3.517359542846679688e+01
1.257199943065643311e-01,2.000000000000000000e+00,3.547714614868164062e+01,1.285705375671386719e+01,3.555928039550781250e+01,-1.087567520141601562e+02,9.078099822998046875e+01,-6.390503311157226562e+01,5.343459701538085938e+01,-1.526745033264160156e+01,-1.041692657470703125e+02,-1.144050903320312500e+02,6.424069976806640625e+01,-3.517359542846679688e+01
1.282940059900283813e-01,2.000000000000000000e+00,3.547772216796875000e+01,1.285653305053710938e+01,3.555923843383789062e+01,-1.087567062377929688e+02,9.078099822998046875e+01,-6.390482711791992188e+01,5.343432235717773438e+01,-1.526754093170166016e+01,-1.041692657470703125e+02,-1.144050903320312500e+02,6.424069976806640625e+01,-3.517381668090820312e+01
1.296419948339462280e-01,2.000000000000000000e+00,3.547772216796875000e+01,1.285653305053710938e+01,3.555923843383789062e+01,-1.087567062377929688e+02,9.078099822998046875e+01,-6.390482711791992188e+01,5.343432235717773438e+01,-1.526754093170166016e+01,-1.041692657470703125e+02,-1.144050903320312500e+02,6.424069976806640625e+01,-3.517381668090820312e+01
1.333239972591400146e-01,2.000000000000000000e+00,3.547895431518554688e+01,1.285533332824707031e+01,3.555923843383789062e+01,-1.087568664550781250e+02,9.078111267089843750e+01,-6.390503311157226562e+01,5.343404769897460938e+01,-1.526767921447753906e+01,-1.041689910888671875e+02,-1.144054489135742188e+02,6.424048614501953125e+01,-3.517381668090820312e+01
1.374250054359436035e-01,2.000000000000000000e+00,3.548096466064453125e+01,1.285338783264160156e+01,3.555923843383789062e+01,-1.087568664550781250e+02,9.078111267089843750e+01,-6.390516281127929688e+01,5.343360900878906250e+01,-1.526776981353759766e+01,-1.041671981811523438e+02,-1.144057388305664062e+02,6.424048614501953125e+01,-3.517381668090820312e+01
1.415690034627914429e-01,2.000000000000000000e+00,3.548377609252929688e+01,1.285033226013183594e+01,3.555923843383789062e+01,-1.087569122314453125e+02,9.078099822998046875e+01,-6.390503311157226562e+01,5.343278121948242188e+01,-1.526831912994384766e+01,-1.041657257080078125e+02,-1.144062347412109375e+02,6.424011993408203125e+01,-3.517447280883789062e+01
1.441659927368164062e-01,2.000000000000000000e+00,3.548716354370117188e+01,1.284619045257568359e+01,3.555923843383789062e+01,-1.087570724487304688e+02,9.078111267089843750e+01,-6.390516281127929688e+01,5.343025588989257812e+01,-1.526868629455566406e+01,-1.041642074584960938e+02,-1.144066772460937500e+02,6.423910522460937500e+01,-3.517524719238281250e+01
1.454340070486068726e-01,2.000000000000000000e+00,3.548716354370117188e+01,1.284619045257568359e+01,3.555923843383789062e+01,-1.087570724487304688e+02,9.078111267089843750e+01,-6.390516281127929688e+01,5.343025588989257812e+01,-1.526868629455566406e+01,-1.041642074584960938e+02,-1.144066772460937500e+02,6.423910522460937500e+01,-3.517524719238281250e+01
1.500249952077865601e-01,2.000000000000000000e+00,3.549115753173828125e+01,1.284069156646728516e+01,3.555917739868164062e+01,-1.087582321166992188e+02,9.078111267089843750e+01,-6.390536880493164062e+01,5.342542266845703125e+01,-1.526886940002441406e+01,-1.041630096435546875e+02,-1.144068145751953125e+02,6.423589324951171875e+01,-3.517623138427734375e+01
1.525679975748062134e-01,2.000000000000000000e+00,3.549589157104492188e+01,1.283383464813232422e+01,3.555917739868164062e+01,-1.087608108520507812e+02,9.078111267089843750e+01,-6.390570831298828125e+01,5.341860961914062500e+01,-1.526886940002441406e+01,-1.041619262695312500e+02,-1.144071044921875000e+02,6.423210144042968750e+01,-3.517689132690429688e+01
1.539379954338073730e-01,2.000000000000000000e+00,3.549589157104492188e+01,1.283383464813232422e+01,3.555917739868164062e+01,-1.087608108520507812e+02,9.078111267089843750e+01,-6.390570831298828125e+01,5.341860961914062500e+01,-1.526886940002441406e+01,-1.041619262695312500e+02,-1.144071044921875000e+02,6.423210144042968750e+01,-3.517689132690429688e+01
1.575320065021514893e-01,2.000000000000000000e+00,3.550149154663085938e+01,1.282546234130859375e+01,3.555903625488281250e+01,-1.087658691406250000e+02,9.078132629394531250e+01,-6.390658950805664062e+01,5.341031265258789062e+01,-1.526809024810791016e+01,-1.041609420776367188e+02,-1.144078903198242188e+02,6.422999572753906250e+01,-3.517744064331054688e+01
1.601559966802597046e-01,2.000000000000000000e+00,3.550840759277343750e+01,1.281507492065429688e+01,3.555877304077148438e+01,-1.087721328735351562e+02,9.078158569335937500e+01,-6.390862655639648438e+01,5.339999008178710938e+01,-1.526667213439941406e+01,-1.041612091064453125e+02,-1.144097595214843750e+02,6.422729492187500000e+01,-3.517842864990234375e+01
1.652529984712600708e-01,2.000000000000000000e+00,3.551673126220703125e+01,1.280222034454345703e+01,3.555836486816406250e+01,-1.087800903320312500e+02,9.078179931640625000e+01,-6.391296386718750000e+01,5.338685989379882812e+01,-1.526580238342285156e+01,-1.041668167114257812e+02,-1.144155731201171875e+02,6.422445678710937500e+01,-3.517909240722656250e+01
1.677030026912689209e-01,2.000000000000000000e+00,3.551673126220703125e+01,1.280222034454345703e+01,3.555836486816406250e+01,-1.087800903320312500e+02,9.078179931640625000e+01,-6.391296386718750000e+01,5.336961364746093750e+01,-1.526488685607910156e+01,-1.041699142456054688e+02,-1.144244079589843750e+02,6.422132873535156250e+01,-3.518040847778320312e+01
1.690450012683868408e-01,2.000000000000000000e+00,3.552660751342773438e+01,1.278649330139160156e+01,3.555769729614257812e+01,-1.087906799316406250e+02,9.078238677978515625e+01,-6.391812133789062500e+01,5.336961364746093750e+01,-1.526488685607910156e+01,-1.041699142456054688e+02,-1.144244079589843750e+02,6.422132873535156250e+01,-3.518040847778320312e+01
1.715289950370788574e-01,2.000000000000000000e+00,3.552660751342773438e+01,1.278649330139160156e+01,3.555769729614257812e+01,-1.087906799316406250e+02,9.078238677978515625e+01,-6.391812133789062500e+01,5.336961364746093750e+01,-1.526488685607910156e+01,-1.041699142456054688e+02,-1.144244079589843750e+02,6.422132873535156250e+01,-3.518040847778320312e+01
1.759649962186813354e-01,2.000000000000000000e+00,3.554968643188476562e+01,1.274924373626708984e+01,3.555574035644531250e+01,-1.088209686279296875e+02,9.078366851806640625e+01,-6.393120574951171875e+01,5.332281112670898438e+01,-1.526099586486816406e+01,-1.041746444702148438e+02,-1.144485397338867188e+02,6.421527099609375000e+01,-3.518688964843750000e+01
1.772689968347549438e-01,2.000000000000000000e+00,3.554968643188476562e+01,1.274924373626708984e+01,3.555574035644531250e+01,-1.088209686279296875e+02,9.078366851806640625e+01,-6.393120574951171875e+01,5.332281112670898438e+01,-1.526099586486816406e+01,-1.041746444702148438e+02,-1.144485397338867188e+02,6.421527099609375000e+01,-3.518688964843750000e+01
1.796409934759140015e-01,2.000000000000000000e+00,3.554968643188476562e+01,1.274924373626708984e+01,3.555574035644531250e+01,-1.088209686279296875e+02,9.078366851806640625e+01,-6.393120574951171875e+01,5.332281112670898438e+01,-1.526099586486816406e+01,-1.041746444702148438e+02,-1.144485397338867188e+02,6.421527099609375000e+01,-3.518688964843750000e+01
1.822720021009445190e-01,2.000000000000000000e+00,3.556286621093750000e+01,1.272844791412353516e+01,3.555419921875000000e+01,-1.088411407470703125e+02,9.078500366210937500e+01,-6.394056320190429688e+01,5.329259490966796875e+01,-1.525875186920166016e+01,-1.041788864135742188e+02,-1.144655532836914062e+02,6.421316528320312500e+01,-3.519304275512695312e+01
1.881060004234313965e-01,2.000000000000000000e+00,3.557684326171875000e+01,1.270572757720947266e+01,3.555228424072265625e+01,-1.088652648925781250e+02,9.078627777099609375e+01,-6.395175933837890625e+01,5.325749588012695312e+01,-1.525554847717285156e+01,-1.041852035522460938e+02,-1.144873123168945312e+02,6.421141815185546875e+01,-3.520227050781250000e+01
1.894450038671493530e-01,2.000000000000000000e+00,3.559156799316406250e+01,1.268153572082519531e+01,3.554974365234375000e+01,-1.088939743041992188e+02,9.078745269775390625e+01,-6.396491241455078125e+01,5.321810913085937500e+01,-1.525083255767822266e+01,-1.041928710937500000e+02,-1.145140914916992188e+02,6.420944976806640625e+01,-3.521446609497070312e+01
1.919510066509246826e-01,2.000000000000000000e+00,3.560707473754882812e+01,1.265548896789550781e+01,3.554685592651367188e+01,-1.089274215698242188e+02,9.078889465332031250e+01,-6.397955703735351562e+01,5.317531967163085938e+01,-1.524529457092285156e+01,-1.042019500732421875e+02,-1.145467605590820312e+02,6.420806121826171875e+01,-3.522786712646484375e+01
1.932439953088760376e-01,2.000000000000000000e+00,3.560707473754882812e+01,1.265548896789550781e+01,3.554685592651367188e+01,-1.089274215698242188e+02,9.078889465332031250e+01,-6.397955703735351562e+01,5.317531967163085938e+01,-1.524529457092285156e+01,-1.042019500732421875e+02,-1.145467605590820312e+02,6.420806121826171875e+01,-3.522786712646484375e+01
2.009859979152679443e-01,2.000000000000000000e+00,3.560707473754882812e+01,1.265548896789550781e+01,3.554685592651367188e+01,-1.089274215698242188e+02,9.078889465332031250e+01,-6.397955703735351562e+01,5.312912368774414062e+01,-1.523915958404541016e+01,-1.042133712768554688e+02,-1.145848922729492188e+02,6.420594787597656250e+01,-3.524555587768554688e+01
2.022919952869415283e-01,2.000000000000000000e+00,3.564212417602539062e+01,1.259649181365966797e+01,3.553986358642578125e+01,-1.090021057128906250e+02,9.079209136962890625e+01,-6.401462554931640625e+01,5.307907867431640625e+01,-1.523201847076416016e+01,-1.042263717651367188e+02,-1.146261749267578125e+02,6.420405578613281250e+01,-3.526643371582031250e+01
2.049690037965774536e-01,2.000000000000000000e+00,3.566138839721679688e+01,1.256363391876220703e+01,3.553563308715820312e+01,-1.090437774658203125e+02,9.079412078857421875e+01,-6.403476715087890625e+01,5.302645492553710938e+01,-1.522391605377197266e+01,-1.042407836914062500e+02,-1.146712036132812500e+02,6.420281219482421875e+01,-3.528961181640625000e+01
2.087170034646987915e-01,2.000000000000000000e+00,3.568130874633789062e+01,1.252925872802734375e+01,3.553112030029296875e+01,-1.090901870727539062e+02,9.079631042480468750e+01,-6.405673980712890625e+01,5.297080993652343750e+01,-1.521531009674072266e+01,-1.042568817138671875e+02,-1.147202377319335938e+02,6.420143127441406250e+01,-3.531565093994140625e+01
2.100210040807723999e-01,2.000000000000000000e+00,3.568130874633789062e+01,1.252925872802734375e+01,3.553112030029296875e+01,-1.090901870727539062e+02,9.079631042480468750e+01,-6.405673980712890625e+01,5.297080993652343750e+01,-1.521531009674072266e+01,-1.042568817138671875e+02,-1.147202377319335938e+02,6.420143127441406250e+01,-3.531565093994140625e+01
2.162079960107803345e-01,2.000000000000000000e+00,3.572356796264648438e+01,1.245550823211669922e+01,3.552144241333007812e+01,-1.091874771118164062e+02,9.080083465576171875e+01,-6.410339355468750000e+01,5.284968185424804688e+01,-1.519727516174316406e+01,-1.042900009155273438e+02,-1.148236465454101562e+02,6.419757080078125000e+01,-3.537157058715820312e+01
2.175469994544982910e-01,2.000000000000000000e+00,3.572356796264648438e+01,1.245550823211669922e+01,3.552144241333007812e+01,-1.091874771118164062e+02,9.080083465576171875e+01,-6.410339355468750000e+01,5.284968185424804688e+01,-1.519727516174316406e+01,-1.042900009155273438e+02,-1.148236465454101562e+02,6.419757080078125000e+01,-3.537157058715820312e+01
2.210119962692260742e-01,2.000000000000000000e+00,3.572356796264648438e+01,1.245550823211669922e+01,3.552144241333007812e+01,-1.091874771118164062e+02,9.080083465576171875e+01,-6.410339355468750000e+01,5.284968185424804688e+01,-1.519727516174316406e+01,-1.042900009155273438e+02,-1.148236465454101562e+02,6.419757080078125000e+01,-3.537157058715820312e+01
2.223239988088607788e-01,2.000000000000000000e+00,3.574567031860351562e+01,1.241601848602294922e+01,3.551615905761718750e+01,-1.092386703491210938e+02,9.080313110351562500e+01,-6.412754058837890625e+01,5.278420639038085938e+01,-1.518821144104003906e+01,-1.043063735961914062e+02,-1.148768539428710938e+02,6.419545745849609375e+01,-3.540200042724609375e+01
2.267059981822967529e-01,2.000000000000000000e+00,3.576898193359375000e+01,1.237485504150390625e+01,3.551070785522460938e+01,-1.092916641235351562e+02,9.080558013916015625e+01,-6.415174865722656250e+01,5.271554183959960938e+01,-1.517905616760253906e+01,-1.043227996826171875e+02,-1.149314956665039062e+02,6.419319915771484375e+01,-3.543408203125000000e+01
2.292010039091110229e-01,2.000000000000000000e+00,3.579343795776367188e+01,1.233203887939453125e+01,3.550513839721679688e+01,-1.093445510864257812e+02,9.080835723876953125e+01,-6.417642974853515625e+01,5.264456939697265625e+01,-1.516962623596191406e+01,-1.043386840820312500e+02,-1.149865112304687500e+02,6.419042968750000000e+01,-3.546902084350585938e+01
2.305489927530288696e-01,2.000000000000000000e+00,3.579343795776367188e+01,1.233203887939453125e+01,3.550513839721679688e+01,-1.093445510864257812e+02,9.080835723876953125e+01,-6.417642974853515625e+01,5.264456939697265625e+01,-1.516962623596191406e+01,-1.043386840820312500e+02,-1.149865112304687500e+02,6.419042968750000000e+01,-3.546902084350585938e+01
2.343199998140335083e-01,2.000000000000000000e+00,3.581884384155273438e+01,1.228745841979980469e+01,3.549962615966796875e+01,-1.093983764648437500e+02,9.081092071533203125e+01,-6.420172882080078125e+01,5.257145309448242188e+01,-1.516037845611572266e+01,-1.043539123535156250e+02,-1.150417251586914062e+02,6.418751525878906250e+01,-3.550395584106445312e+01
2.384379953145980835e-01,2.000000000000000000e+00,3.584562683105468750e+01,1.224154281616210938e+01,3.549422073364257812e+01,-1.094524765014648438e+02,9.081363677978515625e+01,-6.422783660888671875e+01,5.249822998046875000e+01,-1.515131473541259766e+01,-1.043695220947265625e+02,-1.150969390869140625e+02,6.418402099609375000e+01,-3.554054260253906250e+01
2.409030050039291382e-01,2.000000000000000000e+00,3.587347030639648438e+01,1.219451713562011719e+01,3.548884963989257812e+01,-1.095067825317382812e+02,9.081629943847656250e+01,-6.425415039062500000e+01,5.242511749267578125e+01,-1.514234352111816406e+01,-1.043848571777343750e+02,-1.151525955200195312e+02,6.418022918701171875e+01,-3.557767486572265625e+01
2.422299981117248535e-01,2.000000000000000000e+00,3.587347030639648438e+01,1.219451713562011719e+01,3.548884963989257812e+01,-1.095067825317382812e+02,9.081629943847656250e+01,-6.425415039062500000e+01,5.242511749267578125e+01,-1.514234352111816406e+01,-1.043848571777343750e+02,-1.151525955200195312e+02,6.418022918701171875e+01,-3.557767486572265625e+01
2.457689940929412842e-01,2.000000000000000000e+00,3.590206146240234375e+01,1.214660930633544922e+01,3.548362731933593750e+01,-1.095613479614257812e+02,9.081912994384765625e+01,-6.428019714355468750e+01,5.235233306884765625e+01,-1.513314151763916016e+01,-1.043999786376953125e+02,-1.152080230712890625e+02,6.417643737792968750e+01,-3.561392974853515625e+01
2.499600052833557129e-01,2.000000000000000000e+00,3.590206146240234375e+01,1.214660930633544922e+01,3.548362731933593750e+01,-1.095613479614257812e+02,9.081912994384765625e+01,-6.428019714355468750e+01,5.227850341796875000e+01,-1.512398719787597656e+01,-1.044149856567382812e+02,-1.152625274658203125e+02,6.417199707031250000e+01,-3.565051269531250000e+01
2.525120079517364502e-01,2.000000000000000000e+00,3.595999526977539062e+01,1.205020618438720703e+01,3.547270584106445312e+01,-1.096696472167968750e+02,9.082472229003906250e+01,-6.433051300048828125e+01,5.220368576049804688e+01,-1.511460304260253906e+01,-1.044299468994140625e+02,-1.153163833618164062e+02,6.416682434082031250e+01,-3.568643951416015625e+01
2.549560070037841797e-01,2.000000000000000000e+00,3.595999526977539062e+01,1.205020618438720703e+01,3.547270584106445312e+01,-1.096696472167968750e+02,9.082472229003906250e+01,-6.433051300048828125e+01,5.220368576049804688e+01,-1.511460304260253906e+01,-1.044299468994140625e+02,-1.153163833618164062e+02,6.416682434082031250e+01,-3.568643951416015625e+01
2.589460015296936035e-01,2.000000000000000000e+00,3.598884582519531250e+01,1.200191402435302734e+01,3.546719741821289062e+01,-1.097240600585937500e+02,9.082743835449218750e+01,-6.435546875000000000e+01,5.212947463989257812e+01,-1.510540199279785156e+01,-1.044450607299804688e+02,-1.153706665039062500e+02,6.416157531738281250e+01,-3.572104644775390625e+01
2.630130052566528320e-01,2.000000000000000000e+00,3.601763534545898438e+01,1.195378017425537109e+01,3.546172714233398438e+01,-1.097784194946289062e+02,9.083032226562500000e+01,-6.438124084472656250e+01,5.205614089965820312e+01,-1.509597110748291016e+01,-1.044599075317382812e+02,-1.154254608154296875e+02,6.415632629394531250e+01,-3.575664138793945312e+01
2.691600024700164795e-01,2.000000000000000000e+00,3.604657363891601562e+01,1.190560150146484375e+01,3.545630264282226562e+01,-1.098334655761718750e+02,9.083303833007812500e+01,-6.440715026855468750e+01,5.198330307006835938e+01,-1.508649635314941406e+01,-1.044744873046875000e+02,-1.154802474975585938e+02,6.415057373046875000e+01,-3.579322433471679688e+01
2.709600031375885010e-01,2.000000000000000000e+00,3.607562637329101562e+01,1.185724067687988281e+01,3.545066452026367188e+01,-1.098875579833984375e+02,9.083570098876953125e+01,-6.443331909179687500e+01,5.190958404541015625e+01,-1.507711219787597656e+01,-1.044891738891601562e+02,-1.155347442626953125e+02,6.414540100097656250e+01,-3.582794189453125000e+01
2.763859927654266357e-01,2.000000000000000000e+00,3.610467910766601562e+01,1.180906200408935547e+01,3.544501495361328125e+01,-1.099417114257812500e+02,9.083831787109375000e+01,-6.445964050292968750e+01,5.183504104614257812e+01,-1.506740760803222656e+01,-1.045040740966796875e+02,-1.155888900756835938e+02,6.414022827148437500e+01,-3.586211013793945312e+01
2.790009975433349609e-01,2.000000000000000000e+00,3.613355636596679688e+01,1.176108646392822266e+01,3.543952560424804688e+01,-1.099963836669921875e+02,9.084124755859375000e+01,-6.448547363281250000e+01,5.176077270507812500e+01,-1.505793094635009766e+01,-1.045190887451171875e+02,-1.156435317993164062e+02,6.413556671142578125e+01,-3.589528656005859375e+01
2.831819951534271240e-01,2.000000000000000000e+00,3.616231918334960938e+01,1.171308803558349609e+01,3.543421936035156250e+01,-1.100503768920898438e+02,9.084413146972656250e+01,-6.451023101806640625e+01,5.168809890747070312e+01,-1.504850196838378906e+01,-1.045341033935546875e+02,-1.156982421875000000e+02,6.413076019287109375e+01,-3.592638015747070312e+01
2.883839905261993408e-01,2.000000000000000000e+00,3.619099807739257812e+01,1.166506767272949219e+01,3.542895507812500000e+01,-1.101052093505859375e+02,9.084679412841796875e+01,-6.453518676757812500e+01,5.161531448364257812e+01,-1.503925514221191406e+01,-1.045489959716796875e+02,-1.157526779174804688e+02,6.412674713134765625e+01,-3.595494079589843750e+01
2.909460067749023438e-01,2.000000000000000000e+00,3.621979141235351562e+01,1.161702442169189453e+01,3.542356491088867188e+01,-1.101593093872070312e+02,9.084935760498046875e+01,-6.456102752685546875e+01,5.154209136962890625e+01,-1.503005313873291016e+01,-1.045640106201171875e+02,-1.158065948486328125e+02,6.412361145019531250e+01,-3.598295974731445312e+01
2.949729859828948975e-01,2.000000000000000000e+00,3.624852752685546875e+01,1.156902599334716797e+01,3.541807556152343750e+01,-1.102130889892578125e+02,9.085213470458984375e+01,-6.458645629882812500e+01,5.146842575073242188e+01,-1.502080726623535156e+01,-1.045792388916015625e+02,-1.158606796264648438e+02,6.412070465087890625e+01,-3.600976562500000000e+01
2.990059852600097656e-01,2.000000000000000000e+00,3.627726364135742188e+01,1.152114105224609375e+01,3.541260528564453125e+01,-1.102678146362304688e+02,9.085494995117187500e+01,-6.461276245117187500e+01,5.139547729492187500e+01,-1.501124000549316406e+01,-1.045945205688476562e+02,-1.159153213500976562e+02,6.411771392822265625e+01,-3.603690338134765625e+01
3.029420077800750732e-01,2.000000000000000000e+00,3.630608367919921875e+01,1.147327899932861328e+01,3.540719985961914062e+01,-1.103218078613281250e+02,9.085778045654296875e+01,-6.463874053955078125e+01,5.132346343994140625e+01,-1.500199317932128906e+01,-1.046101303100585938e+02,-1.159701766967773438e+02,6.411443328857421875e+01,-3.606403732299804688e+01
3.095169961452484131e-01,2.000000000000000000e+00,3.633470535278320312e+01,1.142562007904052734e+01,3.540176773071289062e+01,-1.103761138916015625e+02,9.086017608642578125e+01,-6.466464233398437500e+01,5.125090026855468750e+01,-1.499288368225097656e+01,-1.046252517700195312e+02,-1.160247497558593750e+02,6.411174011230468750e+01,-3.609084701538085938e+01
3.126919865608215332e-01,2.000000000000000000e+00,3.636329650878906250e+01,1.137791633605957031e+01,3.539622116088867188e+01,-1.104307861328125000e+02,9.086300659179687500e+01,-6.468926239013671875e+01,5.117761993408203125e+01,-1.498381996154785156e+01,-1.046402587890625000e+02,-1.160792465209960938e+02,6.410845947265625000e+01,-3.611896896362304688e+01
3.176609873771667480e-01,2.000000000000000000e+00,3.639234924316406250e+01,1.133010005950927734e+01,3.539050674438476562e+01,-1.104844665527343750e+02,9.086598968505859375e+01,-6.471401214599609375e+01,5.110395812988281250e+01,-1.497443485260009766e+01,-1.046554412841796875e+02,-1.161336822509765625e+02,6.410540008544921875e+01,-3.614808273315429688e+01
3.209269940853118896e-01,2.000000000000000000e+00,3.642142868041992188e+01,1.128214645385742188e+01,3.538497543334960938e+01,-1.105392456054687500e+02,9.086860656738281250e+01,-6.473910522460937500e+01,5.103139114379882812e+01,-1.496523475646972656e+01,-1.046710433959960938e+02,-1.161878128051757812e+02,6.410182952880859375e+01,-3.617719650268554688e+01
3.249320089817047119e-01,2.000000000000000000e+00,3.645030593872070312e+01,1.123430728912353516e+01,3.537956619262695312e+01,-1.105935058593750000e+02,9.087116241455078125e+01,-6.476473999023437500e+01,5.095970916748046875e+01,-1.495621585845947266e+01,-1.046863327026367188e+02,-1.162418823242187500e+02,6.409833526611328125e+01,-3.620708084106445312e+01
3.289389908313751221e-01,2.000000000000000000e+00,3.647927093505859375e+01,1.118658065795898438e+01,3.537424087524414062e+01,-1.106476974487304688e+02,9.087414550781250000e+01,-6.479058074951171875e+01,5.088724899291992188e+01,-1.494729042053222656e+01,-1.047015533447265625e+02,-1.162966079711914062e+02,6.409476470947265625e+01,-3.623575592041015625e+01
3.309789896011352539e-01,2.000000000000000000e+00,3.650803756713867188e+01,1.113896751403808594e+01,3.536867141723632812e+01,-1.107026443481445312e+02,9.087686157226562500e+01,-6.481682586669921875e+01,5.081418991088867188e+01,-1.493845558166503906e+01,-1.047165145874023438e+02,-1.163510284423828125e+02,6.409126281738281250e+01,-3.626508712768554688e+01
3.369970023632049561e-01,2.000000000000000000e+00,3.653723144531250000e+01,1.109110450744628906e+01,3.536307907104492188e+01,-1.107565231323242188e+02,9.087974548339843750e+01,-6.484273529052734375e+01,5.074096679687500000e+01,-1.492925357818603516e+01,-1.047317428588867188e+02,-1.164048080444335938e+02,6.408798980712890625e+01,-3.629519271850585938e+01
3.419199883937835693e-01,2.000000000000000000e+00,3.656619644165039062e+01,1.104321956634521484e+01,3.535742568969726562e+01,-1.108105163574218750e+02,9.088235473632812500e+01,-6.486735534667968750e+01,5.066851425170898438e+01,-1.492000675201416016e+01,-1.047470245361328125e+02,-1.164596710205078125e+02,6.408448791503906250e+01,-3.632672119140625000e+01
3.451279997825622559e-01,2.000000000000000000e+00,3.659519195556640625e+01,1.099551582336425781e+01,3.535197830200195312e+01,-1.108653488159179688e+02,9.088550567626953125e+01,-6.489196777343750000e+01,5.059600448608398438e+01,-1.491089725494384766e+01,-1.047621994018554688e+02,-1.165151062011718750e+02,6.408069610595703125e+01,-3.635968017578125000e+01
3.470099866390228271e-01,2.000000000000000000e+00,3.662401199340820312e+01,1.094733715057373047e+01,3.534654617309570312e+01,-1.109195022583007812e+02,9.088838958740234375e+01,-6.491732788085937500e+01,5.052371215820312500e+01,-1.490192604064941406e+01,-1.047770462036132812e+02,-1.165695419311523438e+02,6.407720184326171875e+01,-3.639395523071289062e+01
3.510499894618988037e-01,2.000000000000000000e+00,3.665291976928710938e+01,1.089936161041259766e+01,3.534101867675781250e+01,-1.109738082885742188e+02,9.089115142822265625e+01,-6.494255828857421875e+01,5.045010375976562500e+01,-1.489286231994628906e+01,-1.047921676635742188e+02,-1.166239624023437500e+02,6.407392120361328125e+01,-3.642889404296875000e+01
3.549410104751586914e-01,2.000000000000000000e+00,3.668185424804687500e+01,1.085143184661865234e+01,3.533534622192382812e+01,-1.110280609130859375e+02,9.089403533935546875e+01,-6.496819305419921875e+01,5.037622070312500000e+01,-1.488361549377441406e+01,-1.048072357177734375e+02,-1.166782531738281250e+02,6.407020568847656250e+01,-3.646382904052734375e+01
3.592639863491058350e-01,2.000000000000000000e+00,3.671105194091796875e+01,1.080329799652099609e+01,3.532975387573242188e+01,-1.110817871093750000e+02,9.089691925048828125e+01,-6.499450683593750000e+01,5.030261230468750000e+01,-1.487427711486816406e+01,-1.048222427368164062e+02,-1.167323989868164062e+02,6.406569671630859375e+01,-3.649854660034179688e+01
3.630760014057159424e-01,2.000000000000000000e+00,3.674010467529296875e+01,1.075518608093261719e+01,3.532440567016601562e+01,-1.111364135742187500e+02,9.089994812011718750e+01,-6.502007293701171875e+01,5.023031997680664062e+01,-1.486470985412597656e+01,-1.048373031616210938e+02,-1.167871780395507812e+02,6.406153869628906250e+01,-3.653403472900390625e+01
3.669509887695312500e-01,2.000000000000000000e+00,3.676889801025390625e+01,1.070700740814208984e+01,3.531901931762695312e+01,-1.111907196044921875e+02,9.090288543701171875e+01,-6.504510498046875000e+01,5.015781402587890625e+01,-1.485555362701416016e+01,-1.048520431518554688e+02,-1.168419036865234375e+02,6.405738067626953125e+01,-3.656830978393554688e+01
3.709869980812072754e-01,2.000000000000000000e+00,3.679780197143554688e+01,1.065887355804443359e+01,3.531352996826171875e+01,-1.112450714111328125e+02,9.090592193603515625e+01,-6.506978607177734375e+01,5.008442687988281250e+01,-1.484635353088378906e+01,-1.048668365478515625e+02,-1.168961868286132812e+02,6.405316162109375000e+01,-3.660280609130859375e+01
3.750439882278442383e-01,2.000000000000000000e+00,3.682682800292968750e+01,1.061071681976318359e+01,3.530800247192382812e+01,-1.112990112304687500e+02,9.090911865234375000e+01,-6.509481048583984375e+01,5.001054382324218750e+01,-1.483728981018066406e+01,-1.048816909790039062e+02,-1.169504776000976562e+02,6.404813385009765625e+01,-3.663730621337890625e+01
3.789680004119873047e-01,2.000000000000000000e+00,3.685604858398437500e+01,1.056233406066894531e+01,3.530228805541992188e+01,-1.113528518676757812e+02,9.091189575195312500e+01,-6.511989593505859375e+01,4.993682479858398438e+01,-1.482808780670166016e+01,-1.048962631225585938e+02,-1.170048980712890625e+02,6.404288482666015625e+01,-3.667081451416015625e+01
3.853110074996948242e-01,2.000000000000000000e+00,3.688535690307617188e+01,1.051410961151123047e+01,3.529671478271484375e+01,-1.114076843261718750e+02,9.091482543945312500e+01,-6.514553833007812500e+01,4.986404037475585938e+01,-1.481879520416259766e+01,-1.049113311767578125e+02,-1.170590515136718750e+02,6.403764343261718750e+01,-3.670366287231445312e+01
3.870179951190948486e-01,2.000000000000000000e+00,3.691458129882812500e+01,1.046590805053710938e+01,3.529122543334960938e+01,-1.114618835449218750e+02,9.091802978515625000e+01,-6.517124176025390625e+01,4.979098129272460938e+01,-1.480950355529785156e+01,-1.049262924194335938e+02,-1.171136932373046875e+02,6.403224182128906250e+01,-3.673629379272460938e+01
3.909490108489990234e-01,2.000000000000000000e+00,3.694348907470703125e+01,1.041784191131591797e+01,3.528553390502929688e+01,-1.115160827636718750e+02,9.092111968994140625e+01,-6.519714355468750000e+01,4.971737289428710938e+01,-1.480048561096191406e+01,-1.049411392211914062e+02,-1.171678237915039062e+02,6.402707672119140625e+01,-3.676672363281250000e+01
3.973529934883117676e-01,2.000000000000000000e+00,3.694348907470703125e+01,1.041784191131591797e+01,3.528553390502929688e+01,-1.115160827636718750e+02,9.092111968994140625e+01,-6.519714355468750000e+01,4.964332580566406250e+01,-1.479137611389160156e+01,-1.049561462402343750e+02,-1.172212524414062500e+02,6.402227020263671875e+01,-3.679452133178710938e+01
3.990049958229064941e-01,2.000000000000000000e+00,3.700124740600585938e+01,1.032177734375000000e+01,3.527425003051757812e+01,-1.116242828369140625e+02,9.092724609375000000e+01,-6.524739837646484375e+01,4.957053756713867188e+01,-1.478203773498535156e+01,-1.049710998535156250e+02,-1.172753982543945312e+02,6.401716613769531250e+01,-3.682099533081054688e+01
4.055640101432800293e-01,2.000000000000000000e+00,3.700124740600585938e+01,1.032177734375000000e+01,3.527425003051757812e+01,-1.116242828369140625e+02,9.092724609375000000e+01,-6.524739837646484375e+01,4.957053756713867188e+01,-1.478203773498535156e+01,-1.049710998535156250e+02,-1.172753982543945312e+02,6.401716613769531250e+01,-3.682099533081054688e+01
4.103069901466369629e-01,2.000000000000000000e+00,3.705918121337890625e+01,1.022600841522216797e+01,3.526333236694335938e+01,-1.117329940795898438e+02,9.093332672119140625e+01,-6.529743957519531250e+01,4.942579269409179688e+01,-1.476322364807128906e+01,-1.050011825561523438e+02,-1.173836059570312500e+02,6.400761413574218750e+01,-3.687340164184570312e+01
4.117070138454437256e-01,2.000000000000000000e+00,3.708803176879882812e+01,1.017805480957031250e+01,3.525788116455078125e+01,-1.117867736816406250e+02,9.093642425537109375e+01,-6.532294464111328125e+01,4.935218429565429688e+01,-1.475402164459228516e+01,-1.050163497924804688e+02,-1.174379577636718750e+02,6.400361633300781250e+01,-3.689833831787109375e+01
4.159350097179412842e-01,2.000000000000000000e+00,3.711676406860351562e+01,1.013005733489990234e+01,3.525233078002929688e+01,-1.118412399291992188e+02,9.093950653076171875e+01,-6.534871673583984375e+01,4.927874374389648438e+01,-1.474495792388916016e+01,-1.050313644409179688e+02,-1.174919586181640625e+02,6.399953079223632812e+01,-3.692306137084960938e+01
4.189369976520538330e-01,2.000000000000000000e+00,3.714561462402343750e+01,1.008219528198242188e+01,3.524676132202148438e+01,-1.118951797485351562e+02,9.094233703613281250e+01,-6.537462615966796875e+01,4.920612335205078125e+01,-1.473598670959472656e+01,-1.050464324951171875e+02,-1.175459594726562500e+02,6.399501419067382812e+01,-3.694942474365234375e+01
4.239870011806488037e-01,2.000000000000000000e+00,3.714561462402343750e+01,1.008219528198242188e+01,3.524676132202148438e+01,-1.118951797485351562e+02,9.094233703613281250e+01,-6.537462615966796875e+01,4.920612335205078125e+01,-1.473598670959472656e+01,-1.050464324951171875e+02,-1.175459594726562500e+02,6.399501419067382812e+01,-3.694942474365234375e+01
4.269460141658782959e-01,2.000000000000000000e+00,3.720328521728515625e+01,9.986606597900390625e+00,3.523572158813476562e+01,-1.120033187866210938e+02,9.094852447509765625e+01,-6.542501068115234375e+01,4.906148910522460938e+01,-1.471758460998535156e+01,-1.050772171020507812e+02,-1.176542434692382812e+02,6.398787689208984375e+01,-3.700139236450195312e+01
4.320459961891174316e-01,2.000000000000000000e+00,3.720328521728515625e+01,9.986606597900390625e+00,3.523572158813476562e+01,-1.120033187866210938e+02,9.094852447509765625e+01,-6.542501068115234375e+01,4.906148910522460938e+01,-1.471758460998535156e+01,-1.050772171020507812e+02,-1.176542434692382812e+02,6.398787689208984375e+01,-3.700139236450195312e+01
4.359399974346160889e-01,2.000000000000000000e+00,3.726110458374023438e+01,9.891130447387695312e+00,3.522457504272460938e+01,-1.121114120483398438e+02,9.095407104492187500e+01,-6.547472381591796875e+01,4.891503906250000000e+01,-1.469945716857910156e+01,-1.051080017089843750e+02,-1.177618713378906250e+02,6.398051452636718750e+01,-3.705247879028320312e+01
4.395560026168823242e-01,2.000000000000000000e+00,3.728986740112304688e+01,9.843155860900878906e+00,3.521906661987304688e+01,-1.121654510498046875e+02,9.095705413818359375e+01,-6.549994659423828125e+01,4.884258270263671875e+01,-1.469030094146728516e+01,-1.051228942871093750e+02,-1.178160247802734375e+02,6.397694015502929688e+01,-3.707895660400390625e+01
4.439969956874847412e-01,2.000000000000000000e+00,3.731903457641601562e+01,9.795269966125488281e+00,3.521374130249023438e+01,-1.122188644409179688e+02,9.095987701416015625e+01,-6.552564239501953125e+01,4.877111816406250000e+01,-1.468128299713134766e+01,-1.051380157470703125e+02,-1.178705291748046875e+02,6.397366333007812500e+01,-3.710795974731445312e+01
4.470080137252807617e-01,2.000000000000000000e+00,3.734782791137695312e+01,9.747363090515136719e+00,3.520845413208007812e+01,-1.122735900878906250e+02,9.096270751953125000e+01,-6.555162048339843750e+01,4.869888305664062500e+01,-1.467212772369384766e+01,-1.051536788940429688e+02,-1.179249496459960938e+02,6.397053527832031250e+01,-3.713806152343750000e+01
4.519850015640258789e-01,2.000000000000000000e+00,3.734782791137695312e+01,9.747363090515136719e+00,3.520845413208007812e+01,-1.122735900878906250e+02,9.096270751953125000e+01,-6.555162048339843750e+01,4.869888305664062500e+01,-1.467212772369384766e+01,-1.051536788940429688e+02,-1.179249496459960938e+02,6.397053527832031250e+01,-3.713806152343750000e+01
4.549410045146942139e-01,2.000000000000000000e+00,3.740563964843750000e+01,9.651773452758789062e+00,3.519739532470703125e+01,-1.123813552856445312e+02,9.096857452392578125e+01,-6.560269165039062500e+01,4.855183410644531250e+01,-1.465390968322753906e+01,-1.051839752197265625e+02,-1.180335922241210938e+02,6.396339035034179688e+01,-3.720397949218750000e+01
4.602020084857940674e-01,2.000000000000000000e+00,3.740563964843750000e+01,9.651773452758789062e+00,3.519739532470703125e+01,-1.123813552856445312e+02,9.096857452392578125e+01,-6.560269165039062500e+01,4.855183410644531250e+01,-1.465390968322753906e+01,-1.051839752197265625e+02,-1.180335922241210938e+02,6.396339035034179688e+01,-3.720397949218750000e+01
4.639970064163208008e-01,2.000000000000000000e+00,3.746337127685546875e+01,9.556049346923828125e+00,3.518631362915039062e+01,-1.124898681640625000e+02,9.097412109375000000e+01,-6.565219879150390625e+01,4.840752410888671875e+01,-1.463614749908447266e+01,-1.052145996093750000e+02,-1.181416625976562500e+02,6.395632171630859375e+01,-3.727308273315429688e+01
4.669510126113891602e-01,2.000000000000000000e+00,3.749256515502929688e+01,9.508322715759277344e+00,3.518078231811523438e+01,-1.125437088012695312e+02,9.097683715820312500e+01,-6.567722320556640625e+01,4.833523941040039062e+01,-1.462699413299560547e+01,-1.052294998168945312e+02,-1.181958770751953125e+02,6.395333480834960938e+01,-3.730812835693359375e+01
4.721130132675170898e-01,2.000000000000000000e+00,3.749256515502929688e+01,9.508322715759277344e+00,3.518078231811523438e+01,-1.125437088012695312e+02,9.097683715820312500e+01,-6.567722320556640625e+01,4.833523941040039062e+01,-1.462699413299560547e+01,-1.052294998168945312e+02,-1.181958770751953125e+02,6.395333480834960938e+01,-3.730812835693359375e+01
4.750100076198577881e-01,2.000000000000000000e+00,3.755023574829101562e+01,9.412168502807617188e+00,3.516949844360351562e+01,-1.126516265869140625e+02,9.098237609863281250e+01,-6.572882843017578125e+01,4.818862533569335938e+01,-1.460849952697753906e+01,-1.052593002319335938e+02,-1.183044509887695312e+02,6.394626617431640625e+01,-3.737822341918945312e+01
4.800130128860473633e-01,2.000000000000000000e+00,3.755023574829101562e+01,9.412168502807617188e+00,3.516949844360351562e+01,-1.126516265869140625e+02,9.098237609863281250e+01,-6.572882843017578125e+01,4.818862533569335938e+01,-1.460849952697753906e+01,-1.052593002319335938e+02,-1.183044509887695312e+02,6.394626617431640625e+01,-3.737822341918945312e+01
4.829660058021545410e-01,2.000000000000000000e+00,3.760816955566406250e+01,9.316420555114746094e+00,3.515837860107421875e+01,-1.127597732543945312e+02,9.098782348632812500e+01,-6.577975463867187500e+01,4.804420852661132812e+01,-1.459014320373535156e+01,-1.052892150878906250e+02,-1.184143753051757812e+02,6.393745803833007812e+01,-3.744996643066406250e+01
4.876880049705505371e-01,2.000000000000000000e+00,3.763733291625976562e+01,9.268490791320800781e+00,3.515296936035156250e+01,-1.128132858276367188e+02,9.099063873291015625e+01,-6.580458068847656250e+01,4.797126007080078125e+01,-1.458080482482910156e+01,-1.053041229248046875e+02,-1.184682388305664062e+02,6.393337249755859375e+01,-3.748676681518554688e+01
4.941500127315521240e-01,2.000000000000000000e+00,3.763733291625976562e+01,9.268490791320800781e+00,3.515296936035156250e+01,-1.128132858276367188e+02,9.099063873291015625e+01,-6.580458068847656250e+01,4.789792633056640625e+01,-1.457128334045410156e+01,-1.053188629150390625e+02,-1.185218734741210938e+02,6.392921829223632812e+01,-3.752247619628906250e+01
4.955799877643585205e-01,2.000000000000000000e+00,3.769540786743164062e+01,9.172562599182128906e+00,3.514188766479492188e+01,-1.129215850830078125e+02,9.099608612060546875e+01,-6.585414886474609375e+01,4.782475662231445312e+01,-1.456199073791503906e+01,-1.053341369628906250e+02,-1.185758666992187500e+02,6.392389678955078125e+01,-3.755784988403320312e+01
4.999980032444000244e-01,2.000000000000000000e+00,3.769540786743164062e+01,9.172562599182128906e+00,3.514188766479492188e+01,-1.129215850830078125e+02,9.099608612060546875e+01,-6.585414886474609375e+01,4.782475662231445312e+01,-1.456199073791503906e+01,-1.053341369628906250e+02,-1.185758666992187500e+02,6.392389678955078125e+01,-3.755784988403320312e+01
5.029339790344238281e-01,2.000000000000000000e+00,3.775336456298828125e+01,9.076476097106933594e+00,3.513074874877929688e+01,-1.130294647216796875e+02,9.100167846679687500e+01,-6.590480804443359375e+01,4.768039703369140625e+01,-1.454367923736572266e+01,-1.053634567260742188e+02,-1.186840209960937500e+02,6.391326522827148438e+01,-3.762431716918945312e+01
5.080509781837463379e-01,2.000000000000000000e+00,3.775336456298828125e+01,9.076476097106933594e+00,3.513074874877929688e+01,-1.130294647216796875e+02,9.100167846679687500e+01,-6.590480804443359375e+01,4.768039703369140625e+01,-1.454367923736572266e+01,-1.053634567260742188e+02,-1.186840209960937500e+02,6.391326522827148438e+01,-3.762431716918945312e+01
5.144490003585815430e-01,2.000000000000000000e+00,3.781149673461914062e+01,8.980661392211914062e+00,3.511976623535156250e+01,-1.131375503540039062e+02,9.100695800781250000e+01,-6.595655822753906250e+01,4.746072387695312500e+01,-1.451580142974853516e+01,-1.054080581665039062e+02,-1.188460006713867188e+02,6.389956283569335938e+01,-3.771253967285156250e+01
5.159289836883544922e-01,2.000000000000000000e+00,3.784054946899414062e+01,8.932708740234375000e+00,3.511409378051757812e+01,-1.131914367675781250e+02,9.100967407226562500e+01,-6.598117065429687500e+01,4.746072387695312500e+01,-1.451580142974853516e+01,-1.054080581665039062e+02,-1.188460006713867188e+02,6.389956283569335938e+01,-3.771253967285156250e+01
5.209630131721496582e-01,2.000000000000000000e+00,3.784054946899414062e+01,8.932708740234375000e+00,3.511409378051757812e+01,-1.131914367675781250e+02,9.100967407226562500e+01,-6.598117065429687500e+01,4.746072387695312500e+01,-1.451580142974853516e+01,-1.054080581665039062e+02,-1.188460006713867188e+02,6.389956283569335938e+01,-3.771253967285156250e+01
5.236999988555908203e-01,2.000000000000000000e+00,3.789813613891601562e+01,8.837074279785156250e+00,3.510323715209960938e+01,-1.132995223999023438e+02,9.101511383056640625e+01,-6.603027343750000000e+01,4.731592559814453125e+01,-1.449721622467041016e+01,-1.054379119873046875e+02,-1.189534988403320312e+02,6.388965988159179688e+01,-3.776681137084960938e+01
5.280839800834655762e-01,2.000000000000000000e+00,3.789813613891601562e+01,8.837074279785156250e+00,3.510323715209960938e+01,-1.132995223999023438e+02,9.101511383056640625e+01,-6.603027343750000000e+01,4.731592559814453125e+01,-1.449721622467041016e+01,-1.054379119873046875e+02,-1.189534988403320312e+02,6.388965988159179688e+01,-3.776681137084960938e+01
5.319830179214477539e-01,2.000000000000000000e+00,3.792689895629882812e+01,8.789415359497070312e+00,3.509799194335937500e+01,-1.133530883789062500e+02,9.101794433593750000e+01,-6.605563354492187500e+01,4.716975021362304688e+01,-1.447895240783691406e+01,-1.054675521850585938e+02,-1.190599212646484375e+02,6.388164138793945312e+01,-3.781932449340820312e+01
5.392709970474243164e-01,2.000000000000000000e+00,3.795578002929687500e+01,8.741621017456054688e+00,3.509256362915039062e+01,-1.134076080322265625e+02,9.102066040039062500e+01,-6.608134460449218750e+01,4.709669113159179688e+01,-1.446933937072753906e+01,-1.054823455810546875e+02,-1.191129837036132812e+02,6.387741088867187500e+01,-3.784393310546875000e+01
5.405740141868591309e-01,2.000000000000000000e+00,3.801348114013671875e+01,8.645964622497558594e+00,3.508150482177734375e+01,-1.135153274536132812e+02,9.102620697021484375e+01,-6.613254547119140625e+01,4.702451324462890625e+01,-1.446000099182128906e+01,-1.054975738525390625e+02,-1.191676254272460938e+02,6.387275314331054688e+01,-3.786799240112304688e+01
5.439299941062927246e-01,2.000000000000000000e+00,3.804212951660156250e+01,8.598305702209472656e+00,3.507599258422851562e+01,-1.135691604614257812e+02,9.102902984619140625e+01,-6.615756988525390625e+01,4.695260620117187500e+01,-1.445098304748535156e+01,-1.055124740600585938e+02,-1.192213363647460938e+02,6.386787033081054688e+01,-3.789194488525390625e+01
5.480489730834960938e-01,2.000000000000000000e+00,3.804212951660156250e+01,8.598305702209472656e+00,3.507599258422851562e+01,-1.135691604614257812e+02,9.102902984619140625e+01,-6.615756988525390625e+01,4.695260620117187500e+01,-1.445098304748535156e+01,-1.055124740600585938e+02,-1.192213363647460938e+02,6.386787033081054688e+01,-3.789194488525390625e+01
5.510529875755310059e-01,2.000000000000000000e+00,3.807100677490234375e+01,8.550692558288574219e+00,3.507050323486328125e+01,-1.136228866577148438e+02,9.103185272216796875e+01,-6.618157958984375000e+01,4.687976837158203125e+01,-1.444205570220947266e+01,-1.055273284912109375e+02,-1.192753372192382812e+02,6.386407852172851562e+01,-3.791721343994140625e+01
5.550259947776794434e-01,2.000000000000000000e+00,3.810003280639648438e+01,8.502898216247558594e+00,3.506497192382812500e+01,-1.136767272949218750e+02,9.103468322753906250e+01,-6.620693969726562500e+01,4.680621337890625000e+01,-1.443313121795654297e+01,-1.055424499511718750e+02,-1.193293380737304688e+02,6.385992813110351562e+01,-3.794160079956054688e+01
5.595960021018981934e-01,2.000000000000000000e+00,3.812896728515625000e+01,8.455149650573730469e+00,3.505928039550781250e+01,-1.137310791015625000e+02,9.103766632080078125e+01,-6.623148345947265625e+01,4.673282241821289062e+01,-1.442402076721191406e+01,-1.055577850341796875e+02,-1.193826065063476562e+02,6.385533523559570312e+01,-3.796697998046875000e+01
5.642169713973999023e-01,2.000000000000000000e+00,3.815778732299804688e+01,8.407422065734863281e+00,3.505360794067382812e+01,-1.137842788696289062e+02,9.104049682617187500e+01,-6.625643920898437500e+01,4.666053771972656250e+01,-1.441504764556884766e+01,-1.055731735229492188e+02,-1.194361877441406250e+02,6.385096740722656250e+01,-3.799455642700195312e+01
5.679630041122436523e-01,2.000000000000000000e+00,3.818658065795898438e+01,8.359604835510253906e+00,3.504816055297851562e+01,-1.138385391235351562e+02,9.104331970214843750e+01,-6.628234863281250000e+01,4.658895874023437500e+01,-1.440621280670166016e+01,-1.055884017944335938e+02,-1.194908981323242188e+02,6.384732437133789062e+01,-3.802378082275390625e+01
5.709919929504394531e-01,2.000000000000000000e+00,3.821517181396484375e+01,8.311675071716308594e+00,3.504275131225585938e+01,-1.138924789428710938e+02,9.104630279541015625e+01,-6.630846405029296875e+01,4.651661300659179688e+01,-1.439724159240722656e+01,-1.056033020019531250e+02,-1.195441055297851562e+02,6.384404754638671875e+01,-3.805300140380859375e+01
5.760589838027954102e-01,2.000000000000000000e+00,3.824399566650390625e+01,8.263699531555175781e+00,3.503732299804687500e+01,-1.139457778930664062e+02,9.104913330078125000e+01,-6.633382415771484375e+01,4.644366455078125000e+01,-1.438840675354003906e+01,-1.056186447143554688e+02,-1.195973892211914062e+02,6.384054946899414062e+01,-3.808409500122070312e+01
5.791810154914855957e-01,2.000000000000000000e+00,3.827304840087890625e+01,8.215860366821289062e+00,3.503179168701171875e+01,-1.140005111694335938e+02,9.105233001708984375e+01,-6.635850524902343750e+01,4.637049484252929688e+01,-1.437943363189697266e+01,-1.056338119506835938e+02,-1.196515960693359375e+02,6.383682632446289062e+01,-3.811595535278320312e+01
5.839040279388427734e-01,2.000000000000000000e+00,3.830186843872070312e+01,8.168202400207519531e+00,3.502611923217773438e+01,-1.140541839599609375e+02,9.105499267578125000e+01,-6.638265228271484375e+01,4.629842758178710938e+01,-1.437018680572509766e+01,-1.056487731933593750e+02,-1.197052383422851562e+02,6.383362197875976562e+01,-3.814979171752929688e+01
5.892080068588256836e-01,2.000000000000000000e+00,3.833051681518554688e+01,8.120452880859375000e+00,3.502054977416992188e+01,-1.141079635620117188e+02,9.105809020996093750e+01,-6.640795135498046875e+01,4.622668838500976562e+01,-1.436094093322753906e+01,-1.056639480590820312e+02,-1.197600326538085938e+02,6.383012771606445312e+01,-3.818450927734375000e+01
5.919139981269836426e-01,2.000000000000000000e+00,3.838778686523437500e+01,8.024909019470214844e+00,3.500965118408203125e+01,-1.142156295776367188e+02,9.106437683105468750e+01,-6.645880889892578125e+01,4.608095169067382812e+01,-1.434345340728759766e+01,-1.056944580078125000e+02,-1.198679504394531250e+02,6.382276916503906250e+01,-3.825504302978515625e+01
5.960389971733093262e-01,2.000000000000000000e+00,3.838778686523437500e+01,8.024909019470214844e+00,3.500965118408203125e+01,-1.142156295776367188e+02,9.106437683105468750e+01,-6.645880889892578125e+01,4.608095169067382812e+01,-1.434345340728759766e+01,-1.056944580078125000e+02,-1.198679504394531250e+02,6.382276916503906250e+01,-3.825504302978515625e+01
5.990779995918273926e-01,2.000000000000000000e+00,3.841666412353515625e+01,7.976752758026123047e+00,3.500403976440429688e+01,-1.142694625854492188e+02,9.106730651855468750e+01,-6.648458099365234375e+01,4.600838851928710938e+01,-1.433457279205322266e+01,-1.057095794677734375e+02,-1.199221649169921875e+02,6.381927490234375000e+01,-3.829074859619140625e+01
6.030669808387756348e-01,2.000000000000000000e+00,3.844565963745117188e+01,7.928913116455078125e+00,3.499836730957031250e+01,-1.143239822387695312e+02,9.107035064697265625e+01,-6.651041412353515625e+01,4.593669891357421875e+01,-1.432541847229003906e+01,-1.057243728637695312e+02,-1.199760971069335938e+02,6.381548309326171875e+01,-3.832656097412109375e+01
6.081320047378540039e-01,2.000000000000000000e+00,3.847433853149414062e+01,7.881321907043457031e+00,3.499297714233398438e+01,-1.143776550292968750e+02,9.107338714599609375e+01,-6.653510284423828125e+01,4.586479568481445312e+01,-1.431630897521972656e+01,-1.057394943237304688e+02,-1.200295104980468750e+02,6.381169128417968750e+01,-3.836193847656250000e+01
6.111239790916442871e-01,2.000000000000000000e+00,3.850315856933593750e+01,7.833550930023193359e+00,3.498771286010742188e+01,-1.144314880371093750e+02,9.107659149169921875e+01,-6.655951690673828125e+01,4.579212188720703125e+01,-1.430724525451660156e+01,-1.057543945312500000e+02,-1.200836639404296875e+02,6.380797576904296875e+01,-3.839709472656250000e+01
6.153150200843811035e-01,2.000000000000000000e+00,3.853203964233398438e+01,7.785665512084960938e+00,3.498238372802734375e+01,-1.144852676391601562e+02,9.107952117919921875e+01,-6.658440399169921875e+01,4.571889495849609375e+01,-1.429804420471191406e+01,-1.057691879272460938e+02,-1.201381683349609375e+02,6.380404281616210938e+01,-3.843202972412109375e+01
6.191920042037963867e-01,2.000000000000000000e+00,3.856080245971679688e+01,7.737825870513916016e+00,3.497683715820312500e+01,-1.145386810302734375e+02,9.108239746093750000e+01,-6.660970306396484375e+01,4.564611434936523438e+01,-1.428861427307128906e+01,-1.057837066650390625e+02,-1.201922302246093750e+02,6.380010604858398438e+01,-3.846729660034179688e+01
6.234220266342163086e-01,2.000000000000000000e+00,3.858977127075195312e+01,7.690008640289306641e+00,3.497126388549804688e+01,-1.145930938720703125e+02,9.108543395996093750e+01,-6.663526916503906250e+01,4.557393264770507812e+01,-1.427918434143066406e+01,-1.057987747192382812e+02,-1.202466583251953125e+02,6.379581069946289062e+01,-3.850157546997070312e+01
6.273149847984313965e-01,2.000000000000000000e+00,3.861876296997070312e+01,7.642237186431884766e+00,3.496565246582031250e+01,-1.146469268798828125e+02,9.108847808837890625e+01,-6.666117095947265625e+01,4.550202941894531250e+01,-1.426970863342285156e+01,-1.058136825561523438e+02,-1.203004379272460938e+02,6.379129028320312500e+01,-3.853617858886718750e+01
6.321970224380493164e-01,2.000000000000000000e+00,3.864752578735351562e+01,7.594374656677246094e+00,3.496026611328125000e+01,-1.147008132934570312e+02,9.109136199951171875e+01,-6.668687438964843750e+01,4.542918777465820312e+01,-1.426027870178222656e+01,-1.058284683227539062e+02,-1.203538665771484375e+02,6.378684234619140625e+01,-3.856892013549804688e+01
6.352689862251281738e-01,2.000000000000000000e+00,3.867623519897460938e+01,7.546535015106201172e+00,3.495479583740234375e+01,-1.147543258666992188e+02,9.109413146972656250e+01,-6.671210479736328125e+01,4.535563659667968750e+01,-1.425093936920166016e+01,-1.058429870605468750e+02,-1.204079284667968750e+02,6.378203582763671875e+01,-3.859880447387695312e+01
6.414250135421752930e-01,2.000000000000000000e+00,3.870505523681640625e+01,7.498831272125244141e+00,3.494916152954101562e+01,-1.148077392578125000e+02,9.109700775146484375e+01,-6.673699188232421875e+01,4.528263092041015625e+01,-1.424187564849853516e+01,-1.058577804565429688e+02,-1.204613571166992188e+02,6.377730178833007812e+01,-3.862670898437500000e+01
6.441559791564941406e-01,2.000000000000000000e+00,3.876284408569335938e+01,7.403400897979736328e+00,3.493794250488281250e+01,-1.149162521362304688e+02,9.110276794433593750e+01,-6.678697967529296875e+01,4.513887405395507812e+01,-1.422315406799316406e+01,-1.058872604370117188e+02,-1.205685653686523438e+02,6.376841735839843750e+01,-3.868339920043945312e+01
6.473860144615173340e-01,2.000000000000000000e+00,3.876284408569335938e+01,7.403400897979736328e+00,3.493794250488281250e+01,-1.149162521362304688e+02,9.110276794433593750e+01,-6.678697967529296875e+01,4.513887405395507812e+01,-1.422315406799316406e+01,-1.058872604370117188e+02,-1.205685653686523438e+02,6.376841735839843750e+01,-3.868339920043945312e+01
6.519910097122192383e-01,2.000000000000000000e+00,3.879160690307617188e+01,7.355697154998779297e+00,3.493265533447265625e+01,-1.149701309204101562e+02,9.110548400878906250e+01,-6.681220245361328125e+01,4.506592178344726562e+01,-1.421367835998535156e+01,-1.059020538330078125e+02,-1.206224975585937500e+02,6.376375198364257812e+01,-3.871075439453125000e+01
6.565859913825988770e-01,2.000000000000000000e+00,3.882022857666015625e+01,7.308084011077880859e+00,3.492734909057617188e+01,-1.150241317749023438e+02,9.110836791992187500e+01,-6.683776855468750000e+01,4.499220657348632812e+01,-1.420456886291503906e+01,-1.059170684814453125e+02,-1.206764144897460938e+02,6.375872421264648438e+01,-3.873800277709960938e+01
6.599749922752380371e-01,2.000000000000000000e+00,3.884896087646484375e+01,7.260492801666259766e+00,3.492184066772460938e+01,-1.150773773193359375e+02,9.111108398437500000e+01,-6.686380767822265625e+01,4.491903686523437500e+01,-1.419541358947753906e+01,-1.059320831298828125e+02,-1.207303466796875000e+02,6.375318527221679688e+01,-3.876514053344726562e+01
6.639800071716308594e-01,2.000000000000000000e+00,3.887769699096679688e+01,7.212834358215332031e+00,3.491624450683593750e+01,-1.151316375732421875e+02,9.111380004882812500e+01,-6.688883209228515625e+01,4.484696960449218750e+01,-1.418625736236572266e+01,-1.059468231201171875e+02,-1.207836151123046875e+02,6.374845123291015625e+01,-3.879238510131835938e+01
6.679490208625793457e-01,2.000000000000000000e+00,3.893545532226562500e+01,7.117426395416259766e+00,3.490524673461914062e+01,-1.152390899658203125e+02,9.111919403076171875e+01,-6.693827056884765625e+01,4.470255279541015625e+01,-1.416753578186035156e+01,-1.059768981933593750e+02,-1.208910446166992188e+02,6.374058151245117188e+01,-3.884379959106445312e+01
6.719009876251220703e-01,2.000000000000000000e+00,3.893545532226562500e+01,7.117426395416259766e+00,3.490524673461914062e+01,-1.152390899658203125e+02,9.111919403076171875e+01,-6.693827056884765625e+01,4.470255279541015625e+01,-1.416753578186035156e+01,-1.059768981933593750e+02,-1.208910446166992188e+02,6.374058151245117188e+01,-3.884379959106445312e+01
6.760349869728088379e-01,2.000000000000000000e+00,3.896416473388671875e+01,7.069858551025390625e+00,3.489981842041015625e+01,-1.152931823730468750e+02,9.112200927734375000e+01,-6.696289062500000000e+01,4.462932586669921875e+01,-1.415838050842285156e+01,-1.059919662475585938e+02,-1.209437484741210938e+02,6.373627853393554688e+01,-3.886928939819335938e+01
6.805660128593444824e-01,2.000000000000000000e+00,3.899292755126953125e+01,7.022131919860839844e+00,3.489422607421875000e+01,-1.153467025756835938e+02,9.112473297119140625e+01,-6.698839569091796875e+01,4.455654525756835938e+01,-1.414936161041259766e+01,-1.060070800781250000e+02,-1.209977416992187500e+02,6.373212814331054688e+01,-3.889455795288085938e+01
6.840450167655944824e-01,2.000000000000000000e+00,3.902174758911132812e+01,6.974473476409912109e+00,3.488863754272460938e+01,-1.154000625610351562e+02,9.112728881835937500e+01,-6.701382446289062500e+01,4.448502349853515625e+01,-1.414043617248535156e+01,-1.060223083496093750e+02,-1.210521163940429688e+02,6.372848510742187500e+01,-3.892114257812500000e+01
6.877470016479492188e-01,2.000000000000000000e+00,3.905062866210937500e+01,6.926972866058349609e+00,3.488320922851562500e+01,-1.154543075561523438e+02,9.112995910644531250e+01,-6.703952026367187500e+01,4.441311645507812500e+01,-1.413146305084228516e+01,-1.060376510620117188e+02,-1.211059646606445312e+02,6.372499084472656250e+01,-3.894981765747070312e+01
6.924809813499450684e-01,2.000000000000000000e+00,3.907939147949218750e+01,6.879065513610839844e+00,3.487788009643554688e+01,-1.155075683593750000e+02,9.113278198242187500e+01,-6.706515502929687500e+01,4.434049987792968750e+01,-1.412253761291503906e+01,-1.060527648925781250e+02,-1.211601791381835938e+02,6.372112274169921875e+01,-3.897926330566406250e+01
6.957470178604125977e-01,2.000000000000000000e+00,3.910818481445312500e+01,6.831203460693359375e+00,3.487269592285156250e+01,-1.155618133544921875e+02,9.113544464111328125e+01,-6.708991241455078125e+01,4.426754760742187500e+01,-1.411338233947753906e+01,-1.060678863525390625e+02,-1.212142486572265625e+02,6.371755981445312500e+01,-3.901035308837890625e+01
6.999819874763488770e-01,2.000000000000000000e+00,3.913677597045898438e+01,6.783453941345214844e+00,3.486726760864257812e+01,-1.156156005859375000e+02,9.113811492919921875e+01,-6.711418914794921875e+01,4.419547653198242188e+01,-1.410450172424316406e+01,-1.060829544067382812e+02,-1.212678756713867188e+02,6.371390914916992188e+01,-3.904276275634765625e+01
7.048590183258056641e-01,2.000000000000000000e+00,3.916534042358398438e+01,6.735704898834228516e+00,3.486159515380859375e+01,-1.156685333251953125e+02,9.114062500000000000e+01,-6.713887786865234375e+01,4.412423324584960938e+01,-1.409575748443603516e+01,-1.060985031127929688e+02,-1.213220977783203125e+02,6.371063232421875000e+01,-3.907440185546875000e+01
7.079780101776123047e-01,2.000000000000000000e+00,3.919407272338867188e+01,6.688159942626953125e+00,3.485608291625976562e+01,-1.157227325439453125e+02,9.114328765869140625e+01,-6.716410827636718750e+01,4.405221557617187500e+01,-1.408687782287597656e+01,-1.061134109497070312e+02,-1.213762359619140625e+02,6.370764923095703125e+01,-3.910626220703125000e+01
7.118809819221496582e-01,2.000000000000000000e+00,3.922286605834960938e+01,6.640433311462402344e+00,3.485063552856445312e+01,-1.157766265869140625e+02,9.114589691162109375e+01,-6.718939971923828125e+01,4.397959518432617188e+01,-1.407776832580566406e+01,-1.061284255981445312e+02,-1.214295196533203125e+02,6.370421981811523438e+01,-3.913889312744140625e+01
7.172790169715881348e-01,2.000000000000000000e+00,3.925148773193359375e+01,6.592661380767822266e+00,3.484518814086914062e+01,-1.158301849365234375e+02,9.114851379394531250e+01,-6.721517181396484375e+01,4.390653610229492188e+01,-1.406856727600097656e+01,-1.061435394287109375e+02,-1.214840164184570312e+02,6.370072174072265625e+01,-3.917262268066406250e+01
7.202640175819396973e-01,2.000000000000000000e+00,3.928013992309570312e+01,6.545048236846923828e+00,3.483961868286132812e+01,-1.158844985961914062e+02,9.115128326416015625e+01,-6.724073028564453125e+01,4.383446884155273438e+01,-1.405954933166503906e+01,-1.061591491699218750e+02,-1.215388031005859375e+02,6.369708251953125000e+01,-3.920613098144531250e+01
7.241470217704772949e-01,2.000000000000000000e+00,3.930864334106445312e+01,6.497185707092285156e+00,3.483394622802734375e+01,-1.159377059936523438e+02,9.115389251708984375e+01,-6.726589965820312500e+01,4.376283645629882812e+01,-1.405062198638916016e+01,-1.061742706298828125e+02,-1.215928726196289062e+02,6.369292831420898438e+01,-3.924117660522460938e+01
7.302709817886352539e-01,2.000000000000000000e+00,3.936614227294921875e+01,6.401936531066894531e+00,3.482292556762695312e+01,-1.160455856323242188e+02,9.115911865234375000e+01,-6.731459045410156250e+01,4.361765289306640625e+01,-1.403277015686035156e+01,-1.062041320800781250e+02,-1.217009429931640625e+02,6.368505859375000000e+01,-3.930994796752929688e+01
7.328439950942993164e-01,2.000000000000000000e+00,3.939499664306640625e+01,6.354322910308837891e+00,3.481757736206054688e+01,-1.160988845825195312e+02,9.116194915771484375e+01,-6.733968353271484375e+01,4.354486846923828125e+01,-1.402375221252441406e+01,-1.062192001342773438e+02,-1.217545166015625000e+02,6.368083190917968750e+01,-3.934334945678710938e+01
7.361810207366943359e-01,2.000000000000000000e+00,3.939499664306640625e+01,6.354322910308837891e+00,3.481757736206054688e+01,-1.160988845825195312e+02,9.116194915771484375e+01,-6.733968353271484375e+01,4.354486846923828125e+01,-1.402375221252441406e+01,-1.062192001342773438e+02,-1.217545166015625000e+02,6.368083190917968750e+01,-3.934334945678710938e+01
7.401570081710815430e-01,2.000000000000000000e+00,3.942375946044921875e+01,6.306642055511474609e+00,3.481212615966796875e+01,-1.161529846191406250e+02,9.116439819335937500e+01,-6.736463928222656250e+01,4.347246932983398438e+01,-1.401455116271972656e+01,-1.062338256835937500e+02,-1.218085861206054688e+02,6.367653656005859375e+01,-3.937795257568359375e+01
7.440059781074523926e-01,2.000000000000000000e+00,3.945255279541015625e+01,6.258937835693359375e+00,3.480655670166015625e+01,-1.162065048217773438e+02,9.116712188720703125e+01,-6.739061737060546875e+01,4.340045166015625000e+01,-1.400507545471191406e+01,-1.062488327026367188e+02,-1.218620758056640625e+02,6.367194747924804688e+01,-3.941113281250000000e+01
7.482209801673889160e-01,2.000000000000000000e+00,3.948137283325195312e+01,6.211211681365966797e+00,3.480104827880859375e+01,-1.162596969604492188e+02,9.116978454589843750e+01,-6.741604614257812500e+01,4.332843780517578125e+01,-1.399592018127441406e+01,-1.062635726928710938e+02,-1.219155731201171875e+02,6.366771697998046875e+01,-3.944310379028320312e+01
7.530609965324401855e-01,2.000000000000000000e+00,3.951030731201171875e+01,6.163552761077880859e+00,3.479563903808593750e+01,-1.163137893676757812e+02,9.117250823974609375e+01,-6.744133758544921875e+01,4.325537490844726562e+01,-1.398667240142822266e+01,-1.062783126831054688e+02,-1.219697875976562500e+02,6.366327285766601562e+01,-3.947518539428710938e+01
7.549189925193786621e-01,2.000000000000000000e+00,3.953921890258789062e+01,6.115735530853271484e+00,3.479022979736328125e+01,-1.163674240112304688e+02,9.117527770996093750e+01,-6.746622467041015625e+01,4.318204498291015625e+01,-1.397733402252197266e+01,-1.062931594848632812e+02,-1.220235061645507812e+02,6.365839004516601562e+01,-3.950616455078125000e+01
7.600219845771789551e-01,2.000000000000000000e+00,3.956798171997070312e+01,6.067941188812255859e+00,3.478474044799804688e+01,-1.164214096069335938e+02,9.117804718017578125e+01,-6.749064636230468750e+01,4.310898590087890625e+01,-1.396781253814697266e+01,-1.063078994750976562e+02,-1.220769271850585938e+02,6.365365600585937500e+01,-3.953637695312500000e+01
7.629399895668029785e-01,2.000000000000000000e+00,3.959654617309570312e+01,6.020396232604980469e+00,3.477914810180664062e+01,-1.164747085571289062e+02,9.118071746826171875e+01,-6.751567077636718750e+01,4.303713607788085938e+01,-1.395824527740478516e+01,-1.063227996826171875e+02,-1.221312866210937500e+02,6.364899063110351562e+01,-3.956571197509765625e+01
7.686219811439514160e-01,2.000000000000000000e+00,3.962525177001953125e+01,5.972805500030517578e+00,3.477378082275390625e+01,-1.165279159545898438e+02,9.118359375000000000e+01,-6.754075622558593750e+01,4.296517562866210938e+01,-1.394909095764160156e+01,-1.063374328613281250e+02,-1.221851348876953125e+02,6.364483642578125000e+01,-3.959394454956054688e+01
7.723780274391174316e-01,2.000000000000000000e+00,3.965398788452148438e+01,5.925146579742431641e+00,3.476843261718750000e+01,-1.165822219848632812e+02,9.118647766113281250e+01,-6.756659698486328125e+01,4.289244461059570312e+01,-1.394002723693847656e+01,-1.063520660400390625e+02,-1.222382736206054688e+02,6.364083480834960938e+01,-3.962284088134765625e+01
7.749239802360534668e-01,2.000000000000000000e+00,3.968292617797851562e+01,5.877601146697998047e+00,3.476318740844726562e+01,-1.166359481811523438e+02,9.118924713134765625e+01,-6.759216308593750000e+01,4.281938552856445312e+01,-1.393077945709228516e+01,-1.063667526245117188e+02,-1.222917633056640625e+02,6.363674926757812500e+01,-3.965030288696289062e+01
7.789520025253295898e-01,2.000000000000000000e+00,3.971180343627929688e+01,5.830055713653564453e+00,3.475786209106445312e+01,-1.166897277832031250e+02,9.119207000732421875e+01,-6.761786651611328125e+01,4.274649047851562500e+01,-1.392130470275878906e+01,-1.063816528320312500e+02,-1.223452606201171875e+02,6.363245391845703125e+01,-3.967810058593750000e+01
7.829899787902832031e-01,2.000000000000000000e+00,3.974050903320312500e+01,5.782487869262695312e+00,3.475234985351562500e+01,-1.167437286376953125e+02,9.119495391845703125e+01,-6.764248657226562500e+01,4.267491531372070312e+01,-1.391191959381103516e+01,-1.063967132568359375e+02,-1.223990402221679688e+02,6.362793350219726562e+01,-3.970644378662109375e+01
7.869819998741149902e-01,2.000000000000000000e+00,3.976910018920898438e+01,5.734829425811767578e+00,3.474682235717773438e+01,-1.167969207763671875e+02,9.119799041748046875e+01,-6.766709899902343750e+01,4.260300827026367188e+01,-1.390290260314941406e+01,-1.064118347167968750e+02,-1.224530410766601562e+02,6.362341690063476562e+01,-3.973456954956054688e+01
7.934290170669555664e-01,2.000000000000000000e+00,3.979786682128906250e+01,5.687170505523681641e+00,3.474141311645507812e+01,-1.168507003784179688e+02,9.120092010498046875e+01,-6.769192504882812500e+01,4.253049850463867188e+01,-1.389365482330322266e+01,-1.064267959594726562e+02,-1.225063323974609375e+02,6.361904525756835938e+01,-3.976291656494140625e+01
7.949590086936950684e-01,2.000000000000000000e+00,3.982663345336914062e+01,5.639556884765625000e+00,3.473596572875976562e+01,-1.169050140380859375e+02,9.120384979248046875e+01,-6.771701812744140625e+01,4.245749282836914062e+01,-1.388463783264160156e+01,-1.064416427612304688e+02,-1.225596008300781250e+02,6.361481857299804688e+01,-3.979005432128906250e+01
7.990440130233764648e-01,2.000000000000000000e+00,3.985545349121093750e+01,5.592011451721191406e+00,3.473039245605468750e+01,-1.169583129882812500e+02,9.120678710937500000e+01,-6.774244689941406250e+01,4.238537216186523438e+01,-1.387539005279541016e+01,-1.064568634033203125e+02,-1.226130981445312500e+02,6.361037063598632812e+01,-3.981784820556640625e+01
8.029239773750305176e-01,2.000000000000000000e+00,3.988421630859375000e+01,5.544421195983886719e+00,3.472480010986328125e+01,-1.170119323730468750e+02,9.120977020263671875e+01,-6.776821899414062500e+01,4.231417846679687500e+01,-1.386605262756347656e+01,-1.064717712402343750e+02,-1.226666641235351562e+02,6.360578155517578125e+01,-3.984597015380859375e+01
8.069319725036621094e-01,2.000000000000000000e+00,3.991292572021484375e+01,5.496897697448730469e+00,3.471919250488281250e+01,-1.170655670166015625e+02,9.121281433105468750e+01,-6.779405212402343750e+01,4.224254989624023438e+01,-1.385694313049316406e+01,-1.064869995117187500e+02,-1.227207412719726562e+02,6.360170364379882812e+01,-3.987563705444335938e+01
8.109859824180603027e-01,2.000000000000000000e+00,3.994168472290039062e+01,5.449465751647949219e+00,3.471376037597656250e+01,-1.171188659667968750e+02,9.121579742431640625e+01,-6.781935119628906250e+01,4.217009353637695312e+01,-1.384806156158447266e+01,-1.065020065307617188e+02,-1.227745895385742188e+02,6.359798812866210938e+01,-3.990386962890625000e+01
8.149330019950866699e-01,2.000000000000000000e+00,3.997050857543945312e+01,5.401807308197021484e+00,3.470845794677734375e+01,-1.171731109619140625e+02,9.121878051757812500e+01,-6.784383392333984375e+01,4.209719848632812500e+01,-1.383922672271728516e+01,-1.065173492431640625e+02,-1.228276596069335938e+02,6.359427261352539062e+01,-3.993397140502929688e+01
8.207380175590515137e-01,2.000000000000000000e+00,3.999927139282226562e+01,5.353990077972412109e+00,3.470302581787109375e+01,-1.172263183593750000e+02,9.122161102294921875e+01,-6.786830902099609375e+01,4.202507400512695312e+01,-1.383025550842285156e+01,-1.065324707031250000e+02,-1.228814392089843750e+02,6.359070205688476562e+01,-3.996561431884765625e+01
8.258810043334960938e-01,2.000000000000000000e+00,4.002786636352539062e+01,5.306263446807861328e+00,3.469751739501953125e+01,-1.172800979614257812e+02,9.122480773925781250e+01,-6.789353942871093750e+01,4.195338821411132812e+01,-1.382142066955566406e+01,-1.065473098754882812e+02,-1.229359359741210938e+02,6.358720397949218750e+01,-3.999813079833984375e+01
8.289539813995361328e-01,2.000000000000000000e+00,4.005648422241210938e+01,5.258627414703369141e+00,3.469184112548828125e+01,-1.173338241577148438e+02,9.122757720947265625e+01,-6.791883850097656250e+01,4.188159179687500000e+01,-1.381263065338134766e+01,-1.065627593994140625e+02,-1.229900131225585938e+02,6.358370590209960938e+01,-4.002999496459960938e+01
8.328570127487182617e-01,2.000000000000000000e+00,4.008490371704101562e+01,5.211263179779052734e+00,3.468645858764648438e+01,-1.173869781494140625e+02,9.123050689697265625e+01,-6.794440460205078125e+01,4.180919265747070312e+01,-1.380375099182128906e+01,-1.065783157348632812e+02,-1.230437164306640625e+02,6.357977294921875000e+01,-4.006108474731445312e+01
8.370000123977661133e-01,2.000000000000000000e+00,4.011346817016601562e+01,5.163740634918212891e+00,3.468102645874023438e+01,-1.174409637451171875e+02,9.123355102539062500e+01,-6.796997070312500000e+01,4.173613357543945312e+01,-1.379487037658691406e+01,-1.065930557250976562e+02,-1.230978622436523438e+02,6.357605743408203125e+01,-4.009305191040039062e+01
8.409289717674255371e-01,2.000000000000000000e+00,4.014226150512695312e+01,5.116014003753662109e+00,3.467551803588867188e+01,-1.174949111938476562e+02,9.123632049560546875e+01,-6.799546813964843750e+01,4.166368103027343750e+01,-1.378589820861816406e+01,-1.066081237792968750e+02,-1.231511383056640625e+02,6.357248687744140625e+01,-4.012579345703125000e+01
8.436329960823059082e-01,2.000000000000000000e+00,4.017111206054687500e+01,5.068513393402099609e+00,3.466998672485351562e+01,-1.175482635498046875e+02,9.123930358886718750e+01,-6.802001953125000000e+01,4.159231948852539062e+01,-1.377692508697509766e+01,-1.066232452392578125e+02,-1.232048492431640625e+02,6.356892013549804688e+01,-4.015798568725585938e+01
8.499249815940856934e-01,2.000000000000000000e+00,4.019967651367187500e+01,5.020809650421142578e+00,3.466449737548828125e+01,-1.176025161743164062e+02,9.124218750000000000e+01,-6.804422760009765625e+01,4.152063751220703125e+01,-1.376767921447753906e+01,-1.066383056640625000e+02,-1.232588500976562500e+02,6.356505203247070312e+01,-4.019116210937500000e+01
8.530989885330200195e-01,2.000000000000000000e+00,4.022826766967773438e+01,4.973196506500244141e+00,3.465914916992187500e+01,-1.176558303833007812e+02,9.124501800537109375e+01,-6.806898498535156250e+01,4.144763565063476562e+01,-1.375875282287597656e+01,-1.066533126831054688e+02,-1.233119888305664062e+02,6.356111907958984375e+01,-4.022444915771484375e+01
8.550099730491638184e-01,2.000000000000000000e+00,4.025683212280273438e+01,4.925673961639404297e+00,3.465390396118164062e+01,-1.177091903686523438e+02,9.124773406982421875e+01,-6.809387207031250000e+01,4.137418746948242188e+01,-1.374978065490722656e+01,-1.066683273315429688e+02,-1.233655548095703125e+02,6.355689239501953125e+01,-4.025752258300781250e+01
8.589310050010681152e-01,2.000000000000000000e+00,4.028542327880859375e+01,4.878195762634277344e+00,3.464851760864257812e+01,-1.177633361816406250e+02,9.125066375732421875e+01,-6.811930084228515625e+01,4.130140304565429688e+01,-1.374112796783447266e+01,-1.066831741333007812e+02,-1.234196243286132812e+02,6.355252075195312500e+01,-4.028828048706054688e+01
8.629149794578552246e-01,2.000000000000000000e+00,4.031435775756835938e+01,4.830627918243408203e+00,3.464302825927734375e+01,-1.178172149658203125e+02,9.125338745117187500e+01,-6.814514160156250000e+01,4.122999191284179688e+01,-1.373224830627441406e+01,-1.066982955932617188e+02,-1.234731140136718750e+02,6.354778671264648438e+01,-4.032025146484375000e+01
8.693130016326904297e-01,2.000000000000000000e+00,4.034318161010742188e+01,4.783104896545410156e+00,3.463751983642578125e+01,-1.178709411621093750e+02,9.125615692138671875e+01,-6.817078399658203125e+01,4.115814208984375000e+01,-1.372323036193847656e+01,-1.067132492065429688e+02,-1.235271987915039062e+02,6.354363250732421875e+01,-4.035167312622070312e+01
8.709610104560852051e-01,2.000000000000000000e+00,4.037174224853515625e+01,4.735378742218017578e+00,3.463211059570312500e+01,-1.179242019653320312e+02,9.125881958007812500e+01,-6.819539642333984375e+01,4.108514022827148438e+01,-1.371393775939941406e+01,-1.067281570434570312e+02,-1.235807571411132812e+02,6.353948211669921875e+01,-4.038067626953125000e+01
8.750429749488830566e-01,2.000000000000000000e+00,4.040053939819335938e+01,4.687923908233642578e+00,3.462670135498046875e+01,-1.179773406982421875e+02,9.126170349121093750e+01,-6.821974182128906250e+01,4.101197052001953125e+01,-1.370468997955322266e+01,-1.067430572509765625e+02,-1.236337509155273438e+02,6.353467178344726562e+01,-4.041000747680664062e+01
8.820340037345886230e-01,2.000000000000000000e+00,4.042918777465820312e+01,4.640242099761962891e+00,3.462117004394531250e+01,-1.180313415527343750e+02,9.126436614990234375e+01,-6.824449157714843750e+01,4.093957138061523438e+01,-1.369553565979003906e+01,-1.067581176757812500e+02,-1.236874618530273438e+02,6.352957153320312500e+01,-4.043923568725585938e+01
8.834459781646728516e-01,2.000000000000000000e+00,4.045792388916015625e+01,4.592515945434570312e+00,3.461558151245117188e+01,-1.180852127075195312e+02,9.126719665527343750e+01,-6.826951599121093750e+01,4.086837768554687500e+01,-1.368647193908691406e+01,-1.067728042602539062e+02,-1.237408142089843750e+02,6.352454376220703125e+01,-4.046867752075195312e+01
8.893139958381652832e-01,2.000000000000000000e+00,4.048688507080078125e+01,4.545038223266601562e+00,3.460997009277343750e+01,-1.181387939453125000e+02,9.126969909667968750e+01,-6.829440307617187500e+01,4.079630661010742188e+01,-1.367704200744628906e+01,-1.067877655029296875e+02,-1.237939529418945312e+02,6.352031707763671875e+01,-4.049888992309570312e+01
8.909959793090820312e-01,2.000000000000000000e+00,4.051556777954101562e+01,4.497628688812255859e+00,3.460447692871093750e+01,-1.181922073364257812e+02,9.127252197265625000e+01,-6.832010650634765625e+01,4.072357940673828125e+01,-1.366774940490722656e+01,-1.068025588989257812e+02,-1.238469467163085938e+02,6.351602172851562500e+01,-4.052679443359375000e+01
8.980039954185485840e-01,2.000000000000000000e+00,4.051556777954101562e+01,4.497628688812255859e+00,3.460447692871093750e+01,-1.181922073364257812e+02,9.127252197265625000e+01,-6.832010650634765625e+01,4.065068435668945312e+01,-1.365863895416259766e+01,-1.068175125122070312e+02,-1.239005737304687500e+02,6.351106262207031250e+01,-4.055491638183593750e+01
9.000189900398254395e-01,2.000000000000000000e+00,4.057271957397460938e+01,4.402447223663330078e+00,3.459394454956054688e+01,-1.182994003295898438e+02,9.127785491943359375e+01,-6.837062835693359375e+01,4.057878112792968750e+01,-1.364934730529785156e+01,-1.068323059082031250e+02,-1.239536437988281250e+02,6.350581741333007812e+01,-4.058370208740234375e+01
9.029930233955383301e-01,2.000000000000000000e+00,4.060134124755859375e+01,4.354947090148925781e+00,3.458847808837890625e+01,-1.183533248901367188e+02,9.128051757812500000e+01,-6.839484405517578125e+01,4.050780868530273438e+01,-1.364014530181884766e+01,-1.068472595214843750e+02,-1.240074920654296875e+02,6.350188064575195312e+01,-4.061116790771484375e+01
9.100850224494934082e-01,2.000000000000000000e+00,4.060134124755859375e+01,4.354947090148925781e+00,3.458847808837890625e+01,-1.183533248901367188e+02,9.128051757812500000e+01,-6.839484405517578125e+01,4.050780868530273438e+01,-1.364014530181884766e+01,-1.068472595214843750e+02,-1.240074920654296875e+02,6.350188064575195312e+01,-4.061116790771484375e+01
9.114840030670166016e-01,2.000000000000000000e+00,4.065909957885742188e+01,4.260150432586669922e+00,3.457743835449218750e+01,-1.184607925415039062e+02,9.128579711914062500e+01,-6.844414520263671875e+01,4.036322784423828125e+01,-1.362178993225097656e+01,-1.068772277832031250e+02,-1.241146316528320312e+02,6.349416351318359375e+01,-4.066709136962890625e+01
9.150130152702331543e-01,2.000000000000000000e+00,4.068772125244140625e+01,4.212423801422119141e+00,3.457202911376953125e+01,-1.185140457153320312e+02,9.128852081298828125e+01,-6.846910095214843750e+01,4.029039001464843750e+01,-1.361254215240478516e+01,-1.068919143676757812e+02,-1.241684951782226562e+02,6.349007797241210938e+01,-4.069598388671875000e+01
9.215540289878845215e-01,2.000000000000000000e+00,4.068772125244140625e+01,4.212423801422119141e+00,3.457202911376953125e+01,-1.185140457153320312e+02,9.128852081298828125e+01,-6.846910095214843750e+01,4.029039001464843750e+01,-1.361254215240478516e+01,-1.068919143676757812e+02,-1.241684951782226562e+02,6.349007797241210938e+01,-4.069598388671875000e+01
9.239130020141601562e-01,2.000000000000000000e+00,4.074487686157226562e+01,4.117445945739746094e+00,3.456100845336914062e+01,-1.186217117309570312e+02,9.129374694824218750e+01,-6.852017211914062500e+01,4.014712524414062500e+01,-1.359450721740722656e+01,-1.069217224121093750e+02,-1.242759094238281250e+02,6.348257064819335938e+01,-4.075564193725585938e+01
9.269509911537170410e-01,2.000000000000000000e+00,4.077369689941406250e+01,4.069855213165283203e+00,3.455556106567382812e+01,-1.186749038696289062e+02,9.129662322998046875e+01,-6.854573822021484375e+01,4.007549667358398438e+01,-1.358535099029541016e+01,-1.069367294311523438e+02,-1.243293304443359375e+02,6.347937011718750000e+01,-4.078628921508789062e+01
9.319829940795898438e-01,2.000000000000000000e+00,4.077369689941406250e+01,4.069855213165283203e+00,3.455556106567382812e+01,-1.186749038696289062e+02,9.129662322998046875e+01,-6.854573822021484375e+01,4.007549667358398438e+01,-1.358535099029541016e+01,-1.069367294311523438e+02,-1.243293304443359375e+02,6.347937011718750000e+01,-4.078628921508789062e+01
9.349210262298583984e-01,2.000000000000000000e+00,4.083102416992187500e+01,3.974945545196533203e+00,3.454486846923828125e+01,-1.187821578979492188e+02,9.130179595947265625e+01,-6.859463500976562500e+01,3.993025588989257812e+01,-1.356694889068603516e+01,-1.069665374755859375e+02,-1.244368286132812500e+02,6.347215652465820312e+01,-4.084737777709960938e+01
9.400510191917419434e-01,2.000000000000000000e+00,4.083102416992187500e+01,3.974945545196533203e+00,3.454486846923828125e+01,-1.187821578979492188e+02,9.130179595947265625e+01,-6.859463500976562500e+01,3.993025588989257812e+01,-1.356694889068603516e+01,-1.069665374755859375e+02,-1.244368286132812500e+02,6.347215652465820312e+01,-4.084737777709960938e+01
9.441589713096618652e-01,2.000000000000000000e+00,4.088812255859375000e+01,3.879447221755981445e+00,3.453421020507812500e+01,-1.188894042968750000e+02,9.130723571777343750e+01,-6.864447784423828125e+01,3.978655624389648438e+01,-1.354882144927978516e+01,-1.069968795776367188e+02,-1.245444717407226562e+02,6.346369934082031250e+01,-4.091142654418945312e+01
9.470139741897583008e-01,2.000000000000000000e+00,4.091677093505859375e+01,3.831856489181518555e+00,3.452862167358398438e+01,-1.189425430297851562e+02,9.131000518798828125e+01,-6.866990661621093750e+01,3.971487045288085938e+01,-1.353994178771972656e+01,-1.070116729736328125e+02,-1.245982513427734375e+02,6.345984268188476562e+01,-4.094493484497070312e+01
9.509919881820678711e-01,2.000000000000000000e+00,4.091677093505859375e+01,3.831856489181518555e+00,3.452862167358398438e+01,-1.189425430297851562e+02,9.131000518798828125e+01,-6.866990661621093750e+01,3.971487045288085938e+01,-1.353994178771972656e+01,-1.070116729736328125e+02,-1.245982513427734375e+02,6.345984268188476562e+01,-4.094493484497070312e+01
9.559710025787353516e-01,2.000000000000000000e+00,4.094527816772460938e+01,3.784265995025634766e+00,3.452321243286132812e+01,-1.189958953857421875e+02,9.131256866455078125e+01,-6.869574737548828125e+01,3.964202880859375000e+01,-1.353101444244384766e+01,-1.070266342163085938e+02,-1.246522521972656250e+02,6.345605087280273438e+01,-4.097789382934570312e+01
9.589220285415649414e-01,2.000000000000000000e+00,4.100237274169921875e+01,3.689400911331176758e+00,3.451237487792968750e+01,-1.191030349731445312e+02,9.131806182861328125e+01,-6.874620056152343750e+01,3.949657058715820312e+01,-1.351293373107910156e+01,-1.070567626953125000e+02,-1.247586669921875000e+02,6.344781875610351562e+01,-4.104359054565429688e+01
9.639689922332763672e-01,2.000000000000000000e+00,4.100237274169921875e+01,3.689400911331176758e+00,3.451237487792968750e+01,-1.191030349731445312e+02,9.131806182861328125e+01,-6.874620056152343750e+01,3.949657058715820312e+01,-1.351293373107910156e+01,-1.070567626953125000e+02,-1.247586669921875000e+02,6.344781875610351562e+01,-4.104359054565429688e+01
9.669299721717834473e-01,2.000000000000000000e+00,4.105932998657226562e+01,3.594468593597412109e+00,3.450121307373046875e+01,-1.192102279663085938e+02,9.132365417480468750e+01,-6.879509735107421875e+01,3.935308837890625000e+01,-1.349494361877441406e+01,-1.070864562988281250e+02,-1.248663787841796875e+02,6.343965911865234375e+01,-4.110720443725585938e+01
9.709200263023376465e-01,2.000000000000000000e+00,4.108797836303710938e+01,3.546832561492919922e+00,3.449570465087890625e+01,-1.192634887695312500e+02,9.132664489746093750e+01,-6.882039642333984375e+01,3.928052520751953125e+01,-1.348606300354003906e+01,-1.071014175415039062e+02,-1.249201583862304688e+02,6.343572235107421875e+01,-4.113741302490234375e+01
9.760169982910156250e-01,2.000000000000000000e+00,4.108797836303710938e+01,3.546832561492919922e+00,3.449570465087890625e+01,-1.192634887695312500e+02,9.132664489746093750e+01,-6.882039642333984375e+01,3.928052520751953125e+01,-1.348606300354003906e+01,-1.071014175415039062e+02,-1.249201583862304688e+02,6.343572235107421875e+01,-4.113741302490234375e+01
9.795659780502319336e-01,2.000000000000000000e+00,4.114524841308593750e+01,3.451922893524169922e+00,3.448505020141601562e+01,-1.193715209960937500e+02,9.133208465576171875e+01,-6.887145996093750000e+01,3.913517379760742188e+01,-1.346752262115478516e+01,-1.071313247680664062e+02,-1.250270767211914062e+02,6.342683792114257812e+01,-4.120135498046875000e+01
9.861339926719665527e-01,2.000000000000000000e+00,4.114524841308593750e+01,3.451922893524169922e+00,3.448505020141601562e+01,-1.193715209960937500e+02,9.133208465576171875e+01,-6.887145996093750000e+01,3.913517379760742188e+01,-1.346752262115478516e+01,-1.071313247680664062e+02,-1.250270767211914062e+02,6.342683792114257812e+01,-4.120135498046875000e+01
9.875440001487731934e-01,2.000000000000000000e+00,4.120228958129882812e+01,3.356922388076782227e+00,3.447404861450195312e+01,-1.194781951904296875e+02,9.133794403076171875e+01,-6.892245483398437500e+01,3.899191284179687500e+01,-1.344939613342285156e+01,-1.071612396240234375e+02,-1.251353607177734375e+02,6.341802215576171875e+01,-4.126155853271484375e+01
9.909489750862121582e-01,2.000000000000000000e+00,4.120228958129882812e+01,3.356922388076782227e+00,3.447404861450195312e+01,-1.194781951904296875e+02,9.133794403076171875e+01,-6.892245483398437500e+01,3.899191284179687500e+01,-1.344939613342285156e+01,-1.071612396240234375e+02,-1.251353607177734375e+02,6.341802215576171875e+01,-4.126155853271484375e+01
9.959779977798461914e-01,2.000000000000000000e+00,4.123122787475585938e+01,3.309580564498901367e+00,3.446847915649414062e+01,-1.195317001342773438e+02,9.134082794189453125e+01,-6.894728088378906250e+01,3.891929244995117188e+01,-1.344060707092285156e+01,-1.071762542724609375e+02,-1.251879196166992188e+02,6.341357421875000000e+01,-4.129133224487304688e+01
9.989389777183532715e-01,2.000000000000000000e+00,4.128844070434570312e+01,3.214670658111572266e+00,3.445778656005859375e+01,-1.196387405395507812e+02,9.134669494628906250e+01,-6.899644470214843750e+01,3.877471542358398438e+01,-1.342243385314941406e+01,-1.072061080932617188e+02,-1.252943420410156250e+02,6.340504837036132812e+01,-4.134692382812500000e+01
1.004047989845275879e+00,2.000000000000000000e+00,4.128844070434570312e+01,3.214670658111572266e+00,3.445778656005859375e+01,-1.196387405395507812e+02,9.134669494628906250e+01,-6.899644470214843750e+01,3.877471542358398438e+01,-1.342243385314941406e+01,-1.072061080932617188e+02,-1.252943420410156250e+02,6.340504837036132812e+01,-4.134692382812500000e+01
1.007105946540832520e+00,2.000000000000000000e+00,4.134565353393554688e+01,3.119353294372558594e+00,3.444680786132812500e+01,-1.197454605102539062e+02,9.135266113281250000e+01,-6.904757690429687500e+01,3.863183593750000000e+01,-1.340430641174316406e+01,-1.072361373901367188e+02,-1.254019088745117188e+02,6.339666748046875000e+01,-4.140185546875000000e+01
1.010998010635375977e+00,2.000000000000000000e+00,4.134565353393554688e+01,3.119353294372558594e+00,3.444680786132812500e+01,-1.197454605102539062e+02,9.135266113281250000e+01,-6.904757690429687500e+01,3.863183593750000000e+01,-1.340430641174316406e+01,-1.072361373901367188e+02,-1.254019088745117188e+02,6.339666748046875000e+01,-4.140185546875000000e+01
1.016008019447326660e+00,2.000000000000000000e+00,4.137430191040039062e+01,3.072011709213256836e+00,3.444145965576171875e+01,-1.197990722656250000e+02,9.135575866699218750e+01,-6.907334899902343750e+01,3.855910491943359375e+01,-1.339519596099853516e+01,-1.072509841918945312e+02,-1.254553298950195312e+02,6.339281082153320312e+01,-4.142987060546875000e+01
1.020879030227661133e+00,2.000000000000000000e+00,4.143185806274414062e+01,2.977146863937377930e+00,3.443109130859375000e+01,-1.199062652587890625e+02,9.136155700683593750e+01,-6.912346649169921875e+01,3.841463851928710938e+01,-1.337688636779785156e+01,-1.072808914184570312e+02,-1.255628967285156250e+02,6.338435363769531250e+01,-4.148633956909179688e+01
1.023540019989013672e+00,2.000000000000000000e+00,4.146030807495117188e+01,2.929737329483032227e+00,3.442576217651367188e+01,-1.199592590332031250e+02,9.136465454101562500e+01,-6.914775085449218750e+01,3.834300613403320312e+01,-1.336750125885009766e+01,-1.072958526611328125e+02,-1.256163177490234375e+02,6.338035202026367188e+01,-4.151534652709960938e+01
1.027328968048095703e+00,2.000000000000000000e+00,4.146030807495117188e+01,2.929737329483032227e+00,3.442576217651367188e+01,-1.199592590332031250e+02,9.136465454101562500e+01,-6.914775085449218750e+01,3.834300613403320312e+01,-1.336750125885009766e+01,-1.072958526611328125e+02,-1.256163177490234375e+02,6.338035202026367188e+01,-4.151534652709960938e+01
1.031108975410461426e+00,2.000000000000000000e+00,4.148892593383789062e+01,2.882282495498657227e+00,3.442033386230468750e+01,-1.200129241943359375e+02,9.136763763427734375e+01,-6.917276763916015625e+01,3.827126312255859375e+01,-1.335825538635253906e+01,-1.073108139038085938e+02,-1.256691741943359375e+02,6.337648773193359375e+01,-4.154423904418945312e+01
1.035681009292602539e+00,2.000000000000000000e+00,4.154628372192382812e+01,2.787621259689331055e+00,3.440931701660156250e+01,-1.201199188232421875e+02,9.137361907958984375e+01,-6.922315979003906250e+01,3.812608337402343750e+01,-1.334035682678222656e+01,-1.073407745361328125e+02,-1.257766647338867188e+02,6.336774444580078125e+01,-4.159939193725585938e+01
1.039963960647583008e+00,2.000000000000000000e+00,4.154628372192382812e+01,2.787621259689331055e+00,3.440931701660156250e+01,-1.201199188232421875e+02,9.137361907958984375e+01,-6.922315979003906250e+01,3.812608337402343750e+01,-1.334035682678222656e+01,-1.073407745361328125e+02,-1.257766647338867188e+02,6.336774444580078125e+01,-4.159939193725585938e+01
1.045146942138671875e+00,2.000000000000000000e+00,4.157504653930664062e+01,2.740098714828491211e+00,3.440396881103515625e+01,-1.201739578247070312e+02,9.137660217285156250e+01,-6.924865722656250000e+01,3.805417251586914062e+01,-1.333124732971191406e+01,-1.073555145263671875e+02,-1.258296508789062500e+02,6.336351394653320312e+01,-4.162762451171875000e+01
1.047914028167724609e+00,2.000000000000000000e+00,4.163220214843750000e+01,2.645324468612670898e+00,3.439282226562500000e+01,-1.202806320190429688e+02,9.138246154785156250e+01,-6.929952239990234375e+01,3.791113281250000000e+01,-1.331298255920410156e+01,-1.073852691650390625e+02,-1.259376525878906250e+02,6.335484695434570312e+01,-4.169046783447265625e+01
1.051969051361083984e+00,2.000000000000000000e+00,4.163220214843750000e+01,2.645324468612670898e+00,3.439282226562500000e+01,-1.202806320190429688e+02,9.138246154785156250e+01,-6.929952239990234375e+01,3.791113281250000000e+01,-1.331298255920410156e+01,-1.073852691650390625e+02,-1.259376525878906250e+02,6.335484695434570312e+01,-4.169046783447265625e+01
1.055964946746826172e+00,2.000000000000000000e+00,4.166068267822265625e+01,2.597846984863281250e+00,3.438727569580078125e+01,-1.203347244262695312e+02,9.138529205322265625e+01,-6.932373046875000000e+01,3.783834838867187500e+01,-1.330405616760253906e+01,-1.074004974365234375e+02,-1.259908599853515625e+02,6.335040283203125000e+01,-4.172298812866210938e+01
1.059015989303588867e+00,2.000000000000000000e+00,4.168941497802734375e+01,2.550369501113891602e+00,3.438184356689453125e+01,-1.203882293701171875e+02,9.138811492919921875e+01,-6.934787750244140625e+01,3.776534652709960938e+01,-1.329526615142822266e+01,-1.074152832031250000e+02,-1.260447769165039062e+02,6.334559249877929688e+01,-4.175517654418945312e+01
1.063035011291503906e+00,2.000000000000000000e+00,4.171800613403320312e+01,2.503004789352416992e+00,3.437659835815429688e+01,-1.204415893554687500e+02,9.139104461669921875e+01,-6.937323760986328125e+01,3.769305419921875000e+01,-1.328629493713378906e+01,-1.074302444458007812e+02,-1.260979995727539062e+02,6.334187698364257812e+01,-4.178857421875000000e+01
1.067013978958129883e+00,2.000000000000000000e+00,4.174665451049804688e+01,2.455595254898071289e+00,3.437123489379882812e+01,-1.204952239990234375e+02,9.139402770996093750e+01,-6.939826202392578125e+01,3.762175369262695312e+01,-1.327709388732910156e+01,-1.074451446533203125e+02,-1.261514129638671875e+02,6.333830642700195312e+01,-4.182164382934570312e+01
1.071969985961914062e+00,2.000000000000000000e+00,4.177519226074218750e+01,2.407981872558593750e+00,3.436574172973632812e+01,-1.205480422973632812e+02,9.139675140380859375e+01,-6.942389678955078125e+01,3.755012130737304688e+01,-1.326775550842285156e+01,-1.074604873657226562e+02,-1.262051925659179688e+02,6.333473968505859375e+01,-4.185339355468750000e+01
1.075970053672790527e+00,2.000000000000000000e+00,4.180355453491210938e+01,2.360368490219116211e+00,3.436017227172851562e+01,-1.206020889282226562e+02,9.139936828613281250e+01,-6.944972991943359375e+01,3.747745132446289062e+01,-1.325878334045410156e+01,-1.074753875732421875e+02,-1.262585449218750000e+02,6.333094787597656250e+01,-4.188426589965820312e+01
1.079975008964538574e+00,2.000000000000000000e+00,4.183217239379882812e+01,2.312710046768188477e+00,3.435472106933593750e+01,-1.206556091308593750e+02,9.140213775634765625e+01,-6.947489929199218750e+01,3.740427780151367188e+01,-1.324990177154541016e+01,-1.074902343750000000e+02,-1.263123321533203125e+02,6.332715988159179688e+01,-4.191601562500000000e+01
1.082965016365051270e+00,2.000000000000000000e+00,4.186082458496093750e+01,2.265367984771728516e+00,3.434931564331054688e+01,-1.207085037231445312e+02,9.140496063232421875e+01,-6.949903869628906250e+01,3.733226394653320312e+01,-1.324111366271972656e+01,-1.075049743652343750e+02,-1.263663940429687500e+02,6.332308197021484375e+01,-4.194677734375000000e+01
1.087048053741455078e+00,2.000000000000000000e+00,4.188935852050781250e+01,2.218048810958862305e+00,3.434394836425781250e+01,-1.207622833251953125e+02,9.140763092041015625e+01,-6.952317810058593750e+01,3.726123809814453125e+01,-1.323214054107666016e+01,-1.075198211669921875e+02,-1.264204788208007812e+02,6.331929016113281250e+01,-4.197918701171875000e+01
1.091016054153442383e+00,2.000000000000000000e+00,4.191792297363281250e+01,2.170526027679443359e+00,3.433839797973632812e+01,-1.208157882690429688e+02,9.141029357910156250e+01,-6.954833984375000000e+01,3.718944168090820312e+01,-1.322321510314941406e+01,-1.075349426269531250e+02,-1.264737548828125000e+02,6.331565093994140625e+01,-4.201291275024414062e+01
1.096431016921997070e+00,2.000000000000000000e+00,4.194639968872070312e+01,2.123252153396606445e+00,3.433282470703125000e+01,-1.208691482543945312e+02,9.141295623779296875e+01,-6.957302856445312500e+01,3.711671447753906250e+01,-1.321410465240478516e+01,-1.075499038696289062e+02,-1.265276031494140625e+02,6.331222152709960938e+01,-4.204532241821289062e+01
1.100998044013977051e+00,2.000000000000000000e+00,4.197473526000976562e+01,2.075638771057128906e+00,3.432748031616210938e+01,-1.209232940673828125e+02,9.141573333740234375e+01,-6.959845733642578125e+01,3.704392623901367188e+01,-1.320517921447753906e+01,-1.075647964477539062e+02,-1.265805206298828125e+02,6.330784988403320312e+01,-4.207652664184570312e+01
1.103713035583496094e+00,2.000000000000000000e+00,4.203208923339843750e+01,1.980729103088378906e+00,3.431698989868164062e+01,-1.210300674438476562e+02,9.142116546630859375e+01,-6.964993286132812500e+01,3.690132522583007812e+01,-1.318728065490722656e+01,-1.075944442749023438e+02,-1.266878128051757812e+02,6.329932403564453125e+01,-4.213881683349609375e+01
1.108036994934082031e+00,2.000000000000000000e+00,4.203208923339843750e+01,1.980729103088378906e+00,3.431698989868164062e+01,-1.210300674438476562e+02,9.142116546630859375e+01,-6.964993286132812500e+01,3.690132522583007812e+01,-1.318728065490722656e+01,-1.075944442749023438e+02,-1.266878128051757812e+02,6.329932403564453125e+01,-4.213881683349609375e+01
1.111156940460205078e+00,2.000000000000000000e+00,4.206059646606445312e+01,1.933273911476135254e+00,3.431157684326171875e+01,-1.210840682983398438e+02,9.142372894287109375e+01,-6.967468261718750000e+01,3.682969665527343750e+01,-1.317812538146972656e+01,-1.076091842651367188e+02,-1.267411575317382812e+02,6.329590225219726562e+01,-4.216936111450195312e+01
1.116919040679931641e+00,2.000000000000000000e+00,4.211769104003906250e+01,1.838545203208923340e+00,3.430057907104492188e+01,-1.211905212402343750e+02,9.142900848388671875e+01,-6.972338104248046875e+01,3.668445587158203125e+01,-1.315953922271728516e+01,-1.076388244628906250e+02,-1.268484268188476562e+02,6.328730392456054688e+01,-4.222726058959960938e+01
