rpiRobotics/ARM-21-02-F-19-Robot-Motion-Program/data_performance_abb/curve_2/dual_arm/diffevo_pose6_3/30L/grad_result/real/run_1.csv
timestamp,cmd_num,J1,J2,J3,J4,J5,J6,J1_2,J2_2,J3_2,J4_2,J5_2,J6_2
2.479999966453760862e-04,-1.000000000000000000e+00,3.547671508789062500e+01,1.285847949981689453e+01,3.555867004394531250e+01,-1.087570190429687500e+02,9.078111267089843750e+01,-6.390516281127929688e+01,5.343432235717773438e+01,-1.526745033264160156e+01,-1.041692657470703125e+02,-1.144057388305664062e+02,6.424034118652343750e+01,-3.517381668090820312e+01
1.708999974653124809e-03,-1.000000000000000000e+00,3.547680282592773438e+01,1.285841083526611328e+01,3.555867004394531250e+01,-1.087569122314453125e+02,9.078089904785156250e+01,-6.390503311157226562e+01,5.343432235717773438e+01,-1.526745033264160156e+01,-1.041692657470703125e+02,-1.144057388305664062e+02,6.424034118652343750e+01,-3.517359542846679688e+01
4.302000161260366440e-03,-1.000000000000000000e+00,3.547680282592773438e+01,1.285841083526611328e+01,3.555867004394531250e+01,-1.087570190429687500e+02,9.078099822998046875e+01,-6.390516281127929688e+01,5.343432235717773438e+01,-1.526745033264160156e+01,-1.041692657470703125e+02,-1.144057388305664062e+02,6.424048614501953125e+01,-3.517359542846679688e+01
7.244000211358070374e-03,-1.000000000000000000e+00,3.547680282592773438e+01,1.285841083526611328e+01,3.555867004394531250e+01,-1.087570190429687500e+02,9.078099822998046875e+01,-6.390516281127929688e+01,5.343432235717773438e+01,-1.526745033264160156e+01,-1.041692657470703125e+02,-1.144057388305664062e+02,6.424048614501953125e+01,-3.517359542846679688e+01
1.138900034129619598e-02,-1.000000000000000000e+00,3.547674560546875000e+01,1.285847949981689453e+01,3.555867004394531250e+01,-1.087569122314453125e+02,9.078099822998046875e+01,-6.390516281127929688e+01,5.343432235717773438e+01,-1.526735782623291016e+01,-1.041692657470703125e+02,-1.144057388305664062e+02,6.424034118652343750e+01,-3.517359542846679688e+01
1.560099981725215912e-02,-1.000000000000000000e+00,3.547665786743164062e+01,1.285847949981689453e+01,3.555867004394531250e+01,-1.087570190429687500e+02,9.078111267089843750e+01,-6.390516281127929688e+01,5.343432235717773438e+01,-1.526745033264160156e+01,-1.041692657470703125e+02,-1.144058837890625000e+02,6.424034118652343750e+01,-3.517359542846679688e+01
2.019999921321868896e-02,-1.000000000000000000e+00,3.547680282592773438e+01,1.285841083526611328e+01,3.555867004394531250e+01,-1.087569122314453125e+02,9.078099822998046875e+01,-6.390516281127929688e+01,5.343432235717773438e+01,-1.526745033264160156e+01,-1.041692657470703125e+02,-1.144057388305664062e+02,6.424034118652343750e+01,-3.517359542846679688e+01
2.399099990725517273e-02,-1.000000000000000000e+00,3.547680282592773438e+01,1.285841083526611328e+01,3.555867004394531250e+01,-1.087569122314453125e+02,9.078089904785156250e+01,-6.390516281127929688e+01,5.343432235717773438e+01,-1.526745033264160156e+01,-1.041692657470703125e+02,-1.144058837890625000e+02,6.424048614501953125e+01,-3.517381668090820312e+01
2.912699989974498749e-02,-1.000000000000000000e+00,3.547674560546875000e+01,1.285847949981689453e+01,3.555867004394531250e+01,-1.087569122314453125e+02,9.078099822998046875e+01,-6.390503311157226562e+01,5.343432235717773438e+01,-1.526745033264160156e+01,-1.041692657470703125e+02,-1.144058837890625000e+02,6.424034118652343750e+01,-3.517381668090820312e+01
3.760199993848800659e-02,2.000000000000000000e+00,3.547674560546875000e+01,1.285841083526611328e+01,3.555867004394531250e+01,-1.087568664550781250e+02,9.078099822998046875e+01,-6.390503311157226562e+01,5.343432235717773438e+01,-1.526754093170166016e+01,-1.041692657470703125e+02,-1.144057388305664062e+02,6.424034118652343750e+01,-3.517348861694335938e+01
4.426800087094306946e-02,2.000000000000000000e+00,3.547680282592773438e+01,1.285841083526611328e+01,3.555867004394531250e+01,-1.087569122314453125e+02,9.078099822998046875e+01,-6.390503311157226562e+01,5.343432235717773438e+01,-1.526745033264160156e+01,-1.041692657470703125e+02,-1.144057388305664062e+02,6.424048614501953125e+01,-3.517359542846679688e+01
4.908299818634986877e-02,2.000000000000000000e+00,3.547674560546875000e+01,1.285841083526611328e+01,3.555867004394531250e+01,-1.087569122314453125e+02,9.078099822998046875e+01,-6.390503311157226562e+01,5.343432235717773438e+01,-1.526745033264160156e+01,-1.041692657470703125e+02,-1.144058837890625000e+02,6.424048614501953125e+01,-3.517359542846679688e+01
5.437000095844268799e-02,2.000000000000000000e+00,3.547674560546875000e+01,1.285847949981689453e+01,3.555867004394531250e+01,-1.087569122314453125e+02,9.078099822998046875e+01,-6.390503311157226562e+01,5.343432235717773438e+01,-1.526735782623291016e+01,-1.041692657470703125e+02,-1.144058837890625000e+02,6.424048614501953125e+01,-3.517359542846679688e+01
9.261699765920639038e-02,2.000000000000000000e+00,3.547674560546875000e+01,1.285841083526611328e+01,3.555867004394531250e+01,-1.087570190429687500e+02,9.078099822998046875e+01,-6.390503311157226562e+01,5.343432235717773438e+01,-1.526745033264160156e+01,-1.041692657470703125e+02,-1.144058837890625000e+02,6.424034118652343750e+01,-3.517359542846679688e+01
1.015850007534027100e-01,2.000000000000000000e+00,3.547686004638671875e+01,1.285841083526611328e+01,3.555867004394531250e+01,-1.087569122314453125e+02,9.078099822998046875e+01,-6.390516281127929688e+01,5.343432235717773438e+01,-1.526745033264160156e+01,-1.041692657470703125e+02,-1.144055938720703125e+02,6.424048614501953125e+01,-3.517381668090820312e+01
1.039550006389617920e-01,2.000000000000000000e+00,3.547686004638671875e+01,1.285841083526611328e+01,3.555867004394531250e+01,-1.087569122314453125e+02,9.078099822998046875e+01,-6.390516281127929688e+01,5.343432235717773438e+01,-1.526745033264160156e+01,-1.041692657470703125e+02,-1.144055938720703125e+02,6.424048614501953125e+01,-3.517381668090820312e+01
1.053489968180656433e-01,2.000000000000000000e+00,3.547686004638671875e+01,1.285836601257324219e+01,3.555867004394531250e+01,-1.087569122314453125e+02,9.078099822998046875e+01,-6.390516281127929688e+01,5.343432235717773438e+01,-1.526745033264160156e+01,-1.041692657470703125e+02,-1.144057388305664062e+02,6.424034118652343750e+01,-3.517359542846679688e+01
1.066019982099533081e-01,2.000000000000000000e+00,3.547686004638671875e+01,1.285836601257324219e+01,3.555867004394531250e+01,-1.087569122314453125e+02,9.078099822998046875e+01,-6.390516281127929688e+01,5.343432235717773438e+01,-1.526745033264160156e+01,-1.041692657470703125e+02,-1.144057388305664062e+02,6.424034118652343750e+01,-3.517359542846679688e+01
1.123299971222877502e-01,2.000000000000000000e+00,3.547792053222656250e+01,1.285727977752685547e+01,3.555870819091796875e+01,-1.087570190429687500e+02,9.078111267089843750e+01,-6.390503311157226562e+01,5.343415451049804688e+01,-1.526745033264160156e+01,-1.041692657470703125e+02,-1.144057388305664062e+02,6.424034118652343750e+01,-3.517381668090820312e+01
1.136519983410835266e-01,2.000000000000000000e+00,3.547792053222656250e+01,1.285727977752685547e+01,3.555870819091796875e+01,-1.087570190429687500e+02,9.078111267089843750e+01,-6.390503311157226562e+01,5.343415451049804688e+01,-1.526745033264160156e+01,-1.041692657470703125e+02,-1.144057388305664062e+02,6.424034118652343750e+01,-3.517381668090820312e+01
1.173039972782135010e-01,2.000000000000000000e+00,3.547918701171875000e+01,1.285578536987304688e+01,3.555867004394531250e+01,-1.087568664550781250e+02,9.078099822998046875e+01,-6.390516281127929688e+01,5.343388366699218750e+01,-1.526754093170166016e+01,-1.041688308715820312e+02,-1.144058837890625000e+02,6.424034118652343750e+01,-3.517381668090820312e+01
1.186079978942871094e-01,2.000000000000000000e+00,3.547918701171875000e+01,1.285578536987304688e+01,3.555867004394531250e+01,-1.087568664550781250e+02,9.078099822998046875e+01,-6.390516281127929688e+01,5.343388366699218750e+01,-1.526754093170166016e+01,-1.041688308715820312e+02,-1.144058837890625000e+02,6.424034118652343750e+01,-3.517381668090820312e+01
1.227310001850128174e-01,2.000000000000000000e+00,3.548119354248046875e+01,1.285356807708740234e+01,3.555867004394531250e+01,-1.087570724487304688e+02,9.078099822998046875e+01,-6.390516281127929688e+01,5.343289184570312500e+01,-1.526767921447753906e+01,-1.041671981811523438e+02,-1.144062347412109375e+02,6.424011993408203125e+01,-3.517359542846679688e+01
1.264649927616119385e-01,2.000000000000000000e+00,3.548409271240234375e+01,1.285037803649902344e+01,3.555867004394531250e+01,-1.087570724487304688e+02,9.078099822998046875e+01,-6.390516281127929688e+01,5.343069458007812500e+01,-1.526822853088378906e+01,-1.041646423339843750e+02,-1.144071044921875000e+02,6.423976135253906250e+01,-3.517425537109375000e+01
1.289850026369094849e-01,2.000000000000000000e+00,3.548744964599609375e+01,1.284596443176269531e+01,3.555867004394531250e+01,-1.087579193115234375e+02,9.078111267089843750e+01,-6.390516281127929688e+01,5.342734527587890625e+01,-1.526854801177978516e+01,-1.041632843017578125e+02,-1.144077453613281250e+02,6.423837280273437500e+01,-3.517524719238281250e+01
1.303769946098327637e-01,2.000000000000000000e+00,3.548744964599609375e+01,1.284596443176269531e+01,3.555867004394531250e+01,-1.087579193115234375e+02,9.078111267089843750e+01,-6.390516281127929688e+01,5.342734527587890625e+01,-1.526854801177978516e+01,-1.041632843017578125e+02,-1.144077453613281250e+02,6.423837280273437500e+01,-3.517524719238281250e+01
1.330150067806243896e-01,2.000000000000000000e+00,3.549150085449218750e+01,1.284028434753417969e+01,3.555867004394531250e+01,-1.087594909667968750e+02,9.078121948242187500e+01,-6.390550613403320312e+01,5.342250823974609375e+01,-1.526877689361572266e+01,-1.041624603271484375e+02,-1.144086837768554688e+02,6.423495483398437500e+01,-3.517667388916015625e+01
1.350319981575012207e-01,2.000000000000000000e+00,3.549150085449218750e+01,1.284028434753417969e+01,3.555867004394531250e+01,-1.087594909667968750e+02,9.078121948242187500e+01,-6.390550613403320312e+01,5.342250823974609375e+01,-1.526877689361572266e+01,-1.041624603271484375e+02,-1.144086837768554688e+02,6.423495483398437500e+01,-3.517667388916015625e+01
1.376139968633651733e-01,2.000000000000000000e+00,3.549634933471679688e+01,1.283326911926269531e+01,3.555857086181640625e+01,-1.087626571655273438e+02,9.078132629394531250e+01,-6.390604400634765625e+01,5.341641235351562500e+01,-1.526868629455566406e+01,-1.041612091064453125e+02,-1.144104003906250000e+02,6.422948455810546875e+01,-3.517744064331054688e+01
1.412249952554702759e-01,2.000000000000000000e+00,3.549634933471679688e+01,1.283326911926269531e+01,3.555857086181640625e+01,-1.087626571655273438e+02,9.078132629394531250e+01,-6.390604400634765625e+01,5.341641235351562500e+01,-1.526868629455566406e+01,-1.041612091064453125e+02,-1.144104003906250000e+02,6.422948455810546875e+01,-3.517744064331054688e+01
1.425520032644271851e-01,2.000000000000000000e+00,3.550206375122070312e+01,1.282473850250244141e+01,3.555860900878906250e+01,-1.087675018310546875e+02,9.078148651123046875e+01,-6.390740203857421875e+01,5.340828323364257812e+01,-1.526800060272216797e+01,-1.041604003906250000e+02,-1.144133453369140625e+02,6.422467041015625000e+01,-3.517788314819335938e+01
1.464859992265701294e-01,2.000000000000000000e+00,3.550901031494140625e+01,1.281412410736083984e+01,3.555846786499023438e+01,-1.087736663818359375e+02,9.078158569335937500e+01,-6.391052627563476562e+01,5.339751815795898438e+01,-1.526644325256347656e+01,-1.041605606079101562e+02,-1.144177322387695312e+02,6.422256469726562500e+01,-3.517842864990234375e+01
1.501639932394027710e-01,2.000000000000000000e+00,3.551747894287109375e+01,1.280097579956054688e+01,3.555810165405273438e+01,-1.087818298339843750e+02,9.078191375732421875e+01,-6.391432189941406250e+01,5.338400268554687500e+01,-1.526520633697509766e+01,-1.041665496826171875e+02,-1.144231109619140625e+02,6.422008514404296875e+01,-3.517942047119140625e+01
1.525579988956451416e-01,2.000000000000000000e+00,3.552735519409179688e+01,1.278527069091796875e+01,3.555749130249023438e+01,-1.087925720214843750e+02,9.078265380859375000e+01,-6.391913604736328125e+01,5.336664581298828125e+01,-1.526401615142822266e+01,-1.041699142456054688e+02,-1.144299392700195312e+02,6.421702575683593750e+01,-3.518150711059570312e+01
1.541080027818679810e-01,2.000000000000000000e+00,3.552735519409179688e+01,1.278527069091796875e+01,3.555749130249023438e+01,-1.087925720214843750e+02,9.078265380859375000e+01,-6.391913604736328125e+01,5.336664581298828125e+01,-1.526401615142822266e+01,-1.041699142456054688e+02,-1.144299392700195312e+02,6.421702575683593750e+01,-3.518150711059570312e+01
1.608500033617019653e-01,2.000000000000000000e+00,3.555069351196289062e+01,1.274766063690185547e+01,3.555567932128906250e+01,-1.088230209350585938e+02,9.078404235839843750e+01,-6.393243026733398438e+01,5.331940460205078125e+01,-1.526044559478759766e+01,-1.041743774414062500e+02,-1.144544219970703125e+02,6.421141815185546875e+01,-3.518732833862304688e+01
1.622100025415420532e-01,2.000000000000000000e+00,3.555069351196289062e+01,1.274766063690185547e+01,3.555567932128906250e+01,-1.088230209350585938e+02,9.078404235839843750e+01,-6.393243026733398438e+01,5.331940460205078125e+01,-1.526044559478759766e+01,-1.041743774414062500e+02,-1.144544219970703125e+02,6.421141815185546875e+01,-3.518732833862304688e+01
1.646810024976730347e-01,2.000000000000000000e+00,3.555069351196289062e+01,1.274766063690185547e+01,3.555567932128906250e+01,-1.088230209350585938e+02,9.078404235839843750e+01,-6.393243026733398438e+01,5.328908157348632812e+01,-1.525811195373535156e+01,-1.041788864135742188e+02,-1.144716567993164062e+02,6.420966339111328125e+01,-3.519403076171875000e+01
1.684820055961608887e-01,2.000000000000000000e+00,3.556389617919921875e+01,1.272675037384033203e+01,3.555433654785156250e+01,-1.088430862426757812e+02,9.078521728515625000e+01,-6.394171905517578125e+01,5.328908157348632812e+01,-1.525811195373535156e+01,-1.041788864135742188e+02,-1.144716567993164062e+02,6.420966339111328125e+01,-3.519403076171875000e+01
1.707849949598312378e-01,2.000000000000000000e+00,3.557790756225585938e+01,1.270380401611328125e+01,3.555242919921875000e+01,-1.088672103881835938e+02,9.078627777099609375e+01,-6.395264053344726562e+01,5.325387191772460938e+01,-1.525449562072753906e+01,-1.041853637695312500e+02,-1.144938430786132812e+02,6.420791625976562500e+01,-3.520370101928710938e+01
1.733070015907287598e-01,2.000000000000000000e+00,3.559260559082031250e+01,1.267949962615966797e+01,3.554996871948242188e+01,-1.088962326049804688e+02,9.078745269775390625e+01,-6.396606826782226562e+01,5.321454238891601562e+01,-1.524991703033447266e+01,-1.041931381225585938e+02,-1.145207748413085938e+02,6.420631408691406250e+01,-3.521589279174804688e+01
1.745609939098358154e-01,2.000000000000000000e+00,3.559260559082031250e+01,1.267949962615966797e+01,3.554996871948242188e+01,-1.088962326049804688e+02,9.078745269775390625e+01,-6.396606826782226562e+01,5.321454238891601562e+01,-1.524991703033447266e+01,-1.041931381225585938e+02,-1.145207748413085938e+02,6.420631408691406250e+01,-3.521589279174804688e+01
1.771669983863830566e-01,2.000000000000000000e+00,3.560833740234375000e+01,1.265338420867919922e+01,3.554716491699218750e+01,-1.089295272827148438e+02,9.078900146484375000e+01,-6.398091506958007812e+01,5.317180252075195312e+01,-1.524437808990478516e+01,-1.042022247314453125e+02,-1.145537261962890625e+02,6.420492553710937500e+01,-3.522896957397460938e+01
1.785060018301010132e-01,2.000000000000000000e+00,3.560833740234375000e+01,1.265338420867919922e+01,3.554716491699218750e+01,-1.089295272827148438e+02,9.078900146484375000e+01,-6.398091506958007812e+01,5.317180252075195312e+01,-1.524437808990478516e+01,-1.042022247314453125e+02,-1.145537261962890625e+02,6.420492553710937500e+01,-3.522896957397460938e+01
1.826699972152709961e-01,2.000000000000000000e+00,3.562504577636718750e+01,1.262502861022949219e+01,3.554384613037109375e+01,-1.089659805297851562e+02,9.079064941406250000e+01,-6.399726104736328125e+01,5.312571334838867188e+01,-1.523806190490722656e+01,-1.042134857177734375e+02,-1.145914993286132812e+02,6.420333099365234375e+01,-3.524687576293945312e+01
1.852079927921295166e-01,2.000000000000000000e+00,3.564344406127929688e+01,1.259432029724121094e+01,3.554018783569335938e+01,-1.090041198730468750e+02,9.079220581054687500e+01,-6.401577758789062500e+01,5.307572555541992188e+01,-1.523087501525878906e+01,-1.042266464233398438e+02,-1.146327209472656250e+02,6.420172119140625000e+01,-3.526708984375000000e+01
1.864860057830810547e-01,2.000000000000000000e+00,3.564344406127929688e+01,1.259432029724121094e+01,3.554018783569335938e+01,-1.090041198730468750e+02,9.079220581054687500e+01,-6.401577758789062500e+01,5.307572555541992188e+01,-1.523087501525878906e+01,-1.042266464233398438e+02,-1.146327209472656250e+02,6.420172119140625000e+01,-3.526708984375000000e+01
1.890469938516616821e-01,2.000000000000000000e+00,3.566270446777343750e+01,1.256150722503662109e+01,3.553607940673828125e+01,-1.090458831787109375e+02,9.079412078857421875e+01,-6.403611755371093750e+01,5.302315902709960938e+01,-1.522277259826660156e+01,-1.042412796020507812e+02,-1.146775970458984375e+02,6.420070648193359375e+01,-3.528917312622070312e+01
1.954849958419799805e-01,2.000000000000000000e+00,3.568271636962890625e+01,1.252697372436523438e+01,3.553154754638671875e+01,-1.090922851562500000e+02,9.079614257812500000e+01,-6.405795288085937500e+01,5.296756744384765625e+01,-1.521416664123535156e+01,-1.042573776245117188e+02,-1.147262802124023438e+02,6.419880676269531250e+01,-3.531476974487304688e+01
1.981289982795715332e-01,2.000000000000000000e+00,3.570347213745117188e+01,1.249101448059082031e+01,3.552688980102539062e+01,-1.091408538818359375e+02,9.079854583740234375e+01,-6.408074951171875000e+01,5.290867996215820312e+01,-1.520528507232666016e+01,-1.042739562988281250e+02,-1.147774124145507812e+02,6.419683837890625000e+01,-3.534113693237304688e+01
1.993779987096786499e-01,2.000000000000000000e+00,3.570347213745117188e+01,1.249101448059082031e+01,3.552688980102539062e+01,-1.091408538818359375e+02,9.079854583740234375e+01,-6.408074951171875000e+01,5.290867996215820312e+01,-1.520528507232666016e+01,-1.042739562988281250e+02,-1.147774124145507812e+02,6.419683837890625000e+01,-3.534113693237304688e+01
2.018350064754486084e-01,2.000000000000000000e+00,3.572494125366210938e+01,1.245322227478027344e+01,3.552194976806640625e+01,-1.091893692016601562e+02,9.080100250244140625e+01,-6.410455322265625000e+01,5.284650039672851562e+01,-1.519613075256347656e+01,-1.042903289794921875e+02,-1.148291854858398438e+02,6.419480133056640625e+01,-3.537091064453125000e+01
2.061250060796737671e-01,2.000000000000000000e+00,3.574710464477539062e+01,1.241382408142089844e+01,3.551676559448242188e+01,-1.092408294677734375e+02,9.080313110351562500e+01,-6.412868499755859375e+01,5.278123855590820312e+01,-1.518692874908447266e+01,-1.043068695068359375e+02,-1.148823928833007812e+02,6.419268798828125000e+01,-3.540222167968750000e+01
2.074979990720748901e-01,2.000000000000000000e+00,3.574710464477539062e+01,1.241382408142089844e+01,3.551676559448242188e+01,-1.092408294677734375e+02,9.080313110351562500e+01,-6.412868499755859375e+01,5.278123855590820312e+01,-1.518692874908447266e+01,-1.043068695068359375e+02,-1.148823928833007812e+02,6.419268798828125000e+01,-3.540222167968750000e+01
2.129549980163574219e-01,2.000000000000000000e+00,3.577053070068359375e+01,1.237281799316406250e+01,3.551136016845703125e+01,-1.092938232421875000e+02,9.080569458007812500e+01,-6.415290069580078125e+01,5.271279525756835938e+01,-1.517763710021972656e+01,-1.043232345581054688e+02,-1.149369659423828125e+02,6.419006347656250000e+01,-3.543452453613281250e+01
2.173849940299987793e-01,2.000000000000000000e+00,3.579487228393554688e+01,1.232997989654541016e+01,3.550584793090820312e+01,-1.093464431762695312e+02,9.080835723876953125e+01,-6.417765045166015625e+01,5.264182281494140625e+01,-1.516834449768066406e+01,-1.043388977050781250e+02,-1.149918212890625000e+02,6.418751525878906250e+01,-3.546902084350585938e+01
2.188739925622940063e-01,2.000000000000000000e+00,3.582044982910156250e+01,1.228542137145996094e+01,3.550038146972656250e+01,-1.094003753662109375e+02,9.081080627441406250e+01,-6.420275115966796875e+01,5.256876373291015625e+01,-1.515923404693603516e+01,-1.043544540405273438e+02,-1.150468902587890625e+02,6.418453216552734375e+01,-3.550417327880859375e+01
2.229509949684143066e-01,2.000000000000000000e+00,3.584714889526367188e+01,1.223959541320800781e+01,3.549494934082031250e+01,-1.094543151855468750e+02,9.081346893310546875e+01,-6.422885131835937500e+01,5.249559402465820312e+01,-1.515003395080566406e+01,-1.043699035644531250e+02,-1.151022567749023438e+02,6.418161773681640625e+01,-3.554054260253906250e+01
2.270659953355789185e-01,2.000000000000000000e+00,3.587499618530273438e+01,1.219266128540039062e+01,3.548968505859375000e+01,-1.095086746215820312e+02,9.081629943847656250e+01,-6.425543975830078125e+01,5.242280960083007812e+01,-1.514092445373535156e+01,-1.043853988647460938e+02,-1.151573333740234375e+02,6.417768096923828125e+01,-3.557712554931640625e+01
2.309190034866333008e-01,2.000000000000000000e+00,3.590355682373046875e+01,1.214477634429931641e+01,3.548443984985351562e+01,-1.095631408691406250e+02,9.081912994384765625e+01,-6.428114318847656250e+01,5.235008239746093750e+01,-1.513199710845947266e+01,-1.044004669189453125e+02,-1.152128372192382812e+02,6.417418670654296875e+01,-3.561370849609375000e+01
2.348700016736984253e-01,2.000000000000000000e+00,3.593249511718750000e+01,1.209684658050537109e+01,3.547921371459960938e+01,-1.096168746948242188e+02,9.082184600830078125e+01,-6.430643463134765625e+01,5.227636337280273438e+01,-1.512270450592041016e+01,-1.044153671264648438e+02,-1.152674102783203125e+02,6.417009735107421875e+01,-3.565073394775390625e+01
2.389599978923797607e-01,2.000000000000000000e+00,3.596148681640625000e+01,1.204866695404052734e+01,3.547368240356445312e+01,-1.096713409423828125e+02,9.082456207275390625e+01,-6.433112335205078125e+01,5.220187759399414062e+01,-1.511336612701416016e+01,-1.044306488037109375e+02,-1.153210525512695312e+02,6.416514587402343750e+01,-3.568676757812500000e+01
2.438769936561584473e-01,2.000000000000000000e+00,3.599033737182617188e+01,1.200039768218994141e+01,3.546819305419921875e+01,-1.097256469726562500e+02,9.082770538330078125e+01,-6.435662841796875000e+01,5.212760925292968750e+01,-1.510412025451660156e+01,-1.044457168579101562e+02,-1.153749694824218750e+02,6.415953063964843750e+01,-3.572159576416015625e+01
2.469370067119598389e-01,2.000000000000000000e+00,3.601913070678710938e+01,1.195221805572509766e+01,3.546276473999023438e+01,-1.097800521850585938e+02,9.083016204833984375e+01,-6.438218688964843750e+01,5.205449295043945312e+01,-1.509496402740478516e+01,-1.044604034423828125e+02,-1.154296951293945312e+02,6.415428924560546875e+01,-3.575751876831054688e+01
2.509439885616302490e-01,2.000000000000000000e+00,3.604803848266601562e+01,1.190401649475097656e+01,3.545731735229492188e+01,-1.098350982666015625e+02,9.083293151855468750e+01,-6.440782165527343750e+01,5.198176193237304688e+01,-1.508548927307128906e+01,-1.044750289916992188e+02,-1.154845504760742188e+02,6.414875793457031250e+01,-3.579388427734375000e+01
2.548860013484954834e-01,2.000000000000000000e+00,3.607706069946289062e+01,1.185579204559326172e+01,3.545188903808593750e+01,-1.098890380859375000e+02,9.083570098876953125e+01,-6.443386840820312500e+01,5.190826416015625000e+01,-1.507596778869628906e+01,-1.044898300170898438e+02,-1.155391921997070312e+02,6.414401245117187500e+01,-3.582739257812500000e+01
2.589290142059326172e-01,2.000000000000000000e+00,3.610599899291992188e+01,1.180777168273925781e+01,3.544623565673828125e+01,-1.099432907104492188e+02,9.083831787109375000e+01,-6.446024322509765625e+01,5.183383178710937500e+01,-1.506640052795410156e+01,-1.045048370361328125e+02,-1.155928421020507812e+02,6.413870239257812500e+01,-3.586232757568359375e+01
2.653250098228454590e-01,2.000000000000000000e+00,3.613487625122070312e+01,1.175970554351806641e+01,3.544072341918945312e+01,-1.099980773925781250e+02,9.084124755859375000e+01,-6.448601531982421875e+01,5.175928878784179688e+01,-1.505678653717041016e+01,-1.045197906494140625e+02,-1.156472625732421875e+02,6.413337707519531250e+01,-3.589583587646484375e+01
2.693479955196380615e-01,2.000000000000000000e+00,3.616378784179687500e+01,1.171179771423339844e+01,3.543539810180664062e+01,-1.100516967773437500e+02,9.084402465820312500e+01,-6.451083374023437500e+01,5.168656158447265625e+01,-1.504763221740722656e+01,-1.045346374511718750e+02,-1.157019042968750000e+02,6.412871551513671875e+01,-3.592615890502929688e+01
2.708680033683776855e-01,2.000000000000000000e+00,3.619254684448242188e+01,1.166380023956298828e+01,3.543011093139648438e+01,-1.101063766479492188e+02,9.084668731689453125e+01,-6.453593444824218750e+01,5.161366653442382812e+01,-1.503852272033691406e+01,-1.045497055053710938e+02,-1.157561874389648438e+02,6.412514495849609375e+01,-3.595516586303710938e+01
2.759639918804168701e-01,2.000000000000000000e+00,3.619254684448242188e+01,1.166380023956298828e+01,3.543011093139648438e+01,-1.101063766479492188e+02,9.084668731689453125e+01,-6.453593444824218750e+01,5.161366653442382812e+01,-1.503852272033691406e+01,-1.045497055053710938e+02,-1.157561874389648438e+02,6.412514495849609375e+01,-3.595516586303710938e+01
2.796030044555664062e-01,2.000000000000000000e+00,3.625016403198242188e+01,1.156769180297851562e+01,3.541929626464843750e+01,-1.102145080566406250e+02,9.085213470458984375e+01,-6.458753967285156250e+01,5.146672439575195312e+01,-1.501970863342285156e+01,-1.045798873901367188e+02,-1.158641204833984375e+02,6.411939239501953125e+01,-3.600998687744140625e+01
2.838590145111083984e-01,2.000000000000000000e+00,3.627881240844726562e+01,1.151989650726318359e+01,3.541386795043945312e+01,-1.102691345214843750e+02,9.085479736328125000e+01,-6.461344909667968750e+01,5.139399337768554688e+01,-1.501037025451660156e+01,-1.045951232910156250e+02,-1.159187622070312500e+02,6.411661529541015625e+01,-3.603745269775390625e+01
2.868719995021820068e-01,2.000000000000000000e+00,3.630746078491210938e+01,1.147198963165283203e+01,3.540845870971679688e+01,-1.103229141235351562e+02,9.085762023925781250e+01,-6.463948059082031250e+01,5.132197952270507812e+01,-1.500116825103759766e+01,-1.046105651855468750e+02,-1.159735565185546875e+02,6.411348724365234375e+01,-3.606370925903320312e+01
2.921110093593597412e-01,2.000000000000000000e+00,3.630746078491210938e+01,1.147198963165283203e+01,3.540845870971679688e+01,-1.103229141235351562e+02,9.085762023925781250e+01,-6.463948059082031250e+01,5.132197952270507812e+01,-1.500116825103759766e+01,-1.046105651855468750e+02,-1.159735565185546875e+02,6.411348724365234375e+01,-3.606370925903320312e+01
2.959379851818084717e-01,2.000000000000000000e+00,3.636487579345703125e+01,1.137664890289306641e+01,3.539758300781250000e+01,-1.104319458007812500e+02,9.086315917968750000e+01,-6.469007110595703125e+01,5.117586135864257812e+01,-1.498267555236816406e+01,-1.046408081054687500e+02,-1.160819778442382812e+02,6.410765838623046875e+01,-3.611930084228515625e+01
2.989340126514434814e-01,2.000000000000000000e+00,3.639389801025390625e+01,1.132876491546630859e+01,3.539186859130859375e+01,-1.104856719970703125e+02,9.086561584472656250e+01,-6.471469879150390625e+01,5.110258102416992188e+01,-1.497347354888916016e+01,-1.046559753417968750e+02,-1.161366195678710938e+02,6.410459899902343750e+01,-3.614852523803710938e+01
3.039799928665161133e-01,2.000000000000000000e+00,3.639389801025390625e+01,1.132876491546630859e+01,3.539186859130859375e+01,-1.104856719970703125e+02,9.086561584472656250e+01,-6.471469879150390625e+01,5.110258102416992188e+01,-1.497347354888916016e+01,-1.046559753417968750e+02,-1.161366195678710938e+02,6.410459899902343750e+01,-3.614852523803710938e+01
3.068679869174957275e-01,2.000000000000000000e+00,3.645191574096679688e+01,1.123303890228271484e+01,3.538084793090820312e+01,-1.105947113037109375e+02,9.087132263183593750e+01,-6.476515197753906250e+01,5.095816802978515625e+01,-1.495525646209716797e+01,-1.046867599487304688e+02,-1.162447662353515625e+02,6.409738159179687500e+01,-3.620763015747070312e+01
3.119130134582519531e-01,2.000000000000000000e+00,3.645191574096679688e+01,1.123303890228271484e+01,3.538084793090820312e+01,-1.105947113037109375e+02,9.087132263183593750e+01,-6.476515197753906250e+01,5.095816802978515625e+01,-1.495525646209716797e+01,-1.046867599487304688e+02,-1.162447662353515625e+02,6.409738159179687500e+01,-3.620763015747070312e+01
3.149060010910034180e-01,2.000000000000000000e+00,3.650970077514648438e+01,1.113770008087158203e+01,3.537005233764648438e+01,-1.107036972045898438e+02,9.087686157226562500e+01,-6.481743621826171875e+01,5.081293106079101562e+01,-1.493744754791259766e+01,-1.047169494628906250e+02,-1.163533401489257812e+02,6.409068298339843750e+01,-3.626574707031250000e+01
3.188740015029907227e-01,2.000000000000000000e+00,3.653869628906250000e+01,1.108997344970703125e+01,3.536446380615234375e+01,-1.107576828002929688e+02,9.087963867187500000e+01,-6.484307098388671875e+01,5.074003601074218750e+01,-1.492843055725097656e+01,-1.047321777343750000e+02,-1.164074096679687500e+02,6.408696746826171875e+01,-3.629618072509765625e+01
3.239580094814300537e-01,2.000000000000000000e+00,3.653869628906250000e+01,1.108997344970703125e+01,3.536446380615234375e+01,-1.107576828002929688e+02,9.087963867187500000e+01,-6.484307098388671875e+01,5.074003601074218750e+01,-1.492843055725097656e+01,-1.047321777343750000e+02,-1.164074096679687500e+02,6.408696746826171875e+01,-3.629618072509765625e+01
3.276639878749847412e-01,2.000000000000000000e+00,3.659665679931640625e+01,1.099438476562500000e+01,3.535334014892578125e+01,-1.108662490844726562e+02,9.088534545898437500e+01,-6.489244842529296875e+01,5.059501266479492188e+01,-1.490993595123291016e+01,-1.047625274658203125e+02,-1.165172653198242188e+02,6.407975006103515625e+01,-3.635968017578125000e+01
3.318879902362823486e-01,2.000000000000000000e+00,3.662556076049804688e+01,1.094631862640380859e+01,3.534793090820312500e+01,-1.109202957153320312e+02,9.088812255859375000e+01,-6.491767120361328125e+01,5.052255630493164062e+01,-1.490096473693847656e+01,-1.047777023315429688e+02,-1.165715484619140625e+02,6.407662200927734375e+01,-3.639373779296875000e+01
3.348689973354339600e-01,2.000000000000000000e+00,3.665446853637695312e+01,1.089829730987548828e+01,3.534242248535156250e+01,-1.109746475219726562e+02,9.089099121093750000e+01,-6.494290161132812500e+01,5.044900894165039062e+01,-1.489203739166259766e+01,-1.047926559448242188e+02,-1.166259078979492188e+02,6.407334136962890625e+01,-3.642856597900390625e+01
3.399119973182678223e-01,2.000000000000000000e+00,3.665446853637695312e+01,1.089829730987548828e+01,3.534242248535156250e+01,-1.109746475219726562e+02,9.089099121093750000e+01,-6.494290161132812500e+01,5.044900894165039062e+01,-1.489203739166259766e+01,-1.047926559448242188e+02,-1.166259078979492188e+02,6.407334136962890625e+01,-3.642856597900390625e+01
3.436670005321502686e-01,2.000000000000000000e+00,3.671260070800781250e+01,1.080241489410400391e+01,3.533119964599609375e+01,-1.110826873779296875e+02,9.089680480957031250e+01,-6.499450683593750000e+01,5.030178833007812500e+01,-1.487322330474853516e+01,-1.048226242065429688e+02,-1.167345428466796875e+02,6.406554412841796875e+01,-3.649733734130859375e+01
3.510130047798156738e-01,2.000000000000000000e+00,3.674145126342773438e+01,1.075441741943359375e+01,3.532572937011718750e+01,-1.111371536254882812e+02,9.089984893798828125e+01,-6.502027893066406250e+01,5.022944259643554688e+01,-1.486393165588378906e+01,-1.048375778198242188e+02,-1.167891159057617188e+02,6.406095123291015625e+01,-3.653227615356445312e+01
3.524030148983001709e-01,2.000000000000000000e+00,3.677027130126953125e+01,1.070628356933593750e+01,3.532040023803710938e+01,-1.111914062500000000e+02,9.090288543701171875e+01,-6.504577636718750000e+01,5.015693283081054688e+01,-1.485463905334472656e+01,-1.048526992797851562e+02,-1.168437728881835938e+02,6.405709075927734375e+01,-3.656710052490234375e+01
3.558579981327056885e-01,2.000000000000000000e+00,3.679918289184570312e+01,1.065812683105468750e+01,3.531495285034179688e+01,-1.112457122802734375e+02,9.090581512451171875e+01,-6.506992340087890625e+01,5.008354568481445312e+01,-1.484562110900878906e+01,-1.048673858642578125e+02,-1.168977584838867188e+02,6.405286407470703125e+01,-3.660083007812500000e+01
3.589349985122680664e-01,2.000000000000000000e+00,3.682817459106445312e+01,1.060999298095703125e+01,3.530942153930664062e+01,-1.112997512817382812e+02,9.090869903564453125e+01,-6.509494018554687500e+01,5.000971603393554688e+01,-1.483646583557128906e+01,-1.048816909790039062e+02,-1.169521255493164062e+02,6.404813385009765625e+01,-3.663510513305664062e+01
3.639340102672576904e-01,2.000000000000000000e+00,3.682817459106445312e+01,1.060999298095703125e+01,3.530942153930664062e+01,-1.112997512817382812e+02,9.090869903564453125e+01,-6.509494018554687500e+01,5.000971603393554688e+01,-1.483646583557128906e+01,-1.048816909790039062e+02,-1.169521255493164062e+02,6.404813385009765625e+01,-3.663510513305664062e+01
3.680830001831054688e-01,2.000000000000000000e+00,3.688665390014648438e+01,1.051349830627441406e+01,3.529811859130859375e+01,-1.114082641601562500e+02,9.091482543945312500e+01,-6.514566802978515625e+01,4.986332702636718750e+01,-1.481820106506347656e+01,-1.049117660522460938e+02,-1.170606994628906250e+02,6.403749084472656250e+01,-3.670157623291015625e+01
3.709090054035186768e-01,2.000000000000000000e+00,3.691579055786132812e+01,1.046545505523681641e+01,3.529267120361328125e+01,-1.114625167846679688e+02,9.091792297363281250e+01,-6.517157745361328125e+01,4.979015731811523438e+01,-1.480899906158447266e+01,-1.049268264770507812e+02,-1.171154785156250000e+02,6.403210449218750000e+01,-3.673464202880859375e+01
3.759320080280303955e-01,2.000000000000000000e+00,3.691579055786132812e+01,1.046545505523681641e+01,3.529267120361328125e+01,-1.114625167846679688e+02,9.091792297363281250e+01,-6.517157745361328125e+01,4.979015731811523438e+01,-1.480899906158447266e+01,-1.049268264770507812e+02,-1.171154785156250000e+02,6.403210449218750000e+01,-3.673464202880859375e+01
3.809829950332641602e-01,2.000000000000000000e+00,3.697360229492187500e+01,1.036941432952880859e+01,3.528136825561523438e+01,-1.115712356567382812e+02,9.092404937744140625e+01,-6.522270965576171875e+01,4.964249801635742188e+01,-1.479068946838378906e+01,-1.049563064575195312e+02,-1.172228393554687500e+02,6.402211761474609375e+01,-3.679298019409179688e+01
3.835439980030059814e-01,2.000000000000000000e+00,3.700248336791992188e+01,1.032134819030761719e+01,3.527565383911132812e+01,-1.116248626708984375e+02,9.092713928222656250e+01,-6.524753570556640625e+01,4.956982421875000000e+01,-1.478157997131347656e+01,-1.049715423583984375e+02,-1.172769012451171875e+02,6.401716613769531250e+01,-3.682099533081054688e+01
3.879069983959197998e-01,2.000000000000000000e+00,3.700248336791992188e+01,1.032134819030761719e+01,3.527565383911132812e+01,-1.116248626708984375e+02,9.092713928222656250e+01,-6.524753570556640625e+01,4.956982421875000000e+01,-1.478157997131347656e+01,-1.049715423583984375e+02,-1.172769012451171875e+02,6.401716613769531250e+01,-3.682099533081054688e+01
3.940730094909667969e-01,2.000000000000000000e+00,3.703144836425781250e+01,1.027346324920654297e+01,3.527016067504882812e+01,-1.116792144775390625e+02,9.093023681640625000e+01,-6.527221679687500000e+01,4.949775695800781250e+01,-1.477224063873291016e+01,-1.049864959716796875e+02,-1.173311233520507812e+02,6.401249694824218750e+01,-3.684769439697265625e+01
3.955779969692230225e-01,2.000000000000000000e+00,3.708911895751953125e+01,1.017771625518798828e+01,3.525934600830078125e+01,-1.117873001098632812e+02,9.093625640869140625e+01,-6.532294464111328125e+01,4.935196685791015625e+01,-1.475342750549316406e+01,-1.050163497924804688e+02,-1.174394760131835938e+02,6.400405120849609375e+01,-3.689833831787109375e+01
3.999119997024536133e-01,2.000000000000000000e+00,3.708911895751953125e+01,1.017771625518798828e+01,3.525934600830078125e+01,-1.117873001098632812e+02,9.093625640869140625e+01,-6.532294464111328125e+01,4.935196685791015625e+01,-1.475342750549316406e+01,-1.050163497924804688e+02,-1.174394760131835938e+02,6.400405120849609375e+01,-3.689833831787109375e+01
4.049479961395263672e-01,2.000000000000000000e+00,3.711805725097656250e+01,1.012976360321044922e+01,3.525371551513671875e+01,-1.118418197631835938e+02,9.093935394287109375e+01,-6.534885406494140625e+01,4.927852249145507812e+01,-1.474450016021728516e+01,-1.050316390991210938e+02,-1.174929046630859375e+02,6.399967956542968750e+01,-3.692437744140625000e+01
4.075590074062347412e-01,2.000000000000000000e+00,3.717564010620117188e+01,1.003412914276123047e+01,3.524261093139648438e+01,-1.119492721557617188e+02,9.094543457031250000e+01,-6.540012359619140625e+01,4.913361358642578125e+01,-1.472619056701660156e+01,-1.050617141723632812e+02,-1.176017456054687500e+02,6.399217224121093750e+01,-3.697623443603515625e+01
4.119099974632263184e-01,2.000000000000000000e+00,3.717564010620117188e+01,1.003412914276123047e+01,3.524261093139648438e+01,-1.119492721557617188e+02,9.094543457031250000e+01,-6.540012359619140625e+01,4.913361358642578125e+01,-1.472619056701660156e+01,-1.050617141723632812e+02,-1.176017456054687500e+02,6.399217224121093750e+01,-3.697623443603515625e+01
4.159049987792968750e-01,2.000000000000000000e+00,3.720443344116210938e+01,9.986289024353027344e+00,3.523714447021484375e+01,-1.120039520263671875e+02,9.094825744628906250e+01,-6.542487335205078125e+01,4.906132507324218750e+01,-1.471703433990478516e+01,-1.050771102905273438e+02,-1.176554565429687500e+02,6.398816299438476562e+01,-3.700260162353515625e+01
4.196679890155792236e-01,2.000000000000000000e+00,3.726225280761718750e+01,9.890836715698242188e+00,3.522595977783203125e+01,-1.121116180419921875e+02,9.095407104492187500e+01,-6.547465515136718750e+01,4.891476440429687500e+01,-1.469886112213134766e+01,-1.051078872680664062e+02,-1.177630386352539062e+02,6.398000335693359375e+01,-3.705423736572265625e+01
4.239290058612823486e-01,2.000000000000000000e+00,3.726225280761718750e+01,9.890836715698242188e+00,3.522595977783203125e+01,-1.121116180419921875e+02,9.095407104492187500e+01,-6.547465515136718750e+01,4.891476440429687500e+01,-1.469886112213134766e+01,-1.051078872680664062e+02,-1.177630386352539062e+02,6.398000335693359375e+01,-3.705423736572265625e+01
4.279490113258361816e-01,2.000000000000000000e+00,3.729098510742187500e+01,9.842996597290039062e+00,3.522040939331054688e+01,-1.121658172607421875e+02,9.095705413818359375e+01,-6.550008392333984375e+01,4.884247589111328125e+01,-1.468988990783691406e+01,-1.051227874755859375e+02,-1.178170242309570312e+02,6.397650527954101562e+01,-3.708115386962890625e+01
4.319860041141510010e-01,2.000000000000000000e+00,3.732012176513671875e+01,9.795043945312500000e+00,3.521498107910156250e+01,-1.122193908691406250e+02,9.095977783203125000e+01,-6.552577972412109375e+01,4.877084350585937500e+01,-1.468077945709228516e+01,-1.051380157470703125e+02,-1.178716735839843750e+02,6.397330093383789062e+01,-3.710993957519531250e+01
4.350830018520355225e-01,2.000000000000000000e+00,3.734900283813476562e+01,9.747091293334960938e+00,3.520969390869140625e+01,-1.122738494873046875e+02,9.096270751953125000e+01,-6.555162048339843750e+01,4.869855499267578125e+01,-1.467162513732910156e+01,-1.051530303955078125e+02,-1.179261703491210938e+02,6.396973037719726562e+01,-3.713993072509765625e+01
4.389519989490509033e-01,2.000000000000000000e+00,3.737791061401367188e+01,9.699296951293945312e+00,3.520436859130859375e+01,-1.123279571533203125e+02,9.096542358398437500e+01,-6.557759857177734375e+01,4.862505722045898438e+01,-1.466233158111572266e+01,-1.051684188842773438e+02,-1.179801025390625000e+02,6.396623229980468750e+01,-3.717156982421875000e+01
4.441680014133453369e-01,2.000000000000000000e+00,3.740681838989257812e+01,9.651682853698730469e+00,3.519877624511718750e+01,-1.123818359375000000e+02,9.096830749511718750e+01,-6.560276031494140625e+01,4.855183410644531250e+01,-1.465345191955566406e+01,-1.051836471557617188e+02,-1.180344543457031250e+02,6.396273422241210938e+01,-3.720474624633789062e+01
4.479120075702667236e-01,2.000000000000000000e+00,3.743566894531250000e+01,9.603775978088378906e+00,3.519316482543945312e+01,-1.124364013671875000e+02,9.097129058837890625e+01,-6.562737274169921875e+01,4.847899246215820312e+01,-1.464475345611572266e+01,-1.051989288330078125e+02,-1.180886001586914062e+02,6.395887756347656250e+01,-3.723880767822265625e+01
4.552029967308044434e-01,2.000000000000000000e+00,3.752250671386718750e+01,9.460076332092285156e+00,3.517647171020507812e+01,-1.125982208251953125e+02,9.097939300537109375e+01,-6.570312500000000000e+01,4.826146316528320312e+01,-1.461719703674316406e+01,-1.052437515258789062e+02,-1.182510910034179688e+02,6.394910812377929688e+01,-3.734339904785156250e+01
4.565269947052001953e-01,2.000000000000000000e+00,3.752250671386718750e+01,9.460076332092285156e+00,3.517647171020507812e+01,-1.125982208251953125e+02,9.097939300537109375e+01,-6.570312500000000000e+01,4.826146316528320312e+01,-1.461719703674316406e+01,-1.052437515258789062e+02,-1.182510910034179688e+02,6.394910812377929688e+01,-3.734339904785156250e+01
4.608780145645141602e-01,2.000000000000000000e+00,3.752250671386718750e+01,9.460076332092285156e+00,3.517647171020507812e+01,-1.125982208251953125e+02,9.097939300537109375e+01,-6.570312500000000000e+01,4.818807601928710938e+01,-1.460808753967285156e+01,-1.052588653564453125e+02,-1.183053817749023438e+02,6.394532394409179688e+01,-3.737844467163085938e+01
4.636740088462829590e-01,2.000000000000000000e+00,3.758026504516601562e+01,9.364397048950195312e+00,3.516516876220703125e+01,-1.127060470581054688e+02,9.098509979248046875e+01,-6.575486755371093750e+01,4.811556625366210938e+01,-1.459893226623535156e+01,-1.052736587524414062e+02,-1.183600234985351562e+02,6.394117355346679688e+01,-3.741293716430664062e+01
4.690229892730712891e-01,2.000000000000000000e+00,3.758026504516601562e+01,9.364397048950195312e+00,3.516516876220703125e+01,-1.127060470581054688e+02,9.098509979248046875e+01,-6.575486755371093750e+01,4.811556625366210938e+01,-1.459893226623535156e+01,-1.052736587524414062e+02,-1.183600234985351562e+02,6.394117355346679688e+01,-3.741293716430664062e+01
4.725419878959655762e-01,2.000000000000000000e+00,3.763830947875976562e+01,9.268581390380859375e+00,3.515419006347656250e+01,-1.128135528564453125e+02,9.099053955078125000e+01,-6.580458068847656250e+01,4.797071075439453125e+01,-1.458039283752441406e+01,-1.053034133911132812e+02,-1.184688796997070312e+02,6.393235397338867188e+01,-3.748479080200195312e+01
4.769070148468017578e-01,2.000000000000000000e+00,3.763830947875976562e+01,9.268581390380859375e+00,3.515419006347656250e+01,-1.128135528564453125e+02,9.099053955078125000e+01,-6.580458068847656250e+01,4.797071075439453125e+01,-1.458039283752441406e+01,-1.053034133911132812e+02,-1.184688796997070312e+02,6.393235397338867188e+01,-3.748479080200195312e+01
4.795340001583099365e-01,2.000000000000000000e+00,3.769635391235351562e+01,9.172631263732910156e+00,3.514307022094726562e+01,-1.129216918945312500e+02,9.099597167968750000e+01,-6.585414886474609375e+01,4.782404327392578125e+01,-1.456157970428466797e+01,-1.053335952758789062e+02,-1.185768127441406250e+02,6.392302322387695312e+01,-3.755554199218750000e+01
4.839549958705902100e-01,2.000000000000000000e+00,3.769635391235351562e+01,9.172631263732910156e+00,3.514307022094726562e+01,-1.129216918945312500e+02,9.099597167968750000e+01,-6.585414886474609375e+01,4.782404327392578125e+01,-1.456157970428466797e+01,-1.053335952758789062e+02,-1.185768127441406250e+02,6.392302322387695312e+01,-3.755554199218750000e+01
4.879400134086608887e-01,2.000000000000000000e+00,3.772523498535156250e+01,9.124746322631835938e+00,3.513749694824218750e+01,-1.129757385253906250e+02,9.099880218505859375e+01,-6.587944793701171875e+01,4.775219345092773438e+01,-1.455237770080566406e+01,-1.053483352661132812e+02,-1.186303024291992188e+02,6.391749191284179688e+01,-3.759048080444335938e+01
4.919129908084869385e-01,2.000000000000000000e+00,3.775423049926757812e+01,9.076725006103515625e+00,3.513192367553710938e+01,-1.130294647216796875e+02,9.100141143798828125e+01,-6.590508270263671875e+01,4.767973709106445312e+01,-1.454335975646972656e+01,-1.053628540039062500e+02,-1.186845245361328125e+02,6.391253280639648438e+01,-3.762233734130859375e+01
4.961319863796234131e-01,2.000000000000000000e+00,3.778319168090820312e+01,9.028749465942382812e+00,3.512641525268554688e+01,-1.130832443237304688e+02,9.100412750244140625e+01,-6.593106079101562500e+01,4.760689544677734375e+01,-1.453425025939941406e+01,-1.053777542114257812e+02,-1.187383728027343750e+02,6.390852355957031250e+01,-3.765343093872070312e+01
4.992890059947967529e-01,2.000000000000000000e+00,3.781235885620117188e+01,8.980933189392089844e+00,3.512094497680664062e+01,-1.131378631591796875e+02,9.100669097900390625e+01,-6.595669555664062500e+01,4.753334426879882812e+01,-1.452505016326904297e+01,-1.053927688598632812e+02,-1.187921524047851562e+02,6.390415191650390625e+01,-3.768221664428710938e+01
5.032299757003784180e-01,2.000000000000000000e+00,3.784138107299804688e+01,8.933002471923828125e+00,3.511531448364257812e+01,-1.131915435791015625e+02,9.100967407226562500e+01,-6.598151397705078125e+01,4.746039581298828125e+01,-1.451557254791259766e+01,-1.054074554443359375e+02,-1.188467941284179688e+02,6.389920043945312500e+01,-3.771055984497070312e+01
5.072640180587768555e-01,2.000000000000000000e+00,3.787017440795898438e+01,8.885162353515625000e+00,3.510972213745117188e+01,-1.132454223632812500e+02,9.101250457763671875e+01,-6.600572967529296875e+01,4.738843536376953125e+01,-1.450619029998779297e+01,-1.054223022460937500e+02,-1.189005737304687500e+02,6.389446640014648438e+01,-3.773857498168945312e+01
5.113819837570190430e-01,2.000000000000000000e+00,3.789896774291992188e+01,8.837368011474609375e+00,3.510433578491210938e+01,-1.132998428344726562e+02,9.101522064208984375e+01,-6.603075408935546875e+01,4.731608963012695312e+01,-1.449707984924316406e+01,-1.054374237060546875e+02,-1.189541549682617188e+02,6.389038085937500000e+01,-3.776593017578125000e+01
5.159050226211547852e-01,2.000000000000000000e+00,3.792761611938476562e+01,8.789777755737304688e+00,3.509900665283203125e+01,-1.133530883789062500e+02,9.101767730712890625e+01,-6.605583953857421875e+01,4.724319458007812500e+01,-1.448806095123291016e+01,-1.054523239135742188e+02,-1.190077133178710938e+02,6.388637161254882812e+01,-3.779251480102539062e+01
5.236499905586242676e-01,2.000000000000000000e+00,3.801413726806640625e+01,8.646326065063476562e+00,3.508259963989257812e+01,-1.135153274536132812e+02,9.102631378173828125e+01,-6.613274383544921875e+01,4.702451324462890625e+01,-1.445977210998535156e+01,-1.054968185424804688e+02,-1.191682815551757812e+02,6.387333297729492188e+01,-3.786986160278320312e+01
5.250809788703918457e-01,2.000000000000000000e+00,3.801413726806640625e+01,8.646326065063476562e+00,3.508259963989257812e+01,-1.135153274536132812e+02,9.102631378173828125e+01,-6.613274383544921875e+01,4.702451324462890625e+01,-1.445977210998535156e+01,-1.054968185424804688e+02,-1.191682815551757812e+02,6.387333297729492188e+01,-3.786986160278320312e+01
5.279570221900939941e-01,2.000000000000000000e+00,3.801413726806640625e+01,8.646326065063476562e+00,3.508259963989257812e+01,-1.135153274536132812e+02,9.102631378173828125e+01,-6.613274383544921875e+01,4.695260620117187500e+01,-1.445075416564941406e+01,-1.055120468139648438e+02,-1.192219924926757812e+02,6.386882019042968750e+01,-3.789458084106445312e+01
5.319259762763977051e-01,2.000000000000000000e+00,3.804287338256835938e+01,8.598600387573242188e+00,3.507707214355468750e+01,-1.135694198608398438e+02,9.102877044677734375e+01,-6.615756988525390625e+01,4.695260620117187500e+01,-1.445075416564941406e+01,-1.055120468139648438e+02,-1.192219924926757812e+02,6.386882019042968750e+01,-3.789458084106445312e+01
5.359129905700683594e-01,2.000000000000000000e+00,3.807169723510742188e+01,8.550918579101562500e+00,3.507155990600585938e+01,-1.136231536865234375e+02,9.103175354003906250e+01,-6.618190765380859375e+01,4.687987899780273438e+01,-1.444182682037353516e+01,-1.055270538330078125e+02,-1.192760620117187500e+02,6.386429977416992188e+01,-3.791952133178710938e+01
5.400140285491943359e-01,2.000000000000000000e+00,3.810071945190429688e+01,8.503214836120605469e+00,3.506599044799804688e+01,-1.136768264770507812e+02,9.103456878662109375e+01,-6.620673370361328125e+01,4.680643463134765625e+01,-1.443290042877197266e+01,-1.055417404174804688e+02,-1.193300552368164062e+02,6.386022186279296875e+01,-3.794390869140625000e+01
5.445230007171630859e-01,2.000000000000000000e+00,3.812960052490234375e+01,8.455488204956054688e+00,3.506031799316406250e+01,-1.137311859130859375e+02,9.103739929199218750e+01,-6.623148345947265625e+01,4.673315429687500000e+01,-1.442379188537597656e+01,-1.055569686889648438e+02,-1.193834686279296875e+02,6.385599136352539062e+01,-3.796961593627929688e+01
5.498759746551513672e-01,2.000000000000000000e+00,3.815847778320312500e+01,8.407830238342285156e+00,3.505464553833007812e+01,-1.137845993041992188e+02,9.104038238525390625e+01,-6.625711822509765625e+01,4.666091918945312500e+01,-1.441472816467285156e+01,-1.055725173950195312e+02,-1.194372634887695312e+02,6.385184097290039062e+01,-3.799686050415039062e+01
5.524389743804931641e-01,2.000000000000000000e+00,3.821580505371093750e+01,8.312060356140136719e+00,3.504370498657226562e+01,-1.138924789428710938e+02,9.104614257812500000e+01,-6.630846405029296875e+01,4.651672363281250000e+01,-1.439701271057128906e+01,-1.056027679443359375e+02,-1.195446777343750000e+02,6.384411621093750000e+01,-3.805563735961914062e+01
5.556370019912719727e-01,2.000000000000000000e+00,3.821580505371093750e+01,8.312060356140136719e+00,3.504370498657226562e+01,-1.138924789428710938e+02,9.104614257812500000e+01,-6.630846405029296875e+01,4.651672363281250000e+01,-1.439701271057128906e+01,-1.056027679443359375e+02,-1.195446777343750000e+02,6.384411621093750000e+01,-3.805563735961914062e+01
5.600200295448303223e-01,2.000000000000000000e+00,3.824471282958984375e+01,8.264084815979003906e+00,3.503827667236328125e+01,-1.139460449218750000e+02,9.104924011230468750e+01,-6.633382415771484375e+01,4.644355392456054688e+01,-1.438813209533691406e+01,-1.056178817749023438e+02,-1.195982513427734375e+02,6.384061813354492188e+01,-3.808629226684570312e+01
5.637840032577514648e-01,2.000000000000000000e+00,3.827373504638671875e+01,8.216267585754394531e+00,3.503276824951171875e+01,-1.140005111694335938e+02,9.105206298828125000e+01,-6.635830688476562500e+01,4.637033081054687500e+01,-1.437906837463378906e+01,-1.056328964233398438e+02,-1.196523208618164062e+02,6.383719635009765625e+01,-3.811771011352539062e+01
5.688160061836242676e-01,2.000000000000000000e+00,3.830255889892578125e+01,8.168654441833496094e+00,3.502709579467773438e+01,-1.140543899536132812e+02,9.105499267578125000e+01,-6.638285827636718750e+01,4.629825973510742188e+01,-1.436991214752197266e+01,-1.056481781005859375e+02,-1.197061691284179688e+02,6.383340454101562500e+01,-3.815132904052734375e+01
5.731139779090881348e-01,2.000000000000000000e+00,3.833118057250976562e+01,8.120882034301757812e+00,3.502150344848632812e+01,-1.141079635620117188e+02,9.105809020996093750e+01,-6.640808105468750000e+01,4.622640991210937500e+01,-1.436071205139160156e+01,-1.056633453369140625e+02,-1.197607421875000000e+02,6.382990646362304688e+01,-3.818582916259765625e+01
5.758950114250183105e-01,2.000000000000000000e+00,3.835993957519531250e+01,8.073155403137207031e+00,3.501601409912109375e+01,-1.141624298095703125e+02,9.106101989746093750e+01,-6.643331146240234375e+01,4.615390014648437500e+01,-1.435183143615722656e+01,-1.056786880493164062e+02,-1.198149642944335938e+02,6.382655334472656250e+01,-3.821999359130859375e+01
5.802670121192932129e-01,2.000000000000000000e+00,3.838864898681640625e+01,8.025180816650390625e+00,3.501054763793945312e+01,-1.142158966064453125e+02,9.106422424316406250e+01,-6.645880889892578125e+01,4.608062362670898438e+01,-1.434313488006591797e+01,-1.056935348510742188e+02,-1.198684539794921875e+02,6.382283782958984375e+01,-3.825416183471679688e+01
5.839599967002868652e-01,2.000000000000000000e+00,3.841744232177734375e+01,7.977205276489257812e+00,3.500493621826171875e+01,-1.142697296142578125e+02,9.106730651855468750e+01,-6.648458099365234375e+01,4.600794601440429688e+01,-1.433425331115722656e+01,-1.057085952758789062e+02,-1.199227447509765625e+02,6.381898117065429688e+01,-3.828942871093750000e+01
5.880230069160461426e-01,2.000000000000000000e+00,3.844631958007812500e+01,7.929432868957519531e+00,3.499930191040039062e+01,-1.143239822387695312e+02,9.107024383544921875e+01,-6.651041412353515625e+01,4.593631744384765625e+01,-1.432505130767822266e+01,-1.057237243652343750e+02,-1.199766693115234375e+02,6.381490325927734375e+01,-3.832502365112304688e+01
5.932379961013793945e-01,2.000000000000000000e+00,3.850367736816406250e+01,7.834048748016357422e+00,3.498854446411132812e+01,-1.144317550659179688e+02,9.107621765136718750e+01,-6.655951690673828125e+01,4.579195404052734375e+01,-1.430678653717041016e+01,-1.057535858154296875e+02,-1.200842361450195312e+02,6.380797576904296875e+01,-3.839522552490234375e+01
5.962330102920532227e-01,2.000000000000000000e+00,3.850367736816406250e+01,7.834048748016357422e+00,3.498854446411132812e+01,-1.144317550659179688e+02,9.107621765136718750e+01,-6.655951690673828125e+01,4.579195404052734375e+01,-1.430678653717041016e+01,-1.057535858154296875e+02,-1.200842361450195312e+02,6.380797576904296875e+01,-3.839522552490234375e+01
6.008970141410827637e-01,2.000000000000000000e+00,3.853252792358398438e+01,7.786186218261718750e+00,3.498317718505859375e+01,-1.144853744506835938e+02,9.107925415039062500e+01,-6.658467102050781250e+01,4.571867752075195312e+01,-1.429772281646728516e+01,-1.057683715820312500e+02,-1.201387405395507812e+02,6.380389785766601562e+01,-3.843093490600585938e+01
6.040310263633728027e-01,2.000000000000000000e+00,3.856134796142578125e+01,7.738391876220703125e+00,3.497764968872070312e+01,-1.145388412475585938e+02,9.108229827880859375e+01,-6.660983276367187500e+01,4.564600372314453125e+01,-1.428852272033691406e+01,-1.057834396362304688e+02,-1.201928787231445312e+02,6.379952621459960938e+01,-3.846553802490234375e+01
6.080750226974487305e-01,2.000000000000000000e+00,3.859040069580078125e+01,7.690529346466064453e+00,3.497203826904296875e+01,-1.145932540893554688e+02,9.108533477783203125e+01,-6.663513183593750000e+01,4.557393264770507812e+01,-1.427895545959472656e+01,-1.057982330322265625e+02,-1.202472305297851562e+02,6.379559326171875000e+01,-3.849948883056640625e+01
6.118779778480529785e-01,2.000000000000000000e+00,3.861930847167968750e+01,7.642892837524414062e+00,3.496650314331054688e+01,-1.146469268798828125e+02,9.108821105957031250e+01,-6.666117095947265625e+01,4.550202941894531250e+01,-1.426938819885253906e+01,-1.058132476806640625e+02,-1.203010101318359375e+02,6.379129028320312500e+01,-3.853354263305664062e+01
6.172459721565246582e-01,2.000000000000000000e+00,3.864795684814453125e+01,7.594963073730468750e+00,3.496099472045898438e+01,-1.147008132934570312e+02,9.109114837646484375e+01,-6.668687438964843750e+01,4.542907714843750000e+01,-1.426004981994628906e+01,-1.058279266357421875e+02,-1.203546524047851562e+02,6.378670120239257812e+01,-3.856617355346679688e+01
6.201030015945434570e-01,2.000000000000000000e+00,3.867675018310546875e+01,7.547123432159423828e+00,3.495558547973632812e+01,-1.147544860839843750e+02,9.109402465820312500e+01,-6.671210479736328125e+01,4.535580062866210938e+01,-1.425093936920166016e+01,-1.058427200317382812e+02,-1.204083023071289062e+02,6.378225326538085938e+01,-3.859627532958984375e+01
6.252269744873046875e-01,2.000000000000000000e+00,3.870554351806640625e+01,7.499374389648437500e+00,3.494997406005859375e+01,-1.148079528808593750e+02,9.109700775146484375e+01,-6.673685455322265625e+01,4.528279495239257812e+01,-1.424164676666259766e+01,-1.058573532104492188e+02,-1.204617080688476562e+02,6.377759552001953125e+01,-3.862495422363281250e+01
6.268609762191772461e-01,2.000000000000000000e+00,3.873436355590820312e+01,7.451693058013916016e+00,3.494424057006835938e+01,-1.148624725341796875e+02,9.109962463378906250e+01,-6.676174926757812500e+01,4.521089172363281250e+01,-1.423249244689941406e+01,-1.058721466064453125e+02,-1.205154266357421875e+02,6.377293014526367188e+01,-3.865428543090820312e+01
6.321759819984436035e-01,2.000000000000000000e+00,3.876327514648437500e+01,7.404057502746582031e+00,3.493865203857421875e+01,-1.149162521362304688e+02,9.110250091552734375e+01,-6.678656768798828125e+01,4.513898086547851562e+01,-1.422306251525878906e+01,-1.058868331909179688e+02,-1.205694885253906250e+02,6.376826477050781250e+01,-3.868252182006835938e+01
6.369469761848449707e-01,2.000000000000000000e+00,3.879209518432617188e+01,7.356375694274902344e+00,3.493332290649414062e+01,-1.149701309204101562e+02,9.110537719726562500e+01,-6.681213378906250000e+01,4.506603622436523438e+01,-1.421367835998535156e+01,-1.059017868041992188e+02,-1.206232070922851562e+02,6.376375198364257812e+01,-3.871075439453125000e+01
6.413459777832031250e-01,2.000000000000000000e+00,3.882068634033203125e+01,7.308762550354003906e+00,3.492793655395507812e+01,-1.150242233276367188e+02,9.110820770263671875e+01,-6.683790588378906250e+01,4.499248123168945312e+01,-1.420456886291503906e+01,-1.059167938232421875e+02,-1.206769180297851562e+02,6.375857543945312500e+01,-3.873788833618164062e+01
6.428580284118652344e-01,2.000000000000000000e+00,3.884936523437500000e+01,7.261149406433105469e+00,3.492246627807617188e+01,-1.150775833129882812e+02,9.111092376708984375e+01,-6.686373901367187500e+01,4.491914749145507812e+01,-1.419550514221191406e+01,-1.059320831298828125e+02,-1.207309875488281250e+02,6.375332641601562500e+01,-3.876590728759765625e+01
6.469190120697021484e-01,2.000000000000000000e+00,3.887804031372070312e+01,7.213536262512207031e+00,3.491689682006835938e+01,-1.151316375732421875e+02,9.111364746093750000e+01,-6.688910675048828125e+01,4.484724044799804688e+01,-1.418625736236572266e+01,-1.059468231201171875e+02,-1.207844772338867188e+02,6.374917602539062500e+01,-3.879337310791015625e+01
6.508989930152893066e-01,2.000000000000000000e+00,3.890683364868164062e+01,7.165741920471191406e+00,3.491130828857421875e+01,-1.151857299804687500e+02,9.111636352539062500e+01,-6.691345214843750000e+01,4.477555465698242188e+01,-1.417687416076660156e+01,-1.059616088867187500e+02,-1.208382720947265625e+02,6.374488067626953125e+01,-3.882006835937500000e+01
6.549460291862487793e-01,2.000000000000000000e+00,3.893577194213867188e+01,7.118037700653076172e+00,3.490585708618164062e+01,-1.152390899658203125e+02,9.111907958984375000e+01,-6.693799591064453125e+01,4.470266342163085938e+01,-1.416762638092041016e+01,-1.059768981933593750e+02,-1.208919754028320312e+02,6.374072647094726562e+01,-3.884445953369140625e+01
6.591050028800964355e-01,2.000000000000000000e+00,3.896453475952148438e+01,7.070469856262207031e+00,3.490042877197265625e+01,-1.152931823730468750e+02,9.112191009521484375e+01,-6.696302795410156250e+01,4.462932586669921875e+01,-1.415838050842285156e+01,-1.059920730590820312e+02,-1.209444732666015625e+02,6.373642349243164062e+01,-3.887082672119140625e+01
6.628649830818176270e-01,2.000000000000000000e+00,3.899327087402343750e+01,7.022810935974121094e+00,3.489485549926757812e+01,-1.153467025756835938e+02,9.112446594238281250e+01,-6.698839569091796875e+01,4.455654525756835938e+01,-1.414936161041259766e+01,-1.060072402954101562e+02,-1.209982528686523438e+02,6.373256301879882812e+01,-3.889686203002929688e+01
6.668620109558105469e-01,2.000000000000000000e+00,3.902209472656250000e+01,6.975152492523193359e+00,3.488924407958984375e+01,-1.154002685546875000e+02,9.112718200683593750e+01,-6.701395416259765625e+01,4.448485946655273438e+01,-1.414034461975097656e+01,-1.060225830078125000e+02,-1.210529708862304688e+02,6.372863006591796875e+01,-3.892377853393554688e+01
6.709139943122863770e-01,2.000000000000000000e+00,3.905097198486328125e+01,6.927674770355224609e+00,3.488377761840820312e+01,-1.154543075561523438e+02,9.112985229492187500e+01,-6.703938293457031250e+01,4.441295242309570312e+01,-1.413141822814941406e+01,-1.060378036499023438e+02,-1.211066055297851562e+02,6.372483825683593750e+01,-3.895212554931640625e+01
6.751070022583007812e-01,2.000000000000000000e+00,3.907976531982421875e+01,6.879812240600585938e+00,3.487841033935546875e+01,-1.155076675415039062e+02,9.113262939453125000e+01,-6.706529235839843750e+01,4.434022140502929688e+01,-1.412235450744628906e+01,-1.060530395507812500e+02,-1.211609573364257812e+02,6.372083663940429688e+01,-3.898211669921875000e+01
6.806809902191162109e-01,2.000000000000000000e+00,3.910852813720703125e+01,6.831927299499511719e+00,3.487322616577148438e+01,-1.155618133544921875e+02,9.113529205322265625e+01,-6.708978271484375000e+01,4.426732635498046875e+01,-1.411338233947753906e+01,-1.060681610107421875e+02,-1.212150421142578125e+02,6.371733856201171875e+01,-3.901255035400390625e+01
6.846209764480590820e-01,2.000000000000000000e+00,3.913718032836914062e+01,6.784133434295654297e+00,3.486779403686523438e+01,-1.156155014038085938e+02,9.113784790039062500e+01,-6.711432647705078125e+01,4.419514846801757812e+01,-1.410450172424316406e+01,-1.060833282470703125e+02,-1.212683868408203125e+02,6.371376800537109375e+01,-3.904386138916015625e+01
6.896420121192932129e-01,2.000000000000000000e+00,3.916577148437500000e+01,6.736338615417480469e+00,3.486216354370117188e+01,-1.156685333251953125e+02,9.114062500000000000e+01,-6.713901519775390625e+01,4.412373733520507812e+01,-1.409548377990722656e+01,-1.060985031127929688e+02,-1.213226013183593750e+02,6.371055603027343750e+01,-3.907517242431640625e+01
6.929370164871215820e-01,2.000000000000000000e+00,3.919445037841796875e+01,6.688883781433105469e+00,3.485653305053710938e+01,-1.157227935791015625e+02,9.114328765869140625e+01,-6.716410827636718750e+01,4.405188751220703125e+01,-1.408664894104003906e+01,-1.061136322021484375e+02,-1.213767395019531250e+02,6.370749664306640625e+01,-3.910681152343750000e+01
6.968089938163757324e-01,2.000000000000000000e+00,3.922312545776367188e+01,6.641180038452148438e+00,3.485103988647460938e+01,-1.157766265869140625e+02,9.114589691162109375e+01,-6.718960571289062500e+01,4.397932052612304688e+01,-1.407763004302978516e+01,-1.061288528442382812e+02,-1.214303817749023438e+02,6.370436859130859375e+01,-3.913889312744140625e+01
7.012950181961059570e-01,2.000000000000000000e+00,3.925180816650390625e+01,6.593476295471191406e+00,3.484559249877929688e+01,-1.158301849365234375e+02,9.114851379394531250e+01,-6.721517181396484375e+01,4.390631866455078125e+01,-1.406829166412353516e+01,-1.061438674926757812e+02,-1.214846038818359375e+02,6.370093917846679688e+01,-3.917229080200195312e+01
7.028530240058898926e-01,2.000000000000000000e+00,3.928031158447265625e+01,6.545839786529541016e+00,3.484002304077148438e+01,-1.158844985961914062e+02,9.115117645263671875e+01,-6.724093627929687500e+01,4.383435821533203125e+01,-1.405922794342041016e+01,-1.061592559814453125e+02,-1.215394592285156250e+02,6.369672012329101562e+01,-3.920535659790039062e+01
7.069180011749267578e-01,2.000000000000000000e+00,3.930901718139648438e+01,6.498023033142089844e+00,3.483439254760742188e+01,-1.159378585815429688e+02,9.115379333496093750e+01,-6.726555633544921875e+01,4.376261901855468750e+01,-1.405043983459472656e+01,-1.061745986938476562e+02,-1.215933761596679688e+02,6.369234848022460938e+01,-3.924029541015625000e+01
7.139319777488708496e-01,2.000000000000000000e+00,3.933775329589843750e+01,6.450273990631103516e+00,3.482881927490234375e+01,-1.159914321899414062e+02,9.115650939941406250e+01,-6.728956604003906250e+01,4.369049072265625000e+01,-1.404165077209472656e+01,-1.061895523071289062e+02,-1.216479492187500000e+02,6.368870162963867188e+01,-3.927511978149414062e+01
7.170280218124389648e-01,2.000000000000000000e+00,3.936663055419921875e+01,6.402773857116699219e+00,3.482335281372070312e+01,-1.160455856323242188e+02,9.115911865234375000e+01,-6.731479644775390625e+01,4.361781692504882812e+01,-1.403254127502441406e+01,-1.062046127319335938e+02,-1.217016677856445312e+02,6.368505859375000000e+01,-3.930884933471679688e+01
7.188540101051330566e-01,2.000000000000000000e+00,3.939533996582031250e+01,6.355047225952148438e+00,3.481796264648437500e+01,-1.160991439819335938e+02,9.116168212890625000e+01,-6.733968353271484375e+01,4.354503250122070312e+01,-1.402347755432128906e+01,-1.062193527221679688e+02,-1.217550888061523438e+02,6.368061447143554688e+01,-3.934280014038085938e+01
7.228530049324035645e-01,2.000000000000000000e+00,3.942398834228515625e+01,6.307478904724121094e+00,3.481255340576171875e+01,-1.161529846191406250e+02,9.116439819335937500e+01,-6.736484527587890625e+01,4.347257614135742188e+01,-1.401418495178222656e+01,-1.062342605590820312e+02,-1.218091583251953125e+02,6.367616653442382812e+01,-3.937652587890625000e+01
7.290570139884948730e-01,2.000000000000000000e+00,3.945292663574218750e+01,6.259752750396728516e+00,3.480694198608398438e+01,-1.162065048217773438e+02,9.116700744628906250e+01,-6.739041137695312500e+01,4.340056228637695312e+01,-1.400493717193603516e+01,-1.062491073608398438e+02,-1.218625869750976562e+02,6.367194747924804688e+01,-3.941003417968750000e+01
7.309269905090332031e-01,2.000000000000000000e+00,3.948177719116210938e+01,6.211890220642089844e+00,3.480141067504882812e+01,-1.162596969604492188e+02,9.116967773437500000e+01,-6.741638946533203125e+01,4.332854843139648438e+01,-1.399578285217285156e+01,-1.062639007568359375e+02,-1.219160766601562500e+02,6.366757583618164062e+01,-3.944189453125000000e+01
7.350249886512756348e-01,2.000000000000000000e+00,3.951062774658203125e+01,6.164322376251220703e+00,3.479594039916992188e+01,-1.163137893676757812e+02,9.117260742187500000e+01,-6.744181823730468750e+01,4.325559997558593750e+01,-1.398644447326660156e+01,-1.062787475585937500e+02,-1.219702987670898438e+02,6.366291046142578125e+01,-3.947375488281250000e+01
7.388859987258911133e-01,2.000000000000000000e+00,3.953947830200195312e+01,6.116528034210205078e+00,3.479049301147460938e+01,-1.163674240112304688e+02,9.117527770996093750e+01,-6.746622467041015625e+01,4.318204498291015625e+01,-1.397706031799316406e+01,-1.062935943603515625e+02,-1.220240097045898438e+02,6.365802764892578125e+01,-3.950528717041015625e+01
7.429019808769226074e-01,2.000000000000000000e+00,3.956815338134765625e+01,6.068778991699218750e+00,3.478504562377929688e+01,-1.164213027954101562e+02,9.117783355712890625e+01,-6.749078369140625000e+01,4.310931396484375000e+01,-1.396758460998535156e+01,-1.063083343505859375e+02,-1.220774993896484375e+02,6.365336227416992188e+01,-3.953582763671875000e+01
7.478510141372680664e-01,2.000000000000000000e+00,3.959686279296875000e+01,6.021187782287597656e+00,3.477949523925781250e+01,-1.164747695922851562e+02,9.118061065673828125e+01,-6.751580047607421875e+01,4.303730010986328125e+01,-1.395820045471191406e+01,-1.063232345581054688e+02,-1.221318588256835938e+02,6.364920806884765625e+01,-3.956461334228515625e+01
7.516670227050781250e-01,2.000000000000000000e+00,3.962556838989257812e+01,5.973529338836669922e+00,3.477398681640625000e+01,-1.165280151367187500e+02,9.118349456787109375e+01,-6.754096221923828125e+01,4.296550369262695312e+01,-1.394909095764160156e+01,-1.063378677368164062e+02,-1.221855697631835938e+02,6.364455032348632812e+01,-3.959394454956054688e+01
7.558799982070922852e-01,2.000000000000000000e+00,3.965430450439453125e+01,5.925938606262207031e+00,3.476876068115234375e+01,-1.165822219848632812e+02,9.118625640869140625e+01,-6.756632995605468750e+01,4.289271926879882812e+01,-1.393988990783691406e+01,-1.063524932861328125e+02,-1.222387771606445312e+02,6.364032363891601562e+01,-3.962284088134765625e+01
7.599179744720458984e-01,2.000000000000000000e+00,3.968312454223632812e+01,5.878325462341308594e+00,3.476349639892578125e+01,-1.166358489990234375e+02,9.118924713134765625e+01,-6.759216308593750000e+01,4.281949615478515625e+01,-1.393059730529785156e+01,-1.063672332763671875e+02,-1.222924041748046875e+02,6.363674926757812500e+01,-3.964953613281250000e+01
7.635949850082397461e-01,2.000000000000000000e+00,3.971208953857421875e+01,5.830802440643310547e+00,3.475808334350585938e+01,-1.166897277832031250e+02,9.119207000732421875e+01,-6.761772918701171875e+01,4.274660110473632812e+01,-1.392130470275878906e+01,-1.063819732666015625e+02,-1.223459854125976562e+02,6.363237762451171875e+01,-3.967843246459960938e+01
7.678419947624206543e-01,2.000000000000000000e+00,3.974068069458007812e+01,5.783324718475341797e+00,3.475261688232421875e+01,-1.167437286376953125e+02,9.119495391845703125e+01,-6.764248657226562500e+01,4.267480850219726562e+01,-1.391182804107666016e+01,-1.063973159790039062e+02,-1.223996124267578125e+02,6.362749481201171875e+01,-3.970644378662109375e+01
7.708539962768554688e-01,2.000000000000000000e+00,3.976935958862304688e+01,5.735689163208007812e+00,3.474714660644531250e+01,-1.167967147827148438e+02,9.119788360595703125e+01,-6.766696166992187500e+01,4.260289764404296875e+01,-1.390267372131347656e+01,-1.064123840332031250e+02,-1.224535446166992188e+02,6.362319946289062500e+01,-3.973588943481445312e+01
7.774419784545898438e-01,2.000000000000000000e+00,3.976935958862304688e+01,5.735689163208007812e+00,3.474714660644531250e+01,-1.167967147827148438e+02,9.119788360595703125e+01,-6.766696166992187500e+01,4.260289764404296875e+01,-1.390267372131347656e+01,-1.064123840332031250e+02,-1.224535446166992188e+02,6.362319946289062500e+01,-3.973588943481445312e+01
7.798510193824768066e-01,2.000000000000000000e+00,3.982691955566406250e+01,5.640371799468994141e+00,3.473618698120117188e+01,-1.169050140380859375e+02,9.120364379882812500e+01,-6.771701812744140625e+01,4.245727539062500000e+01,-1.388454627990722656e+01,-1.064422378540039062e+02,-1.225603179931640625e+02,6.361453247070312500e+01,-3.979103851318359375e+01
7.828530073165893555e-01,2.000000000000000000e+00,3.985559463500976562e+01,5.592939376831054688e+00,3.473061752319335938e+01,-1.169583129882812500e+02,9.120652008056640625e+01,-6.774237823486328125e+01,4.238515090942382812e+01,-1.387529850006103516e+01,-1.064572525024414062e+02,-1.226138916015625000e+02,6.361000823974609375e+01,-3.981883621215820312e+01
7.878999710083007812e-01,2.000000000000000000e+00,3.985559463500976562e+01,5.592939376831054688e+00,3.473061752319335938e+01,-1.169583129882812500e+02,9.120652008056640625e+01,-6.774237823486328125e+01,4.238515090942382812e+01,-1.387529850006103516e+01,-1.064572525024414062e+02,-1.226138916015625000e+02,6.361000823974609375e+01,-3.981883621215820312e+01
7.908669710159301758e-01,2.000000000000000000e+00,3.991306686401367188e+01,5.497735500335693359e+00,3.471937561035156250e+01,-1.170653991699218750e+02,9.121269989013671875e+01,-6.779398345947265625e+01,4.224238586425781250e+01,-1.385671424865722656e+01,-1.064875411987304688e+02,-1.227212371826171875e+02,6.360140991210937500e+01,-3.987629318237304688e+01
7.959150075912475586e-01,2.000000000000000000e+00,3.991306686401367188e+01,5.497735500335693359e+00,3.471937561035156250e+01,-1.170653991699218750e+02,9.121269989013671875e+01,-6.779398345947265625e+01,4.224238586425781250e+01,-1.385671424865722656e+01,-1.064875411987304688e+02,-1.227212371826171875e+02,6.360140991210937500e+01,-3.987629318237304688e+01
7.988499999046325684e-01,2.000000000000000000e+00,3.997062301635742188e+01,5.402553558349609375e+00,3.470861816406250000e+01,-1.171731109619140625e+02,9.121878051757812500e+01,-6.784383392333984375e+01,4.209708786010742188e+01,-1.383913612365722656e+01,-1.065177841186523438e+02,-1.228280181884765625e+02,6.359397888183593750e+01,-3.993539810180664062e+01
8.039159774780273438e-01,2.000000000000000000e+00,3.999947357177734375e+01,5.354849815368652344e+00,3.470315170288085938e+01,-1.172262115478515625e+02,9.122161102294921875e+01,-6.786837768554687500e+01,4.202496337890625000e+01,-1.383039188385009766e+01,-1.065327911376953125e+02,-1.228819351196289062e+02,6.359041595458984375e+01,-3.996693038940429688e+01
8.069459795951843262e-01,2.000000000000000000e+00,4.002803802490234375e+01,5.307123661041259766e+00,3.469753646850585938e+01,-1.172800979614257812e+02,9.122454071044921875e+01,-6.789334106445312500e+01,4.195322418212890625e+01,-1.382128334045410156e+01,-1.065479125976562500e+02,-1.229366607666015625e+02,6.358691024780273438e+01,-3.999868011474609375e+01
8.118910193443298340e-01,2.000000000000000000e+00,4.002803802490234375e+01,5.307123661041259766e+00,3.469753646850585938e+01,-1.172800979614257812e+02,9.122454071044921875e+01,-6.789334106445312500e+01,4.195322418212890625e+01,-1.382128334045410156e+01,-1.065479125976562500e+02,-1.229366607666015625e+02,6.358691024780273438e+01,-3.999868011474609375e+01
8.148750066757202148e-01,2.000000000000000000e+00,4.008510589599609375e+01,5.212100505828857422e+00,3.468651962280273438e+01,-1.173868713378906250e+02,9.123040771484375000e+01,-6.794440460205078125e+01,4.180902862548828125e+01,-1.380365848541259766e+01,-1.065785293579101562e+02,-1.230440826416015625e+02,6.357962799072265625e+01,-4.006207275390625000e+01
8.199070096015930176e-01,2.000000000000000000e+00,4.011367034912109375e+01,5.164577484130859375e+00,3.468108749389648438e+01,-1.174410705566406250e+02,9.123344421386718750e+01,-6.797010803222656250e+01,4.173624420166015625e+01,-1.379477882385253906e+01,-1.065934371948242188e+02,-1.230981521606445312e+02,6.357561874389648438e+01,-4.009371185302734375e+01
8.229280114173889160e-01,2.000000000000000000e+00,4.014252090454101562e+01,5.116851329803466797e+00,3.467560195922851562e+01,-1.174949111938476562e+02,9.123622131347656250e+01,-6.799526214599609375e+01,4.166395187377929688e+01,-1.378575992584228516e+01,-1.066085052490234375e+02,-1.231514968872070312e+02,6.357176208496093750e+01,-4.012546157836914062e+01
8.279389739036560059e-01,2.000000000000000000e+00,4.014252090454101562e+01,5.116851329803466797e+00,3.467560195922851562e+01,-1.174949111938476562e+02,9.123622131347656250e+01,-6.799526214599609375e+01,4.166395187377929688e+01,-1.378575992584228516e+01,-1.066085052490234375e+02,-1.231514968872070312e+02,6.357176208496093750e+01,-4.012546157836914062e+01
8.308539986610412598e-01,2.000000000000000000e+00,4.019973373413085938e+01,5.021692276000976562e+00,3.466458129882812500e+01,-1.176024169921875000e+02,9.124208068847656250e+01,-6.804422760009765625e+01,4.152074813842773438e+01,-1.376745033264160156e+01,-1.066387405395507812e+02,-1.232591400146484375e+02,6.356447219848632812e+01,-4.018995285034179688e+01
8.359040021896362305e-01,2.000000000000000000e+00,4.019973373413085938e+01,5.021692276000976562e+00,3.466458129882812500e+01,-1.176024169921875000e+02,9.124208068847656250e+01,-6.804422760009765625e+01,4.152074813842773438e+01,-1.376745033264160156e+01,-1.066387405395507812e+02,-1.232591400146484375e+02,6.356447219848632812e+01,-4.018995285034179688e+01
8.388530015945434570e-01,2.000000000000000000e+00,4.025694274902343750e+01,4.926601409912109375e+00,3.465400695800781250e+01,-1.177090759277343750e+02,9.124762725830078125e+01,-6.809414672851562500e+01,4.137440872192382812e+01,-1.374978065490722656e+01,-1.066687011718750000e+02,-1.233658370971679688e+02,6.355645370483398438e+01,-4.025587081909179688e+01
8.439409732818603516e-01,2.000000000000000000e+00,4.025694274902343750e+01,4.926601409912109375e+00,3.465400695800781250e+01,-1.177090759277343750e+02,9.124762725830078125e+01,-6.809414672851562500e+01,4.137440872192382812e+01,-1.374978065490722656e+01,-1.066687011718750000e+02,-1.233658370971679688e+02,6.355645370483398438e+01,-4.025587081909179688e+01
8.469430208206176758e-01,2.000000000000000000e+00,4.031464385986328125e+01,4.831555843353271484e+00,3.464310836791992188e+01,-1.178169555664062500e+02,9.125328063964843750e+01,-6.814514160156250000e+01,4.123032379150390625e+01,-1.373211097717285156e+01,-1.066987304687500000e+02,-1.234734802246093750e+02,6.354749298095703125e+01,-4.031915283203125000e+01
8.520320057868957520e-01,2.000000000000000000e+00,4.031464385986328125e+01,4.831555843353271484e+00,3.464310836791992188e+01,-1.178169555664062500e+02,9.125328063964843750e+01,-6.814514160156250000e+01,4.123032379150390625e+01,-1.373211097717285156e+01,-1.066987304687500000e+02,-1.234734802246093750e+02,6.354749298095703125e+01,-4.031915283203125000e+01
8.548640012741088867e-01,2.000000000000000000e+00,4.037179946899414062e+01,4.736238479614257812e+00,3.463206863403320312e+01,-1.179242935180664062e+02,9.125881958007812500e+01,-6.819539642333984375e+01,4.108530426025390625e+01,-1.371380043029785156e+01,-1.067284317016601562e+02,-1.235811843872070312e+02,6.353932952880859375e+01,-4.037946701049804688e+01
8.598759770393371582e-01,2.000000000000000000e+00,4.037179946899414062e+01,4.736238479614257812e+00,3.463206863403320312e+01,-1.179242935180664062e+02,9.125881958007812500e+01,-6.819539642333984375e+01,4.108530426025390625e+01,-1.371380043029785156e+01,-1.067284317016601562e+02,-1.235811843872070312e+02,6.353932952880859375e+01,-4.037946701049804688e+01
8.628630042076110840e-01,2.000000000000000000e+00,4.042927169799804688e+01,4.641192913055419922e+00,3.462117004394531250e+01,-1.180313415527343750e+02,9.126426696777343750e+01,-6.824449157714843750e+01,4.093957138061523438e+01,-1.369576358795166016e+01,-1.067583923339843750e+02,-1.236875305175781250e+02,6.352942657470703125e+01,-4.043824386596679688e+01
8.679680228233337402e-01,2.000000000000000000e+00,4.042927169799804688e+01,4.641192913055419922e+00,3.462117004394531250e+01,-1.180313415527343750e+02,9.126426696777343750e+01,-6.824449157714843750e+01,4.093957138061523438e+01,-1.369576358795166016e+01,-1.067583923339843750e+02,-1.236875305175781250e+02,6.352942657470703125e+01,-4.043824386596679688e+01
8.710479736328125000e-01,2.000000000000000000e+00,4.048706054687500000e+01,4.546011447906494141e+00,3.460997009277343750e+01,-1.181389007568359375e+02,9.126959228515625000e+01,-6.829474639892578125e+01,4.079630661010742188e+01,-1.367704200744628906e+01,-1.067880325317382812e+02,-1.237942428588867188e+02,6.352031707763671875e+01,-4.049779129028320312e+01
8.749020099639892578e-01,2.000000000000000000e+00,4.048706054687500000e+01,4.546011447906494141e+00,3.460997009277343750e+01,-1.181389007568359375e+02,9.126959228515625000e+01,-6.829474639892578125e+01,4.079630661010742188e+01,-1.367704200744628906e+01,-1.067880325317382812e+02,-1.237942428588867188e+02,6.352031707763671875e+01,-4.049779129028320312e+01
8.788599967956542969e-01,2.000000000000000000e+00,4.054424285888671875e+01,4.450920581817626953e+00,3.459921264648437500e+01,-1.182451934814453125e+02,9.127497863769531250e+01,-6.834567260742187500e+01,4.065040969848632812e+01,-1.365863895416259766e+01,-1.068179550170898438e+02,-1.239007263183593750e+02,6.351077270507812500e+01,-4.055503082275390625e+01
8.839579820632934570e-01,2.000000000000000000e+00,4.054424285888671875e+01,4.450920581817626953e+00,3.459921264648437500e+01,-1.182451934814453125e+02,9.127497863769531250e+01,-6.834567260742187500e+01,4.065040969848632812e+01,-1.365863895416259766e+01,-1.068179550170898438e+02,-1.239007263183593750e+02,6.351077270507812500e+01,-4.055503082275390625e+01
8.889229893684387207e-01,2.000000000000000000e+00,4.060151290893554688e+01,4.355852127075195312e+00,3.458847808837890625e+01,-1.183533859252929688e+02,9.128031158447265625e+01,-6.839484405517578125e+01,4.050753402709960938e+01,-1.364023685455322266e+01,-1.068472595214843750e+02,-1.240080718994140625e+02,6.350159454345703125e+01,-4.061149978637695312e+01
8.924419879913330078e-01,2.000000000000000000e+00,4.063039016723632812e+01,4.308419704437255859e+00,3.458292770385742188e+01,-1.184068527221679688e+02,9.128308105468750000e+01,-6.841932678222656250e+01,4.043562698364257812e+01,-1.363117313385009766e+01,-1.068622207641601562e+02,-1.240618667602539062e+02,6.349780273437500000e+01,-4.063896179199218750e+01
8.958529829978942871e-01,2.000000000000000000e+00,4.065915679931640625e+01,4.261032581329345703e+00,3.457743835449218750e+01,-1.184607925415039062e+02,9.128569793701171875e+01,-6.844428253173828125e+01,4.036305999755859375e+01,-1.362188053131103516e+01,-1.068772277832031250e+02,-1.241149902343750000e+02,6.349372482299804688e+01,-4.066730880737304688e+01
8.998799920082092285e-01,2.000000000000000000e+00,4.065915679931640625e+01,4.261032581329345703e+00,3.457743835449218750e+01,-1.184607925415039062e+02,9.128569793701171875e+01,-6.844428253173828125e+01,4.036305999755859375e+01,-1.362188053131103516e+01,-1.068772277832031250e+02,-1.241149902343750000e+02,6.349372482299804688e+01,-4.066730880737304688e+01
9.036989808082580566e-01,2.000000000000000000e+00,4.071639633178710938e+01,4.165806293487548828e+00,3.456658172607421875e+01,-1.185675659179687500e+02,9.129102325439453125e+01,-6.849459838867187500e+01,4.021870040893554688e+01,-1.360366249084472656e+01,-1.069067611694335938e+02,-1.242227020263671875e+02,6.348657989501953125e+01,-4.072597503662109375e+01
9.079080224037170410e-01,2.000000000000000000e+00,4.071639633178710938e+01,4.165806293487548828e+00,3.456658172607421875e+01,-1.185675659179687500e+02,9.129102325439453125e+01,-6.849459838867187500e+01,4.021870040893554688e+01,-1.360366249084472656e+01,-1.069067611694335938e+02,-1.242227020263671875e+02,6.348657989501953125e+01,-4.072597503662109375e+01
9.128779768943786621e-01,2.000000000000000000e+00,4.074493408203125000e+01,4.118373870849609375e+00,3.456107330322265625e+01,-1.186216049194335938e+02,9.129374694824218750e+01,-6.852030944824218750e+01,4.014712524414062500e+01,-1.359459877014160156e+01,-1.069217224121093750e+02,-1.242760620117187500e+02,6.348242950439453125e+01,-4.075619125366210938e+01
9.163630008697509766e-01,2.000000000000000000e+00,4.080237579345703125e+01,4.023305416107177734e+00,3.455018997192382812e+01,-1.187288513183593750e+02,9.129896545410156250e+01,-6.857055664062500000e+01,4.000287628173828125e+01,-1.357642555236816406e+01,-1.069514694213867188e+02,-1.243836898803710938e+02,6.347572708129882812e+01,-4.081672286987304688e+01
9.198539853096008301e-01,2.000000000000000000e+00,4.083111190795898438e+01,3.975873231887817383e+00,3.454486846923828125e+01,-1.187821578979492188e+02,9.130168914794921875e+01,-6.859510803222656250e+01,3.993041992187500000e+01,-1.356717777252197266e+01,-1.069664230346679688e+02,-1.244371795654296875e+02,6.347186279296875000e+01,-4.084836196899414062e+01
9.239889979362487793e-01,2.000000000000000000e+00,4.083111190795898438e+01,3.975873231887817383e+00,3.454486846923828125e+01,-1.187821578979492188e+02,9.130168914794921875e+01,-6.859510803222656250e+01,3.993041992187500000e+01,-1.356717777252197266e+01,-1.069664230346679688e+02,-1.244371795654296875e+02,6.347186279296875000e+01,-4.084836196899414062e+01
9.280940294265747070e-01,2.000000000000000000e+00,4.085955810546875000e+01,3.928169488906860352e+00,3.453969955444335938e+01,-1.188351974487304688e+02,9.130440521240234375e+01,-6.861945343017578125e+01,3.985857009887695312e+01,-1.355793190002441406e+01,-1.069814376831054688e+02,-1.244910430908203125e+02,6.346749114990234375e+01,-4.087978744506835938e+01
9.318569898605346680e-01,2.000000000000000000e+00,4.088817977905273438e+01,3.880511045455932617e+00,3.453421020507812500e+01,-1.188891296386718750e+02,9.130702209472656250e+01,-6.864447784423828125e+01,3.978704833984375000e+01,-1.354905033111572266e+01,-1.069966049194335938e+02,-1.245447616577148438e+02,6.346326446533203125e+01,-4.091175460815429688e+01
9.358950257301330566e-01,2.000000000000000000e+00,4.091682815551757812e+01,3.832897186279296875e+00,3.452868270874023438e+01,-1.189424438476562500e+02,9.130979156494140625e+01,-6.866990661621093750e+01,3.971497726440429688e+01,-1.354017066955566406e+01,-1.070114593505859375e+02,-1.245986099243164062e+02,6.345948028564453125e+01,-4.094526290893554688e+01
9.400699734687805176e-01,2.000000000000000000e+00,4.094539260864257812e+01,3.785284042358398438e+00,3.452310943603515625e+01,-1.189961166381835938e+02,9.131240081787109375e+01,-6.869561004638671875e+01,3.964202880859375000e+01,-1.353101444244384766e+01,-1.070260314941406250e+02,-1.246525421142578125e+02,6.345554351806640625e+01,-4.097789382934570312e+01
9.430810213088989258e-01,2.000000000000000000e+00,4.097386932373046875e+01,3.737874507904052734e+00,3.451778030395507812e+01,-1.190499496459960938e+02,9.131523132324218750e+01,-6.872131347656250000e+01,3.956913375854492188e+01,-1.352195072174072266e+01,-1.070410461425781250e+02,-1.247057418823242188e+02,6.345095443725585938e+01,-4.101019287109375000e+01
9.469029903411865234e-01,2.000000000000000000e+00,4.100254821777343750e+01,3.690329074859619141e+00,3.451237487792968750e+01,-1.191028900146484375e+02,9.131816101074218750e+01,-6.874633789062500000e+01,3.949673461914062500e+01,-1.351302528381347656e+01,-1.070562210083007812e+02,-1.247588043212890625e+02,6.344665145874023438e+01,-4.104249572753906250e+01
9.530810117721557617e-01,2.000000000000000000e+00,4.103088378906250000e+01,3.642828464508056641e+00,3.450684738159179688e+01,-1.191563568115234375e+02,9.132077789306640625e+01,-6.877075195312500000e+01,3.942521667480468750e+01,-1.350409889221191406e+01,-1.070711822509765625e+02,-1.248128814697265625e+02,6.344315719604492188e+01,-4.107567214965820312e+01
9.557970166206359863e-01,2.000000000000000000e+00,4.108792114257812500e+01,3.547737836837768555e+00,3.449570465087890625e+01,-1.192636947631835938e+02,9.132632446289062500e+01,-6.882059478759765625e+01,3.928063201904296875e+01,-1.348592567443847656e+01,-1.071009826660156250e+02,-1.249205169677734375e+02,6.343550491333007812e+01,-4.113719558715820312e+01
9.598900079727172852e-01,2.000000000000000000e+00,4.108792114257812500e+01,3.547737836837768555e+00,3.449570465087890625e+01,-1.192636947631835938e+02,9.132632446289062500e+01,-6.882059478759765625e+01,3.928063201904296875e+01,-1.348592567443847656e+01,-1.071009826660156250e+02,-1.249205169677734375e+02,6.343550491333007812e+01,-4.113719558715820312e+01
9.639089703559875488e-01,2.000000000000000000e+00,4.111663055419921875e+01,3.500328063964843750e+00,3.449029541015625000e+01,-1.193177947998046875e+02,9.132925415039062500e+01,-6.884589385986328125e+01,3.920785140991210938e+01,-1.347686195373535156e+01,-1.071157760620117188e+02,-1.249745101928710938e+02,6.343083953857421875e+01,-4.116872787475585938e+01
9.678999781608581543e-01,2.000000000000000000e+00,4.114530563354492188e+01,3.452873229980468750e+00,3.448498535156250000e+01,-1.193710556030273438e+02,9.133208465576171875e+01,-6.887118530273437500e+01,3.913545227050781250e+01,-1.346752262115478516e+01,-1.071307907104492188e+02,-1.250279388427734375e+02,6.342646789550781250e+01,-4.120080566406250000e+01
9.718850255012512207e-01,2.000000000000000000e+00,4.117395401000976562e+01,3.405395507812500000e+00,3.447951889038085938e+01,-1.194243545532226562e+02,9.133489990234375000e+01,-6.889709472656250000e+01,3.906403732299804688e+01,-1.345841407775878906e+01,-1.071455307006835938e+02,-1.250819396972656250e+02,6.342238998413085938e+01,-4.123156738281250000e+01
9.759359955787658691e-01,2.000000000000000000e+00,4.120254898071289062e+01,3.357940673828125000e+00,3.447394943237304688e+01,-1.194783401489257812e+02,9.133783721923828125e+01,-6.892279815673828125e+01,3.899180603027343750e+01,-1.344948673248291016e+01,-1.071607513427734375e+02,-1.251357192993164062e+02,6.341787719726562500e+01,-4.126123046875000000e+01
9.796490073204040527e-01,2.000000000000000000e+00,4.125993347167968750e+01,3.262962818145751953e+00,3.446305084228515625e+01,-1.195853271484375000e+02,9.134369659423828125e+01,-6.897196960449218750e+01,3.884629058837890625e+01,-1.343181705474853516e+01,-1.071904525756835938e+02,-1.252416305541992188e+02,6.340847015380859375e+01,-4.131924057006835938e+01
9.838969707489013672e-01,2.000000000000000000e+00,4.125993347167968750e+01,3.262962818145751953e+00,3.446305084228515625e+01,-1.195853271484375000e+02,9.134369659423828125e+01,-6.897196960449218750e+01,3.884629058837890625e+01,-1.343181705474853516e+01,-1.071904525756835938e+02,-1.252416305541992188e+02,6.340847015380859375e+01,-4.131924057006835938e+01
9.880750179290771484e-01,2.000000000000000000e+00,4.128852462768554688e+01,3.215575933456420898e+00,3.445770263671875000e+01,-1.196387405395507812e+02,9.134663391113281250e+01,-6.899665069580078125e+01,3.877449417114257812e+01,-1.342261695861816406e+01,-1.072054595947265625e+02,-1.252951202392578125e+02,6.340453720092773438e+01,-4.134692382812500000e+01
9.910920262336730957e-01,2.000000000000000000e+00,4.131706237792968750e+01,3.168053150177001953e+00,3.445223236083984375e+01,-1.196918258666992188e+02,9.134945678710937500e+01,-6.902187347412109375e+01,3.870335769653320312e+01,-1.341346073150634766e+01,-1.072204742431640625e+02,-1.253485488891601562e+02,6.340045928955078125e+01,-4.137471771240234375e+01
9.951639771461486816e-01,2.000000000000000000e+00,4.134588241577148438e+01,3.120371818542480469e+00,3.444670486450195312e+01,-1.197454605102539062e+02,9.135239410400390625e+01,-6.904771423339843750e+01,3.863178253173828125e+01,-1.340448856353759766e+01,-1.072356414794921875e+02,-1.254024124145507812e+02,6.339630889892578125e+01,-4.140240478515625000e+01
9.990680217742919922e-01,2.000000000000000000e+00,4.137444686889648438e+01,3.073007345199584961e+00,3.444129562377929688e+01,-1.197990722656250000e+02,9.135543060302734375e+01,-6.907355499267578125e+01,3.855916213989257812e+01,-1.339547157287597656e+01,-1.072503280639648438e+02,-1.254561920166015625e+02,6.339229965209960938e+01,-4.143064117431640625e+01
1.005162000656127930e+00,2.000000000000000000e+00,4.140309524536132812e+01,3.025688171386718750e+00,3.443608856201171875e+01,-1.198524856567382812e+02,9.135862731933593750e+01,-6.909899139404296875e+01,3.848659515380859375e+01,-1.338631629943847656e+01,-1.072650146484375000e+02,-1.255095367431640625e+02,6.338836288452148438e+01,-4.145887756347656250e+01
1.007624983787536621e+00,2.000000000000000000e+00,4.146047973632812500e+01,2.930710315704345703e+00,3.442553710937500000e+01,-1.199591598510742188e+02,9.136460113525390625e+01,-6.914788055419921875e+01,3.834300613403320312e+01,-1.336773014068603516e+01,-1.072953033447265625e+02,-1.256169586181640625e+02,6.337947845458984375e+01,-4.151611328125000000e+01
1.012323975563049316e+00,2.000000000000000000e+00,4.146047973632812500e+01,2.930710315704345703e+00,3.442553710937500000e+01,-1.199591598510742188e+02,9.136460113525390625e+01,-6.914788055419921875e+01,3.834300613403320312e+01,-1.336773014068603516e+01,-1.072953033447265625e+02,-1.256169586181640625e+02,6.337947845458984375e+01,-4.151611328125000000e+01
1.015784978866577148e+00,2.000000000000000000e+00,4.148898315429687500e+01,2.883255481719970703e+00,3.442008972167968750e+01,-1.200128860473632812e+02,9.136759185791015625e+01,-6.917276763916015625e+01,3.827142715454101562e+01,-1.335857582092285156e+01,-1.073101577758789062e+02,-1.256697463989257812e+02,6.337561035156250000e+01,-4.154467773437500000e+01
1.019886970520019531e+00,2.000000000000000000e+00,4.151760482788085938e+01,2.835958719253540039e+00,3.441456222534179688e+01,-1.200666122436523438e+02,9.137062072753906250e+01,-6.919752502441406250e+01,3.819886398315429688e+01,-1.334946537017822266e+01,-1.073250045776367188e+02,-1.257236633300781250e+02,6.337175369262695312e+01,-4.157236480712890625e+01
1.023972988128662109e+00,2.000000000000000000e+00,4.154631423950195312e+01,2.788594484329223633e+00,3.440911102294921875e+01,-1.201199188232421875e+02,9.137350463867187500e+01,-6.922302246093750000e+01,3.812624740600585938e+01,-1.334058570861816406e+01,-1.073398513793945312e+02,-1.257772369384765625e+02,6.336701965332031250e+01,-4.159939193725585938e+01
1.027886986732482910e+00,2.000000000000000000e+00,4.157510757446289062e+01,2.741139650344848633e+00,3.440370178222656250e+01,-1.201738433837890625e+02,9.137649536132812500e+01,-6.924879455566406250e+01,3.805428695678710938e+01,-1.333161354064941406e+01,-1.073549194335937500e+02,-1.258303604125976562e+02,6.336213684082031250e+01,-4.162916183471679688e+01
1.031643033027648926e+00,2.000000000000000000e+00,4.163220214843750000e+01,2.646342754364013672e+00,3.439255905151367188e+01,-1.202805175781250000e+02,9.138241577148437500e+01,-6.929917907714843750e+01,3.791151809692382812e+01,-1.331325721740722656e+01,-1.073845062255859375e+02,-1.259382247924804688e+02,6.335375595092773438e+01,-4.169101715087890625e+01
1.036512970924377441e+00,2.000000000000000000e+00,4.163220214843750000e+01,2.646342754364013672e+00,3.439255905151367188e+01,-1.202805175781250000e+02,9.138241577148437500e+01,-6.929917907714843750e+01,3.791151809692382812e+01,-1.331325721740722656e+01,-1.073845062255859375e+02,-1.259382247924804688e+02,6.335375595092773438e+01,-4.169101715087890625e+01
1.039896965026855469e+00,2.000000000000000000e+00,4.166068267822265625e+01,2.598797321319580078e+00,3.438695144653320312e+01,-1.203348236083984375e+02,9.138529205322265625e+01,-6.932386779785156250e+01,3.783856964111328125e+01,-1.330437660217285156e+01,-1.073994598388671875e+02,-1.259914321899414062e+02,6.334989547729492188e+01,-4.172276687622070312e+01
1.043897986412048340e+00,2.000000000000000000e+00,4.168941497802734375e+01,2.551365137100219727e+00,3.438153839111328125e+01,-1.203882293701171875e+02,9.138811492919921875e+01,-6.934807586669921875e+01,3.776556396484375000e+01,-1.329554176330566406e+01,-1.074144744873046875e+02,-1.260452804565429688e+02,6.334545135498046875e+01,-4.175539398193359375e+01
1.047960996627807617e+00,2.000000000000000000e+00,4.171809387207031250e+01,2.504045724868774414e+00,3.437629318237304688e+01,-1.204415893554687500e+02,9.139094543457031250e+01,-6.937290191650390625e+01,3.769355010986328125e+01,-1.328643131256103516e+01,-1.074294281005859375e+02,-1.260988616943359375e+02,6.334137344360351562e+01,-4.178791427612304688e+01
1.051903009414672852e+00,2.000000000000000000e+00,4.174665451049804688e+01,2.456636190414428711e+00,3.437088394165039062e+01,-1.204949493408203125e+02,9.139360809326171875e+01,-6.939826202392578125e+01,3.762230300903320312e+01,-1.327713871002197266e+01,-1.074444427490234375e+02,-1.261520690917968750e+02,6.333794403076171875e+01,-4.182076263427734375e+01
1.056167006492614746e+00,2.000000000000000000e+00,4.177519226074218750e+01,2.409090757369995117e+00,3.436535644531250000e+01,-1.205480422973632812e+02,9.139659118652343750e+01,-6.942369842529296875e+01,3.755034255981445312e+01,-1.326807594299316406e+01,-1.074596099853515625e+02,-1.262058486938476562e+02,6.333452224731445312e+01,-4.185218429565429688e+01
1.060735940933227539e+00,2.000000000000000000e+00,4.180364227294921875e+01,2.361409425735473633e+00,3.435976409912109375e+01,-1.206020889282226562e+02,9.139936828613281250e+01,-6.944940185546875000e+01,3.747745132446289062e+01,-1.325896549224853516e+01,-1.074747390747070312e+02,-1.262594070434570312e+02,6.333080673217773438e+01,-4.188371658325195312e+01
1.064157009124755859e+00,2.000000000000000000e+00,4.183211898803710938e+01,2.313909292221069336e+00,3.435431671142578125e+01,-1.206556091308593750e+02,9.140213775634765625e+01,-6.947448730468750000e+01,3.740444564819335938e+01,-1.325003910064697266e+01,-1.074894714355468750e+02,-1.263128356933593750e+02,6.332665252685546875e+01,-4.191590499877929688e+01
1.067674040794372559e+00,2.000000000000000000e+00,4.186088180541992188e+01,2.266522407531738281e+00,3.434897232055664062e+01,-1.207085037231445312e+02,9.140496063232421875e+01,-6.949903869628906250e+01,3.733237457275390625e+01,-1.324125099182128906e+01,-1.075043792724609375e+02,-1.263672561645507812e+02,6.332271957397460938e+01,-4.194699478149414062e+01
1.071936011314392090e+00,2.000000000000000000e+00,4.188930130004882812e+01,2.219180345535278320e+00,3.434354019165039062e+01,-1.207622833251953125e+02,9.140763092041015625e+01,-6.952338409423828125e+01,3.726134490966796875e+01,-1.323246192932128906e+01,-1.075191726684570312e+02,-1.264211883544921875e+02,6.331929016113281250e+01,-4.197907638549804688e+01
1.075961947441101074e+00,2.000000000000000000e+00,4.191797637939453125e+01,2.171589612960815430e+00,3.433803176879882812e+01,-1.208156356811523438e+02,9.141034698486328125e+01,-6.954820251464843750e+01,3.718916702270507812e+01,-1.322326087951660156e+01,-1.075341796875000000e+02,-1.264743270874023438e+02,6.331549835205078125e+01,-4.201258468627929688e+01
1.081099033355712891e+00,2.000000000000000000e+00,4.194645690917968750e+01,2.124270677566528320e+00,3.433245849609375000e+01,-1.208689956665039062e+02,9.141295623779296875e+01,-6.957302856445312500e+01,3.711660003662109375e+01,-1.321428871154785156e+01,-1.075490798950195312e+02,-1.265279693603515625e+02,6.331171417236328125e+01,-4.204510498046875000e+01
1.084938049316406250e+00,2.000000000000000000e+00,4.197467422485351562e+01,2.076838254928588867e+00,3.432711029052734375e+01,-1.209230880737304688e+02,9.141562652587890625e+01,-6.959825897216796875e+01,3.704381942749023438e+01,-1.320526981353759766e+01,-1.075639877319335938e+02,-1.265810317993164062e+02,6.330748748779296875e+01,-4.207619476318359375e+01
1.088006973266601562e+00,2.000000000000000000e+00,4.200315475463867188e+01,2.029247522354125977e+00,3.432180786132812500e+01,-1.209763412475585938e+02,9.141823577880859375e+01,-6.962409210205078125e+01,3.697240447998046875e+01,-1.319639015197753906e+01,-1.075788879394531250e+02,-1.266343841552734375e+02,6.330333328247070312e+01,-4.210696029663085938e+01
1.091969966888427734e+00,2.000000000000000000e+00,4.203214645385742188e+01,1.981883168220520020e+00,3.431653976440429688e+01,-1.210301742553710938e+02,9.142095947265625000e+01,-6.964958953857421875e+01,3.690105056762695312e+01,-1.318746280670166016e+01,-1.075937957763671875e+02,-1.266883010864257812e+02,6.329954528808593750e+01,-4.213826751708984375e+01
1.096006035804748535e+00,2.000000000000000000e+00,4.206073760986328125e+01,1.934405446052551270e+00,3.431108856201171875e+01,-1.210839538574218750e+02,9.142372894287109375e+01,-6.967454528808593750e+01,3.682941818237304688e+01,-1.317826271057128906e+01,-1.076083145141601562e+02,-1.267413024902343750e+02,6.329590225219726562e+01,-4.216848373413085938e+01
1.100033044815063477e+00,2.000000000000000000e+00,4.208913040161132812e+01,1.887063741683959961e+00,3.430560302734375000e+01,-1.211366882324218750e+02,9.142623901367187500e+01,-6.969889068603515625e+01,3.675685501098632812e+01,-1.316896915435791016e+01,-1.076233749389648438e+02,-1.267949371337890625e+02,6.329204559326171875e+01,-4.219803619384765625e+01
1.103986978530883789e+00,2.000000000000000000e+00,4.211763381958007812e+01,1.839699268341064453e+00,3.430010986328125000e+01,-1.211905212402343750e+02,9.142884826660156250e+01,-6.972338104248046875e+01,3.668434524536132812e+01,-1.315981483459472656e+01,-1.076384429931640625e+02,-1.268487167358398438e+02,6.328752136230468750e+01,-4.222692871093750000e+01
1.109029054641723633e+00,2.000000000000000000e+00,4.214602661132812500e+01,1.792086005210876465e+00,3.429476165771484375e+01,-1.212441406250000000e+02,9.143151855468750000e+01,-6.974860382080078125e+01,3.661287689208984375e+01,-1.315097999572753906e+01,-1.076531295776367188e+02,-1.269023590087890625e+02,6.328293228149414062e+01,-4.225670242309570312e+01
1.112414956092834473e+00,2.000000000000000000e+00,4.217461776733398438e+01,1.744699001312255859e+00,3.428931427001953125e+01,-1.212979202270507812e+02,9.143418121337890625e+01,-6.977390289306640625e+01,3.654146957397460938e+01,-1.314209938049316406e+01,-1.076680831909179688e+02,-1.269559249877929688e+02,6.327929306030273438e+01,-4.228647232055664062e+01
