rpiRobotics/ARM-21-02-F-19-Robot-Motion-Program/data_performance_abb/curve_2/dual_arm/diffevo_pose6_3/30L/grad_result/real/run_2.csv
timestamp,cmd_num,J1,J2,J3,J4,J5,J6,J1_2,J2_2,J3_2,J4_2,J5_2,J6_2
1.112299971282482147e-02,-1.000000000000000000e+00,3.547671508789062500e+01,1.285863685607910156e+01,3.555867004394531250e+01,-1.087570190429687500e+02,9.078099822998046875e+01,-6.390503311157226562e+01,5.343432235717773438e+01,-1.526745033264160156e+01,-1.041692657470703125e+02,-1.144058837890625000e+02,6.424034118652343750e+01,-3.517359542846679688e+01
1.260400004684925079e-02,-1.000000000000000000e+00,3.547665786743164062e+01,1.285863685607910156e+01,3.555867004394531250e+01,-1.087568664550781250e+02,9.078111267089843750e+01,-6.390503311157226562e+01,5.343432235717773438e+01,-1.526745033264160156e+01,-1.041692657470703125e+02,-1.144057388305664062e+02,6.424034118652343750e+01,-3.517359542846679688e+01
1.526399981230497360e-02,-1.000000000000000000e+00,3.547671508789062500e+01,1.285863685607910156e+01,3.555870819091796875e+01,-1.087569122314453125e+02,9.078099822998046875e+01,-6.390516281127929688e+01,5.343415451049804688e+01,-1.526745033264160156e+01,-1.041692657470703125e+02,-1.144058837890625000e+02,6.424048614501953125e+01,-3.517348861694335938e+01
1.925100013613700867e-02,-1.000000000000000000e+00,3.547674560546875000e+01,1.285863685607910156e+01,3.555867004394531250e+01,-1.087570190429687500e+02,9.078111267089843750e+01,-6.390482711791992188e+01,5.343432235717773438e+01,-1.526745033264160156e+01,-1.041692657470703125e+02,-1.144057388305664062e+02,6.424034118652343750e+01,-3.517348861694335938e+01
2.067600004374980927e-02,-1.000000000000000000e+00,3.547674560546875000e+01,1.285863685607910156e+01,3.555867004394531250e+01,-1.087570190429687500e+02,9.078111267089843750e+01,-6.390482711791992188e+01,5.343432235717773438e+01,-1.526745033264160156e+01,-1.041692657470703125e+02,-1.144057388305664062e+02,6.424034118652343750e+01,-3.517348861694335938e+01
2.333600074052810669e-02,-1.000000000000000000e+00,3.547671508789062500e+01,1.285863685607910156e+01,3.555867004394531250e+01,-1.087569122314453125e+02,9.078099822998046875e+01,-6.390516281127929688e+01,5.343432235717773438e+01,-1.526745033264160156e+01,-1.041692657470703125e+02,-1.144058837890625000e+02,6.424048614501953125e+01,-3.517359542846679688e+01
2.459800057113170624e-02,-1.000000000000000000e+00,3.547671508789062500e+01,1.285863685607910156e+01,3.555867004394531250e+01,-1.087569122314453125e+02,9.078099822998046875e+01,-6.390516281127929688e+01,5.343432235717773438e+01,-1.526745033264160156e+01,-1.041692657470703125e+02,-1.144058837890625000e+02,6.424048614501953125e+01,-3.517359542846679688e+01
2.868499979376792908e-02,-1.000000000000000000e+00,3.547674560546875000e+01,1.285870552062988281e+01,3.555870819091796875e+01,-1.087569122314453125e+02,9.078099822998046875e+01,-6.390516281127929688e+01,5.343432235717773438e+01,-1.526745033264160156e+01,-1.041692657470703125e+02,-1.144057388305664062e+02,6.424034118652343750e+01,-3.517359542846679688e+01
3.161400184035301208e-02,-1.000000000000000000e+00,3.547671508789062500e+01,1.285863685607910156e+01,3.555867004394531250e+01,-1.087569122314453125e+02,9.078111267089843750e+01,-6.390516281127929688e+01,5.343415451049804688e+01,-1.526745033264160156e+01,-1.041692657470703125e+02,-1.144057388305664062e+02,6.424048614501953125e+01,-3.517359542846679688e+01
3.448199853301048279e-02,-1.000000000000000000e+00,3.547671508789062500e+01,1.285863685607910156e+01,3.555867004394531250e+01,-1.087569122314453125e+02,9.078111267089843750e+01,-6.390516281127929688e+01,5.343415451049804688e+01,-1.526745033264160156e+01,-1.041692657470703125e+02,-1.144057388305664062e+02,6.424048614501953125e+01,-3.517359542846679688e+01
3.599400073289871216e-02,-1.000000000000000000e+00,3.547674560546875000e+01,1.285870552062988281e+01,3.555870819091796875e+01,-1.087569122314453125e+02,9.078099822998046875e+01,-6.390516281127929688e+01,5.343415451049804688e+01,-1.526745033264160156e+01,-1.041692657470703125e+02,-1.144058837890625000e+02,6.424034118652343750e+01,-3.517359542846679688e+01
5.130700021982192993e-02,-1.000000000000000000e+00,3.547665786743164062e+01,1.285863685607910156e+01,3.555867004394531250e+01,-1.087569122314453125e+02,9.078099822998046875e+01,-6.390516281127929688e+01,5.343415451049804688e+01,-1.526745033264160156e+01,-1.041692657470703125e+02,-1.144058837890625000e+02,6.424034118652343750e+01,-3.517359542846679688e+01
5.563899874687194824e-02,2.000000000000000000e+00,3.547671508789062500e+01,1.285863685607910156e+01,3.555870819091796875e+01,-1.087570190429687500e+02,9.078111267089843750e+01,-6.390516281127929688e+01,5.343432235717773438e+01,-1.526745033264160156e+01,-1.041692657470703125e+02,-1.144058837890625000e+02,6.424034118652343750e+01,-3.517381668090820312e+01
6.111200153827667236e-02,2.000000000000000000e+00,3.547671508789062500e+01,1.285863685607910156e+01,3.555867004394531250e+01,-1.087569122314453125e+02,9.078099822998046875e+01,-6.390503311157226562e+01,5.343415451049804688e+01,-1.526745033264160156e+01,-1.041692657470703125e+02,-1.144057388305664062e+02,6.424034118652343750e+01,-3.517381668090820312e+01
6.765799969434738159e-02,2.000000000000000000e+00,3.547665786743164062e+01,1.285870552062988281e+01,3.555870819091796875e+01,-1.087567520141601562e+02,9.078111267089843750e+01,-6.390516281127929688e+01,5.343432235717773438e+01,-1.526735782623291016e+01,-1.041693725585937500e+02,-1.144057388305664062e+02,6.424034118652343750e+01,-3.517359542846679688e+01
1.077060028910636902e-01,2.000000000000000000e+00,3.547671508789062500e+01,1.285863685607910156e+01,3.555867004394531250e+01,-1.087569122314453125e+02,9.078089904785156250e+01,-6.390516281127929688e+01,5.343415451049804688e+01,-1.526745033264160156e+01,-1.041692657470703125e+02,-1.144058837890625000e+02,6.424048614501953125e+01,-3.517359542846679688e+01
1.168100014328956604e-01,2.000000000000000000e+00,3.547671508789062500e+01,1.285863685607910156e+01,3.555870819091796875e+01,-1.087569122314453125e+02,9.078111267089843750e+01,-6.390482711791992188e+01,5.343432235717773438e+01,-1.526745033264160156e+01,-1.041692657470703125e+02,-1.144057388305664062e+02,6.424048614501953125e+01,-3.517348861694335938e+01
1.193320006132125854e-01,2.000000000000000000e+00,3.547680282592773438e+01,1.285859203338623047e+01,3.555870819091796875e+01,-1.087569122314453125e+02,9.078111267089843750e+01,-6.390516281127929688e+01,5.343432235717773438e+01,-1.526754093170166016e+01,-1.041692657470703125e+02,-1.144058837890625000e+02,6.424048614501953125e+01,-3.517359542846679688e+01
1.205969974398612976e-01,2.000000000000000000e+00,3.547680282592773438e+01,1.285859203338623047e+01,3.555870819091796875e+01,-1.087569122314453125e+02,9.078111267089843750e+01,-6.390516281127929688e+01,5.343432235717773438e+01,-1.526754093170166016e+01,-1.041692657470703125e+02,-1.144058837890625000e+02,6.424048614501953125e+01,-3.517359542846679688e+01
1.230539977550506592e-01,2.000000000000000000e+00,3.547706222534179688e+01,1.285836601257324219e+01,3.555870819091796875e+01,-1.087569122314453125e+02,9.078111267089843750e+01,-6.390503311157226562e+01,5.343415451049804688e+01,-1.526745033264160156e+01,-1.041692657470703125e+02,-1.144058837890625000e+02,6.424034118652343750e+01,-3.517359542846679688e+01
1.255860030651092529e-01,2.000000000000000000e+00,3.547706222534179688e+01,1.285836601257324219e+01,3.555870819091796875e+01,-1.087569122314453125e+02,9.078111267089843750e+01,-6.390503311157226562e+01,5.343415451049804688e+01,-1.526745033264160156e+01,-1.041692657470703125e+02,-1.144058837890625000e+02,6.424034118652343750e+01,-3.517359542846679688e+01
1.281269937753677368e-01,2.000000000000000000e+00,3.547772216796875000e+01,1.285761833190917969e+01,3.555870819091796875e+01,-1.087570190429687500e+02,9.078099822998046875e+01,-6.390482711791992188e+01,5.343415451049804688e+01,-1.526745033264160156e+01,-1.041692657470703125e+02,-1.144057388305664062e+02,6.424034118652343750e+01,-3.517359542846679688e+01
1.293720006942749023e-01,2.000000000000000000e+00,3.547772216796875000e+01,1.285761833190917969e+01,3.555870819091796875e+01,-1.087570190429687500e+02,9.078099822998046875e+01,-6.390482711791992188e+01,5.343415451049804688e+01,-1.526745033264160156e+01,-1.041692657470703125e+02,-1.144057388305664062e+02,6.424034118652343750e+01,-3.517359542846679688e+01
1.331650018692016602e-01,2.000000000000000000e+00,3.547912597656250000e+01,1.285619354248046875e+01,3.555877304077148438e+01,-1.087569122314453125e+02,9.078111267089843750e+01,-6.390503311157226562e+01,5.343360900878906250e+01,-1.526754093170166016e+01,-1.041689910888671875e+02,-1.144058837890625000e+02,6.424034118652343750e+01,-3.517359542846679688e+01
1.372659951448440552e-01,2.000000000000000000e+00,3.548119354248046875e+01,1.285397529602050781e+01,3.555870819091796875e+01,-1.087570190429687500e+02,9.078111267089843750e+01,-6.390516281127929688e+01,5.343261718750000000e+01,-1.526776981353759766e+01,-1.041670837402343750e+02,-1.144063796997070312e+02,6.424034118652343750e+01,-3.517359542846679688e+01
1.409119963645935059e-01,2.000000000000000000e+00,3.548409271240234375e+01,1.285078525543212891e+01,3.555870819091796875e+01,-1.087572326660156250e+02,9.078111267089843750e+01,-6.390516281127929688e+01,5.343025588989257812e+01,-1.526822853088378906e+01,-1.041646423339843750e+02,-1.144069595336914062e+02,6.423976135253906250e+01,-3.517403793334960938e+01
1.434389948844909668e-01,2.000000000000000000e+00,3.548744964599609375e+01,1.284641742706298828e+01,3.555870819091796875e+01,-1.087579727172851562e+02,9.078111267089843750e+01,-6.390516281127929688e+01,5.342679595947265625e+01,-1.526854801177978516e+01,-1.041631164550781250e+02,-1.144077453613281250e+02,6.423837280273437500e+01,-3.517524719238281250e+01
1.447210013866424561e-01,2.000000000000000000e+00,3.548744964599609375e+01,1.284641742706298828e+01,3.555870819091796875e+01,-1.087579727172851562e+02,9.078111267089843750e+01,-6.390516281127929688e+01,5.342679595947265625e+01,-1.526854801177978516e+01,-1.041631164550781250e+02,-1.144077453613281250e+02,6.423837280273437500e+01,-3.517524719238281250e+01
1.489389985799789429e-01,2.000000000000000000e+00,3.548744964599609375e+01,1.284641742706298828e+01,3.555870819091796875e+01,-1.087579727172851562e+02,9.078111267089843750e+01,-6.390516281127929688e+01,5.342223739624023438e+01,-1.526868629455566406e+01,-1.041623077392578125e+02,-1.144086837768554688e+02,6.423480224609375000e+01,-3.517645263671875000e+01
1.515219956636428833e-01,2.000000000000000000e+00,3.549632263183593750e+01,1.283372116088867188e+01,3.555867004394531250e+01,-1.087628097534179688e+02,9.078132629394531250e+01,-6.390604400634765625e+01,5.341597366333007812e+01,-1.526868629455566406e+01,-1.041612091064453125e+02,-1.144104003906250000e+02,6.422926330566406250e+01,-3.517744064331054688e+01
1.528750061988830566e-01,2.000000000000000000e+00,3.549632263183593750e+01,1.283372116088867188e+01,3.555867004394531250e+01,-1.087628097534179688e+02,9.078132629394531250e+01,-6.390604400634765625e+01,5.341597366333007812e+01,-1.526868629455566406e+01,-1.041612091064453125e+02,-1.144104003906250000e+02,6.422926330566406250e+01,-3.517744064331054688e+01
1.554310023784637451e-01,2.000000000000000000e+00,3.549632263183593750e+01,1.283372116088867188e+01,3.555867004394531250e+01,-1.087628097534179688e+02,9.078132629394531250e+01,-6.390604400634765625e+01,5.340784454345703125e+01,-1.526790809631347656e+01,-1.041601257324218750e+02,-1.144134902954101562e+02,6.422518157958984375e+01,-3.517788314819335938e+01
1.594409942626953125e-01,2.000000000000000000e+00,3.550200653076171875e+01,1.282512187957763672e+01,3.555857086181640625e+01,-1.087675552368164062e+02,9.078148651123046875e+01,-6.390740203857421875e+01,5.340784454345703125e+01,-1.526790809631347656e+01,-1.041601257324218750e+02,-1.144134902954101562e+02,6.422518157958984375e+01,-3.517788314819335938e+01
1.619479954242706299e-01,2.000000000000000000e+00,3.550898361206054688e+01,1.281459999084472656e+01,3.555846786499023438e+01,-1.087736663818359375e+02,9.078170013427734375e+01,-6.391052627563476562e+01,5.339696884155273438e+01,-1.526644325256347656e+01,-1.041604003906250000e+02,-1.144177322387695312e+02,6.422285461425781250e+01,-3.517864990234375000e+01
1.653890013694763184e-01,2.000000000000000000e+00,3.551742172241210938e+01,1.280154228210449219e+01,3.555816268920898438e+01,-1.087816696166992188e+02,9.078217315673828125e+01,-6.391465759277343750e+01,5.338328933715820312e+01,-1.526511573791503906e+01,-1.041663818359375000e+02,-1.144232559204101562e+02,6.422037506103515625e+01,-3.517963790893554688e+01
1.680169999599456787e-01,2.000000000000000000e+00,3.552717971801757812e+01,1.278576946258544922e+01,3.555759429931640625e+01,-1.087926788330078125e+02,9.078276062011718750e+01,-6.391879653930664062e+01,5.336609649658203125e+01,-1.526401615142822266e+01,-1.041698074340820312e+02,-1.144300842285156250e+02,6.421723937988281250e+01,-3.518150711059570312e+01
1.693949997425079346e-01,2.000000000000000000e+00,3.552717971801757812e+01,1.278576946258544922e+01,3.555759429931640625e+01,-1.087926788330078125e+02,9.078276062011718750e+01,-6.391879653930664062e+01,5.336609649658203125e+01,-1.526401615142822266e+01,-1.041698074340820312e+02,-1.144300842285156250e+02,6.421723937988281250e+01,-3.518150711059570312e+01
1.760410070419311523e-01,2.000000000000000000e+00,3.555063629150390625e+01,1.274820327758789062e+01,3.555574035644531250e+01,-1.088230743408203125e+02,9.078404235839843750e+01,-6.393222427368164062e+01,5.331901931762695312e+01,-1.526044559478759766e+01,-1.041742630004882812e+02,-1.144545669555664062e+02,6.421214294433593750e+01,-3.518787765502929688e+01
1.773210018873214722e-01,2.000000000000000000e+00,3.555063629150390625e+01,1.274820327758789062e+01,3.555574035644531250e+01,-1.088230743408203125e+02,9.078404235839843750e+01,-6.393222427368164062e+01,5.331901931762695312e+01,-1.526044559478759766e+01,-1.041742630004882812e+02,-1.144545669555664062e+02,6.421214294433593750e+01,-3.518787765502929688e+01
1.799380034208297729e-01,2.000000000000000000e+00,3.556395721435546875e+01,1.272727012634277344e+01,3.555429840087890625e+01,-1.088430862426757812e+02,9.078532409667968750e+01,-6.394158172607421875e+01,5.328858566284179688e+01,-1.525811195373535156e+01,-1.041786193847656250e+02,-1.144720077514648438e+02,6.421018218994140625e+01,-3.519446945190429688e+01
1.835409998893737793e-01,2.000000000000000000e+00,3.557790756225585938e+01,1.270452785491943359e+01,3.555242919921875000e+01,-1.088673706054687500e+02,9.078665924072265625e+01,-6.395277786254882812e+01,5.325332260131835938e+01,-1.525440311431884766e+01,-1.041852035522460938e+02,-1.144940567016601562e+02,6.420857238769531250e+01,-3.520512771606445312e+01
1.874160021543502808e-01,2.000000000000000000e+00,3.557790756225585938e+01,1.270452785491943359e+01,3.555242919921875000e+01,-1.088673706054687500e+02,9.078665924072265625e+01,-6.395277786254882812e+01,5.325332260131835938e+01,-1.525440311431884766e+01,-1.041852035522460938e+02,-1.144940567016601562e+02,6.420857238769531250e+01,-3.520512771606445312e+01
1.888930052518844604e-01,2.000000000000000000e+00,3.559260559082031250e+01,1.268022346496582031e+01,3.555000686645507812e+01,-1.088963470458984375e+02,9.078793334960937500e+01,-6.396572494506835938e+01,5.321393585205078125e+01,-1.524968814849853516e+01,-1.041929779052734375e+02,-1.145209121704101562e+02,6.420704650878906250e+01,-3.521720886230468750e+01
1.901510059833526611e-01,2.000000000000000000e+00,3.559260559082031250e+01,1.268022346496582031e+01,3.555000686645507812e+01,-1.088963470458984375e+02,9.078793334960937500e+01,-6.396572494506835938e+01,5.321393585205078125e+01,-1.524968814849853516e+01,-1.041929779052734375e+02,-1.145209121704101562e+02,6.420704650878906250e+01,-3.521720886230468750e+01
1.928000003099441528e-01,2.000000000000000000e+00,3.560828018188476562e+01,1.265399551391601562e+01,3.554716491699218750e+01,-1.089297943115234375e+02,9.078910827636718750e+01,-6.398057556152343750e+01,5.317125320434570312e+01,-1.524437808990478516e+01,-1.042017898559570312e+02,-1.145540924072265625e+02,6.420558166503906250e+01,-3.523039627075195312e+01
1.978970021009445190e-01,2.000000000000000000e+00,3.560828018188476562e+01,1.265399551391601562e+01,3.554716491699218750e+01,-1.089297943115234375e+02,9.078910827636718750e+01,-6.398057556152343750e+01,5.317125320434570312e+01,-1.524437808990478516e+01,-1.042017898559570312e+02,-1.145540924072265625e+02,6.420558166503906250e+01,-3.523039627075195312e+01
2.005899995565414429e-01,2.000000000000000000e+00,3.564336013793945312e+01,1.259502220153808594e+01,3.554012680053710938e+01,-1.090042190551757812e+02,9.079247283935546875e+01,-6.401564025878906250e+01,5.307506942749023438e+01,-1.523087501525878906e+01,-1.042263717651367188e+02,-1.146328582763671875e+02,6.420259857177734375e+01,-3.526796722412109375e+01
2.018879950046539307e-01,2.000000000000000000e+00,3.564336013793945312e+01,1.259502220153808594e+01,3.554012680053710938e+01,-1.090042190551757812e+02,9.079247283935546875e+01,-6.401564025878906250e+01,5.307506942749023438e+01,-1.523087501525878906e+01,-1.042263717651367188e+02,-1.146328582763671875e+02,6.420259857177734375e+01,-3.526796722412109375e+01
2.044509947299957275e-01,2.000000000000000000e+00,3.566262054443359375e+01,1.256223106384277344e+01,3.553604125976562500e+01,-1.090458831787109375e+02,9.079428100585937500e+01,-6.403591156005859375e+01,5.302266311645507812e+01,-1.522277259826660156e+01,-1.042410049438476562e+02,-1.146778106689453125e+02,6.420157623291015625e+01,-3.528961181640625000e+01
2.056999951601028442e-01,2.000000000000000000e+00,3.566262054443359375e+01,1.256223106384277344e+01,3.553604125976562500e+01,-1.090458831787109375e+02,9.079428100585937500e+01,-6.403591156005859375e+01,5.302266311645507812e+01,-1.522277259826660156e+01,-1.042410049438476562e+02,-1.146778106689453125e+02,6.420157623291015625e+01,-3.528961181640625000e+01
2.121780067682266235e-01,2.000000000000000000e+00,3.570352554321289062e+01,1.249171638488769531e+01,3.552682876586914062e+01,-1.091410140991210938e+02,9.079870605468750000e+01,-6.408054351806640625e+01,5.290813064575195312e+01,-1.520528507232666016e+01,-1.042734756469726562e+02,-1.147777633666992188e+02,6.419757080078125000e+01,-3.534135437011718750e+01
2.134370058774948120e-01,2.000000000000000000e+00,3.570352554321289062e+01,1.249171638488769531e+01,3.552682876586914062e+01,-1.091410140991210938e+02,9.079870605468750000e+01,-6.408054351806640625e+01,5.290813064575195312e+01,-1.520528507232666016e+01,-1.042734756469726562e+02,-1.147777633666992188e+02,6.419757080078125000e+01,-3.534135437011718750e+01
2.159789949655532837e-01,2.000000000000000000e+00,3.572494125366210938e+01,1.245392417907714844e+01,3.552189254760742188e+01,-1.091896286010742188e+02,9.080110168457031250e+01,-6.410455322265625000e+01,5.284600448608398438e+01,-1.519613075256347656e+01,-1.042902221679687500e+02,-1.148296737670898438e+02,6.419567871093750000e+01,-3.537134933471679688e+01
2.173929959535598755e-01,2.000000000000000000e+00,3.572494125366210938e+01,1.245392417907714844e+01,3.552189254760742188e+01,-1.091896286010742188e+02,9.080110168457031250e+01,-6.410455322265625000e+01,5.284600448608398438e+01,-1.519613075256347656e+01,-1.042902221679687500e+02,-1.148296737670898438e+02,6.419567871093750000e+01,-3.537134933471679688e+01
2.213850021362304688e-01,2.000000000000000000e+00,3.574724578857421875e+01,1.241445732116699219e+01,3.551676559448242188e+01,-1.092409896850585938e+02,9.080349731445312500e+01,-6.412835693359375000e+01,5.278052139282226562e+01,-1.518692874908447266e+01,-1.043066482543945312e+02,-1.148828964233398438e+02,6.419342041015625000e+01,-3.540200042724609375e+01
2.237689942121505737e-01,2.000000000000000000e+00,3.574724578857421875e+01,1.241445732116699219e+01,3.551676559448242188e+01,-1.092409896850585938e+02,9.080349731445312500e+01,-6.412835693359375000e+01,5.271213531494140625e+01,-1.517763710021972656e+01,-1.043226928710937500e+02,-1.149373168945312500e+02,6.419079589843750000e+01,-3.543408203125000000e+01
2.252279967069625854e-01,2.000000000000000000e+00,3.577047348022460938e+01,1.237345218658447266e+01,3.551136016845703125e+01,-1.092936630249023438e+02,9.080579376220703125e+01,-6.415255737304687500e+01,5.271213531494140625e+01,-1.517763710021972656e+01,-1.043226928710937500e+02,-1.149373168945312500e+02,6.419079589843750000e+01,-3.543408203125000000e+01
2.277870029211044312e-01,2.000000000000000000e+00,3.577047348022460938e+01,1.237345218658447266e+01,3.551136016845703125e+01,-1.092936630249023438e+02,9.080579376220703125e+01,-6.415255737304687500e+01,5.271213531494140625e+01,-1.517763710021972656e+01,-1.043226928710937500e+02,-1.149373168945312500e+02,6.419079589843750000e+01,-3.543408203125000000e+01
2.293190062046051025e-01,2.000000000000000000e+00,3.579481506347656250e+01,1.233065891265869141e+01,3.550588989257812500e+01,-1.093466033935546875e+02,9.080850982666015625e+01,-6.417751312255859375e+01,5.264094543457031250e+01,-1.516834449768066406e+01,-1.043384094238281250e+02,-1.149921798706054688e+02,6.418802642822265625e+01,-3.546902084350585938e+01
2.332330048084259033e-01,2.000000000000000000e+00,3.579481506347656250e+01,1.233065891265869141e+01,3.550588989257812500e+01,-1.093466033935546875e+02,9.080850982666015625e+01,-6.417751312255859375e+01,5.264094543457031250e+01,-1.516834449768066406e+01,-1.043384094238281250e+02,-1.149921798706054688e+02,6.418802642822265625e+01,-3.546902084350585938e+01
2.358060032129287720e-01,2.000000000000000000e+00,3.582044982910156250e+01,1.228614521026611328e+01,3.550038146972656250e+01,-1.094004898071289062e+02,9.081128692626953125e+01,-6.420307922363281250e+01,5.256821441650390625e+01,-1.515923404693603516e+01,-1.043539123535156250e+02,-1.150473937988281250e+02,6.418475341796875000e+01,-3.550373840332031250e+01
2.400249987840652466e-01,2.000000000000000000e+00,3.584723281860351562e+01,1.224027442932128906e+01,3.549499130249023438e+01,-1.094544219970703125e+02,9.081385040283203125e+01,-6.422858428955078125e+01,5.249493408203125000e+01,-1.514989566802978516e+01,-1.043694076538085938e+02,-1.151025390625000000e+02,6.418175506591796875e+01,-3.553921890258789062e+01
2.459920048713684082e-01,2.000000000000000000e+00,3.587499618530273438e+01,1.219331741333007812e+01,3.548978805541992188e+01,-1.095086746215820312e+02,9.081656646728515625e+01,-6.425489807128906250e+01,5.242214965820312500e+01,-1.514092445373535156e+01,-1.043847503662109375e+02,-1.151576156616210938e+02,6.417818450927734375e+01,-3.557602310180664062e+01
2.485789954662322998e-01,2.000000000000000000e+00,3.593254852294921875e+01,1.209745693206787109e+01,3.547921371459960938e+01,-1.096170272827148438e+02,9.082211303710937500e+01,-6.430615997314453125e+01,5.227575683593750000e+01,-1.512247657775878906e+01,-1.044148788452148438e+02,-1.152672729492187500e+02,6.417024993896484375e+01,-3.564886474609375000e+01
2.522160112857818604e-01,2.000000000000000000e+00,3.593254852294921875e+01,1.209745693206787109e+01,3.547921371459960938e+01,-1.096170272827148438e+02,9.082211303710937500e+01,-6.430615997314453125e+01,5.227575683593750000e+01,-1.512247657775878906e+01,-1.044148788452148438e+02,-1.152672729492187500e+02,6.417024993896484375e+01,-3.564886474609375000e+01
2.563129961490631104e-01,2.000000000000000000e+00,3.596157455444335938e+01,1.204927825927734375e+01,3.547358322143554688e+01,-1.096713409423828125e+02,9.082482910156250000e+01,-6.433139801025390625e+01,5.220132827758789062e+01,-1.511322975158691406e+01,-1.044297790527343750e+02,-1.153210525512695312e+02,6.416514587402343750e+01,-3.568533706665039062e+01
2.601889967918395996e-01,2.000000000000000000e+00,3.599039459228515625e+01,1.200107669830322266e+01,3.546819305419921875e+01,-1.097257995605468750e+02,9.082770538330078125e+01,-6.435628509521484375e+01,5.212689590454101562e+01,-1.510402774810791016e+01,-1.044449081420898438e+02,-1.153753356933593750e+02,6.415939331054687500e+01,-3.571994781494140625e+01
2.641110122203826904e-01,2.000000000000000000e+00,3.601913070678710938e+01,1.195296478271484375e+01,3.546280670166015625e+01,-1.097799530029296875e+02,9.083042144775390625e+01,-6.438171386718750000e+01,5.205372238159179688e+01,-1.509473514556884766e+01,-1.044596939086914062e+02,-1.154296951293945312e+02,6.415392303466796875e+01,-3.575609207153320312e+01
2.690370082855224609e-01,2.000000000000000000e+00,3.604812240600585938e+01,1.190478610992431641e+01,3.545735549926757812e+01,-1.098349990844726562e+02,9.083319854736328125e+01,-6.440768432617187500e+01,5.198099517822265625e+01,-1.508535194396972656e+01,-1.044743194580078125e+02,-1.154842681884765625e+02,6.414889526367187500e+01,-3.579267501831054688e+01
2.722980082035064697e-01,2.000000000000000000e+00,3.607711791992187500e+01,1.185649394989013672e+01,3.545182800292968750e+01,-1.098890380859375000e+02,9.083581542968750000e+01,-6.443393707275390625e+01,5.190744018554687500e+01,-1.507582950592041016e+01,-1.044891128540039062e+02,-1.155388412475585938e+02,6.414387512207031250e+01,-3.582629394531250000e+01
2.761969864368438721e-01,2.000000000000000000e+00,3.610614395141601562e+01,1.180840492248535156e+01,3.544619750976562500e+01,-1.099432907104492188e+02,9.083858489990234375e+01,-6.446024322509765625e+01,5.183295440673828125e+01,-1.506617164611816406e+01,-1.045040740966796875e+02,-1.155929718017578125e+02,6.413819122314453125e+01,-3.586068344116210938e+01
2.800160050392150879e-01,2.000000000000000000e+00,3.613502120971679688e+01,1.176040744781494141e+01,3.544072341918945312e+01,-1.099979171752929688e+02,9.084146118164062500e+01,-6.448574066162109375e+01,5.175857543945312500e+01,-1.505669593811035156e+01,-1.045190353393554688e+02,-1.156472625732421875e+02,6.413337707519531250e+01,-3.589385986328125000e+01
2.844769954681396484e-01,2.000000000000000000e+00,3.616384124755859375e+01,1.171249961853027344e+01,3.543539810180664062e+01,-1.100518569946289062e+02,9.084423828125000000e+01,-6.451056671142578125e+01,5.168584823608398438e+01,-1.504749393463134766e+01,-1.045338821411132812e+02,-1.157020568847656250e+02,6.412893676757812500e+01,-3.592473220825195312e+01
2.879939973354339600e-01,2.000000000000000000e+00,3.619254684448242188e+01,1.166450119018554688e+01,3.543015289306640625e+01,-1.101063766479492188e+02,9.084690856933593750e+01,-6.453572845458984375e+01,5.161311721801757812e+01,-1.503838443756103516e+01,-1.045488357543945312e+02,-1.157561874389648438e+02,6.412514495849609375e+01,-3.595296478271484375e+01
2.933729887008666992e-01,2.000000000000000000e+00,3.622139739990234375e+01,1.161636734008789062e+01,3.542480850219726562e+01,-1.101607818603515625e+02,9.084957122802734375e+01,-6.456136322021484375e+01,5.153967285156250000e+01,-1.502927494049072266e+01,-1.045639572143554688e+02,-1.158099060058593750e+02,6.412201690673828125e+01,-3.598131179809570312e+01
2.949700057506561279e-01,2.000000000000000000e+00,3.625016403198242188e+01,1.156830215454101562e+01,3.541931533813476562e+01,-1.102145080566406250e+02,9.085228729248046875e+01,-6.458712768554687500e+01,5.146595382690429688e+01,-1.501984596252441406e+01,-1.045791854858398438e+02,-1.158643417358398438e+02,6.411917114257812500e+01,-3.600866699218750000e+01
3.002980053424835205e-01,2.000000000000000000e+00,3.627886962890625000e+01,1.152055263519287109e+01,3.541386795043945312e+01,-1.102690277099609375e+02,9.085506439208984375e+01,-6.461310577392578125e+01,5.139322662353515625e+01,-1.501037025451660156e+01,-1.045944137573242188e+02,-1.159186248779296875e+02,6.411640167236328125e+01,-3.603547286987304688e+01
3.045459985733032227e-01,2.000000000000000000e+00,3.630757904052734375e+01,1.147275829315185547e+01,3.540845870971679688e+01,-1.103228073120117188e+02,9.085762023925781250e+01,-6.463948059082031250e+01,5.132126617431640625e+01,-1.500116825103759766e+01,-1.046099700927734375e+02,-1.159734039306640625e+02,6.411363220214843750e+01,-3.606216812133789062e+01
3.095270097255706787e-01,2.000000000000000000e+00,3.633613967895507812e+01,1.142494106292724609e+01,3.540304946899414062e+01,-1.103774261474609375e+02,9.086044311523437500e+01,-6.466512298583984375e+01,5.124864578247070312e+01,-1.499205875396728516e+01,-1.046251907348632812e+02,-1.160281295776367188e+02,6.411108398437500000e+01,-3.608952713012695312e+01
3.109630048274993896e-01,2.000000000000000000e+00,3.636502075195312500e+01,1.137728309631347656e+01,3.539758300781250000e+01,-1.104318923950195312e+02,9.086327362060546875e+01,-6.468994140625000000e+01,5.117536544799804688e+01,-1.498299503326416016e+01,-1.046401519775390625e+02,-1.160821914672851562e+02,6.410816955566406250e+01,-3.611853027343750000e+01
3.150320053100585938e-01,2.000000000000000000e+00,3.639415740966796875e+01,1.132946586608886719e+01,3.539186859130859375e+01,-1.104856719970703125e+02,9.086598968505859375e+01,-6.471442413330078125e+01,5.110208892822265625e+01,-1.497365665435791016e+01,-1.046554412841796875e+02,-1.161362609863281250e+02,6.410525512695312500e+01,-3.614753341674804688e+01
3.189870119094848633e-01,2.000000000000000000e+00,3.642306518554687500e+01,1.128160381317138672e+01,3.538625717163085938e+01,-1.105404586791992188e+02,9.086870574951171875e+01,-6.473971557617187500e+01,5.102990722656250000e+01,-1.496445655822753906e+01,-1.046708297729492188e+02,-1.161910552978515625e+02,6.410153961181640625e+01,-3.617697906494140625e+01
3.229640126228332520e-01,2.000000000000000000e+00,3.645197296142578125e+01,1.123371887207031250e+01,3.538082885742187500e+01,-1.105947113037109375e+02,9.087142944335937500e+01,-6.476515197753906250e+01,5.095794677734375000e+01,-1.495552921295166016e+01,-1.046862182617187500e+02,-1.162450561523437500e+02,6.409782409667968750e+01,-3.620685958862304688e+01
3.270350098609924316e-01,2.000000000000000000e+00,3.648093795776367188e+01,1.118601417541503906e+01,3.537558364868164062e+01,-1.106486511230468750e+02,9.087430572509765625e+01,-6.479132843017578125e+01,5.088565826416015625e+01,-1.494664955139160156e+01,-1.047012252807617188e+02,-1.162991180419921875e+02,6.409461975097656250e+01,-3.623674392700195312e+01
3.309659957885742188e-01,2.000000000000000000e+00,3.650970077514648438e+01,1.113846969604492188e+01,3.537009429931640625e+01,-1.107036972045898438e+02,9.087702941894531250e+01,-6.481729888916015625e+01,5.081281661987304688e+01,-1.493772315979003906e+01,-1.047164077758789062e+02,-1.163535461425781250e+02,6.409140777587890625e+01,-3.626574707031250000e+01
3.350070118904113770e-01,2.000000000000000000e+00,3.653869628906250000e+01,1.109056186676025391e+01,3.536454010009765625e+01,-1.107576828002929688e+02,9.087974548339843750e+01,-6.484307098388671875e+01,5.073987197875976562e+01,-1.492870521545410156e+01,-1.047316360473632812e+02,-1.164076156616210938e+02,6.408762359619140625e+01,-3.629661941528320312e+01
3.389779925346374512e-01,2.000000000000000000e+00,3.656780624389648438e+01,1.104281234741210938e+01,3.535890960693359375e+01,-1.108113555908203125e+02,9.088272857666015625e+01,-6.486768341064453125e+01,5.066746902465820312e+01,-1.491941261291503906e+01,-1.047469177246093750e+02,-1.164623336791992188e+02,6.408383178710937500e+01,-3.632781982421875000e+01
3.429690003395080566e-01,2.000000000000000000e+00,3.659679794311523438e+01,1.099506378173828125e+01,3.535335922241210938e+01,-1.108660888671875000e+02,9.088550567626953125e+01,-6.489264678955078125e+01,5.059512710571289062e+01,-1.491030311584472656e+01,-1.047619247436523438e+02,-1.165174789428710938e+02,6.408040618896484375e+01,-3.636099624633789062e+01
3.470810055732727051e-01,2.000000000000000000e+00,3.662570571899414062e+01,1.094697475433349609e+01,3.534793090820312500e+01,-1.109202957153320312e+02,9.088838958740234375e+01,-6.491767120361328125e+01,5.052244949340820312e+01,-1.490132999420166016e+01,-1.047769393920898438e+02,-1.165717697143554688e+02,6.407691192626953125e+01,-3.639483642578125000e+01
3.509689867496490479e-01,2.000000000000000000e+00,3.665455627441406250e+01,1.089902210235595703e+01,3.534239959716796875e+01,-1.109747543334960938e+02,9.089115142822265625e+01,-6.494303894042968750e+01,5.044911575317382812e+01,-1.489226627349853516e+01,-1.047919998168945312e+02,-1.166259078979492188e+02,6.407334136962890625e+01,-3.642955017089843750e+01
3.569070100784301758e-01,2.000000000000000000e+00,3.668349075317382812e+01,1.085111522674560547e+01,3.533678817749023438e+01,-1.110288543701171875e+02,9.089430236816406250e+01,-6.496839904785156250e+01,5.037523269653320312e+01,-1.488302040100097656e+01,-1.048070144653320312e+02,-1.166804809570312500e+02,6.406962585449218750e+01,-3.646405029296875000e+01
3.606170117855072021e-01,2.000000000000000000e+00,3.671254348754882812e+01,1.080313873291015625e+01,3.533123779296875000e+01,-1.110825195312500000e+02,9.089718627929687500e+01,-6.499430847167968750e+01,5.030168151855468750e+01,-1.487363529205322266e+01,-1.048219680786132812e+02,-1.167344055175781250e+02,6.406539916992187500e+01,-3.649865722656250000e+01
3.659299910068511963e-01,2.000000000000000000e+00,3.674156570434570312e+01,1.075509643554687500e+01,3.532574844360351562e+01,-1.111371536254882812e+02,9.090011596679687500e+01,-6.502027893066406250e+01,5.022944259643554688e+01,-1.486425209045410156e+01,-1.048369293212890625e+02,-1.167891159057617188e+02,6.406124877929687500e+01,-3.653381347656250000e+01
3.689639866352081299e-01,2.000000000000000000e+00,3.677044677734375000e+01,1.070700740814208984e+01,3.532040023803710938e+01,-1.111915054321289062e+02,9.090299224853515625e+01,-6.504543304443359375e+01,5.015671539306640625e+01,-1.485477542877197266e+01,-1.048520431518554688e+02,-1.168437728881835938e+02,6.405723571777343750e+01,-3.656820297241210938e+01
3.730489909648895264e-01,2.000000000000000000e+00,3.679932403564453125e+01,1.065880584716796875e+01,3.531503677368164062e+01,-1.112457122802734375e+02,9.090608215332031250e+01,-6.506978607177734375e+01,5.008343505859375000e+01,-1.484575748443603516e+01,-1.048667297363281250e+02,-1.168977584838867188e+02,6.405286407470703125e+01,-3.660171127319335938e+01
3.749699890613555908e-01,2.000000000000000000e+00,3.682828903198242188e+01,1.061064815521240234e+01,3.530946350097656250e+01,-1.112996444702148438e+02,9.090911865234375000e+01,-6.509494018554687500e+01,5.000933456420898438e+01,-1.483674049377441406e+01,-1.048811492919921875e+02,-1.169521255493164062e+02,6.404813385009765625e+01,-3.663576507568359375e+01
3.789669871330261230e-01,2.000000000000000000e+00,3.685745620727539062e+01,1.056228923797607422e+01,3.530379104614257812e+01,-1.113535842895507812e+02,9.091178894042968750e+01,-6.511989593505859375e+01,4.993572616577148438e+01,-1.482749366760253906e+01,-1.048958816528320312e+02,-1.170064849853515625e+02,6.404259490966796875e+01,-3.666850662231445312e+01
3.853070139884948730e-01,2.000000000000000000e+00,3.688679504394531250e+01,1.051413249969482422e+01,3.529822158813476562e+01,-1.114083633422851562e+02,9.091509246826171875e+01,-6.514553833007812500e+01,4.986288452148437500e+01,-1.481824588775634766e+01,-1.049112243652343750e+02,-1.170606994628906250e+02,6.403705596923828125e+01,-3.670135498046875000e+01
3.869589865207672119e-01,2.000000000000000000e+00,3.691590118408203125e+01,1.046611118316650391e+01,3.529271316528320312e+01,-1.114625167846679688e+02,9.091818237304687500e+01,-6.517137145996093750e+01,4.978971481323242188e+01,-1.480904579162597656e+01,-1.049262924194335938e+02,-1.171154785156250000e+02,6.403195190429687500e+01,-3.673398208618164062e+01
3.909640014171600342e-01,2.000000000000000000e+00,3.694481277465820312e+01,1.041804599761962891e+01,3.528709793090820312e+01,-1.115167694091796875e+02,9.092111968994140625e+01,-6.519734954833984375e+01,4.971605300903320312e+01,-1.479998207092285156e+01,-1.049409713745117188e+02,-1.171691207885742188e+02,6.402648925781250000e+01,-3.676430511474609375e+01
3.949699997901916504e-01,2.000000000000000000e+00,3.697360229492187500e+01,1.036995697021484375e+01,3.528140258789062500e+01,-1.115712356567382812e+02,9.092420959472656250e+01,-6.522270965576171875e+01,4.964189529418945312e+01,-1.479087257385253906e+01,-1.049558715820312500e+02,-1.172224655151367188e+02,6.402139282226562500e+01,-3.679220962524414062e+01
3.989610075950622559e-01,2.000000000000000000e+00,3.700256729125976562e+01,1.032195854187011719e+01,3.527565383911132812e+01,-1.116249618530273438e+02,9.092724609375000000e+01,-6.524739837646484375e+01,4.956911087036132812e+01,-1.478157997131347656e+01,-1.049709930419921875e+02,-1.172767562866210938e+02,6.401614379882812500e+01,-3.681967926025390625e+01
4.029949903488159180e-01,2.000000000000000000e+00,3.703144836425781250e+01,1.027409744262695312e+01,3.527009963989257812e+01,-1.116792144775390625e+02,9.093050384521484375e+01,-6.527221679687500000e+01,4.949692916870117188e+01,-1.477224063873291016e+01,-1.049860610961914062e+02,-1.173308334350585938e+02,6.401118469238281250e+01,-3.684670639038085938e+01
4.070119857788085938e-01,2.000000000000000000e+00,3.706041336059570312e+01,1.022621250152587891e+01,3.526467514038085938e+01,-1.117335205078125000e+02,9.093344116210937500e+01,-6.529743957519531250e+01,4.942447662353515625e+01,-1.476281166076660156e+01,-1.050012817382812500e+02,-1.173849716186523438e+02,6.400733184814453125e+01,-3.687285232543945312e+01
4.109640121459960938e-01,2.000000000000000000e+00,3.708911895751953125e+01,1.017828178405761719e+01,3.525930404663085938e+01,-1.117873001098632812e+02,9.093652343750000000e+01,-6.532294464111328125e+01,4.935125350952148438e+01,-1.475370216369628906e+01,-1.050163497924804688e+02,-1.174391860961914062e+02,6.400331878662109375e+01,-3.689779281616210938e+01
4.181349873542785645e-01,2.000000000000000000e+00,3.711791229248046875e+01,1.013035106658935547e+01,3.525371551513671875e+01,-1.118416671752929688e+02,9.093950653076171875e+01,-6.534857940673828125e+01,4.927786254882812500e+01,-1.474463844299316406e+01,-1.050313644409179688e+02,-1.174929046630859375e+02,6.399894714355468750e+01,-3.692284011840820312e+01
4.195649921894073486e-01,2.000000000000000000e+00,3.714684677124023438e+01,1.008239841461181641e+01,3.524816131591796875e+01,-1.118955459594726562e+02,9.094244384765625000e+01,-6.537448883056640625e+01,4.920507812500000000e+01,-1.473571109771728516e+01,-1.050468597412109375e+02,-1.175468215942382812e+02,6.399472045898437500e+01,-3.694920730590820312e+01
4.239639937877655029e-01,2.000000000000000000e+00,3.717564010620117188e+01,1.003464984893798828e+01,3.524265289306640625e+01,-1.119493865966796875e+02,9.094554138183593750e+01,-6.540012359619140625e+01,4.913306427001953125e+01,-1.472655582427978516e+01,-1.050618209838867188e+02,-1.176016769409179688e+02,6.399122238159179688e+01,-3.697524261474609375e+01
4.269610047340393066e-01,2.000000000000000000e+00,3.720454788208007812e+01,9.986809730529785156e+00,3.523710250854492188e+01,-1.120038452148437500e+02,9.094825744628906250e+01,-6.542487335205078125e+01,4.906093978881835938e+01,-1.471735572814941406e+01,-1.050773696899414062e+02,-1.176553268432617188e+02,6.398772811889648438e+01,-3.700095367431640625e+01
4.335309863090515137e-01,2.000000000000000000e+00,3.720454788208007812e+01,9.986809730529785156e+00,3.523710250854492188e+01,-1.120038452148437500e+02,9.094825744628906250e+01,-6.542487335205078125e+01,4.906093978881835938e+01,-1.471735572814941406e+01,-1.050773696899414062e+02,-1.176553268432617188e+02,6.398772811889648438e+01,-3.700095367431640625e+01
4.384050071239471436e-01,2.000000000000000000e+00,3.726216506958007812e+01,9.891402244567871094e+00,3.522602081298828125e+01,-1.121117248535156250e+02,9.095417785644531250e+01,-6.547465515136718750e+01,4.891460037231445312e+01,-1.469922828674316406e+01,-1.051081542968750000e+02,-1.177628860473632812e+02,6.398000335693359375e+01,-3.705247879028320312e+01
4.397909939289093018e-01,2.000000000000000000e+00,3.729101562500000000e+01,9.843517303466796875e+00,3.522051239013671875e+01,-1.121658172607421875e+02,9.095716094970703125e+01,-6.550008392333984375e+01,4.884236526489257812e+01,-1.469011878967285156e+01,-1.051231689453125000e+02,-1.178171691894531250e+02,6.397650527954101562e+01,-3.707961654663085938e+01
4.429999887943267822e-01,2.000000000000000000e+00,3.732000732421875000e+01,9.795586585998535156e+00,3.521504211425781250e+01,-1.122193908691406250e+02,9.096004486083984375e+01,-6.552577972412109375e+01,4.877084350585937500e+01,-1.468119144439697266e+01,-1.051385650634765625e+02,-1.178713912963867188e+02,6.397330093383789062e+01,-3.710839843750000000e+01
4.480899870395660400e-01,2.000000000000000000e+00,3.732000732421875000e+01,9.795586585998535156e+00,3.521504211425781250e+01,-1.122193908691406250e+02,9.096004486083984375e+01,-6.552577972412109375e+01,4.877084350585937500e+01,-1.468119144439697266e+01,-1.051385650634765625e+02,-1.178713912963867188e+02,6.397330093383789062e+01,-3.710839843750000000e+01
4.541330039501190186e-01,2.000000000000000000e+00,3.737796783447265625e+01,9.699840545654296875e+00,3.520436859130859375e+01,-1.123278427124023438e+02,9.096558380126953125e+01,-6.557739257812500000e+01,4.862505722045898438e+01,-1.466279029846191406e+01,-1.051688003540039062e+02,-1.179798812866210938e+02,6.396638107299804688e+01,-3.717057800292968750e+01
4.555389881134033203e-01,2.000000000000000000e+00,3.740699005126953125e+01,9.652180671691894531e+00,3.519873428344726562e+01,-1.123816833496093750e+02,9.096857452392578125e+01,-6.560241699218750000e+01,4.855171966552734375e+01,-1.465372753143310547e+01,-1.051841430664062500e+02,-1.180343170166015625e+02,6.396288681030273438e+01,-3.720397949218750000e+01
4.602169990539550781e-01,2.000000000000000000e+00,3.743572616577148438e+01,9.604319572448730469e+00,3.519310379028320312e+01,-1.124365158081054688e+02,9.097138977050781250e+01,-6.562730407714843750e+01,4.847899246215820312e+01,-1.464493656158447266e+01,-1.051992568969726562e+02,-1.180888061523437500e+02,6.395931243896484375e+01,-3.723803710937500000e+01
4.637590050697326660e-01,2.000000000000000000e+00,3.746471786499023438e+01,9.556570053100585938e+00,3.518749237060546875e+01,-1.124900817871093750e+02,9.097395324707031250e+01,-6.565219879150390625e+01,4.840725326538085938e+01,-1.463605690002441406e+01,-1.052147064208984375e+02,-1.181423873901367188e+02,6.395595932006835938e+01,-3.727385330200195312e+01
4.679670035839080811e-01,2.000000000000000000e+00,3.749362564086914062e+01,9.508774757385253906e+00,3.518206405639648438e+01,-1.125440750122070312e+02,9.097683715820312500e+01,-6.567729187011718750e+01,4.833479690551757812e+01,-1.462671852111816406e+01,-1.052293930053710938e+02,-1.181968078613281250e+02,6.395268249511718750e+01,-3.730889892578125000e+01
4.709619879722595215e-01,2.000000000000000000e+00,3.752244949340820312e+01,9.460732460021972656e+00,3.517647171020507812e+01,-1.125983810424804688e+02,9.097966003417968750e+01,-6.570285797119140625e+01,4.826146316528320312e+01,-1.461747074127197266e+01,-1.052442321777343750e+02,-1.182510910034179688e+02,6.394940185546875000e+01,-3.734317398071289062e+01
4.760070145130157471e-01,2.000000000000000000e+00,3.752244949340820312e+01,9.460732460021972656e+00,3.517647171020507812e+01,-1.125983810424804688e+02,9.097966003417968750e+01,-6.570285797119140625e+01,4.826146316528320312e+01,-1.461747074127197266e+01,-1.052442321777343750e+02,-1.182510910034179688e+02,6.394940185546875000e+01,-3.734317398071289062e+01
4.789620041847229004e-01,2.000000000000000000e+00,3.758032226562500000e+01,9.364894866943359375e+00,3.516521072387695312e+01,-1.127061462402343750e+02,9.098526000976562500e+01,-6.575466918945312500e+01,4.811556625366210938e+01,-1.459911441802978516e+01,-1.052741546630859375e+02,-1.183603897094726562e+02,6.394131469726562500e+01,-3.741425704956054688e+01
4.872060120105743408e-01,2.000000000000000000e+00,3.758032226562500000e+01,9.364894866943359375e+00,3.516521072387695312e+01,-1.127061462402343750e+02,9.098526000976562500e+01,-6.575466918945312500e+01,4.811556625366210938e+01,-1.459911441802978516e+01,-1.052741546630859375e+02,-1.183603897094726562e+02,6.394131469726562500e+01,-3.741425704956054688e+01
4.885129928588867188e-01,2.000000000000000000e+00,3.763825225830078125e+01,9.269169807434082031e+00,3.515419006347656250e+01,-1.128134536743164062e+02,9.099063873291015625e+01,-6.580445098876953125e+01,4.797054672241210938e+01,-1.458057594299316406e+01,-1.053036880493164062e+02,-1.184685287475585938e+02,6.393249893188476562e+01,-3.748698806762695312e+01
4.919579923152923584e-01,2.000000000000000000e+00,3.766741943359375000e+01,9.221240043640136719e+00,3.514871978759765625e+01,-1.128679122924804688e+02,9.099309539794921875e+01,-6.582906341552734375e+01,4.789699172973632812e+01,-1.457110023498535156e+01,-1.053188095092773438e+02,-1.185226593017578125e+02,6.392834472656250000e+01,-3.752192306518554688e+01
4.949640035629272461e-01,2.000000000000000000e+00,3.769635391235351562e+01,9.173151969909667969e+00,3.514315032958984375e+01,-1.129216918945312500e+02,9.099608612060546875e+01,-6.585414886474609375e+01,4.782382583618164062e+01,-1.456180763244628906e+01,-1.053339767456054688e+02,-1.185768127441406250e+02,6.392339324951171875e+01,-3.755696868896484375e+01
5.000110268592834473e-01,2.000000000000000000e+00,3.769635391235351562e+01,9.173151969909667969e+00,3.514315032958984375e+01,-1.129216918945312500e+02,9.099608612060546875e+01,-6.585414886474609375e+01,4.782382583618164062e+01,-1.456180763244628906e+01,-1.053339767456054688e+02,-1.185768127441406250e+02,6.392339324951171875e+01,-3.755696868896484375e+01
5.029619932174682617e-01,2.000000000000000000e+00,3.775425720214843750e+01,9.077109336853027344e+00,3.513192367553710938e+01,-1.130295715332031250e+02,9.100167846679687500e+01,-6.590494537353515625e+01,4.767940521240234375e+01,-1.454335975646972656e+01,-1.053631820678710938e+02,-1.186843719482421875e+02,6.391268157958984375e+01,-3.762288665771484375e+01
5.070570111274719238e-01,2.000000000000000000e+00,3.775425720214843750e+01,9.077109336853027344e+00,3.513192367553710938e+01,-1.130295715332031250e+02,9.100167846679687500e+01,-6.590494537353515625e+01,4.767940521240234375e+01,-1.454335975646972656e+01,-1.053631820678710938e+02,-1.186843719482421875e+02,6.391268157958984375e+01,-3.762288665771484375e+01
5.141649842262268066e-01,2.000000000000000000e+00,3.778330993652343750e+01,9.029270172119140625e+00,3.512645721435546875e+01,-1.130831909179687500e+02,9.100424194335937500e+01,-6.593085479736328125e+01,4.760651397705078125e+01,-1.453438663482666016e+01,-1.053780288696289062e+02,-1.187382202148437500e+02,6.390823745727539062e+01,-3.765343093872070312e+01
5.156880021095275879e-01,2.000000000000000000e+00,3.784141159057617188e+01,8.933454513549804688e+00,3.511531448364257812e+01,-1.131915969848632812e+02,9.100967407226562500e+01,-6.598117065429687500e+01,4.746006393432617188e+01,-1.451566505432128906e+01,-1.054078903198242188e+02,-1.188467941284179688e+02,6.389934539794921875e+01,-3.771088790893554688e+01
5.221049785614013672e-01,2.000000000000000000e+00,3.784141159057617188e+01,8.933454513549804688e+00,3.511531448364257812e+01,-1.131915969848632812e+02,9.100967407226562500e+01,-6.598117065429687500e+01,4.738794326782226562e+01,-1.450632667541503906e+01,-1.054227981567382812e+02,-1.189005737304687500e+02,6.389446640014648438e+01,-3.773857498168945312e+01
5.234959721565246582e-01,2.000000000000000000e+00,3.789891052246093750e+01,8.837753295898437500e+00,3.510433578491210938e+01,-1.132999420166015625e+02,9.101522064208984375e+01,-6.603061676025390625e+01,4.731554031372070312e+01,-1.449721622467041016e+01,-1.054378051757812500e+02,-1.189541549682617188e+02,6.389023971557617188e+01,-3.776571273803710938e+01
5.270760059356689453e-01,2.000000000000000000e+00,3.789891052246093750e+01,8.837753295898437500e+00,3.510433578491210938e+01,-1.132999420166015625e+02,9.101522064208984375e+01,-6.603061676025390625e+01,4.731554031372070312e+01,-1.449721622467041016e+01,-1.054378051757812500e+02,-1.189541549682617188e+02,6.389023971557617188e+01,-3.776571273803710938e+01
5.314589738845825195e-01,2.000000000000000000e+00,3.795655441284179688e+01,8.742435455322265625e+00,3.509364318847656250e+01,-1.134076080322265625e+02,9.102066040039062500e+01,-6.608120727539062500e+01,4.716964340209960938e+01,-1.447881412506103516e+01,-1.054675521850585938e+02,-1.190605697631835938e+02,6.388200378417968750e+01,-3.781877517700195312e+01
5.351799726486206055e-01,2.000000000000000000e+00,3.795655441284179688e+01,8.742435455322265625e+00,3.509364318847656250e+01,-1.134076080322265625e+02,9.102066040039062500e+01,-6.608120727539062500e+01,4.716964340209960938e+01,-1.447881412506103516e+01,-1.054675521850585938e+02,-1.190605697631835938e+02,6.388200378417968750e+01,-3.781877517700195312e+01
5.390890240669250488e-01,2.000000000000000000e+00,3.801422500610351562e+01,8.646801948547363281e+00,3.508259963989257812e+01,-1.135154876708984375e+02,9.102620697021484375e+01,-6.613254547119140625e+01,4.702434539794921875e+01,-1.446000099182128906e+01,-1.054974136352539062e+02,-1.191682815551757812e+02,6.387297058105468750e+01,-3.786876296997070312e+01
5.430080294609069824e-01,2.000000000000000000e+00,3.801422500610351562e+01,8.646801948547363281e+00,3.508259963989257812e+01,-1.135154876708984375e+02,9.102620697021484375e+01,-6.613254547119140625e+01,4.702434539794921875e+01,-1.446000099182128906e+01,-1.054974136352539062e+02,-1.191682815551757812e+02,6.387297058105468750e+01,-3.786876296997070312e+01
5.470830202102661133e-01,2.000000000000000000e+00,3.804293060302734375e+01,8.599052429199218750e+00,3.507703018188476562e+01,-1.135694198608398438e+02,9.102902984619140625e+01,-6.615743255615234375e+01,4.695233154296875000e+01,-1.445098304748535156e+01,-1.055123672485351562e+02,-1.192218399047851562e+02,6.386866760253906250e+01,-3.789326095581054688e+01
5.510219931602478027e-01,2.000000000000000000e+00,3.807178115844726562e+01,8.551439285278320312e+00,3.507151794433593750e+01,-1.136231536865234375e+02,9.103185272216796875e+01,-6.618144226074218750e+01,4.687976837158203125e+01,-1.444205570220947266e+01,-1.055274353027343750e+02,-1.192760620117187500e+02,6.386429977416992188e+01,-3.791852951049804688e+01
5.560939908027648926e-01,2.000000000000000000e+00,3.810086059570312500e+01,8.503600120544433594e+00,3.506599044799804688e+01,-1.136768264770507812e+02,9.103484344482421875e+01,-6.620659637451171875e+01,4.680637741088867188e+01,-1.443313121795654297e+01,-1.055424499511718750e+02,-1.193300552368164062e+02,6.386000061035156250e+01,-3.794347000122070312e+01
5.596370100975036621e-01,2.000000000000000000e+00,3.815842056274414062e+01,8.408214569091796875e+00,3.505464553833007812e+01,-1.137845993041992188e+02,9.104049682617187500e+01,-6.625678253173828125e+01,4.666091918945312500e+01,-1.441495704650878906e+01,-1.055730667114257812e+02,-1.194372634887695312e+02,6.385205841064453125e+01,-3.799609375000000000e+01
5.640190243721008301e-01,2.000000000000000000e+00,3.815842056274414062e+01,8.408214569091796875e+00,3.505464553833007812e+01,-1.137845993041992188e+02,9.104049682617187500e+01,-6.625678253173828125e+01,4.666091918945312500e+01,-1.441495704650878906e+01,-1.055730667114257812e+02,-1.194372634887695312e+02,6.385205841064453125e+01,-3.799609375000000000e+01
5.679680109024047852e-01,2.000000000000000000e+00,3.818715286254882812e+01,8.360352516174316406e+00,3.504907608032226562e+01,-1.138385391235351562e+02,9.104331970214843750e+01,-6.628234863281250000e+01,4.658895874023437500e+01,-1.440621280670166016e+01,-1.055881881713867188e+02,-1.194914703369140625e+02,6.384819793701171875e+01,-3.802499008178710938e+01
5.720419883728027344e-01,2.000000000000000000e+00,3.821586227416992188e+01,8.312467575073242188e+00,3.504370498657226562e+01,-1.138924789428710938e+02,9.104630279541015625e+01,-6.630825805664062500e+01,4.651661300659179688e+01,-1.439733219146728516e+01,-1.056033020019531250e+02,-1.195446777343750000e+02,6.384433364868164062e+01,-3.805443191528320312e+01
5.759869813919067383e-01,2.000000000000000000e+00,3.824471282958984375e+01,8.264492034912109375e+00,3.503827667236328125e+01,-1.139459381103515625e+02,9.104924011230468750e+01,-6.633382415771484375e+01,4.644355392456054688e+01,-1.438826847076416016e+01,-1.056184234619140625e+02,-1.195981063842773438e+02,6.384105682373046875e+01,-3.808530426025390625e+01
5.800150036811828613e-01,2.000000000000000000e+00,3.827367782592773438e+01,8.216697692871093750e+00,3.503272628784179688e+01,-1.140005645751953125e+02,9.105216979980468750e+01,-6.635816955566406250e+01,4.637033081054687500e+01,-1.437934303283691406e+01,-1.056334915161132812e+02,-1.196523208618164062e+02,6.383755874633789062e+01,-3.811683273315429688e+01
5.849779844284057617e-01,2.000000000000000000e+00,3.830247116088867188e+01,8.169061660766601562e+00,3.502705383300781250e+01,-1.140542907714843750e+02,9.105499267578125000e+01,-6.638285827636718750e+01,4.629825973510742188e+01,-1.437005043029785156e+01,-1.056486663818359375e+02,-1.197063903808593750e+02,6.383406066894531250e+01,-3.815045166015625000e+01
5.889999866485595703e-01,2.000000000000000000e+00,3.835993957519531250e+01,8.073495864868164062e+00,3.501599502563476562e+01,-1.141625366210937500e+02,9.106128692626953125e+01,-6.643310546875000000e+01,4.615379333496093750e+01,-1.435205936431884766e+01,-1.056790161132812500e+02,-1.198151016235351562e+02,6.382662963867187500e+01,-3.821977615356445312e+01
5.917199850082397461e-01,2.000000000000000000e+00,3.838859176635742188e+01,8.025746345520019531e+00,3.501050567626953125e+01,-1.142157363891601562e+02,9.106422424316406250e+01,-6.645880889892578125e+01,4.608062362670898438e+01,-1.434336280822753906e+01,-1.056942977905273438e+02,-1.198686752319335938e+02,6.382305908203125000e+01,-3.825405120849609375e+01
5.960450172424316406e-01,2.000000000000000000e+00,3.838859176635742188e+01,8.025746345520019531e+00,3.501050567626953125e+01,-1.142157363891601562e+02,9.106422424316406250e+01,-6.645880889892578125e+01,4.608062362670898438e+01,-1.434336280822753906e+01,-1.056942977905273438e+02,-1.198686752319335938e+02,6.382305908203125000e+01,-3.825405120849609375e+01
5.990809798240661621e-01,2.000000000000000000e+00,3.841735458374023438e+01,7.977703094482421875e+00,3.500491333007812500e+01,-1.142694625854492188e+02,9.106742095947265625e+01,-6.648471069335937500e+01,4.600767135620117188e+01,-1.433448219299316406e+01,-1.057091979980468750e+02,-1.199228134155273438e+02,6.381927490234375000e+01,-3.828953933715820312e+01
6.040019989013671875e-01,2.000000000000000000e+00,3.847505569458007812e+01,7.882272243499755859e+00,3.499379348754882812e+01,-1.143778152465820312e+02,9.107338714599609375e+01,-6.653483581542968750e+01,4.586413574218750000e+01,-1.431617164611816406e+01,-1.057392196655273438e+02,-1.200301666259765625e+02,6.381139755249023438e+01,-3.836106109619140625e+01
6.080129742622375488e-01,2.000000000000000000e+00,3.847505569458007812e+01,7.882272243499755859e+00,3.499379348754882812e+01,-1.143778152465820312e+02,9.107338714599609375e+01,-6.653483581542968750e+01,4.586413574218750000e+01,-1.431617164611816406e+01,-1.057392196655273438e+02,-1.200301666259765625e+02,6.381139755249023438e+01,-3.836106109619140625e+01
6.111329793930053711e-01,2.000000000000000000e+00,3.850376510620117188e+01,7.834501266479492188e+00,3.498850631713867188e+01,-1.144316482543945312e+02,9.107648468017578125e+01,-6.655937957763671875e+01,4.579173660278320312e+01,-1.430715274810791016e+01,-1.057541198730468750e+02,-1.200845870971679688e+02,6.380805206298828125e+01,-3.839577484130859375e+01
6.169790029525756836e-01,2.000000000000000000e+00,3.853261566162109375e+01,7.786684036254882812e+00,3.498313522338867188e+01,-1.144853744506835938e+02,9.107952117919921875e+01,-6.658454132080078125e+01,4.571851348876953125e+01,-1.429781532287597656e+01,-1.057687530517578125e+02,-1.201388778686523438e+02,6.380440521240234375e+01,-3.843136978149414062e+01
6.195520162582397461e-01,2.000000000000000000e+00,3.859034347534179688e+01,7.690936565399169922e+00,3.497199630737304688e+01,-1.145932540893554688e+02,9.108533477783203125e+01,-6.663506317138671875e+01,4.557371520996093750e+01,-1.427918434143066406e+01,-1.057985076904296875e+02,-1.202472305297851562e+02,6.379559326171875000e+01,-3.850003814697265625e+01
6.240079998970031738e-01,2.000000000000000000e+00,3.859034347534179688e+01,7.690936565399169922e+00,3.497199630737304688e+01,-1.145932540893554688e+02,9.108533477783203125e+01,-6.663506317138671875e+01,4.557371520996093750e+01,-1.427918434143066406e+01,-1.057985076904296875e+02,-1.202472305297851562e+02,6.379559326171875000e+01,-3.850003814697265625e+01
6.270509958267211914e-01,2.000000000000000000e+00,3.861930847167968750e+01,7.643165111541748047e+00,3.496650314331054688e+01,-1.146469268798828125e+02,9.108837127685546875e+01,-6.666110229492187500e+01,4.550164031982421875e+01,-1.426952552795410156e+01,-1.058134078979492188e+02,-1.203010101318359375e+02,6.379129028320312500e+01,-3.853431701660156250e+01
6.319429874420166016e-01,2.000000000000000000e+00,3.864804077148437500e+01,7.595347881317138672e+00,3.496099472045898438e+01,-1.147008132934570312e+02,9.109136199951171875e+01,-6.668687438964843750e+01,4.542891311645507812e+01,-1.426004981994628906e+01,-1.058282012939453125e+02,-1.203546524047851562e+02,6.378655624389648438e+01,-3.856694412231445312e+01
6.360350251197814941e-01,2.000000000000000000e+00,3.867669296264648438e+01,7.547554016113281250e+00,3.495550918579101562e+01,-1.147542266845703125e+02,9.109413146972656250e+01,-6.671183013916015625e+01,4.535563659667968750e+01,-1.425093936920166016e+01,-1.058425598144531250e+02,-1.204086532592773438e+02,6.378203582763671875e+01,-3.859682464599609375e+01
6.409109830856323242e-01,2.000000000000000000e+00,3.873436355590820312e+01,7.452123165130615234e+00,3.494424057006835938e+01,-1.148625717163085938e+02,9.109989166259765625e+01,-6.676154327392578125e+01,4.521089172363281250e+01,-1.423249244689941406e+01,-1.058721466064453125e+02,-1.205152206420898438e+02,6.377256774902343750e+01,-3.865373611450195312e+01
6.437579989433288574e-01,2.000000000000000000e+00,3.876332855224609375e+01,7.404419422149658203e+00,3.493859100341796875e+01,-1.149162521362304688e+02,9.110266113281250000e+01,-6.678670501708984375e+01,4.513909530639648438e+01,-1.422306251525878906e+01,-1.058868331909179688e+02,-1.205692901611328125e+02,6.376819610595703125e+01,-3.868262863159179688e+01
6.480159759521484375e-01,2.000000000000000000e+00,3.876332855224609375e+01,7.404419422149658203e+00,3.493859100341796875e+01,-1.149162521362304688e+02,9.110266113281250000e+01,-6.678670501708984375e+01,4.513909530639648438e+01,-1.422306251525878906e+01,-1.058868331909179688e+02,-1.205692901611328125e+02,6.376819610595703125e+01,-3.868262863159179688e+01
6.511620283126831055e-01,2.000000000000000000e+00,3.879209518432617188e+01,7.356715679168701172e+00,3.493328475952148438e+01,-1.149701309204101562e+02,9.110548400878906250e+01,-6.681199645996093750e+01,4.506620025634765625e+01,-1.421367835998535156e+01,-1.059017868041992188e+02,-1.206232070922851562e+02,6.376338958740234375e+01,-3.870976638793945312e+01
6.561710238456726074e-01,2.000000000000000000e+00,3.882068634033203125e+01,7.309102535247802734e+00,3.492793655395507812e+01,-1.150241317749023438e+02,9.110820770263671875e+01,-6.683770751953125000e+01,4.499253463745117188e+01,-1.420447731018066406e+01,-1.059167938232421875e+02,-1.206771392822265625e+02,6.375843048095703125e+01,-3.873745346069335938e+01
6.591889858245849609e-01,2.000000000000000000e+00,3.884928131103515625e+01,7.261533737182617188e+00,3.492246627807617188e+01,-1.150774841308593750e+02,9.111092376708984375e+01,-6.686373901367187500e+01,4.491942214965820312e+01,-1.419541358947753906e+01,-1.059319152832031250e+02,-1.207308502197265625e+02,6.375304031372070312e+01,-3.876514053344726562e+01
6.633849740028381348e-01,2.000000000000000000e+00,3.887804031372070312e+01,7.213829994201660156e+00,3.491689682006835938e+01,-1.151316375732421875e+02,9.111391448974609375e+01,-6.688883209228515625e+01,4.484751892089843750e+01,-1.418616676330566406e+01,-1.059465484619140625e+02,-1.207843399047851562e+02,6.374866867065429688e+01,-3.879281997680664062e+01
6.681150197982788086e-01,2.000000000000000000e+00,3.890692138671875000e+01,7.166171550750732422e+00,3.491130828857421875e+01,-1.151857299804687500e+02,9.111663055419921875e+01,-6.691331481933593750e+01,4.477555465698242188e+01,-1.417687416076660156e+01,-1.059613418579101562e+02,-1.208382720947265625e+02,6.374473571777343750e+01,-3.881940841674804688e+01
6.713640093803405762e-01,2.000000000000000000e+00,3.893577194213867188e+01,7.118467807769775391e+00,3.490579605102539062e+01,-1.152390899658203125e+02,9.111919403076171875e+01,-6.693799591064453125e+01,4.470266342163085938e+01,-1.416744422912597656e+01,-1.059766235351562500e+02,-1.208919754028320312e+02,6.374058151245117188e+01,-3.884423828125000000e+01
6.753799915313720703e-01,2.000000000000000000e+00,3.896445083618164062e+01,7.070854187011718750e+00,3.490032577514648438e+01,-1.152931823730468750e+02,9.112191009521484375e+01,-6.696289062500000000e+01,4.462943649291992188e+01,-1.415819644927978516e+01,-1.059916915893554688e+02,-1.209447555541992188e+02,6.373642349243164062e+01,-3.886972427368164062e+01
6.803020238876342773e-01,2.000000000000000000e+00,3.899327087402343750e+01,7.023172855377197266e+00,3.489485549926757812e+01,-1.153465423583984375e+02,9.112462615966796875e+01,-6.698812103271484375e+01,4.455654525756835938e+01,-1.414917945861816406e+01,-1.060069656372070312e+02,-1.209983978271484375e+02,6.373234558105468750e+01,-3.889642333984375000e+01
6.833990216255187988e-01,2.000000000000000000e+00,3.902209472656250000e+01,6.975536823272705078e+00,3.488924407958984375e+01,-1.154002685546875000e+02,9.112740325927734375e+01,-6.701395416259765625e+01,4.448502349853515625e+01,-1.414034461975097656e+01,-1.060221481323242188e+02,-1.210529708862304688e+02,6.372870635986328125e+01,-3.892235183715820312e+01
6.875650286674499512e-01,2.000000000000000000e+00,3.905102920532226562e+01,6.928014278411865234e+00,3.488377761840820312e+01,-1.154544143676757812e+02,9.112985229492187500e+01,-6.703952026367187500e+01,4.441311645507812500e+01,-1.413132572174072266e+01,-1.060372695922851562e+02,-1.211068267822265625e+02,6.372476959228515625e+01,-3.895146560668945312e+01
6.939920186996459961e-01,2.000000000000000000e+00,3.907962036132812500e+01,6.880174636840820312e+00,3.487834930419921875e+01,-1.155076675415039062e+02,9.113262939453125000e+01,-6.706515502929687500e+01,4.434033203125000000e+01,-1.412221717834472656e+01,-1.060525436401367188e+02,-1.211609573364257812e+02,6.372083663940429688e+01,-3.898069000244140625e+01
6.966199874877929688e-01,2.000000000000000000e+00,3.913711929321289062e+01,6.784495353698730469e+00,3.486773300170898438e+01,-1.156157073974609375e+02,9.113795471191406250e+01,-6.711418914794921875e+01,4.419514846801757812e+01,-1.410436344146728516e+01,-1.060829544067382812e+02,-1.212684555053710938e+02,6.371398544311523438e+01,-3.904352951049804688e+01
7.000169754028320312e-01,2.000000000000000000e+00,3.913711929321289062e+01,6.784495353698730469e+00,3.486773300170898438e+01,-1.156157073974609375e+02,9.113795471191406250e+01,-6.711418914794921875e+01,4.419514846801757812e+01,-1.410436344146728516e+01,-1.060829544067382812e+02,-1.212684555053710938e+02,6.371398544311523438e+01,-3.904352951049804688e+01
7.044510245323181152e-01,2.000000000000000000e+00,3.916568374633789062e+01,6.736791610717773438e+00,3.486216354370117188e+01,-1.156686935424804688e+02,9.114062500000000000e+01,-6.713887786865234375e+01,4.412368011474609375e+01,-1.409543800354003906e+01,-1.060981826782226562e+02,-1.213226013183593750e+02,6.371063232421875000e+01,-3.907538986206054688e+01
7.074369788169860840e-01,2.000000000000000000e+00,3.919441986083984375e+01,6.689155101776123047e+00,3.485649108886718750e+01,-1.157227935791015625e+02,9.114328765869140625e+01,-6.716390228271484375e+01,4.405172348022460938e+01,-1.408651161193847656e+01,-1.061130828857421875e+02,-1.213767395019531250e+02,6.370742797851562500e+01,-3.910647964477539062e+01
7.120079994201660156e-01,2.000000000000000000e+00,3.922318649291992188e+01,6.641451358795166016e+00,3.485103988647460938e+01,-1.157765197753906250e+02,9.114589691162109375e+01,-6.718960571289062500e+01,4.397932052612304688e+01,-1.407753944396972656e+01,-1.061281509399414062e+02,-1.214303817749023438e+02,6.370421981811523438e+01,-3.913943862915039062e+01
7.164070010185241699e-01,2.000000000000000000e+00,3.925174713134765625e+01,6.593815803527832031e+00,3.484569549560546875e+01,-1.158300933837890625e+02,9.114867401123046875e+01,-6.721517181396484375e+01,4.390631866455078125e+01,-1.406829166412353516e+01,-1.061434326171875000e+02,-1.214848022460937500e+02,6.370072174072265625e+01,-3.917229080200195312e+01
7.197200059890747070e-01,2.000000000000000000e+00,3.928036880493164062e+01,6.546247482299804688e+00,3.484006500244140625e+01,-1.158844985961914062e+02,9.115128326416015625e+01,-6.724093627929687500e+01,4.383424758911132812e+01,-1.405918312072753906e+01,-1.061589355468750000e+02,-1.215394592285156250e+02,6.369672012329101562e+01,-3.920535659790039062e+01
7.240179777145385742e-01,2.000000000000000000e+00,3.930907440185546875e+01,6.498384952545166016e+00,3.483428955078125000e+01,-1.159379653930664062e+02,9.115389251708984375e+01,-6.726542663574218750e+01,4.376261901855468750e+01,-1.405030250549316406e+01,-1.061740493774414062e+02,-1.215933761596679688e+02,6.369256591796875000e+01,-3.924007415771484375e+01
7.286670207977294922e-01,2.000000000000000000e+00,3.933761215209960938e+01,6.450568199157714844e+00,3.482875823974609375e+01,-1.159914321899414062e+02,9.115650939941406250e+01,-6.728956604003906250e+01,4.369065856933593750e+01,-1.404142189025878906e+01,-1.061889495849609375e+02,-1.216478118896484375e+02,6.368891906738281250e+01,-3.927511978149414062e+01
7.321289777755737305e-01,2.000000000000000000e+00,3.936663055419921875e+01,6.403068065643310547e+00,3.482324981689453125e+01,-1.160455856323242188e+02,9.115896606445312500e+01,-6.731479644775390625e+01,4.361781692504882812e+01,-1.403244972229003906e+01,-1.062039642333984375e+02,-1.217016677856445312e+02,6.368542098999023438e+01,-3.930918121337890625e+01
7.359759807586669922e-01,2.000000000000000000e+00,3.939528274536132812e+01,6.355341434478759766e+00,3.481796264648437500e+01,-1.160990371704101562e+02,9.116184234619140625e+01,-6.733988952636718750e+01,4.354520034790039062e+01,-1.402334022521972656e+01,-1.062188720703125000e+02,-1.217550888061523438e+02,6.368090820312500000e+01,-3.934280014038085938e+01
7.414259910583496094e-01,2.000000000000000000e+00,3.942404556274414062e+01,6.307818412780761719e+00,3.481249618530273438e+01,-1.161529846191406250e+02,9.116451263427734375e+01,-6.736450195312500000e+01,4.347274398803710938e+01,-1.401404762268066406e+01,-1.062336654663085938e+02,-1.218093795776367188e+02,6.367616653442382812e+01,-3.937674331665039062e+01
7.441859841346740723e-01,2.000000000000000000e+00,3.945278167724609375e+01,6.260137557983398438e+00,3.480698394775390625e+01,-1.162063980102539062e+02,9.116722869873046875e+01,-6.739006805419921875e+01,4.340083694458007812e+01,-1.400479984283447266e+01,-1.062485580444335938e+02,-1.218628005981445312e+02,6.367172622680664062e+01,-3.941091156005859375e+01
7.480880022048950195e-01,2.000000000000000000e+00,3.948171615600585938e+01,6.212297916412353516e+00,3.480137252807617188e+01,-1.162596969604492188e+02,9.116994476318359375e+01,-6.741625213623046875e+01,4.332865905761718750e+01,-1.399559879302978516e+01,-1.062634048461914062e+02,-1.219159240722656250e+02,6.366735458374023438e+01,-3.944277572631835938e+01
7.529770135879516602e-01,2.000000000000000000e+00,3.951056671142578125e+01,6.164661407470703125e+00,3.479594039916992188e+01,-1.163136444091796875e+02,9.117250823974609375e+01,-6.744168090820312500e+01,4.325576400756835938e+01,-1.398639869689941406e+01,-1.062782058715820312e+02,-1.219702987670898438e+02,6.366291046142578125e+01,-3.947463607788085938e+01
7.568690180778503418e-01,2.000000000000000000e+00,3.953953552246093750e+01,6.116822242736816406e+00,3.479055404663085938e+01,-1.163675155639648438e+02,9.117538452148437500e+01,-6.746622467041015625e+01,4.318243026733398438e+01,-1.397692298889160156e+01,-1.062929992675781250e+02,-1.220241470336914062e+02,6.365788269042968750e+01,-3.950616455078125000e+01
7.601040005683898926e-01,2.000000000000000000e+00,3.956821060180664062e+01,6.069095611572265625e+00,3.478500366210937500e+01,-1.164214096069335938e+02,9.117794799804687500e+01,-6.749030303955078125e+01,4.310953521728515625e+01,-1.396735572814941406e+01,-1.063077926635742188e+02,-1.220774993896484375e+02,6.365299987792968750e+01,-3.953637695312500000e+01
7.639960050582885742e-01,2.000000000000000000e+00,3.959680175781250000e+01,6.021481990814208984e+00,3.477941131591796875e+01,-1.164747695922851562e+02,9.118071746826171875e+01,-6.751546478271484375e+01,4.303757476806640625e+01,-1.395810890197753906e+01,-1.063226928710937500e+02,-1.221319961547851562e+02,6.364862823486328125e+01,-3.956483078002929688e+01
7.681310176849365234e-01,2.000000000000000000e+00,3.962556838989257812e+01,5.973891258239746094e+00,3.477402496337890625e+01,-1.165280151367187500e+02,9.118375396728515625e+01,-6.754075622558593750e+01,4.296550369262695312e+01,-1.394886207580566406e+01,-1.063372726440429688e+02,-1.221857070922851562e+02,6.364418029785156250e+01,-3.959339523315429688e+01
7.722139954566955566e-01,2.000000000000000000e+00,3.965433502197265625e+01,5.926323413848876953e+00,3.476871871948242188e+01,-1.165821609497070312e+02,9.118657684326171875e+01,-6.756632995605468750e+01,4.289282989501953125e+01,-1.393970680236816406e+01,-1.063519515991210938e+02,-1.222386245727539062e+02,6.364032363891601562e+01,-3.962250900268554688e+01
7.771440148353576660e-01,2.000000000000000000e+00,3.968321228027343750e+01,5.878664970397949219e+00,3.476341247558593750e+01,-1.166360015869140625e+02,9.118935394287109375e+01,-6.759203338623046875e+01,4.281960296630859375e+01,-1.393036842346191406e+01,-1.063666381835937500e+02,-1.222924041748046875e+02,6.363645553588867188e+01,-3.964975738525390625e+01
7.800809741020202637e-01,2.000000000000000000e+00,3.971203231811523438e+01,5.831097126007080078e+00,3.475804519653320312e+01,-1.166896133422851562e+02,9.119223022460937500e+01,-6.761759948730468750e+01,4.274676513671875000e+01,-1.392093849182128906e+01,-1.063814849853515625e+02,-1.223459167480468750e+02,6.363208389282226562e+01,-3.967766189575195312e+01
7.842019796371459961e-01,2.000000000000000000e+00,3.974068069458007812e+01,5.783596515655517578e+00,3.475257492065429688e+01,-1.167436141967773438e+02,9.119495391845703125e+01,-6.764248657226562500e+01,4.267507934570312500e+01,-1.391164588928222656e+01,-1.063966064453125000e+02,-1.223996124267578125e+02,6.362727737426757812e+01,-3.970534896850585938e+01
7.883350253105163574e-01,2.000000000000000000e+00,3.976930236816406250e+01,5.736028194427490234e+00,3.474706649780273438e+01,-1.167967147827148438e+02,9.119788360595703125e+01,-6.766683197021484375e+01,4.260317611694335938e+01,-1.390258216857910156e+01,-1.064119415283203125e+02,-1.224535446166992188e+02,6.362290573120117188e+01,-3.973434829711914062e+01
7.923499941825866699e-01,2.000000000000000000e+00,3.979801177978515625e+01,5.688302040100097656e+00,3.474165725708007812e+01,-1.168507003784179688e+02,9.120081329345703125e+01,-6.769165039062500000e+01,4.253049850463867188e+01,-1.389347267150878906e+01,-1.064266281127929688e+02,-1.225066146850585938e+02,6.361904525756835938e+01,-3.976247787475585938e+01
7.961980104446411133e-01,2.000000000000000000e+00,3.982677459716796875e+01,5.640734195709228516e+00,3.473616790771484375e+01,-1.169050140380859375e+02,9.120384979248046875e+01,-6.771681213378906250e+01,4.245727539062500000e+01,-1.388436222076416016e+01,-1.064416427612304688e+02,-1.225600280761718750e+02,6.361437988281250000e+01,-3.978961181640625000e+01
7.989559769630432129e-01,2.000000000000000000e+00,3.985565185546875000e+01,5.593188285827636719e+00,3.473059844970703125e+01,-1.169582061767578125e+02,9.120668029785156250e+01,-6.774204254150390625e+01,4.238504028320312500e+01,-1.387511634826660156e+01,-1.064565353393554688e+02,-1.226137390136718750e+02,6.360971450805664062e+01,-3.981685638427734375e+01
8.029509782791137695e-01,2.000000000000000000e+00,3.988436126708984375e+01,5.545552253723144531e+00,3.472494506835937500e+01,-1.170121002197265625e+02,9.120966339111328125e+01,-6.776787567138671875e+01,4.231373977661132812e+01,-1.386586856842041016e+01,-1.064717712402343750e+02,-1.226673202514648438e+02,6.360512542724609375e+01,-3.984553146362304688e+01
8.070200085639953613e-01,2.000000000000000000e+00,3.991306686401367188e+01,5.498029708862304688e+00,3.471933364868164062e+01,-1.170655670166015625e+02,9.121254730224609375e+01,-6.779384613037109375e+01,4.224232864379882812e+01,-1.385662269592285156e+01,-1.064868927001953125e+02,-1.227212371826171875e+02,6.360140991210937500e+01,-3.987486648559570312e+01
8.109639883041381836e-01,2.000000000000000000e+00,3.994174575805664062e+01,5.450620174407958984e+00,3.471388244628906250e+01,-1.171188659667968750e+02,9.121569061279296875e+01,-6.781907653808593750e+01,4.216992950439453125e+01,-1.384774208068847656e+01,-1.065018997192382812e+02,-1.227748794555664062e+02,6.359769439697265625e+01,-3.990409088134765625e+01
8.149489760398864746e-01,2.000000000000000000e+00,3.997062301635742188e+01,5.402871131896972656e+00,3.470853424072265625e+01,-1.171731109619140625e+02,9.121862792968750000e+01,-6.784355926513671875e+01,4.209708786010742188e+01,-1.383890724182128906e+01,-1.065172348022460938e+02,-1.228278656005859375e+02,6.359397888183593750e+01,-3.993397140502929688e+01
8.189859986305236816e-01,2.000000000000000000e+00,3.999947357177734375e+01,5.355234622955322266e+00,3.470317077636718750e+01,-1.172262115478515625e+02,9.122161102294921875e+01,-6.786804199218750000e+01,4.202496337890625000e+01,-1.383016300201416016e+01,-1.065321960449218750e+02,-1.228819351196289062e+02,6.359026336669921875e+01,-3.996605300903320312e+01
8.230959773063659668e-01,2.000000000000000000e+00,4.002798080444335938e+01,5.307485580444335938e+00,3.469757843017578125e+01,-1.172798919677734375e+02,9.122464752197265625e+01,-6.789327239990234375e+01,4.195322418212890625e+01,-1.382119178771972656e+01,-1.065473098754882812e+02,-1.229366607666015625e+02,6.358691024780273438e+01,-3.999835205078125000e+01
8.269730210304260254e-01,2.000000000000000000e+00,4.005654144287109375e+01,5.259872436523437500e+00,3.469196701049804688e+01,-1.173340301513671875e+02,9.122747039794921875e+01,-6.791864013671875000e+01,4.188175582885742188e+01,-1.381240272521972656e+01,-1.065626525878906250e+02,-1.229901504516601562e+02,6.358327102661132812e+01,-4.002999496459960938e+01
8.310459852218627930e-01,2.000000000000000000e+00,4.008504867553710938e+01,5.212327003479003906e+00,3.468647766113281250e+01,-1.173870315551757812e+02,9.123050689697265625e+01,-6.794426727294921875e+01,4.180919265747070312e+01,-1.380352210998535156e+01,-1.065780410766601562e+02,-1.230439300537109375e+02,6.357977294921875000e+01,-4.006185531616210938e+01
8.350120186805725098e-01,2.000000000000000000e+00,4.011358642578125000e+01,5.164826393127441406e+00,3.468108749389648438e+01,-1.174410705566406250e+02,9.123344421386718750e+01,-6.796997070312500000e+01,4.173640823364257812e+01,-1.379464149475097656e+01,-1.065929412841796875e+02,-1.230981521606445312e+02,6.357591247558593750e+01,-4.009382247924804688e+01
8.389610052108764648e-01,2.000000000000000000e+00,4.014246368408203125e+01,5.117145538330078125e+00,3.467560195922851562e+01,-1.174946899414062500e+02,9.123632049560546875e+01,-6.799512481689453125e+01,4.166411590576171875e+01,-1.378575992584228516e+01,-1.066080093383789062e+02,-1.231514968872070312e+02,6.357234191894531250e+01,-4.012579345703125000e+01
8.429509997367858887e-01,2.000000000000000000e+00,4.017123031616210938e+01,5.069713115692138672e+00,3.467006683349609375e+01,-1.175481033325195312e+02,9.123930358886718750e+01,-6.801988983154296875e+01,4.159270858764648438e+01,-1.377669620513916016e+01,-1.066232452392578125e+02,-1.232052917480468750e+02,6.356833267211914062e+01,-4.015853118896484375e+01
8.469520211219787598e-01,2.000000000000000000e+00,4.019973373413085938e+01,5.021964073181152344e+00,3.466458129882812500e+01,-1.176025161743164062e+02,9.124208068847656250e+01,-6.804436492919921875e+01,4.152096557617187500e+01,-1.376754188537597656e+01,-1.066384658813476562e+02,-1.232593536376953125e+02,6.356447219848632812e+01,-4.019116210937500000e+01
8.510199785232543945e-01,2.000000000000000000e+00,4.022838211059570312e+01,4.974350452423095703e+00,3.465919113159179688e+01,-1.176558303833007812e+02,9.124501800537109375e+01,-6.806884765625000000e+01,4.144801712036132812e+01,-1.375852394104003906e+01,-1.066533126831054688e+02,-1.233122787475585938e+02,6.356068420410156250e+01,-4.022444915771484375e+01
8.550720214843750000e-01,2.000000000000000000e+00,4.025683212280273438e+01,4.926918029785156250e+00,3.465396499633789062e+01,-1.177091903686523438e+02,9.124773406982421875e+01,-6.809387207031250000e+01,4.137474060058593750e+01,-1.374978065490722656e+01,-1.066683273315429688e+02,-1.233656997680664062e+02,6.355660629272460938e+01,-4.025708007812500000e+01
8.590049743652343750e-01,2.000000000000000000e+00,4.028550720214843750e+01,4.879304885864257812e+00,3.464855575561523438e+01,-1.177633361816406250e+02,9.125055694580078125e+01,-6.811943817138671875e+01,4.130195236206054688e+01,-1.374099063873291016e+01,-1.066831741333007812e+02,-1.234198379516601562e+02,6.355208206176757812e+01,-4.028773117065429688e+01
8.631889820098876953e-01,2.000000000000000000e+00,4.031450271606445312e+01,4.831782341003417969e+00,3.464306640625000000e+01,-1.178167877197265625e+02,9.125338745117187500e+01,-6.814514160156250000e+01,4.123048782348632812e+01,-1.373211097717285156e+01,-1.066982955932617188e+02,-1.234733352661132812e+02,6.354749298095703125e+01,-4.031926345825195312e+01
8.672000169754028320e-01,2.000000000000000000e+00,4.034326934814453125e+01,4.784327507019042969e+00,3.463755798339843750e+01,-1.178709411621093750e+02,9.125594329833984375e+01,-6.817064666748046875e+01,4.115847015380859375e+01,-1.372300148010253906e+01,-1.067132492065429688e+02,-1.235274810791015625e+02,6.354333877563476562e+01,-4.035035324096679688e+01
8.709800243377685547e-01,2.000000000000000000e+00,4.037179946899414062e+01,4.736577987670898438e+00,3.463211059570312500e+01,-1.179242935180664062e+02,9.125881958007812500e+01,-6.819539642333984375e+01,4.108552551269531250e+01,-1.371366214752197266e+01,-1.067281570434570312e+02,-1.235811843872070312e+02,6.353904342651367188e+01,-4.037957763671875000e+01
8.749449849128723145e-01,2.000000000000000000e+00,4.040068054199218750e+01,4.689054965972900391e+00,3.462670135498046875e+01,-1.179773406982421875e+02,9.126159667968750000e+01,-6.821974182128906250e+01,4.101224517822265625e+01,-1.370468997955322266e+01,-1.067430572509765625e+02,-1.236341018676757812e+02,6.353423690795898438e+01,-4.040924072265625000e+01
8.790000081062316895e-01,2.000000000000000000e+00,4.042927169799804688e+01,4.641396522521972656e+00,3.462117004394531250e+01,-1.180312271118164062e+02,9.126426696777343750e+01,-6.824449157714843750e+01,4.093973541259765625e+01,-1.369553565979003906e+01,-1.067581176757812500e+02,-1.236875305175781250e+02,6.352899169921875000e+01,-4.043912124633789062e+01
8.829500079154968262e-01,2.000000000000000000e+00,4.045812225341796875e+01,4.593760967254638672e+00,3.461558151245117188e+01,-1.180850143432617188e+02,9.126708221435546875e+01,-6.826930999755859375e+01,4.086848831176757812e+01,-1.368624305725097656e+01,-1.067729644775390625e+02,-1.237412414550781250e+02,6.352439880371093750e+01,-4.046900939941406250e+01
8.869529962539672852e-01,2.000000000000000000e+00,4.048694229125976562e+01,4.546215057373046875e+00,3.461000823974609375e+01,-1.181389007568359375e+02,9.126980590820312500e+01,-6.829440307617187500e+01,4.079630661010742188e+01,-1.367695045471191406e+01,-1.067878723144531250e+02,-1.237940902709960938e+02,6.351995468139648438e+01,-4.049834060668945312e+01
8.935379981994628906e-01,2.000000000000000000e+00,4.051562500000000000e+01,4.498737335205078125e+00,3.460457992553710938e+01,-1.181922073364257812e+02,9.127242279052734375e+01,-6.831996917724609375e+01,4.072346878051757812e+01,-1.366752052307128906e+01,-1.068026657104492188e+02,-1.238474502563476562e+02,6.351536560058593750e+01,-4.052701187133789062e+01
8.971639871597290039e-01,2.000000000000000000e+00,4.054415893554687500e+01,4.451169490814208984e+00,3.459935379028320312e+01,-1.182451400756835938e+02,9.127508544921875000e+01,-6.834567260742187500e+01,4.065030288696289062e+01,-1.365841102600097656e+01,-1.068176803588867188e+02,-1.239007263183593750e+02,6.351026153564453125e+01,-4.055491638183593750e+01
8.990179896354675293e-01,2.000000000000000000e+00,4.057286453247070312e+01,4.403601646423339844e+00,3.459394454956054688e+01,-1.182992324829101562e+02,9.127774810791015625e+01,-6.837083435058593750e+01,4.057867050170898438e+01,-1.364920902252197266e+01,-1.068325805664062500e+02,-1.239537963867187500e+02,6.350559616088867188e+01,-4.058348464965820312e+01
9.031320214271545410e-01,2.000000000000000000e+00,4.060148620605468750e+01,4.356146335601806641e+00,3.458852005004882812e+01,-1.183532333374023438e+02,9.128051757812500000e+01,-6.839484405517578125e+01,4.050742340087890625e+01,-1.364000797271728516e+01,-1.068475341796875000e+02,-1.240077133178710938e+02,6.350159454345703125e+01,-4.061095046997070312e+01
9.070219993591308594e-01,2.000000000000000000e+00,4.063030624389648438e+01,4.308714389801025391e+00,3.458302688598632812e+01,-1.184068527221679688e+02,9.128318786621093750e+01,-6.841918945312500000e+01,4.043556976318359375e+01,-1.363094425201416016e+01,-1.068623809814453125e+02,-1.240617141723632812e+02,6.349766159057617188e+01,-4.063852691650390625e+01
9.109479784965515137e-01,2.000000000000000000e+00,4.065904235839843750e+01,4.261236190795898438e+00,3.457751846313476562e+01,-1.184608917236328125e+02,9.128579711914062500e+01,-6.844462585449218750e+01,4.036295318603515625e+01,-1.362165260314941406e+01,-1.068775024414062500e+02,-1.241147842407226562e+02,6.349372482299804688e+01,-4.066643142700195312e+01
9.149749875068664551e-01,2.000000000000000000e+00,4.068772125244140625e+01,4.213645935058593750e+00,3.457209014892578125e+01,-1.185137863159179688e+02,9.128841400146484375e+01,-6.846944427490234375e+01,4.029039001464843750e+01,-1.361254215240478516e+01,-1.068921356201171875e+02,-1.241686325073242188e+02,6.349023056030273438e+01,-4.069554519653320312e+01
9.190109968185424805e-01,2.000000000000000000e+00,4.071633911132812500e+01,4.166032314300537109e+00,3.456670379638671875e+01,-1.185673980712890625e+02,9.129113769531250000e+01,-6.849459838867187500e+01,4.021859359741210938e+01,-1.360343360900878906e+01,-1.069070358276367188e+02,-1.242225646972656250e+02,6.348643875122070312e+01,-4.072531890869140625e+01
9.253399968147277832e-01,2.000000000000000000e+00,4.074501800537109375e+01,4.118600368499755859e+00,3.456121063232421875e+01,-1.186216049194335938e+02,9.129390716552734375e+01,-6.852030944824218750e+01,4.014723587036132812e+01,-1.359436988830566406e+01,-1.069219894409179688e+02,-1.242759094238281250e+02,6.348279190063476562e+01,-4.075519943237304688e+01
9.269779920578002930e-01,2.000000000000000000e+00,4.077363967895507812e+01,4.071009159088134766e+00,3.455562210083007812e+01,-1.186749038696289062e+02,9.129651641845703125e+01,-6.854573822021484375e+01,4.007538223266601562e+01,-1.358535099029541016e+01,-1.069369430541992188e+02,-1.243296890258789062e+02,6.347907638549804688e+01,-4.078507995605468750e+01
9.340519905090332031e-01,2.000000000000000000e+00,4.077363967895507812e+01,4.071009159088134766e+00,3.455562210083007812e+01,-1.186749038696289062e+02,9.129651641845703125e+01,-6.854573822021484375e+01,4.000287628173828125e+01,-1.357642555236816406e+01,-1.069518508911132812e+02,-1.243835525512695312e+02,6.347536087036132812e+01,-4.081573486328125000e+01
9.355109930038452148e-01,2.000000000000000000e+00,4.083102416992187500e+01,3.976099491119384766e+00,3.454496765136718750e+01,-1.187821578979492188e+02,9.130168914794921875e+01,-6.859497070312500000e+01,3.993053054809570312e+01,-1.356708621978759766e+01,-1.069668121337890625e+02,-1.244373321533203125e+02,6.347135543823242188e+01,-4.084682846069335938e+01
9.400129914283752441e-01,2.000000000000000000e+00,4.085950469970703125e+01,3.928373098373413086e+00,3.453974151611328125e+01,-1.188350372314453125e+02,9.130451202392578125e+01,-6.861945343017578125e+01,3.985857009887695312e+01,-1.355779457092285156e+01,-1.069820327758789062e+02,-1.244913330078125000e+02,6.346712875366210938e+01,-4.087901687622070312e+01
9.438539743423461914e-01,2.000000000000000000e+00,4.088803482055664062e+01,3.880737304687500000e+00,3.453431320190429688e+01,-1.188890304565429688e+02,9.130723571777343750e+01,-6.864434814453125000e+01,3.978721618652343750e+01,-1.354882144927978516e+01,-1.069971008300781250e+02,-1.245446090698242188e+02,6.346290206909179688e+01,-4.091098785400390625e+01
9.479399919509887695e-01,2.000000000000000000e+00,4.091668701171875000e+01,3.833101034164428711e+00,3.452872085571289062e+01,-1.189425430297851562e+02,9.130989837646484375e+01,-6.866977691650390625e+01,3.971530914306640625e+01,-1.354017066955566406e+01,-1.070119476318359375e+02,-1.245982513427734375e+02,6.345904159545898438e+01,-4.094449615478515625e+01
9.509469866752624512e-01,2.000000000000000000e+00,4.094527816772460938e+01,3.785465002059936523e+00,3.452321243286132812e+01,-1.189961166381835938e+02,9.131266784667968750e+01,-6.869561004638671875e+01,3.964252471923828125e+01,-1.353110694885253906e+01,-1.070266342163085938e+02,-1.246524581909179688e+02,6.345524978637695312e+01,-4.097712326049804688e+01
9.560359716415405273e-01,2.000000000000000000e+00,4.094527816772460938e+01,3.785465002059936523e+00,3.452321243286132812e+01,-1.189961166381835938e+02,9.131266784667968750e+01,-6.869561004638671875e+01,3.964252471923828125e+01,-1.353110694885253906e+01,-1.070266342163085938e+02,-1.246524581909179688e+02,6.345524978637695312e+01,-4.097712326049804688e+01
9.589440226554870605e-01,2.000000000000000000e+00,4.100226211547851562e+01,3.690577983856201172e+00,3.451241683959960938e+01,-1.191027221679687500e+02,9.131806182861328125e+01,-6.874606323242187500e+01,3.949700927734375000e+01,-1.351302528381347656e+01,-1.070568695068359375e+02,-1.247588043212890625e+02,6.344614791870117188e+01,-4.104282379150390625e+01
9.640510082244873047e-01,2.000000000000000000e+00,4.100226211547851562e+01,3.690577983856201172e+00,3.451241683959960938e+01,-1.191027221679687500e+02,9.131806182861328125e+01,-6.874606323242187500e+01,3.949700927734375000e+01,-1.351302528381347656e+01,-1.070568695068359375e+02,-1.247588043212890625e+02,6.344614791870117188e+01,-4.104282379150390625e+01
9.682049751281738281e-01,2.000000000000000000e+00,4.105938720703125000e+01,3.595736026763916016e+00,3.450127410888671875e+01,-1.192101364135742188e+02,9.132376098632812500e+01,-6.879550170898437500e+01,3.935363769531250000e+01,-1.349503517150878906e+01,-1.070865707397460938e+02,-1.248667297363281250e+02,6.343922042846679688e+01,-4.110687255859375000e+01
9.710260033607482910e-01,2.000000000000000000e+00,4.108800888061523438e+01,3.548009157180786133e+00,3.449574279785156250e+01,-1.192634887695312500e+02,9.132642364501953125e+01,-6.882045745849609375e+01,3.928102111816406250e+01,-1.348615360260009766e+01,-1.071015243530273438e+02,-1.249205169677734375e+02,6.343521118164062500e+01,-4.113686752319335938e+01
9.750239849090576172e-01,2.000000000000000000e+00,4.108800888061523438e+01,3.548009157180786133e+00,3.449574279785156250e+01,-1.192634887695312500e+02,9.132642364501953125e+01,-6.882045745849609375e+01,3.928102111816406250e+01,-1.348615360260009766e+01,-1.071015243530273438e+02,-1.249205169677734375e+02,6.343521118164062500e+01,-4.113686752319335938e+01
9.789969921112060547e-01,2.000000000000000000e+00,4.111663055419921875e+01,3.500509023666381836e+00,3.449033355712890625e+01,-1.193177337646484375e+02,9.132925415039062500e+01,-6.884542083740234375e+01,3.920801544189453125e+01,-1.347695255279541016e+01,-1.071165390014648438e+02,-1.249743652343750000e+02,6.343047714233398438e+01,-4.116839599609375000e+01
9.839980006217956543e-01,2.000000000000000000e+00,4.114524841308593750e+01,3.453031539916992188e+00,3.448508834838867188e+01,-1.193713684082031250e+02,9.133208465576171875e+01,-6.887145996093750000e+01,3.913545227050781250e+01,-1.346770668029785156e+01,-1.071313781738281250e+02,-1.250279388427734375e+02,6.342559432983398438e+01,-4.120113754272460938e+01
9.869840145111083984e-01,2.000000000000000000e+00,4.120249176025390625e+01,3.358166933059692383e+00,3.447409057617187500e+01,-1.194780807495117188e+02,9.133783721923828125e+01,-6.892238616943359375e+01,3.899191284179687500e+01,-1.344957923889160156e+01,-1.071613540649414062e+02,-1.251357192993164062e+02,6.341714477539062500e+01,-4.126155853271484375e+01
9.910640120506286621e-01,2.000000000000000000e+00,4.120249176025390625e+01,3.358166933059692383e+00,3.447409057617187500e+01,-1.194780807495117188e+02,9.133783721923828125e+01,-6.892238616943359375e+01,3.899191284179687500e+01,-1.344957923889160156e+01,-1.071613540649414062e+02,-1.251357192993164062e+02,6.341714477539062500e+01,-4.126155853271484375e+01
9.949489831924438477e-01,2.000000000000000000e+00,4.125993347167968750e+01,3.263257265090942383e+00,3.446311187744140625e+01,-1.195853271484375000e+02,9.134369659423828125e+01,-6.897176361083984375e+01,3.884629058837890625e+01,-1.343181705474853516e+01,-1.071911087036132812e+02,-1.252412719726562500e+02,6.340847015380859375e+01,-4.131945800781250000e+01
1.000046968460083008e+00,2.000000000000000000e+00,4.125993347167968750e+01,3.263257265090942383e+00,3.446311187744140625e+01,-1.195853271484375000e+02,9.134369659423828125e+01,-6.897176361083984375e+01,3.884629058837890625e+01,-1.343181705474853516e+01,-1.071911087036132812e+02,-1.252412719726562500e+02,6.340847015380859375e+01,-4.131945800781250000e+01
1.003697037696838379e+00,2.000000000000000000e+00,4.131706237792968750e+01,3.168279409408569336e+00,3.445235443115234375e+01,-1.196918258666992188e+02,9.134967803955078125e+01,-6.902194213867187500e+01,3.870319366455078125e+01,-1.341346073150634766e+01,-1.072211227416992188e+02,-1.253485488891601562e+02,6.340009689331054688e+01,-4.137450027465820312e+01
1.007995009422302246e+00,2.000000000000000000e+00,4.134573745727539062e+01,3.120598077774047852e+00,3.444680786132812500e+01,-1.197454605102539062e+02,9.135260772705078125e+01,-6.904757690429687500e+01,3.863161849975585938e+01,-1.340448856353759766e+01,-1.072361373901367188e+02,-1.254024124145507812e+02,6.339594650268554688e+01,-4.140240478515625000e+01
1.010957002639770508e+00,2.000000000000000000e+00,4.137438583374023438e+01,3.073210954666137695e+00,3.444137573242187500e+01,-1.197991867065429688e+02,9.135549163818359375e+01,-6.907334899902343750e+01,3.855894088745117188e+01,-1.339547157287597656e+01,-1.072509307861328125e+02,-1.254560394287109375e+02,6.339200973510742188e+01,-4.143064117431640625e+01
1.015990972518920898e+00,2.000000000000000000e+00,4.137438583374023438e+01,3.073210954666137695e+00,3.444137573242187500e+01,-1.197991867065429688e+02,9.135549163818359375e+01,-6.907334899902343750e+01,3.855894088745117188e+01,-1.339547157287597656e+01,-1.072509307861328125e+02,-1.254560394287109375e+02,6.339200973510742188e+01,-4.143064117431640625e+01
1.020405054092407227e+00,2.000000000000000000e+00,4.143185806274414062e+01,2.978391647338867188e+00,3.443100738525390625e+01,-1.199058990478515625e+02,9.136155700683593750e+01,-6.912346649169921875e+01,3.841436386108398438e+01,-1.337720680236816406e+01,-1.072806243896484375e+02,-1.255637512207031250e+02,6.338385009765625000e+01,-4.148744201660156250e+01
1.023944973945617676e+00,2.000000000000000000e+00,4.146041870117187500e+01,2.930981874465942383e+00,3.442572021484375000e+01,-1.199591064453125000e+02,9.136476135253906250e+01,-6.914788055419921875e+01,3.834289550781250000e+01,-1.336773014068603516e+01,-1.072957458496093750e+02,-1.256171112060546875e+02,6.337947845458984375e+01,-4.151611328125000000e+01
1.027549982070922852e+00,2.000000000000000000e+00,4.148892593383789062e+01,2.883481740951538086e+00,3.442023468017578125e+01,-1.200130386352539062e+02,9.136775207519531250e+01,-6.917263031005859375e+01,3.827154159545898438e+01,-1.335866641998291016e+01,-1.073108139038085938e+02,-1.256698837280273438e+02,6.337546920776367188e+01,-4.154500961303710938e+01
1.034147024154663086e+00,2.000000000000000000e+00,4.148892593383789062e+01,2.883481740951538086e+00,3.442023468017578125e+01,-1.200130386352539062e+02,9.136775207519531250e+01,-6.917263031005859375e+01,3.827154159545898438e+01,-1.335866641998291016e+01,-1.073108139038085938e+02,-1.256698837280273438e+02,6.337546920776367188e+01,-4.154500961303710938e+01
1.035550951957702637e+00,2.000000000000000000e+00,4.154631423950195312e+01,2.788888692855834961e+00,3.440925216674804688e+01,-1.201198043823242188e+02,9.137350463867187500e+01,-6.922288513183593750e+01,3.812641143798828125e+01,-1.334072303771972656e+01,-1.073405609130859375e+02,-1.257771530151367188e+02,6.336752319335937500e+01,-4.159939193725585938e+01
1.040006041526794434e+00,2.000000000000000000e+00,4.154631423950195312e+01,2.788888692855834961e+00,3.440925216674804688e+01,-1.201198043823242188e+02,9.137350463867187500e+01,-6.922288513183593750e+01,3.812641143798828125e+01,-1.334072303771972656e+01,-1.073405609130859375e+02,-1.257771530151367188e+02,6.336752319335937500e+01,-4.159939193725585938e+01
1.044160008430480957e+00,2.000000000000000000e+00,4.160372543334960938e+01,2.694001436233520508e+00,3.439833450317382812e+01,-1.202272567749023438e+02,9.137963867187500000e+01,-6.927422332763671875e+01,3.798331451416015625e+01,-1.332259464263916016e+01,-1.073703613281250000e+02,-1.258845138549804688e+02,6.335820007324218750e+01,-4.165904617309570312e+01
1.047013998031616211e+00,2.000000000000000000e+00,4.163220214843750000e+01,2.646569252014160156e+00,3.439274215698242188e+01,-1.202806320190429688e+02,9.138246154785156250e+01,-6.929938507080078125e+01,3.791173553466796875e+01,-1.331339454650878906e+01,-1.073850479125976562e+02,-1.259382934570312500e+02,6.335397338867187500e+01,-4.169024658203125000e+01
1.051416039466857910e+00,2.000000000000000000e+00,4.163220214843750000e+01,2.646569252014160156e+00,3.439274215698242188e+01,-1.202806320190429688e+02,9.138246154785156250e+01,-6.929938507080078125e+01,3.791173553466796875e+01,-1.331339454650878906e+01,-1.073850479125976562e+02,-1.259382934570312500e+02,6.335397338867187500e+01,-4.169024658203125000e+01
1.055011987686157227e+00,2.000000000000000000e+00,4.166062164306640625e+01,2.599046230316162109e+00,3.438708877563476562e+01,-1.203347244262695312e+02,9.138529205322265625e+01,-6.932373046875000000e+01,3.783873367309570312e+01,-1.330455970764160156e+01,-1.074001693725585938e+02,-1.259913635253906250e+02,6.335025787353515625e+01,-4.172210693359375000e+01
1.060055971145629883e+00,2.000000000000000000e+00,4.168927383422851562e+01,2.551636695861816406e+00,3.438170242309570312e+01,-1.203879699707031250e+02,9.138816833496093750e+01,-6.934821319580078125e+01,3.776578140258789062e+01,-1.329563236236572266e+01,-1.074150772094726562e+02,-1.260452804565429688e+02,6.334596252441406250e+01,-4.175451660156250000e+01
1.064018964767456055e+00,2.000000000000000000e+00,4.171800613403320312e+01,2.504317522048950195e+00,3.437641906738281250e+01,-1.204414978027343750e+02,9.139104461669921875e+01,-6.937323760986328125e+01,3.762246704101562500e+01,-1.327750587463378906e+01,-1.074450378417968750e+02,-1.261523513793945312e+02,6.333845520019531250e+01,-4.182076263427734375e+01
1.070207953453063965e+00,2.000000000000000000e+00,4.174665451049804688e+01,2.456817150115966797e+00,3.437100982666015625e+01,-1.204950561523437500e+02,9.139387512207031250e+01,-6.939826202392578125e+01,3.755056381225585938e+01,-1.326830387115478516e+01,-1.074601058959960938e+02,-1.262059860229492188e+02,6.333524703979492188e+01,-4.185196304321289062e+01
1.071714043617248535e+00,2.000000000000000000e+00,4.180349731445312500e+01,2.361703872680664062e+00,3.435990524291992188e+01,-1.206019363403320312e+02,9.139942169189453125e+01,-6.944960021972656250e+01,3.747777938842773438e+01,-1.325928688049316406e+01,-1.074750061035156250e+02,-1.262594070434570312e+02,6.333168029785156250e+01,-4.188371658325195312e+01
1.076004028320312500e+00,2.000000000000000000e+00,4.180349731445312500e+01,2.361703872680664062e+00,3.435990524291992188e+01,-1.206019363403320312e+02,9.139942169189453125e+01,-6.944960021972656250e+01,3.747777938842773438e+01,-1.325928688049316406e+01,-1.074750061035156250e+02,-1.262594070434570312e+02,6.333168029785156250e+01,-4.188371658325195312e+01
1.081029057502746582e+00,2.000000000000000000e+00,4.183203125000000000e+01,2.314067602157592773e+00,3.435441589355468750e+01,-1.206554946899414062e+02,9.140219116210937500e+01,-6.947448730468750000e+01,3.740482711791992188e+01,-1.325036048889160156e+01,-1.074900131225585938e+02,-1.263128356933593750e+02,6.332752609252929688e+01,-4.191601562500000000e+01
1.083657979965209961e+00,2.000000000000000000e+00,4.188930130004882812e+01,2.219338893890380859e+00,3.434368515014648438e+01,-1.207623748779296875e+02,9.140768432617187500e+01,-6.952317810058593750e+01,3.726151275634765625e+01,-1.323278236389160156e+01,-1.075194396972656250e+02,-1.264211883544921875e+02,6.331966018676757812e+01,-4.197907638549804688e+01
1.087998032569885254e+00,2.000000000000000000e+00,4.188930130004882812e+01,2.219338893890380859e+00,3.434368515014648438e+01,-1.207623748779296875e+02,9.140768432617187500e+01,-6.952317810058593750e+01,3.726151275634765625e+01,-1.323278236389160156e+01,-1.075194396972656250e+02,-1.264211883544921875e+02,6.331966018676757812e+01,-4.197907638549804688e+01
1.091989040374755859e+00,2.000000000000000000e+00,4.191780853271484375e+01,2.171748161315917969e+00,3.433813095092773438e+01,-1.208156356811523438e+02,9.141034698486328125e+01,-6.954820251464843750e+01,3.718933105468750000e+01,-1.322385597229003906e+01,-1.075344543457031250e+02,-1.264744644165039062e+02,6.331601333618164062e+01,-4.201258468627929688e+01
1.095883011817932129e+00,2.000000000000000000e+00,4.197459030151367188e+01,2.076996803283691406e+00,3.432719421386718750e+01,-1.209231491088867188e+02,9.141578674316406250e+01,-6.959825897216796875e+01,3.704392623901367188e+01,-1.320572757720947266e+01,-1.075644226074218750e+02,-1.265808944702148438e+02,6.330806732177734375e+01,-4.207685470581054688e+01
1.100003957748413086e+00,2.000000000000000000e+00,4.197459030151367188e+01,2.076996803283691406e+00,3.432719421386718750e+01,-1.209231491088867188e+02,9.141578674316406250e+01,-6.959825897216796875e+01,3.704392623901367188e+01,-1.320572757720947266e+01,-1.075644226074218750e+02,-1.265808944702148438e+02,6.330806732177734375e+01,-4.207685470581054688e+01
1.104045033454895020e+00,2.000000000000000000e+00,4.200318145751953125e+01,2.029451131820678711e+00,3.432201004028320312e+01,-1.209762268066406250e+02,9.141840362548828125e+01,-6.962442779541015625e+01,3.697240447998046875e+01,-1.319671058654785156e+01,-1.075791625976562500e+02,-1.266342391967773438e+02,6.330355453491210938e+01,-4.210794448852539062e+01
1.106999039649963379e+00,2.000000000000000000e+00,4.203194808959960938e+01,1.981996297836303711e+00,3.431669998168945312e+01,-1.210300674438476562e+02,9.142106628417968750e+01,-6.964993286132812500e+01,3.690116119384765625e+01,-1.318787574768066406e+01,-1.075940551757812500e+02,-1.266883010864257812e+02,6.329991149902343750e+01,-4.213837814331054688e+01
1.111067056655883789e+00,2.000000000000000000e+00,4.206050872802734375e+01,1.934631943702697754e+00,3.431121444702148438e+01,-1.210838470458984375e+02,9.142372894287109375e+01,-6.967468261718750000e+01,3.682925415039062500e+01,-1.317872047424316406e+01,-1.076085815429687500e+02,-1.267414398193359375e+02,6.329604721069335938e+01,-4.216815185546875000e+01
