rpiRobotics/ARM-21-02-F-19-Robot-Motion-Program/data_performance_abb/curve_2/dual_arm/diffevo_pose6_3/30L/grad_result/real/run_3.csv
timestamp,cmd_num,J1,J2,J3,J4,J5,J6,J1_2,J2_2,J3_2,J4_2,J5_2,J6_2
1.566500030457973480e-02,-1.000000000000000000e+00,3.547674560546875000e+01,1.285863685607910156e+01,3.555867004394531250e+01,-1.087569122314453125e+02,9.078099822998046875e+01,-6.390503311157226562e+01,5.343432235717773438e+01,-1.526745033264160156e+01,-1.041693725585937500e+02,-1.144058837890625000e+02,6.424048614501953125e+01,-3.517359542846679688e+01
1.719900034368038177e-02,-1.000000000000000000e+00,3.547671508789062500e+01,1.285863685607910156e+01,3.555867004394531250e+01,-1.087570190429687500e+02,9.078099822998046875e+01,-6.390516281127929688e+01,5.343432235717773438e+01,-1.526735782623291016e+01,-1.041692657470703125e+02,-1.144058837890625000e+02,6.424048614501953125e+01,-3.517359542846679688e+01
1.844700053334236145e-02,-1.000000000000000000e+00,3.547671508789062500e+01,1.285863685607910156e+01,3.555867004394531250e+01,-1.087570190429687500e+02,9.078099822998046875e+01,-6.390516281127929688e+01,5.343432235717773438e+01,-1.526735782623291016e+01,-1.041692657470703125e+02,-1.144058837890625000e+02,6.424048614501953125e+01,-3.517359542846679688e+01
2.105600014328956604e-02,-1.000000000000000000e+00,3.547674560546875000e+01,1.285863685607910156e+01,3.555867004394531250e+01,-1.087570190429687500e+02,9.078099822998046875e+01,-6.390503311157226562e+01,5.343432235717773438e+01,-1.526745033264160156e+01,-1.041692657470703125e+02,-1.144057388305664062e+02,6.424048614501953125e+01,-3.517348861694335938e+01
2.541599981486797333e-02,-1.000000000000000000e+00,3.547665786743164062e+01,1.285859203338623047e+01,3.555860900878906250e+01,-1.087568664550781250e+02,9.078099822998046875e+01,-6.390516281127929688e+01,5.343432235717773438e+01,-1.526745033264160156e+01,-1.041692657470703125e+02,-1.144057388305664062e+02,6.424048614501953125e+01,-3.517359542846679688e+01
2.799200080335140228e-02,-1.000000000000000000e+00,3.547665786743164062e+01,1.285859203338623047e+01,3.555860900878906250e+01,-1.087568664550781250e+02,9.078099822998046875e+01,-6.390516281127929688e+01,5.343432235717773438e+01,-1.526745033264160156e+01,-1.041692657470703125e+02,-1.144057388305664062e+02,6.424048614501953125e+01,-3.517359542846679688e+01
2.931799925863742828e-02,-1.000000000000000000e+00,3.547674560546875000e+01,1.285863685607910156e+01,3.555867004394531250e+01,-1.087569122314453125e+02,9.078099822998046875e+01,-6.390516281127929688e+01,5.343432235717773438e+01,-1.526745033264160156e+01,-1.041692657470703125e+02,-1.144057388305664062e+02,6.424048614501953125e+01,-3.517359542846679688e+01
3.056400083005428314e-02,-1.000000000000000000e+00,3.547674560546875000e+01,1.285863685607910156e+01,3.555867004394531250e+01,-1.087569122314453125e+02,9.078099822998046875e+01,-6.390516281127929688e+01,5.343432235717773438e+01,-1.526745033264160156e+01,-1.041692657470703125e+02,-1.144057388305664062e+02,6.424048614501953125e+01,-3.517359542846679688e+01
3.613400086760520935e-02,-1.000000000000000000e+00,3.547671508789062500e+01,1.285863685607910156e+01,3.555867004394531250e+01,-1.087570724487304688e+02,9.078099822998046875e+01,-6.390503311157226562e+01,5.343432235717773438e+01,-1.526745033264160156e+01,-1.041692657470703125e+02,-1.144057388305664062e+02,6.424048614501953125e+01,-3.517359542846679688e+01
3.752899914979934692e-02,-1.000000000000000000e+00,3.547674560546875000e+01,1.285863685607910156e+01,3.555867004394531250e+01,-1.087570190429687500e+02,9.078089904785156250e+01,-6.390503311157226562e+01,5.343432235717773438e+01,-1.526745033264160156e+01,-1.041692657470703125e+02,-1.144057388305664062e+02,6.424048614501953125e+01,-3.517359542846679688e+01
4.099399968981742859e-02,-1.000000000000000000e+00,3.547674560546875000e+01,1.285863685607910156e+01,3.555867004394531250e+01,-1.087570190429687500e+02,9.078089904785156250e+01,-6.390503311157226562e+01,5.343432235717773438e+01,-1.526745033264160156e+01,-1.041692657470703125e+02,-1.144057388305664062e+02,6.424048614501953125e+01,-3.517359542846679688e+01
4.403800144791603088e-02,-1.000000000000000000e+00,3.547680282592773438e+01,1.285863685607910156e+01,3.555867004394531250e+01,-1.087569122314453125e+02,9.078111267089843750e+01,-6.390503311157226562e+01,5.343432235717773438e+01,-1.526745033264160156e+01,-1.041692657470703125e+02,-1.144058837890625000e+02,6.424048614501953125e+01,-3.517348861694335938e+01
5.313999950885772705e-02,-1.000000000000000000e+00,3.547680282592773438e+01,1.285863685607910156e+01,3.555867004394531250e+01,-1.087569122314453125e+02,9.078099822998046875e+01,-6.390516281127929688e+01,5.343432235717773438e+01,-1.526745033264160156e+01,-1.041693725585937500e+02,-1.144057388305664062e+02,6.424034118652343750e+01,-3.517359542846679688e+01
6.012199819087982178e-02,2.000000000000000000e+00,3.547665786743164062e+01,1.285863685607910156e+01,3.555867004394531250e+01,-1.087569122314453125e+02,9.078099822998046875e+01,-6.390516281127929688e+01,5.343432235717773438e+01,-1.526745033264160156e+01,-1.041692657470703125e+02,-1.144058837890625000e+02,6.424048614501953125e+01,-3.517348861694335938e+01
6.622000038623809814e-02,2.000000000000000000e+00,3.547671508789062500e+01,1.285863685607910156e+01,3.555867004394531250e+01,-1.087569122314453125e+02,9.078099822998046875e+01,-6.390516281127929688e+01,5.343432235717773438e+01,-1.526745033264160156e+01,-1.041692657470703125e+02,-1.144058837890625000e+02,6.424048614501953125e+01,-3.517348861694335938e+01
7.449500262737274170e-02,2.000000000000000000e+00,3.547665786743164062e+01,1.285859203338623047e+01,3.555867004394531250e+01,-1.087568664550781250e+02,9.078099822998046875e+01,-6.390503311157226562e+01,5.343432235717773438e+01,-1.526745033264160156e+01,-1.041692657470703125e+02,-1.144057388305664062e+02,6.424034118652343750e+01,-3.517359542846679688e+01
1.137780025601387024e-01,2.000000000000000000e+00,3.547680282592773438e+01,1.285863685607910156e+01,3.555867004394531250e+01,-1.087569122314453125e+02,9.078099822998046875e+01,-6.390516281127929688e+01,5.343432235717773438e+01,-1.526745033264160156e+01,-1.041692657470703125e+02,-1.144057388305664062e+02,6.424048614501953125e+01,-3.517359542846679688e+01
1.223699972033500671e-01,2.000000000000000000e+00,3.547671508789062500e+01,1.285863685607910156e+01,3.555867004394531250e+01,-1.087569122314453125e+02,9.078099822998046875e+01,-6.390503311157226562e+01,5.343432235717773438e+01,-1.526745033264160156e+01,-1.041693725585937500e+02,-1.144057388305664062e+02,6.424048614501953125e+01,-3.517359542846679688e+01
1.246759966015815735e-01,2.000000000000000000e+00,3.547680282592773438e+01,1.285852432250976562e+01,3.555867004394531250e+01,-1.087570190429687500e+02,9.078099822998046875e+01,-6.390503311157226562e+01,5.343415451049804688e+01,-1.526745033264160156e+01,-1.041693725585937500e+02,-1.144058837890625000e+02,6.424048614501953125e+01,-3.517348861694335938e+01
1.262589991092681885e-01,2.000000000000000000e+00,3.547680282592773438e+01,1.285852432250976562e+01,3.555867004394531250e+01,-1.087570190429687500e+02,9.078099822998046875e+01,-6.390503311157226562e+01,5.343415451049804688e+01,-1.526745033264160156e+01,-1.041693725585937500e+02,-1.144058837890625000e+02,6.424048614501953125e+01,-3.517348861694335938e+01
1.287979930639266968e-01,2.000000000000000000e+00,3.547680282592773438e+01,1.285852432250976562e+01,3.555867004394531250e+01,-1.087570190429687500e+02,9.078099822998046875e+01,-6.390503311157226562e+01,5.343415451049804688e+01,-1.526745033264160156e+01,-1.041693725585937500e+02,-1.144058837890625000e+02,6.424048614501953125e+01,-3.517348861694335938e+01
1.327500045299530029e-01,2.000000000000000000e+00,3.547772216796875000e+01,1.285750579833984375e+01,3.555867004394531250e+01,-1.087570190429687500e+02,9.078111267089843750e+01,-6.390516281127929688e+01,5.343415451049804688e+01,-1.526745033264160156e+01,-1.041692657470703125e+02,-1.144057388305664062e+02,6.424034118652343750e+01,-3.517348861694335938e+01
1.341370046138763428e-01,2.000000000000000000e+00,3.547772216796875000e+01,1.285750579833984375e+01,3.555867004394531250e+01,-1.087570190429687500e+02,9.078111267089843750e+01,-6.390516281127929688e+01,5.343415451049804688e+01,-1.526745033264160156e+01,-1.041692657470703125e+02,-1.144057388305664062e+02,6.424034118652343750e+01,-3.517348861694335938e+01
1.353870034217834473e-01,2.000000000000000000e+00,3.547772216796875000e+01,1.285750579833984375e+01,3.555867004394531250e+01,-1.087570190429687500e+02,9.078111267089843750e+01,-6.390516281127929688e+01,5.343415451049804688e+01,-1.526745033264160156e+01,-1.041692657470703125e+02,-1.144057388305664062e+02,6.424034118652343750e+01,-3.517348861694335938e+01
1.391330063343048096e-01,2.000000000000000000e+00,3.547929763793945312e+01,1.285608005523681641e+01,3.555870819091796875e+01,-1.087569122314453125e+02,9.078089904785156250e+01,-6.390503311157226562e+01,5.343377304077148438e+01,-1.526754093170166016e+01,-1.041688308715820312e+02,-1.144058837890625000e+02,6.424034118652343750e+01,-3.517359542846679688e+01
1.432009935379028320e-01,2.000000000000000000e+00,3.548125076293945312e+01,1.285386180877685547e+01,3.555867004394531250e+01,-1.087570724487304688e+02,9.078099822998046875e+01,-6.390516281127929688e+01,5.343278121948242188e+01,-1.526767921447753906e+01,-1.041670837402343750e+02,-1.144062347412109375e+02,6.424034118652343750e+01,-3.517381668090820312e+01
1.467680037021636963e-01,2.000000000000000000e+00,3.548411941528320312e+01,1.285060405731201172e+01,3.555867004394531250e+01,-1.087573318481445312e+02,9.078111267089843750e+01,-6.390516281127929688e+01,5.343042373657226562e+01,-1.526822853088378906e+01,-1.041646423339843750e+02,-1.144071044921875000e+02,6.423976135253906250e+01,-3.517403793334960938e+01
1.494120061397552490e-01,2.000000000000000000e+00,3.548750686645507812e+01,1.284625911712646484e+01,3.555867004394531250e+01,-1.087579193115234375e+02,9.078111267089843750e+01,-6.390516281127929688e+01,5.342679595947265625e+01,-1.526854801177978516e+01,-1.041633911132812500e+02,-1.144077453613281250e+02,6.423837280273437500e+01,-3.517524719238281250e+01
1.507029980421066284e-01,2.000000000000000000e+00,3.548750686645507812e+01,1.284625911712646484e+01,3.555867004394531250e+01,-1.087579193115234375e+02,9.078111267089843750e+01,-6.390516281127929688e+01,5.342679595947265625e+01,-1.526854801177978516e+01,-1.041633911132812500e+02,-1.144077453613281250e+02,6.423837280273437500e+01,-3.517524719238281250e+01
1.548610031604766846e-01,2.000000000000000000e+00,3.549144363403320312e+01,1.284057903289794922e+01,3.555867004394531250e+01,-1.087595520019531250e+02,9.078132629394531250e+01,-6.390550613403320312e+01,5.342223739624023438e+01,-1.526868629455566406e+01,-1.041620330810546875e+02,-1.144086837768554688e+02,6.423495483398437500e+01,-3.517623138427734375e+01
1.573110073804855347e-01,2.000000000000000000e+00,3.549626541137695312e+01,1.283354091644287109e+01,3.555860900878906250e+01,-1.087628097534179688e+02,9.078132629394531250e+01,-6.390604400634765625e+01,5.341613769531250000e+01,-1.526868629455566406e+01,-1.041611022949218750e+02,-1.144106903076171875e+02,6.422911834716796875e+01,-3.517689132690429688e+01
1.586319953203201294e-01,2.000000000000000000e+00,3.549626541137695312e+01,1.283354091644287109e+01,3.555860900878906250e+01,-1.087628097534179688e+02,9.078132629394531250e+01,-6.390604400634765625e+01,5.341613769531250000e+01,-1.526868629455566406e+01,-1.041611022949218750e+02,-1.144106903076171875e+02,6.422911834716796875e+01,-3.517689132690429688e+01
1.611330062150955200e-01,2.000000000000000000e+00,3.550191879272460938e+01,1.282496452331542969e+01,3.555857086181640625e+01,-1.087675018310546875e+02,9.078132629394531250e+01,-6.390740203857421875e+01,5.340784454345703125e+01,-1.526790809631347656e+01,-1.041602935791015625e+02,-1.144134902954101562e+02,6.422467041015625000e+01,-3.517766189575195312e+01
1.648930013179779053e-01,2.000000000000000000e+00,3.550191879272460938e+01,1.282496452331542969e+01,3.555857086181640625e+01,-1.087675018310546875e+02,9.078132629394531250e+01,-6.390740203857421875e+01,5.340784454345703125e+01,-1.526790809631347656e+01,-1.041602935791015625e+02,-1.144134902954101562e+02,6.422467041015625000e+01,-3.517766189575195312e+01
1.703609973192214966e-01,2.000000000000000000e+00,3.550901031494140625e+01,1.281439590454101562e+01,3.555840682983398438e+01,-1.087737121582031250e+02,9.078170013427734375e+01,-6.391052627563476562e+01,5.338356399536132812e+01,-1.526511573791503906e+01,-1.041663818359375000e+02,-1.144234008789062500e+02,6.422023010253906250e+01,-3.517909240722656250e+01
1.726509928703308105e-01,2.000000000000000000e+00,3.551747894287109375e+01,1.280129337310791016e+01,3.555810165405273438e+01,-1.087820434570312500e+02,9.078191375732421875e+01,-6.391445922851562500e+01,5.338356399536132812e+01,-1.526511573791503906e+01,-1.041663818359375000e+02,-1.144234008789062500e+02,6.422023010253906250e+01,-3.517909240722656250e+01
1.742749959230422974e-01,2.000000000000000000e+00,3.552729797363281250e+01,1.278547477722167969e+01,3.555753326416015625e+01,-1.087928924560546875e+02,9.078265380859375000e+01,-6.391913604736328125e+01,5.336637115478515625e+01,-1.526401615142822266e+01,-1.041696472167968750e+02,-1.144302215576171875e+02,6.421723937988281250e+01,-3.518128585815429688e+01
1.755640059709548950e-01,2.000000000000000000e+00,3.552729797363281250e+01,1.278547477722167969e+01,3.555753326416015625e+01,-1.087928924560546875e+02,9.078265380859375000e+01,-6.391913604736328125e+01,5.336637115478515625e+01,-1.526401615142822266e+01,-1.041696472167968750e+02,-1.144302215576171875e+02,6.421723937988281250e+01,-3.518128585815429688e+01
1.807319968938827515e-01,2.000000000000000000e+00,3.553843307495117188e+01,1.276734828948974609e+01,3.555671691894531250e+01,-1.088064346313476562e+02,9.078324127197265625e+01,-6.392483520507812500e+01,5.334472656250000000e+01,-1.526232242584228516e+01,-1.041712722778320312e+02,-1.144406356811523438e+02,6.421389770507812500e+01,-3.518392181396484375e+01
1.822559982538223267e-01,2.000000000000000000e+00,3.555069351196289062e+01,1.274790859222412109e+01,3.555574035644531250e+01,-1.088229141235351562e+02,9.078404235839843750e+01,-6.393243026733398438e+01,5.331901931762695312e+01,-1.526030921936035156e+01,-1.041743774414062500e+02,-1.144547119140625000e+02,6.421155548095703125e+01,-3.518732833862304688e+01
1.835470050573348999e-01,2.000000000000000000e+00,3.555069351196289062e+01,1.274790859222412109e+01,3.555574035644531250e+01,-1.088229141235351562e+02,9.078404235839843750e+01,-6.393243026733398438e+01,5.331901931762695312e+01,-1.526030921936035156e+01,-1.041743774414062500e+02,-1.144547119140625000e+02,6.421155548095703125e+01,-3.518732833862304688e+01
1.860769987106323242e-01,2.000000000000000000e+00,3.556383895874023438e+01,1.272697639465332031e+01,3.555433654785156250e+01,-1.088431396484375000e+02,9.078521728515625000e+01,-6.394192504882812500e+01,5.328858566284179688e+01,-1.525811195373535156e+01,-1.041787261962890625e+02,-1.144721527099609375e+02,6.420980834960937500e+01,-3.519359207153320312e+01
1.952819973230361938e-01,2.000000000000000000e+00,3.559266281127929688e+01,1.267986106872558594e+01,3.555006790161132812e+01,-1.088964462280273438e+02,9.078761291503906250e+01,-6.396606826782226562e+01,5.321393585205078125e+01,-1.524978065490722656e+01,-1.041929779052734375e+02,-1.145212707519531250e+02,6.420667266845703125e+01,-3.521611404418945312e+01
1.978729963302612305e-01,2.000000000000000000e+00,3.560828018188476562e+01,1.265372276306152344e+01,3.554726409912109375e+01,-1.089297332763671875e+02,9.078910827636718750e+01,-6.398091506958007812e+01,5.317136383056640625e+01,-1.524437808990478516e+01,-1.042022247314453125e+02,-1.145542984008789062e+02,6.420558166503906250e+01,-3.522918701171875000e+01
1.991319954395294189e-01,2.000000000000000000e+00,3.560828018188476562e+01,1.265372276306152344e+01,3.554726409912109375e+01,-1.089297332763671875e+02,9.078910827636718750e+01,-6.398091506958007812e+01,5.317136383056640625e+01,-1.524437808990478516e+01,-1.042022247314453125e+02,-1.145542984008789062e+02,6.420558166503906250e+01,-3.522918701171875000e+01
2.026479989290237427e-01,2.000000000000000000e+00,3.562504577636718750e+01,1.262534523010253906e+01,3.554394912719726562e+01,-1.089658737182617188e+02,9.079064941406250000e+01,-6.399746704101562500e+01,5.312505340576171875e+01,-1.523815345764160156e+01,-1.042132110595703125e+02,-1.145918579101562500e+02,6.420405578613281250e+01,-3.524731445312500000e+01
2.068829983472824097e-01,2.000000000000000000e+00,3.562504577636718750e+01,1.262534523010253906e+01,3.554394912719726562e+01,-1.089658737182617188e+02,9.079064941406250000e+01,-6.399746704101562500e+01,5.312505340576171875e+01,-1.523815345764160156e+01,-1.042132110595703125e+02,-1.145918579101562500e+02,6.420405578613281250e+01,-3.524731445312500000e+01
2.094590067863464355e-01,2.000000000000000000e+00,3.564336013793945312e+01,1.259468173980712891e+01,3.554022979736328125e+01,-1.090044326782226562e+02,9.079220581054687500e+01,-6.401611328125000000e+01,5.302238845825195312e+01,-1.522286415100097656e+01,-1.042410049438476562e+02,-1.146780319213867188e+02,6.420121002197265625e+01,-3.528873443603515625e+01
2.107609957456588745e-01,2.000000000000000000e+00,3.566262054443359375e+01,1.256177806854248047e+01,3.553614425659179688e+01,-1.090458831787109375e+02,9.079428100585937500e+01,-6.403611755371093750e+01,5.302238845825195312e+01,-1.522286415100097656e+01,-1.042410049438476562e+02,-1.146780319213867188e+02,6.420121002197265625e+01,-3.528873443603515625e+01
2.146089971065521240e-01,2.000000000000000000e+00,3.566262054443359375e+01,1.256177806854248047e+01,3.553614425659179688e+01,-1.090458831787109375e+02,9.079428100585937500e+01,-6.403611755371093750e+01,5.296663284301757812e+01,-1.521425819396972656e+01,-1.042571563720703125e+02,-1.147266311645507812e+02,6.419968414306640625e+01,-3.531476974487304688e+01
2.159570008516311646e-01,2.000000000000000000e+00,3.568271636962890625e+01,1.252742576599121094e+01,3.553164672851562500e+01,-1.090923995971679688e+02,9.079651641845703125e+01,-6.405795288085937500e+01,5.296663284301757812e+01,-1.521425819396972656e+01,-1.042571563720703125e+02,-1.147266311645507812e+02,6.419968414306640625e+01,-3.531476974487304688e+01
2.199259996414184570e-01,2.000000000000000000e+00,3.570347213745117188e+01,1.249137592315673828e+01,3.552699279785156250e+01,-1.091411209106445312e+02,9.079843902587890625e+01,-6.408087921142578125e+01,5.290779876708984375e+01,-1.520528507232666016e+01,-1.042737426757812500e+02,-1.147776184082031250e+02,6.419771575927734375e+01,-3.534037017822265625e+01
2.224690020084381104e-01,2.000000000000000000e+00,3.572494125366210938e+01,1.245360660552978516e+01,3.552205276489257812e+01,-1.091894760131835938e+02,9.080083465576171875e+01,-6.410455322265625000e+01,5.284556198120117188e+01,-1.519622135162353516e+01,-1.042900009155273438e+02,-1.148298950195312500e+02,6.419545745849609375e+01,-3.536970138549804688e+01
2.237839996814727783e-01,2.000000000000000000e+00,3.572494125366210938e+01,1.245360660552978516e+01,3.552205276489257812e+01,-1.091894760131835938e+02,9.080083465576171875e+01,-6.410455322265625000e+01,5.284556198120117188e+01,-1.519622135162353516e+01,-1.042900009155273438e+02,-1.148298950195312500e+02,6.419545745849609375e+01,-3.536970138549804688e+01
2.273339927196502686e-01,2.000000000000000000e+00,3.574716186523437500e+01,1.241416358947753906e+01,3.551692962646484375e+01,-1.092408294677734375e+02,9.080329132080078125e+01,-6.412854766845703125e+01,5.278025054931640625e+01,-1.518720436096191406e+01,-1.043066482543945312e+02,-1.148832473754882812e+02,6.419305419921875000e+01,-3.539980697631835938e+01
2.306700050830841064e-01,2.000000000000000000e+00,3.577053070068359375e+01,1.237304496765136719e+01,3.551152038574218750e+01,-1.092938232421875000e+02,9.080579376220703125e+01,-6.415290069580078125e+01,5.271169662475585938e+01,-1.517786598205566406e+01,-1.043227996826171875e+02,-1.149373168945312500e+02,6.419079589843750000e+01,-3.543177413940429688e+01
2.321099936962127686e-01,2.000000000000000000e+00,3.577053070068359375e+01,1.237304496765136719e+01,3.551152038574218750e+01,-1.092938232421875000e+02,9.080579376220703125e+01,-6.415290069580078125e+01,5.271169662475585938e+01,-1.517786598205566406e+01,-1.043227996826171875e+02,-1.149373168945312500e+02,6.419079589843750000e+01,-3.543177413940429688e+01
2.345799952745437622e-01,2.000000000000000000e+00,3.579481506347656250e+01,1.233020591735839844e+01,3.550605392456054688e+01,-1.093467025756835938e+02,9.080825042724609375e+01,-6.417765045166015625e+01,5.264066696166992188e+01,-1.516843605041503906e+01,-1.043386840820312500e+02,-1.149921798706054688e+02,6.418817138671875000e+01,-3.546704101562500000e+01
2.359430044889450073e-01,2.000000000000000000e+00,3.579481506347656250e+01,1.233020591735839844e+01,3.550605392456054688e+01,-1.093467025756835938e+02,9.080825042724609375e+01,-6.417765045166015625e+01,5.264066696166992188e+01,-1.516843605041503906e+01,-1.043386840820312500e+02,-1.149921798706054688e+02,6.418817138671875000e+01,-3.546704101562500000e+01
2.402389943599700928e-01,2.000000000000000000e+00,3.582044982910156250e+01,1.228576087951660156e+01,3.550056076049804688e+01,-1.094004898071289062e+02,9.081107330322265625e+01,-6.420275115966796875e+01,5.256766510009765625e+01,-1.515937328338623047e+01,-1.043539123535156250e+02,-1.150473937988281250e+02,6.418503570556640625e+01,-3.550109863281250000e+01
2.427709996700286865e-01,2.000000000000000000e+00,3.584714889526367188e+01,1.223989009857177734e+01,3.549519729614257812e+01,-1.094543151855468750e+02,9.081373596191406250e+01,-6.422898864746093750e+01,5.249465942382812500e+01,-1.515012454986572266e+01,-1.043695220947265625e+02,-1.151025390625000000e+02,6.418197631835937500e+01,-3.553680419921875000e+01
2.441219985485076904e-01,2.000000000000000000e+00,3.584714889526367188e+01,1.223989009857177734e+01,3.549519729614257812e+01,-1.094543151855468750e+02,9.081373596191406250e+01,-6.422898864746093750e+01,5.249465942382812500e+01,-1.515012454986572266e+01,-1.043695220947265625e+02,-1.151025390625000000e+02,6.418197631835937500e+01,-3.553680419921875000e+01
2.469709962606430054e-01,2.000000000000000000e+00,3.587496566772460938e+01,1.219293308258056641e+01,3.548992919921875000e+01,-1.095086746215820312e+02,9.081629943847656250e+01,-6.425517272949218750e+01,5.242187500000000000e+01,-1.514119911193847656e+01,-1.043848571777343750e+02,-1.151576843261718750e+02,6.417818450927734375e+01,-3.557360839843750000e+01
2.520230114459991455e-01,2.000000000000000000e+00,3.587496566772460938e+01,1.219293308258056641e+01,3.548992919921875000e+01,-1.095086746215820312e+02,9.081629943847656250e+01,-6.425517272949218750e+01,5.242187500000000000e+01,-1.514119911193847656e+01,-1.043848571777343750e+02,-1.151576843261718750e+02,6.417818450927734375e+01,-3.557360839843750000e+01
2.550620138645172119e-01,2.000000000000000000e+00,3.593254852294921875e+01,1.209707260131835938e+01,3.547929382324218750e+01,-1.096171340942382812e+02,9.082173919677734375e+01,-6.430643463134765625e+01,5.227553558349609375e+01,-1.512284278869628906e+01,-1.044151000976562500e+02,-1.152674789428710938e+02,6.417009735107421875e+01,-3.564666748046875000e+01
2.590250074863433838e-01,2.000000000000000000e+00,3.593254852294921875e+01,1.209707260131835938e+01,3.547929382324218750e+01,-1.096171340942382812e+02,9.082173919677734375e+01,-6.430643463134765625e+01,5.227553558349609375e+01,-1.512284278869628906e+01,-1.044151000976562500e+02,-1.152674789428710938e+02,6.417009735107421875e+01,-3.564666748046875000e+01
2.642880082130432129e-01,2.000000000000000000e+00,3.596148681640625000e+01,1.204882621765136719e+01,3.547386550903320312e+01,-1.096713409423828125e+02,9.082472229003906250e+01,-6.433173370361328125e+01,5.220104980468750000e+01,-1.511359500885009766e+01,-1.044301681518554688e+02,-1.153210525512695312e+02,6.416500091552734375e+01,-3.568347167968750000e+01
2.680729925632476807e-01,2.000000000000000000e+00,3.601921844482421875e+01,1.195246791839599609e+01,3.546298980712890625e+01,-1.097800521850585938e+02,9.083032226562500000e+01,-6.438205718994140625e+01,5.205372238159179688e+01,-1.509519290924072266e+01,-1.044601287841796875e+02,-1.154299087524414062e+02,6.415428924560546875e+01,-3.575477218627929688e+01
2.711299955844879150e-01,2.000000000000000000e+00,3.604803848266601562e+01,1.190431118011474609e+01,3.545748138427734375e+01,-1.098350982666015625e+02,9.083293151855468750e+01,-6.440789031982421875e+01,5.198110580444335938e+01,-1.508571815490722656e+01,-1.044748153686523438e+02,-1.154844055175781250e+02,6.414875793457031250e+01,-3.579102706909179688e+01
2.750250101089477539e-01,2.000000000000000000e+00,3.604803848266601562e+01,1.190431118011474609e+01,3.545748138427734375e+01,-1.098350982666015625e+02,9.083293151855468750e+01,-6.440789031982421875e+01,5.198110580444335938e+01,-1.508571815490722656e+01,-1.044748153686523438e+02,-1.154844055175781250e+02,6.414875793457031250e+01,-3.579102706909179688e+01
2.790029942989349365e-01,2.000000000000000000e+00,3.607711791992187500e+01,1.185615444183349609e+01,3.545200729370117188e+01,-1.098891448974609375e+02,9.083570098876953125e+01,-6.443413543701171875e+01,5.190744018554687500e+01,-1.507619667053222656e+01,-1.044895019531250000e+02,-1.155388412475585938e+02,6.414350891113281250e+01,-3.582596588134765625e+01
2.830750048160552979e-01,2.000000000000000000e+00,3.610605239868164062e+01,1.180799770355224609e+01,3.544639587402343750e+01,-1.099432907104492188e+02,9.083847808837890625e+01,-6.446031188964843750e+01,5.183306121826171875e+01,-1.506649208068847656e+01,-1.045045089721679688e+02,-1.155928421020507812e+02,6.413870239257812500e+01,-3.586035156250000000e+01
2.870160043239593506e-01,2.000000000000000000e+00,3.613493347167968750e+01,1.176011276245117188e+01,3.544097137451171875e+01,-1.099979171752929688e+02,9.084124755859375000e+01,-6.448608398437500000e+01,5.175873947143554688e+01,-1.505715370178222656e+01,-1.045193634033203125e+02,-1.156472625732421875e+02,6.413366699218750000e+01,-3.589331054687500000e+01
2.910130023956298828e-01,2.000000000000000000e+00,3.619263458251953125e+01,1.166402721405029297e+01,3.543039703369140625e+01,-1.101065292358398438e+02,9.084668731689453125e+01,-6.453600311279296875e+01,5.161295318603515625e+01,-1.503870582580566406e+01,-1.045494308471679688e+02,-1.157563400268554688e+02,6.412514495849609375e+01,-3.595296478271484375e+01
2.960579991340637207e-01,2.000000000000000000e+00,3.619263458251953125e+01,1.166402721405029297e+01,3.543039703369140625e+01,-1.101065292358398438e+02,9.084668731689453125e+01,-6.453600311279296875e+01,5.161295318603515625e+01,-1.503870582580566406e+01,-1.045494308471679688e+02,-1.157563400268554688e+02,6.412514495849609375e+01,-3.595296478271484375e+01
2.996419966220855713e-01,2.000000000000000000e+00,3.625016403198242188e+01,1.156800842285156250e+01,3.541957855224609375e+01,-1.102145080566406250e+02,9.085228729248046875e+01,-6.458733367919921875e+01,5.146573638916015625e+01,-1.502016639709472656e+01,-1.045796127319335938e+02,-1.158641204833984375e+02,6.411939239501953125e+01,-3.600811767578125000e+01
3.061740100383758545e-01,2.000000000000000000e+00,3.625016403198242188e+01,1.156800842285156250e+01,3.541957855224609375e+01,-1.102145080566406250e+02,9.085228729248046875e+01,-6.458733367919921875e+01,5.146573638916015625e+01,-1.502016639709472656e+01,-1.045796127319335938e+02,-1.158641204833984375e+02,6.411939239501953125e+01,-3.600811767578125000e+01
3.075790107250213623e-01,2.000000000000000000e+00,3.630752182006835938e+01,1.147235107421875000e+01,3.540864181518554688e+01,-1.103230209350585938e+02,9.085762023925781250e+01,-6.463948059082031250e+01,5.132115936279296875e+01,-1.500158023834228516e+01,-1.046105117797851562e+02,-1.159735565185546875e+02,6.411348724365234375e+01,-3.606239318847656250e+01
3.110379874706268311e-01,2.000000000000000000e+00,3.630752182006835938e+01,1.147235107421875000e+01,3.540864181518554688e+01,-1.103230209350585938e+02,9.085762023925781250e+01,-6.463948059082031250e+01,5.132115936279296875e+01,-1.500158023834228516e+01,-1.046105117797851562e+02,-1.159735565185546875e+02,6.411348724365234375e+01,-3.606239318847656250e+01
3.155420124530792236e-01,2.000000000000000000e+00,3.633613967895507812e+01,1.142460250854492188e+01,3.540325546264648438e+01,-1.103774261474609375e+02,9.086034393310546875e+01,-6.466498565673828125e+01,5.124858856201171875e+01,-1.499238014221191406e+01,-1.046257400512695312e+02,-1.160283432006835938e+02,6.411057281494140625e+01,-3.608952713012695312e+01
3.232330083847045898e-01,2.000000000000000000e+00,3.636499023437500000e+01,1.137701129913330078e+01,3.539770126342773438e+01,-1.104319458007812500e+02,9.086300659179687500e+01,-6.468994140625000000e+01,5.117520141601562500e+01,-1.498331642150878906e+01,-1.046407546997070312e+02,-1.160823287963867188e+02,6.410765838623046875e+01,-3.611798095703125000e+01
3.247399926185607910e-01,2.000000000000000000e+00,3.642306518554687500e+01,1.128119659423828125e+01,3.538645935058593750e+01,-1.105403518676757812e+02,9.086860656738281250e+01,-6.473985290527343750e+01,5.102957916259765625e+01,-1.496486759185791016e+01,-1.046713180541992188e+02,-1.161909027099609375e+02,6.410117340087890625e+01,-3.617664718627929688e+01
3.279869854450225830e-01,2.000000000000000000e+00,3.645203018188476562e+01,1.123337936401367188e+01,3.538101196289062500e+01,-1.105946121215820312e+02,9.087132263183593750e+01,-6.476515197753906250e+01,5.095756149291992188e+01,-1.495580387115478516e+01,-1.046866531372070312e+02,-1.162449035644531250e+02,6.409752655029296875e+01,-3.620685958862304688e+01
3.310100138187408447e-01,2.000000000000000000e+00,3.648076629638671875e+01,1.118562984466552734e+01,3.537576675415039062e+01,-1.106486511230468750e+02,9.087387847900390625e+01,-6.479113006591796875e+01,5.088538360595703125e+01,-1.494701576232910156e+01,-1.047018814086914062e+02,-1.162991180419921875e+02,6.409381103515625000e+01,-3.623597335815429688e+01
3.351489901542663574e-01,2.000000000000000000e+00,3.648076629638671875e+01,1.118562984466552734e+01,3.537576675415039062e+01,-1.106486511230468750e+02,9.087387847900390625e+01,-6.479113006591796875e+01,5.088538360595703125e+01,-1.494701576232910156e+01,-1.047018814086914062e+02,-1.162991180419921875e+02,6.409381103515625000e+01,-3.623597335815429688e+01
3.402070105075836182e-01,2.000000000000000000e+00,3.650964355468750000e+01,1.113801670074462891e+01,3.537031555175781250e+01,-1.107037963867187500e+02,9.087686157226562500e+01,-6.481743621826171875e+01,5.081248855590820312e+01,-1.493808841705322266e+01,-1.047169494628906250e+02,-1.163538284301757812e+02,6.409031677246093750e+01,-3.626574707031250000e+01
3.430249989032745361e-01,2.000000000000000000e+00,3.656780624389648438e+01,1.104240512847900391e+01,3.535907363891601562e+01,-1.108115158081054688e+02,9.088246154785156250e+01,-6.486768341064453125e+01,5.066703033447265625e+01,-1.491982460021972656e+01,-1.047474594116210938e+02,-1.164622650146484375e+02,6.408339691162109375e+01,-3.632781982421875000e+01
3.475199937820434570e-01,2.000000000000000000e+00,3.656780624389648438e+01,1.104240512847900391e+01,3.535907363891601562e+01,-1.108115158081054688e+02,9.088246154785156250e+01,-6.486768341064453125e+01,5.066703033447265625e+01,-1.491982460021972656e+01,-1.047474594116210938e+02,-1.164622650146484375e+02,6.408339691162109375e+01,-3.632781982421875000e+01
3.519949913024902344e-01,2.000000000000000000e+00,3.659679794311523438e+01,1.099461078643798828e+01,3.535348129272460938e+01,-1.108662490844726562e+02,9.088523864746093750e+01,-6.489244842529296875e+01,5.059484863281250000e+01,-1.491066837310791016e+01,-1.047625274658203125e+02,-1.165174789428710938e+02,6.408003997802734375e+01,-3.636056137084960938e+01
3.560320138931274414e-01,2.000000000000000000e+00,3.662556076049804688e+01,1.094661235809326172e+01,3.534809494018554688e+01,-1.109204483032226562e+02,9.088827514648437500e+01,-6.491780853271484375e+01,5.044911575317382812e+01,-1.489258766174316406e+01,-1.047923812866210938e+02,-1.166260528564453125e+02,6.407363128662109375e+01,-3.642955017089843750e+01
3.599649965763092041e-01,2.000000000000000000e+00,3.665446853637695312e+01,1.089868259429931641e+01,3.534260177612304688e+01,-1.109746475219726562e+02,9.089099121093750000e+01,-6.494269561767578125e+01,5.044911575317382812e+01,-1.489258766174316406e+01,-1.047923812866210938e+02,-1.166260528564453125e+02,6.407363128662109375e+01,-3.642955017089843750e+01
3.651899993419647217e-01,2.000000000000000000e+00,3.668343353271484375e+01,1.085077476501464844e+01,3.533691024780273438e+01,-1.110289535522460938e+02,9.089392852783203125e+01,-6.496839904785156250e+01,5.037523269653320312e+01,-1.488343143463134766e+01,-1.048075027465820312e+02,-1.166804809570312500e+02,6.406977081298828125e+01,-3.646371841430664062e+01
3.677429854869842529e-01,2.000000000000000000e+00,3.674156570434570312e+01,1.075471115112304688e+01,3.532583236694335938e+01,-1.111371536254882812e+02,9.089984893798828125e+01,-6.502061462402343750e+01,5.022944259643554688e+01,-1.486452674865722656e+01,-1.048373031616210938e+02,-1.167891159057617188e+02,6.406080627441406250e+01,-3.653326416015625000e+01
3.720070123672485352e-01,2.000000000000000000e+00,3.674156570434570312e+01,1.075471115112304688e+01,3.532583236694335938e+01,-1.111371536254882812e+02,9.089984893798828125e+01,-6.502061462402343750e+01,5.022944259643554688e+01,-1.486452674865722656e+01,-1.048373031616210938e+02,-1.167891159057617188e+02,6.406080627441406250e+01,-3.653326416015625000e+01
3.760020136833190918e-01,2.000000000000000000e+00,3.677033233642578125e+01,1.070662212371826172e+01,3.532058715820312500e+01,-1.111912994384765625e+02,9.090261840820312500e+01,-6.504557037353515625e+01,5.015693283081054688e+01,-1.485523319244384766e+01,-1.048523178100585938e+02,-1.168437728881835938e+02,6.405680084228515625e+01,-3.656764984130859375e+01
3.791469931602478027e-01,2.000000000000000000e+00,3.679926681518554688e+01,1.065835285186767578e+01,3.531515502929687500e+01,-1.112457122802734375e+02,9.090581512451171875e+01,-6.506978607177734375e+01,5.008343505859375000e+01,-1.484612464904785156e+01,-1.048670043945312500e+02,-1.168977584838867188e+02,6.405220794677734375e+01,-3.660093688964843750e+01
3.831099867820739746e-01,2.000000000000000000e+00,3.682820129394531250e+01,1.061026477813720703e+01,3.530954360961914062e+01,-1.112996444702148438e+02,9.090869903564453125e+01,-6.509481048583984375e+01,5.000944519042968750e+01,-1.483710575103759766e+01,-1.048815765380859375e+02,-1.169521255493164062e+02,6.404711151123046875e+01,-3.663554763793945312e+01
3.870300054550170898e-01,2.000000000000000000e+00,3.685745620727539062e+01,1.056194972991943359e+01,3.530391311645507812e+01,-1.113534851074218750e+02,9.091178894042968750e+01,-6.512003326416015625e+01,4.993572616577148438e+01,-1.482790565490722656e+01,-1.048962631225585938e+02,-1.170064849853515625e+02,6.404164123535156250e+01,-3.666850662231445312e+01
3.914459943771362305e-01,2.000000000000000000e+00,3.688679504394531250e+01,1.051374816894531250e+01,3.529834365844726562e+01,-1.114083633422851562e+02,9.091482543945312500e+01,-6.514553833007812500e+01,4.986304855346679688e+01,-1.481870365142822266e+01,-1.049112243652343750e+02,-1.170605545043945312e+02,6.403668975830078125e+01,-3.670102310180664062e+01
3.957549929618835449e-01,2.000000000000000000e+00,3.691590118408203125e+01,1.046572780609130859e+01,3.529285049438476562e+01,-1.114625167846679688e+02,9.091792297363281250e+01,-6.517157745361328125e+01,4.978987884521484375e+01,-1.480945682525634766e+01,-1.049262924194335938e+02,-1.171152572631835938e+02,6.403151702880859375e+01,-3.673343276977539062e+01
4.000320136547088623e-01,2.000000000000000000e+00,3.694475173950195312e+01,1.041768360137939453e+01,3.528723907470703125e+01,-1.115166625976562500e+02,9.092095947265625000e+01,-6.519714355468750000e+01,4.971621704101562500e+01,-1.480043983459472656e+01,-1.049411392211914062e+02,-1.171691207885742188e+02,6.402634429931640625e+01,-3.676386642456054688e+01
4.030340015888214111e-01,2.000000000000000000e+00,3.697360229492187500e+01,1.036961841583251953e+01,3.528154754638671875e+01,-1.115712356567382812e+02,9.092404937744140625e+01,-6.522270965576171875e+01,4.964200592041015625e+01,-1.479123973846435547e+01,-1.049560317993164062e+02,-1.172224655151367188e+02,6.402139282226562500e+01,-3.679188156127929688e+01
4.071390032768249512e-01,2.000000000000000000e+00,3.700248336791992188e+01,1.032161998748779297e+01,3.527583312988281250e+01,-1.116249618530273438e+02,9.092713928222656250e+01,-6.524739837646484375e+01,4.956911087036132812e+01,-1.478199100494384766e+01,-1.049710998535156250e+02,-1.172767562866210938e+02,6.401628875732421875e+01,-3.681879806518554688e+01
4.114030003547668457e-01,2.000000000000000000e+00,3.703121566772460938e+01,1.027375698089599609e+01,3.527016067504882812e+01,-1.116793212890625000e+02,9.093023681640625000e+01,-6.527235412597656250e+01,4.949703979492187500e+01,-1.477265262603759766e+01,-1.049859542846679688e+02,-1.173308334350585938e+02,6.401133728027343750e+01,-3.684582519531250000e+01
4.162540137767791748e-01,2.000000000000000000e+00,3.706032562255859375e+01,1.022582721710205078e+01,3.526481246948242188e+01,-1.117336807250976562e+02,9.093332672119140625e+01,-6.529724121093750000e+01,4.942441940307617188e+01,-1.476322364807128906e+01,-1.050012817382812500e+02,-1.173848190307617188e+02,6.400703430175781250e+01,-3.687252044677734375e+01
4.199729859828948975e-01,2.000000000000000000e+00,3.708926391601562500e+01,1.017791938781738281e+01,3.525940704345703125e+01,-1.117873001098632812e+02,9.093642425537109375e+01,-6.532294464111328125e+01,4.935097885131835938e+01,-1.475393104553222656e+01,-1.050163497924804688e+02,-1.174391098022460938e+02,6.400288391113281250e+01,-3.689801025390625000e+01
4.240100085735321045e-01,2.000000000000000000e+00,3.711811447143554688e+01,1.013001251220703125e+01,3.525391769409179688e+01,-1.118418197631835938e+02,9.093924713134765625e+01,-6.534857940673828125e+01,4.927748107910156250e+01,-1.474509620666503906e+01,-1.050313644409179688e+02,-1.174930419921875000e+02,6.399894714355468750e+01,-3.692327880859375000e+01
4.280000030994415283e-01,2.000000000000000000e+00,3.714693832397460938e+01,1.008210468292236328e+01,3.524826431274414062e+01,-1.118955459594726562e+02,9.094233703613281250e+01,-6.537462615966796875e+01,4.920507812500000000e+01,-1.473612308502197266e+01,-1.050465927124023438e+02,-1.175471725463867188e+02,6.399515914916992188e+01,-3.694964599609375000e+01
4.311589896678924561e-01,2.000000000000000000e+00,3.717572784423828125e+01,1.003437805175781250e+01,3.524275588989257812e+01,-1.119492721557617188e+02,9.094543457031250000e+01,-6.539998626708984375e+01,4.913306427001953125e+01,-1.472678661346435547e+01,-1.050617141723632812e+02,-1.176016082763671875e+02,6.399151611328125000e+01,-3.697568511962890625e+01
4.351490139961242676e-01,2.000000000000000000e+00,3.720454788208007812e+01,9.986515998840332031e+00,3.523714447021484375e+01,-1.120039520263671875e+02,9.094825744628906250e+01,-6.542501068115234375e+01,4.906093978881835938e+01,-1.471758460998535156e+01,-1.050772171020507812e+02,-1.176552581787109375e+02,6.398772811889648438e+01,-3.700160980224609375e+01
4.391230046749114990e-01,2.000000000000000000e+00,3.723340225219726562e+01,9.938744544982910156e+00,3.523169326782226562e+01,-1.120574722290039062e+02,9.095124053955078125e+01,-6.544955444335937500e+01,4.898749542236328125e+01,-1.470856666564941406e+01,-1.050926589965820312e+02,-1.177089538574218750e+02,6.398408508300781250e+01,-3.702742767333984375e+01
4.450030028820037842e-01,2.000000000000000000e+00,3.726225280761718750e+01,9.891062736511230469e+00,3.522612380981445312e+01,-1.121117248535156250e+02,9.095391082763671875e+01,-6.547465515136718750e+01,4.891432571411132812e+01,-1.469945716857910156e+01,-1.051078872680664062e+02,-1.177631759643554688e+02,6.398051452636718750e+01,-3.705291748046875000e+01
4.475800096988677979e-01,2.000000000000000000e+00,3.732009506225585938e+01,9.795315742492675781e+00,3.521514511108398438e+01,-1.122192840576171875e+02,9.095987701416015625e+01,-6.552577972412109375e+01,4.877084350585937500e+01,-1.468137550354003906e+01,-1.051379089355468750e+02,-1.178716735839843750e+02,6.397366333007812500e+01,-3.710839843750000000e+01
4.520129859447479248e-01,2.000000000000000000e+00,3.732009506225585938e+01,9.795315742492675781e+00,3.521514511108398438e+01,-1.122192840576171875e+02,9.095987701416015625e+01,-6.552577972412109375e+01,4.877084350585937500e+01,-1.468137550354003906e+01,-1.051379089355468750e+02,-1.178716735839843750e+02,6.397366333007812500e+01,-3.710839843750000000e+01
4.552769958972930908e-01,2.000000000000000000e+00,3.734900283813476562e+01,9.747407913208007812e+00,3.520969390869140625e+01,-1.122739639282226562e+02,9.096270751953125000e+01,-6.555162048339843750e+01,4.869855499267578125e+01,-1.467222023010253906e+01,-1.051533050537109375e+02,-1.179261703491210938e+02,6.397038269042968750e+01,-3.713850021362304688e+01
4.595589935779571533e-01,2.000000000000000000e+00,3.737791061401367188e+01,9.699545860290527344e+00,3.520436859130859375e+01,-1.123280029296875000e+02,9.096542358398437500e+01,-6.557759857177734375e+01,4.862516403198242188e+01,-1.466292762756347656e+01,-1.051685256958007812e+02,-1.179798812866210938e+02,6.396718215942382812e+01,-3.717057800292968750e+01
4.640499949455261230e-01,2.000000000000000000e+00,3.740687561035156250e+01,9.651864051818847656e+00,3.519887924194335938e+01,-1.123817825317382812e+02,9.096840667724609375e+01,-6.560262298583984375e+01,4.855171966552734375e+01,-1.465400028228759766e+01,-1.051835403442382812e+02,-1.180344543457031250e+02,6.396324539184570312e+01,-3.720397949218750000e+01
4.686950147151947021e-01,2.000000000000000000e+00,3.746460723876953125e+01,9.556230545043945312e+00,3.518759536743164062e+01,-1.124899749755859375e+02,9.097385406494140625e+01,-6.565219879150390625e+01,4.840752410888671875e+01,-1.463614749908447266e+01,-1.052139968872070312e+02,-1.181426010131835938e+02,6.395625305175781250e+01,-3.727341079711914062e+01
4.720500111579895020e-01,2.000000000000000000e+00,3.746460723876953125e+01,9.556230545043945312e+00,3.518759536743164062e+01,-1.124899749755859375e+02,9.097385406494140625e+01,-6.565219879150390625e+01,4.840752410888671875e+01,-1.463614749908447266e+01,-1.052139968872070312e+02,-1.181426010131835938e+02,6.395625305175781250e+01,-3.727341079711914062e+01
4.756529927253723145e-01,2.000000000000000000e+00,3.749356842041015625e+01,9.508436203002929688e+00,3.518216323852539062e+01,-1.125440750122070312e+02,9.097683715820312500e+01,-6.567749023437500000e+01,4.833512496948242188e+01,-1.462699413299560547e+01,-1.052288436889648438e+02,-1.181968078613281250e+02,6.395282363891601562e+01,-3.730889892578125000e+01
4.800040125846862793e-01,2.000000000000000000e+00,3.752244949340820312e+01,9.460370063781738281e+00,3.517657470703125000e+01,-1.125984802246093750e+02,9.097955322265625000e+01,-6.570292663574218750e+01,4.826184844970703125e+01,-1.461769962310791016e+01,-1.052436370849609375e+02,-1.182510910034179688e+02,6.394954681396484375e+01,-3.734361648559570312e+01
4.833570122718811035e-01,2.000000000000000000e+00,3.755118560791015625e+01,9.412417411804199219e+00,3.517096328735351562e+01,-1.126520538330078125e+02,9.098227691650390625e+01,-6.572875976562500000e+01,4.818851470947265625e+01,-1.460849952697753906e+01,-1.052586517333984375e+02,-1.183053817749023438e+02,6.394532394409179688e+01,-3.737899398803710938e+01
4.874979853630065918e-01,2.000000000000000000e+00,3.758032226562500000e+01,9.364668846130371094e+00,3.516524887084960938e+01,-1.127061462402343750e+02,9.098526000976562500e+01,-6.575453186035156250e+01,4.811600494384765625e+01,-1.459934329986572266e+01,-1.052736587524414062e+02,-1.183601684570312500e+02,6.394131469726562500e+01,-3.741392898559570312e+01
4.933130145072937012e-01,2.000000000000000000e+00,3.760923004150390625e+01,9.316805839538574219e+00,3.515972137451171875e+01,-1.127598724365234375e+02,9.098765563964843750e+01,-6.577989196777343750e+01,4.804404449462890625e+01,-1.459014320373535156e+01,-1.052885055541992188e+02,-1.184148788452148438e+02,6.393723678588867188e+01,-3.744996643066406250e+01
4.959869980812072754e-01,2.000000000000000000e+00,3.766727447509765625e+01,9.221013069152832031e+00,3.514876174926757812e+01,-1.128679122924804688e+02,9.099309539794921875e+01,-6.582906341552734375e+01,4.789754104614257812e+01,-1.457128334045410156e+01,-1.053183135986328125e+02,-1.185225219726562500e+02,6.392819976806640625e+01,-3.752137374877929688e+01
5.000020265579223633e-01,2.000000000000000000e+00,3.766727447509765625e+01,9.221013069152832031e+00,3.514876174926757812e+01,-1.128679122924804688e+02,9.099309539794921875e+01,-6.582906341552734375e+01,4.789754104614257812e+01,-1.457128334045410156e+01,-1.053183135986328125e+02,-1.185225219726562500e+02,6.392819976806640625e+01,-3.752137374877929688e+01
5.040289759635925293e-01,2.000000000000000000e+00,3.769623947143554688e+01,9.172924995422363281e+00,3.514320755004882812e+01,-1.129217987060546875e+02,9.099581909179687500e+01,-6.585388183593750000e+01,4.782404327392578125e+01,-1.456189823150634766e+01,-1.053332214355468750e+02,-1.185765228271484375e+02,6.392317581176757812e+01,-3.755696868896484375e+01
5.080249905586242676e-01,2.000000000000000000e+00,3.772528839111328125e+01,9.124927520751953125e+00,3.513757705688476562e+01,-1.129758377075195312e+02,9.099880218505859375e+01,-6.587944793701171875e+01,4.775175094604492188e+01,-1.455269813537597656e+01,-1.053481674194335938e+02,-1.186304397583007812e+02,6.391807174682617188e+01,-3.759103012084960938e+01
5.117419958114624023e-01,2.000000000000000000e+00,3.775423049926757812e+01,9.076951980590820312e+00,3.513200759887695312e+01,-1.130295715332031250e+02,9.100167846679687500e+01,-6.590508270263671875e+01,4.767968368530273438e+01,-1.454358863830566406e+01,-1.053626937866210938e+02,-1.186845245361328125e+02,6.391326522827148438e+01,-3.762321472167968750e+01
5.166800022125244141e-01,2.000000000000000000e+00,3.778325271606445312e+01,9.029066085815429688e+00,3.512645721435546875e+01,-1.130832443237304688e+02,9.100424194335937500e+01,-6.593085479736328125e+01,4.760667800903320312e+01,-1.453447914123535156e+01,-1.053774337768554688e+02,-1.187384414672851562e+02,6.390889358520507812e+01,-3.765398025512695312e+01
5.211979746818542480e-01,2.000000000000000000e+00,3.784138107299804688e+01,8.933251380920410156e+00,3.511531448364257812e+01,-1.131916961669921875e+02,9.100952148437500000e+01,-6.598117065429687500e+01,4.746006393432617188e+01,-1.451566505432128906e+01,-1.054072341918945312e+02,-1.188466567993164062e+02,6.389971160888671875e+01,-3.771055984497070312e+01
5.238609910011291504e-01,2.000000000000000000e+00,3.784138107299804688e+01,8.933251380920410156e+00,3.511531448364257812e+01,-1.131916961669921875e+02,9.100952148437500000e+01,-6.598117065429687500e+01,4.746006393432617188e+01,-1.451566505432128906e+01,-1.054072341918945312e+02,-1.188466567993164062e+02,6.389971160888671875e+01,-3.771055984497070312e+01
5.280060172080993652e-01,2.000000000000000000e+00,3.787011718750000000e+01,8.885434150695800781e+00,3.510976409912109375e+01,-1.132455368041992188e+02,9.101250457763671875e+01,-6.600572967529296875e+01,4.738810729980468750e+01,-1.450641822814941406e+01,-1.054220886230468750e+02,-1.189004364013671875e+02,6.389504623413085938e+01,-3.773857498168945312e+01
5.319420099258422852e-01,2.000000000000000000e+00,3.789891052246093750e+01,8.837639808654785156e+00,3.510437393188476562e+01,-1.132999420166015625e+02,9.101522064208984375e+01,-6.603041076660156250e+01,4.731570434570312500e+01,-1.449707984924316406e+01,-1.054371566772460938e+02,-1.189541549682617188e+02,6.389060211181640625e+01,-3.776461029052734375e+01
5.370830297470092773e-01,2.000000000000000000e+00,3.795661163330078125e+01,8.742209434509277344e+00,3.509368133544921875e+01,-1.134077148437500000e+02,9.102050018310546875e+01,-6.608120727539062500e+01,4.716975021362304688e+01,-1.447881412506103516e+01,-1.054668426513671875e+02,-1.190604171752929688e+02,6.388207626342773438e+01,-3.781767654418945312e+01
5.409439802169799805e-01,2.000000000000000000e+00,3.795661163330078125e+01,8.742209434509277344e+00,3.509368133544921875e+01,-1.134077148437500000e+02,9.102050018310546875e+01,-6.608120727539062500e+01,4.716975021362304688e+01,-1.447881412506103516e+01,-1.054668426513671875e+02,-1.190604171752929688e+02,6.388207626342773438e+01,-3.781767654418945312e+01
5.452399849891662598e-01,2.000000000000000000e+00,3.798537826538085938e+01,8.694370269775390625e+00,3.508817291259765625e+01,-1.134617614746093750e+02,9.102332305908203125e+01,-6.610663604736328125e+01,4.709696960449218750e+01,-1.446933937072753906e+01,-1.054816894531250000e+02,-1.191137771606445312e+02,6.387799835205078125e+01,-3.784305191040039062e+01
5.480459928512573242e-01,2.000000000000000000e+00,3.801413726806640625e+01,8.646575927734375000e+00,3.508259963989257812e+01,-1.135154876708984375e+02,9.102604675292968750e+01,-6.613240814208984375e+01,4.702462387084960938e+01,-1.445977210998535156e+01,-1.054968719482421875e+02,-1.191681289672851562e+02,6.387340927124023438e+01,-3.786799240112304688e+01
5.521820187568664551e-01,2.000000000000000000e+00,3.804287338256835938e+01,8.598849296569824219e+00,3.507703018188476562e+01,-1.135694198608398438e+02,9.102886962890625000e+01,-6.615756988525390625e+01,4.695271682739257812e+01,-1.445089054107666016e+01,-1.055118255615234375e+02,-1.192217025756835938e+02,6.386882019042968750e+01,-3.789249420166015625e+01
5.563549995422363281e-01,2.000000000000000000e+00,3.807184219360351562e+01,8.551145553588867188e+00,3.507155990600585938e+01,-1.136231536865234375e+02,9.103175354003906250e+01,-6.618177795410156250e+01,4.687993240356445312e+01,-1.444196605682373047e+01,-1.055268325805664062e+02,-1.192760620117187500e+02,6.386451721191406250e+01,-3.791798019409179688e+01
5.601959824562072754e-01,2.000000000000000000e+00,3.810077667236328125e+01,8.503374099731445312e+00,3.506599044799804688e+01,-1.136769332885742188e+02,9.103468322753906250e+01,-6.620659637451171875e+01,4.680654144287109375e+01,-1.443290042877197266e+01,-1.055416259765625000e+02,-1.193304138183593750e+02,6.386036300659179688e+01,-3.794258880615234375e+01
5.651329755783081055e-01,2.000000000000000000e+00,3.812965393066406250e+01,8.455669403076171875e+00,3.506031799316406250e+01,-1.137312927246093750e+02,9.103739929199218750e+01,-6.623148345947265625e+01,4.673331832885742188e+01,-1.442392921447753906e+01,-1.055570755004882812e+02,-1.193834686279296875e+02,6.385585021972656250e+01,-3.796884918212890625e+01
5.681300163269042969e-01,2.000000000000000000e+00,3.815853500366210938e+01,8.408056259155273438e+00,3.505464553833007812e+01,-1.137845993041992188e+02,9.104038238525390625e+01,-6.625678253173828125e+01,4.666108322143554688e+01,-1.441481876373291016e+01,-1.055726318359375000e+02,-1.194370498657226562e+02,6.385169601440429688e+01,-3.799664306640625000e+01
5.722060203552246094e-01,2.000000000000000000e+00,3.818721389770507812e+01,8.360194206237792969e+00,3.504913711547851562e+01,-1.138387451171875000e+02,9.104331970214843750e+01,-6.628234863281250000e+01,4.658945465087890625e+01,-1.440598392486572266e+01,-1.055876464843750000e+02,-1.194914703369140625e+02,6.384819793701171875e+01,-3.802542877197265625e+01
5.761979818344116211e-01,2.000000000000000000e+00,3.821580505371093750e+01,8.312241554260253906e+00,3.504370498657226562e+01,-1.138925781250000000e+02,9.104614257812500000e+01,-6.630825805664062500e+01,4.651716613769531250e+01,-1.439687442779541016e+01,-1.056027679443359375e+02,-1.195448303222656250e+02,6.384462738037109375e+01,-3.805498123168945312e+01
5.799840092658996582e-01,2.000000000000000000e+00,3.824465560913085938e+01,8.264333724975585938e+00,3.503831863403320312e+01,-1.139459381103515625e+02,9.104913330078125000e+01,-6.633368682861328125e+01,4.644404983520507812e+01,-1.438813209533691406e+01,-1.056178817749023438e+02,-1.195981063842773438e+02,6.384105682373046875e+01,-3.808607101440429688e+01
5.829399824142456055e-01,2.000000000000000000e+00,3.827373504638671875e+01,8.216448783874511719e+00,3.503272628784179688e+01,-1.140004577636718750e+02,9.105206298828125000e+01,-6.635816955566406250e+01,4.637088394165039062e+01,-1.437920475006103516e+01,-1.056331100463867188e+02,-1.196523208618164062e+02,6.383755874633789062e+01,-3.811705398559570312e+01
5.891190171241760254e-01,2.000000000000000000e+00,3.830255889892578125e+01,8.168789863586425781e+00,3.502705383300781250e+01,-1.140543899536132812e+02,9.105499267578125000e+01,-6.638285827636718750e+01,4.629870223999023438e+01,-1.436982154846191406e+01,-1.056481781005859375e+02,-1.197060317993164062e+02,6.383406066894531250e+01,-3.815045166015625000e+01
5.909450054168701172e-01,2.000000000000000000e+00,3.833118057250976562e+01,8.121086120605468750e+00,3.502144241333007812e+01,-1.141082839965820312e+02,9.105819702148437500e+01,-6.640808105468750000e+01,4.622679519653320312e+01,-1.436057376861572266e+01,-1.056633453369140625e+02,-1.197606048583984375e+02,6.383070755004882812e+01,-3.818494796752929688e+01
5.964040160179138184e-01,2.000000000000000000e+00,3.835988235473632812e+01,8.073337554931640625e+00,3.501595306396484375e+01,-1.141625366210937500e+02,9.106101989746093750e+01,-6.643310546875000000e+01,4.615406417846679688e+01,-1.435169410705566406e+01,-1.056786880493164062e+02,-1.198151016235351562e+02,6.382714080810546875e+01,-3.821955490112304688e+01
5.990840196609497070e-01,2.000000000000000000e+00,3.838844680786132812e+01,8.025474548339843750e+00,3.501054763793945312e+01,-1.142157363891601562e+02,9.106410980224609375e+01,-6.645867156982421875e+01,4.608084106445312500e+01,-1.434290409088134766e+01,-1.056938018798828125e+02,-1.198686752319335938e+02,6.382327651977539062e+01,-3.825438308715820312e+01
6.029980182647705078e-01,2.000000000000000000e+00,3.841735458374023438e+01,7.977454662322998047e+00,3.500491333007812500e+01,-1.142697296142578125e+02,9.106715393066406250e+01,-6.648458099365234375e+01,4.600806045532226562e+01,-1.433411502838134766e+01,-1.057088165283203125e+02,-1.199228134155273438e+02,6.381934356689453125e+01,-3.828953933715820312e+01
6.084820032119750977e-01,2.000000000000000000e+00,3.844609069824218750e+01,7.929682254791259766e+00,3.499926376342773438e+01,-1.143239822387695312e+02,9.107035064697265625e+01,-6.651014709472656250e+01,4.593631744384765625e+01,-1.432496070861816406e+01,-1.057236099243164062e+02,-1.199766693115234375e+02,6.381555938720703125e+01,-3.832568359375000000e+01
6.135140061378479004e-01,2.000000000000000000e+00,3.847482681274414062e+01,7.882046222686767578e+00,3.499383163452148438e+01,-1.143778152465820312e+02,9.107328796386718750e+01,-6.653497314453125000e+01,4.586429977416992188e+01,-1.431571388244628906e+01,-1.057386779785156250e+02,-1.200301666259765625e+02,6.381212997436523438e+01,-3.836083984375000000e+01
6.164550185203552246e-01,2.000000000000000000e+00,3.850362014770507812e+01,7.834320068359375000e+00,3.498850631713867188e+01,-1.144317550659179688e+02,9.107632446289062500e+01,-6.655951690673828125e+01,4.579173660278320312e+01,-1.430669498443603516e+01,-1.057538452148437500e+02,-1.200845870971679688e+02,6.380826950073242188e+01,-3.839621734619140625e+01
6.213629841804504395e-01,2.000000000000000000e+00,3.853252792358398438e+01,7.786480426788330078e+00,3.498313522338867188e+01,-1.144853744506835938e+02,9.107925415039062500e+01,-6.658440399169921875e+01,4.571840286254882812e+01,-1.429749393463134766e+01,-1.057684783935546875e+02,-1.201388778686523438e+02,6.380447769165039062e+01,-3.843159484863281250e+01
6.229540109634399414e-01,2.000000000000000000e+00,3.856129074096679688e+01,7.738663196563720703e+00,3.497760772705078125e+01,-1.145388412475585938e+02,9.108229827880859375e+01,-6.660936737060546875e+01,4.564578247070312500e+01,-1.428806400299072266e+01,-1.057832717895507812e+02,-1.201925888061523438e+02,6.380025100708007812e+01,-3.846608734130859375e+01
6.270070075988769531e-01,2.000000000000000000e+00,3.859034347534179688e+01,7.690824031829833984e+00,3.497195434570312500e+01,-1.145932540893554688e+02,9.108533477783203125e+01,-6.663533020019531250e+01,4.557382202148437500e+01,-1.427863407135009766e+01,-1.057982330322265625e+02,-1.202472305297851562e+02,6.379587936401367188e+01,-3.850058364868164062e+01
6.309850215911865234e-01,2.000000000000000000e+00,3.861930847167968750e+01,7.643120288848876953e+00,3.496646881103515625e+01,-1.146470336914062500e+02,9.108821105957031250e+01,-6.666117095947265625e+01,4.550175476074218750e+01,-1.426906681060791016e+01,-1.058132476806640625e+02,-1.203010101318359375e+02,6.379122161865234375e+01,-3.853497314453125000e+01
6.349449753761291504e-01,2.000000000000000000e+00,3.864795684814453125e+01,7.595257759094238281e+00,3.496099472045898438e+01,-1.147008132934570312e+02,9.109114837646484375e+01,-6.668701171875000000e+01,4.542891311645507812e+01,-1.425963687896728516e+01,-1.058279266357421875e+02,-1.203545074462890625e+02,6.378655624389648438e+01,-3.856793212890625000e+01
6.389660239219665527e-01,2.000000000000000000e+00,3.867669296264648438e+01,7.547349929809570312e+00,3.495555114746093750e+01,-1.147544860839843750e+02,9.109413146972656250e+01,-6.671210479736328125e+01,4.535563659667968750e+01,-1.425043678283691406e+01,-1.058427200317382812e+02,-1.204086532592773438e+02,6.378211212158203125e+01,-3.859792709350585938e+01
6.431279778480529785e-01,2.000000000000000000e+00,3.870554351806640625e+01,7.499623775482177734e+00,3.494993591308593750e+01,-1.148079528808593750e+02,9.109690093994140625e+01,-6.673699188232421875e+01,4.528279495239257812e+01,-1.424123573303222656e+01,-1.058575210571289062e+02,-1.204618606567382812e+02,6.377759552001953125e+01,-3.862604904174804688e+01
6.490600109100341797e-01,2.000000000000000000e+00,3.876327514648437500e+01,7.404260635375976562e+00,3.493859100341796875e+01,-1.149162521362304688e+02,9.110266113281250000e+01,-6.678677368164062500e+01,4.513909530639648438e+01,-1.422246742248535156e+01,-1.058869934082031250e+02,-1.205692901611328125e+02,6.376790237426757812e+01,-3.868339920043945312e+01
6.509659886360168457e-01,2.000000000000000000e+00,3.876327514648437500e+01,7.404260635375976562e+00,3.493859100341796875e+01,-1.149162521362304688e+02,9.110266113281250000e+01,-6.678677368164062500e+01,4.513909530639648438e+01,-1.422246742248535156e+01,-1.058869934082031250e+02,-1.205692901611328125e+02,6.376790237426757812e+01,-3.868339920043945312e+01
6.569910049438476562e-01,2.000000000000000000e+00,3.879209518432617188e+01,7.356602191925048828e+00,3.493322372436523438e+01,-1.149702377319335938e+02,9.110537719726562500e+01,-6.681213378906250000e+01,4.506614685058593750e+01,-1.421308231353759766e+01,-1.059018936157226562e+02,-1.206232070922851562e+02,6.376360702514648438e+01,-3.871020507812500000e+01
6.590480208396911621e-01,2.000000000000000000e+00,3.882062911987304688e+01,7.308989048004150391e+00,3.492793655395507812e+01,-1.150241317749023438e+02,9.110820770263671875e+01,-6.683810424804687500e+01,4.499253463745117188e+01,-1.420406532287597656e+01,-1.059169616699218750e+02,-1.206771392822265625e+02,6.375879287719726562e+01,-3.873800277709960938e+01
6.630480289459228516e-01,2.000000000000000000e+00,3.884928131103515625e+01,7.261375904083251953e+00,3.492246627807617188e+01,-1.150774841308593750e+02,9.111081695556640625e+01,-6.686373901367187500e+01,4.491942214965820312e+01,-1.419495487213134766e+01,-1.059320831298828125e+02,-1.207308502197265625e+02,6.375347900390625000e+01,-3.876469802856445312e+01
6.669980287551879883e-01,2.000000000000000000e+00,3.887804031372070312e+01,7.213672161102294922e+00,3.491683578491210938e+01,-1.151316375732421875e+02,9.111364746093750000e+01,-6.688924407958984375e+01,4.484762573242187500e+01,-1.418575382232666016e+01,-1.059468231201171875e+02,-1.207843399047851562e+02,6.374873733520507812e+01,-3.879238510131835938e+01
6.734399795532226562e-01,2.000000000000000000e+00,3.890692138671875000e+01,7.165945053100585938e+00,3.491124725341796875e+01,-1.151857299804687500e+02,9.111663055419921875e+01,-6.691358947753906250e+01,4.477566909790039062e+01,-1.417632389068603516e+01,-1.059618301391601562e+02,-1.208384094238281250e+02,6.374465942382812500e+01,-3.881929779052734375e+01
6.749519705772399902e-01,2.000000000000000000e+00,3.893582916259765625e+01,7.118241310119628906e+00,3.490575408935546875e+01,-1.152390899658203125e+02,9.111919403076171875e+01,-6.693813323974609375e+01,4.470304489135742188e+01,-1.416707801818847656e+01,-1.059770584106445312e+02,-1.208918380737304688e+02,6.374094390869140625e+01,-3.884379959106445312e+01
6.790030002593994141e-01,2.000000000000000000e+00,3.896453475952148438e+01,7.070673465728759766e+00,3.490042877197265625e+01,-1.152931823730468750e+02,9.112180328369140625e+01,-6.696302795410156250e+01,4.462971496582031250e+01,-1.415787696838378906e+01,-1.059920730590820312e+02,-1.209446182250976562e+02,6.373679351806640625e+01,-3.886928939819335938e+01
6.829590201377868652e-01,2.000000000000000000e+00,3.899327087402343750e+01,7.023059844970703125e+00,3.489479446411132812e+01,-1.153467025756835938e+02,9.112446594238281250e+01,-6.698839569091796875e+01,4.455681991577148438e+01,-1.414885902404785156e+01,-1.060073547363281250e+02,-1.209985351562500000e+02,6.373249053955078125e+01,-3.889477539062500000e+01
6.869500279426574707e-01,2.000000000000000000e+00,3.902203750610351562e+01,6.975423812866210938e+00,3.488914108276367188e+01,-1.154001617431640625e+02,9.112718200683593750e+01,-6.701368713378906250e+01,4.448513031005859375e+01,-1.413993167877197266e+01,-1.060225830078125000e+02,-1.210530395507812500e+02,6.372863006591796875e+01,-3.892191314697265625e+01
6.909400224685668945e-01,2.000000000000000000e+00,3.905088806152343750e+01,6.927901268005371094e+00,3.488377761840820312e+01,-1.154545288085937500e+02,9.112985229492187500e+01,-6.703965759277343750e+01,4.441339111328125000e+01,-1.413091468811035156e+01,-1.060379180908203125e+02,-1.211068267822265625e+02,6.372520828247070312e+01,-3.895003509521484375e+01
6.949740052223205566e-01,2.000000000000000000e+00,3.907970809936523438e+01,6.880016326904296875e+00,3.487841033935546875e+01,-1.155078277587890625e+02,9.113251495361328125e+01,-6.706515502929687500e+01,4.434049987792968750e+01,-1.412194252014160156e+01,-1.060530395507812500e+02,-1.211609573364257812e+02,6.372127532958984375e+01,-3.897969818115234375e+01
6.989650130271911621e-01,2.000000000000000000e+00,3.910847091674804688e+01,6.832199096679687500e+00,3.487316513061523438e+01,-1.155616073608398438e+02,9.113517761230468750e+01,-6.708991241455078125e+01,4.426732635498046875e+01,-1.411301612854003906e+01,-1.060681610107421875e+02,-1.212150421142578125e+02,6.371762466430664062e+01,-3.901013183593750000e+01
7.029709815979003906e-01,2.000000000000000000e+00,3.913711929321289062e+01,6.784359455108642578e+00,3.486779403686523438e+01,-1.156155014038085938e+02,9.113795471191406250e+01,-6.711418914794921875e+01,4.419514846801757812e+01,-1.410404396057128906e+01,-1.060834426879882812e+02,-1.212686004638671875e+02,6.371413040161132812e+01,-3.904177093505859375e+01
7.069979906082153320e-01,2.000000000000000000e+00,3.916571044921875000e+01,6.736723423004150391e+00,3.486210250854492188e+01,-1.156686935424804688e+02,9.114062500000000000e+01,-6.713901519775390625e+01,4.412373733520507812e+01,-1.409525489807128906e+01,-1.060987777709960938e+02,-1.213227386474609375e+02,6.371084976196289062e+01,-3.907418060302734375e+01
7.109739780426025391e-01,2.000000000000000000e+00,3.919441986083984375e+01,6.689155101776123047e+00,3.485649108886718750e+01,-1.157229537963867188e+02,9.114328765869140625e+01,-6.716390228271484375e+01,4.405183029174804688e+01,-1.408632755279541016e+01,-1.061137390136718750e+02,-1.213768920898437500e+02,6.370771408081054688e+01,-3.910549545288085938e+01
7.172999978065490723e-01,2.000000000000000000e+00,3.922318649291992188e+01,6.641338348388671875e+00,3.485103988647460938e+01,-1.157766265869140625e+02,9.114579772949218750e+01,-6.718960571289062500e+01,4.397926712036132812e+01,-1.407712650299072266e+01,-1.061287460327148438e+02,-1.214303817749023438e+02,6.370415115356445312e+01,-3.913812255859375000e+01
7.189949750900268555e-01,2.000000000000000000e+00,3.925168991088867188e+01,6.593702316284179688e+00,3.484559249877929688e+01,-1.158302993774414062e+02,9.114851379394531250e+01,-6.721537017822265625e+01,4.390615463256835938e+01,-1.406797218322753906e+01,-1.061440811157226562e+02,-1.214846038818359375e+02,6.370057678222656250e+01,-3.917174148559570312e+01
7.252870202064514160e-01,2.000000000000000000e+00,3.925168991088867188e+01,6.593702316284179688e+00,3.484559249877929688e+01,-1.158302993774414062e+02,9.114851379394531250e+01,-6.721537017822265625e+01,4.383397293090820312e+01,-1.405899906158447266e+01,-1.061594696044921875e+02,-1.215393142700195312e+02,6.369672012329101562e+01,-3.920535659790039062e+01
7.269440293312072754e-01,2.000000000000000000e+00,3.930901718139648438e+01,6.498226642608642578e+00,3.483428955078125000e+01,-1.159378585815429688e+02,9.115379333496093750e+01,-6.726542663574218750e+01,4.376245498657226562e+01,-1.405007362365722656e+01,-1.061748123168945312e+02,-1.215933761596679688e+02,6.369256591796875000e+01,-3.923985671997070312e+01
7.345679998397827148e-01,2.000000000000000000e+00,3.930901718139648438e+01,6.498226642608642578e+00,3.483428955078125000e+01,-1.159378585815429688e+02,9.115379333496093750e+01,-6.726542663574218750e+01,4.376245498657226562e+01,-1.405007362365722656e+01,-1.061748123168945312e+02,-1.215933761596679688e+02,6.369256591796875000e+01,-3.923985671997070312e+01
7.361080050468444824e-01,2.000000000000000000e+00,3.936654663085937500e+01,6.403022766113281250e+00,3.482320785522460938e+01,-1.160457382202148438e+02,9.115896606445312500e+01,-6.731479644775390625e+01,4.361781692504882812e+01,-1.403203773498535156e+01,-1.062046127319335938e+02,-1.217016677856445312e+02,6.368498611450195312e+01,-3.930884933471679688e+01
7.389609813690185547e-01,2.000000000000000000e+00,3.939528274536132812e+01,6.355296134948730469e+00,3.481796264648437500e+01,-1.160988845825195312e+02,9.116168212890625000e+01,-6.733934020996093750e+01,4.354503250122070312e+01,-1.402301979064941406e+01,-1.062196273803710938e+02,-1.217550888061523438e+02,6.368090820312500000e+01,-3.934246826171875000e+01
7.440670132637023926e-01,2.000000000000000000e+00,3.939528274536132812e+01,6.355296134948730469e+00,3.481796264648437500e+01,-1.160988845825195312e+02,9.116168212890625000e+01,-6.733934020996093750e+01,4.354503250122070312e+01,-1.402301979064941406e+01,-1.062196273803710938e+02,-1.217550888061523438e+02,6.368090820312500000e+01,-3.934246826171875000e+01
7.497670054435729980e-01,2.000000000000000000e+00,3.945283889770507812e+01,6.259979248046875000e+00,3.480688095092773438e+01,-1.162065048217773438e+02,9.116712188720703125e+01,-6.739061737060546875e+01,4.340056228637695312e+01,-1.400448036193847656e+01,-1.062493209838867188e+02,-1.218631591796875000e+02,6.367179489135742188e+01,-3.941058349609375000e+01
7.519680261611938477e-01,2.000000000000000000e+00,3.948171615600585938e+01,6.212184906005859375e+00,3.480133056640625000e+01,-1.162595901489257812e+02,9.116994476318359375e+01,-6.741625213623046875e+01,4.332865905761718750e+01,-1.399518775939941406e+01,-1.062641220092773438e+02,-1.219160766601562500e+02,6.366757583618164062e+01,-3.944255447387695312e+01
7.549510002136230469e-01,2.000000000000000000e+00,3.951050949096679688e+01,6.164548397064208984e+00,3.479590225219726562e+01,-1.163136444091796875e+02,9.117234039306640625e+01,-6.744133758544921875e+01,4.325565338134765625e+01,-1.398603248596191406e+01,-1.062790756225585938e+02,-1.219702987670898438e+02,6.366305160522460938e+01,-3.947551345825195312e+01
7.601000070571899414e-01,2.000000000000000000e+00,3.951050949096679688e+01,6.164548397064208984e+00,3.479590225219726562e+01,-1.163136444091796875e+02,9.117234039306640625e+01,-6.744133758544921875e+01,4.325565338134765625e+01,-1.398603248596191406e+01,-1.062790756225585938e+02,-1.219702987670898438e+02,6.366305160522460938e+01,-3.947551345825195312e+01
7.629500031471252441e-01,2.000000000000000000e+00,3.956815338134765625e+01,6.069095611572265625e+00,3.478500366210937500e+01,-1.164214096069335938e+02,9.117794799804687500e+01,-6.749050903320312500e+01,4.310942459106445312e+01,-1.396712684631347656e+01,-1.063085479736328125e+02,-1.220774993896484375e+02,6.365329360961914062e+01,-3.953725814819335938e+01
7.680429816246032715e-01,2.000000000000000000e+00,3.956815338134765625e+01,6.069095611572265625e+00,3.478500366210937500e+01,-1.164214096069335938e+02,9.117794799804687500e+01,-6.749050903320312500e+01,4.310942459106445312e+01,-1.396712684631347656e+01,-1.063085479736328125e+02,-1.220774993896484375e+02,6.365329360961914062e+01,-3.953725814819335938e+01
7.709429860115051270e-01,2.000000000000000000e+00,3.962551116943359375e+01,5.973891258239746094e+00,3.477398681640625000e+01,-1.165279159545898438e+02,9.118349456787109375e+01,-6.754061889648437500e+01,4.296577835083007812e+01,-1.394854164123535156e+01,-1.063380813598632812e+02,-1.221855697631835938e+02,6.364455032348632812e+01,-3.959449386596679688e+01
7.749440073966979980e-01,2.000000000000000000e+00,3.965424346923828125e+01,5.926187515258789062e+00,3.476868057250976562e+01,-1.165821609497070312e+02,9.118625640869140625e+01,-6.756612396240234375e+01,4.289294052124023438e+01,-1.393938541412353516e+01,-1.063527679443359375e+02,-1.222389144897460938e+02,6.364046478271484375e+01,-3.962305831909179688e+01
7.800409793853759766e-01,2.000000000000000000e+00,3.965424346923828125e+01,5.926187515258789062e+00,3.476868057250976562e+01,-1.165821609497070312e+02,9.118625640869140625e+01,-6.756612396240234375e+01,4.289294052124023438e+01,-1.393938541412353516e+01,-1.063527679443359375e+02,-1.222389144897460938e+02,6.364046478271484375e+01,-3.962305831909179688e+01
7.836329936981201172e-01,2.000000000000000000e+00,3.971194458007812500e+01,5.831097126007080078e+00,3.475808334350585938e+01,-1.166896133422851562e+02,9.119197082519531250e+01,-6.761759948730468750e+01,4.274703979492187500e+01,-1.392070960998535156e+01,-1.063822479248046875e+02,-1.223458328247070312e+02,6.363208389282226562e+01,-3.967864990234375000e+01
7.879499793052673340e-01,2.000000000000000000e+00,3.974062728881835938e+01,5.783528327941894531e+00,3.475257492065429688e+01,-1.167436141967773438e+02,9.119478607177734375e+01,-6.764228057861328125e+01,4.267518997192382812e+01,-1.391127967834472656e+01,-1.063975296020507812e+02,-1.223996124267578125e+02,6.362749481201171875e+01,-3.970699310302734375e+01
7.909420132637023926e-01,2.000000000000000000e+00,3.976930236816406250e+01,5.735938072204589844e+00,3.474704360961914062e+01,-1.167967147827148438e+02,9.119788360595703125e+01,-6.766649627685546875e+01,4.260317611694335938e+01,-1.390221595764160156e+01,-1.064125900268554688e+02,-1.224536972045898438e+02,6.362334442138671875e+01,-3.973566818237304688e+01
7.959920167922973633e-01,2.000000000000000000e+00,3.976930236816406250e+01,5.735938072204589844e+00,3.474704360961914062e+01,-1.167967147827148438e+02,9.119788360595703125e+01,-6.766649627685546875e+01,4.260317611694335938e+01,-1.390221595764160156e+01,-1.064125900268554688e+02,-1.224536972045898438e+02,6.362334442138671875e+01,-3.973566818237304688e+01
8.000460267066955566e-01,2.000000000000000000e+00,3.982683181762695312e+01,5.640688896179199219e+00,3.473608398437500000e+01,-1.169048461914062500e+02,9.120364379882812500e+01,-6.771653747558593750e+01,4.245738601684570312e+01,-1.388408851623535156e+01,-1.064422912597656250e+02,-1.225600280761718750e+02,6.361453247070312500e+01,-3.979082107543945312e+01
8.029519915580749512e-01,2.000000000000000000e+00,3.985559463500976562e+01,5.593188285827636719e+00,3.473053741455078125e+01,-1.169582061767578125e+02,9.120678710937500000e+01,-6.774210357666015625e+01,4.238504028320312500e+01,-1.387493228912353516e+01,-1.064573593139648438e+02,-1.226138916015625000e+02,6.361008453369140625e+01,-3.981806564331054688e+01
8.079959750175476074e-01,2.000000000000000000e+00,3.985559463500976562e+01,5.593188285827636719e+00,3.473053741455078125e+01,-1.169582061767578125e+02,9.120678710937500000e+01,-6.774210357666015625e+01,4.238504028320312500e+01,-1.387493228912353516e+01,-1.064573593139648438e+02,-1.226138916015625000e+02,6.361008453369140625e+01,-3.981806564331054688e+01
8.110039830207824707e-01,2.000000000000000000e+00,3.991306686401367188e+01,5.497916221618652344e+00,3.471931457519531250e+01,-1.170653991699218750e+02,9.121254730224609375e+01,-6.779377746582031250e+01,4.224216079711914062e+01,-1.385634803771972656e+01,-1.064874343872070312e+02,-1.227214508056640625e+02,6.360170364379882812e+01,-3.987563705444335938e+01
8.150309920310974121e-01,2.000000000000000000e+00,3.991306686401367188e+01,5.497916221618652344e+00,3.471931457519531250e+01,-1.170653991699218750e+02,9.121254730224609375e+01,-6.779377746582031250e+01,4.224216079711914062e+01,-1.385634803771972656e+01,-1.064874343872070312e+02,-1.227214508056640625e+02,6.360170364379882812e+01,-3.987563705444335938e+01
8.190749883651733398e-01,2.000000000000000000e+00,3.994174575805664062e+01,5.450551986694335938e+00,3.471388244628906250e+01,-1.171188659667968750e+02,9.121553039550781250e+01,-6.781887817382812500e+01,4.216970825195312500e+01,-1.384765052795410156e+01,-1.065025558471679688e+02,-1.227751007080078125e+02,6.359798812866210938e+01,-3.990452957153320312e+01
8.241699934005737305e-01,2.000000000000000000e+00,3.997062301635742188e+01,5.402871131896972656e+00,3.470853424072265625e+01,-1.171730194091796875e+02,9.121862792968750000e+01,-6.784355926513671875e+01,4.209675979614257812e+01,-1.383881568908691406e+01,-1.065178909301757812e+02,-1.228278656005859375e+02,6.359427261352539062e+01,-3.993375396728515625e+01
8.269889950752258301e-01,2.000000000000000000e+00,4.002798080444335938e+01,5.307440280914306641e+00,3.469749832153320312e+01,-1.172800979614257812e+02,9.122444152832031250e+01,-6.789327239990234375e+01,4.195311355590820312e+01,-1.382109928131103516e+01,-1.065480804443359375e+02,-1.229366607666015625e+02,6.358705902099609375e+01,-3.999791336059570312e+01
8.319860100746154785e-01,2.000000000000000000e+00,4.002798080444335938e+01,5.307440280914306641e+00,3.469749832153320312e+01,-1.172800979614257812e+02,9.122444152832031250e+01,-6.789327239990234375e+01,4.195311355590820312e+01,-1.382109928131103516e+01,-1.065480804443359375e+02,-1.229366607666015625e+02,6.358705902099609375e+01,-3.999791336059570312e+01
8.350629806518554688e-01,2.000000000000000000e+00,4.008504867553710938e+01,5.212327003479003906e+00,3.468647766113281250e+01,-1.173866653442382812e+02,9.123040771484375000e+01,-6.794426727294921875e+01,4.180902862548828125e+01,-1.380342960357666016e+01,-1.065785293579101562e+02,-1.230440826416015625e+02,6.357977294921875000e+01,-4.006108474731445312e+01
8.390100002288818359e-01,2.000000000000000000e+00,4.008504867553710938e+01,5.212327003479003906e+00,3.468647766113281250e+01,-1.173866653442382812e+02,9.123040771484375000e+01,-6.794426727294921875e+01,4.180902862548828125e+01,-1.380342960357666016e+01,-1.065785293579101562e+02,-1.230440826416015625e+02,6.357977294921875000e+01,-4.006108474731445312e+01
8.430579900741577148e-01,2.000000000000000000e+00,4.011358642578125000e+01,5.164781093597412109e+00,3.468102645874023438e+01,-1.174410705566406250e+02,9.123344421386718750e+01,-6.796983337402343750e+01,4.173624420166015625e+01,-1.379454994201660156e+01,-1.065934371948242188e+02,-1.230981521606445312e+02,6.357591247558593750e+01,-4.009294509887695312e+01
8.470240235328674316e-01,2.000000000000000000e+00,4.014246368408203125e+01,5.117145538330078125e+00,3.467551803588867188e+01,-1.174949111938476562e+02,9.123632049560546875e+01,-6.799526214599609375e+01,4.166395187377929688e+01,-1.378566932678222656e+01,-1.066086120605468750e+02,-1.231516418457031250e+02,6.357219696044921875e+01,-4.012524414062500000e+01
8.509510159492492676e-01,2.000000000000000000e+00,4.019967651367187500e+01,5.022009372711181641e+00,3.466445541381835938e+01,-1.176024169921875000e+02,9.124198150634765625e+01,-6.804450225830078125e+01,4.152096557617187500e+01,-1.376745033264160156e+01,-1.066387405395507812e+02,-1.232591400146484375e+02,6.356461715698242188e+01,-4.019028472900390625e+01
8.555399775505065918e-01,2.000000000000000000e+00,4.019967651367187500e+01,5.022009372711181641e+00,3.466445541381835938e+01,-1.176024169921875000e+02,9.124198150634765625e+01,-6.804450225830078125e+01,4.152096557617187500e+01,-1.376745033264160156e+01,-1.066387405395507812e+02,-1.232591400146484375e+02,6.356461715698242188e+01,-4.019028472900390625e+01
8.599969744682312012e-01,2.000000000000000000e+00,4.022832489013671875e+01,4.974350452423095703e+00,3.465904617309570312e+01,-1.176559219360351562e+02,9.124491119384765625e+01,-6.806898498535156250e+01,4.144790649414062500e+01,-1.375843143463134766e+01,-1.066537017822265625e+02,-1.233124160766601562e+02,6.356068420410156250e+01,-4.022390365600585938e+01
8.640199899673461914e-01,2.000000000000000000e+00,4.025694274902343750e+01,4.926872730255126953e+00,3.465378570556640625e+01,-1.177091903686523438e+02,9.124762725830078125e+01,-6.809400939941406250e+01,4.130200576782226562e+01,-1.374099063873291016e+01,-1.066836090087890625e+02,-1.234199905395507812e+02,6.355237579345703125e+01,-4.028762054443359375e+01
8.679519891738891602e-01,2.000000000000000000e+00,4.028550720214843750e+01,4.879237174987792969e+00,3.464843750000000000e+01,-1.177633361816406250e+02,9.125045776367187500e+01,-6.811943817138671875e+01,4.130200576782226562e+01,-1.374099063873291016e+01,-1.066836090087890625e+02,-1.234199905395507812e+02,6.355237579345703125e+01,-4.028762054443359375e+01
8.719850182533264160e-01,2.000000000000000000e+00,4.031450271606445312e+01,4.831782341003417969e+00,3.464294433593750000e+01,-1.178169555664062500e+02,9.125328063964843750e+01,-6.814527893066406250e+01,4.123048782348632812e+01,-1.373224830627441406e+01,-1.066985626220703125e+02,-1.234734802246093750e+02,6.354735183715820312e+01,-4.031915283203125000e+01
8.759239912033081055e-01,2.000000000000000000e+00,4.037189102172851562e+01,4.736532688140869141e+00,3.463194656372070312e+01,-1.179242935180664062e+02,9.125872039794921875e+01,-6.819539642333984375e+01,4.108563232421875000e+01,-1.371393775939941406e+01,-1.067284317016601562e+02,-1.235809783935546875e+02,6.353831481933593750e+01,-4.038001632690429688e+01
8.801069855690002441e-01,2.000000000000000000e+00,4.037189102172851562e+01,4.736532688140869141e+00,3.463194656372070312e+01,-1.179242935180664062e+02,9.125872039794921875e+01,-6.819539642333984375e+01,4.108563232421875000e+01,-1.371393775939941406e+01,-1.067284317016601562e+02,-1.235809783935546875e+02,6.353831481933593750e+01,-4.038001632690429688e+01
8.841159939765930176e-01,2.000000000000000000e+00,4.040059280395507812e+01,4.689054965972900391e+00,3.462653732299804688e+01,-1.179772415161132812e+02,9.126159667968750000e+01,-6.821974182128906250e+01,4.101251983642578125e+01,-1.370468997955322266e+01,-1.067433242797851562e+02,-1.236341018676757812e+02,6.353364944458007812e+01,-4.040990066528320312e+01
8.890259861946105957e-01,2.000000000000000000e+00,4.042918777465820312e+01,4.641464710235595703e+00,3.462104797363281250e+01,-1.180310821533203125e+02,9.126426696777343750e+01,-6.824469757080078125e+01,4.093984222412109375e+01,-1.369567298889160156e+01,-1.067582855224609375e+02,-1.236875305175781250e+02,6.352847671508789062e+01,-4.043923568725585938e+01
8.918120265007019043e-01,2.000000000000000000e+00,4.048688507080078125e+01,4.546237468719482422e+00,3.460982513427734375e+01,-1.181389999389648438e+02,9.126959228515625000e+01,-6.829440307617187500e+01,4.079630661010742188e+01,-1.367704200744628906e+01,-1.067878723144531250e+02,-1.237938079833984375e+02,6.351908111572265625e+01,-4.049943923950195312e+01
8.960589766502380371e-01,2.000000000000000000e+00,4.048688507080078125e+01,4.546237468719482422e+00,3.460982513427734375e+01,-1.181389999389648438e+02,9.126959228515625000e+01,-6.829440307617187500e+01,4.079630661010742188e+01,-1.367704200744628906e+01,-1.067878723144531250e+02,-1.237938079833984375e+02,6.351908111572265625e+01,-4.049943923950195312e+01
9.003069996833801270e-01,2.000000000000000000e+00,4.051556777954101562e+01,4.498782634735107422e+00,3.460443496704101562e+01,-1.181922073364257812e+02,9.127230834960937500e+01,-6.831977081298828125e+01,4.072346878051757812e+01,-1.366774940490722656e+01,-1.068028259277343750e+02,-1.238472976684570312e+02,6.351478195190429688e+01,-4.052734375000000000e+01
9.039540290832519531e-01,2.000000000000000000e+00,4.054415893554687500e+01,4.451169490814208984e+00,3.459907150268554688e+01,-1.182450256347656250e+02,9.127508544921875000e+01,-6.834580993652343750e+01,4.065040969848632812e+01,-1.365863895416259766e+01,-1.068176803588867188e+02,-1.239007263183593750e+02,6.350982666015625000e+01,-4.055590820312500000e+01
9.079819917678833008e-01,2.000000000000000000e+00,4.057278060913085938e+01,4.403669357299804688e+00,3.459370422363281250e+01,-1.182991790771484375e+02,9.127774810791015625e+01,-6.837062835693359375e+01,4.057861709594726562e+01,-1.364943790435791016e+01,-1.068325805664062500e+02,-1.239537963867187500e+02,6.350516128540039062e+01,-4.058425521850585938e+01
9.117689728736877441e-01,2.000000000000000000e+00,4.060145568847656250e+01,4.356146335601806641e+00,3.458823013305664062e+01,-1.183533248901367188e+02,9.128031158447265625e+01,-6.839463806152343750e+01,4.050736618041992188e+01,-1.364023685455322266e+01,-1.068474197387695312e+02,-1.240077133178710938e+02,6.350108337402343750e+01,-4.061215972900390625e+01
9.151740074157714844e-01,2.000000000000000000e+00,4.063024902343750000e+01,4.308759689331054688e+00,3.458268356323242188e+01,-1.184068527221679688e+02,9.128308105468750000e+01,-6.841918945312500000e+01,4.043546295166015625e+01,-1.363108253479003906e+01,-1.068621063232421875e+02,-1.240617141723632812e+02,6.349736785888671875e+01,-4.063940429687500000e+01
9.190049767494201660e-01,2.000000000000000000e+00,4.065909957885742188e+01,4.261281490325927734e+00,3.457723617553710938e+01,-1.184608917236328125e+02,9.128569793701171875e+01,-6.844428253173828125e+01,4.036278915405273438e+01,-1.362188053131103516e+01,-1.068770675659179688e+02,-1.241147842407226562e+02,6.349306869506835938e+01,-4.066730880737304688e+01
9.251689910888671875e-01,2.000000000000000000e+00,4.068777847290039062e+01,4.213645935058593750e+00,3.457182693481445312e+01,-1.185139312744140625e+02,9.128836059570312500e+01,-6.846944427490234375e+01,4.029016876220703125e+01,-1.361263465881347656e+01,-1.068919143676757812e+02,-1.241686325073242188e+02,6.348942184448242188e+01,-4.069642257690429688e+01
9.278990030288696289e-01,2.000000000000000000e+00,4.074493408203125000e+01,4.118645668029785156e+00,3.456080627441406250e+01,-1.186214370727539062e+02,9.129374694824218750e+01,-6.852050781250000000e+01,4.014674377441406250e+01,-1.359473609924316406e+01,-1.069216156005859375e+02,-1.242760620117187500e+02,6.348213577270507812e+01,-4.075662612915039062e+01
9.319819808006286621e-01,2.000000000000000000e+00,4.074493408203125000e+01,4.118645668029785156e+00,3.456080627441406250e+01,-1.186214370727539062e+02,9.129374694824218750e+01,-6.852050781250000000e+01,4.014674377441406250e+01,-1.359473609924316406e+01,-1.069216156005859375e+02,-1.242760620117187500e+02,6.348213577270507812e+01,-4.075662612915039062e+01
9.361439943313598633e-01,2.000000000000000000e+00,4.077363967895507812e+01,4.071054935455322266e+00,3.455535888671875000e+01,-1.186747970581054688e+02,9.129641723632812500e+01,-6.854608154296875000e+01,4.007511138916015625e+01,-1.358571815490722656e+01,-1.069366226196289062e+02,-1.243294830322265625e+02,6.347879028320312500e+01,-4.078673171997070312e+01
9.392150044441223145e-01,2.000000000000000000e+00,4.080223083496093750e+01,4.023599624633789062e+00,3.454988861083984375e+01,-1.187287445068359375e+02,9.129907989501953125e+01,-6.857035064697265625e+01,4.000276565551757812e+01,-1.357665443420410156e+01,-1.069513549804687500e+02,-1.243836898803710938e+02,6.347536087036132812e+01,-4.081749343872070312e+01
9.433429837226867676e-01,2.000000000000000000e+00,4.083111190795898438e+01,3.976167440414428711e+00,3.454460144042968750e+01,-1.187821578979492188e+02,9.130179595947265625e+01,-6.859497070312500000e+01,3.993025588989257812e+01,-1.356731510162353516e+01,-1.069664230346679688e+02,-1.244373321533203125e+02,6.347135543823242188e+01,-4.084803390502929688e+01
9.472200274467468262e-01,2.000000000000000000e+00,4.085955810546875000e+01,3.928486108779907227e+00,3.453937530517578125e+01,-1.188350372314453125e+02,9.130440521240234375e+01,-6.861931610107421875e+01,3.985845947265625000e+01,-1.355811405181884766e+01,-1.069814376831054688e+02,-1.244911804199218750e+02,6.346734619140625000e+01,-4.087945556640625000e+01
9.514499902725219727e-01,2.000000000000000000e+00,4.088803482055664062e+01,3.880737304687500000e+00,3.453395080566406250e+01,-1.188891296386718750e+02,9.130712890625000000e+01,-6.864447784423828125e+01,3.978693771362304688e+01,-1.354927921295166016e+01,-1.069966049194335938e+02,-1.245447616577148438e+02,6.346311950683593750e+01,-4.091252517700195312e+01
9.551460146903991699e-01,2.000000000000000000e+00,4.091677093505859375e+01,3.833123445510864258e+00,3.452837753295898438e+01,-1.189425430297851562e+02,9.130979156494140625e+01,-6.866977691650390625e+01,3.971519851684570312e+01,-1.354035282135009766e+01,-1.070113449096679688e+02,-1.245983200073242188e+02,6.345932769775390625e+01,-4.094526290893554688e+01
9.603009819984436035e-01,2.000000000000000000e+00,4.094533538818359375e+01,3.785532951354980469e+00,3.452286529541015625e+01,-1.189958038330078125e+02,9.131256866455078125e+01,-6.869547271728515625e+01,3.964241409301757812e+01,-1.353142738342285156e+01,-1.070261459350585938e+02,-1.246523208618164062e+02,6.345524978637695312e+01,-4.097789382934570312e+01
9.634050130844116211e-01,2.000000000000000000e+00,4.097378158569335938e+01,3.738123416900634766e+00,3.451747894287109375e+01,-1.190501556396484375e+02,9.131533813476562500e+01,-6.872117614746093750e+01,3.956941223144531250e+01,-1.352240943908691406e+01,-1.070411529541015625e+02,-1.247057418823242188e+02,6.345095443725585938e+01,-4.101041412353515625e+01
9.672250151634216309e-01,2.000000000000000000e+00,4.100243377685546875e+01,3.690532684326171875e+00,3.451207351684570312e+01,-1.191027221679687500e+02,9.131794738769531250e+01,-6.874620056152343750e+01,3.949700927734375000e+01,-1.351334476470947266e+01,-1.070563354492187500e+02,-1.247590866088867188e+02,6.344651031494140625e+01,-4.104359054565429688e+01
9.713000059127807617e-01,2.000000000000000000e+00,4.103088378906250000e+01,3.642987251281738281e+00,3.450653839111328125e+01,-1.191563568115234375e+02,9.132077789306640625e+01,-6.877075195312500000e+01,3.942570877075195312e+01,-1.350441837310791016e+01,-1.070712814331054688e+02,-1.248130187988281250e+02,6.344286727905273438e+01,-4.107567214965820312e+01
9.766430258750915527e-01,2.000000000000000000e+00,4.105932998657226562e+01,3.595667839050292969e+00,3.450086593627929688e+01,-1.192101364135742188e+02,9.132365417480468750e+01,-6.879537200927734375e+01,3.935374832153320312e+01,-1.349544620513916016e+01,-1.070859680175781250e+02,-1.248667297363281250e+02,6.343936538696289062e+01,-4.110687255859375000e+01
9.799839854240417480e-01,2.000000000000000000e+00,4.108800888061523438e+01,3.548054456710815430e+00,3.449539947509765625e+01,-1.192634353637695312e+02,9.132653808593750000e+01,-6.882039642333984375e+01,3.928123855590820312e+01,-1.348642921447753906e+01,-1.071009826660156250e+02,-1.249205169677734375e+02,6.343536376953125000e+01,-4.113741302490234375e+01
9.843410253524780273e-01,2.000000000000000000e+00,4.111668777465820312e+01,3.500554323196411133e+00,3.448999023437500000e+01,-1.193177947998046875e+02,9.132925415039062500e+01,-6.884555816650390625e+01,3.920828628540039062e+01,-1.347736549377441406e+01,-1.071158828735351562e+02,-1.249742279052734375e+02,6.343120956420898438e+01,-4.116894531250000000e+01
9.876300096511840820e-01,2.000000000000000000e+00,4.114524841308593750e+01,3.453054189682006836e+00,3.448480606079101562e+01,-1.193713684082031250e+02,9.133191680908203125e+01,-6.887132263183593750e+01,3.913572311401367188e+01,-1.346802711486816406e+01,-1.071308975219726562e+02,-1.250277175903320312e+02,6.342662048339843750e+01,-4.120113754272460938e+01
9.919930100440979004e-01,2.000000000000000000e+00,4.117390060424804688e+01,3.405531406402587891e+00,3.447929382324218750e+01,-1.194243545532226562e+02,9.133480072021484375e+01,-6.889736938476562500e+01,3.906431579589843750e+01,-1.345891666412353516e+01,-1.071459045410156250e+02,-1.250819396972656250e+02,6.342209625244140625e+01,-4.123134994506835938e+01
9.960449934005737305e-01,2.000000000000000000e+00,4.120243453979492188e+01,3.358212232589721680e+00,3.447372436523437500e+01,-1.194780807495117188e+02,9.133810424804687500e+01,-6.892232513427734375e+01,3.899218750000000000e+01,-1.344994544982910156e+01,-1.071607513427734375e+02,-1.251357192993164062e+02,6.341750717163085938e+01,-4.126123046875000000e+01
9.995759725570678711e-01,2.000000000000000000e+00,4.123114013671875000e+01,3.310825109481811523e+00,3.446815490722656250e+01,-1.195316009521484375e+02,9.134071350097656250e+01,-6.894708251953125000e+01,3.891940689086914062e+01,-1.344115543365478516e+01,-1.071757659912109375e+02,-1.251882858276367188e+02,6.341328048706054688e+01,-4.129078674316406250e+01
1.004053950309753418e+00,2.000000000000000000e+00,4.125978851318359375e+01,3.263257265090942383e+00,3.446278381347656250e+01,-1.195854263305664062e+02,9.134369659423828125e+01,-6.897169494628906250e+01,3.884640121459960938e+01,-1.343227577209472656e+01,-1.071906127929687500e+02,-1.252414093017578125e+02,6.340934753417968750e+01,-4.131890869140625000e+01
1.008581042289733887e+00,2.000000000000000000e+00,4.128844070434570312e+01,3.215869903564453125e+00,3.445743560791015625e+01,-1.196387405395507812e+02,9.134663391113281250e+01,-6.899685668945312500e+01,3.877449417114257812e+01,-1.342307472229003906e+01,-1.072056808471679688e+02,-1.252949142456054688e+02,6.340504837036132812e+01,-4.134604644775390625e+01
1.011989951133728027e+00,2.000000000000000000e+00,4.131700134277343750e+01,3.168324470520019531e+00,3.445201110839843750e+01,-1.196916732788085938e+02,9.134956359863281250e+01,-6.902194213867187500e+01,3.870324707031250000e+01,-1.341396522521972656e+01,-1.072206878662109375e+02,-1.253487701416015625e+02,6.340060424804687500e+01,-4.137450027465820312e+01
1.015612959861755371e+00,2.000000000000000000e+00,4.134559249877929688e+01,3.120598077774047852e+00,3.444654083251953125e+01,-1.197453460693359375e+02,9.135260772705078125e+01,-6.904737854003906250e+01,3.863161849975585938e+01,-1.340490150451660156e+01,-1.072356414794921875e+02,-1.254027633666992188e+02,6.339682006835937500e+01,-4.140207672119140625e+01
1.020091056823730469e+00,2.000000000000000000e+00,4.137424468994140625e+01,3.073210954666137695e+00,3.444113540649414062e+01,-1.197991867065429688e+02,9.135549163818359375e+01,-6.907348632812500000e+01,3.855894088745117188e+01,-1.339588260650634766e+01,-1.072504425048828125e+02,-1.254561920166015625e+02,6.339302825927734375e+01,-4.143041992187500000e+01
1.023813009262084961e+00,2.000000000000000000e+00,4.140300750732421875e+01,3.025891780853271484e+00,3.443592834472656250e+01,-1.198523788452148438e+02,9.135830688476562500e+01,-6.909857940673828125e+01,3.848621368408203125e+01,-1.338672828674316406e+01,-1.072651748657226562e+02,-1.255096893310546875e+02,6.338887405395507812e+01,-4.145865631103515625e+01
1.028360009193420410e+00,2.000000000000000000e+00,4.146030807495117188e+01,2.931027173995971680e+00,3.442545700073242188e+01,-1.199589996337890625e+02,9.136465454101562500e+01,-6.914788055419921875e+01,3.834278869628906250e+01,-1.336818790435791016e+01,-1.072953033447265625e+02,-1.256171112060546875e+02,6.337998199462890625e+01,-4.151556396484375000e+01
1.032956957817077637e+00,2.000000000000000000e+00,4.146030807495117188e+01,2.931027173995971680e+00,3.442545700073242188e+01,-1.199589996337890625e+02,9.136465454101562500e+01,-6.914788055419921875e+01,3.834278869628906250e+01,-1.336818790435791016e+01,-1.072953033447265625e+02,-1.256171112060546875e+02,6.337998199462890625e+01,-4.151556396484375000e+01
1.036100029945373535e+00,2.000000000000000000e+00,4.148884201049804688e+01,2.883594989776611328e+00,3.441994476318359375e+01,-1.200128326416015625e+02,9.136763763427734375e+01,-6.917263031005859375e+01,3.827126312255859375e+01,-1.335903358459472656e+01,-1.073101577758789062e+02,-1.256701660156250000e+02,6.337612533569335938e+01,-4.154467773437500000e+01
1.040251016616821289e+00,2.000000000000000000e+00,4.151752090454101562e+01,2.836230516433715820e+00,3.441441726684570312e+01,-1.200667648315429688e+02,9.137052154541015625e+01,-6.919725799560546875e+01,3.819869995117187500e+01,-1.334996986389160156e+01,-1.073251113891601562e+02,-1.257236633300781250e+02,6.337197113037109375e+01,-4.157236480712890625e+01
1.044420957565307617e+00,2.000000000000000000e+00,4.157496261596679688e+01,2.741433620452880859e+00,3.440360260009765625e+01,-1.201739578247070312e+02,9.137660217285156250e+01,-6.924851989746093750e+01,3.805428695678710938e+01,-1.333202457427978516e+01,-1.073548126220703125e+02,-1.258302307128906250e+02,6.336301040649414062e+01,-4.162861251831054688e+01
1.047960996627807617e+00,2.000000000000000000e+00,4.157496261596679688e+01,2.741433620452880859e+00,3.440360260009765625e+01,-1.201739578247070312e+02,9.137660217285156250e+01,-6.924851989746093750e+01,3.805428695678710938e+01,-1.333202457427978516e+01,-1.073548126220703125e+02,-1.258302307128906250e+02,6.336301040649414062e+01,-4.162861251831054688e+01
1.053138971328735352e+00,2.000000000000000000e+00,4.160366821289062500e+01,2.693956136703491211e+00,3.439806747436523438e+01,-1.202272567749023438e+02,9.137937164306640625e+01,-6.927394866943359375e+01,3.798331451416015625e+01,-1.332291603088378906e+01,-1.073697128295898438e+02,-1.258845138549804688e+02,6.335892486572265625e+01,-4.165926361083984375e+01
1.057057976722717285e+00,2.000000000000000000e+00,4.163220214843750000e+01,2.646614551544189453e+00,3.439243698120117188e+01,-1.202805175781250000e+02,9.138246154785156250e+01,-6.929891204833984375e+01,3.791162872314453125e+01,-1.331371498107910156e+01,-1.073845062255859375e+02,-1.259384460449218750e+02,6.335484695434570312e+01,-4.169002532958984375e+01
1.060281038284301758e+00,2.000000000000000000e+00,4.166062164306640625e+01,2.599091529846191406e+00,3.438686752319335938e+01,-1.203347244262695312e+02,9.138529205322265625e+01,-6.932359313964843750e+01,3.783873367309570312e+01,-1.330478858947753906e+01,-1.073995666503906250e+02,-1.259915695190429688e+02,6.335062026977539062e+01,-4.172232818603515625e+01
1.064061999320983887e+00,2.000000000000000000e+00,4.168921279907226562e+01,2.551681756973266602e+00,3.438141632080078125e+01,-1.203881378173828125e+02,9.138800811767578125e+01,-6.934807586669921875e+01,3.776589584350585938e+01,-1.329595375061035156e+01,-1.074144744873046875e+02,-1.260452804565429688e+02,6.334632492065429688e+01,-4.175429534912109375e+01
1.068192958831787109e+00,2.000000000000000000e+00,4.171794891357421875e+01,2.504317522048950195e+00,3.437615203857421875e+01,-1.204415893554687500e+02,9.139077758789062500e+01,-6.937290191650390625e+01,3.769366073608398438e+01,-1.328698158264160156e+01,-1.074292678833007812e+02,-1.260987091064453125e+02,6.334260940551757812e+01,-4.178725433349609375e+01
1.072124004364013672e+00,2.000000000000000000e+00,4.174657058715820312e+01,2.456817150115966797e+00,3.437074661254882812e+01,-1.204949493408203125e+02,9.139370727539062500e+01,-6.939812469482421875e+01,3.762246704101562500e+01,-1.327778053283691406e+01,-1.074444427490234375e+02,-1.261520690917968750e+02,6.333881759643554688e+01,-4.182054519653320312e+01
1.076100945472717285e+00,2.000000000000000000e+00,4.177513504028320312e+01,2.409226417541503906e+00,3.436529541015625000e+01,-1.205479507446289062e+02,9.139659118652343750e+01,-6.942369842529296875e+01,3.755067443847656250e+01,-1.326857948303222656e+01,-1.074595031738281250e+02,-1.262058486938476562e+02,6.333524703979492188e+01,-4.185196304321289062e+01
1.081024050712585449e+00,2.000000000000000000e+00,4.180349731445312500e+01,2.361658334732055664e+00,3.435970306396484375e+01,-1.206019363403320312e+02,9.139936828613281250e+01,-6.944919586181640625e+01,3.747794342041015625e+01,-1.325956058502197266e+01,-1.074746246337890625e+02,-1.262594070434570312e+02,6.333153152465820312e+01,-4.188371658325195312e+01
1.084282994270324707e+00,2.000000000000000000e+00,4.183197402954101562e+01,2.314044952392578125e+00,3.435419464111328125e+01,-1.206554946899414062e+02,9.140213775634765625e+01,-6.947435760498046875e+01,3.740493774414062500e+01,-1.325054359436035156e+01,-1.074894714355468750e+02,-1.263130493164062500e+02,6.332752609252929688e+01,-4.191568756103515625e+01
1.088389992713928223e+00,2.000000000000000000e+00,4.186062622070312500e+01,2.266612768173217773e+00,3.434886932373046875e+01,-1.207082824707031250e+02,9.140474700927734375e+01,-6.949917602539062500e+01,3.733281326293945312e+01,-1.324179935455322266e+01,-1.075042114257812500e+02,-1.263672561645507812e+02,6.332395553588867188e+01,-4.194754409790039062e+01
1.090942025184631348e+00,2.000000000000000000e+00,4.188924407958984375e+01,2.219248294830322266e+00,3.434343719482421875e+01,-1.207622833251953125e+02,9.140768432617187500e+01,-6.952304840087890625e+01,3.726162338256835938e+01,-1.323301124572753906e+01,-1.075191726684570312e+02,-1.264208297729492188e+02,6.332016372680664062e+01,-4.197951889038085938e+01
1.094925999641418457e+00,2.000000000000000000e+00,4.191766357421875000e+01,2.171702861785888672e+00,3.433790969848632812e+01,-1.208157348632812500e+02,9.141029357910156250e+01,-6.954799652099609375e+01,3.718960571289062500e+01,-1.322394752502441406e+01,-1.075340118408203125e+02,-1.264741058349609375e+02,6.331637954711914062e+01,-4.201324462890625000e+01
1.098994016647338867e+00,2.000000000000000000e+00,4.194628524780273438e+01,2.124383687973022461e+00,3.433239746093750000e+01,-1.208690490722656250e+02,9.141300964355468750e+01,-6.957302856445312500e+01,3.711682128906250000e+01,-1.321497535705566406e+01,-1.075490798950195312e+02,-1.265281753540039062e+02,6.331273269653320312e+01,-4.204609680175781250e+01
1.105381011962890625e+00,2.000000000000000000e+00,4.197461700439453125e+01,2.076906204223632812e+00,3.432703018188476562e+01,-1.209229812622070312e+02,9.141557312011718750e+01,-6.959845733642578125e+01,3.704392623901367188e+01,-1.320595741271972656e+01,-1.075641479492187500e+02,-1.265812454223632812e+02,6.330857849121093750e+01,-4.207740402221679688e+01
1.106943964958190918e+00,2.000000000000000000e+00,4.200318145751953125e+01,2.029247522354125977e+00,3.432174682617187500e+01,-1.209760818481445312e+02,9.141844940185546875e+01,-6.962409210205078125e+01,3.697229766845703125e+01,-1.319693946838378906e+01,-1.075788879394531250e+02,-1.266342391967773438e+02,6.330391693115234375e+01,-4.210937500000000000e+01
1.111034035682678223e+00,2.000000000000000000e+00,4.203177261352539062e+01,1.981950998306274414e+00,3.431647872924804688e+01,-1.210299682617187500e+02,9.142106628417968750e+01,-6.964958953857421875e+01,3.690132522583007812e+01,-1.318801307678222656e+01,-1.075940551757812500e+02,-1.266883010864257812e+02,6.330027389526367188e+01,-4.213991928100585938e+01
1.116405010223388672e+00,2.000000000000000000e+00,4.206059646606445312e+01,1.934563994407653809e+00,3.431105041503906250e+01,-1.210838470458984375e+02,9.142367553710937500e+01,-6.967454528808593750e+01,3.682941818237304688e+01,-1.317885780334472656e+01,-1.076087417602539062e+02,-1.267416610717773438e+02,6.329699707031250000e+01,-4.216968917846679688e+01
