rpiRobotics/ARM-21-02-F-19-Robot-Motion-Program/data_performance_abb/curve_2/robodk/curve_exe_v351.5625_z10.csv
timestamp, cmd_num, J1, J2, J3, J4, J5, J6
0, -1, 55.2623, 35.9486, 15.3834, -31.0276, 118.825, 69.9295
0.003, -1, 55.2623, 35.9486, 15.3834, -31.0276, 118.825, 69.9295
0.006, -1, 55.2623, 35.9486, 15.3834, -31.0276, 118.825, 69.9295
0.008, -1, 55.2623, 35.9486, 15.3834, -31.0276, 118.825, 69.9295
0.011, -1, 55.2623, 35.9486, 15.3834, -31.0276, 118.825, 69.9295
0.016, -1, 55.2623, 35.9486, 15.3834, -31.0276, 118.825, 69.9295
0.02, -1, 55.2623, 35.9486, 15.3834, -31.0276, 118.825, 69.9295
0.024, -1, 55.2623, 35.9486, 15.3834, -31.0276, 118.825, 69.9295
0.028, -1, 55.2623, 35.9486, 15.3834, -31.0276, 118.825, 69.9295
0.032, -1, 55.2623, 35.9486, 15.3834, -31.0276, 118.825, 69.9295
0.036, -1, 55.2622, 35.9485, 15.3834, -31.0276, 118.825, 69.9295
0.04, -1, 55.262, 35.9485, 15.3834, -31.0276, 118.825, 69.9295
0.044, -1, 55.2614, 35.9483, 15.3834, -31.0276, 118.825, 69.9295
0.048, -1, 55.2603, 35.948, 15.3833, -31.0276, 118.825, 69.9294
0.052, -1, 55.2587, 35.9474, 15.3832, -31.0275, 118.825, 69.9293
0.056, -1, 55.2563, 35.9465, 15.3831, -31.0273, 118.824, 69.9289
0.06, -1, 55.2532, 35.9453, 15.383, -31.0269, 118.824, 69.9281
0.064, -1, 55.2493, 35.9436, 15.3829, -31.0262, 118.823, 69.9269
0.068, -1, 55.2444, 35.9415, 15.3828, -31.0251, 118.823, 69.9249
0.072, -1, 55.2385, 35.9387, 15.383, -31.0234, 118.821, 69.9217
0.076, -1, 55.2314, 35.9351, 15.3833, -31.021, 118.819, 69.9172
0.08, -1, 55.2227, 35.9307, 15.3839, -31.0177, 118.816, 69.9109
0.084, -1, 55.2123, 35.9252, 15.385, -31.0131, 118.812, 69.9023
0.088, -1, 55.1999, 35.9185, 15.3865, -31.0071, 118.807, 69.8909
0.092, -1, 55.1853, 35.9105, 15.3888, -30.9993, 118.8, 69.8761
0.096, -1, 55.1684, 35.901, 15.3918, -30.9894, 118.791, 69.8574
0.1, -1, 55.149, 35.89, 15.3959, -30.9772, 118.781, 69.8342
0.104, -1, 55.1269, 35.8773, 15.401, -30.9623, 118.768, 69.8059
0.108, -1, 55.1018, 35.8627, 15.4074, -30.9444, 118.752, 69.772
0.112, -1, 55.0736, 35.8461, 15.4151, -30.9233, 118.733, 69.732
0.116, -1, 55.0419, 35.8273, 15.4244, -30.8988, 118.712, 69.6855
0.12, -1, 55.0067, 35.8063, 15.4351, -30.8706, 118.687, 69.6319
0.124, -1, 54.9677, 35.7828, 15.4475, -30.8386, 118.659, 69.5711
0.128, -1, 54.9248, 35.7569, 15.4616, -30.8026, 118.627, 69.5026
0.131, -1, 54.8778, 35.7284, 15.4775, -30.7625, 118.592, 69.4263
0.136, -1, 54.8266, 35.6973, 15.4951, -30.7182, 118.553, 69.3421
0.139, -1, 54.7712, 35.6634, 15.5145, -30.6696, 118.51, 69.2497
0.144, -1, 54.7114, 35.6269, 15.5357, -30.6167, 118.464, 69.1492
0.148, -1, 54.6475, 35.5877, 15.5587, -30.5596, 118.414, 69.0405
0.152, -1, 54.5794, 35.5458, 15.5835, -30.4982, 118.36, 68.9238
0.156, -1, 54.5075, 35.5015, 15.6102, -30.4327, 118.302, 68.7991
0.16, -1, 54.4318, 35.4548, 15.6385, -30.3631, 118.241, 68.6667
0.164, -1, 54.3525, 35.4058, 15.6686, -30.2896, 118.176, 68.527
0.168, -1, 54.2698, 35.3546, 15.7002, -30.2125, 118.108, 68.3802
0.172, -1, 54.1837, 35.3013, 15.7333, -30.1319, 118.037, 68.227
0.176, -1, 54.0944, 35.246, 15.7676, -30.0482, 117.963, 68.0677
0.18, -1, 54.0021, 35.1889, 15.8031, -29.9617, 117.887, 67.9031
0.184, -1, 53.907, 35.13, 15.8397, -29.8726, 117.809, 67.7335
0.188, -1, 53.8095, 35.0696, 15.8771, -29.7812, 117.728, 67.5598
0.192, -1, 53.7097, 35.0079, 15.9152, -29.688, 117.646, 67.3824
0.196, -1, 53.6079, 34.9449, 15.9539, -29.5931, 117.563, 67.202
0.2, -1, 53.5041, 34.8807, 15.9931, -29.497, 117.478, 67.019
0.204, -1, 53.3984, 34.8155, 16.0325, -29.3997, 117.393, 66.834
0.208, -1, 53.291, 34.7493, 16.0722, -29.3016, 117.306, 66.6474
0.212, -1, 53.1819, 34.6823, 16.112, -29.2029, 117.219, 66.4596
0.216, -1, 53.0714, 34.6146, 16.1519, -29.1036, 117.132, 66.2707
0.22, -1, 52.9598, 34.5464, 16.1919, -29.0038, 117.044, 66.0811
0.224, -1, 52.8473, 34.4777, 16.2319, -28.9037, 116.956, 65.8907
0.228, -1, 52.7341, 34.4087, 16.2721, -28.8033, 116.868, 65.6997
0.232, -1, 52.6203, 34.3393, 16.3123, -28.7026, 116.779, 65.5082
0.236, -1, 52.5061, 34.2698, 16.3526, -28.6017, 116.69, 65.3163
0.24, -1, 52.3915, 34.2, 16.393, -28.5005, 116.601, 65.1238
0.244, -1, 52.2765, 34.1301, 16.4335, -28.399, 116.512, 64.9309
0.248, -1, 52.1613, 34.06, 16.4741, -28.2974, 116.423, 64.7375
0.252, -1, 52.0457, 33.9896, 16.5148, -28.1955, 116.333, 64.5438
0.256, -1, 51.9299, 33.9192, 16.5555, -28.0933, 116.243, 64.3495
0.26, -1, 51.8138, 33.8486, 16.5963, -27.991, 116.153, 64.1549
0.264, -1, 51.6974, 33.7778, 16.6373, -27.8884, 116.063, 63.9598
0.268, -1, 51.5808, 33.7068, 16.6783, -27.7856, 115.972, 63.7643
0.272, -1, 51.4639, 33.6357, 16.7194, -27.6826, 115.882, 63.5684
0.276, -1, 51.3468, 33.5644, 16.7606, -27.5793, 115.791, 63.372
0.28, -1, 51.2293, 33.493, 16.8019, -27.4758, 115.7, 63.1752
0.284, -1, 51.1117, 33.4214, 16.8433, -27.3721, 115.609, 62.978
0.288, -1, 50.9937, 33.3497, 16.8847, -27.2682, 115.517, 62.7803
0.292, -1, 50.8755, 33.2778, 16.9263, -27.164, 115.425, 62.5822
0.296, -1, 50.7571, 33.2057, 16.9679, -27.0596, 115.334, 62.3836
0.3, -1, 50.6383, 33.1335, 17.0097, -26.9549, 115.241, 62.1846
0.304, -1, 50.5193, 33.0611, 17.0515, -26.85, 115.149, 61.9851
0.308, -1, 50.4, 32.9885, 17.0935, -26.7449, 115.057, 61.7852
0.312, -1, 50.2805, 32.9158, 17.1355, -26.6396, 114.964, 61.5848
0.316, -1, 50.1607, 32.8429, 17.1777, -26.534, 114.871, 61.384
0.32, -1, 50.0406, 32.7699, 17.2199, -26.4281, 114.778, 61.1827
0.324, -1, 49.9202, 32.6966, 17.2622, -26.322, 114.685, 60.981
0.328, -1, 49.7996, 32.6233, 17.3046, -26.2157, 114.591, 60.7788
0.332, -1, 49.6786, 32.5497, 17.3472, -26.1091, 114.497, 60.5761
0.336, -1, 49.5574, 32.4759, 17.3898, -26.0023, 114.403, 60.3729
0.34, -1, 49.4359, 32.402, 17.4325, -25.8952, 114.309, 60.1693
0.344, -1, 49.3142, 32.328, 17.4753, -25.7878, 114.215, 59.9651
0.348, -1, 49.1921, 32.2537, 17.5182, -25.6803, 114.12, 59.7605
0.352, -1, 49.0697, 32.1793, 17.5613, -25.5724, 114.025, 59.5555
0.356, -1, 48.9471, 32.1046, 17.6044, -25.4643, 113.93, 59.3499
0.36, -1, 48.8241, 32.0299, 17.6476, -25.356, 113.835, 59.1438
0.364, -1, 48.7009, 31.9549, 17.691, -25.2474, 113.739, 58.9373
0.368, -1, 48.5774, 31.8797, 17.7344, -25.1385, 113.643, 58.7302
0.372, -1, 48.4535, 31.8044, 17.7779, -25.0293, 113.547, 58.5227
0.376, -1, 48.3294, 31.7289, 17.8216, -24.9199, 113.451, 58.3146
0.38, -1, 48.205, 31.6532, 17.8653, -24.8103, 113.355, 58.106
0.384, -1, 48.0802, 31.5773, 17.9092, -24.7003, 113.258, 57.897
0.388, -1, 47.9552, 31.5012, 17.9532, -24.5901, 113.161, 57.6874
0.392, -1, 47.8299, 31.425, 17.9972, -24.4796, 113.064, 57.4773
0.396, -1, 47.7042, 31.3485, 18.0414, -24.3689, 112.966, 57.2667
0.4, -1, 47.5782, 31.2719, 18.0857, -24.2579, 112.869, 57.0555
0.404, -1, 47.4519, 31.195, 18.1301, -24.1466, 112.771, 56.8439
0.408, -1, 47.3253, 31.118, 18.1747, -24.035, 112.672, 56.6317
0.412, -1, 47.1984, 31.0408, 18.2193, -23.9231, 112.574, 56.4189
0.416, -1, 47.0712, 30.9634, 18.264, -23.811, 112.475, 56.2057
0.42, -1, 46.9436, 30.8858, 18.3089, -23.6985, 112.376, 55.9919
0.424, -1, 46.8157, 30.808, 18.3539, -23.5858, 112.277, 55.7775
0.428, -1, 46.6875, 30.73, 18.3989, -23.4728, 112.178, 55.5626
0.432, -1, 46.559, 30.6518, 18.4441, -23.3595, 112.078, 55.3472
0.436, -1, 46.4301, 30.5734, 18.4895, -23.246, 111.978, 55.1312
0.44, -1, 46.3009, 30.4948, 18.5349, -23.1321, 111.878, 54.9146
0.444, -1, 46.1714, 30.4159, 18.5804, -23.0179, 111.778, 54.6975
0.448, -1, 46.0415, 30.3369, 18.6261, -22.9034, 111.677, 54.4798
0.452, -1, 45.9113, 30.2577, 18.6719, -22.7887, 111.576, 54.2616
0.456, -1, 45.7807, 30.1783, 18.7178, -22.6736, 111.475, 54.0427
0.46, -1, 45.6498, 30.0986, 18.7638, -22.5582, 111.373, 53.8233
0.464, -1, 45.5186, 30.0188, 18.81, -22.4426, 111.271, 53.6033
0.468, -1, 45.387, 29.9387, 18.8563, -22.3266, 111.169, 53.3828
0.472, -1, 45.255, 29.8584, 18.9027, -22.2103, 111.067, 53.1616
0.476, -1, 45.1227, 29.7779, 18.9492, -22.0937, 110.964, 52.9398
0.48, -1, 44.9901, 29.6972, 18.9958, -21.9767, 110.861, 52.7175
0.484, -1, 44.857, 29.6163, 19.0426, -21.8595, 110.758, 52.4945
0.488, -1, 44.7237, 29.5351, 19.0895, -21.742, 110.655, 52.271
0.492, -1, 44.5899, 29.4538, 19.1365, -21.6241, 110.551, 52.0468
0.496, -1, 44.4558, 29.3722, 19.1837, -21.5059, 110.447, 51.822
0.5, -1, 44.3213, 29.2903, 19.231, -21.3874, 110.343, 51.5966
0.504, -1, 44.1865, 29.2083, 19.2784, -21.2685, 110.238, 51.3706
0.508, -1, 44.0513, 29.126, 19.326, -21.1493, 110.133, 51.144
0.512, -1, 43.9157, 29.0435, 19.3736, -21.0298, 110.028, 50.9167
0.516, -1, 43.7797, 28.9608, 19.4215, -20.91, 109.923, 50.6887
0.52, -1, 43.6433, 28.8778, 19.4694, -20.7898, 109.817, 50.4602
0.524, -1, 43.5066, 28.7946, 19.5175, -20.6692, 109.711, 50.231
0.528, -1, 43.3694, 28.7111, 19.5657, -20.5484, 109.605, 50.0011
0.532, -1, 43.2319, 28.6275, 19.6141, -20.4272, 109.498, 49.7706
0.536, -1, 43.094, 28.5436, 19.6626, -20.3056, 109.391, 49.5395
0.54, -1, 42.9557, 28.4594, 19.7112, -20.1837, 109.284, 49.3076
0.544, -1, 42.817, 28.375, 19.76, -20.0615, 109.176, 49.0752
0.548, -1, 42.6779, 28.2904, 19.8089, -19.9389, 109.068, 48.842
0.552, -1, 42.5384, 28.2055, 19.858, -19.8159, 108.96, 48.6082
0.556, -1, 42.3985, 28.1203, 19.9072, -19.6926, 108.852, 48.3736
0.56, -1, 42.2582, 28.0349, 19.9565, -19.5689, 108.743, 48.1384
0.564, -1, 42.1174, 27.9493, 20.006, -19.4449, 108.634, 47.9026
0.568, -1, 41.9763, 27.8634, 20.0557, -19.3205, 108.524, 47.666
0.572, -1, 41.8347, 27.7773, 20.1054, -19.1957, 108.415, 47.4287
0.576, -1, 41.6927, 27.6909, 20.1554, -19.0705, 108.305, 47.1907
0.58, -1, 41.5503, 27.6042, 20.2054, -18.945, 108.194, 46.952
0.584, -1, 41.4075, 27.5173, 20.2557, -18.8191, 108.083, 46.7126
0.588, -1, 41.2643, 27.4301, 20.3061, -18.6929, 107.972, 46.4725
0.592, -1, 41.1206, 27.3427, 20.3566, -18.5662, 107.861, 46.2317
0.596, -1, 40.9764, 27.255, 20.4073, -18.4392, 107.749, 45.9901
0.6, -1, 40.8319, 27.167, 20.4581, -18.3118, 107.637, 45.7478
0.604, -1, 40.6869, 27.0788, 20.5091, -18.184, 107.524, 45.5047
0.608, -1, 40.5415, 26.9903, 20.5602, -18.0558, 107.412, 45.261
0.612, -1, 40.3956, 26.9015, 20.6116, -17.9272, 107.299, 45.0164
0.616, -1, 40.2492, 26.8125, 20.663, -17.7982, 107.185, 44.7711
0.62, -1, 40.1024, 26.7231, 20.7146, -17.6688, 107.071, 44.5251
0.624, -1, 39.9552, 26.6335, 20.7664, -17.5391, 106.957, 44.2783
0.628, -1, 39.8075, 26.5436, 20.8184, -17.4089, 106.843, 44.0307
0.632, -1, 39.6593, 26.4535, 20.8705, -17.2783, 106.728, 43.7823
0.636, -1, 39.5107, 26.363, 20.9228, -17.1473, 106.612, 43.5332
0.64, -1, 39.3616, 26.2723, 20.9752, -17.0159, 106.497, 43.2833
0.644, -1, 39.212, 26.1813, 21.0278, -16.884, 106.381, 43.0325
0.648, -1, 39.0619, 26.0899, 21.0806, -16.7518, 106.264, 42.781
0.652, -1, 38.9114, 25.9983, 21.1335, -16.6191, 106.148, 42.5287
0.656, -1, 38.7604, 25.9064, 21.1866, -16.486, 106.031, 42.2756
0.66, -1, 38.6089, 25.8142, 21.2399, -16.3524, 105.913, 42.0216
0.664, -1, 38.4569, 25.7217, 21.2934, -16.2185, 105.795, 41.7668
0.668, -1, 38.3044, 25.6289, 21.347, -16.0841, 105.677, 41.5112
0.672, -1, 38.1514, 25.5358, 21.4008, -15.9492, 105.558, 41.2548
0.676, -1, 37.998, 25.4424, 21.4548, -15.8139, 105.439, 40.9975
0.68, -1, 37.844, 25.3487, 21.5089, -15.6782, 105.32, 40.7394
0.684, -1, 37.6895, 25.2547, 21.5633, -15.542, 105.2, 40.4805
0.688, -1, 37.5345, 25.1604, 21.6178, -15.4054, 105.08, 40.2206
0.692, -1, 37.379, 25.0657, 21.6725, -15.2683, 104.959, 39.96
0.696, -1, 37.223, 24.9708, 21.7274, -15.1308, 104.838, 39.6984
0.7, -1, 37.0665, 24.8755, 21.7824, -14.9928, 104.717, 39.436
0.704, -1, 36.9094, 24.7799, 21.8377, -14.8544, 104.595, 39.1727
0.708, -1, 36.7518, 24.684, 21.8931, -14.7154, 104.473, 38.9085
0.712, -1, 36.5937, 24.5878, 21.9487, -14.5761, 104.35, 38.6435
0.716, -1, 36.4351, 24.4912, 22.0045, -14.4362, 104.227, 38.3775
0.72, -1, 36.2759, 24.3943, 22.0605, -14.2959, 104.104, 38.1107
0.724, -1, 36.1162, 24.2971, 22.1167, -14.1551, 103.98, 37.8429
0.728, -1, 35.956, 24.1996, 22.1731, -14.0138, 103.855, 37.5743
0.732, -1, 35.7952, 24.1017, 22.2296, -13.8721, 103.731, 37.3047
0.736, -1, 35.6338, 24.0035, 22.2864, -13.7299, 103.606, 37.0342
0.74, -1, 35.4719, 23.905, 22.3433, -13.5872, 103.48, 36.7628
0.744, -1, 35.3095, 23.8061, 22.4005, -13.444, 103.354, 36.4905
0.748, -1, 35.1465, 23.7069, 22.4578, -13.3003, 103.228, 36.2173
0.752, -1, 34.983, 23.6074, 22.5153, -13.1561, 103.101, 35.9431
0.756, -1, 34.8189, 23.5075, 22.5731, -13.0114, 102.973, 35.6679
0.76, -1, 34.6542, 23.4073, 22.631, -12.8662, 102.846, 35.3919
0.764, -1, 34.489, 23.3067, 22.6891, -12.7206, 102.718, 35.1148
0.768, -1, 34.3232, 23.2058, 22.7474, -12.5744, 102.589, 34.8369
0.772, -1, 34.1568, 23.1045, 22.806, -12.4277, 102.46, 34.5579
0.776, -1, 33.9899, 23.0029, 22.8647, -12.2805, 102.33, 34.278
0.78, -1, 33.8223, 22.9009, 22.9237, -12.1328, 102.2, 33.9971
0.784, -1, 33.6542, 22.7986, 22.9828, -11.9846, 102.07, 33.7153
0.788, -1, 33.4856, 22.6959, 23.0421, -11.8359, 101.939, 33.4324
0.792, -1, 33.3163, 22.5929, 23.1017, -11.6867, 101.808, 33.1486
0.796, -1, 33.1464, 22.4895, 23.1615, -11.5369, 101.676, 32.8638
0.8, -1, 32.976, 22.3857, 23.2214, -11.3866, 101.544, 32.578
0.804, -1, 32.8049, 22.2816, 23.2816, -11.2358, 101.411, 32.2912
0.808, -1, 32.6333, 22.1771, 23.342, -11.0844, 101.278, 32.0034
0.812, -1, 32.461, 22.0723, 23.4026, -10.9326, 101.144, 31.7146
0.816, -1, 32.2882, 21.967, 23.4634, -10.7802, 101.01, 31.4247
0.82, -1, 32.1147, 21.8615, 23.5245, -10.6272, 100.876, 31.1339
0.824, -1, 31.9407, 21.7555, 23.5857, -10.4737, 100.741, 30.842
0.828, -1, 31.766, 21.6492, 23.6472, -10.3197, 100.605, 30.5491
0.832, -1, 31.5907, 21.5425, 23.7089, -10.1652, 100.469, 30.2552
0.836, -1, 31.4149, 21.4354, 23.7708, -10.0101, 100.333, 29.9602
0.84, -1, 31.2384, 21.328, 23.8329, -9.85443, 100.196, 29.6642
0.844, -1, 31.0613, 21.2202, 23.8952, -9.69824, 100.058, 29.3672
0.848, -1, 30.8836, 21.112, 23.9577, -9.54151, 99.9206, 29.0692
0.852, -1, 30.7053, 21.0034, 24.0205, -9.38424, 99.7822, 28.7701
0.856, -1, 30.5264, 20.8945, 24.0835, -9.22642, 99.6433, 28.47
0.86, -1, 30.3469, 20.7852, 24.1467, -9.06806, 99.504, 28.1688
0.864, -1, 30.1667, 20.6755, 24.2101, -8.90916, 99.3642, 27.8666
0.868, -1, 29.986, 20.5655, 24.2737, -8.74972, 99.2239, 27.5634
0.872, -1, 29.8046, 20.455, 24.3376, -8.58973, 99.0831, 27.2591
0.876, -1, 29.6227, 20.3442, 24.4016, -8.4292, 98.9419, 26.9539
0.88, -1, 29.4401, 20.2331, 24.4659, -8.26813, 98.8002, 26.6475
0.884, -1, 29.2569, 20.1215, 24.5304, -8.10652, 98.658, 26.3402
0.888, -1, 29.0732, 20.0096, 24.5951, -7.94437, 98.5153, 26.0319
0.892, -1, 28.8888, 19.8973, 24.6601, -7.78168, 98.3722, 25.7225
0.896, -1, 28.7039, 19.7847, 24.7252, -7.61846, 98.2286, 25.4121
0.9, -1, 28.5183, 19.6717, 24.7906, -7.45471, 98.0845, 25.1007
0.904, -1, 28.3322, 19.5583, 24.8561, -7.29042, 97.94, 24.7882
0.908, -1, 28.1454, 19.4446, 24.9219, -7.1256, 97.795, 24.4748
0.912, -1, 27.9581, 19.3305, 24.9879, -6.96025, 97.6495, 24.1603
0.916, -1, 27.7702, 19.216, 25.0541, -6.79438, 97.5035, 23.8449
0.92, -1, 27.5817, 19.1012, 25.1205, -6.62799, 97.3571, 23.5285
0.924, -1, 27.3926, 18.986, 25.1871, -6.46107, 97.2103, 23.211
0.928, -1, 27.203, 18.8704, 25.2539, -6.29363, 97.063, 22.8926
0.932, -1, 27.0127, 18.7545, 25.3209, -6.12568, 96.9152, 22.5732
0.936, -1, 26.8219, 18.6383, 25.3882, -5.95722, 96.767, 22.2529
0.94, -1, 26.6305, 18.5217, 25.4556, -5.78825, 96.6183, 21.9315
0.944, -1, 26.4386, 18.4047, 25.5233, -5.61877, 96.4692, 21.6092
0.948, -1, 26.2461, 18.2875, 25.5911, -5.44879, 96.3196, 21.286
0.952, -1, 26.0531, 18.1698, 25.6591, -5.27831, 96.1696, 20.9618
0.956, -1, 25.8595, 18.0519, 25.7274, -5.10735, 96.0192, 20.6366
0.96, -1, 25.6653, 17.9336, 25.7958, -4.93589, 95.8684, 20.3106
0.964, -1, 25.4707, 17.815, 25.8644, -4.76396, 95.7171, 19.9836
0.968, -1, 25.2755, 17.6961, 25.9332, -4.59155, 95.5654, 19.6557
0.972, -1, 25.0799, 17.5768, 26.0022, -4.41868, 95.4133, 19.327
0.976, -1, 24.8837, 17.4573, 26.0714, -4.24535, 95.2608, 18.9974
0.98, -1, 24.687, 17.3374, 26.1407, -4.07156, 95.1079, 18.6669
0.984, -1, 24.4898, 17.2172, 26.2103, -3.89733, 94.9546, 18.3355
0.988, -1, 24.2921, 17.0968, 26.28, -3.72267, 94.8009, 18.0034
0.992, -1, 24.094, 16.976, 26.3498, -3.54758, 94.6469, 17.6704
0.996, -1, 23.8953, 16.855, 26.4199, -3.37208, 94.4924, 17.3367
1, -1, 23.6962, 16.7337, 26.4901, -3.19618, 94.3377, 17.0021
1.004, -1, 23.4966, 16.6121, 26.5604, -3.01988, 94.1826, 16.6669
1.008, -1, 23.2966, 16.4903, 26.631, -2.84319, 94.0271, 16.3309
1.012, -1, 23.0961, 16.3682, 26.7016, -2.66614, 93.8713, 15.9941
1.016, -1, 22.8953, 16.2458, 26.7724, -2.48872, 93.7152, 15.6568
1.02, -1, 22.694, 16.1233, 26.8434, -2.31096, 93.5588, 15.3187
1.024, -1, 22.4923, 16.0005, 26.9144, -2.13286, 93.4021, 14.98
1.027, -1, 22.2903, 15.8774, 26.9856, -1.95444, 93.2451, 14.6407
1.032, -1, 22.0879, 15.7542, 27.057, -1.77571, 93.0879, 14.3008
1.036, -1, 21.8851, 15.6308, 27.1284, -1.59668, 92.9304, 13.9603
1.04, -1, 21.6821, 15.5072, 27.2, -1.41736, 92.7726, 13.6193
1.044, -1, 21.4787, 15.3834, 27.2716, -1.23778, 92.6146, 13.2778
1.048, -1, 21.275, 15.2594, 27.3434, -1.05794, 92.4563, 12.9358
1.052, -1, 21.0711, 15.1352, 27.4153, -0.877864, 92.2979, 12.5934
1.055, -1, 20.8668, 15.0109, 27.4872, -0.697559, 92.1393, 12.2505
1.06, -1, 20.6623, 14.8865, 27.5592, -0.517041, 91.9804, 11.9072
1.064, -1, 20.4576, 14.7619, 27.6314, -0.336325, 91.8214, 11.5635
1.068, -1, 20.2527, 14.6372, 27.7035, -0.155424, 91.6623, 11.2195
1.072, -1, 20.0476, 14.5124, 27.7758, 0.0256462, 91.5029, 10.8751
1.076, -1, 19.8423, 14.3875, 27.8481, 0.206871, 91.3435, 10.5305
1.08, -1, 19.6369, 14.2625, 27.9205, 0.388236, 91.1839, 10.1856
1.084, -1, 19.4313, 14.1374, 27.9929, 0.569726, 91.0242, 9.84045
1.088, -1, 19.2256, 14.0122, 28.0653, 0.751324, 90.8644, 9.4951
1.091, -1, 19.0197, 13.887, 28.1378, 0.933014, 90.7046, 9.14957
1.096, -1, 18.8138, 13.7617, 28.2103, 1.11478, 90.5446, 8.8039
1.1, -1, 18.6079, 13.6364, 28.2829, 1.29661, 90.3847, 8.45812
1.104, -1, 18.4018, 13.5111, 28.3555, 1.47848, 90.2246, 8.11225
1.108, -1, 18.1958, 13.3857, 28.428, 1.66038, 90.0646, 7.76633
1.112, -1, 17.9897, 13.2604, 28.5006, 1.84228, 89.9045, 7.4204
1.116, -1, 17.7837, 13.135, 28.5732, 2.02418, 89.7445, 7.07449
1.119, -1, 17.5776, 13.0097, 28.6457, 2.20604, 89.5845, 6.72863
1.124, -1, 17.3717, 12.8844, 28.7183, 2.38786, 89.4245, 6.38286
1.128, -1, 17.1657, 12.7592, 28.7908, 2.56962, 89.2646, 6.03721
1.132, -1, 16.9599, 12.634, 28.8632, 2.75129, 89.1047, 5.69172
1.136, -1, 16.7542, 12.5089, 28.9357, 2.93287, 88.945, 5.34641
1.14, -1, 16.5485, 12.3838, 29.0081, 3.11433, 88.7853, 5.00132
1.144, -1, 16.3431, 12.2589, 29.0804, 3.29566, 88.6258, 4.65649
1.147, -1, 16.1378, 12.134, 29.1527, 3.47683, 88.4664, 4.31194
1.152, -1, 15.9327, 12.0093, 29.2249, 3.65784, 88.3071, 3.96771
1.156, -1, 15.7277, 11.8847, 29.297, 3.83867, 88.148, 3.62382
1.16, -1, 15.523, 11.7602, 29.3691, 4.0193, 87.9891, 3.28032
1.164, -1, 15.3186, 11.6359, 29.441, 4.19971, 87.8303, 2.93723
1.168, -1, 15.1144, 11.5117, 29.5129, 4.37988, 87.6718, 2.59459
1.172, -1, 14.9105, 11.3877, 29.5847, 4.55981, 87.5135, 2.25242
1.175, -1, 14.7068, 11.2639, 29.6563, 4.73947, 87.3554, 1.91076
1.18, -1, 14.5035, 11.1403, 29.7279, 4.91885, 87.1976, 1.56963
1.184, -1, 14.3005, 11.0169, 29.7993, 5.09793, 87.04, 1.22906
1.188, -1, 14.0979, 10.8937, 29.8706, 5.2767, 86.8827, 0.889092
1.192, -1, 13.8956, 10.7707, 29.9418, 5.45514, 86.7257, 0.54974
1.196, -1, 13.6936, 10.6479, 30.0128, 5.63325, 86.569, 0.211034
1.2, -1, 13.4921, 10.5254, 30.0837, 5.811, 86.4126, -0.126999
1.204, -1, 13.291, 10.4032, 30.1544, 5.98838, 86.2565, -0.464336
1.208, -1, 13.0903, 10.2812, 30.225, 6.16539, 86.1008, -0.80095
1.212, -1, 12.89, 10.1595, 30.2954, 6.342, 85.9454, -1.13682
1.216, -1, 12.6902, 10.038, 30.3657, 6.51821, 85.7904, -1.47192
1.22, -1, 12.4909, 9.91685, 30.4358, 6.694, 85.6357, -1.80623
1.224, -1, 12.292, 9.79597, 30.5057, 6.86936, 85.4814, -2.13973
1.228, -1, 12.0936, 9.6754, 30.5755, 7.04429, 85.3275, -2.47239
1.232, -1, 11.8957, 9.55512, 30.6451, 7.21877, 85.174, -2.80421
1.236, -1, 11.6984, 9.43517, 30.7144, 7.39279, 85.0208, -3.13515
1.24, -1, 11.5015, 9.31553, 30.7836, 7.56635, 84.8681, -3.46521
1.244, -1, 11.3052, 9.19621, 30.8527, 7.73942, 84.7159, -3.79435
1.248, -1, 11.1095, 9.07723, 30.9215, 7.91201, 84.564, -4.12257
1.252, -1, 10.9143, 8.95859, 30.9901, 8.08411, 84.4126, -4.44985
1.256, -1, 10.7196, 8.84029, 31.0585, 8.2557, 84.2616, -4.77617
1.26, -1, 10.5255, 8.72233, 31.1267, 8.42678, 84.1111, -5.10152
1.264, -1, 10.332, 8.60474, 31.1947, 8.59734, 83.961, -5.42589
1.267, -1, 10.1391, 8.4875, 31.2625, 8.76738, 83.8114, -5.74926
1.272, -1, 9.94682, 8.37062, 31.3301, 8.93689, 83.6622, -6.07161
1.276, -1, 9.75512, 8.25411, 31.3975, 9.10586, 83.5136, -6.39295
1.28, -1, 9.56403, 8.13798, 31.4646, 9.27429, 83.3654, -6.71326
1.284, -1, 9.37355, 8.02222, 31.5316, 9.44217, 83.2177, -7.03252
1.288, -1, 9.1837, 7.90684, 31.5983, 9.60949, 83.0704, -7.35073
1.292, -1, 8.99448, 7.79184, 31.6648, 9.77626, 82.9237, -7.66787
1.295, -1, 8.8059, 7.67723, 31.731, 9.94246, 82.7775, -7.98395
1.3, -1, 8.61795, 7.56301, 31.7971, 10.1081, 82.6317, -8.29894
1.304, -1, 8.43066, 7.44919, 31.8629, 10.2732, 82.4865, -8.61285
1.308, -1, 8.24401, 7.33576, 31.9285, 10.4376, 82.3418, -8.92565
1.312, -1, 8.05801, 7.22273, 31.9938, 10.6015, 82.1976, -9.23736
1.316, -1, 7.87266, 7.1101, 32.0589, 10.7649, 82.0539, -9.54796
1.32, -1, 7.68799, 6.99787, 32.1238, 10.9276, 81.9107, -9.85744
1.324, -1, 7.50397, 6.88605, 32.1884, 11.0898, 81.768, -10.1658
1.328, -1, 7.32063, 6.77463, 32.2528, 11.2513, 81.6259, -10.473
1.332, -1, 7.13797, 6.66361, 32.317, 11.4123, 81.4842, -10.7791
1.336, -1, 6.95597, 6.55301, 32.3809, 11.5726, 81.3431, -11.0841
1.34, -1, 6.77465, 6.44281, 32.4446, 11.7324, 81.2026, -11.3879
1.344, -1, 6.59401, 6.33303, 32.5081, 11.8915, 81.0625, -11.6906
1.348, -1, 6.41405, 6.22366, 32.5713, 12.0501, 80.923, -11.9921
1.352, -1, 6.23476, 6.1147, 32.6343, 12.2081, 80.784, -12.2925
1.356, -1, 6.05615, 6.00615, 32.697, 12.3654, 80.6456, -12.5918
1.36, -1, 5.87823, 5.89802, 32.7595, 12.5222, 80.5077, -12.8899
1.364, -1, 5.70098, 5.7903, 32.8217, 12.6783, 80.3703, -13.1868
1.368, -1, 5.52441, 5.683, 32.8838, 12.8339, 80.2334, -13.4826
1.372, -1, 5.34852, 5.5761, 32.9455, 12.9888, 80.0971, -13.7773
1.376, -1, 5.17331, 5.46962, 33.0071, 13.1431, 79.9613, -14.0708
1.38, -1, 4.99878, 5.36355, 33.0683, 13.2969, 79.826, -14.3632
1.384, -1, 4.82493, 5.25789, 33.1294, 13.45, 79.6913, -14.6545
1.388, -1, 4.65174, 5.15264, 33.1902, 13.6026, 79.5571, -14.9446
1.392, -1, 4.47923, 5.0478, 33.2508, 13.7545, 79.4234, -15.2336
1.396, -1, 4.3074, 4.94336, 33.3111, 13.9059, 79.2902, -15.5214
1.4, -1, 4.13623, 4.83933, 33.3713, 14.0567, 79.1575, -15.8081
1.404, -1, 3.96572, 4.73571, 33.4311, 14.2069, 79.0254, -16.0938
1.408, -1, 3.79588, 4.63248, 33.4908, 14.3565, 78.8937, -16.3783
1.412, -1, 3.62671, 4.52966, 33.5502, 14.5055, 78.7626, -16.6617
1.416, -1, 3.45819, 4.42724, 33.6093, 14.6539, 78.632, -16.9439
1.42, -1, 3.29033, 4.32522, 33.6683, 14.8018, 78.5019, -17.2251
1.424, -1, 3.12312, 4.2236, 33.727, 14.9491, 78.3723, -17.5052
1.428, -1, 2.95656, 4.12237, 33.7855, 15.0958, 78.2433, -17.7842
1.432, -1, 2.79065, 4.02153, 33.8438, 15.2419, 78.1147, -18.0622
1.436, -1, 2.62538, 3.92109, 33.9018, 15.3875, 77.9866, -18.339
1.44, -1, 2.46076, 3.82103, 33.9596, 15.5325, 77.859, -18.6147
1.444, -1, 2.29677, 3.72136, 34.0172, 15.6769, 77.7319, -18.8894
1.448, -1, 2.13343, 3.62208, 34.0746, 15.8208, 77.6053, -19.1631
1.452, -1, 1.97071, 3.52319, 34.1317, 15.9641, 77.4792, -19.4356
1.456, -1, 1.80863, 3.42467, 34.1886, 16.1069, 77.3536, -19.7071
1.46, -1, 1.64717, 3.32654, 34.2453, 16.2491, 77.2285, -19.9776
1.464, -1, 1.48633, 3.22878, 34.3018, 16.3908, 77.1038, -20.247
1.468, -1, 1.32612, 3.1314, 34.3581, 16.5319, 76.9797, -20.5154
1.472, -1, 1.16652, 3.0344, 34.4141, 16.6725, 76.856, -20.7827
1.476, -1, 1.00753, 2.93778, 34.4699, 16.8125, 76.7328, -21.049
1.48, -1, 0.84916, 2.84152, 34.5255, 16.952, 76.61, -21.3143
1.484, -1, 0.691396, 2.74563, 34.5809, 17.091, 76.4878, -21.5786
1.488, -1, 0.534239, 2.6501, 34.6361, 17.2294, 76.366, -21.8418
1.492, -1, 0.377684, 2.55494, 34.6911, 17.3673, 76.2446, -22.1041
1.496, -1, 0.221726, 2.46014, 34.7459, 17.5047, 76.1238, -22.3653
1.5, -1, 0.066361, 2.3657, 34.8004, 17.6415, 76.0034, -22.6256
1.504, -1, -0.0884156, 2.27162, 34.8548, 17.7778, 75.8834, -22.8848
1.508, -1, -0.242607, 2.17789, 34.9089, 17.9137, 75.7639, -23.1431
1.512, -1, -0.396218, 2.08452, 34.9629, 18.049, 75.6449, -23.4004
1.516, -1, -0.549251, 1.9915, 35.0166, 18.1837, 75.5263, -23.6568
1.52, -1, -0.701711, 1.89883, 35.0702, 18.318, 75.4081, -23.9121
1.524, -1, -0.853601, 1.8065, 35.1235, 18.4518, 75.2904, -24.1665
1.528, -1, -1.00492, 1.71452, 35.1766, 18.5851, 75.1732, -24.42
1.532, -1, -1.15568, 1.62288, 35.2296, 18.7179, 75.0563, -24.6725
1.536, -1, -1.30589, 1.53158, 35.2823, 18.8502, 74.9399, -24.9241
1.54, -1, -1.45554, 1.44062, 35.3349, 18.982, 74.824, -25.1748
1.544, -1, -1.60463, 1.34999, 35.3872, 19.1133, 74.7084, -25.4245
1.548, -1, -1.75319, 1.25969, 35.4394, 19.2441, 74.5933, -25.6733
1.552, -1, -1.9012, 1.16972, 35.4914, 19.3745, 74.4786, -25.9213
1.556, -1, -2.04867, 1.08007, 35.5432, 19.5044, 74.3643, -26.1683
1.56, -1, -2.19561, 0.99075, 35.5948, 19.6338, 74.2504, -26.4144
1.564, -1, -2.34203, 0.901751, 35.6462, 19.7628, 74.137, -26.6596
1.568, -1, -2.48791, 0.81307, 35.6974, 19.8913, 74.0239, -26.904
1.572, -1, -2.63328, 0.724706, 35.7485, 20.0193, 73.9113, -27.1475
1.576, -1, -2.77813, 0.636656, 35.7993, 20.1469, 73.799, -27.3901
1.58, -1, -2.92246, 0.548918, 35.85, 20.274, 73.6871, -27.6319
1.584, -1, -3.06629, 0.461488, 35.9005, 20.4007, 73.5757, -27.8728
1.588, -1, -3.20961, 0.374366, 35.9509, 20.5269, 73.4646, -28.1129
1.592, -1, -3.35243, 0.287547, 36.001, 20.6527, 73.3539, -28.3521
1.596, -1, -3.49475, 0.201031, 36.051, 20.7781, 73.2436, -28.5905
1.6, -1, -3.63658, 0.114815, 36.1008, 20.903, 73.1337, -28.8281
1.604, -1, -3.77792, 0.0288963, 36.1505, 21.0275, 73.0242, -29.0648
1.608, -1, -3.91877, -0.0567271, 36.1999, 21.1516, 72.915, -29.3008
1.612, -1, -4.05914, -0.142057, 36.2492, 21.2752, 72.8062, -29.5359
1.616, -1, -4.19903, -0.227097, 36.2984, 21.3984, 72.6978, -29.7702
1.62, -1, -4.33845, -0.311847, 36.3473, 21.5212, 72.5898, -30.0038
1.624, -1, -4.47739, -0.396312, 36.3961, 21.6436, 72.4821, -30.2365
1.628, -1, -4.61586, -0.480491, 36.4448, 21.7656, 72.3748, -30.4685
1.632, -1, -4.75387, -0.564389, 36.4932, 21.8871, 72.2678, -30.6997
1.636, -1, -4.89142, -0.648006, 36.5416, 22.0083, 72.1612, -30.9301
1.64, -1, -5.02851, -0.731345, 36.5897, 22.129, 72.055, -31.1597
1.644, -1, -5.16514, -0.814407, 36.6377, 22.2494, 71.9491, -31.3886
1.648, -1, -5.30132, -0.897196, 36.6855, 22.3694, 71.8435, -31.6167
1.652, -1, -5.43706, -0.979711, 36.7332, 22.4889, 71.7383, -31.8441
1.656, -1, -5.57235, -1.06196, 36.7807, 22.6081, 71.6335, -32.0707
1.66, -1, -5.70719, -1.14393, 36.8281, 22.7269, 71.529, -32.2966
1.664, -1, -5.8416, -1.22564, 36.8753, 22.8453, 71.4248, -32.5218
1.668, -1, -5.97558, -1.30709, 36.9224, 22.9633, 71.3209, -32.7462
1.672, -1, -6.10912, -1.38827, 36.9693, 23.0809, 71.2174, -32.9699
1.676, -1, -6.24223, -1.4692, 37.016, 23.1982, 71.1143, -33.1929
1.68, -1, -6.37491, -1.54987, 37.0626, 23.3151, 71.0114, -33.4152
1.684, -1, -6.50717, -1.63028, 37.1091, 23.4316, 70.9089, -33.6368
1.688, -1, -6.63902, -1.71044, 37.1554, 23.5477, 70.8067, -33.8577
1.692, -1, -6.77044, -1.79034, 37.2016, 23.6635, 70.7049, -34.0778
1.696, -1, -6.90146, -1.87, 37.2476, 23.7789, 70.6033, -34.2973
1.7, -1, -7.03207, -1.9494, 37.2935, 23.894, 70.5021, -34.5161
1.704, -1, -7.16227, -2.02856, 37.3392, 24.0087, 70.4012, -34.7342
1.708, -1, -7.29207, -2.10748, 37.3848, 24.123, 70.3006, -34.9517
1.712, -1, -7.42146, -2.18615, 37.4303, 24.237, 70.2003, -35.1685
1.716, -1, -7.55047, -2.26458, 37.4756, 24.3506, 70.1003, -35.3846
1.72, -1, -7.67907, -2.34277, 37.5208, 24.4639, 70.0006, -35.6
1.724, -1, -7.80729, -2.42072, 37.5658, 24.5769, 69.9012, -35.8148
1.728, -1, -7.93512, -2.49844, 37.6107, 24.6895, 69.8022, -36.029
1.732, -1, -8.06257, -2.57593, 37.6555, 24.8017, 69.7034, -36.2425
1.736, -1, -8.18964, -2.65318, 37.7001, 24.9137, 69.6049, -36.4554
1.74, -1, -8.31633, -2.7302, 37.7446, 25.0253, 69.5067, -36.6676
1.744, -1, -8.44264, -2.807, 37.789, 25.1366, 69.4088, -36.8792
1.748, -1, -8.56858, -2.88357, 37.8332, 25.2475, 69.3112, -37.0902
1.752, -1, -8.69415, -2.95992, 37.8773, 25.3581, 69.2138, -37.3006
1.756, -1, -8.81936, -3.03604, 37.9213, 25.4684, 69.1168, -37.5103
1.76, -1, -8.9442, -3.11194, 37.9652, 25.5784, 69.02, -37.7195
1.764, -1, -9.06868, -3.18763, 38.0089, 25.6881, 68.9235, -37.928
1.768, -1, -9.1928, -3.26309, 38.0525, 25.7974, 68.8273, -38.136
1.772, -1, -9.31657, -3.33834, 38.096, 25.9064, 68.7314, -38.3433
1.776, -1, -9.43999, -3.41338, 38.1394, 26.0152, 68.6357, -38.5501
1.78, -1, -9.56305, -3.4882, 38.1826, 26.1236, 68.5403, -38.7563
1.784, -1, -9.68577, -3.56282, 38.2257, 26.2317, 68.4452, -38.9619
1.788, -1, -9.80814, -3.63722, 38.2687, 26.3395, 68.3504, -39.1669
1.792, -1, -9.93018, -3.71141, 38.3116, 26.447, 68.2558, -39.3713
1.796, -1, -10.0519, -3.7854, 38.3543, 26.5542, 68.1615, -39.5752
1.8, -1, -10.1732, -3.85919, 38.397, 26.6611, 68.0674, -39.7785
1.804, -1, -10.2942, -3.93277, 38.4395, 26.7677, 67.9736, -39.9813
1.808, -1, -10.4149, -4.00615, 38.4819, 26.874, 67.88, -40.1835
1.812, -1, -10.5353, -4.07933, 38.5242, 26.9801, 67.7867, -40.3851
1.816, -1, -10.6553, -4.15231, 38.5663, 27.0858, 67.6937, -40.5862
1.82, -1, -10.775, -4.22509, 38.6084, 27.1913, 67.6009, -40.7868
1.824, -1, -10.8944, -4.29768, 38.6503, 27.2965, 67.5084, -40.9868
1.828, -1, -11.0135, -4.37007, 38.6922, 27.4014, 67.4161, -41.1863
1.832, -1, -11.1322, -4.44227, 38.7339, 27.506, 67.324, -41.3852
1.836, -1, -11.2507, -4.51428, 38.7755, 27.6103, 67.2322, -41.5837
1.84, -1, -11.3688, -4.5861, 38.817, 27.7144, 67.1407, -41.7815
1.844, -1, -11.4866, -4.65773, 38.8584, 27.8182, 67.0493, -41.9789
1.848, -1, -11.6041, -4.72917, 38.8997, 27.9217, 66.9583, -42.1758
1.852, -1, -11.7213, -4.80042, 38.9408, 28.0249, 66.8674, -42.3721
1.856, -1, -11.8382, -4.87149, 38.9819, 28.1279, 66.7768, -42.568
1.86, -1, -11.9547, -4.94237, 39.0229, 28.2306, 66.6864, -42.7633
1.864, -1, -12.071, -5.01308, 39.0637, 28.3331, 66.5963, -42.9581
1.868, -1, -12.187, -5.0836, 39.1045, 28.4352, 66.5064, -43.1525
1.872, -1, -12.3027, -5.15394, 39.1451, 28.5372, 66.4167, -43.3463
1.876, -1, -12.4181, -5.2241, 39.1857, 28.6388, 66.3273, -43.5396
1.88, -1, -12.5332, -5.29408, 39.2261, 28.7402, 66.2381, -43.7325
1.884, -1, -12.648, -5.36389, 39.2664, 28.8414, 66.149, -43.9248
1.888, -1, -12.7625, -5.43352, 39.3067, 28.9423, 66.0603, -44.1167
1.892, -1, -12.8768, -5.50298, 39.3468, 29.0429, 65.9717, -44.3081
1.896, -1, -12.9907, -5.57227, 39.3869, 29.1433, 65.8834, -44.499
1.9, -1, -13.1044, -5.64138, 39.4268, 29.2435, 65.7953, -44.6895
1.904, -1, -13.2178, -5.71033, 39.4666, 29.3434, 65.7074, -44.8795
1.908, -1, -13.3309, -5.77911, 39.5064, 29.443, 65.6197, -45.069
1.912, -1, -13.4437, -5.84771, 39.546, 29.5424, 65.5322, -45.258
1.916, -1, -13.5563, -5.91616, 39.5856, 29.6416, 65.445, -45.4466
1.92, -1, -13.6686, -5.98443, 39.625, 29.7405, 65.3579, -45.6348
1.924, -1, -13.7806, -6.05254, 39.6644, 29.8392, 65.2711, -45.8225
1.928, -1, -13.8923, -6.12049, 39.7037, 29.9377, 65.1845, -46.0097
1.932, -1, -14.0038, -6.18828, 39.7428, 30.0359, 65.0981, -46.1965
1.936, -1, -14.115, -6.2559, 39.7819, 30.1339, 65.0118, -46.3828
1.94, -1, -14.226, -6.32337, 39.8209, 30.2316, 64.9258, -46.5687
1.944, -1, -14.3367, -6.39068, 39.8598, 30.3292, 64.84, -46.7542
1.948, -1, -14.4471, -6.45783, 39.8986, 30.4265, 64.7544, -46.9392
1.952, -1, -14.5573, -6.52482, 39.9373, 30.5235, 64.669, -47.1238
1.956, -1, -14.6672, -6.59166, 39.9759, 30.6204, 64.5838, -47.308
1.96, -1, -14.7769, -6.65834, 40.0145, 30.717, 64.4988, -47.4918
1.964, -1, -14.8863, -6.72487, 40.0529, 30.8134, 64.414, -47.6751
1.968, -1, -14.9954, -6.79125, 40.0913, 30.9096, 64.3293, -47.858
1.972, -1, -15.1044, -6.85748, 40.1296, 31.0056, 64.2449, -48.0405
1.976, -1, -15.213, -6.92356, 40.1677, 31.1013, 64.1607, -48.2226
1.98, -1, -15.3215, -6.98948, 40.2058, 31.1968, 64.0766, -48.4043
1.984, -1, -15.4296, -7.05527, 40.2439, 31.2921, 63.9927, -48.5855
1.988, -1, -15.5376, -7.1209, 40.2818, 31.3873, 63.9091, -48.7664
1.992, -1, -15.6453, -7.18639, 40.3196, 31.4821, 63.8256, -48.9468
1.996, -1, -15.7527, -7.25173, 40.3574, 31.5768, 63.7423, -49.1269
1.999, -1, -15.86, -7.31693, 40.3951, 31.6713, 63.6591, -49.3066
2.004, -1, -15.9669, -7.38199, 40.4327, 31.7656, 63.5762, -49.4858
2.008, -1, -16.0737, -7.4469, 40.4702, 31.8596, 63.4934, -49.6647
2.012, -1, -16.1802, -7.51167, 40.5076, 31.9535, 63.4109, -49.8432
2.015, -1, -16.2865, -7.5763, 40.545, 32.0471, 63.3285, -50.0213
2.019, -1, -16.3926, -7.6408, 40.5822, 32.1406, 63.2462, -50.199
2.024, -1, -16.4984, -7.70515, 40.6194, 32.2338, 63.1642, -50.3764
2.028, -1, -16.604, -7.76937, 40.6565, 32.3269, 63.0823, -50.5533
2.031, -1, -16.7094, -7.83345, 40.6936, 32.4197, 63.0006, -50.7299
2.036, -1, -16.8145, -7.89739, 40.7305, 32.5124, 62.9191, -50.9061
2.04, -1, -16.9195, -7.9612, 40.7674, 32.6049, 62.8377, -51.0819
2.044, -1, -17.0242, -8.02488, 40.8042, 32.6971, 62.7566, -51.2574
2.048, -1, -17.1287, -8.08842, 40.8409, 32.7892, 62.6756, -51.4325
2.051, -1, -17.233, -8.15183, 40.8776, 32.8811, 62.5947, -51.6072
2.055, -1, -17.337, -8.21511, 40.9141, 32.9728, 62.514, -51.7816
2.06, -1, -17.4409, -8.27825, 40.9506, 33.0643, 62.4335, -51.9556
2.064, -1, -17.5445, -8.34127, 40.987, 33.1556, 62.3532, -52.1293
2.068, -1, -17.6479, -8.40416, 41.0234, 33.2467, 62.273, -52.3026
2.071, -1, -17.7511, -8.46692, 41.0597, 33.3376, 62.193, -52.4755
2.076, -1, -17.8541, -8.52955, 41.0959, 33.4284, 62.1131, -52.6481
2.08, -1, -17.9569, -8.59205, 41.132, 33.519, 62.0335, -52.8204
2.084, -1, -18.0595, -8.65443, 41.168, 33.6094, 61.9539, -52.9922
2.087, -1, -18.1619, -8.71669, 41.204, 33.6996, 61.8746, -53.1638
2.092, -1, -18.264, -8.77882, 41.2399, 33.7896, 61.7953, -53.335
2.096, -1, -18.366, -8.84082, 41.2758, 33.8794, 61.7163, -53.5059
2.1, -1, -18.4678, -8.9027, 41.3115, 33.9691, 61.6374, -53.6764
2.104, -1, -18.5693, -8.96447, 41.3472, 34.0586, 61.5587, -53.8466
2.107, -1, -18.6707, -9.0261, 41.3828, 34.1479, 61.4801, -54.0164
2.111, -1, -18.7719, -9.08762, 41.4184, 34.2371, 61.4016, -54.186
2.116, -1, -18.8728, -9.14902, 41.4539, 34.326, 61.3234, -54.3552
2.12, -1, -18.9736, -9.2103, 41.4893, 34.4148, 61.2452, -54.524
2.124, -1, -19.0742, -9.27146, 41.5246, 34.5034, 61.1673, -54.6926
2.127, -1, -19.1745, -9.33251, 41.5599, 34.5919, 61.0894, -54.8608
2.132, -1, -19.2747, -9.39343, 41.5951, 34.6802, 61.0118, -55.0287
2.136, -1, -19.3747, -9.45424, 41.6303, 34.7683, 60.9342, -55.1962
2.14, -1, -19.4745, -9.51493, 41.6653, 34.8562, 60.8568, -55.3635
2.143, -1, -19.5741, -9.57551, 41.7003, 34.944, 60.7796, -55.5304
2.148, -1, -19.6736, -9.63597, 41.7353, 35.0316, 60.7025, -55.697
2.152, -1, -19.7728, -9.69632, 41.7702, 35.1191, 60.6256, -55.8633
2.156, -1, -19.8719, -9.75655, 41.805, 35.2064, 60.5488, -56.0293
2.16, -1, -19.9707, -9.81668, 41.8397, 35.2935, 60.4721, -56.195
2.163, -1, -20.0694, -9.87669, 41.8744, 35.3804, 60.3956, -56.3604
2.168, -1, -20.1679, -9.93659, 41.909, 35.4672, 60.3193, -56.5254
2.172, -1, -20.2662, -9.99638, 41.9436, 35.5539, 60.243, -56.6902
2.176, -1, -20.3644, -10.0561, 41.9781, 35.6403, 60.1669, -56.8546
2.179, -1, -20.4624, -10.1156, 42.0125, 35.7267, 60.091, -57.0188
2.184, -1, -20.5601, -10.1751, 42.0469, 35.8128, 60.0152, -57.1827
2.188, -1, -20.6577, -10.2345, 42.0812, 35.8988, 59.9395, -57.3462
2.192, -1, -20.7552, -10.2937, 42.1154, 35.9847, 59.864, -57.5095
2.196, -1, -20.8524, -10.3528, 42.1496, 36.0704, 59.7886, -57.6725
2.199, -1, -20.9495, -10.4119, 42.1837, 36.1559, 59.7133, -57.8352
2.204, -1, -21.0464, -10.4708, 42.2178, 36.2413, 59.6382, -57.9976
2.208, -1, -21.1431, -10.5296, 42.2518, 36.3266, 59.5632, -58.1597
2.212, -1, -21.2397, -10.5884, 42.2857, 36.4117, 59.4883, -58.3215
2.216, -1, -21.3361, -10.647, 42.3196, 36.4966, 59.4135, -58.483
2.219, -1, -21.4323, -10.7055, 42.3534, 36.5814, 59.3389, -58.6443
2.224, -1, -21.5284, -10.7639, 42.3872, 36.6661, 59.2645, -58.8053
2.228, -1, -21.6243, -10.8222, 42.4209, 36.7506, 59.1901, -58.966
2.232, -1, -21.72, -10.8804, 42.4545, 36.8349, 59.1159, -59.1264
2.235, -1, -21.8156, -10.9386, 42.4881, 36.9191, 59.0418, -59.2865
2.24, -1, -21.911, -10.9966, 42.5216, 37.0032, 58.9678, -59.4464
2.244, -1, -22.0062, -11.0545, 42.5551, 37.0871, 58.894, -59.606
2.248, -1, -22.1013, -11.1123, 42.5885, 37.1709, 58.8203, -59.7653
2.252, -1, -22.1962, -11.17, 42.6219, 37.2545, 58.7467, -59.9244
2.255, -1, -22.291, -11.2277, 42.6552, 37.338, 58.6732, -60.0832
2.259, -1, -22.3856, -11.2852, 42.6884, 37.4214, 58.5999, -60.2417
2.264, -1, -22.48, -11.3426, 42.7216, 37.5046, 58.5267, -60.3999
2.268, -1, -22.5743, -11.3999, 42.7548, 37.5877, 58.4536, -60.5579
2.272, -1, -22.6684, -11.4572, 42.7879, 37.6706, 58.3806, -60.7157
2.275, -1, -22.7624, -11.5143, 42.8209, 37.7534, 58.3077, -60.8731
2.28, -1, -22.8562, -11.5714, 42.8539, 37.8361, 58.235, -61.0303
2.284, -1, -22.9499, -11.6283, 42.8868, 37.9186, 58.1624, -61.1873
2.288, -1, -23.0434, -11.6852, 42.9196, 38.001, 58.0899, -61.344
2.291, -1, -23.1367, -11.742, 42.9524, 38.0833, 58.0175, -61.5004
2.296, -1, -23.2299, -11.7986, 42.9852, 38.1654, 57.9453, -61.6566
2.3, -1, -23.323, -11.8552, 43.0179, 38.2474, 57.8731, -61.8125
2.304, -1, -23.4159, -11.9117, 43.0506, 38.3293, 57.8011, -61.9682
2.308, -1, -23.5087, -11.9681, 43.0832, 38.411, 57.7292, -62.1237
2.311, -1, -23.6013, -12.0244, 43.1157, 38.4926, 57.6574, -62.2788
2.316, -1, -23.6937, -12.0806, 43.1482, 38.5741, 57.5857, -62.4338
2.32, -1, -23.786, -12.1368, 43.1806, 38.6554, 57.5141, -62.5885
2.324, -1, -23.8782, -12.1928, 43.213, 38.7366, 57.4427, -62.7429
2.328, -1, -23.9702, -12.2488, 43.2454, 38.8177, 57.3713, -62.8971
2.331, -1, -24.0621, -12.3047, 43.2777, 38.8987, 57.3001, -63.0511
2.336, -1, -24.1538, -12.3604, 43.3099, 38.9795, 57.229, -63.2048
2.34, -1, -24.2454, -12.4161, 43.3421, 39.0602, 57.158, -63.3583
2.344, -1, -24.3368, -12.4717, 43.3742, 39.1408, 57.0871, -63.5115
2.347, -1, -24.4281, -12.5273, 43.4063, 39.2212, 57.0163, -63.6645
2.352, -1, -24.5193, -12.5827, 43.4384, 39.3016, 56.9456, -63.8173
2.356, -1, -24.6103, -12.6381, 43.4704, 39.3818, 56.875, -63.9698
2.36, -1, -24.7012, -12.6933, 43.5023, 39.4619, 56.8046, -64.1221
2.364, -1, -24.792, -12.7485, 43.5342, 39.5418, 56.7342, -64.2742
2.367, -1, -24.8826, -12.8036, 43.5661, 39.6217, 56.664, -64.426
2.372, -1, -24.973, -12.8586, 43.5978, 39.7014, 56.5938, -64.5777
2.376, -1, -25.0634, -12.9136, 43.6296, 39.781, 56.5238, -64.729
2.38, -1, -25.1536, -12.9684, 43.6613, 39.8605, 56.4538, -64.8802
2.383, -1, -25.2436, -13.0232, 43.693, 39.9398, 56.384, -65.0311
2.388, -1, -25.3336, -13.0779, 43.7246, 40.0191, 56.3143, -65.1818
2.392, -1, -25.4234, -13.1325, 43.7561, 40.0982, 56.2447, -65.3323
2.396, -1, -25.513, -13.187, 43.7876, 40.1772, 56.1751, -65.4826
2.4, -1, -25.6026, -13.2414, 43.8191, 40.2561, 56.1057, -65.6326
2.403, -1, -25.6919, -13.2958, 43.8505, 40.3349, 56.0364, -65.7824
2.408, -1, -25.7812, -13.3501, 43.8819, 40.4135, 55.9672, -65.932
2.412, -1, -25.8704, -13.4043, 43.9132, 40.4921, 55.8981, -66.0814
2.416, -1, -25.9594, -13.4584, 43.9445, 40.5705, 55.8291, -66.2305
2.42, -1, -26.0482, -13.5125, 43.9757, 40.6488, 55.7602, -66.3795
2.423, -1, -26.137, -13.5664, 44.0069, 40.7271, 55.6914, -66.5282
2.428, -1, -26.2256, -13.6203, 44.0381, 40.8051, 55.6227, -66.6767
2.432, -1, -26.3141, -13.6741, 44.0692, 40.8831, 55.5541, -66.825
2.436, -1, -26.4025, -13.7279, 44.1003, 40.961, 55.4855, -66.9731
2.439, -1, -26.4907, -13.7815, 44.1313, 41.0388, 55.4171, -67.121
2.444, -1, -26.5788, -13.8351, 44.1622, 41.1164, 55.3488, -67.2686
2.448, -1, -26.6668, -13.8886, 44.1932, 41.1939, 55.2806, -67.4161
2.452, -1, -26.7547, -13.9421, 44.2241, 41.2714, 55.2124, -67.5633
2.456, -1, -26.8424, -13.9954, 44.2549, 41.3487, 55.1444, -67.7104
2.459, -1, -26.9301, -14.0487, 44.2857, 41.4259, 55.0765, -67.8572
2.464, -1, -27.0176, -14.1019, 44.3165, 41.503, 55.0086, -68.0039
2.468, -1, -27.105, -14.1551, 44.3472, 41.58, 54.9409, -68.1503
2.472, -1, -27.1922, -14.2081, 44.3778, 41.6569, 54.8732, -68.2966
2.476, -1, -27.2794, -14.2611, 44.4085, 41.7337, 54.8057, -68.4426
2.479, -1, -27.3664, -14.3141, 44.4391, 41.8104, 54.7382, -68.5884
2.484, -1, -27.4533, -14.3669, 44.4696, 41.887, 54.6708, -68.7341
2.488, -1, -27.5401, -14.4197, 44.5001, 41.9635, 54.6035, -68.8795
2.492, -1, -27.6267, -14.4724, 44.5306, 42.0398, 54.5363, -69.0248
2.495, -1, -27.7133, -14.525, 44.561, 42.1161, 54.4692, -69.1698
2.5, -1, -27.7997, -14.5776, 44.5914, 42.1923, 54.4022, -69.3147
2.504, -1, -27.8861, -14.6301, 44.6217, 42.2684, 54.3352, -69.4593
2.508, -1, -27.9723, -14.6825, 44.652, 42.3443, 54.2684, -69.6038
2.512, -1, -28.0584, -14.7349, 44.6823, 42.4202, 54.2017, -69.7481
2.515, -1, -28.1443, -14.7872, 44.7125, 42.496, 54.135, -69.8922
2.52, -1, -28.2302, -14.8394, 44.7427, 42.5716, 54.0684, -70.0361
2.524, -1, -28.316, -14.8915, 44.7728, 42.6472, 54.0019, -70.1798
2.528, -1, -28.4016, -14.9436, 44.8029, 42.7227, 53.9355, -70.3233
2.531, -1, -28.4871, -14.9956, 44.833, 42.798, 53.8692, -70.4667
2.536, -1, -28.5725, -15.0476, 44.863, 42.8733, 53.803, -70.6098
2.54, -1, -28.6579, -15.0994, 44.893, 42.9485, 53.7368, -70.7528
2.544, -1, -28.743, -15.1513, 44.923, 43.0236, 53.6708, -70.8956
2.548, -1, -28.8281, -15.203, 44.9529, 43.0986, 53.6048, -71.0382
2.551, -1, -28.9131, -15.2547, 44.9827, 43.1734, 53.5389, -71.1806
2.556, -1, -28.998, -15.3063, 45.0126, 43.2482, 53.4731, -71.3228
2.56, -1, -29.0828, -15.3579, 45.0424, 43.3229, 53.4074, -71.4649
2.564, -1, -29.1674, -15.4093, 45.0721, 43.3975, 53.3417, -71.6067
2.568, -1, -29.252, -15.4608, 45.1018, 43.472, 53.2762, -71.7484
2.571, -1, -29.3364, -15.5121, 45.1315, 43.5465, 53.2107, -71.89
2.576, -1, -29.4207, -15.5634, 45.1612, 43.6208, 53.1453, -72.0313
2.58, -1, -29.505, -15.6146, 45.1908, 43.695, 53.08, -72.1725
2.584, -1, -29.5891, -15.6658, 45.2203, 43.7692, 53.0148, -72.3135
2.587, -1, -29.6731, -15.7169, 45.2499, 43.8432, 52.9496, -72.4543
2.592, -1, -29.757, -15.7679, 45.2794, 43.9172, 52.8845, -72.5949
2.596, -1, -29.8409, -15.8189, 45.3088, 43.991, 52.8195, -72.7354
2.6, -1, -29.9246, -15.8698, 45.3383, 44.0648, 52.7546, -72.8757
2.604, -1, -30.0082, -15.9206, 45.3677, 44.1385, 52.6898, -73.0158
2.607, -1, -30.0917, -15.9714, 45.397, 44.2121, 52.6251, -73.1558
2.612, -1, -30.1751, -16.0222, 45.4263, 44.2856, 52.5604, -73.2955
2.616, -1, -30.2584, -16.0728, 45.4556, 44.359, 52.4958, -73.4352
2.62, -1, -30.3416, -16.1234, 45.4849, 44.4323, 52.4313, -73.5746
2.624, -1, -30.4247, -16.174, 45.5141, 44.5056, 52.3668, -73.7139
2.627, -1, -30.5077, -16.2244, 45.5433, 44.5787, 52.3025, -73.853
2.632, -1, -30.5906, -16.2749, 45.5724, 44.6518, 52.2382, -73.9919
2.636, -1, -30.6734, -16.3252, 45.6015, 44.7247, 52.174, -74.1307
2.64, -1, -30.7561, -16.3755, 45.6306, 44.7976, 52.1099, -74.2693
2.643, -1, -30.8388, -16.4258, 45.6596, 44.8704, 52.0458, -74.4078
2.648, -1, -30.9213, -16.4759, 45.6886, 44.9431, 51.9818, -74.5461
2.652, -1, -31.0037, -16.5261, 45.7176, 45.0158, 51.9179, -74.6842
2.656, -1, -31.086, -16.5761, 45.7465, 45.0883, 51.8541, -74.8222
2.66, -1, -31.1682, -16.6261, 45.7754, 45.1608, 51.7903, -74.96
2.663, -1, -31.2504, -16.6761, 45.8043, 45.2332, 51.7266, -75.0976
2.668, -1, -31.3324, -16.726, 45.8331, 45.3055, 51.663, -75.2351
2.672, -1, -31.4143, -16.7758, 45.8619, 45.3777, 51.5995, -75.3724
2.676, -1, -31.4962, -16.8256, 45.8907, 45.4498, 51.536, -75.5096
2.679, -1, -31.5779, -16.8753, 45.9194, 45.5218, 51.4726, -75.6466
2.684, -1, -31.6596, -16.925, 45.9482, 45.5938, 51.4093, -75.7834
2.688, -1, -31.7411, -16.9746, 45.9768, 45.6657, 51.3461, -75.9201
2.692, -1, -31.8226, -17.0241, 46.0055, 45.7375, 51.2829, -76.0567
2.696, -1, -31.904, -17.0736, 46.0341, 45.8092, 51.2198, -76.1931
2.699, -1, -31.9853, -17.123, 46.0626, 45.8808, 51.1568, -76.3293
2.704, -1, -32.0665, -17.1724, 46.0912, 45.9524, 51.0938, -76.4654
2.708, -1, -32.1476, -17.2217, 46.1197, 46.0239, 51.0309, -76.6013
2.712, -1, -32.2286, -17.271, 46.1482, 46.0953, 50.9681, -76.7371
2.716, -1, -32.3095, -17.3202, 46.1766, 46.1666, 50.9054, -76.8727
2.719, -1, -32.3903, -17.3694, 46.205, 46.2378, 50.8427, -77.0082
2.724, -1, -32.4711, -17.4185, 46.2334, 46.309, 50.7801, -77.1435
2.728, -1, -32.5517, -17.4675, 46.2618, 46.38, 50.7176, -77.2787
2.732, -1, -32.6323, -17.5165, 46.2901, 46.451, 50.6551, -77.4137
2.735, -1, -32.7128, -17.5655, 46.3184, 46.522, 50.5927, -77.5486
2.74, -1, -32.7932, -17.6144, 46.3466, 46.5928, 50.5304, -77.6833
2.744, -1, -32.8735, -17.6632, 46.3749, 46.6636, 50.4681, -77.8179
2.748, -1, -32.9537, -17.712, 46.4031, 46.7343, 50.4059, -77.9523
2.752, -1, -33.0338, -17.7607, 46.4312, 46.8049, 50.3438, -78.0866
2.755, -1, -33.1138, -17.8094, 46.4594, 46.8754, 50.2817, -78.2207
2.76, -1, -33.1938, -17.858, 46.4875, 46.9459, 50.2197, -78.3547
2.764, -1, -33.2737, -17.9066, 46.5155, 47.0163, 50.1578, -78.4886
2.768, -1, -33.3535, -17.9551, 46.5436, 47.0866, 50.0959, -78.6223
2.772, -1, -33.4332, -18.0036, 46.5716, 47.1568, 50.0341, -78.7559
2.775, -1, -33.5128, -18.052, 46.5996, 47.227, 49.9724, -78.8893
2.78, -1, -33.5923, -18.1004, 46.6275, 47.2971, 49.9107, -79.0226
2.784, -1, -33.6718, -18.1487, 46.6555, 47.3671, 49.8491, -79.1558
2.788, -1, -33.7511, -18.197, 46.6834, 47.437, 49.7875, -79.2888
2.791, -1, -33.8304, -18.2452, 46.7112, 47.5069, 49.7261, -79.4217
2.796, -1, -33.9096, -18.2933, 46.7391, 47.5767, 49.6647, -79.5544
2.8, -1, -33.9887, -18.3415, 46.7669, 47.6465, 49.6033, -79.687
2.804, -1, -34.0678, -18.3895, 46.7947, 47.7161, 49.542, -79.8195
2.808, -1, -34.1467, -18.4376, 46.8224, 47.7857, 49.4808, -79.9518
2.811, -1, -34.2256, -18.4855, 46.8502, 47.8552, 49.4196, -80.084
2.816, -1, -34.3044, -18.5334, 46.8779, 47.9246, 49.3585, -80.2161
2.82, -1, -34.3831, -18.5813, 46.9055, 47.994, 49.2975, -80.348
2.824, -1, -34.4617, -18.6291, 46.9332, 48.0633, 49.2365, -80.4798
2.828, -1, -34.5403, -18.6769, 46.9608, 48.1326, 49.1756, -80.6115
2.831, -1, -34.6188, -18.7246, 46.9884, 48.2017, 49.1147, -80.743
2.836, -1, -34.6972, -18.7723, 47.0159, 48.2708, 49.054, -80.8744
2.84, -1, -34.7755, -18.82, 47.0435, 48.3398, 48.9932, -81.0057
2.844, -1, -34.8537, -18.8676, 47.071, 48.4088, 48.9325, -81.1368
2.847, -1, -34.9319, -18.9151, 47.0985, 48.4777, 48.8719, -81.2678
2.852, -1, -35.01, -18.9626, 47.1259, 48.5465, 48.8114, -81.3987
2.856, -1, -35.088, -19.01, 47.1533, 48.6153, 48.7509, -81.5294
2.86, -1, -35.166, -19.0574, 47.1807, 48.6839, 48.6905, -81.6601
2.864, -1, -35.2438, -19.1048, 47.2081, 48.7526, 48.6301, -81.7906
2.867, -1, -35.3216, -19.1521, 47.2355, 48.8211, 48.5698, -81.9209
2.872, -1, -35.3993, -19.1993, 47.2628, 48.8896, 48.5095, -82.0512
2.876, -1, -35.4769, -19.2466, 47.2901, 48.958, 48.4493, -82.1813
2.88, -1, -35.5545, -19.2937, 47.3173, 49.0264, 48.3892, -82.3113
2.883, -1, -35.632, -19.3409, 47.3446, 49.0947, 48.3291, -82.4411
2.888, -1, -35.7094, -19.3879, 47.3718, 49.1629, 48.2691, -82.5708
2.892, -1, -35.7867, -19.435, 47.399, 49.231, 48.2091, -82.7005
2.896, -1, -35.864, -19.482, 47.4261, 49.2991, 48.1492, -82.8299
2.9, -1, -35.9412, -19.5289, 47.4533, 49.3671, 48.0893, -82.9593
2.903, -1, -36.0183, -19.5758, 47.4804, 49.4351, 48.0295, -83.0886
2.908, -1, -36.0953, -19.6226, 47.5074, 49.503, 47.9698, -83.2177
2.912, -1, -36.1723, -19.6695, 47.5345, 49.5708, 47.9101, -83.3467
2.916, -1, -36.2492, -19.7162, 47.5615, 49.6386, 47.8505, -83.4756
2.92, -1, -36.326, -19.7629, 47.5885, 49.7063, 47.7909, -83.6043
2.923, -1, -36.4027, -19.8096, 47.6155, 49.774, 47.7314, -83.733
2.928, -1, -36.4794, -19.8563, 47.6425, 49.8415, 47.6719, -83.8615
2.932, -1, -36.556, -19.9029, 47.6694, 49.909, 47.6125, -83.9899
2.936, -1, -36.6326, -19.9494, 47.6963, 49.9765, 47.5532, -84.1182
2.939, -1, -36.709, -19.9959, 47.7232, 50.0439, 47.4939, -84.2463
2.944, -1, -36.7854, -20.0424, 47.7501, 50.1112, 47.4347, -84.3744
2.948, -1, -36.8618, -20.0888, 47.7769, 50.1785, 47.3755, -84.5023
2.952, -1, -36.938, -20.1352, 47.8037, 50.2457, 47.3163, -84.6301
2.956, -1, -37.0142, -20.1815, 47.8305, 50.3128, 47.2573, -84.7578
2.959, -1, -37.0903, -20.2278, 47.8572, 50.3799, 47.1982, -84.8854
2.964, -1, -37.1664, -20.274, 47.884, 50.447, 47.1393, -85.0128
2.968, -1, -37.2423, -20.3203, 47.9107, 50.5139, 47.0803, -85.1402
2.972, -1, -37.3183, -20.3664, 47.9374, 50.5808, 47.0215, -85.2674
2.976, -1, -37.3941, -20.4126, 47.964, 50.6477, 46.9627, -85.3945
2.98, -1, -37.4699, -20.4586, 47.9907, 50.7144, 46.9039, -85.5215
2.984, -1, -37.5456, -20.5047, 48.0173, 50.7812, 46.8452, -85.6484
2.988, -1, -37.6212, -20.5507, 48.0439, 50.8478, 46.7865, -85.7752
2.992, -1, -37.6968, -20.5967, 48.0704, 50.9144, 46.7279, -85.9019
2.995, -1, -37.7723, -20.6426, 48.097, 50.981, 46.6694, -86.0284
3, -1, -37.8477, -20.6885, 48.1235, 51.0475, 46.6109, -86.1549
3.004, -1, -37.9231, -20.7343, 48.15, 51.1139, 46.5524, -86.2812
3.008, -1, -37.9984, -20.7801, 48.1765, 51.1803, 46.494, -86.4074
3.012, -1, -38.0737, -20.8259, 48.2029, 51.2466, 46.4357, -86.5335
3.015, -1, -38.1488, -20.8716, 48.2294, 51.3128, 46.3774, -86.6595
3.02, -1, -38.2239, -20.9173, 48.2558, 51.3791, 46.3192, -86.7854
3.024, -1, -38.299, -20.9629, 48.2821, 51.4452, 46.261, -86.9112
3.028, -1, -38.374, -21.0085, 48.3085, 51.5113, 46.2028, -87.0369
3.031, -1, -38.4489, -21.0541, 48.3348, 51.5773, 46.1447, -87.1624
3.036, -1, -38.5237, -21.0996, 48.3612, 51.6433, 46.0867, -87.2879
3.04, -1, -38.5985, -21.1451, 48.3874, 51.7092, 46.0287, -87.4132
3.044, -1, -38.6733, -21.1905, 48.4137, 51.775, 45.9707, -87.5385
3.048, -1, -38.7479, -21.2359, 48.44, 51.8408, 45.9128, -87.6636
3.051, -1, -38.8225, -21.2813, 48.4662, 51.9066, 45.855, -87.7887
3.056, -1, -38.8971, -21.3266, 48.4924, 51.9723, 45.7972, -87.9136
3.06, -1, -38.9715, -21.3719, 48.5186, 52.0379, 45.7395, -88.0384
3.064, -1, -39.0459, -21.4172, 48.5447, 52.1035, 45.6817, -88.1631
3.068, -1, -39.1203, -21.4624, 48.5709, 52.169, 45.6241, -88.2877
3.071, -1, -39.1946, -21.5076, 48.597, 52.2345, 45.5665, -88.4122
3.076, -1, -39.2688, -21.5527, 48.6231, 52.2999, 45.5089, -88.5366
3.08, -1, -39.343, -21.5978, 48.6492, 52.3653, 45.4514, -88.6609
3.084, -1, -39.4171, -21.6429, 48.6752, 52.4306, 45.394, -88.7851
3.087, -1, -39.4911, -21.6879, 48.7012, 52.4958, 45.3365, -88.9092
3.092, -1, -39.5651, -21.7329, 48.7272, 52.561, 45.2792, -89.0332
3.096, -1, -39.639, -21.7779, 48.7532, 52.6262, 45.2219, -89.1571
3.1, -1, -39.7129, -21.8228, 48.7792, 52.6913, 45.1646, -89.2809
3.104, -1, -39.7867, -21.8677, 48.8051, 52.7563, 45.1074, -89.4046
3.107, -1, -39.8604, -21.9126, 48.8311, 52.8213, 45.0502, -89.5282
3.112, -1, -39.9341, -21.9574, 48.857, 52.8863, 44.993, -89.6517
3.116, -1, -40.0077, -22.0022, 48.8829, 52.9512, 44.9359, -89.7751
3.12, -1, -40.0813, -22.0469, 48.9087, 53.016, 44.8789, -89.8984
3.124, -1, -40.1548, -22.0916, 48.9346, 53.0808, 44.8219, -90.0216
3.128, -1, -40.2282, -22.1363, 48.9604, 53.1455, 44.7649, -90.1447
3.132, -1, -40.3016, -22.1809, 48.9862, 53.2102, 44.708, -90.2677
3.136, -1, -40.375, -22.2255, 49.012, 53.2748, 44.6512, -90.3906
3.14, -1, -40.4482, -22.2701, 49.0377, 53.3394, 44.5943, -90.5135
3.143, -1, -40.5215, -22.3146, 49.0635, 53.4039, 44.5376, -90.6362
3.148, -1, -40.5946, -22.3591, 49.0892, 53.4684, 44.4808, -90.7588
3.152, -1, -40.6677, -22.4036, 49.1149, 53.5328, 44.4241, -90.8813
3.156, -1, -40.7408, -22.448, 49.1406, 53.5972, 44.3675, -91.0038
3.16, -1, -40.8138, -22.4924, 49.1662, 53.6616, 44.3109, -91.1261
3.163, -1, -40.8867, -22.5368, 49.1919, 53.7258, 44.2543, -91.2484
3.168, -1, -40.9596, -22.5811, 49.2175, 53.7901, 44.1978, -91.3705
3.172, -1, -41.0324, -22.6254, 49.2431, 53.8543, 44.1413, -91.4926
3.176, -1, -41.1052, -22.6696, 49.2687, 53.9184, 44.0849, -91.6146
3.179, -1, -41.1779, -22.7139, 49.2942, 53.9825, 44.0285, -91.7364
3.184, -1, -41.2505, -22.758, 49.3198, 54.0465, 43.9722, -91.8582
3.188, -1, -41.3232, -22.8022, 49.3453, 54.1105, 43.9159, -91.9799
3.192, -1, -41.3957, -22.8463, 49.3708, 54.1745, 43.8596, -92.1015
3.196, -1, -41.4682, -22.8904, 49.3963, 54.2384, 43.8034, -92.223
3.199, -1, -41.5406, -22.9345, 49.4218, 54.3022, 43.7472, -92.3445
3.204, -1, -41.613, -22.9785, 49.4472, 54.366, 43.6911, -92.4658
3.208, -1, -41.6854, -23.0225, 49.4726, 54.4298, 43.635, -92.587
3.212, -1, -41.7576, -23.0665, 49.4981, 54.4935, 43.5789, -92.7082
3.216, -1, -41.8299, -23.1104, 49.5234, 54.5571, 43.5229, -92.8292
3.22, -1, -41.902, -23.1543, 49.5488, 54.6207, 43.467, -92.9502
3.224, -1, -41.9742, -23.1982, 49.5742, 54.6843, 43.411, -93.0711
3.228, -1, -42.0462, -23.242, 49.5995, 54.7478, 43.3551, -93.1919
3.232, -1, -42.1183, -23.2858, 49.6248, 54.8113, 43.2993, -93.3126
3.235, -1, -42.1902, -23.3296, 49.6501, 54.8747, 43.2435, -93.4332
3.24, -1, -42.2621, -23.3733, 49.6754, 54.9381, 43.1877, -93.5538
3.244, -1, -42.334, -23.417, 49.7007, 55.0014, 43.132, -93.6742
3.248, -1, -42.4058, -23.4607, 49.7259, 55.0647, 43.0763, -93.7946
3.252, -1, -42.4776, -23.5043, 49.7511, 55.128, 43.0207, -93.9148
3.255, -1, -42.5493, -23.5479, 49.7764, 55.1912, 42.9651, -94.035
3.26, -1, -42.6209, -23.5915, 49.8016, 55.2543, 42.9095, -94.1551
3.264, -1, -42.6925, -23.6351, 49.8267, 55.3174, 42.854, -94.2751
3.268, -1, -42.7641, -23.6786, 49.8519, 55.3805, 42.7985, -94.3951
3.272, -1, -42.8356, -23.7221, 49.877, 55.4435, 42.743, -94.5149
3.276, -1, -42.907, -23.7655, 49.9021, 55.5065, 42.6876, -94.6347
3.28, -1, -42.9784, -23.809, 49.9272, 55.5694, 42.6322, -94.7544
3.284, -1, -43.0498, -23.8524, 49.9523, 55.6323, 42.5769, -94.8739
3.288, -1, -43.1211, -23.8957, 49.9774, 55.6951, 42.5216, -94.9935
3.291, -1, -43.1923, -23.9391, 50.0024, 55.7579, 42.4664, -95.1129
3.296, -1, -43.2635, -23.9824, 50.0275, 55.8207, 42.4112, -95.2322
3.3, -1, -43.3347, -24.0256, 50.0525, 55.8834, 42.356, -95.3515
3.304, -1, -43.4058, -24.0689, 50.0775, 55.9461, 42.3008, -95.4707
3.308, -1, -43.4768, -24.1121, 50.1025, 56.0087, 42.2457, -95.5898
3.312, -1, -43.5478, -24.1553, 50.1274, 56.0713, 42.1907, -95.7088
3.316, -1, -43.6188, -24.1985, 50.1524, 56.1338, 42.1356, -95.8277
3.32, -1, -43.6897, -24.2416, 50.1773, 56.1963, 42.0807, -95.9466
3.324, -1, -43.7606, -24.2847, 50.2022, 56.2588, 42.0257, -96.0653
3.328, -1, -43.8314, -24.3277, 50.2271, 56.3212, 41.9708, -96.184
3.332, -1, -43.9022, -24.3708, 50.252, 56.3836, 41.9159, -96.3026
3.336, -1, -43.9729, -24.4138, 50.2769, 56.4459, 41.8611, -96.4212
3.34, -1, -44.0435, -24.4568, 50.3017, 56.5082, 41.8063, -96.5396
3.344, -1, -44.1142, -24.4997, 50.3265, 56.5704, 41.7515, -96.658
3.347, -1, -44.1847, -24.5427, 50.3513, 56.6326, 41.6968, -96.7763
3.352, -1, -44.2553, -24.5856, 50.3761, 56.6948, 41.6421, -96.8945
3.356, -1, -44.3257, -24.6284, 50.4009, 56.7569, 41.5874, -97.0126
3.36, -1, -44.3962, -24.6713, 50.4257, 56.819, 41.5328, -97.1307
3.364, -1, -44.4666, -24.7141, 50.4504, 56.881, 41.4782, -97.2487
3.368, -1, -44.5369, -24.7569, 50.4752, 56.943, 41.4237, -97.3666
3.372, -1, -44.6072, -24.7996, 50.4999, 57.005, 41.3692, -97.4844
3.376, -1, -44.6775, -24.8423, 50.5246, 57.0669, 41.3147, -97.6022
3.38, -1, -44.7477, -24.885, 50.5492, 57.1288, 41.2602, -97.7198
3.383, -1, -44.8178, -24.9277, 50.5739, 57.1906, 41.2058, -97.8374
3.388, -1, -44.8879, -24.9704, 50.5986, 57.2524, 41.1515, -97.9549
3.392, -1, -44.958, -25.013, 50.6232, 57.3142, 41.0971, -98.0724
3.396, -1, -45.028, -25.0556, 50.6478, 57.3759, 41.0428, -98.1897
3.4, -1, -45.098, -25.0981, 50.6724, 57.4375, 40.9886, -98.307
3.403, -1, -45.1679, -25.1406, 50.697, 57.4992, 40.9343, -98.4242
3.408, -1, -45.2378, -25.1832, 50.7216, 57.5608, 40.8801, -98.5414
3.412, -1, -45.3077, -25.2256, 50.7461, 57.6223, 40.826, -98.6585
3.416, -1, -45.3775, -25.2681, 50.7707, 57.6839, 40.7718, -98.7755
3.42, -1, -45.4472, -25.3105, 50.7952, 57.7453, 40.7178, -98.8924
3.424, -1, -45.5169, -25.3529, 50.8197, 57.8068, 40.6637, -99.0092
3.428, -1, -45.5866, -25.3953, 50.8442, 57.8682, 40.6097, -99.126
3.432, -1, -45.6562, -25.4376, 50.8687, 57.9296, 40.5557, -99.2427
3.436, -1, -45.7258, -25.4799, 50.8931, 57.9909, 40.5017, -99.3593
3.439, -1, -45.7953, -25.5222, 50.9176, 58.0522, 40.4478, -99.4759
3.444, -1, -45.8648, -25.5645, 50.942, 58.1134, 40.3939, -99.5923
3.448, -1, -45.9343, -25.6068, 50.9664, 58.1746, 40.3401, -99.7087
3.452, -1, -46.0037, -25.649, 50.9908, 58.2358, 40.2862, -99.8251
3.456, -1, -46.073, -25.6912, 51.0152, 58.2969, 40.2324, -99.9413
3.46, -1, -46.1424, -25.7333, 51.0396, 58.358, 40.1787, -100.058
3.464, -1, -46.2116, -25.7755, 51.0639, 58.4191, 40.125, -100.174
3.468, -1, -46.2809, -25.8176, 51.0883, 58.4801, 40.0713, -100.29
3.472, -1, -46.3501, -25.8597, 51.1126, 58.5411, 40.0176, -100.406
3.476, -1, -46.4192, -25.9017, 51.1369, 58.6021, 39.964, -100.522
3.48, -1, -46.4883, -25.9438, 51.1612, 58.663, 39.9104, -100.637
3.484, -1, -46.5574, -25.9858, 51.1855, 58.7239, 39.8568, -100.753
3.488, -1, -46.6265, -26.0278, 51.2098, 58.7847, 39.8033, -100.869
3.492, -1, -46.6954, -26.0697, 51.234, 58.8455, 39.7498, -100.985
3.495, -1, -46.7644, -26.1117, 51.2583, 58.9063, 39.6963, -101.1
3.5, -1, -46.8333, -26.1536, 51.2825, 58.967, 39.6429, -101.216
3.504, -1, -46.9022, -26.1955, 51.3067, 59.0277, 39.5895, -101.331
3.508, -1, -46.971, -26.2373, 51.3309, 59.0884, 39.5361, -101.446
3.512, -1, -47.0398, -26.2792, 51.3551, 59.149, 39.4827, -101.562
3.516, -1, -47.1085, -26.321, 51.3793, 59.2096, 39.4294, -101.677
3.52, -1, -47.1772, -26.3628, 51.4034, 59.2702, 39.3761, -101.792
3.524, -1, -47.2459, -26.4045, 51.4276, 59.3307, 39.3229, -101.907
3.528, -1, -47.3146, -26.4463, 51.4517, 59.3912, 39.2697, -102.022
3.531, -1, -47.3831, -26.488, 51.4758, 59.4516, 39.2165, -102.137
3.536, -1, -47.4517, -26.5297, 51.4999, 59.5121, 39.1633, -102.252
3.54, -1, -47.5202, -26.5714, 51.524, 59.5724, 39.1102, -102.367
3.544, -1, -47.5887, -26.613, 51.5481, 59.6328, 39.0571, -102.482
3.548, -1, -47.6571, -26.6546, 51.5721, 59.6931, 39.004, -102.596
3.552, -1, -47.7255, -26.6962, 51.5962, 59.7534, 38.951, -102.711
3.556, -1, -47.7939, -26.7378, 51.6202, 59.8137, 38.8979, -102.826
3.56, -1, -47.8622, -26.7794, 51.6442, 59.8739, 38.845, -102.94
3.564, -1, -47.9305, -26.8209, 51.6682, 59.9341, 38.792, -103.055
3.568, -1, -47.9987, -26.8624, 51.6922, 59.9942, 38.7391, -103.169
3.572, -1, -48.0669, -26.9039, 51.7162, 60.0543, 38.6862, -103.283
3.576, -1, -48.1351, -26.9453, 51.7402, 60.1144, 38.6333, -103.398
3.58, -1, -48.2032, -26.9868, 51.7641, 60.1744, 38.5805, -103.512
3.584, -1, -48.2713, -27.0282, 51.7881, 60.2345, 38.5277, -103.626
3.587, -1, -48.3394, -27.0696, 51.812, 60.2944, 38.4749, -103.74
3.592, -1, -48.4074, -27.111, 51.8359, 60.3544, 38.4222, -103.854
3.596, -1, -48.4754, -27.1523, 51.8598, 60.4143, 38.3694, -103.968
3.6, -1, -48.5433, -27.1936, 51.8837, 60.4742, 38.3168, -104.082
3.604, -1, -48.6112, -27.2349, 51.9076, 60.5341, 38.2641, -104.196
3.608, -1, -48.6791, -27.2762, 51.9314, 60.5939, 38.2115, -104.31
3.612, -1, -48.7469, -27.3175, 51.9553, 60.6537, 38.1589, -104.423
3.616, -1, -48.8147, -27.3587, 51.9791, 60.7134, 38.1063, -104.537
3.62, -1, -48.8825, -27.3999, 52.0029, 60.7732, 38.0537, -104.65
3.624, -1, -48.9502, -27.4411, 52.0268, 60.8328, 38.0012, -104.764
3.628, -1, -49.0179, -27.4823, 52.0506, 60.8925, 37.9487, -104.877
3.632, -1, -49.0856, -27.5234, 52.0743, 60.9521, 37.8962, -104.991
3.636, -1, -49.1532, -27.5646, 52.0981, 61.0117, 37.8438, -105.104
3.64, -1, -49.2208, -27.6057, 52.1219, 61.0713, 37.7914, -105.217
3.644, -1, -49.2883, -27.6468, 52.1456, 61.1308, 37.739, -105.331
3.648, -1, -49.3558, -27.6878, 52.1694, 61.1903, 37.6867, -105.444
3.652, -1, -49.4233, -27.7289, 52.1931, 61.2498, 37.6343, -105.557
3.656, -1, -49.4907, -27.7699, 52.2168, 61.3092, 37.582, -105.67
3.66, -1, -49.5581, -27.8109, 52.2405, 61.3687, 37.5298, -105.783
3.664, -1, -49.6255, -27.8519, 52.2642, 61.428, 37.4775, -105.896
3.668, -1, -49.6928, -27.8928, 52.2879, 61.4874, 37.4253, -106.009
3.672, -1, -49.7602, -27.9337, 52.3115, 61.5467, 37.3731, -106.122
3.676, -1, -49.8274, -27.9747, 52.3352, 61.606, 37.3209, -106.234
3.679, -1, -49.8946, -28.0156, 52.3588, 61.6653, 37.2688, -106.347
3.684, -1, -49.9618, -28.0564, 52.3824, 61.7245, 37.2167, -106.46
3.688, -1, -50.029, -28.0973, 52.406, 61.7837, 37.1646, -106.572
3.692, -1, -50.0961, -28.1381, 52.4296, 61.8428, 37.1125, -106.685
3.696, -1, -50.1632, -28.1789, 52.4532, 61.902, 37.0605, -106.797
3.7, -1, -50.2303, -28.2197, 52.4768, 61.9611, 37.0085, -106.91
3.704, -1, -50.2973, -28.2605, 52.5004, 62.0202, 36.9565, -107.022
3.708, -1, -50.3643, -28.3012, 52.5239, 62.0792, 36.9046, -107.134
3.712, -1, -50.4313, -28.3419, 52.5475, 62.1382, 36.8526, -107.246
3.716, -1, -50.4982, -28.3827, 52.571, 62.1972, 36.8007, -107.359
3.72, -1, -50.5651, -28.4233, 52.5945, 62.2562, 36.7489, -107.471
3.724, -1, -50.632, -28.464, 52.618, 62.3151, 36.697, -107.583
3.728, -1, -50.6988, -28.5047, 52.6415, 62.374, 36.6452, -107.695
3.732, -1, -50.7656, -28.5453, 52.665, 62.4329, 36.5934, -107.807
3.735, -1, -50.8323, -28.5859, 52.6885, 62.4917, 36.5416, -107.919
3.74, -1, -50.8991, -28.6265, 52.7119, 62.5506, 36.4899, -108.031
3.744, -1, -50.9658, -28.667, 52.7354, 62.6093, 36.4381, -108.142
3.748, -1, -51.0324, -28.7076, 52.7588, 62.6681, 36.3865, -108.254
3.752, -1, -51.0991, -28.7481, 52.7822, 62.7268, 36.3348, -108.366
3.756, -1, -51.1657, -28.7886, 52.8057, 62.7855, 36.2831, -108.477
3.76, -1, -51.2322, -28.8291, 52.8291, 62.8442, 36.2315, -108.589
3.764, -1, -51.2988, -28.8696, 52.8525, 62.9028, 36.1799, -108.701
3.768, -1, -51.3653, -28.91, 52.8758, 62.9615, 36.1283, -108.812
3.772, -1, -51.4317, -28.9505, 52.8992, 63.02, 36.0768, -108.923
3.776, -1, -51.4982, -28.9909, 52.9226, 63.0786, 36.0253, -109.035
3.78, -1, -51.5646, -29.0313, 52.9459, 63.1371, 35.9738, -109.146
3.784, -1, -51.631, -29.0716, 52.9693, 63.1956, 35.9223, -109.257
3.788, -1, -51.6973, -29.112, 52.9926, 63.2541, 35.8708, -109.369
3.792, -1, -51.7636, -29.1523, 53.0159, 63.3126, 35.8194, -109.48
3.796, -1, -51.8299, -29.1926, 53.0392, 63.371, 35.768, -109.591
3.8, -1, -51.8962, -29.2329, 53.0625, 63.4294, 35.7166, -109.702
3.804, -1, -51.9624, -29.2732, 53.0858, 63.4878, 35.6653, -109.813
3.808, -1, -52.0286, -29.3135, 53.1091, 63.5461, 35.6139, -109.924
3.812, -1, -52.0947, -29.3537, 53.1323, 63.6044, 35.5626, -110.035
3.816, -1, -52.1609, -29.3939, 53.1556, 63.6627, 35.5113, -110.146
3.82, -1, -52.227, -29.4341, 53.1788, 63.721, 35.4601, -110.256
3.824, -1, -52.293, -29.4743, 53.202, 63.7792, 35.4088, -110.367
3.828, -1, -52.3591, -29.5145, 53.2253, 63.8374, 35.3576, -110.478
3.832, -1, -52.4251, -29.5546, 53.2485, 63.8956, 35.3064, -110.588
3.836, -1, -52.4911, -29.5948, 53.2717, 63.9537, 35.2553, -110.699
3.84, -1, -52.557, -29.6349, 53.2948, 64.0119, 35.2041, -110.81
3.844, -1, -52.6229, -29.675, 53.318, 64.07, 35.153, -110.92
3.848, -1, -52.6888, -29.7151, 53.3412, 64.1281, 35.1019, -111.031
3.852, -1, -52.7547, -29.7551, 53.3643, 64.1861, 35.0508, -111.141
3.856, -1, -52.8205, -29.7952, 53.3875, 64.2441, 34.9998, -111.251
3.86, -1, -52.8863, -29.8352, 53.4106, 64.3021, 34.9487, -111.362
3.864, -1, -52.9521, -29.8752, 53.4338, 64.3601, 34.8977, -111.472
3.868, -1, -53.0179, -29.9152, 53.4569, 64.4181, 34.8467, -111.582
3.872, -1, -53.0836, -29.9552, 53.48, 64.476, 34.7958, -111.692
3.876, -1, -53.1492, -29.9951, 53.5031, 64.5339, 34.7448, -111.802
3.88, -1, -53.2146, -30.0349, 53.5261, 64.5918, 34.6939, -111.912
3.884, -1, -53.2798, -30.0745, 53.5492, 64.6496, 34.6431, -112.022
3.888, -1, -53.3447, -30.1139, 53.5722, 64.7073, 34.5923, -112.132
3.892, -1, -53.4091, -30.153, 53.5951, 64.7649, 34.5417, -112.242
3.896, -1, -53.4731, -30.1918, 53.6179, 64.8222, 34.4913, -112.351
3.9, -1, -53.5365, -30.2301, 53.6406, 64.8793, 34.4411, -112.459
3.904, -1, -53.5992, -30.2678, 53.6631, 64.9359, 34.3914, -112.567
3.908, -1, -53.6612, -30.3049, 53.6853, 64.9918, 34.3423, -112.673
3.912, -1, -53.7221, -30.3413, 53.7072, 65.0469, 34.2939, -112.778
3.916, -1, -53.7818, -30.3767, 53.7286, 65.101, 34.2464, -112.881
3.92, -1, -53.8399, -30.4109, 53.7495, 65.1538, 34.2001, -112.981
3.924, -1, -53.8961, -30.4439, 53.7698, 65.2051, 34.1551, -113.079
3.928, -1, -53.9502, -30.4754, 53.7893, 65.2544, 34.1118, -113.173
3.932, -1, -54.0018, -30.5053, 53.808, 65.3016, 34.0705, -113.262
3.936, -1, -54.0507, -30.5336, 53.8256, 65.3463, 34.0314, -113.347
3.94, -1, -54.0966, -30.5603, 53.8421, 65.3881, 33.9947, -113.427
3.944, -1, -54.1393, -30.5852, 53.8574, 65.4268, 33.9608, -113.5
3.948, -1, -54.1786, -30.6084, 53.8714, 65.4621, 33.9297, -113.567
3.952, -1, -54.2144, -30.6298, 53.8841, 65.494, 33.9017, -113.628
3.956, -1, -54.2466, -30.6494, 53.8954, 65.5223, 33.8768, -113.682
3.96, -1, -54.2751, -30.6671, 53.9053, 65.547, 33.855, -113.729
3.964, -1, -54.3002, -30.683, 53.9138, 65.5683, 33.8362, -113.769
3.968, -1, -54.3218, -30.6971, 53.9211, 65.5863, 33.8203, -113.804
3.972, -1, -54.3402, -30.7095, 53.9271, 65.6011, 33.8071, -113.832
3.976, -1, -54.3557, -30.7203, 53.9321, 65.6131, 33.7964, -113.855
3.98, -1, -54.3687, -30.7296, 53.936, 65.6226, 33.7879, -113.873
3.984, -1, -54.3794, -30.7374, 53.9391, 65.6299, 33.7813, -113.887
3.988, -1, -54.3881, -30.744, 53.9415, 65.6354, 33.7763, -113.897
3.992, -1, -54.3951, -30.7493, 53.9432, 65.6394, 33.7726, -113.905
3.996, 2, -54.4007, -30.7536, 53.9445, 65.6423, 33.77, -113.91
3.999, 2, -54.4049, -30.7568, 53.9454, 65.6443, 33.7681, -113.914
4.004, 2, -54.4081, -30.7592, 53.9461, 65.6456, 33.7668, -113.917
4.008, 2, -54.4104, -30.7609, 53.9465, 65.6466, 33.7659, -113.918
4.012, 2, -54.412, -30.7621, 53.9468, 65.6472, 33.7653, -113.92
4.016, 2, -54.413, -30.7629, 53.947, 65.6477, 33.7649, -113.92
4.02, 2, -54.4138, -30.7634, 53.9472, 65.6479, 33.7646, -113.921
4.024, 2, -54.4143, -30.7638, 53.9473, 65.6481, 33.7644, -113.921
4.028, 2, -54.4146, -30.7641, 53.9473, 65.6483, 33.7643, -113.922
4.032, 2, -54.4148, -30.7642, 53.9474, 65.6484, 33.7642, -113.922
4.036, 2, -54.415, -30.7643, 53.9474, 65.6484, 33.7641, -113.922
4.04, 2, -54.4151, -30.7644, 53.9474, 65.6485, 33.7641, -113.922
4.044, 2, -54.4151, -30.7645, 53.9474, 65.6485, 33.7641, -113.922
4.048, 2, -54.4152, -30.7645, 53.9474, 65.6485, 33.7641, -113.922
4.052, 2, -54.4152, -30.7645, 53.9475, 65.6485, 33.764, -113.922
4.056, 2, -54.4152, -30.7645, 53.9475, 65.6485, 33.764, -113.922
4.06, 2, -54.4153, -30.7646, 53.9475, 65.6485, 33.764, -113.922
4.064, 2, -54.4153, -30.7646, 53.9475, 65.6485, 33.764, -113.922
4.068, 2, -54.4153, -30.7646, 53.9475, 65.6486, 33.764, -113.922
4.072, 2, -54.4153, -30.7646, 53.9475, 65.6486, 33.764, -113.922
4.076, 2, -54.4153, -30.7646, 53.9475, 65.6486, 33.764, -113.922
4.08, 2, -54.4153, -30.7646, 53.9475, 65.6486, 33.764, -113.922
4.084, 2, -54.4153, -30.7646, 53.9475, 65.6486, 33.764, -113.922
4.088, 2, -54.4153, -30.7646, 53.9475, 65.6486, 33.764, -113.922
4.092, 2, -54.4153, -30.7646, 53.9475, 65.6486, 33.764, -113.922
4.096, 2, -54.4153, -30.7646, 53.9475, 65.6486, 33.764, -113.922
4.1, 2, -54.4153, -30.7646, 53.9475, 65.6486, 33.764, -113.922
4.104, 2, -54.4153, -30.7646, 53.9475, 65.6486, 33.764, -113.922
4.108, 2, -54.4153, -30.7646, 53.9475, 65.6486, 33.764, -113.922
4.112, 2, -54.4153, -30.7646, 53.9475, 65.6486, 33.764, -113.922
4.116, 2, -54.4153, -30.7646, 53.9475, 65.6486, 33.764, -113.922
4.12, 2, -54.4153, -30.7646, 53.9475, 65.6486, 33.764, -113.922
4.124, 2, -54.4153, -30.7646, 53.9475, 65.6486, 33.764, -113.922
4.128, 2, -54.4153, -30.7646, 53.9475, 65.6486, 33.764, -113.922
4.132, 2, -54.4153, -30.7646, 53.9475, 65.6486, 33.764, -113.922
4.136, 2, -54.4153, -30.7646, 53.9475, 65.6486, 33.764, -113.922
4.14, 2, -54.4153, -30.7646, 53.9475, 65.6486, 33.764, -113.922
4.144, 2, -54.4153, -30.7646, 53.9475, 65.6486, 33.764, -113.922
4.148, 2, -54.4153, -30.7646, 53.9475, 65.6486, 33.764, -113.922
4.152, 2, -54.4153, -30.7646, 53.9475, 65.6486, 33.764, -113.922
4.156, 2, -54.4153, -30.7646, 53.9475, 65.6486, 33.764, -113.922
4.16, 2, -54.4153, -30.7646, 53.9475, 65.6486, 33.764, -113.922
4.164, 2, -54.4153, -30.7646, 53.9475, 65.6486, 33.764, -113.922
4.168, 2, -54.4153, -30.7646, 53.9475, 65.6486, 33.764, -113.922
4.172, 2, -54.4153, -30.7646, 53.9475, 65.6486, 33.764, -113.922
4.176, 2, -54.4153, -30.7646, 53.9475, 65.6486, 33.764, -113.922
4.18, 2, -54.4153, -30.7646, 53.9475, 65.6486, 33.764, -113.922
4.184, 2, -54.4153, -30.7646, 53.9475, 65.6486, 33.764, -113.922
4.188, 2, -54.4153, -30.7646, 53.9475, 65.6486, 33.764, -113.922
4.192, 2, -54.4153, -30.7646, 53.9475, 65.6486, 33.764, -113.922
4.196, 2, -54.4153, -30.7646, 53.9475, 65.6486, 33.764, -113.922
4.2, 2, -54.4153, -30.7646, 53.9475, 65.6486, 33.764, -113.922
4.204, 2, -54.4153, -30.7646, 53.9475, 65.6486, 33.764, -113.922
4.208, 2, -54.4153, -30.7646, 53.9475, 65.6486, 33.764, -113.922
4.212, 2, -54.4153, -30.7646, 53.9475, 65.6486, 33.764, -113.922
4.216, 2, -54.4153, -30.7646, 53.9475, 65.6486, 33.764, -113.922
4.22, 2, -54.4153, -30.7646, 53.9475, 65.6486, 33.764, -113.922
4.224, 2, -54.4153, -30.7646, 53.9475, 65.6486, 33.764, -113.922
4.228, 2, -54.4153, -30.7646, 53.9475, 65.6486, 33.764, -113.922
4.232, 2, -54.4153, -30.7646, 53.9475, 65.6486, 33.764, -113.922
4.236, 2, -54.4153, -30.7646, 53.9475, 65.6486, 33.764, -113.922
4.24, 2, -54.4153, -30.7646, 53.9475, 65.6486, 33.764, -113.922
4.244, 2, -54.4153, -30.7646, 53.9475, 65.6486, 33.764, -113.922
4.248, 2, -54.4153, -30.7646, 53.9475, 65.6486, 33.764, -113.922
4.252, 2, -54.4153, -30.7646, 53.9475, 65.6486, 33.764, -113.922
4.256, 2, -54.4153, -30.7646, 53.9475, 65.6486, 33.764, -113.922
4.26, 2, -54.4153, -30.7646, 53.9475, 65.6486, 33.764, -113.922
4.264, 2, -54.4153, -30.7646, 53.9475, 65.6486, 33.764, -113.922
4.268, 2, -54.4153, -30.7646, 53.9475, 65.6486, 33.764, -113.922
4.272, 2, -54.4153, -30.7646, 53.9475, 65.6486, 33.764, -113.922
4.276, 2, -54.4153, -30.7646, 53.9475, 65.6486, 33.764, -113.922
4.28, 2, -54.4153, -30.7646, 53.9475, 65.6486, 33.764, -113.922
4.284, 2, -54.4153, -30.7646, 53.9475, 65.6486, 33.764, -113.922
4.288, 2, -54.4153, -30.7646, 53.9475, 65.6486, 33.764, -113.922
4.292, 2, -54.4153, -30.7646, 53.9475, 65.6486, 33.764, -113.922
4.296, 2, -54.4153, -30.7646, 53.9475, 65.6486, 33.764, -113.922
4.3, 2, -54.4153, -30.7646, 53.9475, 65.6486, 33.764, -113.922
4.304, 2, -54.4153, -30.7646, 53.9475, 65.6486, 33.764, -113.922
4.308, 2, -54.4153, -30.7646, 53.9475, 65.6486, 33.764, -113.922
4.312, 2, -54.4153, -30.7646, 53.9475, 65.6486, 33.764, -113.922
4.316, 2, -54.4153, -30.7646, 53.9475, 65.6486, 33.764, -113.922
4.32, 2, -54.4153, -30.7646, 53.9475, 65.6486, 33.764, -113.922
4.324, 2, -54.4153, -30.7646, 53.9475, 65.6486, 33.764, -113.922
4.328, 2, -54.4153, -30.7646, 53.9475, 65.6486, 33.764, -113.922
4.332, 2, -54.4153, -30.7646, 53.9475, 65.6486, 33.764, -113.922
4.336, 2, -54.4153, -30.7646, 53.9475, 65.6486, 33.764, -113.922
4.34, 2, -54.4153, -30.7646, 53.9475, 65.6486, 33.764, -113.922
4.344, 2, -54.4153, -30.7646, 53.9475, 65.6486, 33.764, -113.922
4.348, 2, -54.4153, -30.7646, 53.9475, 65.6486, 33.764, -113.922
4.352, 2, -54.4153, -30.7646, 53.9475, 65.6486, 33.764, -113.922
4.356, 2, -54.4153, -30.7646, 53.9475, 65.6486, 33.764, -113.922
4.36, 2, -54.4153, -30.7646, 53.9475, 65.6486, 33.764, -113.922
4.364, 2, -54.4153, -30.7646, 53.9475, 65.6486, 33.764, -113.922
4.368, 2, -54.4153, -30.7646, 53.9475, 65.6486, 33.764, -113.922
4.372, 2, -54.4153, -30.7646, 53.9475, 65.6486, 33.764, -113.922
4.376, 2, -54.4153, -30.7646, 53.9475, 65.6486, 33.764, -113.922
4.38, 2, -54.4153, -30.7646, 53.9475, 65.6486, 33.764, -113.922
4.384, 2, -54.4153, -30.7646, 53.9475, 65.6486, 33.764, -113.922
4.388, 2, -54.4153, -30.7646, 53.9475, 65.6486, 33.764, -113.922
4.392, 2, -54.4153, -30.7646, 53.9475, 65.6486, 33.764, -113.922
4.396, 2, -54.4153, -30.7646, 53.9475, 65.6486, 33.764, -113.922
4.4, 2, -54.4153, -30.7646, 53.9475, 65.6486, 33.764, -113.922
4.404, 2, -54.4153, -30.7646, 53.9475, 65.6486, 33.764, -113.922
4.408, 2, -54.4153, -30.7646, 53.9475, 65.6486, 33.764, -113.922
4.412, 2, -54.4153, -30.7646, 53.9475, 65.6486, 33.764, -113.922
4.416, 2, -54.4153, -30.7646, 53.9475, 65.6486, 33.764, -113.922
4.42, 2, -54.4153, -30.7646, 53.9475, 65.6486, 33.764, -113.922
4.424, 2, -54.4153, -30.7646, 53.9475, 65.6486, 33.764, -113.922
4.428, 2, -54.4153, -30.7646, 53.9475, 65.6486, 33.764, -113.922
4.432, 2, -54.4153, -30.7646, 53.9475, 65.6486, 33.764, -113.922
4.436, 2, -54.4153, -30.7646, 53.9475, 65.6486, 33.764, -113.922
4.44, 2, -54.4153, -30.7646, 53.9475, 65.6486, 33.764, -113.922
4.444, 2, -54.4153, -30.7646, 53.9475, 65.6486, 33.764, -113.922
4.448, 2, -54.4153, -30.7646, 53.9475, 65.6486, 33.764, -113.922
4.452, 2, -54.4153, -30.7646, 53.9475, 65.6486, 33.764, -113.922
4.456, 2, -54.4153, -30.7646, 53.9475, 65.6486, 33.764, -113.922
4.46, 2, -54.4153, -30.7646, 53.9475, 65.6486, 33.764, -113.922
4.464, 2, -54.4153, -30.7646, 53.9475, 65.6486, 33.764, -113.922
4.468, 2, -54.4153, -30.7646, 53.9475, 65.6486, 33.764, -113.922
4.472, 2, -54.4153, -30.7646, 53.9475, 65.6486, 33.764, -113.922
4.476, 2, -54.4153, -30.7646, 53.9475, 65.6486, 33.764, -113.922
4.48, 2, -54.4153, -30.7646, 53.9475, 65.6486, 33.764, -113.922
4.484, 2, -54.4153, -30.7646, 53.9475, 65.6486, 33.764, -113.922
4.488, 2, -54.4153, -30.7646, 53.9475, 65.6486, 33.764, -113.922
4.492, 2, -54.4153, -30.7646, 53.9475, 65.6486, 33.764, -113.922
4.496, 2, -54.4153, -30.7646, 53.9475, 65.6486, 33.764, -113.922
4.5, 2, -54.4153, -30.7646, 53.9475, 65.6486, 33.764, -113.922
4.504, 2, -54.4153, -30.7646, 53.9475, 65.6486, 33.764, -113.922
4.508, 2, -54.4153, -30.7646, 53.9475, 65.6486, 33.764, -113.922
4.512, 2, -54.4153, -30.7646, 53.9475, 65.6486, 33.764, -113.922
4.516, 2, -54.4153, -30.7646, 53.9475, 65.6486, 33.764, -113.922
4.52, 2, -54.4153, -30.7646, 53.9475, 65.6486, 33.764, -113.922
4.524, 2, -54.4153, -30.7646, 53.9475, 65.6486, 33.764, -113.922
4.528, 2, -54.4153, -30.7646, 53.9475, 65.6486, 33.764, -113.922
4.532, 2, -54.4153, -30.7646, 53.9475, 65.6486, 33.764, -113.922
4.536, 2, -54.4153, -30.7646, 53.9475, 65.6486, 33.764, -113.922
4.54, 2, -54.4153, -30.7646, 53.9475, 65.6486, 33.764, -113.922
4.544, 2, -54.4153, -30.7646, 53.9475, 65.6486, 33.764, -113.922
4.548, 2, -54.4153, -30.7646, 53.9475, 65.6486, 33.764, -113.922
4.552, 2, -54.4153, -30.7646, 53.9475, 65.6486, 33.764, -113.922
4.556, 2, -54.4153, -30.7646, 53.9475, 65.6486, 33.764, -113.922
4.56, 2, -54.4153, -30.7646, 53.9475, 65.6486, 33.764, -113.922
4.564, 2, -54.4153, -30.7646, 53.9475, 65.6486, 33.764, -113.922
4.568, 2, -54.4153, -30.7646, 53.9475, 65.6486, 33.764, -113.922
4.572, 2, -54.4153, -30.7646, 53.9475, 65.6486, 33.764, -113.922
4.576, 2, -54.4153, -30.7646, 53.9475, 65.6486, 33.764, -113.922
4.58, 2, -54.4153, -30.7646, 53.9475, 65.6486, 33.764, -113.922
4.584, 2, -54.4153, -30.7646, 53.9475, 65.6486, 33.764, -113.922
4.588, 2, -54.4153, -30.7646, 53.9475, 65.6486, 33.764, -113.922
4.592, 2, -54.4153, -30.7646, 53.9475, 65.6486, 33.764, -113.922
4.596, 2, -54.4153, -30.7646, 53.9475, 65.6486, 33.764, -113.922
4.6, 2, -54.4153, -30.7646, 53.9475, 65.6486, 33.764, -113.922
4.604, 2, -54.4153, -30.7646, 53.9475, 65.6486, 33.764, -113.922
4.608, 2, -54.4153, -30.7646, 53.9475, 65.6486, 33.764, -113.922
4.612, 2, -54.4153, -30.7646, 53.9475, 65.6486, 33.764, -113.922
4.616, 2, -54.4153, -30.7646, 53.9475, 65.6486, 33.764, -113.922
4.62, 2, -54.4153, -30.7646, 53.9475, 65.6486, 33.764, -113.922
4.624, 2, -54.4153, -30.7646, 53.9475, 65.6486, 33.764, -113.922
4.628, 2, -54.4153, -30.7646, 53.9475, 65.6486, 33.764, -113.922
4.632, 2, -54.4153, -30.7646, 53.9475, 65.6486, 33.764, -113.922
4.636, 2, -54.4153, -30.7646, 53.9475, 65.6486, 33.764, -113.922
4.64, 2, -54.4153, -30.7646, 53.9475, 65.6486, 33.764, -113.922
4.644, 2, -54.4153, -30.7646, 53.9475, 65.6486, 33.764, -113.922
4.648, 2, -54.4153, -30.7646, 53.9475, 65.6486, 33.764, -113.922
4.652, 2, -54.4153, -30.7646, 53.9475, 65.6486, 33.764, -113.922
4.656, 2, -54.4153, -30.7646, 53.9475, 65.6486, 33.764, -113.922
4.66, 2, -54.4153, -30.7646, 53.9475, 65.6486, 33.764, -113.922
4.664, 2, -54.4153, -30.7646, 53.9475, 65.6486, 33.764, -113.922
4.668, 2, -54.4153, -30.7646, 53.9475, 65.6486, 33.764, -113.922
4.672, 2, -54.4153, -30.7646, 53.9475, 65.6486, 33.764, -113.922
4.676, 2, -54.4153, -30.7646, 53.9475, 65.6486, 33.764, -113.922
4.68, 2, -54.4153, -30.7646, 53.9475, 65.6486, 33.764, -113.922
4.684, 2, -54.4153, -30.7646, 53.9475, 65.6486, 33.764, -113.922
4.688, 2, -54.4153, -30.7646, 53.9475, 65.6486, 33.764, -113.922
4.692, 2, -54.4153, -30.7646, 53.9475, 65.6486, 33.764, -113.922
4.696, 2, -54.4153, -30.7646, 53.9475, 65.6486, 33.764, -113.922
4.7, 2, -54.4153, -30.7646, 53.9475, 65.6486, 33.764, -113.922
4.704, 2, -54.4153, -30.7646, 53.9475, 65.6486, 33.764, -113.922
4.708, 2, -54.4153, -30.7646, 53.9475, 65.6486, 33.764, -113.922
4.712, 2, -54.4153, -30.7646, 53.9475, 65.6486, 33.764, -113.922
4.716, 2, -54.4153, -30.7646, 53.9475, 65.6486, 33.764, -113.922
4.72, 2, -54.4153, -30.7646, 53.9475, 65.6486, 33.764, -113.922
4.724, 2, -54.4153, -30.7646, 53.9475, 65.6486, 33.764, -113.922
4.728, 2, -54.4153, -30.7646, 53.9475, 65.6486, 33.764, -113.922
4.732, 2, -54.4153, -30.7646, 53.9475, 65.6486, 33.764, -113.922
4.736, 2, -54.4153, -30.7646, 53.9475, 65.6486, 33.764, -113.922
4.74, 2, -54.4153, -30.7646, 53.9475, 65.6486, 33.764, -113.922
4.744, 2, -54.4153, -30.7646, 53.9475, 65.6486, 33.764, -113.922
4.748, 2, -54.4153, -30.7646, 53.9475, 65.6486, 33.764, -113.922
4.752, 2, -54.4153, -30.7646, 53.9475, 65.6486, 33.764, -113.922
4.756, 2, -54.4153, -30.7646, 53.9475, 65.6486, 33.764, -113.922
4.76, 2, -54.4153, -30.7646, 53.9475, 65.6486, 33.764, -113.922
4.764, 2, -54.4153, -30.7646, 53.9475, 65.6486, 33.764, -113.922
4.768, 2, -54.4153, -30.7646, 53.9475, 65.6486, 33.764, -113.922
4.772, 2, -54.4153, -30.7646, 53.9475, 65.6486, 33.764, -113.922
4.776, 2, -54.4153, -30.7646, 53.9475, 65.6486, 33.764, -113.922
4.78, 2, -54.4153, -30.7646, 53.9475, 65.6486, 33.764, -113.922
4.784, 2, -54.4153, -30.7646, 53.9475, 65.6486, 33.764, -113.922
4.788, 2, -54.4153, -30.7646, 53.9475, 65.6486, 33.764, -113.922
4.792, 2, -54.4153, -30.7646, 53.9475, 65.6486, 33.764, -113.922
4.796, 2, -54.4153, -30.7646, 53.9475, 65.6486, 33.764, -113.922
4.8, 2, -54.4153, -30.7646, 53.9475, 65.6486, 33.764, -113.922
4.804, 2, -54.4153, -30.7646, 53.9475, 65.6486, 33.764, -113.922
4.808, 2, -54.4153, -30.7646, 53.9475, 65.6486, 33.764, -113.922
4.812, 2, -54.4153, -30.7646, 53.9475, 65.6486, 33.764, -113.922
4.816, 2, -54.4153, -30.7646, 53.9475, 65.6486, 33.764, -113.922
4.82, 2, -54.4153, -30.7646, 53.9475, 65.6486, 33.764, -113.922
4.824, 2, -54.4153, -30.7646, 53.9475, 65.6486, 33.764, -113.922
4.828, 2, -54.4153, -30.7646, 53.9475, 65.6486, 33.764, -113.922
4.832, 2, -54.4153, -30.7646, 53.9475, 65.6486, 33.764, -113.922
4.836, 2, -54.4153, -30.7646, 53.9475, 65.6486, 33.764, -113.922
4.84, 2, -54.4153, -30.7646, 53.9475, 65.6486, 33.764, -113.922
4.844, 2, -54.4153, -30.7646, 53.9475, 65.6486, 33.764, -113.922
4.848, 2, -54.4153, -30.7646, 53.9475, 65.6486, 33.764, -113.922
4.852, 2, -54.4153, -30.7646, 53.9475, 65.6486, 33.764, -113.922
4.856, 2, -54.4153, -30.7646, 53.9475, 65.6486, 33.764, -113.922
4.86, 2, -54.4153, -30.7646, 53.9475, 65.6486, 33.764, -113.922
4.864, 2, -54.4153, -30.7646, 53.9475, 65.6486, 33.764, -113.922
4.868, 2, -54.4153, -30.7646, 53.9475, 65.6486, 33.764, -113.922
4.872, 2, -54.4153, -30.7646, 53.9475, 65.6486, 33.764, -113.922
4.876, 2, -54.4153, -30.7646, 53.9475, 65.6486, 33.764, -113.922
4.88, 2, -54.4153, -30.7646, 53.9475, 65.6486, 33.764, -113.922
4.884, 2, -54.4153, -30.7646, 53.9475, 65.6486, 33.764, -113.922
4.888, 2, -54.4153, -30.7646, 53.9475, 65.6486, 33.764, -113.922
4.892, 2, -54.4153, -30.7646, 53.9475, 65.6486, 33.764, -113.922
4.896, 2, -54.4153, -30.7646, 53.9475, 65.6486, 33.764, -113.922
4.9, 2, -54.4153, -30.7646, 53.9475, 65.6486, 33.764, -113.922
4.904, 2, -54.4153, -30.7646, 53.9475, 65.6486, 33.764, -113.922
4.908, 2, -54.4153, -30.7646, 53.9475, 65.6486, 33.764, -113.922
4.912, 2, -54.4153, -30.7646, 53.9475, 65.6486, 33.764, -113.922
4.916, 2, -54.4153, -30.7646, 53.9475, 65.6486, 33.764, -113.922
4.92, 2, -54.4153, -30.7646, 53.9475, 65.6486, 33.764, -113.922
4.924, 2, -54.4153, -30.7646, 53.9475, 65.6486, 33.764, -113.922
4.928, 2, -54.4153, -30.7646, 53.9475, 65.6486, 33.764, -113.922
4.932, 2, -54.4153, -30.7646, 53.9475, 65.6486, 33.764, -113.922
4.936, 2, -54.4153, -30.7646, 53.9475, 65.6486, 33.764, -113.922
4.94, 2, -54.4153, -30.7646, 53.9475, 65.6486, 33.764, -113.922
4.944, 2, -54.4153, -30.7646, 53.9475, 65.6486, 33.764, -113.922
4.948, 2, -54.4153, -30.7646, 53.9475, 65.6486, 33.764, -113.922
4.952, 2, -54.4153, -30.7646, 53.9475, 65.6486, 33.764, -113.922
4.956, 2, -54.4153, -30.7646, 53.9475, 65.6486, 33.764, -113.922
4.96, 2, -54.4153, -30.7646, 53.9475, 65.6486, 33.764, -113.922
4.964, 2, -54.4153, -30.7646, 53.9475, 65.6486, 33.764, -113.922
4.968, 2, -54.4153, -30.7646, 53.9475, 65.6486, 33.764, -113.922
4.972, 2, -54.4153, -30.7646, 53.9475, 65.6486, 33.764, -113.922
4.976, 2, -54.4153, -30.7646, 53.9475, 65.6486, 33.764, -113.922
4.98, 2, -54.4153, -30.7646, 53.9475, 65.6486, 33.764, -113.922
4.984, 2, -54.4153, -30.7646, 53.9475, 65.6486, 33.764, -113.922
4.988, 2, -54.4153, -30.7646, 53.9475, 65.6486, 33.764, -113.922
4.992, 2, -54.4153, -30.7646, 53.9475, 65.6486, 33.764, -113.922
4.996, 2, -54.4153, -30.7646, 53.9475, 65.6486, 33.764, -113.922
5, 2, -54.4153, -30.7646, 53.9475, 65.6486, 33.764, -113.922
5.004, 2, -54.4153, -30.7646, 53.9475, 65.6486, 33.764, -113.922
5.008, 2, -54.4153, -30.7646, 53.9475, 65.6486, 33.764, -113.922
5.012, 2, -54.4153, -30.7646, 53.9475, 65.6486, 33.764, -113.922
5.016, 2, -54.4153, -30.7646, 53.9475, 65.6486, 33.764, -113.922
5.02, 2, -54.4153, -30.7646, 53.9475, 65.6486, 33.764, -113.922
5.024, 2, -54.4153, -30.7646, 53.9475, 65.6486, 33.764, -113.922
5.028, 2, -54.4153, -30.7646, 53.9475, 65.6486, 33.764, -113.922
5.032, 2, -54.4153, -30.7646, 53.9475, 65.6486, 33.764, -113.922
5.036, 2, -54.4153, -30.7646, 53.9475, 65.6486, 33.764, -113.922
5.04, 2, -54.4153, -30.7646, 53.9475, 65.6486, 33.764, -113.922
5.044, 2, -54.4153, -30.7646, 53.9475, 65.6486, 33.764, -113.922
5.048, 2, -54.4153, -30.7646, 53.9475, 65.6486, 33.764, -113.922
5.052, 4, -54.4153, -30.7646, 53.9475, 65.6486, 33.764, -113.922
5.056, 4, -54.4153, -30.7646, 53.9475, 65.6486, 33.764, -113.922
5.06, 4, -54.4153, -30.7646, 53.9475, 65.6486, 33.764, -113.922
5.064, 4, -54.4153, -30.7646, 53.9475, 65.6486, 33.764, -113.922
5.068, 4, -54.4153, -30.7646, 53.9475, 65.6486, 33.764, -113.922
5.072, 4, -54.4153, -30.7646, 53.9475, 65.6486, 33.764, -113.922
5.076, 4, -54.4153, -30.7646, 53.9475, 65.6486, 33.764, -113.922
5.08, 4, -54.4153, -30.7646, 53.9475, 65.6486, 33.764, -113.922
5.084, 4, -54.4153, -30.7646, 53.9475, 65.6486, 33.764, -113.922
5.088, 4, -54.4153, -30.7646, 53.9475, 65.6486, 33.764, -113.922
5.092, 4, -54.4153, -30.7646, 53.9475, 65.6486, 33.764, -113.922
5.096, 4, -54.4153, -30.7646, 53.9475, 65.6486, 33.764, -113.922
5.1, 4, -54.4153, -30.7646, 53.9475, 65.6486, 33.764, -113.922
5.104, 4, -54.4153, -30.7646, 53.9475, 65.6486, 33.764, -113.922
5.108, 4, -54.4153, -30.7646, 53.9475, 65.6486, 33.764, -113.922
5.112, 4, -54.4153, -30.7646, 53.9475, 65.6486, 33.764, -113.922
5.116, 4, -54.4153, -30.7646, 53.9475, 65.6486, 33.764, -113.922
5.12, 4, -54.4153, -30.7646, 53.9475, 65.6486, 33.764, -113.922
5.124, 4, -54.4153, -30.7646, 53.9475, 65.6486, 33.764, -113.922
5.128, 4, -54.4153, -30.7646, 53.9475, 65.6486, 33.764, -113.922
5.132, 4, -54.4153, -30.7646, 53.9475, 65.6486, 33.764, -113.922
5.136, 4, -54.4153, -30.7646, 53.9475, 65.6486, 33.764, -113.922
5.14, 4, -54.4153, -30.7646, 53.9475, 65.6486, 33.764, -113.922
5.144, 4, -54.4153, -30.7646, 53.9475, 65.6486, 33.764, -113.922
5.148, 4, -54.4153, -30.7646, 53.9475, 65.6486, 33.764, -113.922
5.152, 4, -54.4153, -30.7646, 53.9475, 65.6486, 33.764, -113.922
5.158, 4, -54.4153, -30.7646, 53.9475, 65.6486, 33.764, -113.922
5.16, 4, -54.4153, -30.7646, 53.9475, 65.6486, 33.764, -113.922
5.163, 4, -54.4153, -30.7646, 53.9475, 65.6486, 33.764, -113.922
5.17, 4, -54.4153, -30.7646, 53.9475, 65.6486, 33.764, -113.922
5.174, 4, -54.4153, -30.7646, 53.9475, 65.6486, 33.764, -113.922
5.178, 4, -54.4153, -30.7646, 53.9475, 65.6486, 33.764, -113.922
5.18, 4, -54.4153, -30.7646, 53.9475, 65.6486, 33.764, -113.922
5.184, 4, -54.4153, -30.7646, 53.9475, 65.6486, 33.764, -113.922
5.188, 4, -54.4153, -30.7647, 53.9475, 65.6486, 33.764, -113.922
5.192, 4, -54.4152, -30.7649, 53.9476, 65.6485, 33.7641, -113.922
5.196, 4, -54.415, -30.7653, 53.9477, 65.6485, 33.7641, -113.922
5.2, 4, -54.4148, -30.766, 53.948, 65.6485, 33.7643, -113.922
5.204, 4, -54.4144, -30.7671, 53.9484, 65.6484, 33.7646, -113.921
5.208, 4, -54.4138, -30.7688, 53.9492, 65.6482, 33.7651, -113.92
5.212, 4, -54.4131, -30.7711, 53.9503, 65.6479, 33.766, -113.919
5.216, 4, -54.4122, -30.7742, 53.9519, 65.6474, 33.7674, -113.916
5.22, 4, -54.411, -30.7782, 53.9542, 65.6466, 33.7695, -113.913
5.224, 5, -54.4096, -30.7835, 53.9573, 65.6455, 33.7725, -113.907
5.228, 5, -54.4079, -30.7901, 53.9616, 65.6439, 33.7768, -113.899
5.232, 5, -54.4059, -30.7983, 53.9671, 65.6418, 33.7825, -113.889
5.236, 5, -54.4036, -30.8083, 53.9741, 65.639, 33.79, -113.875
5.24, 5, -54.401, -30.8201, 53.9829, 65.6355, 33.7996, -113.857
5.244, 5, -54.3983, -30.8336, 53.9936, 65.631, 33.8116, -113.834
5.248, 5, -54.3954, -30.8491, 54.0064, 65.6256, 33.8263, -113.807
5.252, 5, -54.3924, -30.8664, 54.0215, 65.6191, 33.8439, -113.773
5.256, 5, -54.3894, -30.8856, 54.0389, 65.6115, 33.8645, -113.734
5.26, 5, -54.3862, -30.9068, 54.0587, 65.6028, 33.8883, -113.689
5.264, 5, -54.3829, -30.9301, 54.0809, 65.5929, 33.9153, -113.638
5.268, 5, -54.3795, -30.9554, 54.1055, 65.5821, 33.9452, -113.582
5.272, 5, -54.3759, -30.9828, 54.1325, 65.5702, 33.9781, -113.519
5.276, 5, -54.3722, -31.0122, 54.1615, 65.5575, 34.0136, -113.452
5.28, 5, -54.3682, -31.0433, 54.1925, 65.544, 34.0516, -113.381
5.284, 5, -54.3641, -31.0761, 54.2252, 65.5298, 34.0918, -113.305
5.288, 5, -54.3598, -31.1104, 54.2594, 65.5152, 34.1337, -113.226
5.292, 5, -54.3551, -31.1463, 54.295, 65.5001, 34.1772, -113.144
5.296, 5, -54.3502, -31.1835, 54.3316, 65.4849, 34.2218, -113.061
5.3, 5, -54.3451, -31.222, 54.3692, 65.4694, 34.2674, -112.975
5.304, 5, -54.3396, -31.2617, 54.4074, 65.4539, 34.3136, -112.889
5.308, 5, -54.3338, -31.3022, 54.4462, 65.4385, 34.3604, -112.802
5.312, 5, -54.3278, -31.3434, 54.4855, 65.4231, 34.4074, -112.715
5.316, 5, -54.3217, -31.3852, 54.525, 65.4079, 34.4547, -112.627
5.32, 5, -54.3155, -31.4273, 54.5647, 65.3928, 34.5022, -112.539
5.324, 5, -54.3092, -31.4696, 54.6046, 65.3778, 34.5498, -112.452
5.328, 5, -54.3029, -31.5121, 54.6446, 65.3631, 34.5974, -112.364
5.332, 5, -54.2965, -31.5547, 54.6847, 65.3485, 34.6451, -112.276
5.336, 5, -54.2901, -31.5974, 54.7248, 65.3341, 34.6928, -112.189
5.34, 5, -54.2837, -31.6401, 54.765, 65.3199, 34.7405, -112.102
5.344, 5, -54.2772, -31.6829, 54.8052, 65.3059, 34.7882, -112.014
5.348, 5, -54.2708, -31.7256, 54.8455, 65.2921, 34.836, -111.927
5.352, 5, -54.2643, -31.7684, 54.8858, 65.2785, 34.8837, -111.841
5.356, 5, -54.2579, -31.8112, 54.9262, 65.2651, 34.9315, -111.754
5.36, 5, -54.2514, -31.854, 54.9666, 65.2519, 34.9792, -111.668
5.364, 5, -54.245, -31.8968, 55.007, 65.2389, 35.0269, -111.581
5.368, 5, -54.2385, -31.9396, 55.0474, 65.2261, 35.0747, -111.495
5.372, 5, -54.2321, -31.9824, 55.0879, 65.2135, 35.1224, -111.409
5.376, 5, -54.2256, -32.0252, 55.1284, 65.2011, 35.1701, -111.324
5.38, 5, -54.2191, -32.068, 55.1689, 65.1889, 35.2179, -111.238
5.384, 5, -54.2127, -32.1108, 55.2095, 65.1769, 35.2656, -111.153
5.388, 5, -54.2062, -32.1535, 55.25, 65.165, 35.3133, -111.067
5.392, 5, -54.1997, -32.1963, 55.2907, 65.1534, 35.361, -110.982
5.396, 5, -54.1932, -32.2391, 55.3313, 65.142, 35.4087, -110.898
5.4, 5, -54.1868, -32.2819, 55.372, 65.1307, 35.4563, -110.813
5.404, 5, -54.1803, -32.3247, 55.4127, 65.1196, 35.504, -110.728
5.408, 5, -54.1738, -32.3675, 55.4534, 65.1088, 35.5517, -110.644
5.412, 5, -54.1673, -32.4102, 55.4942, 65.0981, 35.5994, -110.56
5.416, 5, -54.1608, -32.453, 55.5349, 65.0876, 35.647, -110.476
5.42, 5, -54.1543, -32.4958, 55.5758, 65.0773, 35.6947, -110.392
5.424, 5, -54.1479, -32.5385, 55.6166, 65.0671, 35.7423, -110.308
5.428, 5, -54.1414, -32.5813, 55.6575, 65.0572, 35.7899, -110.225
5.432, 5, -54.1349, -32.6241, 55.6984, 65.0474, 35.8375, -110.142
5.436, 5, -54.1284, -32.6669, 55.7393, 65.0379, 35.8852, -110.058
5.44, 5, -54.1219, -32.7096, 55.7803, 65.0285, 35.9328, -109.975
5.444, 5, -54.1154, -32.7524, 55.8212, 65.0193, 35.9803, -109.893
5.448, 5, -54.1088, -32.7951, 55.8623, 65.0102, 36.0279, -109.81
5.452, 5, -54.1023, -32.8379, 55.9033, 65.0014, 36.0755, -109.727
5.456, 5, -54.0958, -32.8807, 55.9444, 64.9927, 36.1231, -109.645
5.459, 5, -54.0893, -32.9234, 55.9855, 64.9842, 36.1706, -109.563
5.464, 5, -54.0828, -32.9662, 56.0266, 64.9759, 36.2181, -109.481
5.468, 5, -54.0762, -33.009, 56.0678, 64.9678, 36.2657, -109.399
5.472, 5, -54.0697, -33.0517, 56.109, 64.9598, 36.3132, -109.317
5.476, 5, -54.0632, -33.0945, 56.1502, 64.952, 36.3607, -109.236
5.48, 5, -54.0566, -33.1373, 56.1915, 64.9444, 36.4082, -109.154
5.484, 5, -54.0501, -33.18, 56.2328, 64.937, 36.4557, -109.073
5.488, 5, -54.0435, -33.2228, 56.2741, 64.9297, 36.5031, -108.992
5.492, 5, -54.037, -33.2655, 56.3154, 64.9227, 36.5506, -108.911
5.496, 5, -54.0304, -33.3083, 56.3568, 64.9157, 36.5981, -108.83
5.5, 5, -54.0239, -33.3511, 56.3982, 64.909, 36.6455, -108.75
5.504, 5, -54.0173, -33.3938, 56.4397, 64.9024, 36.6929, -108.669
5.508, 5, -54.0108, -33.4366, 56.4811, 64.896, 36.7403, -108.589
5.512, 5, -54.0042, -33.4794, 56.5226, 64.8898, 36.7877, -108.509
5.516, 5, -53.9976, -33.5221, 56.5642, 64.8838, 36.8351, -108.429
5.52, 5, -53.991, -33.5649, 56.6057, 64.8779, 36.8825, -108.349
5.524, 5, -53.9843, -33.6077, 56.6473, 64.8721, 36.9298, -108.269
5.528, 5, -53.9775, -33.6505, 56.6889, 64.8665, 36.9772, -108.19
5.532, 5, -53.9705, -33.6933, 56.7304, 64.861, 37.0245, -108.11
5.536, 5, -53.9633, -33.7362, 56.7719, 64.8554, 37.0717, -108.031
5.54, 5, -53.9557, -33.779, 56.8133, 64.8496, 37.1187, -107.951
5.544, 5, -53.9478, -33.8219, 56.8545, 64.8433, 37.1656, -107.87
5.548, 5, -53.9394, -33.8648, 56.8955, 64.8363, 37.2121, -107.789
5.552, 5, -53.9306, -33.9077, 56.9362, 64.8282, 37.2582, -107.707
5.556, 5, -53.9211, -33.9507, 56.9765, 64.8184, 37.3037, -107.623
5.56, 5, -53.911, -33.9936, 57.0162, 64.8065, 37.3484, -107.537
5.564, 6, -53.9, -34.0367, 57.0554, 64.792, 37.3921, -107.449
5.568, 6, -53.8881, -34.0797, 57.0938, 64.7743, 37.4346, -107.357
5.572, 6, -53.875, -34.1228, 57.1314, 64.7527, 37.4758, -107.261
5.576, 6, -53.8606, -34.1659, 57.168, 64.7268, 37.5155, -107.161
5.58, 6, -53.8449, -34.209, 57.2036, 64.6959, 37.5535, -107.056
5.584, 6, -53.8278, -34.252, 57.2381, 64.6597, 37.5897, -106.945
5.588, 6, -53.8091, -34.2951, 57.2714, 64.6177, 37.6241, -106.829
5.592, 6, -53.7888, -34.3381, 57.3036, 64.5698, 37.6565, -106.706
5.596, 6, -53.7669, -34.3811, 57.3345, 64.5159, 37.6869, -106.578
5.6, 6, -53.7433, -34.4241, 57.3642, 64.456, 37.7155, -106.442
5.604, 6, -53.718, -34.467, 57.3927, 64.3901, 37.7423, -106.301
5.608, 6, -53.691, -34.51, 57.42, 64.3184, 37.7673, -106.154
5.612, 7, -53.6624, -34.5529, 57.4461, 64.2412, 37.7908, -106
5.616, 7, -53.6322, -34.5958, 57.4711, 64.1589, 37.8128, -105.842
5.62, 7, -53.6005, -34.6387, 57.495, 64.0716, 37.8334, -105.678
5.624, 7, -53.5674, -34.6815, 57.5178, 63.9798, 37.8529, -105.509
5.628, 7, -53.5329, -34.7243, 57.5397, 63.8837, 37.8712, -105.335
5.632, 7, -53.4971, -34.7671, 57.5606, 63.7836, 37.8886, -105.157
5.636, 7, -53.46, -34.8098, 57.5807, 63.68, 37.9051, -104.976
5.64, 7, -53.4218, -34.8525, 57.5998, 63.5729, 37.9209, -104.79
5.644, 7, -53.3825, -34.8951, 57.6181, 63.4627, 37.9359, -104.602
5.648, 7, -53.3423, -34.9376, 57.6357, 63.3495, 37.9504, -104.41
5.652, 7, -53.3011, -34.98, 57.6525, 63.2336, 37.9644, -104.215
5.656, 7, -53.259, -35.0222, 57.6685, 63.1152, 37.9779, -104.017
5.66, 7, -53.2162, -35.0643, 57.6839, 62.9944, 37.991, -103.817
5.664, 8, -53.1726, -35.1062, 57.6986, 62.8715, 38.0038, -103.614
5.668, 8, -53.1283, -35.1479, 57.7126, 62.7467, 38.0163, -103.41
5.672, 8, -53.0834, -35.1894, 57.7261, 62.6201, 38.0287, -103.203
5.676, 8, -53.0379, -35.2307, 57.739, 62.4919, 38.041, -102.994
5.68, 8, -52.9919, -35.2718, 57.7514, 62.3623, 38.0532, -102.784
5.684, 8, -52.9454, -35.3128, 57.7632, 62.2315, 38.0654, -102.573
5.688, 8, -52.8984, -35.3534, 57.7746, 62.0996, 38.0777, -102.36
5.692, 8, -52.8509, -35.3939, 57.7855, 61.9667, 38.0901, -102.146
5.696, 8, -52.8031, -35.4342, 57.796, 61.833, 38.1026, -101.931
5.7, 8, -52.755, -35.4742, 57.8061, 61.6986, 38.1153, -101.715
5.704, 8, -52.7065, -35.514, 57.8158, 61.5636, 38.1282, -101.498
5.708, 8, -52.6577, -35.5536, 57.8251, 61.428, 38.1413, -101.28
5.712, 9, -52.6087, -35.5929, 57.8341, 61.2921, 38.1547, -101.062
5.716, 9, -52.5595, -35.632, 57.8428, 61.1559, 38.1684, -100.843
5.72, 9, -52.5101, -35.6708, 57.8511, 61.0195, 38.1824, -100.624
5.724, 9, -52.4604, -35.7094, 57.8592, 60.883, 38.1968, -100.405
5.728, 9, -52.4106, -35.7478, 57.8669, 60.7464, 38.2115, -100.185
5.732, 9, -52.3607, -35.7859, 57.8744, 60.6099, 38.2265, -99.9653
5.736, 9, -52.3106, -35.8238, 57.8817, 60.4735, 38.242, -99.7455
5.74, 9, -52.2604, -35.8614, 57.8887, 60.3374, 38.2579, -99.5256
5.744, 9, -52.2101, -35.8988, 57.8955, 60.2014, 38.2742, -99.3058
5.748, 9, -52.1597, -35.936, 57.9021, 60.0658, 38.2909, -99.0862
5.752, 9, -52.1092, -35.973, 57.9085, 59.9305, 38.308, -98.8667
5.756, 9, -52.0586, -36.0097, 57.9147, 59.7957, 38.3256, -98.6474
5.76, 10, -52.0081, -36.0461, 57.9207, 59.6612, 38.3436, -98.4283
5.764, 10, -51.9575, -36.0824, 57.9266, 59.5273, 38.3621, -98.2096
5.768, 10, -51.9068, -36.1184, 57.9322, 59.3938, 38.381, -97.9911
5.772, 10, -51.8562, -36.1541, 57.9378, 59.2609, 38.4004, -97.7731
5.776, 10, -51.8055, -36.1897, 57.9431, 59.1286, 38.4202, -97.5555
5.78, 10, -51.7549, -36.225, 57.9483, 58.9969, 38.4405, -97.3382
5.784, 10, -51.7042, -36.2601, 57.9534, 58.8658, 38.4612, -97.1215
5.788, 10, -51.6536, -36.295, 57.9584, 58.7354, 38.4824, -96.9052
5.792, 10, -51.6029, -36.3297, 57.9632, 58.6057, 38.5041, -96.6895
5.796, 10, -51.5523, -36.3641, 57.9679, 58.4766, 38.5261, -96.4742
5.8, 10, -51.5016, -36.3983, 57.9724, 58.3483, 38.5486, -96.2596
5.804, 10, -51.451, -36.4323, 57.9769, 58.2207, 38.5716, -96.0454
5.808, 10, -51.4004, -36.4661, 57.9812, 58.0938, 38.595, -95.8319
5.812, 11, -51.3499, -36.4997, 57.9854, 57.9676, 38.6188, -95.6189
5.816, 11, -51.2993, -36.5331, 57.9895, 57.8421, 38.643, -95.4064
5.82, 11, -51.2488, -36.5662, 57.9935, 57.7174, 38.6677, -95.1946
5.824, 11, -51.1983, -36.5992, 57.9973, 57.5935, 38.6928, -94.9833
5.828, 11, -51.1478, -36.6319, 58.0011, 57.4702, 38.7182, -94.7726
5.832, 11, -51.0973, -36.6645, 58.0047, 57.3477, 38.7441, -94.5625
5.836, 11, -51.0469, -36.6968, 58.0083, 57.226, 38.7703, -94.3531
5.84, 11, -50.9965, -36.7289, 58.0117, 57.105, 38.797, -94.1442
5.844, 11, -50.946, -36.7609, 58.015, 56.9847, 38.824, -93.9359
5.848, 11, -50.8956, -36.7926, 58.0183, 56.8652, 38.8514, -93.7281
5.852, 11, -50.8453, -36.8241, 58.0214, 56.7464, 38.8791, -93.521
5.856, 11, -50.7949, -36.8555, 58.0244, 56.6283, 38.9072, -93.3145
5.86, 12, -50.7445, -36.8866, 58.0273, 56.511, 38.9357, -93.1085
5.864, 12, -50.6941, -36.9175, 58.03, 56.3943, 38.9645, -92.9031
5.868, 12, -50.6438, -36.9483, 58.0327, 56.2784, 38.9936, -92.6983
5.872, 12, -50.5934, -36.9788, 58.0353, 56.1632, 39.0231, -92.494
5.876, 12, -50.543, -37.0092, 58.0377, 56.0486, 39.0529, -92.2903
5.88, 12, -50.4927, -37.0394, 58.04, 55.9347, 39.083, -92.0872
5.884, 12, -50.4423, -37.0693, 58.0423, 55.8215, 39.1134, -91.8846
5.888, 12, -50.3919, -37.0991, 58.0444, 55.709, 39.1441, -91.6825
5.892, 12, -50.3415, -37.1287, 58.0464, 55.5971, 39.1751, -91.4809
5.896, 12, -50.2911, -37.1581, 58.0483, 55.4859, 39.2064, -91.2799
5.9, 12, -50.2407, -37.1874, 58.05, 55.3754, 39.238, -91.0794
5.904, 12, -50.1902, -37.2164, 58.0517, 55.2654, 39.2699, -90.8794
5.908, 12, -50.1397, -37.2452, 58.0532, 55.1561, 39.302, -90.68
5.912, 13, -50.0892, -37.2739, 58.0546, 55.0474, 39.3344, -90.481
5.916, 13, -50.0386, -37.3024, 58.0559, 54.9393, 39.3671, -90.2825
5.92, 13, -49.9881, -37.3306, 58.057, 54.8319, 39.4, -90.0845
5.924, 13, -49.9375, -37.3587, 58.0581, 54.725, 39.4331, -89.887
5.928, 13, -49.8868, -37.3866, 58.059, 54.6187, 39.4665, -89.69
5.932, 13, -49.8361, -37.4144, 58.0598, 54.513, 39.5001, -89.4935
5.936, 13, -49.7854, -37.4419, 58.0605, 54.4079, 39.534, -89.2974
