rpiRobotics/ARM-21-02-F-19-Robot-Motion-Program/data_performance_abb/curve_1/baseline/80L/curve_exe_v112.79296875_z10.csv
timestamp, cmd_num, J1, J2, J3, J4, J5, J6
0, -1, 11.3317, 13.3068, 17.5039, -145.499, -97.5648, 142.923
0.002, -1, 11.3317, 13.3068, 17.5039, -145.499, -97.5648, 142.923
0.006, -1, 11.3317, 13.3068, 17.5039, -145.499, -97.5648, 142.923
0.008, -1, 11.3317, 13.3068, 17.5039, -145.499, -97.5648, 142.923
0.011, -1, 11.3317, 13.3068, 17.5039, -145.499, -97.5648, 142.923
0.016, -1, 11.3317, 13.3068, 17.5039, -145.499, -97.5648, 142.923
0.02, -1, 11.3317, 13.3068, 17.5039, -145.499, -97.5648, 142.923
0.024, -1, 11.3317, 13.3068, 17.5039, -145.499, -97.5648, 142.923
0.028, -1, 11.3317, 13.3068, 17.5039, -145.499, -97.5648, 142.923
0.032, -1, 11.3316, 13.3068, 17.5039, -145.499, -97.5648, 142.923
0.036, -1, 11.3316, 13.3068, 17.5039, -145.499, -97.5648, 142.923
0.04, -1, 11.3313, 13.3067, 17.5039, -145.499, -97.5648, 142.923
0.044, -1, 11.3306, 13.3066, 17.5038, -145.499, -97.5648, 142.923
0.048, -1, 11.3293, 13.3065, 17.5037, -145.499, -97.5648, 142.923
0.052, -1, 11.3272, 13.3061, 17.5035, -145.499, -97.5648, 142.922
0.056, -1, 11.3242, 13.3056, 17.5031, -145.499, -97.5648, 142.922
0.06, -1, 11.3202, 13.3049, 17.5027, -145.499, -97.5648, 142.921
0.064, -1, 11.3149, 13.3039, 17.5022, -145.499, -97.5647, 142.918
0.068, -1, 11.3083, 13.3026, 17.5015, -145.5, -97.5645, 142.915
0.072, -1, 11.3001, 13.3008, 17.5008, -145.501, -97.5643, 142.91
0.076, -1, 11.29, 13.2986, 17.5, -145.502, -97.5639, 142.902
0.08, -1, 11.2776, 13.2957, 17.4992, -145.504, -97.5634, 142.892
0.084, -1, 11.2626, 13.2921, 17.4984, -145.506, -97.5627, 142.877
0.088, -1, 11.2447, 13.2878, 17.4977, -145.51, -97.5617, 142.858
0.092, -1, 11.2239, 13.2827, 17.4971, -145.514, -97.5604, 142.834
0.096, -1, 11.2002, 13.2768, 17.497, -145.519, -97.5587, 142.803
0.1, -1, 11.1736, 13.2701, 17.4972, -145.526, -97.5567, 142.765
0.104, -1, 11.1442, 13.2625, 17.4981, -145.534, -97.5541, 142.718
0.108, -1, 11.1118, 13.2541, 17.4995, -145.543, -97.5511, 142.664
0.112, -1, 11.0763, 13.2448, 17.5015, -145.554, -97.5476, 142.6
0.116, -1, 11.0375, 13.2346, 17.5042, -145.566, -97.5436, 142.528
0.12, -1, 10.9954, 13.2234, 17.5074, -145.58, -97.539, 142.447
0.124, -1, 10.9501, 13.2113, 17.5112, -145.596, -97.534, 142.358
0.128, -1, 10.9015, 13.1984, 17.5154, -145.612, -97.5285, 142.261
0.131, -1, 10.85, 13.1846, 17.5202, -145.63, -97.5227, 142.156
0.136, -1, 10.7956, 13.1701, 17.5253, -145.649, -97.5164, 142.044
0.139, -1, 10.7385, 13.1548, 17.5306, -145.67, -97.5098, 141.927
0.144, -1, 10.6787, 13.1387, 17.5361, -145.69, -97.5029, 141.805
0.148, -1, 10.6162, 13.122, 17.5417, -145.712, -97.4958, 141.678
0.152, -1, 10.5512, 13.1047, 17.5472, -145.734, -97.4885, 141.548
0.156, -1, 10.484, 13.0868, 17.5527, -145.757, -97.481, 141.416
0.16, -1, 10.4148, 13.0684, 17.558, -145.78, -97.4735, 141.281
0.164, -1, 10.344, 13.0496, 17.5632, -145.803, -97.4659, 141.145
0.168, -1, 10.2719, 13.0305, 17.5684, -145.827, -97.4582, 141.008
0.172, -1, 10.1987, 13.0111, 17.5734, -145.851, -97.4505, 140.87
0.176, -1, 10.1247, 12.9916, 17.5784, -145.874, -97.4428, 140.731
0.18, -1, 10.05, 12.9719, 17.5833, -145.898, -97.435, 140.592
0.184, -1, 9.97464, 12.9522, 17.5882, -145.922, -97.4272, 140.453
0.188, -1, 9.89883, 12.9323, 17.5931, -145.946, -97.4194, 140.314
0.192, -1, 9.82269, 12.9124, 17.5979, -145.97, -97.4116, 140.174
0.196, -1, 9.7463, 12.8924, 17.6027, -145.994, -97.4038, 140.034
0.2, -1, 9.66976, 12.8725, 17.6075, -146.018, -97.396, 139.894
0.204, -1, 9.5931, 12.8525, 17.6123, -146.042, -97.3882, 139.754
0.208, -1, 9.51636, 12.8325, 17.617, -146.066, -97.3804, 139.614
0.212, -1, 9.43956, 12.8124, 17.6218, -146.09, -97.3726, 139.474
0.216, -1, 9.36273, 12.7924, 17.6266, -146.114, -97.3648, 139.334
0.22, -1, 9.28587, 12.7724, 17.6314, -146.138, -97.357, 139.194
0.224, -1, 9.20898, 12.7524, 17.6361, -146.162, -97.3492, 139.054
0.228, -1, 9.13208, 12.7323, 17.6409, -146.186, -97.3414, 138.914
0.232, -1, 9.05516, 12.7123, 17.6457, -146.21, -97.3336, 138.774
0.236, -1, 8.97823, 12.6922, 17.6505, -146.234, -97.3258, 138.634
0.24, -1, 8.90129, 12.6722, 17.6552, -146.258, -97.3179, 138.493
0.244, -1, 8.82434, 12.6521, 17.66, -146.282, -97.3101, 138.353
0.248, -1, 8.74738, 12.6321, 17.6648, -146.306, -97.3023, 138.213
0.252, -1, 8.67042, 12.612, 17.6695, -146.33, -97.2945, 138.073
0.256, -1, 8.59344, 12.592, 17.6743, -146.354, -97.2867, 137.933
0.26, -1, 8.51646, 12.5719, 17.6791, -146.378, -97.2789, 137.792
0.264, -1, 8.43947, 12.5519, 17.6839, -146.403, -97.271, 137.652
0.268, -1, 8.36247, 12.5318, 17.6886, -146.427, -97.2632, 137.512
0.272, -1, 8.28547, 12.5117, 17.6934, -146.451, -97.2554, 137.372
0.276, -1, 8.20846, 12.4917, 17.6982, -146.475, -97.2476, 137.231
0.28, -1, 8.13144, 12.4716, 17.703, -146.499, -97.2398, 137.091
0.284, -1, 8.05441, 12.4515, 17.7077, -146.523, -97.2319, 136.951
0.288, -1, 7.97738, 12.4315, 17.7125, -146.547, -97.2241, 136.811
0.292, -1, 7.90034, 12.4114, 17.7173, -146.571, -97.2163, 136.67
0.296, -1, 7.82329, 12.3913, 17.7221, -146.595, -97.2085, 136.53
0.3, -1, 7.74623, 12.3712, 17.7269, -146.619, -97.2006, 136.389
0.304, -1, 7.66917, 12.3512, 17.7316, -146.643, -97.1928, 136.249
0.308, -1, 7.5921, 12.3311, 17.7364, -146.667, -97.185, 136.109
0.312, -1, 7.51502, 12.311, 17.7412, -146.691, -97.1771, 135.968
0.316, -1, 7.43793, 12.2909, 17.746, -146.715, -97.1693, 135.828
0.32, -1, 7.36084, 12.2708, 17.7508, -146.739, -97.1615, 135.688
0.324, -1, 7.28374, 12.2508, 17.7555, -146.764, -97.1537, 135.547
0.328, -1, 7.20663, 12.2307, 17.7603, -146.788, -97.1458, 135.407
0.332, -1, 7.12952, 12.2106, 17.7651, -146.812, -97.138, 135.266
0.336, -1, 7.05239, 12.1905, 17.7699, -146.836, -97.1302, 135.126
0.34, -1, 6.97526, 12.1704, 17.7747, -146.86, -97.1223, 134.985
0.344, -1, 6.89813, 12.1503, 17.7795, -146.884, -97.1145, 134.845
0.348, -1, 6.82098, 12.1302, 17.7842, -146.908, -97.1067, 134.704
0.352, -1, 6.74383, 12.1101, 17.789, -146.932, -97.0988, 134.564
0.356, -1, 6.66667, 12.09, 17.7938, -146.956, -97.091, 134.423
0.36, -1, 6.5895, 12.0699, 17.7986, -146.98, -97.0832, 134.283
0.364, -1, 6.51233, 12.0498, 17.8034, -147.005, -97.0753, 134.142
0.368, -1, 6.43515, 12.0297, 17.8082, -147.029, -97.0675, 134.001
0.372, -1, 6.35796, 12.0096, 17.813, -147.053, -97.0596, 133.861
0.376, -1, 6.28076, 11.9894, 17.8177, -147.077, -97.0518, 133.72
0.38, -1, 6.20356, 11.9693, 17.8225, -147.101, -97.044, 133.58
0.384, -1, 6.12634, 11.9492, 17.8273, -147.125, -97.0361, 133.439
0.388, -1, 6.04912, 11.9291, 17.8321, -147.149, -97.0283, 133.298
0.392, -1, 5.9719, 11.909, 17.8369, -147.173, -97.0204, 133.158
0.396, -1, 5.89466, 11.8889, 17.8417, -147.197, -97.0126, 133.017
0.4, -1, 5.81742, 11.8687, 17.8465, -147.222, -97.0047, 132.876
0.404, -1, 5.74017, 11.8486, 17.8513, -147.246, -96.9969, 132.736
0.408, -1, 5.66291, 11.8285, 17.8561, -147.27, -96.9891, 132.595
0.412, -1, 5.58565, 11.8083, 17.8608, -147.294, -96.9812, 132.454
0.416, -1, 5.50838, 11.7882, 17.8656, -147.318, -96.9734, 132.313
0.42, -1, 5.43109, 11.7681, 17.8704, -147.342, -96.9655, 132.173
0.424, -1, 5.35381, 11.7479, 17.8752, -147.366, -96.9577, 132.032
0.428, -1, 5.27651, 11.7278, 17.88, -147.391, -96.9498, 131.891
0.432, -1, 5.19921, 11.7077, 17.8848, -147.415, -96.942, 131.75
0.436, -1, 5.1219, 11.6875, 17.8896, -147.439, -96.9341, 131.609
0.44, -1, 5.04458, 11.6674, 17.8944, -147.463, -96.9263, 131.469
0.444, -1, 4.96725, 11.6472, 17.8992, -147.487, -96.9184, 131.328
0.448, -1, 4.88992, 11.6271, 17.904, -147.511, -96.9105, 131.187
0.452, -1, 4.81258, 11.6069, 17.9088, -147.535, -96.9027, 131.046
0.456, -1, 4.73523, 11.5868, 17.9136, -147.56, -96.8948, 130.905
0.46, -1, 4.65787, 11.5666, 17.9184, -147.584, -96.887, 130.764
0.464, -1, 4.5805, 11.5465, 17.9232, -147.608, -96.8791, 130.623
0.468, -1, 4.50313, 11.5263, 17.928, -147.632, -96.8713, 130.482
0.472, -1, 4.42575, 11.5061, 17.9328, -147.656, -96.8634, 130.341
0.476, -1, 4.34836, 11.486, 17.9376, -147.681, -96.8556, 130.2
0.48, -1, 4.27096, 11.4658, 17.9424, -147.705, -96.8477, 130.059
0.484, -1, 4.19356, 11.4457, 17.9472, -147.729, -96.8398, 129.918
0.488, -1, 4.11615, 11.4255, 17.952, -147.753, -96.832, 129.777
0.492, -1, 4.03872, 11.4053, 17.9568, -147.777, -96.8241, 129.636
0.496, -1, 3.9613, 11.3851, 17.9616, -147.801, -96.8162, 129.495
0.5, -1, 3.88386, 11.365, 17.9664, -147.826, -96.8084, 129.354
0.504, -1, 3.80642, 11.3448, 17.9712, -147.85, -96.8005, 129.213
0.508, -1, 3.72896, 11.3246, 17.976, -147.874, -96.7927, 129.072
0.512, -1, 3.6515, 11.3044, 17.9808, -147.898, -96.7848, 128.931
0.516, -1, 3.57404, 11.2842, 17.9856, -147.922, -96.7769, 128.79
0.52, -1, 3.49656, 11.2641, 17.9904, -147.947, -96.769, 128.649
0.524, -1, 3.41908, 11.2439, 17.9952, -147.971, -96.7612, 128.508
0.528, -1, 3.34158, 11.2237, 18, -147.995, -96.7533, 128.367
0.532, -1, 3.26408, 11.2035, 18.0048, -148.019, -96.7454, 128.225
0.536, -1, 3.18658, 11.1833, 18.0096, -148.043, -96.7376, 128.084
0.54, -1, 3.10906, 11.1631, 18.0144, -148.068, -96.7297, 127.943
0.544, -1, 3.03154, 11.1429, 18.0192, -148.092, -96.7218, 127.802
0.548, -1, 2.95401, 11.1227, 18.024, -148.116, -96.714, 127.661
0.552, -1, 2.87647, 11.1025, 18.0289, -148.14, -96.7061, 127.519
0.556, -1, 2.79892, 11.0823, 18.0337, -148.165, -96.6982, 127.378
0.56, -1, 2.72136, 11.0621, 18.0385, -148.189, -96.6903, 127.237
0.564, -1, 2.6438, 11.0419, 18.0433, -148.213, -96.6824, 127.096
0.568, -1, 2.56623, 11.0217, 18.0481, -148.237, -96.6746, 126.954
0.572, -1, 2.48865, 11.0015, 18.0529, -148.261, -96.6667, 126.813
0.576, -1, 2.41106, 10.9813, 18.0577, -148.286, -96.6588, 126.672
0.58, -1, 2.33346, 10.961, 18.0625, -148.31, -96.6509, 126.53
0.584, -1, 2.25586, 10.9408, 18.0673, -148.334, -96.6431, 126.389
0.588, -1, 2.17825, 10.9206, 18.0722, -148.358, -96.6352, 126.248
0.592, -1, 2.10063, 10.9004, 18.077, -148.383, -96.6273, 126.106
0.596, -1, 2.023, 10.8801, 18.0818, -148.407, -96.6194, 125.965
0.6, -1, 1.94536, 10.8599, 18.0866, -148.431, -96.6115, 125.823
0.604, -1, 1.86772, 10.8397, 18.0914, -148.455, -96.6036, 125.682
0.608, -1, 1.79006, 10.8195, 18.0962, -148.48, -96.5957, 125.541
0.612, -1, 1.7124, 10.7992, 18.101, -148.504, -96.5879, 125.399
0.616, -1, 1.63473, 10.779, 18.1059, -148.528, -96.58, 125.258
0.62, -1, 1.55706, 10.7588, 18.1107, -148.552, -96.5721, 125.116
0.624, -1, 1.47937, 10.7385, 18.1155, -148.577, -96.5642, 124.975
0.628, -1, 1.40168, 10.7183, 18.1203, -148.601, -96.5563, 124.833
0.632, -1, 1.32398, 10.698, 18.1251, -148.625, -96.5484, 124.692
0.636, -1, 1.24627, 10.6778, 18.13, -148.65, -96.5405, 124.55
0.64, -1, 1.16855, 10.6575, 18.1348, -148.674, -96.5326, 124.408
0.644, -1, 1.09083, 10.6373, 18.1396, -148.698, -96.5247, 124.267
0.648, -1, 1.01309, 10.617, 18.1444, -148.722, -96.5168, 124.125
0.652, -1, 0.93535, 10.5968, 18.1492, -148.747, -96.5089, 123.984
0.656, -1, 0.8576, 10.5765, 18.1541, -148.771, -96.501, 123.842
0.66, -1, 0.779841, 10.5563, 18.1589, -148.795, -96.4931, 123.7
0.664, -1, 0.702075, 10.536, 18.1637, -148.82, -96.4853, 123.559
0.668, -1, 0.6243, 10.5157, 18.1685, -148.844, -96.4773, 123.417
0.672, -1, 0.546517, 10.4955, 18.1734, -148.868, -96.4695, 123.275
0.676, -1, 0.468726, 10.4752, 18.1782, -148.892, -96.4615, 123.134
0.68, -1, 0.390926, 10.4549, 18.183, -148.917, -96.4537, 122.992
0.684, -1, 0.313118, 10.4347, 18.1878, -148.941, -96.4457, 122.85
0.688, -1, 0.235302, 10.4144, 18.1927, -148.965, -96.4379, 122.709
0.692, -1, 0.157477, 10.3941, 18.1975, -148.99, -96.4299, 122.567
0.696, -1, 0.0796442, 10.3738, 18.2023, -149.014, -96.422, 122.425
0.7, -1, 0.00180269, 10.3536, 18.2071, -149.038, -96.4141, 122.283
0.704, -1, -0.0760473, 10.3333, 18.212, -149.063, -96.4062, 122.141
0.708, -1, -0.153906, 10.313, 18.2168, -149.087, -96.3983, 122
0.712, -1, -0.231773, 10.2927, 18.2216, -149.111, -96.3904, 121.858
0.716, -1, -0.309648, 10.2724, 18.2264, -149.136, -96.3825, 121.716
0.72, -1, -0.387532, 10.2521, 18.2313, -149.16, -96.3746, 121.574
0.724, -1, -0.465424, 10.2318, 18.2361, -149.184, -96.3667, 121.432
0.728, -1, -0.543325, 10.2115, 18.2409, -149.209, -96.3588, 121.29
0.732, -1, -0.621234, 10.1912, 18.2458, -149.233, -96.3509, 121.148
0.736, -1, -0.699152, 10.1709, 18.2506, -149.257, -96.3429, 121.007
0.74, -1, -0.777078, 10.1506, 18.2554, -149.282, -96.335, 120.865
0.744, -1, -0.855013, 10.1303, 18.2603, -149.306, -96.3271, 120.723
0.748, -1, -0.932956, 10.11, 18.2651, -149.33, -96.3192, 120.581
0.752, -1, -1.01091, 10.0897, 18.2699, -149.355, -96.3113, 120.439
0.756, -1, -1.08887, 10.0694, 18.2748, -149.379, -96.3034, 120.297
0.76, -1, -1.16684, 10.0491, 18.2796, -149.403, -96.2954, 120.155
0.764, -1, -1.24482, 10.0288, 18.2844, -149.428, -96.2875, 120.013
0.768, -1, -1.3228, 10.0085, 18.2893, -149.452, -96.2796, 119.871
0.772, -1, -1.4008, 9.98814, 18.2941, -149.476, -96.2717, 119.728
0.776, -1, -1.4788, 9.96781, 18.299, -149.501, -96.2638, 119.586
0.78, -1, -1.55682, 9.94749, 18.3038, -149.525, -96.2558, 119.444
0.784, -1, -1.63484, 9.92716, 18.3086, -149.55, -96.2479, 119.302
0.788, -1, -1.71287, 9.90683, 18.3135, -149.574, -96.24, 119.16
0.792, -1, -1.79091, 9.8865, 18.3183, -149.598, -96.2321, 119.018
0.796, -1, -1.86896, 9.86616, 18.3231, -149.623, -96.2241, 118.876
0.8, -1, -1.94701, 9.84583, 18.328, -149.647, -96.2162, 118.734
0.804, -1, -2.02508, 9.82549, 18.3328, -149.671, -96.2083, 118.591
0.808, -1, -2.10315, 9.80515, 18.3377, -149.696, -96.2004, 118.449
0.812, -1, -2.18124, 9.7848, 18.3425, -149.72, -96.1924, 118.307
0.816, -1, -2.25933, 9.76446, 18.3474, -149.745, -96.1845, 118.165
0.82, -1, -2.33743, 9.74411, 18.3522, -149.769, -96.1766, 118.022
0.824, -1, -2.41554, 9.72376, 18.357, -149.793, -96.1686, 117.88
0.828, -1, -2.49366, 9.70341, 18.3619, -149.818, -96.1607, 117.738
0.832, -1, -2.57179, 9.68305, 18.3667, -149.842, -96.1528, 117.596
0.836, -1, -2.64992, 9.66269, 18.3716, -149.867, -96.1448, 117.453
0.84, -1, -2.72807, 9.64234, 18.3764, -149.891, -96.1369, 117.311
0.844, -1, -2.80622, 9.62197, 18.3813, -149.915, -96.129, 117.169
0.848, -1, -2.88438, 9.60161, 18.3861, -149.94, -96.121, 117.026
0.852, -1, -2.96256, 9.58124, 18.391, -149.964, -96.1131, 116.884
0.856, -1, -3.04074, 9.56087, 18.3958, -149.989, -96.1051, 116.741
0.86, -1, -3.11893, 9.5405, 18.4007, -150.013, -96.0972, 116.599
0.864, -1, -3.19713, 9.52013, 18.4055, -150.038, -96.0893, 116.457
0.868, -1, -3.27533, 9.49975, 18.4104, -150.062, -96.0813, 116.314
0.872, -1, -3.35355, 9.47937, 18.4152, -150.086, -96.0734, 116.172
0.876, -1, -3.43178, 9.45899, 18.4201, -150.111, -96.0654, 116.029
0.88, -1, -3.51001, 9.43861, 18.4249, -150.135, -96.0575, 115.887
0.884, -1, -3.58826, 9.41823, 18.4298, -150.16, -96.0495, 115.744
0.888, -1, -3.66651, 9.39784, 18.4346, -150.184, -96.0416, 115.602
0.892, -1, -3.74477, 9.37745, 18.4395, -150.209, -96.0336, 115.459
0.896, -1, -3.82304, 9.35706, 18.4443, -150.233, -96.0257, 115.316
0.9, -1, -3.90132, 9.33666, 18.4492, -150.258, -96.0177, 115.174
0.904, -1, -3.97961, 9.31627, 18.454, -150.282, -96.0098, 115.031
0.908, -1, -4.05791, 9.29587, 18.4589, -150.306, -96.0018, 114.889
0.912, -1, -4.13621, 9.27547, 18.4638, -150.331, -95.9939, 114.746
0.916, -1, -4.21453, 9.25506, 18.4686, -150.355, -95.9859, 114.603
0.92, -1, -4.29285, 9.23466, 18.4735, -150.38, -95.978, 114.461
0.924, -1, -4.37119, 9.21425, 18.4783, -150.404, -95.97, 114.318
0.928, -1, -4.44953, 9.19384, 18.4832, -150.429, -95.9621, 114.175
0.932, -1, -4.52788, 9.17342, 18.488, -150.453, -95.9541, 114.033
0.936, -1, -4.60624, 9.15301, 18.4929, -150.478, -95.9462, 113.89
0.94, -1, -4.68461, 9.13259, 18.4978, -150.502, -95.9382, 113.747
0.944, -1, -4.76299, 9.11217, 18.5026, -150.527, -95.9302, 113.604
0.948, -1, -4.84138, 9.09174, 18.5075, -150.551, -95.9223, 113.462
0.952, -1, -4.91978, 9.07132, 18.5123, -150.576, -95.9143, 113.319
0.956, -1, -4.99818, 9.05089, 18.5172, -150.6, -95.9063, 113.176
0.96, -1, -5.0766, 9.03046, 18.5221, -150.625, -95.8984, 113.033
0.964, -1, -5.15502, 9.01003, 18.5269, -150.649, -95.8904, 112.89
0.968, -1, -5.23346, 8.9896, 18.5318, -150.674, -95.8825, 112.747
0.972, -1, -5.3119, 8.96916, 18.5367, -150.698, -95.8745, 112.605
0.976, -1, -5.39035, 8.94872, 18.5415, -150.723, -95.8665, 112.462
0.98, -1, -5.46881, 8.92828, 18.5464, -150.747, -95.8586, 112.319
0.984, -1, -5.54728, 8.90783, 18.5513, -150.772, -95.8506, 112.176
0.988, -1, -5.62576, 8.88739, 18.5561, -150.796, -95.8426, 112.033
0.992, -1, -5.70425, 8.86694, 18.561, -150.821, -95.8346, 111.89
0.996, -1, -5.78275, 8.84649, 18.5659, -150.845, -95.8267, 111.747
1, -1, -5.86126, 8.82603, 18.5707, -150.87, -95.8187, 111.604
1.004, -1, -5.93977, 8.80557, 18.5756, -150.894, -95.8107, 111.461
1.008, -1, -6.0183, 8.78512, 18.5805, -150.919, -95.8027, 111.318
1.012, -1, -6.09684, 8.76466, 18.5853, -150.943, -95.7948, 111.175
1.016, -1, -6.17538, 8.74419, 18.5902, -150.968, -95.7868, 111.032
1.02, -1, -6.25393, 8.72373, 18.5951, -150.992, -95.7788, 110.889
1.024, -1, -6.3325, 8.70326, 18.6, -151.017, -95.7708, 110.746
1.027, -1, -6.41107, 8.68279, 18.6048, -151.042, -95.7629, 110.602
1.032, -1, -6.48965, 8.66231, 18.6097, -151.066, -95.7549, 110.459
1.036, -1, -6.56824, 8.64184, 18.6146, -151.091, -95.7469, 110.316
1.04, -1, -6.64684, 8.62136, 18.6194, -151.115, -95.7389, 110.173
1.044, -1, -6.72545, 8.60088, 18.6243, -151.14, -95.7309, 110.03
1.048, -1, -6.80406, 8.5804, 18.6292, -151.164, -95.7229, 109.887
1.052, -1, -6.88269, 8.55991, 18.6341, -151.189, -95.715, 109.743
1.055, -1, -6.96133, 8.53943, 18.639, -151.213, -95.707, 109.6
1.06, -1, -7.03998, 8.51894, 18.6438, -151.238, -95.699, 109.457
1.064, -1, -7.11863, 8.49844, 18.6487, -151.263, -95.691, 109.314
1.068, -1, -7.1973, 8.47795, 18.6536, -151.287, -95.683, 109.17
1.072, -1, -7.27597, 8.45745, 18.6585, -151.312, -95.675, 109.027
1.076, -1, -7.35466, 8.43695, 18.6633, -151.336, -95.667, 108.884
1.08, -1, -7.43335, 8.41645, 18.6682, -151.361, -95.659, 108.74
1.084, -1, -7.51205, 8.39594, 18.6731, -151.385, -95.651, 108.597
1.088, -1, -7.59077, 8.37544, 18.678, -151.41, -95.6431, 108.454
1.091, -1, -7.66949, 8.35493, 18.6829, -151.435, -95.6351, 108.31
1.096, -1, -7.74822, 8.33441, 18.6878, -151.459, -95.6271, 108.167
1.1, -1, -7.82696, 8.3139, 18.6926, -151.484, -95.6191, 108.023
1.104, -1, -7.90572, 8.29338, 18.6975, -151.508, -95.6111, 107.88
1.108, -1, -7.98448, 8.27286, 18.7024, -151.533, -95.6031, 107.737
1.112, -1, -8.06325, 8.25234, 18.7073, -151.558, -95.5951, 107.593
1.116, -1, -8.14203, 8.23181, 18.7122, -151.582, -95.5871, 107.45
1.119, -1, -8.22082, 8.21129, 18.7171, -151.607, -95.5791, 107.306
1.124, -1, -8.29962, 8.19076, 18.7219, -151.631, -95.5711, 107.162
1.128, -1, -8.37843, 8.17022, 18.7268, -151.656, -95.5631, 107.019
1.132, -1, -8.45725, 8.14969, 18.7317, -151.681, -95.5551, 106.875
1.136, -1, -8.53608, 8.12915, 18.7366, -151.705, -95.5471, 106.732
1.14, -1, -8.61492, 8.10861, 18.7415, -151.73, -95.539, 106.588
1.144, -1, -8.69377, 8.08807, 18.7464, -151.755, -95.531, 106.445
1.147, -1, -8.77263, 8.06752, 18.7513, -151.779, -95.523, 106.301
1.152, -1, -8.85149, 8.04697, 18.7562, -151.804, -95.515, 106.157
1.156, -1, -8.93037, 8.02642, 18.7611, -151.828, -95.507, 106.014
1.16, -1, -9.00926, 8.00587, 18.766, -151.853, -95.499, 105.87
1.164, -1, -9.08816, 7.98531, 18.7708, -151.878, -95.491, 105.726
1.168, -1, -9.16707, 7.96476, 18.7757, -151.902, -95.483, 105.582
1.172, -1, -9.24599, 7.9442, 18.7806, -151.927, -95.475, 105.439
1.175, -1, -9.32492, 7.92363, 18.7855, -151.952, -95.4669, 105.295
1.18, -1, -9.40386, 7.90306, 18.7904, -151.976, -95.4589, 105.151
1.184, -1, -9.48281, 7.8825, 18.7953, -152.001, -95.4509, 105.007
1.188, -1, -9.56176, 7.86192, 18.8002, -152.026, -95.4429, 104.864
1.192, -1, -9.64073, 7.84135, 18.8051, -152.05, -95.4349, 104.72
1.196, -1, -9.71971, 7.82077, 18.81, -152.075, -95.4268, 104.576
1.2, -1, -9.7987, 7.80019, 18.8149, -152.1, -95.4188, 104.432
1.204, -1, -9.8777, 7.77961, 18.8198, -152.124, -95.4108, 104.288
1.208, -1, -9.95671, 7.75903, 18.8247, -152.149, -95.4028, 104.144
1.212, -1, -10.0357, 7.73844, 18.8296, -152.174, -95.3948, 104
1.216, -1, -10.1148, 7.71785, 18.8345, -152.198, -95.3867, 103.856
1.22, -1, -10.1938, 7.69726, 18.8394, -152.223, -95.3787, 103.712
1.224, -1, -10.2728, 7.67666, 18.8443, -152.248, -95.3707, 103.568
1.228, -1, -10.3519, 7.65607, 18.8492, -152.273, -95.3626, 103.424
1.232, -1, -10.431, 7.63547, 18.8541, -152.297, -95.3546, 103.28
1.236, -1, -10.5101, 7.61486, 18.859, -152.322, -95.3466, 103.136
1.24, -1, -10.5891, 7.59426, 18.8639, -152.347, -95.3386, 102.992
1.244, -1, -10.6682, 7.57365, 18.8688, -152.371, -95.3305, 102.848
1.248, -1, -10.7473, 7.55304, 18.8737, -152.396, -95.3225, 102.704
1.252, -1, -10.8265, 7.53243, 18.8787, -152.421, -95.3144, 102.56
1.256, -1, -10.9056, 7.51181, 18.8836, -152.446, -95.3064, 102.416
1.26, -1, -10.9847, 7.49119, 18.8885, -152.47, -95.2984, 102.272
1.264, -1, -11.0639, 7.47057, 18.8934, -152.495, -95.2903, 102.127
1.267, -1, -11.143, 7.44995, 18.8983, -152.52, -95.2823, 101.983
1.272, -1, -11.2222, 7.42932, 18.9032, -152.544, -95.2743, 101.839
1.276, -1, -11.3014, 7.40869, 18.9081, -152.569, -95.2662, 101.695
1.28, -1, -11.3806, 7.38806, 18.913, -152.594, -95.2582, 101.551
1.284, -1, -11.4598, 7.36742, 18.9179, -152.619, -95.2501, 101.406
1.288, -1, -11.539, 7.34679, 18.9228, -152.643, -95.2421, 101.262
1.292, -1, -11.6182, 7.32615, 18.9278, -152.668, -95.234, 101.118
1.295, -1, -11.6975, 7.3055, 18.9327, -152.693, -95.226, 100.973
1.3, -1, -11.7767, 7.28486, 18.9376, -152.718, -95.2179, 100.829
1.304, -1, -11.8559, 7.26421, 18.9425, -152.742, -95.2099, 100.685
1.308, -1, -11.9352, 7.24356, 18.9474, -152.767, -95.2018, 100.54
1.312, -1, -12.0145, 7.22291, 18.9523, -152.792, -95.1938, 100.396
1.316, -1, -12.0938, 7.20225, 18.9572, -152.817, -95.1858, 100.252
1.32, -1, -12.1731, 7.18159, 18.9622, -152.841, -95.1777, 100.107
1.324, -1, -12.2524, 7.16093, 18.9671, -152.866, -95.1696, 99.9627
1.328, -1, -12.3317, 7.14027, 18.972, -152.891, -95.1616, 99.8182
1.332, -1, -12.411, 7.1196, 18.9769, -152.916, -95.1535, 99.6737
1.336, -1, -12.4903, 7.09893, 18.9818, -152.941, -95.1455, 99.5292
1.34, -1, -12.5697, 7.07826, 18.9868, -152.965, -95.1374, 99.3847
1.344, -1, -12.649, 7.05759, 18.9917, -152.99, -95.1294, 99.2402
1.348, -1, -12.7284, 7.03691, 18.9966, -153.015, -95.1213, 99.0956
1.352, -1, -12.8078, 7.01623, 19.0015, -153.04, -95.1132, 98.951
1.356, -1, -12.8872, 6.99555, 19.0064, -153.064, -95.1052, 98.8064
1.36, -1, -12.9665, 6.97486, 19.0114, -153.089, -95.0971, 98.6618
1.364, -1, -13.046, 6.95417, 19.0163, -153.114, -95.089, 98.5172
1.368, -1, -13.1254, 6.93348, 19.0212, -153.139, -95.081, 98.3725
1.372, -1, -13.2048, 6.91279, 19.0261, -153.164, -95.0729, 98.2278
1.376, -1, -13.2842, 6.89209, 19.0311, -153.189, -95.0648, 98.0832
1.38, -1, -13.3637, 6.87139, 19.036, -153.213, -95.0568, 97.9384
1.384, -1, -13.4431, 6.85069, 19.0409, -153.238, -95.0487, 97.7937
1.388, -1, -13.5226, 6.82999, 19.0459, -153.263, -95.0406, 97.649
1.392, -1, -13.6021, 6.80928, 19.0508, -153.288, -95.0326, 97.5042
1.396, -1, -13.6816, 6.78857, 19.0557, -153.313, -95.0245, 97.3594
1.4, -1, -13.7611, 6.76786, 19.0606, -153.337, -95.0164, 97.2146
1.404, -1, -13.8406, 6.74714, 19.0656, -153.362, -95.0083, 97.0698
1.408, -1, -13.9201, 6.72643, 19.0705, -153.387, -95.0003, 96.9249
1.412, -1, -13.9996, 6.70571, 19.0754, -153.412, -94.9922, 96.7801
1.416, -1, -14.0792, 6.68498, 19.0804, -153.437, -94.9841, 96.6352
1.42, -1, -14.1587, 6.66426, 19.0853, -153.462, -94.976, 96.4903
1.424, -1, -14.2383, 6.64353, 19.0902, -153.487, -94.968, 96.3454
1.428, -1, -14.3179, 6.6228, 19.0952, -153.511, -94.9599, 96.2004
1.432, -1, -14.3974, 6.60206, 19.1001, -153.536, -94.9518, 96.0555
1.436, -1, -14.477, 6.58133, 19.105, -153.561, -94.9437, 95.9105
1.44, -1, -14.5566, 6.56059, 19.11, -153.586, -94.9356, 95.7655
1.444, -1, -14.6363, 6.53984, 19.1149, -153.611, -94.9275, 95.6205
1.448, -1, -14.7159, 6.5191, 19.1199, -153.636, -94.9195, 95.4754
1.452, -1, -14.7955, 6.49835, 19.1248, -153.661, -94.9114, 95.3304
1.456, -1, -14.8752, 6.4776, 19.1297, -153.686, -94.9033, 95.1853
1.46, -1, -14.9548, 6.45685, 19.1347, -153.71, -94.8952, 95.0402
1.464, -1, -15.0345, 6.43609, 19.1396, -153.735, -94.8871, 94.8951
1.468, -1, -15.1142, 6.41533, 19.1446, -153.76, -94.879, 94.75
1.472, -1, -15.1939, 6.39457, 19.1495, -153.785, -94.8709, 94.6048
1.476, -1, -15.2736, 6.37381, 19.1544, -153.81, -94.8628, 94.4597
1.48, -1, -15.3533, 6.35304, 19.1594, -153.835, -94.8547, 94.3145
1.484, -1, -15.433, 6.33227, 19.1643, -153.86, -94.8466, 94.1693
1.488, -1, -15.5127, 6.31149, 19.1693, -153.885, -94.8385, 94.024
1.492, -1, -15.5925, 6.29072, 19.1742, -153.91, -94.8304, 93.8788
1.496, -1, -15.6722, 6.26994, 19.1792, -153.935, -94.8223, 93.7335
1.5, -1, -15.752, 6.24916, 19.1841, -153.959, -94.8142, 93.5882
1.504, -1, -15.8318, 6.22837, 19.1891, -153.984, -94.8061, 93.4429
1.508, -1, -15.9116, 6.20758, 19.194, -154.009, -94.798, 93.2976
1.512, -1, -15.9914, 6.18679, 19.199, -154.034, -94.7899, 93.1522
1.516, -1, -16.0712, 6.166, 19.2039, -154.059, -94.7818, 93.0068
1.52, -1, -16.151, 6.1452, 19.2089, -154.084, -94.7737, 92.8614
1.524, -1, -16.2308, 6.12441, 19.2138, -154.109, -94.7656, 92.716
1.528, -1, -16.3107, 6.1036, 19.2188, -154.134, -94.7575, 92.5706
1.532, -1, -16.3905, 6.0828, 19.2237, -154.159, -94.7494, 92.4251
1.536, -1, -16.4704, 6.06199, 19.2287, -154.184, -94.7413, 92.2797
1.54, -1, -16.5503, 6.04118, 19.2336, -154.209, -94.7332, 92.1342
1.544, -1, -16.6302, 6.02037, 19.2386, -154.234, -94.725, 91.9887
1.548, -1, -16.7101, 5.99955, 19.2435, -154.259, -94.7169, 91.8431
1.552, -1, -16.79, 5.97873, 19.2485, -154.284, -94.7088, 91.6976
1.556, -1, -16.8699, 5.95791, 19.2534, -154.309, -94.7007, 91.552
1.56, -1, -16.9498, 5.93708, 19.2584, -154.334, -94.6926, 91.4064
1.564, -1, -17.0298, 5.91625, 19.2634, -154.359, -94.6845, 91.2608
1.568, -1, -17.1097, 5.89542, 19.2683, -154.384, -94.6763, 91.1151
1.572, -1, -17.1897, 5.87459, 19.2733, -154.409, -94.6682, 90.9695
1.576, -1, -17.2697, 5.85375, 19.2782, -154.434, -94.6601, 90.8238
1.58, -1, -17.3497, 5.83291, 19.2832, -154.458, -94.652, 90.6781
1.584, -1, -17.4297, 5.81207, 19.2882, -154.483, -94.6439, 90.5324
1.588, -1, -17.5097, 5.79122, 19.2931, -154.508, -94.6357, 90.3867
1.592, -1, -17.5897, 5.77038, 19.2981, -154.533, -94.6276, 90.2409
1.596, -1, -17.6697, 5.74952, 19.303, -154.558, -94.6195, 90.0951
1.6, -1, -17.7498, 5.72867, 19.308, -154.583, -94.6113, 89.9493
1.604, -1, -17.8298, 5.70781, 19.313, -154.608, -94.6032, 89.8035
1.608, -1, -17.9099, 5.68695, 19.3179, -154.633, -94.5951, 89.6577
1.612, -1, -17.99, 5.66609, 19.3229, -154.659, -94.5869, 89.5118
1.616, -1, -18.0701, 5.64522, 19.3279, -154.684, -94.5788, 89.3659
1.62, -1, -18.1502, 5.62435, 19.3328, -154.709, -94.5707, 89.22
1.624, -1, -18.2303, 5.60348, 19.3378, -154.734, -94.5625, 89.0741
1.628, -1, -18.3104, 5.58261, 19.3428, -154.759, -94.5544, 88.9282
1.632, -1, -18.3905, 5.56173, 19.3477, -154.784, -94.5463, 88.7822
1.636, -1, -18.4707, 5.54085, 19.3527, -154.809, -94.5381, 88.6362
1.64, -1, -18.5508, 5.51997, 19.3577, -154.834, -94.53, 88.4902
1.644, -1, -18.631, 5.49908, 19.3627, -154.859, -94.5218, 88.3442
1.648, -1, -18.7112, 5.47819, 19.3676, -154.884, -94.5137, 88.1981
1.652, -1, -18.7914, 5.4573, 19.3726, -154.909, -94.5056, 88.0521
1.656, -1, -18.8716, 5.4364, 19.3776, -154.934, -94.4974, 87.906
1.66, -1, -18.9518, 5.4155, 19.3825, -154.959, -94.4893, 87.7599
1.664, -1, -19.032, 5.3946, 19.3875, -154.984, -94.4811, 87.6138
1.668, -1, -19.1122, 5.3737, 19.3925, -155.009, -94.473, 87.4676
1.672, -1, -19.1925, 5.35279, 19.3975, -155.034, -94.4648, 87.3214
1.676, -1, -19.2727, 5.33188, 19.4025, -155.059, -94.4567, 87.1753
1.68, -1, -19.353, 5.31097, 19.4074, -155.084, -94.4485, 87.029
1.684, -1, -19.4333, 5.29005, 19.4124, -155.109, -94.4404, 86.8828
1.688, -1, -19.5136, 5.26913, 19.4174, -155.134, -94.4322, 86.7366
1.692, -1, -19.5939, 5.24821, 19.4224, -155.16, -94.4241, 86.5903
1.696, -1, -19.6742, 5.22729, 19.4274, -155.185, -94.4159, 86.444
1.7, -1, -19.7545, 5.20636, 19.4323, -155.21, -94.4077, 86.2977
1.704, -1, -19.8349, 5.18543, 19.4373, -155.235, -94.3996, 86.1514
1.708, -1, -19.9152, 5.16449, 19.4423, -155.26, -94.3914, 86.005
1.712, -1, -19.9956, 5.14356, 19.4473, -155.285, -94.3833, 85.8586
1.716, -1, -20.076, 5.12262, 19.4523, -155.31, -94.3751, 85.7122
1.72, -1, -20.1563, 5.10168, 19.4573, -155.335, -94.3669, 85.5658
1.724, -1, -20.2367, 5.08073, 19.4622, -155.36, -94.3588, 85.4194
1.728, -1, -20.3171, 5.05978, 19.4672, -155.385, -94.3506, 85.2729
1.732, -1, -20.3976, 5.03883, 19.4722, -155.411, -94.3424, 85.1264
1.736, -1, -20.478, 5.01788, 19.4772, -155.436, -94.3343, 84.9799
1.74, -1, -20.5584, 4.99692, 19.4822, -155.461, -94.3261, 84.8334
1.744, -1, -20.6389, 4.97596, 19.4872, -155.486, -94.3179, 84.6869
1.748, -1, -20.7193, 4.95499, 19.4922, -155.511, -94.3098, 84.5403
1.752, -1, -20.7998, 4.93403, 19.4972, -155.536, -94.3016, 84.3937
1.756, -1, -20.8803, 4.91306, 19.5021, -155.561, -94.2934, 84.2471
1.76, -1, -20.9608, 4.89209, 19.5071, -155.587, -94.2852, 84.1005
1.764, -1, -21.0413, 4.87111, 19.5121, -155.612, -94.2771, 83.9539
1.768, -1, -21.1218, 4.85013, 19.5171, -155.637, -94.2689, 83.8072
1.772, -1, -21.2024, 4.82915, 19.5221, -155.662, -94.2607, 83.6605
1.776, -1, -21.2829, 4.80817, 19.5271, -155.687, -94.2525, 83.5138
1.78, -1, -21.3635, 4.78718, 19.5321, -155.712, -94.2443, 83.3671
1.784, -1, -21.444, 4.76619, 19.5371, -155.737, -94.2362, 83.2203
1.788, -1, -21.5246, 4.7452, 19.5421, -155.763, -94.228, 83.0736
1.792, -1, -21.6052, 4.7242, 19.5471, -155.788, -94.2198, 82.9268
1.796, -1, -21.6858, 4.7032, 19.5521, -155.813, -94.2116, 82.78
1.8, -1, -21.7664, 4.6822, 19.5571, -155.838, -94.2034, 82.6331
1.804, -1, -21.847, 4.66119, 19.5621, -155.863, -94.1952, 82.4863
1.808, -1, -21.9277, 4.64019, 19.5671, -155.889, -94.187, 82.3394
1.812, -1, -22.0083, 4.61917, 19.5721, -155.914, -94.1789, 82.1925
1.816, -1, -22.089, 4.59816, 19.5771, -155.939, -94.1707, 82.0456
1.82, -1, -22.1696, 4.57714, 19.5821, -155.964, -94.1625, 81.8987
1.824, -1, -22.2503, 4.55612, 19.5871, -155.989, -94.1543, 81.7517
1.828, -1, -22.331, 4.5351, 19.5921, -156.015, -94.1461, 81.6047
1.832, -1, -22.4117, 4.51407, 19.5971, -156.04, -94.1379, 81.4577
1.836, -1, -22.4924, 4.49304, 19.6021, -156.065, -94.1297, 81.3107
1.84, -1, -22.5732, 4.47201, 19.6071, -156.09, -94.1215, 81.1636
1.844, -1, -22.6539, 4.45097, 19.6121, -156.115, -94.1133, 81.0166
1.848, -1, -22.7347, 4.42993, 19.6171, -156.141, -94.1051, 80.8695
1.852, -1, -22.8154, 4.40889, 19.6222, -156.166, -94.0969, 80.7224
1.856, -1, -22.8962, 4.38785, 19.6272, -156.191, -94.0887, 80.5752
1.86, -1, -22.977, 4.3668, 19.6322, -156.216, -94.0805, 80.4281
1.864, -1, -23.0578, 4.34575, 19.6372, -156.242, -94.0723, 80.2809
1.868, -1, -23.1386, 4.32469, 19.6422, -156.267, -94.0641, 80.1337
1.872, -1, -23.2194, 4.30363, 19.6472, -156.292, -94.0559, 79.9865
1.876, -1, -23.3003, 4.28257, 19.6522, -156.317, -94.0476, 79.8392
1.88, -1, -23.3811, 4.26151, 19.6572, -156.343, -94.0394, 79.692
1.884, -1, -23.462, 4.24044, 19.6623, -156.368, -94.0312, 79.5447
1.888, -1, -23.5429, 4.21937, 19.6673, -156.393, -94.023, 79.3974
1.892, -1, -23.6238, 4.1983, 19.6723, -156.418, -94.0148, 79.25
1.896, -1, -23.7047, 4.17722, 19.6773, -156.444, -94.0066, 79.1027
1.9, -1, -23.7856, 4.15614, 19.6823, -156.469, -93.9984, 78.9553
1.904, -1, -23.8665, 4.13506, 19.6873, -156.494, -93.9901, 78.8079
1.908, -1, -23.9474, 4.11397, 19.6924, -156.519, -93.9819, 78.6605
1.912, -1, -24.0284, 4.09288, 19.6974, -156.545, -93.9737, 78.513
1.916, -1, -24.1093, 4.07179, 19.7024, -156.57, -93.9655, 78.3656
1.92, -1, -24.1903, 4.05069, 19.7074, -156.595, -93.9573, 78.2181
1.924, -1, -24.2713, 4.02959, 19.7124, -156.621, -93.949, 78.0706
1.928, -1, -24.3523, 4.00849, 19.7175, -156.646, -93.9408, 77.923
1.932, -1, -24.4333, 3.98739, 19.7225, -156.671, -93.9326, 77.7755
1.936, -1, -24.5143, 3.96628, 19.7275, -156.697, -93.9244, 77.6279
1.94, -1, -24.5953, 3.94517, 19.7325, -156.722, -93.9161, 77.4803
1.944, -1, -24.6764, 3.92405, 19.7376, -156.747, -93.9079, 77.3327
1.948, -1, -24.7574, 3.90293, 19.7426, -156.773, -93.8997, 77.1851
1.952, -1, -24.8385, 3.88181, 19.7476, -156.798, -93.8914, 77.0374
1.956, -1, -24.9196, 3.86069, 19.7526, -156.823, -93.8832, 76.8897
1.96, -1, -25.0007, 3.83956, 19.7577, -156.849, -93.875, 76.742
1.964, -1, -25.0818, 3.81843, 19.7627, -156.874, -93.8667, 76.5943
1.968, -1, -25.1629, 3.7973, 19.7677, -156.899, -93.8585, 76.4465
1.972, -1, -25.244, 3.77616, 19.7728, -156.925, -93.8502, 76.2987
1.976, -1, -25.3252, 3.75502, 19.7778, -156.95, -93.842, 76.1509
1.98, -1, -25.4063, 3.73388, 19.7828, -156.975, -93.8338, 76.0031
1.984, -1, -25.4875, 3.71273, 19.7879, -157.001, -93.8255, 75.8553
1.988, -1, -25.5687, 3.69158, 19.7929, -157.026, -93.8173, 75.7074
1.992, -1, -25.6499, 3.67043, 19.7979, -157.051, -93.809, 75.5595
1.996, -1, -25.7311, 3.64927, 19.803, -157.077, -93.8008, 75.4116
1.999, -1, -25.8123, 3.62811, 19.808, -157.102, -93.7925, 75.2637
2.004, -1, -25.8935, 3.60695, 19.813, -157.127, -93.7843, 75.1158
2.008, -1, -25.9747, 3.58579, 19.8181, -157.153, -93.776, 74.9678
2.012, -1, -26.056, 3.56462, 19.8231, -157.178, -93.7678, 74.8198
2.015, -1, -26.1372, 3.54345, 19.8282, -157.204, -93.7595, 74.6718
2.019, -1, -26.2185, 3.52227, 19.8332, -157.229, -93.7513, 74.5237
2.024, -1, -26.2998, 3.50109, 19.8382, -157.254, -93.743, 74.3757
2.028, -1, -26.3811, 3.47991, 19.8433, -157.28, -93.7348, 74.2276
2.031, -1, -26.4624, 3.45873, 19.8483, -157.305, -93.7265, 74.0795
2.036, -1, -26.5437, 3.43754, 19.8534, -157.331, -93.7183, 73.9313
2.04, -1, -26.6251, 3.41635, 19.8584, -157.356, -93.71, 73.7832
2.044, -1, -26.7064, 3.39516, 19.8635, -157.381, -93.7017, 73.635
2.048, -1, -26.7878, 3.37396, 19.8685, -157.407, -93.6935, 73.4868
2.051, -1, -26.8692, 3.35276, 19.8735, -157.432, -93.6852, 73.3386
2.055, -1, -26.9505, 3.33155, 19.8786, -157.458, -93.6769, 73.1904
2.06, -1, -27.0319, 3.31035, 19.8836, -157.483, -93.6687, 73.0421
2.064, -1, -27.1133, 3.28914, 19.8887, -157.508, -93.6604, 72.8938
2.068, -1, -27.1948, 3.26792, 19.8937, -157.534, -93.6521, 72.7455
2.071, -1, -27.2762, 3.24671, 19.8988, -157.559, -93.6439, 72.5972
2.076, -1, -27.3577, 3.22549, 19.9038, -157.585, -93.6356, 72.4488
2.08, -1, -27.4391, 3.20427, 19.9089, -157.61, -93.6273, 72.3005
2.084, -1, -27.5206, 3.18304, 19.9139, -157.636, -93.619, 72.1521
2.087, -1, -27.6021, 3.16181, 19.919, -157.661, -93.6108, 72.0036
2.092, -1, -27.6836, 3.14058, 19.9241, -157.687, -93.6025, 71.8552
2.096, -1, -27.7651, 3.11934, 19.9291, -157.712, -93.5942, 71.7067
2.1, -1, -27.8466, 3.09811, 19.9342, -157.738, -93.5859, 71.5583
2.104, -1, -27.9281, 3.07686, 19.9392, -157.763, -93.5777, 71.4097
2.107, -1, -28.0097, 3.05562, 19.9443, -157.788, -93.5694, 71.2612
2.111, -1, -28.0912, 3.03437, 19.9493, -157.814, -93.5611, 71.1127
2.116, -1, -28.1728, 3.01312, 19.9544, -157.839, -93.5528, 70.9641
2.12, -1, -28.2544, 2.99186, 19.9595, -157.865, -93.5445, 70.8155
2.124, -1, -28.336, 2.97061, 19.9645, -157.89, -93.5362, 70.6669
2.127, -1, -28.4176, 2.94935, 19.9696, -157.916, -93.5279, 70.5182
2.132, -1, -28.4992, 2.92808, 19.9746, -157.941, -93.5197, 70.3696
2.136, -1, -28.5808, 2.90682, 19.9797, -157.967, -93.5114, 70.2209
2.14, -1, -28.6624, 2.88554, 19.9848, -157.992, -93.5031, 70.0722
2.143, -1, -28.7441, 2.86427, 19.9898, -158.018, -93.4948, 69.9234
2.148, -1, -28.8258, 2.84299, 19.9949, -158.043, -93.4865, 69.7747
2.152, -1, -28.9074, 2.82171, 20, -158.069, -93.4782, 69.6259
2.156, -1, -28.9891, 2.80043, 20.005, -158.094, -93.4699, 69.4771
2.16, -1, -29.0708, 2.77914, 20.0101, -158.12, -93.4616, 69.3283
2.163, -1, -29.1526, 2.75785, 20.0152, -158.145, -93.4533, 69.1794
2.168, -1, -29.2343, 2.73656, 20.0202, -158.171, -93.445, 69.0306
2.172, -1, -29.316, 2.71527, 20.0253, -158.197, -93.4367, 68.8817
2.176, -1, -29.3978, 2.69397, 20.0304, -158.222, -93.4284, 68.7328
2.179, -1, -29.4795, 2.67266, 20.0354, -158.248, -93.4201, 68.5839
2.184, -1, -29.5613, 2.65136, 20.0405, -158.273, -93.4118, 68.4349
2.188, -1, -29.6431, 2.63005, 20.0456, -158.299, -93.4035, 68.2859
2.192, -1, -29.7249, 2.60874, 20.0507, -158.324, -93.3952, 68.1369
2.196, -1, -29.8067, 2.58742, 20.0557, -158.35, -93.3869, 67.9879
2.199, -1, -29.8886, 2.5661, 20.0608, -158.375, -93.3786, 67.8388
2.204, -1, -29.9704, 2.54478, 20.0659, -158.401, -93.3703, 67.6898
2.208, -1, -30.0523, 2.52345, 20.071, -158.427, -93.3619, 67.5407
2.212, -1, -30.1341, 2.50212, 20.076, -158.452, -93.3536, 67.3916
2.216, -1, -30.216, 2.48079, 20.0811, -158.478, -93.3453, 67.2424
2.219, -1, -30.2979, 2.45946, 20.0862, -158.503, -93.337, 67.0933
2.224, -1, -30.3798, 2.43812, 20.0913, -158.529, -93.3287, 66.9441
2.228, -1, -30.4617, 2.41677, 20.0963, -158.554, -93.3204, 66.7949
2.232, -1, -30.5436, 2.39543, 20.1014, -158.58, -93.312, 66.6456
2.235, -1, -30.6256, 2.37408, 20.1065, -158.606, -93.3037, 66.4964
2.24, -1, -30.7075, 2.35273, 20.1116, -158.631, -93.2954, 66.3471
2.244, -1, -30.7895, 2.33137, 20.1167, -158.657, -93.2871, 66.1978
2.248, -1, -30.8715, 2.31001, 20.1218, -158.682, -93.2787, 66.0485
2.252, -1, -30.9535, 2.28865, 20.1268, -158.708, -93.2704, 65.8991
2.255, -1, -31.0355, 2.26729, 20.1319, -158.734, -93.2621, 65.7497
2.259, -1, -31.1175, 2.24592, 20.137, -158.759, -93.2538, 65.6003
2.264, -1, -31.1995, 2.22455, 20.1421, -158.785, -93.2454, 65.4509
2.268, -1, -31.2816, 2.20317, 20.1472, -158.811, -93.2371, 65.3015
2.272, -1, -31.3636, 2.18179, 20.1523, -158.836, -93.2288, 65.152
2.275, -1, -31.4457, 2.16041, 20.1574, -158.862, -93.2204, 65.0025
2.28, -1, -31.5278, 2.13902, 20.1625, -158.887, -93.2121, 64.853
2.284, -1, -31.6099, 2.11764, 20.1676, -158.913, -93.2037, 64.7035
2.288, -1, -31.692, 2.09624, 20.1726, -158.939, -93.1954, 64.5539
2.291, -1, -31.7741, 2.07485, 20.1777, -158.964, -93.1871, 64.4043
2.296, -1, -31.8563, 2.05345, 20.1828, -158.99, -93.1787, 64.2547
2.3, -1, -31.9384, 2.03205, 20.1879, -159.016, -93.1704, 64.1051
2.304, -1, -32.0206, 2.01064, 20.193, -159.041, -93.162, 63.9555
2.308, -1, -32.1027, 1.98923, 20.1981, -159.067, -93.1537, 63.8058
2.311, -1, -32.1849, 1.96782, 20.2032, -159.093, -93.1453, 63.6561
2.316, -1, -32.2671, 1.94641, 20.2083, -159.118, -93.137, 63.5064
2.32, -1, -32.3493, 1.92499, 20.2134, -159.144, -93.1286, 63.3566
2.324, -1, -32.4315, 1.90357, 20.2185, -159.17, -93.1203, 63.2069
2.328, -1, -32.5138, 1.88214, 20.2236, -159.195, -93.1119, 63.0571
2.331, -1, -32.596, 1.86071, 20.2287, -159.221, -93.1036, 62.9073
2.336, -1, -32.6783, 1.83928, 20.2338, -159.247, -93.0952, 62.7574
2.34, -1, -32.7606, 1.81785, 20.2389, -159.273, -93.0869, 62.6076
2.344, -1, -32.8428, 1.79641, 20.244, -159.298, -93.0785, 62.4577
2.347, -1, -32.9251, 1.77497, 20.2491, -159.324, -93.0702, 62.3078
2.352, -1, -33.0075, 1.75352, 20.2542, -159.35, -93.0618, 62.1578
2.356, -1, -33.0898, 1.73207, 20.2593, -159.375, -93.0535, 62.0079
2.36, -1, -33.1721, 1.71062, 20.2644, -159.401, -93.0451, 61.8579
2.364, -1, -33.2545, 1.68917, 20.2695, -159.427, -93.0367, 61.7079
2.367, -1, -33.3368, 1.66771, 20.2746, -159.453, -93.0284, 61.5579
2.372, -1, -33.4192, 1.64625, 20.2798, -159.478, -93.02, 61.4079
2.376, -1, -33.5016, 1.62478, 20.2849, -159.504, -93.0116, 61.2578
2.38, -1, -33.584, 1.60332, 20.29, -159.53, -93.0033, 61.1077
2.383, -1, -33.6664, 1.58184, 20.2951, -159.555, -92.9949, 60.9576
2.388, -1, -33.7488, 1.56037, 20.3002, -159.581, -92.9865, 60.8075
2.392, -1, -33.8313, 1.53889, 20.3053, -159.607, -92.9781, 60.6573
2.396, -1, -33.9137, 1.51741, 20.3104, -159.633, -92.9698, 60.5071
2.4, -1, -33.9962, 1.49593, 20.3155, -159.659, -92.9614, 60.3569
2.403, -1, -34.0787, 1.47444, 20.3207, -159.684, -92.953, 60.2067
2.408, -1, -34.1611, 1.45295, 20.3258, -159.71, -92.9446, 60.0564
2.412, -1, -34.2436, 1.43145, 20.3309, -159.736, -92.9363, 59.9062
2.416, -1, -34.3262, 1.40996, 20.336, -159.762, -92.9279, 59.7559
2.42, -1, -34.4087, 1.38845, 20.3411, -159.787, -92.9195, 59.6055
2.423, -1, -34.4912, 1.36695, 20.3462, -159.813, -92.9111, 59.4552
2.428, -1, -34.5738, 1.34544, 20.3514, -159.839, -92.9027, 59.3048
2.432, -1, -34.6563, 1.32393, 20.3565, -159.865, -92.8944, 59.1544
2.436, -1, -34.7389, 1.30242, 20.3616, -159.891, -92.886, 59.004
2.439, -1, -34.8215, 1.2809, 20.3667, -159.916, -92.8776, 58.8536
2.444, -1, -34.9041, 1.25938, 20.3718, -159.942, -92.8692, 58.7031
2.448, -1, -34.9867, 1.23785, 20.377, -159.968, -92.8608, 58.5526
2.452, -1, -35.0694, 1.21632, 20.3821, -159.994, -92.8524, 58.4021
2.456, -1, -35.152, 1.19479, 20.3872, -160.02, -92.844, 58.2516
2.459, -1, -35.2347, 1.17326, 20.3923, -160.045, -92.8356, 58.101
2.464, -1, -35.3173, 1.15173, 20.3975, -160.071, -92.8272, 57.9505
2.468, -1, -35.3997, 1.13023, 20.4026, -160.097, -92.8188, 57.7999
2.472, -1, -35.4818, 1.10878, 20.4078, -160.123, -92.8104, 57.6493
2.476, -1, -35.5635, 1.08741, 20.413, -160.149, -92.802, 57.4988
2.479, -1, -35.6446, 1.06616, 20.4183, -160.174, -92.7936, 57.3484
2.484, -1, -35.725, 1.04507, 20.4237, -160.2, -92.7853, 57.1983
2.488, -1, -35.8046, 1.02417, 20.4291, -160.226, -92.7769, 57.0487
2.492, -1, -35.8833, 1.00351, 20.4346, -160.251, -92.7686, 56.8999
2.495, -1, -35.961, 0.98315, 20.4401, -160.277, -92.7603, 56.7522
2.5, -1, -36.0373, 0.963176, 20.4457, -160.302, -92.7521, 56.6059
2.504, -1, -36.112, 0.943679, 20.4513, -160.326, -92.7441, 56.4617
2.508, -1, -36.1847, 0.92474, 20.457, -160.351, -92.7361, 56.3201
2.512, -1, -36.2551, 0.90643, 20.4627, -160.374, -92.7284, 56.1818
2.515, -1, -36.3231, 0.888799, 20.4682, -160.397, -92.7208, 56.0476
2.52, -1, -36.3884, 0.871882, 20.4737, -160.419, -92.7136, 55.9183
2.524, -1, -36.4509, 0.85571, 20.4788, -160.44, -92.7066, 55.7946
2.528, -1, -36.5103, 0.840324, 20.4837, -160.46, -92.7, 55.6775
2.531, -1, -36.5666, 0.825781, 20.4881, -160.479, -92.6939, 55.5676
2.536, -1, -36.6193, 0.812145, 20.4922, -160.497, -92.6881, 55.4654
2.54, -1, -36.6683, 0.799459, 20.4958, -160.513, -92.6829, 55.3716
2.544, -1, -36.7136, 0.787735, 20.499, -160.527, -92.6781, 55.2865
2.548, -1, -36.7552, 0.776955, 20.5016, -160.54, -92.6739, 55.2103
2.551, -1, -36.7933, 0.767089, 20.5037, -160.552, -92.6701, 55.1429
2.556, -1, -36.8278, 0.758113, 20.5053, -160.562, -92.6669, 55.0844
2.56, -1, -36.8589, 0.750013, 20.5063, -160.571, -92.6641, 55.0343
2.564, -1, -36.8866, 0.742783, 20.5069, -160.578, -92.6618, 54.9921
2.568, -1, -36.9109, 0.736422, 20.5071, -160.584, -92.6599, 54.9572
2.571, -1, -36.932, 0.730914, 20.5071, -160.589, -92.6583, 54.9288
2.576, -1, -36.9501, 0.726218, 20.5069, -160.593, -92.6571, 54.9061
2.58, -1, -36.9654, 0.722265, 20.5065, -160.596, -92.6562, 54.8883
2.584, -1, -36.9784, 0.718972, 20.5061, -160.598, -92.6554, 54.8747
2.587, -1, -36.9893, 0.716263, 20.5055, -160.6, -92.6549, 54.8646
2.592, -1, -36.9984, 0.714071, 20.505, -160.602, -92.6545, 54.8571
2.596, -1, -37.0057, 0.712338, 20.5046, -160.602, -92.6543, 54.8518
2.6, -1, -37.0116, 0.711006, 20.5041, -160.603, -92.6541, 54.8481
2.604, 2, -37.016, 0.710018, 20.5038, -160.604, -92.654, 54.8455
2.607, 2, -37.0193, 0.709311, 20.5035, -160.604, -92.6539, 54.8437
2.612, 2, -37.0216, 0.708822, 20.5034, -160.604, -92.6538, 54.8425
2.616, 2, -37.0231, 0.708489, 20.5033, -160.604, -92.6538, 54.8417
2.62, 2, -37.0242, 0.708263, 20.5032, -160.604, -92.6538, 54.8412
2.624, 2, -37.0249, 0.70811, 20.5031, -160.604, -92.6537, 54.8408
2.627, 2, -37.0254, 0.708006, 20.5031, -160.605, -92.6537, 54.8406
2.632, 2, -37.0257, 0.707936, 20.5031, -160.605, -92.6537, 54.8404
2.636, 2, -37.026, 0.707889, 20.503, -160.605, -92.6537, 54.8403
2.64, 2, -37.0261, 0.707856, 20.503, -160.605, -92.6537, 54.8402
2.643, 2, -37.0262, 0.707835, 20.503, -160.605, -92.6537, 54.8402
2.648, 2, -37.0263, 0.70782, 20.503, -160.605, -92.6537, 54.8401
2.652, 2, -37.0263, 0.70781, 20.503, -160.605, -92.6537, 54.8401
2.656, 2, -37.0264, 0.707803, 20.503, -160.605, -92.6537, 54.8401
2.66, 2, -37.0264, 0.707798, 20.503, -160.605, -92.6537, 54.8401
2.663, 2, -37.0264, 0.707795, 20.503, -160.605, -92.6537, 54.8401
2.668, 2, -37.0264, 0.707793, 20.503, -160.605, -92.6537, 54.8401
2.672, 2, -37.0264, 0.707792, 20.503, -160.605, -92.6537, 54.8401
2.676, 2, -37.0264, 0.707791, 20.503, -160.605, -92.6537, 54.8401
2.679, 2, -37.0264, 0.70779, 20.503, -160.605, -92.6537, 54.8401
2.684, 2, -37.0264, 0.70779, 20.503, -160.605, -92.6537, 54.84
2.688, 2, -37.0264, 0.707789, 20.503, -160.605, -92.6537, 54.84
2.692, 2, -37.0264, 0.707789, 20.503, -160.605, -92.6537, 54.84
2.696, 2, -37.0264, 0.707789, 20.503, -160.605, -92.6537, 54.84
2.699, 2, -37.0264, 0.707789, 20.503, -160.605, -92.6537, 54.84
2.704, 2, -37.0264, 0.707789, 20.503, -160.605, -92.6537, 54.84
2.708, 2, -37.0264, 0.707789, 20.503, -160.605, -92.6537, 54.84
2.712, 2, -37.0264, 0.707789, 20.503, -160.605, -92.6537, 54.84
2.716, 2, -37.0264, 0.707789, 20.503, -160.605, -92.6537, 54.84
2.719, 2, -37.0264, 0.707789, 20.503, -160.605, -92.6537, 54.84
2.724, 2, -37.0264, 0.707789, 20.503, -160.605, -92.6537, 54.84
2.728, 2, -37.0264, 0.707789, 20.503, -160.605, -92.6537, 54.84
2.732, 2, -37.0264, 0.707789, 20.503, -160.605, -92.6537, 54.84
2.735, 2, -37.0264, 0.707789, 20.503, -160.605, -92.6537, 54.84
2.74, 2, -37.0264, 0.707789, 20.503, -160.605, -92.6537, 54.84
2.744, 2, -37.0264, 0.707789, 20.503, -160.605, -92.6537, 54.84
2.748, 2, -37.0264, 0.707789, 20.503, -160.605, -92.6537, 54.84
2.752, 2, -37.0264, 0.707789, 20.503, -160.605, -92.6537, 54.84
2.755, 2, -37.0264, 0.707789, 20.503, -160.605, -92.6537, 54.84
2.76, 2, -37.0264, 0.707789, 20.503, -160.605, -92.6537, 54.84
2.764, 2, -37.0264, 0.707789, 20.503, -160.605, -92.6537, 54.84
2.768, 2, -37.0264, 0.707789, 20.503, -160.605, -92.6537, 54.84
2.772, 2, -37.0264, 0.707789, 20.503, -160.605, -92.6537, 54.84
2.775, 2, -37.0264, 0.707789, 20.503, -160.605, -92.6537, 54.84
2.78, 2, -37.0264, 0.707789, 20.503, -160.605, -92.6537, 54.84
2.784, 2, -37.0264, 0.707789, 20.503, -160.605, -92.6537, 54.84
2.788, 2, -37.0264, 0.707789, 20.503, -160.605, -92.6537, 54.84
2.791, 2, -37.0264, 0.707789, 20.503, -160.605, -92.6537, 54.84
2.796, 2, -37.0264, 0.707789, 20.503, -160.605, -92.6537, 54.84
2.8, 2, -37.0264, 0.707789, 20.503, -160.605, -92.6537, 54.84
2.804, 2, -37.0264, 0.707789, 20.503, -160.605, -92.6537, 54.84
2.808, 2, -37.0264, 0.707789, 20.503, -160.605, -92.6537, 54.84
2.811, 2, -37.0264, 0.707789, 20.503, -160.605, -92.6537, 54.84
2.816, 2, -37.0264, 0.707789, 20.503, -160.605, -92.6537, 54.84
2.82, 2, -37.0264, 0.707789, 20.503, -160.605, -92.6537, 54.84
2.824, 2, -37.0264, 0.707789, 20.503, -160.605, -92.6537, 54.84
2.828, 2, -37.0264, 0.707789, 20.503, -160.605, -92.6537, 54.84
2.831, 2, -37.0264, 0.707789, 20.503, -160.605, -92.6537, 54.84
2.836, 2, -37.0264, 0.707789, 20.503, -160.605, -92.6537, 54.84
2.84, 2, -37.0264, 0.707789, 20.503, -160.605, -92.6537, 54.84
2.844, 2, -37.0264, 0.707789, 20.503, -160.605, -92.6537, 54.84
2.847, 2, -37.0264, 0.707789, 20.503, -160.605, -92.6537, 54.84
2.852, 2, -37.0264, 0.707789, 20.503, -160.605, -92.6537, 54.84
2.856, 2, -37.0264, 0.707789, 20.503, -160.605, -92.6537, 54.84
2.86, 2, -37.0264, 0.707789, 20.503, -160.605, -92.6537, 54.84
2.864, 2, -37.0264, 0.707789, 20.503, -160.605, -92.6537, 54.84
2.867, 2, -37.0264, 0.707789, 20.503, -160.605, -92.6537, 54.84
2.872, 2, -37.0264, 0.707789, 20.503, -160.605, -92.6537, 54.84
2.876, 2, -37.0264, 0.707789, 20.503, -160.605, -92.6537, 54.84
2.88, 2, -37.0264, 0.707789, 20.503, -160.605, -92.6537, 54.84
2.883, 2, -37.0264, 0.707789, 20.503, -160.605, -92.6537, 54.84
2.888, 2, -37.0264, 0.707789, 20.503, -160.605, -92.6537, 54.84
2.892, 2, -37.0264, 0.707789, 20.503, -160.605, -92.6537, 54.84
2.896, 2, -37.0264, 0.707789, 20.503, -160.605, -92.6537, 54.84
2.9, 2, -37.0264, 0.707789, 20.503, -160.605, -92.6537, 54.84
2.903, 2, -37.0264, 0.707789, 20.503, -160.605, -92.6537, 54.84
2.908, 2, -37.0264, 0.707789, 20.503, -160.605, -92.6537, 54.84
2.912, 2, -37.0264, 0.707789, 20.503, -160.605, -92.6537, 54.84
2.916, 2, -37.0264, 0.707789, 20.503, -160.605, -92.6537, 54.84
2.92, 2, -37.0264, 0.707789, 20.503, -160.605, -92.6537, 54.84
2.923, 2, -37.0264, 0.707789, 20.503, -160.605, -92.6537, 54.84
2.928, 2, -37.0264, 0.707789, 20.503, -160.605, -92.6537, 54.84
2.932, 2, -37.0264, 0.707789, 20.503, -160.605, -92.6537, 54.84
2.936, 2, -37.0264, 0.707789, 20.503, -160.605, -92.6537, 54.84
2.939, 2, -37.0264, 0.707789, 20.503, -160.605, -92.6537, 54.84
2.944, 2, -37.0264, 0.707789, 20.503, -160.605, -92.6537, 54.84
2.948, 2, -37.0264, 0.707789, 20.503, -160.605, -92.6537, 54.84
2.952, 2, -37.0264, 0.707789, 20.503, -160.605, -92.6537, 54.84
2.956, 2, -37.0264, 0.707789, 20.503, -160.605, -92.6537, 54.84
2.959, 2, -37.0264, 0.707789, 20.503, -160.605, -92.6537, 54.84
2.964, 2, -37.0264, 0.707789, 20.503, -160.605, -92.6537, 54.84
2.968, 2, -37.0264, 0.707789, 20.503, -160.605, -92.6537, 54.84
2.972, 2, -37.0264, 0.707789, 20.503, -160.605, -92.6537, 54.84
2.976, 2, -37.0264, 0.707789, 20.503, -160.605, -92.6537, 54.84
2.98, 2, -37.0264, 0.707789, 20.503, -160.605, -92.6537, 54.84
2.984, 2, -37.0264, 0.707789, 20.503, -160.605, -92.6537, 54.84
2.988, 2, -37.0264, 0.707789, 20.503, -160.605, -92.6537, 54.84
2.992, 2, -37.0264, 0.707789, 20.503, -160.605, -92.6537, 54.84
2.995, 2, -37.0264, 0.707789, 20.503, -160.605, -92.6537, 54.84
3, 2, -37.0264, 0.707789, 20.503, -160.605, -92.6537, 54.84
3.004, 2, -37.0264, 0.707789, 20.503, -160.605, -92.6537, 54.84
3.008, 2, -37.0264, 0.707789, 20.503, -160.605, -92.6537, 54.84
3.012, 2, -37.0264, 0.707789, 20.503, -160.605, -92.6537, 54.84
3.015, 2, -37.0264, 0.707789, 20.503, -160.605, -92.6537, 54.84
3.02, 2, -37.0264, 0.707789, 20.503, -160.605, -92.6537, 54.84
3.024, 2, -37.0264, 0.707789, 20.503, -160.605, -92.6537, 54.84
3.028, 2, -37.0264, 0.707789, 20.503, -160.605, -92.6537, 54.84
3.031, 2, -37.0264, 0.707789, 20.503, -160.605, -92.6537, 54.84
3.036, 2, -37.0264, 0.707789, 20.503, -160.605, -92.6537, 54.84
3.04, 2, -37.0264, 0.707789, 20.503, -160.605, -92.6537, 54.84
3.044, 2, -37.0264, 0.707789, 20.503, -160.605, -92.6537, 54.84
3.048, 2, -37.0264, 0.707789, 20.503, -160.605, -92.6537, 54.84
3.051, 2, -37.0264, 0.707789, 20.503, -160.605, -92.6537, 54.84
3.056, 2, -37.0264, 0.707789, 20.503, -160.605, -92.6537, 54.84
3.06, 2, -37.0264, 0.707789, 20.503, -160.605, -92.6537, 54.84
3.064, 2, -37.0264, 0.707789, 20.503, -160.605, -92.6537, 54.84
3.068, 2, -37.0264, 0.707789, 20.503, -160.605, -92.6537, 54.84
3.071, 2, -37.0264, 0.707789, 20.503, -160.605, -92.6537, 54.84
3.076, 2, -37.0264, 0.707789, 20.503, -160.605, -92.6537, 54.84
3.08, 2, -37.0264, 0.707789, 20.503, -160.605, -92.6537, 54.84
3.084, 2, -37.0264, 0.707789, 20.503, -160.605, -92.6537, 54.84
3.087, 2, -37.0264, 0.707789, 20.503, -160.605, -92.6537, 54.84
3.092, 2, -37.0264, 0.707789, 20.503, -160.605, -92.6537, 54.84
3.096, 2, -37.0264, 0.707789, 20.503, -160.605, -92.6537, 54.84
3.1, 2, -37.0264, 0.707789, 20.503, -160.605, -92.6537, 54.84
3.104, 2, -37.0264, 0.707789, 20.503, -160.605, -92.6537, 54.84
3.107, 2, -37.0264, 0.707789, 20.503, -160.605, -92.6537, 54.84
3.112, 2, -37.0264, 0.707789, 20.503, -160.605, -92.6537, 54.84
3.116, 2, -37.0264, 0.707789, 20.503, -160.605, -92.6537, 54.84
3.12, 2, -37.0264, 0.707789, 20.503, -160.605, -92.6537, 54.84
3.124, 2, -37.0264, 0.707789, 20.503, -160.605, -92.6537, 54.84
3.128, 2, -37.0264, 0.707789, 20.503, -160.605, -92.6537, 54.84
3.132, 2, -37.0264, 0.707789, 20.503, -160.605, -92.6537, 54.84
3.136, 2, -37.0264, 0.707789, 20.503, -160.605, -92.6537, 54.84
3.14, 2, -37.0264, 0.707789, 20.503, -160.605, -92.6537, 54.84
3.143, 2, -37.0264, 0.707789, 20.503, -160.605, -92.6537, 54.84
3.148, 2, -37.0264, 0.707789, 20.503, -160.605, -92.6537, 54.84
3.152, 2, -37.0264, 0.707789, 20.503, -160.605, -92.6537, 54.84
3.156, 2, -37.0264, 0.707789, 20.503, -160.605, -92.6537, 54.84
3.16, 2, -37.0264, 0.707789, 20.503, -160.605, -92.6537, 54.84
3.163, 2, -37.0264, 0.707789, 20.503, -160.605, -92.6537, 54.84
3.168, 2, -37.0264, 0.707789, 20.503, -160.605, -92.6537, 54.84
3.172, 2, -37.0264, 0.707789, 20.503, -160.605, -92.6537, 54.84
3.176, 2, -37.0264, 0.707789, 20.503, -160.605, -92.6537, 54.84
3.179, 2, -37.0264, 0.707789, 20.503, -160.605, -92.6537, 54.84
3.184, 2, -37.0264, 0.707789, 20.503, -160.605, -92.6537, 54.84
3.188, 2, -37.0264, 0.707789, 20.503, -160.605, -92.6537, 54.84
3.192, 2, -37.0264, 0.707789, 20.503, -160.605, -92.6537, 54.84
3.196, 2, -37.0264, 0.707789, 20.503, -160.605, -92.6537, 54.84
3.199, 2, -37.0264, 0.707789, 20.503, -160.605, -92.6537, 54.84
3.204, 2, -37.0264, 0.707789, 20.503, -160.605, -92.6537, 54.84
3.208, 2, -37.0264, 0.707789, 20.503, -160.605, -92.6537, 54.84
3.212, 2, -37.0264, 0.707789, 20.503, -160.605, -92.6537, 54.84
3.216, 2, -37.0264, 0.707789, 20.503, -160.605, -92.6537, 54.84
3.22, 2, -37.0264, 0.707789, 20.503, -160.605, -92.6537, 54.84
3.224, 2, -37.0264, 0.707789, 20.503, -160.605, -92.6537, 54.84
3.228, 2, -37.0264, 0.707789, 20.503, -160.605, -92.6537, 54.84
3.232, 2, -37.0264, 0.707789, 20.503, -160.605, -92.6537, 54.84
3.235, 2, -37.0264, 0.707789, 20.503, -160.605, -92.6537, 54.84
3.24, 2, -37.0264, 0.707789, 20.503, -160.605, -92.6537, 54.84
3.244, 2, -37.0264, 0.707789, 20.503, -160.605, -92.6537, 54.84
3.248, 2, -37.0264, 0.707789, 20.503, -160.605, -92.6537, 54.84
3.252, 2, -37.0264, 0.707789, 20.503, -160.605, -92.6537, 54.84
3.255, 2, -37.0264, 0.707789, 20.503, -160.605, -92.6537, 54.84
3.26, 2, -37.0264, 0.707789, 20.503, -160.605, -92.6537, 54.84
3.264, 2, -37.0264, 0.707789, 20.503, -160.605, -92.6537, 54.84
3.268, 2, -37.0264, 0.707789, 20.503, -160.605, -92.6537, 54.84
3.272, 2, -37.0264, 0.707789, 20.503, -160.605, -92.6537, 54.84
3.276, 2, -37.0264, 0.707789, 20.503, -160.605, -92.6537, 54.84
3.28, 2, -37.0264, 0.707789, 20.503, -160.605, -92.6537, 54.84
3.284, 2, -37.0264, 0.707789, 20.503, -160.605, -92.6537, 54.84
3.288, 2, -37.0264, 0.707789, 20.503, -160.605, -92.6537, 54.84
3.291, 2, -37.0264, 0.707789, 20.503, -160.605, -92.6537, 54.84
3.296, 2, -37.0264, 0.707789, 20.503, -160.605, -92.6537, 54.84
3.3, 2, -37.0264, 0.707789, 20.503, -160.605, -92.6537, 54.84
3.304, 2, -37.0264, 0.707789, 20.503, -160.605, -92.6537, 54.84
3.308, 2, -37.0264, 0.707789, 20.503, -160.605, -92.6537, 54.84
3.312, 2, -37.0264, 0.707789, 20.503, -160.605, -92.6537, 54.84
3.316, 2, -37.0264, 0.707789, 20.503, -160.605, -92.6537, 54.84
3.32, 2, -37.0264, 0.707789, 20.503, -160.605, -92.6537, 54.84
3.324, 2, -37.0264, 0.707789, 20.503, -160.605, -92.6537, 54.84
3.328, 2, -37.0264, 0.707789, 20.503, -160.605, -92.6537, 54.84
3.332, 2, -37.0264, 0.707789, 20.503, -160.605, -92.6537, 54.84
3.336, 2, -37.0264, 0.707789, 20.503, -160.605, -92.6537, 54.84
3.34, 2, -37.0264, 0.707789, 20.503, -160.605, -92.6537, 54.84
3.344, 2, -37.0264, 0.707789, 20.503, -160.605, -92.6537, 54.84
3.347, 2, -37.0264, 0.707789, 20.503, -160.605, -92.6537, 54.84
3.352, 2, -37.0264, 0.707789, 20.503, -160.605, -92.6537, 54.84
3.356, 2, -37.0264, 0.707789, 20.503, -160.605, -92.6537, 54.84
3.36, 2, -37.0264, 0.707789, 20.503, -160.605, -92.6537, 54.84
3.364, 2, -37.0264, 0.707789, 20.503, -160.605, -92.6537, 54.84
3.368, 2, -37.0264, 0.707789, 20.503, -160.605, -92.6537, 54.84
3.372, 2, -37.0264, 0.707789, 20.503, -160.605, -92.6537, 54.84
3.376, 2, -37.0264, 0.707789, 20.503, -160.605, -92.6537, 54.84
3.38, 2, -37.0264, 0.707789, 20.503, -160.605, -92.6537, 54.84
3.383, 2, -37.0264, 0.707789, 20.503, -160.605, -92.6537, 54.84
3.388, 2, -37.0264, 0.707789, 20.503, -160.605, -92.6537, 54.84
3.392, 2, -37.0264, 0.707789, 20.503, -160.605, -92.6537, 54.84
3.396, 2, -37.0264, 0.707789, 20.503, -160.605, -92.6537, 54.84
3.4, 2, -37.0264, 0.707789, 20.503, -160.605, -92.6537, 54.84
3.403, 2, -37.0264, 0.707789, 20.503, -160.605, -92.6537, 54.84
3.408, 2, -37.0264, 0.707789, 20.503, -160.605, -92.6537, 54.84
3.412, 2, -37.0264, 0.707789, 20.503, -160.605, -92.6537, 54.84
3.416, 2, -37.0264, 0.707789, 20.503, -160.605, -92.6537, 54.84
3.42, 2, -37.0264, 0.707789, 20.503, -160.605, -92.6537, 54.84
3.424, 2, -37.0264, 0.707789, 20.503, -160.605, -92.6537, 54.84
3.428, 2, -37.0264, 0.707789, 20.503, -160.605, -92.6537, 54.84
3.432, 2, -37.0264, 0.707789, 20.503, -160.605, -92.6537, 54.84
3.436, 2, -37.0264, 0.707789, 20.503, -160.605, -92.6537, 54.84
3.439, 2, -37.0264, 0.707789, 20.503, -160.605, -92.6537, 54.84
3.444, 2, -37.0264, 0.707789, 20.503, -160.605, -92.6537, 54.84
3.448, 2, -37.0264, 0.707789, 20.503, -160.605, -92.6537, 54.84
3.452, 2, -37.0264, 0.707789, 20.503, -160.605, -92.6537, 54.84
3.456, 2, -37.0264, 0.707789, 20.503, -160.605, -92.6537, 54.84
3.46, 2, -37.0264, 0.707789, 20.503, -160.605, -92.6537, 54.84
3.464, 2, -37.0264, 0.707789, 20.503, -160.605, -92.6537, 54.84
3.468, 2, -37.0264, 0.707789, 20.503, -160.605, -92.6537, 54.84
3.472, 2, -37.0264, 0.707789, 20.503, -160.605, -92.6537, 54.84
3.476, 2, -37.0264, 0.707789, 20.503, -160.605, -92.6537, 54.84
3.48, 2, -37.0264, 0.707789, 20.503, -160.605, -92.6537, 54.84
3.484, 2, -37.0264, 0.707789, 20.503, -160.605, -92.6537, 54.84
3.488, 2, -37.0264, 0.707789, 20.503, -160.605, -92.6537, 54.84
3.492, 2, -37.0264, 0.707789, 20.503, -160.605, -92.6537, 54.84
3.495, 2, -37.0264, 0.707789, 20.503, -160.605, -92.6537, 54.84
3.5, 2, -37.0264, 0.707789, 20.503, -160.605, -92.6537, 54.84
3.504, 2, -37.0264, 0.707789, 20.503, -160.605, -92.6537, 54.84
3.508, 2, -37.0264, 0.707789, 20.503, -160.605, -92.6537, 54.84
3.512, 2, -37.0264, 0.707789, 20.503, -160.605, -92.6537, 54.84
3.516, 2, -37.0264, 0.707789, 20.503, -160.605, -92.6537, 54.84
3.52, 2, -37.0264, 0.707789, 20.503, -160.605, -92.6537, 54.84
3.524, 2, -37.0264, 0.707789, 20.503, -160.605, -92.6537, 54.84
3.528, 2, -37.0264, 0.707789, 20.503, -160.605, -92.6537, 54.84
3.531, 2, -37.0264, 0.707789, 20.503, -160.605, -92.6537, 54.84
3.536, 2, -37.0264, 0.707789, 20.503, -160.605, -92.6537, 54.84
3.54, 2, -37.0264, 0.707789, 20.503, -160.605, -92.6537, 54.84
3.544, 2, -37.0264, 0.707789, 20.503, -160.605, -92.6537, 54.84
3.548, 2, -37.0264, 0.707789, 20.503, -160.605, -92.6537, 54.84
3.552, 2, -37.0264, 0.707789, 20.503, -160.605, -92.6537, 54.84
3.556, 2, -37.0264, 0.707789, 20.503, -160.605, -92.6537, 54.84
3.56, 2, -37.0264, 0.707789, 20.503, -160.605, -92.6537, 54.84
3.564, 2, -37.0264, 0.707789, 20.503, -160.605, -92.6537, 54.84
3.568, 2, -37.0264, 0.707789, 20.503, -160.605, -92.6537, 54.84
3.572, 2, -37.0264, 0.707789, 20.503, -160.605, -92.6537, 54.84
3.576, 2, -37.0264, 0.707789, 20.503, -160.605, -92.6537, 54.84
3.58, 2, -37.0264, 0.707789, 20.503, -160.605, -92.6537, 54.84
3.584, 2, -37.0264, 0.707789, 20.503, -160.605, -92.6537, 54.84
3.587, 2, -37.0264, 0.707789, 20.503, -160.605, -92.6537, 54.84
3.592, 2, -37.0264, 0.707789, 20.503, -160.605, -92.6537, 54.84
3.596, 2, -37.0264, 0.707789, 20.503, -160.605, -92.6537, 54.84
3.6, 2, -37.0264, 0.707789, 20.503, -160.605, -92.6537, 54.84
3.604, 2, -37.0264, 0.707789, 20.503, -160.605, -92.6537, 54.84
3.608, 2, -37.0264, 0.707789, 20.503, -160.605, -92.6537, 54.84
3.612, 2, -37.0264, 0.707789, 20.503, -160.605, -92.6537, 54.84
3.616, 2, -37.0264, 0.707789, 20.503, -160.605, -92.6537, 54.84
3.62, 2, -37.0264, 0.707789, 20.503, -160.605, -92.6537, 54.84
3.624, 2, -37.0264, 0.707789, 20.503, -160.605, -92.6537, 54.84
3.628, 2, -37.0264, 0.707789, 20.503, -160.605, -92.6537, 54.84
3.632, 2, -37.0264, 0.707789, 20.503, -160.605, -92.6537, 54.84
3.636, 2, -37.0264, 0.707789, 20.503, -160.605, -92.6537, 54.84
3.64, 2, -37.0264, 0.707789, 20.503, -160.605, -92.6537, 54.84
3.644, 2, -37.0264, 0.707789, 20.503, -160.605, -92.6537, 54.84
3.648, 2, -37.0264, 0.707789, 20.503, -160.605, -92.6537, 54.84
3.652, 2, -37.0264, 0.707789, 20.503, -160.605, -92.6537, 54.84
3.656, 2, -37.0264, 0.707789, 20.503, -160.605, -92.6537, 54.84
3.66, 2, -37.0264, 0.707789, 20.503, -160.605, -92.6537, 54.84
3.664, 2, -37.0264, 0.707789, 20.503, -160.605, -92.6537, 54.84
3.668, 2, -37.0264, 0.707789, 20.503, -160.605, -92.6537, 54.84
3.672, 2, -37.0264, 0.707789, 20.503, -160.605, -92.6537, 54.84
3.676, 4, -37.0264, 0.707789, 20.503, -160.605, -92.6537, 54.84
3.679, 4, -37.0264, 0.707789, 20.503, -160.605, -92.6537, 54.84
3.684, 4, -37.0264, 0.707789, 20.503, -160.605, -92.6537, 54.84
3.688, 4, -37.0264, 0.707789, 20.503, -160.605, -92.6537, 54.84
3.692, 4, -37.0264, 0.707789, 20.503, -160.605, -92.6537, 54.84
3.696, 4, -37.0264, 0.707789, 20.503, -160.605, -92.6537, 54.84
3.7, 4, -37.0264, 0.707789, 20.503, -160.605, -92.6537, 54.84
3.704, 4, -37.0264, 0.707789, 20.503, -160.605, -92.6537, 54.84
3.708, 4, -37.0264, 0.707789, 20.503, -160.605, -92.6537, 54.84
3.712, 4, -37.0264, 0.707789, 20.503, -160.605, -92.6537, 54.84
3.716, 4, -37.0264, 0.707789, 20.503, -160.605, -92.6537, 54.84
3.72, 4, -37.0264, 0.707789, 20.503, -160.605, -92.6537, 54.84
3.724, 4, -37.0264, 0.707789, 20.503, -160.605, -92.6537, 54.84
3.728, 4, -37.0264, 0.707789, 20.503, -160.605, -92.6537, 54.84
3.732, 4, -37.0264, 0.707789, 20.503, -160.605, -92.6537, 54.84
3.735, 4, -37.0264, 0.707789, 20.503, -160.605, -92.6537, 54.84
3.74, 4, -37.0264, 0.707789, 20.503, -160.605, -92.6537, 54.84
3.744, 4, -37.0264, 0.707789, 20.503, -160.605, -92.6537, 54.84
3.748, 4, -37.0264, 0.707789, 20.503, -160.605, -92.6537, 54.84
3.752, 4, -37.0264, 0.707789, 20.503, -160.605, -92.6537, 54.84
3.756, 4, -37.0264, 0.707789, 20.503, -160.605, -92.6537, 54.84
3.76, 4, -37.0264, 0.707789, 20.503, -160.605, -92.6537, 54.84
3.764, 4, -37.0264, 0.707789, 20.503, -160.605, -92.6537, 54.84
3.768, 4, -37.0264, 0.707789, 20.503, -160.605, -92.6537, 54.84
3.772, 4, -37.0264, 0.707789, 20.503, -160.605, -92.6537, 54.84
3.776, 4, -37.0264, 0.707789, 20.503, -160.605, -92.6537, 54.84
3.78, 4, -37.0264, 0.707789, 20.503, -160.605, -92.6537, 54.84
3.784, 4, -37.0264, 0.707789, 20.503, -160.605, -92.6537, 54.84
3.788, 4, -37.0264, 0.707789, 20.503, -160.605, -92.6537, 54.84
3.792, 4, -37.0264, 0.707789, 20.503, -160.605, -92.6537, 54.84
3.796, 4, -37.0264, 0.707789, 20.503, -160.605, -92.6537, 54.84
3.8, 4, -37.0264, 0.707789, 20.503, -160.605, -92.6537, 54.84
3.804, 4, -37.0264, 0.707789, 20.503, -160.605, -92.6537, 54.84
3.808, 4, -37.0264, 0.707785, 20.503, -160.605, -92.6537, 54.84
3.812, 4, -37.0264, 0.707758, 20.503, -160.605, -92.6537, 54.84
3.816, 4, -37.0261, 0.707651, 20.503, -160.605, -92.6537, 54.84
3.82, 4, -37.0255, 0.707368, 20.5032, -160.605, -92.6537, 54.84
3.824, 4, -37.0244, 0.706789, 20.5034, -160.605, -92.6537, 54.84
3.828, 4, -37.0225, 0.705799, 20.5038, -160.605, -92.6538, 54.84
3.832, 4, -37.0199, 0.704317, 20.5045, -160.605, -92.6538, 54.84
3.836, 4, -37.0165, 0.70231, 20.5055, -160.604, -92.6539, 54.84
3.84, 4, -37.0125, 0.699792, 20.507, -160.604, -92.6539, 54.8399
3.844, 4, -37.008, 0.696801, 20.5089, -160.604, -92.6539, 54.8399
3.848, 4, -37.003, 0.693372, 20.5114, -160.603, -92.6539, 54.8398
3.852, 4, -36.9977, 0.689504, 20.5145, -160.603, -92.6538, 54.8396
3.856, 5, -36.9919, 0.685153, 20.5183, -160.602, -92.6537, 54.8395
3.86, 5, -36.9856, 0.680248, 20.523, -160.601, -92.6536, 54.8392
3.864, 5, -36.9787, 0.674732, 20.5285, -160.6, -92.6534, 54.839
3.868, 5, -36.9712, 0.668598, 20.5348, -160.599, -92.6531, 54.8386
3.872, 5, -36.9631, 0.66189, 20.5421, -160.597, -92.6528, 54.8383
3.876, 5, -36.9546, 0.65467, 20.5501, -160.595, -92.6524, 54.8378
3.88, 5, -36.9457, 0.646982, 20.559, -160.593, -92.652, 54.8374
3.884, 5, -36.9364, 0.638838, 20.5685, -160.591, -92.6515, 54.8369
3.888, 5, -36.9267, 0.630205, 20.5787, -160.589, -92.651, 54.8363
3.892, 5, -36.9164, 0.621035, 20.5895, -160.587, -92.6504, 54.8357
3.896, 5, -36.9054, 0.611287, 20.6008, -160.584, -92.6499, 54.8352
3.9, 5, -36.8936, 0.600956, 20.6125, -160.581, -92.6493, 54.8346
3.904, 5, -36.881, 0.590086, 20.6245, -160.579, -92.6488, 54.8339
3.908, 5, -36.8677, 0.578768, 20.6369, -160.576, -92.6482, 54.8333
3.912, 5, -36.8538, 0.567112, 20.6494, -160.573, -92.6477, 54.8327
3.916, 5, -36.8394, 0.555222, 20.6621, -160.571, -92.6471, 54.8321
3.92, 5, -36.8248, 0.543173, 20.6748, -160.568, -92.6466, 54.8315
3.924, 5, -36.81, 0.531017, 20.6876, -160.565, -92.646, 54.8309
3.928, 5, -36.795, 0.518792, 20.7005, -160.562, -92.6455, 54.8302
3.932, 5, -36.78, 0.50652, 20.7133, -160.56, -92.6449, 54.8296
3.936, 5, -36.7649, 0.494219, 20.7262, -160.557, -92.6444, 54.829
3.94, 5, -36.7497, 0.481898, 20.7391, -160.554, -92.6438, 54.8284
3.944, 5, -36.7345, 0.469567, 20.752, -160.551, -92.6433, 54.8279
3.948, 5, -36.7193, 0.457229, 20.7649, -160.548, -92.6428, 54.8273
3.952, 5, -36.7041, 0.444889, 20.7777, -160.546, -92.6422, 54.8267
3.956, 5, -36.6889, 0.432548, 20.7906, -160.543, -92.6417, 54.8261
3.96, 5, -36.6736, 0.420209, 20.8035, -160.54, -92.6411, 54.8256
3.964, 5, -36.6584, 0.407872, 20.8163, -160.537, -92.6406, 54.825
3.968, 5, -36.6431, 0.395537, 20.8292, -160.534, -92.6401, 54.8244
3.972, 5, -36.6278, 0.383207, 20.8421, -160.531, -92.6395, 54.8239
3.976, 5, -36.6126, 0.37088, 20.8549, -160.529, -92.639, 54.8233
3.98, 5, -36.5973, 0.358558, 20.8677, -160.526, -92.6384, 54.8228
3.984, 5, -36.582, 0.346239, 20.8806, -160.523, -92.6379, 54.8222
3.988, 5, -36.5667, 0.333925, 20.8934, -160.52, -92.6374, 54.8217
3.992, 5, -36.5514, 0.321616, 20.9062, -160.517, -92.6368, 54.8212
3.996, 5, -36.5361, 0.309311, 20.919, -160.514, -92.6363, 54.8207
3.999, 5, -36.5208, 0.29701, 20.9318, -160.512, -92.6357, 54.8201
4.004, 5, -36.5055, 0.284714, 20.9446, -160.509, -92.6352, 54.8196
4.008, 5, -36.4901, 0.272423, 20.9574, -160.506, -92.6347, 54.8191
4.012, 5, -36.4748, 0.260136, 20.9702, -160.503, -92.6341, 54.8186
4.016, 5, -36.4595, 0.247854, 20.983, -160.5, -92.6336, 54.8181
4.02, 5, -36.4441, 0.235576, 20.9957, -160.497, -92.6331, 54.8176
4.024, 5, -36.4288, 0.223303, 21.0085, -160.495, -92.6325, 54.8171
4.028, 5, -36.4134, 0.211035, 21.0212, -160.492, -92.632, 54.8167
4.032, 5, -36.3981, 0.198771, 21.034, -160.489, -92.6314, 54.8162
4.036, 5, -36.3827, 0.186512, 21.0467, -160.486, -92.6309, 54.8157
4.04, 5, -36.3674, 0.174258, 21.0594, -160.483, -92.6304, 54.8153
4.044, 5, -36.352, 0.162008, 21.0722, -160.48, -92.6298, 54.8148
4.048, 5, -36.3366, 0.149763, 21.0849, -160.477, -92.6293, 54.8143
4.052, 5, -36.3212, 0.137522, 21.0976, -160.475, -92.6288, 54.8139
4.056, 5, -36.3059, 0.125286, 21.1103, -160.472, -92.6282, 54.8134
4.06, 5, -36.2905, 0.113055, 21.123, -160.469, -92.6277, 54.813
4.064, 5, -36.2751, 0.100829, 21.1357, -160.466, -92.6272, 54.8126
4.068, 5, -36.2597, 0.0886067, 21.1484, -160.463, -92.6266, 54.8121
4.072, 5, -36.2443, 0.0763895, 21.161, -160.46, -92.6261, 54.8117
4.076, 5, -36.2288, 0.064177, 21.1737, -160.457, -92.6255, 54.8113
4.08, 5, -36.2134, 0.0519692, 21.1863, -160.454, -92.625, 54.8109
4.084, 5, -36.198, 0.0397661, 21.199, -160.452, -92.6245, 54.8105
4.088, 5, -36.1826, 0.0275676, 21.2116, -160.449, -92.6239, 54.8101
4.092, 5, -36.1671, 0.0153739, 21.2243, -160.446, -92.6234, 54.8097
4.096, 5, -36.1517, 0.00318482, 21.2369, -160.443, -92.6229, 54.8093
4.1, 5, -36.1363, -0.00899952, 21.2495, -160.44, -92.6223, 54.8089
4.104, 5, -36.1208, -0.0211791, 21.2621, -160.437, -92.6218, 54.8085
4.108, 5, -36.1054, -0.0333541, 21.2748, -160.434, -92.6213, 54.8081
4.112, 5, -36.0899, -0.0455243, 21.2874, -160.431, -92.6207, 54.8078
4.116, 5, -36.0744, -0.0576897, 21.2999, -160.428, -92.6202, 54.8074
4.12, 5, -36.059, -0.0698505, 21.3125, -160.426, -92.6197, 54.807
4.124, 5, -36.0435, -0.0820065, 21.3251, -160.423, -92.6191, 54.8067
4.128, 5, -36.028, -0.0941578, 21.3377, -160.42, -92.6186, 54.8063
4.132, 5, -36.0125, -0.106304, 21.3503, -160.417, -92.618, 54.806
4.136, 5, -35.997, -0.118446, 21.3628, -160.414, -92.6175, 54.8056
4.14, 5, -35.9815, -0.130583, 21.3754, -160.411, -92.617, 54.8053
4.144, 5, -35.966, -0.142715, 21.3879, -160.408, -92.6164, 54.805
4.148, 5, -35.9505, -0.154843, 21.4004, -160.405, -92.6159, 54.8047
4.152, 5, -35.935, -0.166966, 21.413, -160.402, -92.6154, 54.8043
4.156, 5, -35.9195, -0.179084, 21.4255, -160.399, -92.6148, 54.804
4.16, 5, -35.904, -0.191197, 21.438, -160.397, -92.6143, 54.8037
4.164, 5, -35.8884, -0.203306, 21.4505, -160.394, -92.6138, 54.8034
4.168, 5, -35.8729, -0.215409, 21.463, -160.391, -92.6132, 54.8031
4.172, 5, -35.8574, -0.227508, 21.4755, -160.388, -92.6127, 54.8028
4.176, 5, -35.8418, -0.239602, 21.488, -160.385, -92.6121, 54.8025
4.18, 5, -35.8263, -0.251692, 21.5005, -160.382, -92.6116, 54.8023
4.184, 5, -35.8107, -0.263776, 21.5129, -160.379, -92.6111, 54.802
4.188, 5, -35.7952, -0.275856, 21.5254, -160.376, -92.6105, 54.8017
4.192, 5, -35.7796, -0.287931, 21.5378, -160.373, -92.61, 54.8014
4.196, 5, -35.764, -0.300001, 21.5503, -160.37, -92.6095, 54.8012
4.2, 5, -35.7484, -0.312066, 21.5627, -160.367, -92.6089, 54.8009
4.204, 5, -35.7329, -0.324127, 21.5752, -160.364, -92.6084, 54.8007
4.208, 5, -35.7173, -0.336183, 21.5876, -160.361, -92.6079, 54.8004
4.212, 5, -35.7017, -0.348233, 21.6, -160.358, -92.6073, 54.8002
4.216, 5, -35.6861, -0.360279, 21.6124, -160.355, -92.6068, 54.7999
4.22, 5, -35.6705, -0.372321, 21.6248, -160.353, -92.6063, 54.7997
4.224, 5, -35.6549, -0.384357, 21.6372, -160.35, -92.6057, 54.7995
4.228, 5, -35.6392, -0.396389, 21.6496, -160.347, -92.6052, 54.7993
4.232, 5, -35.6236, -0.408415, 21.662, -160.344, -92.6046, 54.7991
4.236, 5, -35.608, -0.420437, 21.6744, -160.341, -92.6041, 54.7988
4.24, 5, -35.5924, -0.432454, 21.6867, -160.338, -92.6036, 54.7986
4.244, 5, -35.5767, -0.444466, 21.6991, -160.335, -92.603, 54.7984
4.248, 5, -35.5611, -0.456473, 21.7115, -160.332, -92.6025, 54.7982
4.252, 5, -35.5454, -0.468476, 21.7238, -160.329, -92.602, 54.7981
4.256, 5, -35.5298, -0.480473, 21.7361, -160.326, -92.6014, 54.7979
4.26, 5, -35.5141, -0.492466, 21.7485, -160.323, -92.6009, 54.7977
4.264, 5, -35.4985, -0.504453, 21.7608, -160.32, -92.6003, 54.7975
4.268, 5, -35.4828, -0.516436, 21.7731, -160.317, -92.5998, 54.7974
4.272, 5, -35.4671, -0.528414, 21.7854, -160.314, -92.5993, 54.7972
4.276, 5, -35.4515, -0.540387, 21.7977, -160.311, -92.5987, 54.797
4.28, 5, -35.4358, -0.552356, 21.81, -160.308, -92.5982, 54.7969
4.284, 5, -35.4201, -0.564319, 21.8223, -160.305, -92.5977, 54.7967
4.288, 5, -35.4044, -0.576277, 21.8346, -160.302, -92.5971, 54.7966
4.292, 5, -35.3887, -0.588231, 21.8469, -160.299, -92.5966, 54.7965
4.296, 5, -35.373, -0.600179, 21.8591, -160.296, -92.596, 54.7963
4.3, 5, -35.3573, -0.612123, 21.8714, -160.293, -92.5955, 54.7962
4.304, 5, -35.3416, -0.624062, 21.8836, -160.29, -92.595, 54.7961
4.308, 5, -35.3258, -0.635996, 21.8959, -160.287, -92.5944, 54.796
4.312, 5, -35.3101, -0.647925, 21.9081, -160.284, -92.5939, 54.7959
4.316, 5, -35.2944, -0.659849, 21.9204, -160.281, -92.5933, 54.7958
4.32, 5, -35.2786, -0.671768, 21.9326, -160.278, -92.5928, 54.7957
4.324, 5, -35.2629, -0.683683, 21.9448, -160.275, -92.5923, 54.7956
4.328, 5, -35.2471, -0.695592, 21.957, -160.272, -92.5917, 54.7955
4.332, 5, -35.2314, -0.707497, 21.9692, -160.269, -92.5912, 54.7954
4.336, 5, -35.2156, -0.719396, 21.9814, -160.266, -92.5906, 54.7953
4.34, 5, -35.1999, -0.731291, 21.9936, -160.263, -92.5901, 54.7952
4.344, 5, -35.1841, -0.743181, 22.0058, -160.26, -92.5896, 54.7952
4.348, 5, -35.1683, -0.755066, 22.0179, -160.257, -92.589, 54.7951
4.352, 5, -35.1525, -0.766946, 22.0301, -160.254, -92.5885, 54.7951
4.356, 5, -35.1368, -0.778821, 22.0422, -160.251, -92.5879, 54.795
4.36, 5, -35.121, -0.790691, 22.0544, -160.248, -92.5874, 54.795
4.364, 5, -35.1052, -0.802556, 22.0665, -160.245, -92.5869, 54.7949
4.368, 5, -35.0894, -0.814417, 22.0787, -160.242, -92.5863, 54.7949
4.372, 5, -35.0736, -0.826272, 22.0908, -160.239, -92.5858, 54.7948
4.376, 5, -35.0578, -0.838122, 22.1029, -160.236, -92.5852, 54.7948
4.38, 5, -35.0419, -0.849968, 22.115, -160.233, -92.5847, 54.7948
4.384, 5, -35.0261, -0.861808, 22.1271, -160.23, -92.5841, 54.7948
4.388, 5, -35.0103, -0.873644, 22.1392, -160.227, -92.5836, 54.7948
4.392, 5, -34.9944, -0.885475, 22.1513, -160.224, -92.5831, 54.7948
4.396, 5, -34.9786, -0.8973, 22.1634, -160.221, -92.5825, 54.7948
4.4, 5, -34.9628, -0.909121, 22.1755, -160.218, -92.582, 54.7948
4.404, 5, -34.9469, -0.920937, 22.1876, -160.214, -92.5814, 54.7948
4.408, 5, -34.9311, -0.932748, 22.1996, -160.211, -92.5809, 54.7948
4.412, 5, -34.9152, -0.944553, 22.2117, -160.208, -92.5803, 54.7948
4.416, 5, -34.8993, -0.956354, 22.2237, -160.205, -92.5798, 54.7948
4.42, 5, -34.8835, -0.96815, 22.2358, -160.202, -92.5792, 54.7949
4.424, 5, -34.8676, -0.979941, 22.2478, -160.199, -92.5787, 54.7949
4.428, 5, -34.8517, -0.991727, 22.2598, -160.196, -92.5782, 54.795
4.432, 5, -34.8358, -1.00351, 22.2718, -160.193, -92.5776, 54.795
4.436, 5, -34.8199, -1.01528, 22.2839, -160.19, -92.5771, 54.795
4.44, 5, -34.804, -1.02706, 22.2959, -160.187, -92.5765, 54.7951
4.444, 5, -34.7881, -1.03882, 22.3079, -160.184, -92.576, 54.7952
4.448, 5, -34.7722, -1.05058, 22.3198, -160.181, -92.5754, 54.7952
4.452, 5, -34.7563, -1.06234, 22.3318, -160.178, -92.5749, 54.7953
4.456, 5, -34.7404, -1.07409, 22.3438, -160.175, -92.5743, 54.7954
4.46, 5, -34.7245, -1.08584, 22.3558, -160.172, -92.5738, 54.7955
4.464, 5, -34.7085, -1.09758, 22.3677, -160.169, -92.5732, 54.7956
4.468, 5, -34.6926, -1.10931, 22.3797, -160.165, -92.5727, 54.7957
4.472, 5, -34.6766, -1.12104, 22.3916, -160.162, -92.5721, 54.7958
4.476, 5, -34.6607, -1.13277, 22.4036, -160.159, -92.5716, 54.7959
4.48, 5, -34.6447, -1.14449, 22.4155, -160.156, -92.571, 54.796
4.484, 5, -34.6288, -1.15621, 22.4274, -160.153, -92.5705, 54.7961
4.488, 5, -34.6128, -1.16792, 22.4393, -160.15, -92.5699, 54.7962
4.492, 5, -34.5969, -1.17962, 22.4513, -160.147, -92.5694, 54.7963
4.496, 5, -34.5809, -1.19132, 22.4632, -160.144, -92.5688, 54.7965
4.5, 5, -34.5649, -1.20302, 22.4751, -160.141, -92.5683, 54.7966
4.504, 5, -34.5489, -1.21471, 22.4869, -160.138, -92.5677, 54.7967
4.508, 5, -34.5329, -1.2264, 22.4988, -160.135, -92.5672, 54.7969
4.512, 5, -34.5169, -1.23808, 22.5107, -160.131, -92.5666, 54.797
4.516, 5, -34.5009, -1.24975, 22.5226, -160.128, -92.5661, 54.7972
4.52, 5, -34.4849, -1.26142, 22.5344, -160.125, -92.5655, 54.7973
4.524, 5, -34.4689, -1.27309, 22.5463, -160.122, -92.565, 54.7975
4.528, 5, -34.4529, -1.28475, 22.5581, -160.119, -92.5644, 54.7977
4.532, 5, -34.4369, -1.2964, 22.57, -160.116, -92.5639, 54.7978
4.536, 5, -34.4209, -1.30805, 22.5818, -160.113, -92.5633, 54.798
4.54, 5, -34.4048, -1.3197, 22.5936, -160.11, -92.5628, 54.7982
4.544, 5, -34.3888, -1.33134, 22.6054, -160.106, -92.5622, 54.7984
4.548, 5, -34.3728, -1.34298, 22.6172, -160.103, -92.5617, 54.7986
4.552, 5, -34.3567, -1.35461, 22.629, -160.1, -92.5611, 54.7988
4.556, 5, -34.3407, -1.36623, 22.6408, -160.097, -92.5605, 54.799
4.56, 5, -34.3246, -1.37785, 22.6526, -160.094, -92.56, 54.7992
4.564, 5, -34.3085, -1.38947, 22.6644, -160.091, -92.5594, 54.7994
4.568, 5, -34.2925, -1.40108, 22.6762, -160.088, -92.5589, 54.7997
4.572, 5, -34.2764, -1.41268, 22.6879, -160.085, -92.5583, 54.7999
4.576, 5, -34.2603, -1.42428, 22.6997, -160.081, -92.5578, 54.8001
4.58, 5, -34.2442, -1.43587, 22.7114, -160.078, -92.5572, 54.8004
4.584, 5, -34.2281, -1.44746, 22.7232, -160.075, -92.5566, 54.8006
4.588, 5, -34.212, -1.45905, 22.7349, -160.072, -92.5561, 54.8009
4.592, 5, -34.1959, -1.47063, 22.7466, -160.069, -92.5555, 54.8011
4.596, 5, -34.1798, -1.4822, 22.7584, -160.066, -92.555, 54.8014
4.6, 5, -34.1637, -1.49377, 22.7701, -160.063, -92.5544, 54.8016
4.604, 5, -34.1476, -1.50533, 22.7818, -160.059, -92.5538, 54.8019
4.608, 5, -34.1315, -1.51689, 22.7935, -160.056, -92.5533, 54.8022
4.612, 5, -34.1154, -1.52844, 22.8052, -160.053, -92.5527, 54.8025
4.616, 5, -34.0992, -1.53999, 22.8169, -160.05, -92.5522, 54.8027
4.62, 5, -34.0831, -1.55154, 22.8285, -160.047, -92.5516, 54.803
4.624, 5, -34.0669, -1.56307, 22.8402, -160.044, -92.551, 54.8033
4.628, 5, -34.0508, -1.57461, 22.8519, -160.04, -92.5505, 54.8036
4.632, 5, -34.0346, -1.58614, 22.8635, -160.037, -92.5499, 54.8039
4.636, 5, -34.0185, -1.59766, 22.8752, -160.034, -92.5493, 54.8042
4.64, 5, -34.0023, -1.60918, 22.8868, -160.031, -92.5488, 54.8046
4.644, 5, -33.9861, -1.62069, 22.8984, -160.028, -92.5482, 54.8049
4.648, 5, -33.97, -1.63219, 22.9101, -160.025, -92.5476, 54.8052
4.652, 5, -33.9538, -1.6437, 22.9217, -160.021, -92.5471, 54.8055
4.656, 5, -33.9376, -1.65519, 22.9333, -160.018, -92.5465, 54.8059
4.66, 5, -33.9214, -1.66669, 22.9449, -160.015, -92.546, 54.8062
4.664, 5, -33.9052, -1.67817, 22.9565, -160.012, -92.5454, 54.8065
4.668, 5, -33.889, -1.68965, 22.9681, -160.009, -92.5448, 54.8069
4.672, 5, -33.8728, -1.70113, 22.9797, -160.005, -92.5443, 54.8073
4.676, 5, -33.8566, -1.7126, 22.9912, -160.002, -92.5437, 54.8076
4.68, 5, -33.8404, -1.72407, 23.0028, -159.999, -92.5431, 54.808
4.684, 5, -33.8241, -1.73553, 23.0144, -159.996, -92.5425, 54.8084
4.688, 5, -33.8079, -1.74698, 23.0259, -159.993, -92.542, 54.8087
4.692, 5, -33.7917, -1.75843, 23.0375, -159.99, -92.5414, 54.8091
4.696, 5, -33.7754, -1.76988, 23.049, -159.986, -92.5408, 54.8095
4.7, 5, -33.7592, -1.78132, 23.0605, -159.983, -92.5403, 54.8099
4.704, 5, -33.7429, -1.79275, 23.0721, -159.98, -92.5397, 54.8103
4.708, 5, -33.7267, -1.80418, 23.0836, -159.977, -92.5391, 54.8107
4.712, 5, -33.7104, -1.81561, 23.0951, -159.973, -92.5385, 54.8111
4.716, 5, -33.6941, -1.82702, 23.1066, -159.97, -92.538, 54.8115
4.72, 5, -33.6779, -1.83844, 23.1181, -159.967, -92.5374, 54.8119
4.724, 5, -33.6616, -1.84985, 23.1296, -159.964, -92.5368, 54.8124
4.728, 5, -33.6453, -1.86125, 23.1411, -159.961, -92.5362, 54.8128
4.732, 5, -33.629, -1.87265, 23.1525, -159.957, -92.5357, 54.8132
4.736, 5, -33.6127, -1.88404, 23.164, -159.954, -92.5351, 54.8137
4.74, 5, -33.5964, -1.89543, 23.1754, -159.951, -92.5345, 54.8141
4.744, 5, -33.5801, -1.90681, 23.1869, -159.948, -92.5339, 54.8145
4.748, 5, -33.5638, -1.91819, 23.1983, -159.945, -92.5334, 54.815
4.752, 5, -33.5475, -1.92956, 23.2098, -159.941, -92.5328, 54.8155
4.756, 5, -33.5312, -1.94093, 23.2212, -159.938, -92.5322, 54.8159
4.76, 5, -33.5149, -1.95229, 23.2326, -159.935, -92.5316, 54.8164
4.764, 5, -33.4985, -1.96365, 23.244, -159.932, -92.531, 54.8169
4.768, 5, -33.4822, -1.97502, 23.2554, -159.928, -92.5305, 54.8173
4.772, 5, -33.4659, -1.98639, 23.2669, -159.925, -92.5299, 54.8178
4.776, 5, -33.4496, -1.99776, 23.2783, -159.922, -92.5293, 54.8183
4.78, 5, -33.4333, -2.00915, 23.2896, -159.919, -92.5287, 54.8188
4.784, 5, -33.4169, -2.02055, 23.301, -159.915, -92.5281, 54.8193
4.788, 5, -33.4006, -2.03197, 23.3124, -159.912, -92.5275, 54.8197
4.792, 5, -33.3843, -2.0434, 23.3238, -159.909, -92.5268, 54.8202
4.796, 5, -33.3681, -2.05486, 23.3353, -159.905, -92.5262, 54.8206
4.8, 5, -33.3518, -2.06634, 23.3467, -159.902, -92.5255, 54.821
4.804, 5, -33.3355, -2.07785, 23.3581, -159.899, -92.5248, 54.8214
4.808, 5, -33.3193, -2.08939, 23.3696, -159.895, -92.5241, 54.8217
4.812, 5, -33.303, -2.10097, 23.3811, -159.892, -92.5233, 54.822
4.816, 5, -33.2868, -2.11259, 23.3927, -159.889, -92.5224, 54.8222
4.82, 5, -33.2706, -2.12425, 23.4042, -159.885, -92.5215, 54.8223
4.824, 5, -33.2544, -2.13596, 23.4158, -159.882, -92.5206, 54.8224
4.828, 5, -33.2382, -2.14771, 23.4275, -159.878, -92.5196, 54.8224
4.832, 6, -33.2221, -2.15952, 23.4392, -159.874, -92.5185, 54.8224
4.836, 6, -33.2059, -2.17137, 23.4509, -159.871, -92.5174, 54.8222
4.84, 6, -33.1898, -2.18329, 23.4627, -159.867, -92.5162, 54.822
4.844, 6, -33.1737, -2.19526, 23.4746, -159.863, -92.5149, 54.8217
4.848, 6, -33.1577, -2.2073, 23.4865, -159.859, -92.5135, 54.8213
4.852, 6, -33.1416, -2.21941, 23.4984, -159.855, -92.5121, 54.8209
4.856, 6, -33.1256, -2.23158, 23.5104, -159.852, -92.5107, 54.8203
4.86, 6, -33.1096, -2.24381, 23.5224, -159.848, -92.5091, 54.8197
4.864, 6, -33.0937, -2.25612, 23.5345, -159.844, -92.5075, 54.819
4.868, 6, -33.0778, -2.26849, 23.5467, -159.839, -92.5058, 54.8182
4.872, 6, -33.0619, -2.28092, 23.5589, -159.835, -92.504, 54.8173
4.876, 6, -33.046, -2.29343, 23.5711, -159.831, -92.5022, 54.8164
4.88, 6, -33.0301, -2.306, 23.5834, -159.827, -92.5003, 54.8153
4.884, 6, -33.0143, -2.31864, 23.5958, -159.823, -92.4984, 54.8142
4.888, 6, -32.9986, -2.33135, 23.6082, -159.818, -92.4963, 54.813
4.892, 6, -32.9828, -2.34413, 23.6206, -159.814, -92.4942, 54.8117
4.896, 6, -32.9671, -2.35697, 23.6331, -159.809, -92.492, 54.8103
4.9, 6, -32.9514, -2.36989, 23.6457, -159.805, -92.4898, 54.8088
4.904, 6, -32.9357, -2.38287, 23.6583, -159.8, -92.4875, 54.8073
4.908, 6, -32.9201, -2.39592, 23.6709, -159.796, -92.4851, 54.8057
4.912, 6, -32.9045, -2.40904, 23.6836, -159.791, -92.4826, 54.804
4.916, 6, -32.8889, -2.42222, 23.6964, -159.786, -92.4801, 54.8022
4.92, 6, -32.8734, -2.43548, 23.7092, -159.782, -92.4775, 54.8003
4.924, 6, -32.8578, -2.4488, 23.722, -159.777, -92.4749, 54.7983
4.928, 6, -32.8423, -2.4622, 23.7349, -159.772, -92.4721, 54.7963
4.932, 6, -32.8269, -2.47566, 23.7479, -159.767, -92.4693, 54.7942
4.936, 6, -32.8114, -2.48919, 23.7609, -159.762, -92.4664, 54.7919
4.94, 6, -32.796, -2.50279, 23.774, -159.757, -92.4635, 54.7897
4.944, 7, -32.7807, -2.51646, 23.7871, -159.752, -92.4605, 54.7873
4.948, 7, -32.7653, -2.53019, 23.8002, -159.747, -92.4574, 54.7848
4.952, 7, -32.75, -2.544, 23.8134, -159.742, -92.4542, 54.7823
4.956, 7, -32.7347, -2.55788, 23.8267, -159.737, -92.451, 54.7797
4.96, 7, -32.7194, -2.57182, 23.84, -159.731, -92.4477, 54.777
4.964, 7, -32.7042, -2.58583, 23.8534, -159.726, -92.4443, 54.7742
4.968, 7, -32.689, -2.59992, 23.8668, -159.721, -92.4409, 54.7713
4.972, 7, -32.6738, -2.61407, 23.8803, -159.715, -92.4374, 54.7684
4.976, 7, -32.6587, -2.62829, 23.8938, -159.71, -92.4338, 54.7653
4.98, 7, -32.6436, -2.64258, 23.9074, -159.704, -92.4301, 54.7622
4.984, 7, -32.6285, -2.65694, 23.921, -159.699, -92.4264, 54.759
4.988, 7, -32.6134, -2.67138, 23.9347, -159.693, -92.4226, 54.7558
4.992, 7, -32.5984, -2.68588, 23.9484, -159.687, -92.4187, 54.7524
4.996, 7, -32.5834, -2.70044, 23.9622, -159.682, -92.4148, 54.749
5, 7, -32.5684, -2.71508, 23.976, -159.676, -92.4108, 54.7454
5.004, 7, -32.5535, -2.72979, 23.9899, -159.67, -92.4067, 54.7418
5.008, 7, -32.5385, -2.74457, 24.0038, -159.664, -92.4026, 54.7381
5.012, 7, -32.5237, -2.75942, 24.0178, -159.658, -92.3984, 54.7344
5.016, 7, -32.5088, -2.77434, 24.0318, -159.652, -92.3941, 54.7305
5.02, 7, -32.494, -2.78932, 24.0459, -159.646, -92.3897, 54.7266
5.024, 7, -32.4792, -2.80438, 24.06, -159.64, -92.3853, 54.7226
5.028, 7, -32.4644, -2.81951, 24.0742, -159.634, -92.3808, 54.7185
5.032, 7, -32.4496, -2.8347, 24.0884, -159.628, -92.3762, 54.7143
5.036, 7, -32.4349, -2.84997, 24.1027, -159.622, -92.3716, 54.71
5.04, 7, -32.4202, -2.86531, 24.1171, -159.616, -92.3669, 54.7057
5.044, 7, -32.4056, -2.88072, 24.1314, -159.609, -92.3621, 54.7013
5.048, 7, -32.3909, -2.89619, 24.1459, -159.603, -92.3573, 54.6968
5.052, 7, -32.3763, -2.91174, 24.1604, -159.596, -92.3523, 54.6922
5.056, 8, -32.3617, -2.92736, 24.1749, -159.59, -92.3474, 54.6875
5.06, 8, -32.3472, -2.94305, 24.1895, -159.583, -92.3423, 54.6828
5.064, 8, -32.3327, -2.9588, 24.2041, -159.577, -92.3372, 54.678
5.068, 8, -32.3182, -2.97463, 24.2188, -159.57, -92.332, 54.6731
5.072, 8, -32.3037, -2.99053, 24.2336, -159.564, -92.3267, 54.6681
5.076, 8, -32.2893, -3.0065, 24.2484, -159.557, -92.3213, 54.663
5.08, 8, -32.2749, -3.02254, 24.2632, -159.55, -92.3159, 54.6579
5.084, 8, -32.2605, -3.03865, 24.2781, -159.543, -92.3104, 54.6526
5.088, 8, -32.2461, -3.05483, 24.2931, -159.536, -92.3049, 54.6473
5.092, 8, -32.2318, -3.07108, 24.3081, -159.53, -92.2992, 54.6419
5.096, 8, -32.2175, -3.08741, 24.3231, -159.523, -92.2935, 54.6364
5.1, 8, -32.2032, -3.1038, 24.3382, -159.516, -92.2878, 54.6309
5.104, 8, -32.189, -3.12026, 24.3534, -159.508, -92.2819, 54.6252
5.108, 8, -32.1748, -3.1368, 24.3686, -159.501, -92.276, 54.6195
5.112, 8, -32.1606, -3.1534, 24.3838, -159.494, -92.2701, 54.6137
5.116, 8, -32.1464, -3.17008, 24.3991, -159.487, -92.264, 54.6078
5.12, 8, -32.1323, -3.18683, 24.4145, -159.48, -92.2579, 54.6019
5.124, 8, -32.1182, -3.20365, 24.4299, -159.472, -92.2517, 54.5958
5.128, 8, -32.1041, -3.22054, 24.4454, -159.465, -92.2454, 54.5897
5.132, 8, -32.0901, -3.2375, 24.4609, -159.458, -92.2391, 54.5835
5.136, 8, -32.0761, -3.25453, 24.4764, -159.45, -92.2327, 54.5772
5.14, 8, -32.0621, -3.27163, 24.4921, -159.443, -92.2262, 54.5709
5.144, 8, -32.0481, -3.2888, 24.5077, -159.435, -92.2197, 54.5644
5.148, 8, -32.0342, -3.30604, 24.5234, -159.428, -92.2131, 54.5579
5.152, 8, -32.0203, -3.32336, 24.5392, -159.42, -92.2064, 54.5513
5.156, 8, -32.0064, -3.34075, 24.555, -159.412, -92.1996, 54.5446
5.16, 8, -31.9925, -3.3582, 24.5709, -159.405, -92.1928, 54.5378
5.164, 8, -31.9787, -3.37573, 24.5868, -159.397, -92.1859, 54.531
5.168, 8, -31.9649, -3.39333, 24.6028, -159.389, -92.1789, 54.5241
5.172, 9, -31.9511, -3.41101, 24.6188, -159.381, -92.1719, 54.5171
5.176, 9, -31.9374, -3.42875, 24.6349, -159.373, -92.1648, 54.51
5.18, 9, -31.9237, -3.44656, 24.651, -159.365, -92.1576, 54.5028
5.184, 9, -31.91, -3.46445, 24.6672, -159.357, -92.1504, 54.4956
5.188, 9, -31.8963, -3.48241, 24.6834, -159.349, -92.143, 54.4882
5.192, 9, -31.8827, -3.50044, 24.6997, -159.341, -92.1356, 54.4808
5.196, 9, -31.8691, -3.51854, 24.716, -159.333, -92.1282, 54.4733
5.2, 9, -31.8555, -3.53671, 24.7324, -159.324, -92.1207, 54.4658
5.204, 9, -31.842, -3.55496, 24.7488, -159.316, -92.113, 54.4581
5.208, 9, -31.8285, -3.57327, 24.7653, -159.308, -92.1054, 54.4504
5.212, 9, -31.815, -3.59166, 24.7819, -159.3, -92.0976, 54.4426
5.216, 9, -31.8015, -3.61012, 24.7985, -159.291, -92.0898, 54.4347
5.22, 9, -31.7881, -3.62865, 24.8151, -159.283, -92.0819, 54.4267
5.224, 9, -31.7747, -3.64726, 24.8318, -159.274, -92.074, 54.4187
5.228, 9, -31.7613, -3.66593, 24.8485, -159.266, -92.0659, 54.4105
5.232, 9, -31.7479, -3.68468, 24.8653, -159.257, -92.0578, 54.4023
5.236, 9, -31.7346, -3.7035, 24.8822, -159.248, -92.0497, 54.394
5.24, 9, -31.7213, -3.72239, 24.8991, -159.24, -92.0414, 54.3857
5.244, 9, -31.708, -3.74136, 24.916, -159.231, -92.0331, 54.3772
5.248, 9, -31.6948, -3.76039, 24.933, -159.222, -92.0247, 54.3687
5.252, 9, -31.6815, -3.7795, 24.9501, -159.213, -92.0163, 54.3601
5.256, 9, -31.6684, -3.79868, 24.9672, -159.204, -92.0078, 54.3514
5.26, 9, -31.6552, -3.81793, 24.9843, -159.195, -91.9992, 54.3426
5.264, 9, -31.6421, -3.83726, 25.0015, -159.186, -91.9905, 54.3338
5.268, 9, -31.6289, -3.85665, 25.0188, -159.177, -91.9818, 54.3248
5.272, 9, -31.6159, -3.87612, 25.0361, -159.168, -91.973, 54.3158
5.276, 9, -31.6028, -3.89566, 25.0535, -159.159, -91.9641, 54.3068
5.28, 9, -31.5898, -3.91528, 25.0709, -159.15, -91.9552, 54.2976
5.284, 10, -31.5768, -3.93496, 25.0883, -159.141, -91.9462, 54.2884
5.288, 10, -31.5638, -3.95472, 25.1058, -159.131, -91.9371, 54.279
5.292, 10, -31.5509, -3.97455, 25.1234, -159.122, -91.9279, 54.2696
5.296, 10, -31.5379, -3.99445, 25.141, -159.113, -91.9187, 54.2602
5.3, 10, -31.525, -4.01443, 25.1587, -159.103, -91.9094, 54.2506
5.304, 10, -31.5122, -4.03448, 25.1764, -159.094, -91.9001, 54.241
5.308, 10, -31.4993, -4.0546, 25.1942, -159.084, -91.8906, 54.2312
5.312, 10, -31.4865, -4.07479, 25.212, -159.075, -91.8811, 54.2214
5.316, 10, -31.4737, -4.09506, 25.2299, -159.065, -91.8715, 54.2116
5.32, 10, -31.461, -4.1154, 25.2478, -159.056, -91.8619, 54.2016
5.324, 10, -31.4483, -4.13581, 25.2658, -159.046, -91.8522, 54.1916
5.328, 10, -31.4356, -4.1563, 25.2838, -159.036, -91.8424, 54.1815
5.332, 10, -31.4229, -4.17686, 25.3019, -159.026, -91.8325, 54.1713
5.336, 10, -31.4102, -4.19749, 25.32, -159.016, -91.8226, 54.161
5.34, 10, -31.3976, -4.21819, 25.3382, -159.007, -91.8126, 54.1506
5.344, 10, -31.385, -4.23897, 25.3565, -158.997, -91.8025, 54.1402
5.348, 10, -31.3724, -4.25982, 25.3747, -158.987, -91.7924, 54.1297
5.352, 10, -31.3599, -4.28074, 25.3931, -158.977, -91.7822, 54.1191
5.356, 10, -31.3474, -4.30174, 25.4115, -158.967, -91.7719, 54.1085
5.36, 10, -31.3349, -4.3228, 25.4299, -158.956, -91.7616, 54.0977
5.364, 10, -31.3224, -4.34395, 25.4484, -158.946, -91.7511, 54.0869
5.368, 10, -31.31, -4.36516, 25.467, -158.936, -91.7407, 54.076
5.372, 10, -31.2976, -4.38645, 25.4856, -158.926, -91.7301, 54.065
5.376, 10, -31.2852, -4.40781, 25.5042, -158.915, -91.7195, 54.0539
5.38, 10, -31.2729, -4.42924, 25.5229, -158.905, -91.7088, 54.0428
5.384, 10, -31.2605, -4.45075, 25.5417, -158.895, -91.698, 54.0316
5.388, 10, -31.2483, -4.47233, 25.5605, -158.884, -91.6872, 54.0203
5.392, 10, -31.236, -4.49398, 25.5793, -158.874, -91.6762, 54.0089
5.396, 11, -31.2237, -4.51571, 25.5982, -158.863, -91.6653, 53.9975
5.4, 11, -31.2115, -4.53751, 25.6172, -158.853, -91.6542, 53.986
5.404, 11, -31.1993, -4.55938, 25.6362, -158.842, -91.6431, 53.9744
5.408, 11, -31.1872, -4.58133, 25.6553, -158.831, -91.6319, 53.9627
5.412, 11, -31.175, -4.60335, 25.6744, -158.821, -91.6206, 53.9509
5.416, 11, -31.1629, -4.62544, 25.6936, -158.81, -91.6093, 53.9391
5.42, 11, -31.1508, -4.64761, 25.7128, -158.799, -91.5979, 53.9272
5.424, 11, -31.1388, -4.66985, 25.7321, -158.788, -91.5864, 53.9152
5.428, 11, -31.1267, -4.69216, 25.7514, -158.777, -91.5749, 53.9031
5.432, 11, -31.1147, -4.71455, 25.7708, -158.766, -91.5633, 53.8909
5.436, 11, -31.1028, -4.73701, 25.7902, -158.755, -91.5516, 53.8787
5.44, 11, -31.0908, -4.75954, 25.8097, -158.744, -91.5399, 53.8664
5.444, 11, -31.0789, -4.78215, 25.8292, -158.733, -91.5281, 53.854
5.448, 11, -31.067, -4.80483, 25.8488, -158.722, -91.5162, 53.8416
5.452, 11, -31.0551, -4.82759, 25.8684, -158.711, -91.5042, 53.829
5.456, 11, -31.0433, -4.85041, 25.8881, -158.699, -91.4922, 53.8164
5.46, 11, -31.0315, -4.87332, 25.9079, -158.688, -91.4801, 53.8037
5.464, 11, -31.0197, -4.89629, 25.9277, -158.677, -91.4679, 53.791
5.468, 11, -31.0079, -4.91934, 25.9475, -158.665, -91.4557, 53.7781
5.472, 11, -30.9962, -4.94246, 25.9674, -158.654, -91.4434, 53.7652
5.476, 11, -30.9845, -4.96566, 25.9873, -158.642, -91.431, 53.7522
5.48, 11, -30.9728, -4.98893, 26.0073, -158.631, -91.4185, 53.7391
5.484, 11, -30.9611, -5.01228, 26.0274, -158.619, -91.406, 53.7259
5.488, 11, -30.9495, -5.03569, 26.0475, -158.608, -91.3934, 53.7127
5.492, 11, -30.9379, -5.05919, 26.0677, -158.596, -91.3808, 53.6994
5.496, 11, -30.9263, -5.08275, 26.0879, -158.584, -91.3681, 53.686
5.5, 11, -30.9147, -5.10639, 26.1081, -158.573, -91.3553, 53.6725
5.504, 11, -30.9032, -5.1301, 26.1284, -158.561, -91.3424, 53.659
5.508, 12, -30.8917, -5.15389, 26.1488, -158.549, -91.3295, 53.6454
5.512, 12, -30.8802, -5.17775, 26.1692, -158.537, -91.3165, 53.6317
5.516, 12, -30.8688, -5.20168, 26.1897, -158.525, -91.3034, 53.6179
5.52, 12, -30.8574, -5.22569, 26.2102, -158.513, -91.2903, 53.6041
5.524, 12, -30.846, -5.24977, 26.2308, -158.501, -91.277, 53.5902
5.528, 12, -30.8346, -5.27393, 26.2514, -158.489, -91.2638, 53.5762
5.532, 12, -30.8233, -5.29816, 26.2721, -158.477, -91.2504, 53.5621
5.536, 12, -30.812, -5.32246, 26.2928, -158.465, -91.237, 53.5479
5.54, 12, -30.8007, -5.34684, 26.3136, -158.453, -91.2235, 53.5337
5.544, 12, -30.7894, -5.37129, 26.3344, -158.44, -91.21, 53.5194
5.548, 12, -30.7782, -5.39582, 26.3553, -158.428, -91.1963, 53.505
5.552, 12, -30.767, -5.42042, 26.3763, -158.416, -91.1826, 53.4906
5.556, 12, -30.7558, -5.44509, 26.3973, -158.403, -91.1689, 53.476
5.56, 12, -30.7446, -5.46984, 26.4183, -158.391, -91.155, 53.4614
5.564, 12, -30.7335, -5.49466, 26.4394, -158.378, -91.1411, 53.4468
5.568, 12, -30.7224, -5.51956, 26.4605, -158.366, -91.1272, 53.432
5.572, 12, -30.7113, -5.54453, 26.4818, -158.353, -91.1131, 53.4172
5.576, 12, -30.7003, -5.56957, 26.503, -158.34, -91.099, 53.4022
5.58, 12, -30.6892, -5.59469, 26.5243, -158.328, -91.0848, 53.3873
5.584, 12, -30.6782, -5.61988, 26.5457, -158.315, -91.0706, 53.3722
5.588, 12, -30.6673, -5.64515, 26.5671, -158.302, -91.0563, 53.357
5.592, 12, -30.6563, -5.67049, 26.5885, -158.289, -91.0419, 53.3418
5.596, 12, -30.6454, -5.6959, 26.6101, -158.277, -91.0275, 53.3265
5.6, 12, -30.6345, -5.72139, 26.6316, -158.264, -91.0129, 53.3112
5.604, 12, -30.6236, -5.74696, 26.6532, -158.251, -90.9984, 53.2957
5.608, 12, -30.6128, -5.77259, 26.6749, -158.238, -90.9837, 53.2802
5.612, 12, -30.602, -5.7983, 26.6966, -158.225, -90.969, 53.2646
5.616, 12, -30.5912, -5.82409, 26.7184, -158.212, -90.9542, 53.249
5.62, 12, -30.5804, -5.84994, 26.7402, -158.198, -90.9393, 53.2332
5.624, 13, -30.5697, -5.87588, 26.7621, -158.185, -90.9244, 53.2174
5.628, 13, -30.559, -5.90188, 26.7841, -158.172, -90.9094, 53.2015
5.632, 13, -30.5483, -5.92796, 26.806, -158.159, -90.8943, 53.1856
5.636, 13, -30.5376, -5.95412, 26.8281, -158.145, -90.8792, 53.1696
5.64, 13, -30.527, -5.98035, 26.8502, -158.132, -90.864, 53.1534
5.644, 13, -30.5164, -6.00665, 26.8723, -158.119, -90.8487, 53.1373
5.648, 13, -30.5058, -6.03303, 26.8945, -158.105, -90.8334, 53.121
5.652, 13, -30.4952, -6.05948, 26.9168, -158.092, -90.818, 53.1047
5.656, 13, -30.4847, -6.086, 26.9391, -158.078, -90.8025, 53.0883
5.66, 13, -30.4742, -6.1126, 26.9614, -158.064, -90.787, 53.0718
5.664, 13, -30.4637, -6.13928, 26.9838, -158.051, -90.7713, 53.0553
5.668, 13, -30.4533, -6.16602, 27.0063, -158.037, -90.7557, 53.0386
5.672, 13, -30.4428, -6.19284, 27.0288, -158.023, -90.7399, 53.0219
5.676, 13, -30.4324, -6.21974, 27.0513, -158.01, -90.7241, 53.0052
5.68, 13, -30.4221, -6.24671, 27.074, -157.996, -90.7082, 52.9883
5.684, 13, -30.4117, -6.27376, 27.0966, -157.982, -90.6923, 52.9714
5.688, 13, -30.4014, -6.30087, 27.1194, -157.968, -90.6763, 52.9544
5.692, 13, -30.3911, -6.32806, 27.1421, -157.954, -90.6602, 52.9373
5.696, 13, -30.3808, -6.35533, 27.1649, -157.94, -90.644, 52.9202
5.7, 13, -30.3706, -6.38267, 27.1878, -157.926, -90.6278, 52.903
5.704, 13, -30.3604, -6.41009, 27.2108, -157.912, -90.6115, 52.8857
5.708, 13, -30.3502, -6.43757, 27.2337, -157.898, -90.5952, 52.8683
5.712, 13, -30.34, -6.46513, 27.2568, -157.883, -90.5787, 52.8509
5.716, 13, -30.3299, -6.49277, 27.2799, -157.869, -90.5623, 52.8334
5.72, 13, -30.3197, -6.52048, 27.303, -157.855, -90.5457, 52.8158
5.724, 13, -30.3096, -6.54826, 27.3262, -157.841, -90.5291, 52.7981
5.728, 13, -30.2996, -6.57612, 27.3494, -157.826, -90.5124, 52.7804
5.732, 13, -30.2895, -6.60405, 27.3727, -157.812, -90.4956, 52.7626
5.736, 14, -30.2795, -6.63205, 27.3961, -157.797, -90.4788, 52.7448
5.74, 14, -30.2695, -6.66013, 27.4195, -157.783, -90.4619, 52.7268
5.744, 14, -30.2596, -6.68828, 27.4429, -157.768, -90.445, 52.7088
5.748, 14, -30.2496, -6.71651, 27.4664, -157.754, -90.428, 52.6907
5.752, 14, -30.2397, -6.74481, 27.49, -157.739, -90.4109, 52.6726
5.756, 14, -30.2298, -6.77318, 27.5136, -157.724, -90.3937, 52.6544
5.76, 14, -30.22, -6.80163, 27.5373, -157.709, -90.3765, 52.6361
5.764, 14, -30.2101, -6.83015, 27.561, -157.695, -90.3592, 52.6177
5.768, 14, -30.2003, -6.85874, 27.5847, -157.68, -90.3419, 52.5993
5.772, 14, -30.1905, -6.88741, 27.6086, -157.665, -90.3244, 52.5808
5.776, 14, -30.1808, -6.91615, 27.6324, -157.65, -90.307, 52.5622
5.78, 14, -30.171, -6.94497, 27.6564, -157.635, -90.2894, 52.5435
5.784, 14, -30.1613, -6.97386, 27.6803, -157.62, -90.2718, 52.5248
5.788, 14, -30.1516, -7.00282, 27.7044, -157.605, -90.2541, 52.506
5.792, 14, -30.142, -7.03186, 27.7284, -157.59, -90.2364, 52.4872
5.796, 14, -30.1323, -7.06097, 27.7526, -157.575, -90.2185, 52.4682
5.8, 14, -30.1227, -7.09015, 27.7768, -157.559, -90.2007, 52.4492
5.804, 14, -30.1131, -7.11941, 27.801, -157.544, -90.1827, 52.4302
5.808, 14, -30.1036, -7.14874, 27.8253, -157.529, -90.1647, 52.411
5.812, 14, -30.094, -7.17814, 27.8496, -157.513, -90.1466, 52.3918
5.816, 14, -30.0845, -7.20762, 27.874, -157.498, -90.1285, 52.3725
5.82, 14, -30.0751, -7.23717, 27.8985, -157.483, -90.1103, 52.3532
5.824, 14, -30.0656, -7.2668, 27.923, -157.467, -90.092, 52.3337
5.828, 14, -30.0562, -7.29649, 27.9475, -157.452, -90.0737, 52.3142
5.832, 14, -30.0468, -7.32626, 27.9721, -157.436, -90.0553, 52.2947
5.836, 14, -30.0374, -7.35611, 27.9968, -157.42, -90.0368, 52.2751
5.84, 14, -30.028, -7.38602, 28.0215, -157.405, -90.0183, 52.2554
5.844, 14, -30.0187, -7.41601, 28.0462, -157.389, -89.9997, 52.2356
5.848, 15, -30.0094, -7.44607, 28.0711, -157.373, -89.981, 52.2158
5.852, 15, -30.0001, -7.47621, 28.0959, -157.357, -89.9623, 52.1959
5.856, 15, -29.9908, -7.50641, 28.1208, -157.342, -89.9435, 52.1759
5.86, 15, -29.9816, -7.53669, 28.1458, -157.326, -89.9246, 52.1559
5.864, 15, -29.9724, -7.56705, 28.1708, -157.31, -89.9057, 52.1358
5.868, 15, -29.9632, -7.59747, 28.1959, -157.294, -89.8867, 52.1156
5.872, 15, -29.954, -7.62797, 28.221, -157.278, -89.8677, 52.0954
5.876, 15, -29.9449, -7.65854, 28.2462, -157.262, -89.8486, 52.0751
5.88, 15, -29.9358, -7.68919, 28.2714, -157.245, -89.8294, 52.0547
5.884, 15, -29.9267, -7.7199, 28.2967, -157.229, -89.8102, 52.0343
5.888, 15, -29.9177, -7.75069, 28.322, -157.213, -89.7909, 52.0138
5.892, 15, -29.9086, -7.78156, 28.3474, -157.197, -89.7715, 51.9932
