rpiRobotics/ARM-21-02-F-19-Robot-Motion-Program/data_performance_abb/curve_1/curve_pose_opt1/100L/realrobot/run_4.csv
timestamp,cmd_num,J1,J2,J3,J4,J5,J6
9.294000454246997833e-03,1.000000000000000000e+00,-3.419762802124023438e+01,4.881624221801757812e+01,3.022793769836425781e+01,1.098919906616210938e+02,9.603807830810546875e+01,-1.239895343780517578e+00,4.033146500587463379e-01,-6.666896057128906250e+01,-1.826858215332031250e+02,-2.342603921890258789e+00,7.562139129638671875e+01,3.135763168334960938e+01
1.536300033330917358e-02,1.000000000000000000e+00,-3.419768142700195312e+01,4.881624221801757812e+01,3.022793769836425781e+01,1.098921432495117188e+02,9.603819274902343750e+01,-1.240031003952026367e+00,4.033146500587463379e-01,-6.666896057128906250e+01,-1.826858215332031250e+02,-2.342460393905639648e+00,7.562139129638671875e+01,3.135763168334960938e+01
1.772899925708770752e-02,1.000000000000000000e+00,-3.419762802124023438e+01,4.881624221801757812e+01,3.022793769836425781e+01,1.098919906616210938e+02,9.603807830810546875e+01,-1.239895343780517578e+00,4.033146500587463379e-01,-6.666904449462890625e+01,-1.826858215332031250e+02,-2.342532396316528320e+00,7.562124633789062500e+01,3.135763168334960938e+01
2.112499997019767761e-02,1.000000000000000000e+00,-3.419762802124023438e+01,4.881631088256835938e+01,3.022793769836425781e+01,1.098919906616210938e+02,9.603807830810546875e+01,-1.240031003952026367e+00,4.033146500587463379e-01,-6.666896057128906250e+01,-1.826858215332031250e+02,-2.342460393905639648e+00,7.562146759033203125e+01,3.135763168334960938e+01
4.631400108337402344e-02,1.000000000000000000e+00,-3.419768142700195312e+01,4.881624221801757812e+01,3.022793769836425781e+01,1.098921432495117188e+02,9.603807830810546875e+01,-1.239895343780517578e+00,4.033146500587463379e-01,-6.666904449462890625e+01,-1.826858215332031250e+02,-2.342603921890258789e+00,7.562139129638671875e+01,3.135763168334960938e+01
4.896000027656555176e-02,1.000000000000000000e+00,-3.419768142700195312e+01,4.881624221801757812e+01,3.022793769836425781e+01,1.098921432495117188e+02,9.603797912597656250e+01,-1.239895343780517578e+00,4.033146500587463379e-01,-6.666913604736328125e+01,-1.826858215332031250e+02,-2.342603921890258789e+00,7.562139129638671875e+01,3.135763168334960938e+01
5.026900023221969604e-02,1.000000000000000000e+00,-3.419768142700195312e+01,4.881624221801757812e+01,3.022793769836425781e+01,1.098921432495117188e+02,9.603797912597656250e+01,-1.239895343780517578e+00,4.033146500587463379e-01,-6.666913604736328125e+01,-1.826858215332031250e+02,-2.342603921890258789e+00,7.562139129638671875e+01,3.135763168334960938e+01
5.797100067138671875e-02,1.000000000000000000e+00,-3.419771194458007812e+01,4.881624221801757812e+01,3.022793769836425781e+01,1.098919906616210938e+02,9.603819274902343750e+01,-1.239895343780517578e+00,4.033146500587463379e-01,-6.666904449462890625e+01,-1.826858215332031250e+02,-2.342532396316528320e+00,7.562139129638671875e+01,3.135763168334960938e+01
6.124800071120262146e-02,1.000000000000000000e+00,-3.419776916503906250e+01,4.881620025634765625e+01,3.022793769836425781e+01,1.098921432495117188e+02,9.603807830810546875e+01,-1.239895343780517578e+00,4.033146500587463379e-01,-6.666904449462890625e+01,-1.826858215332031250e+02,-2.342532396316528320e+00,7.562139129638671875e+01,3.135763168334960938e+01
6.374999880790710449e-02,1.000000000000000000e+00,-3.419776916503906250e+01,4.881620025634765625e+01,3.022793769836425781e+01,1.098921432495117188e+02,9.603807830810546875e+01,-1.239895343780517578e+00,4.033146500587463379e-01,-6.666904449462890625e+01,-1.826858215332031250e+02,-2.342532396316528320e+00,7.562139129638671875e+01,3.135763168334960938e+01
6.517799943685531616e-02,1.000000000000000000e+00,-3.419799804687500000e+01,4.881601715087890625e+01,3.022793769836425781e+01,1.098919906616210938e+02,9.603797912597656250e+01,-1.240031003952026367e+00,4.033146500587463379e-01,-6.666904449462890625e+01,-1.826858215332031250e+02,-2.342532396316528320e+00,7.562146759033203125e+01,3.135763168334960938e+01
6.740199774503707886e-02,1.000000000000000000e+00,-3.419799804687500000e+01,4.881601715087890625e+01,3.022793769836425781e+01,1.098919906616210938e+02,9.603797912597656250e+01,-1.240031003952026367e+00,4.033146500587463379e-01,-6.666904449462890625e+01,-1.826858215332031250e+02,-2.342532396316528320e+00,7.562146759033203125e+01,3.135763168334960938e+01
7.251799851655960083e-02,1.000000000000000000e+00,-3.419986343383789062e+01,4.881398391723632812e+01,3.022793769836425781e+01,1.098919906616210938e+02,9.603819274902343750e+01,-1.239895343780517578e+00,4.033146500587463379e-01,-6.666904449462890625e+01,-1.826858215332031250e+02,-2.342532396316528320e+00,7.562139129638671875e+01,3.135763168334960938e+01
7.386899739503860474e-02,1.000000000000000000e+00,-3.419986343383789062e+01,4.881398391723632812e+01,3.022793769836425781e+01,1.098919906616210938e+02,9.603819274902343750e+01,-1.239895343780517578e+00,4.033146500587463379e-01,-6.666904449462890625e+01,-1.826858215332031250e+02,-2.342532396316528320e+00,7.562139129638671875e+01,3.135763168334960938e+01
7.643099874258041382e-02,1.000000000000000000e+00,-3.420164489746093750e+01,4.881164932250976562e+01,3.022793769836425781e+01,1.098919906616210938e+02,9.603807830810546875e+01,-1.239895343780517578e+00,4.033146500587463379e-01,-6.666904449462890625e+01,-1.826858215332031250e+02,-2.342603921890258789e+00,7.562139129638671875e+01,3.135763168334960938e+01
7.768400013446807861e-02,1.000000000000000000e+00,-3.420164489746093750e+01,4.881164932250976562e+01,3.022793769836425781e+01,1.098919906616210938e+02,9.603807830810546875e+01,-1.239895343780517578e+00,4.033146500587463379e-01,-6.666904449462890625e+01,-1.826858215332031250e+02,-2.342603921890258789e+00,7.562139129638671875e+01,3.135763168334960938e+01
8.142500370740890503e-02,1.000000000000000000e+00,-3.420394134521484375e+01,4.880805587768554688e+01,3.022793769836425781e+01,1.098918762207031250e+02,9.603807830810546875e+01,-1.240031003952026367e+00,4.033146500587463379e-01,-6.666904449462890625e+01,-1.826859436035156250e+02,-2.342532396316528320e+00,7.562139129638671875e+01,3.135763168334960938e+01
8.399400115013122559e-02,1.000000000000000000e+00,-3.420394134521484375e+01,4.880805587768554688e+01,3.022793769836425781e+01,1.098918762207031250e+02,9.603807830810546875e+01,-1.240031003952026367e+00,4.033146500587463379e-01,-6.666904449462890625e+01,-1.826859436035156250e+02,-2.342532396316528320e+00,7.562139129638671875e+01,3.135763168334960938e+01
8.536899834871292114e-02,1.000000000000000000e+00,-3.420689773559570312e+01,4.880271148681640625e+01,3.022803688049316406e+01,1.098917236328125000e+02,9.603845977783203125e+01,-1.240031003952026367e+00,4.033146500587463379e-01,-6.666904449462890625e+01,-1.826858215332031250e+02,-2.342603921890258789e+00,7.562139129638671875e+01,3.135763168334960938e+01
8.661799877882003784e-02,1.000000000000000000e+00,-3.420689773559570312e+01,4.880271148681640625e+01,3.022803688049316406e+01,1.098917236328125000e+02,9.603845977783203125e+01,-1.240031003952026367e+00,4.033146500587463379e-01,-6.666904449462890625e+01,-1.826858215332031250e+02,-2.342603921890258789e+00,7.562139129638671875e+01,3.135763168334960938e+01
9.049600362777709961e-02,1.000000000000000000e+00,-3.421045684814453125e+01,4.879567337036132812e+01,3.022803688049316406e+01,1.098905639648437500e+02,9.603845977783203125e+01,-1.240098714828491211e+00,4.033146500587463379e-01,-6.666904449462890625e+01,-1.826858215332031250e+02,-2.342460393905639648e+00,7.562139129638671875e+01,3.135763168334960938e+01
9.305900335311889648e-02,1.000000000000000000e+00,-3.421453475952148438e+01,4.878700637817382812e+01,3.022834396362304688e+01,1.098877716064453125e+02,9.603904724121093750e+01,-1.240505695343017578e+00,4.033146500587463379e-01,-6.666904449462890625e+01,-1.826858215332031250e+02,-2.342532396316528320e+00,7.562139129638671875e+01,3.135763168334960938e+01
9.640099853277206421e-02,1.000000000000000000e+00,-3.421950149536132812e+01,4.877659606933593750e+01,3.022895240783691406e+01,1.098835601806640625e+02,9.603963470458984375e+01,-1.241183876991271973e+00,4.033146500587463379e-01,-6.666904449462890625e+01,-1.826858215332031250e+02,-2.342532396316528320e+00,7.562146759033203125e+01,3.135763168334960938e+01
9.771999716758728027e-02,1.000000000000000000e+00,-3.421950149536132812e+01,4.877659606933593750e+01,3.022895240783691406e+01,1.098835601806640625e+02,9.603963470458984375e+01,-1.241183876991271973e+00,4.033146500587463379e-01,-6.666904449462890625e+01,-1.826858215332031250e+02,-2.342532396316528320e+00,7.562146759033203125e+01,3.135763168334960938e+01
1.019819974899291992e-01,1.000000000000000000e+00,-3.421950149536132812e+01,4.877659606933593750e+01,3.022895240783691406e+01,1.098835601806640625e+02,9.603963470458984375e+01,-1.241183876991271973e+00,4.033146500587463379e-01,-6.666904449462890625e+01,-1.826858215332031250e+02,-2.342603921890258789e+00,7.562146759033203125e+01,3.135763168334960938e+01
1.051350012421607971e-01,1.000000000000000000e+00,-3.423302078247070312e+01,4.874924087524414062e+01,3.023137474060058594e+01,1.098703384399414062e+02,9.604267120361328125e+01,-1.245659828186035156e+00,4.033146500587463379e-01,-6.666904449462890625e+01,-1.826858215332031250e+02,-2.342603921890258789e+00,7.562139129638671875e+01,3.135763168334960938e+01
1.064469963312149048e-01,1.000000000000000000e+00,-3.423302078247070312e+01,4.874924087524414062e+01,3.023137474060058594e+01,1.098703384399414062e+02,9.604267120361328125e+01,-1.245659828186035156e+00,4.033146500587463379e-01,-6.666904449462890625e+01,-1.826858215332031250e+02,-2.342603921890258789e+00,7.562139129638671875e+01,3.135763168334960938e+01
1.090530008077621460e-01,1.000000000000000000e+00,-3.424180603027343750e+01,4.873167419433593750e+01,3.023342704772949219e+01,1.098605880737304688e+02,9.604533386230468750e+01,-1.248982787132263184e+00,4.033146500587463379e-01,-6.666904449462890625e+01,-1.826858215332031250e+02,-2.342532396316528320e+00,7.562146759033203125e+01,3.135763168334960938e+01
1.122149974107742310e-01,1.000000000000000000e+00,-3.424180603027343750e+01,4.873167419433593750e+01,3.023342704772949219e+01,1.098605880737304688e+02,9.604533386230468750e+01,-1.248982787132263184e+00,4.033146500587463379e-01,-6.666904449462890625e+01,-1.826858215332031250e+02,-2.342532396316528320e+00,7.562146759033203125e+01,3.135763168334960938e+01
1.161080002784729004e-01,1.000000000000000000e+00,-3.425188446044921875e+01,4.871160507202148438e+01,3.023633193969726562e+01,1.098477401733398438e+02,9.604821014404296875e+01,-1.252916097640991211e+00,4.033146500587463379e-01,-6.666913604736328125e+01,-1.826858215332031250e+02,-2.342532396316528320e+00,7.562146759033203125e+01,3.135763168334960938e+01
1.202199980616569519e-01,1.000000000000000000e+00,-3.426316452026367188e+01,4.868904113769531250e+01,3.024015808105468750e+01,1.098323059082031250e+02,9.605210113525390625e+01,-1.258138060569763184e+00,4.033146500587463379e-01,-6.666904449462890625e+01,-1.826858215332031250e+02,-2.342532396316528320e+00,7.562146759033203125e+01,3.135763168334960938e+01
1.243060007691383362e-01,1.000000000000000000e+00,-3.427605056762695312e+01,4.866363143920898438e+01,3.024499702453613281e+01,1.098135528564453125e+02,9.605690765380859375e+01,-1.264919757843017578e+00,4.033146500587463379e-01,-6.666904449462890625e+01,-1.826858215332031250e+02,-2.342460393905639648e+00,7.562139129638671875e+01,3.135763168334960938e+01
1.290670037269592285e-01,1.000000000000000000e+00,-3.429077911376953125e+01,4.863527297973632812e+01,3.025111579895019531e+01,1.097914352416992188e+02,9.606245422363281250e+01,-1.272922158241271973e+00,4.033146500587463379e-01,-6.666904449462890625e+01,-1.826858215332031250e+02,-2.342532396316528320e+00,7.562139129638671875e+01,3.135763168334960938e+01
1.322620064020156860e-01,1.000000000000000000e+00,-3.430691528320312500e+01,4.860356903076171875e+01,3.025839424133300781e+01,1.097652511596679688e+02,9.606900787353515625e+01,-1.282213091850280762e+00,4.034245014190673828e-01,-6.666904449462890625e+01,-1.826858215332031250e+02,-2.342532396316528320e+00,7.562146759033203125e+01,3.135763168334960938e+01
1.350010037422180176e-01,1.000000000000000000e+00,-3.432494354248046875e+01,4.856840515136718750e+01,3.026687431335449219e+01,1.097338638305664062e+02,9.607674407958984375e+01,-1.292860269546508789e+00,4.033146500587463379e-01,-6.666904449462890625e+01,-1.826858215332031250e+02,-2.342603921890258789e+00,7.562139129638671875e+01,3.135763168334960938e+01
1.390479952096939087e-01,1.000000000000000000e+00,-3.434417343139648438e+01,4.852988433837890625e+01,3.027671241760253906e+01,1.096975631713867188e+02,9.608522033691406250e+01,-1.304728269577026367e+00,4.033146500587463379e-01,-6.666904449462890625e+01,-1.826858215332031250e+02,-2.342532396316528320e+00,7.562146759033203125e+01,3.135763168334960938e+01
1.430339962244033813e-01,1.000000000000000000e+00,-3.436507415771484375e+01,4.848802185058593750e+01,3.028783607482910156e+01,1.096577453613281250e+02,9.609460449218750000e+01,-1.318156003952026367e+00,4.033146500587463379e-01,-6.666904449462890625e+01,-1.826858215332031250e+02,-2.342532396316528320e+00,7.562139129638671875e+01,3.135763168334960938e+01
1.470050066709518433e-01,1.000000000000000000e+00,-3.438812637329101562e+01,4.844292068481445312e+01,3.030048179626464844e+01,1.096152877807617188e+02,9.610510253906250000e+01,-1.333143591880798340e+00,4.033146500587463379e-01,-6.666904449462890625e+01,-1.826858215332031250e+02,-2.342460393905639648e+00,7.562139129638671875e+01,3.135763168334960938e+01
1.511150002479553223e-01,1.000000000000000000e+00,-3.441281127929687500e+01,4.839455795288085938e+01,3.031438827514648438e+01,1.095679931640625000e+02,9.611651611328125000e+01,-1.349148273468017578e+00,4.033146500587463379e-01,-6.666904449462890625e+01,-1.826858215332031250e+02,-2.342603921890258789e+00,7.562139129638671875e+01,3.135763168334960938e+01
1.569920033216476440e-01,1.000000000000000000e+00,-3.443873214721679688e+01,4.834336853027343750e+01,3.032957458496093750e+01,1.095148391723632812e+02,9.612893676757812500e+01,-1.366170287132263184e+00,4.033146500587463379e-01,-6.666904449462890625e+01,-1.826858215332031250e+02,-2.342532396316528320e+00,7.562139129638671875e+01,3.135763168334960938e+01
1.605470031499862671e-01,1.000000000000000000e+00,-3.446614837646484375e+01,4.828926467895507812e+01,3.034557723999023438e+01,1.094594268798828125e+02,9.614237213134765625e+01,-1.384616494178771973e+00,4.033146500587463379e-01,-6.666904449462890625e+01,-1.826858215332031250e+02,-2.342532396316528320e+00,7.562139129638671875e+01,3.135763168334960938e+01
1.645099967718124390e-01,1.000000000000000000e+00,-3.449491500854492188e+01,4.823280334472656250e+01,3.036224746704101562e+01,1.094013290405273438e+02,9.615655517578125000e+01,-1.403876423835754395e+00,4.033146500587463379e-01,-6.666904449462890625e+01,-1.826858215332031250e+02,-2.342532396316528320e+00,7.562139129638671875e+01,3.135763168334960938e+01
1.670330017805099487e-01,1.000000000000000000e+00,-3.452502441406250000e+01,4.817353439331054688e+01,3.037959289550781250e+01,1.093405380249023438e+02,9.617222595214843750e+01,-1.424628376960754395e+00,4.034245014190673828e-01,-6.666904449462890625e+01,-1.826858215332031250e+02,-2.342532396316528320e+00,7.562139129638671875e+01,3.135763168334960938e+01
1.710499972105026245e-01,1.000000000000000000e+00,-3.455663299560546875e+01,4.811179733276367188e+01,3.039752578735351562e+01,1.092777557373046875e+02,9.618822479248046875e+01,-1.446533203125000000e+00,4.033146500587463379e-01,-6.666904449462890625e+01,-1.826858215332031250e+02,-2.342603921890258789e+00,7.562146759033203125e+01,3.135763168334960938e+01
1.751040071249008179e-01,1.000000000000000000e+00,-3.458953094482421875e+01,4.804814147949218750e+01,3.041625022888183594e+01,1.092122268676757812e+02,9.620458984375000000e+01,-1.469048380851745605e+00,4.033146500587463379e-01,-6.666913604736328125e+01,-1.826858215332031250e+02,-2.342532396316528320e+00,7.562139129638671875e+01,3.135740852355957031e+01
1.790010035037994385e-01,1.000000000000000000e+00,-3.462354660034179688e+01,4.798224258422851562e+01,3.043550491333007812e+01,1.091459655761718750e+02,9.622058105468750000e+01,-1.492106199264526367e+00,4.033146500587463379e-01,-6.666904449462890625e+01,-1.826858215332031250e+02,-2.342460393905639648e+00,7.562139129638671875e+01,3.135763168334960938e+01
1.829999983310699463e-01,1.000000000000000000e+00,-3.465837097167968750e+01,4.791462326049804688e+01,3.045504188537597656e+01,1.090778579711914062e+02,9.623700714111328125e+01,-1.515435218811035156e+00,4.033146500587463379e-01,-6.666904449462890625e+01,-1.826858215332031250e+02,-2.342603921890258789e+00,7.562146759033203125e+01,3.135763168334960938e+01
1.871310025453567505e-01,1.000000000000000000e+00,-3.469385147094726562e+01,4.784524154663085938e+01,3.047464179992675781e+01,1.090097961425781250e+02,9.625411987304687500e+01,-1.538221716880798340e+00,4.033146500587463379e-01,-6.666904449462890625e+01,-1.826858215332031250e+02,-2.342532396316528320e+00,7.562139129638671875e+01,3.135763168334960938e+01
1.910980045795440674e-01,1.000000000000000000e+00,-3.473036956787109375e+01,4.777391052246093750e+01,3.049432182312011719e+01,1.089402694702148438e+02,9.627102661132812500e+01,-1.561753988265991211e+00,4.033146500587463379e-01,-6.666904449462890625e+01,-1.826858215332031250e+02,-2.342532396316528320e+00,7.562139129638671875e+01,3.135763168334960938e+01
1.950390040874481201e-01,1.000000000000000000e+00,-3.476779937744140625e+01,4.770088577270507812e+01,3.051400375366210938e+01,1.088709487915039062e+02,9.628813171386718750e+01,-1.585286498069763184e+00,4.033146500587463379e-01,-6.666904449462890625e+01,-1.826858215332031250e+02,-2.342532396316528320e+00,7.562139129638671875e+01,3.135763168334960938e+01
1.990720033645629883e-01,1.000000000000000000e+00,-3.480609512329101562e+01,4.762629318237304688e+01,3.053386878967285156e+01,1.088005752563476562e+02,9.630593872070312500e+01,-1.608886837959289551e+00,4.033146500587463379e-01,-6.666904449462890625e+01,-1.826858215332031250e+02,-2.342532396316528320e+00,7.562139129638671875e+01,3.135763168334960938e+01
2.051630020141601562e-01,1.000000000000000000e+00,-3.484476470947265625e+01,4.755080413818359375e+01,3.055399703979492188e+01,1.087305221557617188e+02,9.632455444335937500e+01,-1.633165240287780762e+00,4.033146500587463379e-01,-6.666904449462890625e+01,-1.826858215332031250e+02,-2.342532396316528320e+00,7.562139129638671875e+01,3.135763168334960938e+01
2.070010006427764893e-01,1.000000000000000000e+00,-3.488438034057617188e+01,4.747465515136718750e+01,3.057422828674316406e+01,1.086602020263671875e+02,9.634289550781250000e+01,-1.657918453216552734e+00,4.033146500587463379e-01,-6.666913604736328125e+01,-1.826858215332031250e+02,-2.342603921890258789e+00,7.562139129638671875e+01,3.135740852355957031e+01
2.111459970474243164e-01,1.000000000000000000e+00,-3.492425155639648438e+01,4.739832305908203125e+01,3.059431648254394531e+01,1.085902023315429688e+02,9.636080932617187500e+01,-1.682264566421508789e+00,4.033146500587463379e-01,-6.666904449462890625e+01,-1.826858215332031250e+02,-2.342603921890258789e+00,7.562139129638671875e+01,3.135763168334960938e+01
2.150389999151229858e-01,1.000000000000000000e+00,-3.496450042724609375e+01,4.732205963134765625e+01,3.061424064636230469e+01,1.085194091796875000e+02,9.637813568115234375e+01,-1.705864787101745605e+00,4.033146500587463379e-01,-6.666904449462890625e+01,-1.826858215332031250e+02,-2.342460393905639648e+00,7.562139129638671875e+01,3.135763168334960938e+01
2.190259993076324463e-01,1.000000000000000000e+00,-3.500463104248046875e+01,4.724575042724609375e+01,3.063406562805175781e+01,1.084486694335937500e+02,9.639535522460937500e+01,-1.728990316390991211e+00,4.033146500587463379e-01,-6.666904449462890625e+01,-1.826858215332031250e+02,-2.342532396316528320e+00,7.562139129638671875e+01,3.135784912109375000e+01
2.230509966611862183e-01,1.000000000000000000e+00,-3.504519653320312500e+01,4.716910171508789062e+01,3.065398788452148438e+01,1.083781814575195312e+02,9.641268157958984375e+01,-1.752522826194763184e+00,4.033146500587463379e-01,-6.666904449462890625e+01,-1.826858215332031250e+02,-2.342532396316528320e+00,7.562139129638671875e+01,3.135763168334960938e+01
2.269989997148513794e-01,1.000000000000000000e+00,-3.508592987060546875e+01,4.709231948852539062e+01,3.067415809631347656e+01,1.083077621459960938e+02,9.643043518066406250e+01,-1.776597857475280762e+00,4.033146500587463379e-01,-6.666904449462890625e+01,-1.826858215332031250e+02,-2.342532396316528320e+00,7.562146759033203125e+01,3.135784912109375000e+01
2.310589998960494995e-01,1.000000000000000000e+00,-3.512643432617187500e+01,4.701553726196289062e+01,3.069441032409667969e+01,1.082373428344726562e+02,9.644829559326171875e+01,-1.800740599632263184e+00,4.033146500587463379e-01,-6.666896057128906250e+01,-1.826858215332031250e+02,-2.342532396316528320e+00,7.562146759033203125e+01,3.135763168334960938e+01
2.350260019302368164e-01,1.000000000000000000e+00,-3.516670989990234375e+01,4.693875503540039062e+01,3.071451759338378906e+01,1.081666488647460938e+02,9.646664428710937500e+01,-1.825086951255798340e+00,4.033146500587463379e-01,-6.666904449462890625e+01,-1.826858215332031250e+02,-2.342603921890258789e+00,7.562139129638671875e+01,3.135763168334960938e+01
2.394679933786392212e-01,1.000000000000000000e+00,-3.520678329467773438e+01,4.686176681518554688e+01,3.073470687866210938e+01,1.080960617065429688e+02,9.648535156250000000e+01,-1.849975705146789551e+00,4.033146500587463379e-01,-6.666904449462890625e+01,-1.826858215332031250e+02,-2.342532396316528320e+00,7.562139129638671875e+01,3.135763168334960938e+01
2.452320009469985962e-01,1.000000000000000000e+00,-3.524711608886718750e+01,4.678484725952148438e+01,3.075481605529785156e+01,1.080252685546875000e+02,9.650331878662109375e+01,-1.874457478523254395e+00,4.033146500587463379e-01,-6.666904449462890625e+01,-1.826858215332031250e+02,-2.342532396316528320e+00,7.562146759033203125e+01,3.135763168334960938e+01
2.469789981842041016e-01,1.000000000000000000e+00,-3.528730773925781250e+01,4.670853805541992188e+01,3.077516555786132812e+01,1.079544754028320312e+02,9.652038574218750000e+01,-1.898396849632263184e+00,4.033146500587463379e-01,-6.666904449462890625e+01,-1.826858215332031250e+02,-2.342532396316528320e+00,7.562139129638671875e+01,3.135763168334960938e+01
2.531920075416564941e-01,1.000000000000000000e+00,-3.532732391357421875e+01,4.663216400146484375e+01,3.079568099975585938e+01,1.078840560913085938e+02,9.653797912597656250e+01,-1.922065019607543945e+00,4.033146500587463379e-01,-6.666904449462890625e+01,-1.826858215332031250e+02,-2.342532396316528320e+00,7.562139129638671875e+01,3.135763168334960938e+01
2.549880146980285645e-01,1.000000000000000000e+00,-3.536728286743164062e+01,4.655572128295898438e+01,3.081605529785156250e+01,1.078129959106445312e+02,9.655567932128906250e+01,-1.945597290992736816e+00,4.033146500587463379e-01,-6.666904449462890625e+01,-1.826858215332031250e+02,-2.342460393905639648e+00,7.562139129638671875e+01,3.135763168334960938e+01
2.613579928874969482e-01,1.000000000000000000e+00,-3.540738677978515625e+01,4.647909545898437500e+01,3.083628654479980469e+01,1.077419891357421875e+02,9.657327270507812500e+01,-1.969740152359008789e+00,4.033146500587463379e-01,-6.666904449462890625e+01,-1.826858215332031250e+02,-2.342532396316528320e+00,7.562139129638671875e+01,3.135763168334960938e+01
2.637940049171447754e-01,1.000000000000000000e+00,-3.544731903076171875e+01,4.640256118774414062e+01,3.085647201538085938e+01,1.076707229614257812e+02,9.659134674072265625e+01,-1.993747353553771973e+00,4.033146500587463379e-01,-6.666904449462890625e+01,-1.826858215332031250e+02,-2.342532396316528320e+00,7.562124633789062500e+01,3.135763168334960938e+01
2.670120000839233398e-01,1.000000000000000000e+00,-3.548742294311523438e+01,4.632613754272460938e+01,3.087660217285156250e+01,1.075996627807617188e+02,9.660984039306640625e+01,-2.018703937530517578e+00,4.033146500587463379e-01,-6.666904449462890625e+01,-1.826858215332031250e+02,-2.342460393905639648e+00,7.562139129638671875e+01,3.135763168334960938e+01
2.742229998111724854e-01,1.000000000000000000e+00,-3.548742294311523438e+01,4.632613754272460938e+01,3.087660217285156250e+01,1.075996627807617188e+02,9.660984039306640625e+01,-2.018703937530517578e+00,4.033146500587463379e-01,-6.666904449462890625e+01,-1.826858215332031250e+02,-2.342532396316528320e+00,7.562124633789062500e+01,3.135763168334960938e+01
2.757039964199066162e-01,1.000000000000000000e+00,-3.556653976440429688e+01,4.617211914062500000e+01,3.091779327392578125e+01,1.074574966430664062e+02,9.664690399169921875e+01,-2.067871093750000000e+00,4.033146500587463379e-01,-6.666904449462890625e+01,-1.826858215332031250e+02,-2.342532396316528320e+00,7.562146759033203125e+01,3.135763168334960938e+01
2.800329923629760742e-01,1.000000000000000000e+00,-3.560601043701171875e+01,4.609486007690429688e+01,3.093822669982910156e+01,1.073862838745117188e+02,9.666439056396484375e+01,-2.091539382934570312e+00,4.033146500587463379e-01,-6.666904449462890625e+01,-1.826858215332031250e+02,-2.342532396316528320e+00,7.562146759033203125e+01,3.135763168334960938e+01
2.829830050468444824e-01,1.000000000000000000e+00,-3.564553833007812500e+01,4.601762390136718750e+01,3.095864295959472656e+01,1.073155441284179688e+02,9.668161010742187500e+01,-2.115478754043579102e+00,4.033146500587463379e-01,-6.666904449462890625e+01,-1.826858215332031250e+02,-2.342603921890258789e+00,7.562139129638671875e+01,3.135784912109375000e+01
2.880350053310394287e-01,1.000000000000000000e+00,-3.564553833007812500e+01,4.601762390136718750e+01,3.095864295959472656e+01,1.073155441284179688e+02,9.668161010742187500e+01,-2.115478754043579102e+00,4.033146500587463379e-01,-6.666904449462890625e+01,-1.826858215332031250e+02,-2.342603921890258789e+00,7.562139129638671875e+01,3.135784912109375000e+01
2.910580039024353027e-01,1.000000000000000000e+00,-3.572425460815429688e+01,4.586340332031250000e+01,3.099920272827148438e+01,1.071730575561523438e+02,9.671701049804687500e+01,-2.163289546966552734e+00,4.033146500587463379e-01,-6.666904449462890625e+01,-1.826858215332031250e+02,-2.342532396316528320e+00,7.562124633789062500e+01,3.135763168334960938e+01
2.950530052185058594e-01,1.000000000000000000e+00,-3.572425460815429688e+01,4.586340332031250000e+01,3.099920272827148438e+01,1.071730575561523438e+02,9.671701049804687500e+01,-2.163289546966552734e+00,4.033146500587463379e-01,-6.666904449462890625e+01,-1.826858215332031250e+02,-2.342532396316528320e+00,7.562124633789062500e+01,3.135763168334960938e+01
3.017559945583343506e-01,1.000000000000000000e+00,-3.576349639892578125e+01,4.578657150268554688e+01,3.101973724365234375e+01,1.071019515991210938e+02,9.673482513427734375e+01,-2.187974691390991211e+00,4.033146500587463379e-01,-6.666904449462890625e+01,-1.826858215332031250e+02,-2.342460393905639648e+00,7.562139129638671875e+01,3.135763168334960938e+01
3.039740025997161865e-01,1.000000000000000000e+00,-3.584172058105468750e+01,4.563208007812500000e+01,3.106034088134765625e+01,1.069596786499023438e+02,9.677214050292968750e+01,-2.237752199172973633e+00,4.033146500587463379e-01,-6.666896057128906250e+01,-1.826858215332031250e+02,-2.342603921890258789e+00,7.562139129638671875e+01,3.135763168334960938e+01
3.069809973239898682e-01,1.000000000000000000e+00,-3.588113403320312500e+01,4.555423355102539062e+01,3.108079338073730469e+01,1.068879318237304688e+02,9.679048156738281250e+01,-2.262234210968017578e+00,4.033146500587463379e-01,-6.666896057128906250e+01,-1.826858215332031250e+02,-2.342603921890258789e+00,7.562139129638671875e+01,3.135763168334960938e+01
3.120380043983459473e-01,1.000000000000000000e+00,-3.588113403320312500e+01,4.555423355102539062e+01,3.108079338073730469e+01,1.068879318237304688e+02,9.679048156738281250e+01,-2.262234210968017578e+00,4.033146500587463379e-01,-6.666896057128906250e+01,-1.826858215332031250e+02,-2.342603921890258789e+00,7.562139129638671875e+01,3.135763168334960938e+01
3.149879872798919678e-01,1.000000000000000000e+00,-3.596025466918945312e+01,4.539804077148437500e+01,3.112188339233398438e+01,1.067446060180664062e+02,9.682550811767578125e+01,-2.309773921966552734e+00,4.033146500587463379e-01,-6.666904449462890625e+01,-1.826858215332031250e+02,-2.342603921890258789e+00,7.562139129638671875e+01,3.135784912109375000e+01
3.200730085372924805e-01,1.000000000000000000e+00,-3.596025466918945312e+01,4.539804077148437500e+01,3.112188339233398438e+01,1.067446060180664062e+02,9.682550811767578125e+01,-2.309773921966552734e+00,4.033146500587463379e-01,-6.666904449462890625e+01,-1.826858215332031250e+02,-2.342603921890258789e+00,7.562139129638671875e+01,3.135784912109375000e+01
3.237389922142028809e-01,1.000000000000000000e+00,-3.603988647460937500e+01,4.524221038818359375e+01,3.116295623779296875e+01,1.066018066406250000e+02,9.686118316650390625e+01,-2.358669996261596680e+00,4.033146500587463379e-01,-6.666904449462890625e+01,-1.826858215332031250e+02,-2.342603921890258789e+00,7.562124633789062500e+01,3.135763168334960938e+01
3.270199894905090332e-01,1.000000000000000000e+00,-3.607964324951171875e+01,4.516431808471679688e+01,3.118318367004394531e+01,1.065302200317382812e+02,9.687914276123046875e+01,-2.383151531219482422e+00,4.033146500587463379e-01,-6.666904449462890625e+01,-1.826858215332031250e+02,-2.342460393905639648e+00,7.562139129638671875e+01,3.135763168334960938e+01
3.320919871330261230e-01,1.000000000000000000e+00,-3.607964324951171875e+01,4.516431808471679688e+01,3.118318367004394531e+01,1.065302200317382812e+02,9.687914276123046875e+01,-2.383151531219482422e+00,4.033146500587463379e-01,-6.666904449462890625e+01,-1.826858215332031250e+02,-2.342460393905639648e+00,7.562139129638671875e+01,3.135763168334960938e+01
3.358030021190643311e-01,1.000000000000000000e+00,-3.615985107421875000e+01,4.500833129882812500e+01,3.122403335571289062e+01,1.063872146606445312e+02,9.691678619384765625e+01,-2.432793617248535156e+00,4.033146500587463379e-01,-6.666904449462890625e+01,-1.826858215332031250e+02,-2.342603921890258789e+00,7.562139129638671875e+01,3.135763168334960938e+01
3.390009999275207520e-01,1.000000000000000000e+00,-3.620032882690429688e+01,4.493030166625976562e+01,3.124454689025878906e+01,1.063153076171875000e+02,9.693523406982421875e+01,-2.456800699234008789e+00,4.033146500587463379e-01,-6.666904449462890625e+01,-1.826858215332031250e+02,-2.342603921890258789e+00,7.562139129638671875e+01,3.135763168334960938e+01
3.441700041294097900e-01,1.000000000000000000e+00,-3.620032882690429688e+01,4.493030166625976562e+01,3.124454689025878906e+01,1.063153076171875000e+02,9.693523406982421875e+01,-2.456800699234008789e+00,4.033146500587463379e-01,-6.666904449462890625e+01,-1.826858215332031250e+02,-2.342603921890258789e+00,7.562139129638671875e+01,3.135763168334960938e+01
3.474679887294769287e-01,1.000000000000000000e+00,-3.628113937377929688e+01,4.477391052246093750e+01,3.128569984436035156e+01,1.061718826293945312e+02,9.697058868408203125e+01,-2.504747390747070312e+00,4.033146500587463379e-01,-6.666904449462890625e+01,-1.826858215332031250e+02,-2.342532396316528320e+00,7.562146759033203125e+01,3.135763168334960938e+01
3.510949909687042236e-01,1.000000000000000000e+00,-3.628113937377929688e+01,4.477391052246093750e+01,3.128569984436035156e+01,1.061718826293945312e+02,9.697058868408203125e+01,-2.504747390747070312e+00,4.033146500587463379e-01,-6.666904449462890625e+01,-1.826858215332031250e+02,-2.342532396316528320e+00,7.562146759033203125e+01,3.135763168334960938e+01
3.550280034542083740e-01,1.000000000000000000e+00,-3.632178497314453125e+01,4.469560623168945312e+01,3.130627441406250000e+01,1.061004028320312500e+02,9.698834228515625000e+01,-2.528754472732543945e+00,4.033146500587463379e-01,-6.666904449462890625e+01,-1.826858215332031250e+02,-2.342532396316528320e+00,7.562139129638671875e+01,3.135763168334960938e+01
3.598000109195709229e-01,1.000000000000000000e+00,-3.636272048950195312e+01,4.461730957031250000e+01,3.132691192626953125e+01,1.060285034179687500e+02,9.700588226318359375e+01,-2.553575277328491211e+00,4.033146500587463379e-01,-6.666904449462890625e+01,-1.826858215332031250e+02,-2.342532396316528320e+00,7.562139129638671875e+01,3.135763168334960938e+01
3.662720024585723877e-01,1.000000000000000000e+00,-3.644448089599609375e+01,4.446070861816406250e+01,3.136812210083007812e+01,1.058837051391601562e+02,9.704251098632812500e+01,-2.603217363357543945e+00,4.033146500587463379e-01,-6.666904449462890625e+01,-1.826858215332031250e+02,-2.342532396316528320e+00,7.562146759033203125e+01,3.135763168334960938e+01
3.676829934120178223e-01,1.000000000000000000e+00,-3.648556137084960938e+01,4.438256835937500000e+01,3.138863945007324219e+01,1.058122253417968750e+02,9.706137847900390625e+01,-2.627631425857543945e+00,4.033146500587463379e-01,-6.666904449462890625e+01,-1.826858215332031250e+02,-2.342532396316528320e+00,7.562139129638671875e+01,3.135763168334960938e+01
3.743430078029632568e-01,1.000000000000000000e+00,-3.648556137084960938e+01,4.438256835937500000e+01,3.138863945007324219e+01,1.058122253417968750e+02,9.706137847900390625e+01,-2.627631425857543945e+00,4.033146500587463379e-01,-6.666904449462890625e+01,-1.826858215332031250e+02,-2.342532396316528320e+00,7.562139129638671875e+01,3.135763168334960938e+01
3.757799863815307617e-01,1.000000000000000000e+00,-3.656771469116210938e+01,4.422698974609375000e+01,3.142997360229492188e+01,1.056682662963867188e+02,9.709763336181640625e+01,-2.675645828247070312e+00,4.033146500587463379e-01,-6.666904449462890625e+01,-1.826858215332031250e+02,-2.342532396316528320e+00,7.562139129638671875e+01,3.135763168334960938e+01
3.820579946041107178e-01,1.000000000000000000e+00,-3.656771469116210938e+01,4.422698974609375000e+01,3.142997360229492188e+01,1.056682662963867188e+02,9.709763336181640625e+01,-2.675645828247070312e+00,4.033146500587463379e-01,-6.666904449462890625e+01,-1.826858215332031250e+02,-2.342532396316528320e+00,7.562139129638671875e+01,3.135763168334960938e+01
3.844070136547088623e-01,1.000000000000000000e+00,-3.665019226074218750e+01,4.407038879394531250e+01,3.147163391113281250e+01,1.055239410400390625e+02,9.713293457031250000e+01,-2.724202632904052734e+00,4.033146500587463379e-01,-6.666896057128906250e+01,-1.826858215332031250e+02,-2.342532396316528320e+00,7.562139129638671875e+01,3.135740852355957031e+01
3.880290091037750244e-01,1.000000000000000000e+00,-3.669130325317382812e+01,4.399195480346679688e+01,3.149234962463378906e+01,1.054519348144531250e+02,9.715079498291015625e+01,-2.749023437500000000e+00,4.033146500587463379e-01,-6.666904449462890625e+01,-1.826858215332031250e+02,-2.342460393905639648e+00,7.562139129638671875e+01,3.135763168334960938e+01
3.920370042324066162e-01,1.000000000000000000e+00,-3.673212432861328125e+01,4.391317749023437500e+01,3.151290512084960938e+01,1.053799743652343750e+02,9.716908264160156250e+01,-2.774522781372070312e+00,4.033146500587463379e-01,-6.666904449462890625e+01,-1.826858215332031250e+02,-2.342532396316528320e+00,7.562139129638671875e+01,3.135763168334960938e+01
3.970009982585906982e-01,1.000000000000000000e+00,-3.677302932739257812e+01,4.383424377441406250e+01,3.153358268737792969e+01,1.053077163696289062e+02,9.718763732910156250e+01,-2.798868894577026367e+00,4.033146500587463379e-01,-6.666904449462890625e+01,-1.826858215332031250e+02,-2.342532396316528320e+00,7.562146759033203125e+01,3.135763168334960938e+01
3.996999859809875488e-01,1.000000000000000000e+00,-3.681425094604492188e+01,4.375569915771484375e+01,3.155442237854003906e+01,1.052355499267578125e+02,9.720677185058593750e+01,-2.823215246200561523e+00,4.033146500587463379e-01,-6.666904449462890625e+01,-1.826858215332031250e+02,-2.342532396316528320e+00,7.562139129638671875e+01,3.135763168334960938e+01
4.040670096874237061e-01,1.000000000000000000e+00,-3.681425094604492188e+01,4.375569915771484375e+01,3.155442237854003906e+01,1.052355499267578125e+02,9.720677185058593750e+01,-2.823215246200561523e+00,4.033146500587463379e-01,-6.666904449462890625e+01,-1.826858215332031250e+02,-2.342532396316528320e+00,7.562139129638671875e+01,3.135763168334960938e+01
4.080950021743774414e-01,1.000000000000000000e+00,-3.685530090332031250e+01,4.367737579345703125e+01,3.157534599304199219e+01,1.051631774902343750e+02,9.722543334960937500e+01,-2.846679925918579102e+00,4.033146500587463379e-01,-6.666904449462890625e+01,-1.826858215332031250e+02,-2.342603921890258789e+00,7.562139129638671875e+01,3.135763168334960938e+01
4.120289981365203857e-01,1.000000000000000000e+00,-3.689592361450195312e+01,4.359925460815429688e+01,3.159608268737792969e+01,1.050910644531250000e+02,9.724340820312500000e+01,-2.871026039123535156e+00,4.033146500587463379e-01,-6.666896057128906250e+01,-1.826858215332031250e+02,-2.342532396316528320e+00,7.562139129638671875e+01,3.135763168334960938e+01
4.160409867763519287e-01,1.000000000000000000e+00,-3.693688964843750000e+01,4.352088928222656250e+01,3.161676216125488281e+01,1.050182723999023438e+02,9.726100158691406250e+01,-2.895575761795043945e+00,4.033146500587463379e-01,-6.666896057128906250e+01,-1.826858215332031250e+02,-2.342532396316528320e+00,7.562139129638671875e+01,3.135763168334960938e+01
4.210230112075805664e-01,1.000000000000000000e+00,-3.697793579101562500e+01,4.344247436523437500e+01,3.163746070861816406e+01,1.049459991455078125e+02,9.727875518798828125e+01,-2.920057773590087891e+00,4.033146500587463379e-01,-6.666904449462890625e+01,-1.826858215332031250e+02,-2.342603921890258789e+00,7.562139129638671875e+01,3.135763168334960938e+01
4.238030016422271729e-01,1.000000000000000000e+00,-3.705955123901367188e+01,4.328442764282226562e+01,3.167922019958496094e+01,1.048009872436523438e+02,9.731447601318359375e+01,-2.970784664154052734e+00,4.033146500587463379e-01,-6.666904449462890625e+01,-1.826858215332031250e+02,-2.342532396316528320e+00,7.562146759033203125e+01,3.135763168334960938e+01
4.280579984188079834e-01,1.000000000000000000e+00,-3.705955123901367188e+01,4.328442764282226562e+01,3.167922019958496094e+01,1.048009872436523438e+02,9.731447601318359375e+01,-2.970784664154052734e+00,4.033146500587463379e-01,-6.666904449462890625e+01,-1.826858215332031250e+02,-2.342532396316528320e+00,7.562146759033203125e+01,3.135763168334960938e+01
4.320479929447174072e-01,1.000000000000000000e+00,-3.710045623779296875e+01,4.320508956909179688e+01,3.170009994506835938e+01,1.047286148071289062e+02,9.733324432373046875e+01,-2.995266437530517578e+00,4.033146500587463379e-01,-6.666904449462890625e+01,-1.826858215332031250e+02,-2.342532396316528320e+00,7.562139129638671875e+01,3.135763168334960938e+01
4.350610077381134033e-01,1.000000000000000000e+00,-3.714125061035156250e+01,4.312561416625976562e+01,3.172073745727539062e+01,1.046563491821289062e+02,9.735227203369140625e+01,-3.019341468811035156e+00,4.033146500587463379e-01,-6.666904449462890625e+01,-1.826858215332031250e+02,-2.342460393905639648e+00,7.562139129638671875e+01,3.135763168334960938e+01
4.390299916267395020e-01,1.000000000000000000e+00,-3.718198776245117188e+01,4.304627227783203125e+01,3.174147796630859375e+01,1.045836563110351562e+02,9.737098693847656250e+01,-3.043687820434570312e+00,4.033146500587463379e-01,-6.666904449462890625e+01,-1.826858215332031250e+02,-2.342603921890258789e+00,7.562139129638671875e+01,3.135763168334960938e+01
4.434520006179809570e-01,1.000000000000000000e+00,-3.722260665893554688e+01,4.296711349487304688e+01,3.176235771179199219e+01,1.045109100341796875e+02,9.738901519775390625e+01,-3.068237304687500000e+00,4.033146500587463379e-01,-6.666904449462890625e+01,-1.826858215332031250e+02,-2.342532396316528320e+00,7.562146759033203125e+01,3.135740852355957031e+01
4.470590054988861084e-01,1.000000000000000000e+00,-3.726333999633789062e+01,4.288827133178710938e+01,3.178335952758789062e+01,1.044383850097656250e+02,9.740655517578125000e+01,-3.092719316482543945e+00,4.033146500587463379e-01,-6.666904449462890625e+01,-1.826858215332031250e+02,-2.342460393905639648e+00,7.562146759033203125e+01,3.135763168334960938e+01
4.510799944400787354e-01,1.000000000000000000e+00,-3.730436325073242188e+01,4.280963134765625000e+01,3.180428123474121094e+01,1.043657455444335938e+02,9.742462158203125000e+01,-3.117608070373535156e+00,4.033146500587463379e-01,-6.666913604736328125e+01,-1.826858215332031250e+02,-2.342603921890258789e+00,7.562124633789062500e+01,3.135763168334960938e+01
4.557459950447082520e-01,1.000000000000000000e+00,-3.734527206420898438e+01,4.273072052001953125e+01,3.182506179809570312e+01,1.042931594848632812e+02,9.744280242919921875e+01,-3.143039464950561523e+00,4.033146500587463379e-01,-6.666904449462890625e+01,-1.826858215332031250e+02,-2.342532396316528320e+00,7.562139129638671875e+01,3.135763168334960938e+01
4.600209891796112061e-01,1.000000000000000000e+00,-3.738611984252929688e+01,4.265128707885742188e+01,3.184565925598144531e+01,1.042199401855468750e+02,9.746082305908203125e+01,-3.168470859527587891e+00,4.033146500587463379e-01,-6.666904449462890625e+01,-1.826858215332031250e+02,-2.342532396316528320e+00,7.562146759033203125e+01,3.135763168334960938e+01
4.636560082435607910e-01,1.000000000000000000e+00,-3.742708587646484375e+01,4.257176589965820312e+01,3.186643600463867188e+01,1.041469879150390625e+02,9.747948455810546875e+01,-3.192952632904052734e+00,4.033146500587463379e-01,-6.666904449462890625e+01,-1.826858215332031250e+02,-2.342532396316528320e+00,7.562146759033203125e+01,3.135763168334960938e+01
4.680629968643188477e-01,1.000000000000000000e+00,-3.746819305419921875e+01,4.249215316772460938e+01,3.188737678527832031e+01,1.040738754272460938e+02,9.749868011474609375e+01,-3.217095375061035156e+00,4.033146500587463379e-01,-6.666904449462890625e+01,-1.826858215332031250e+02,-2.342603921890258789e+00,7.562139129638671875e+01,3.135763168334960938e+01
4.713119864463806152e-01,1.000000000000000000e+00,-3.750933074951171875e+01,4.241229629516601562e+01,3.190856361389160156e+01,1.040008697509765625e+02,9.751765441894531250e+01,-3.241644859313964844e+00,4.033146500587463379e-01,-6.666904449462890625e+01,-1.826858215332031250e+02,-2.342603921890258789e+00,7.562146759033203125e+01,3.135763168334960938e+01
4.750890135765075684e-01,1.000000000000000000e+00,-3.755049514770507812e+01,4.233225250244140625e+01,3.192968750000000000e+01,1.039279174804687500e+02,9.753562927246093750e+01,-3.266330242156982422e+00,4.033146500587463379e-01,-6.666896057128906250e+01,-1.826858215332031250e+02,-2.342532396316528320e+00,7.562139129638671875e+01,3.135763168334960938e+01
4.792959988117218018e-01,1.000000000000000000e+00,-3.759172058105468750e+01,4.225273132324218750e+01,3.195061111450195312e+01,1.038552780151367188e+02,9.755316925048828125e+01,-3.291083574295043945e+00,4.033146500587463379e-01,-6.666904449462890625e+01,-1.826859436035156250e+02,-2.342603921890258789e+00,7.562139129638671875e+01,3.135763168334960938e+01
4.832069873809814453e-01,1.000000000000000000e+00,-3.763299942016601562e+01,4.217338943481445312e+01,3.197136878967285156e+01,1.037820053100585938e+02,9.757102966308593750e+01,-3.316582679748535156e+00,4.033146500587463379e-01,-6.666904449462890625e+01,-1.826858215332031250e+02,-2.342532396316528320e+00,7.562124633789062500e+01,3.135763168334960938e+01
4.879319965839385986e-01,1.000000000000000000e+00,-3.767416763305664062e+01,4.209427642822265625e+01,3.199222755432128906e+01,1.037090530395507812e+02,9.758910369873046875e+01,-3.342421054840087891e+00,4.033146500587463379e-01,-6.666904449462890625e+01,-1.826858215332031250e+02,-2.342532396316528320e+00,7.562139129638671875e+01,3.135763168334960938e+01
4.920560121536254883e-01,1.000000000000000000e+00,-3.771535873413085938e+01,4.201496124267578125e+01,3.201335144042968750e+01,1.036361541748046875e+02,9.760749816894531250e+01,-3.367309808731079102e+00,4.033146500587463379e-01,-6.666904449462890625e+01,-1.826858215332031250e+02,-2.342532396316528320e+00,7.562139129638671875e+01,3.135763168334960938e+01
4.952630102634429932e-01,1.000000000000000000e+00,-3.775669479370117188e+01,4.193539047241210938e+01,3.203437805175781250e+01,1.035630416870117188e+02,9.762594604492187500e+01,-3.391520261764526367e+00,4.033146500587463379e-01,-6.666904449462890625e+01,-1.826858215332031250e+02,-2.342460393905639648e+00,7.562146759033203125e+01,3.135763168334960938e+01
4.992009997367858887e-01,1.000000000000000000e+00,-3.779817962646484375e+01,4.185566711425781250e+01,3.205533981323242188e+01,1.034897232055664062e+02,9.764530181884765625e+01,-3.415866374969482422e+00,4.033146500587463379e-01,-6.666904449462890625e+01,-1.826858215332031250e+02,-2.342603921890258789e+00,7.562139129638671875e+01,3.135763168334960938e+01
5.043159723281860352e-01,1.000000000000000000e+00,-3.783968734741210938e+01,4.177550888061523438e+01,3.207627868652343750e+01,1.034163970947265625e+02,9.766428375244140625e+01,-3.440619707107543945e+00,4.033146500587463379e-01,-6.666904449462890625e+01,-1.826858215332031250e+02,-2.342532396316528320e+00,7.562139129638671875e+01,3.135763168334960938e+01
5.073860287666320801e-01,1.000000000000000000e+00,-3.788122558593750000e+01,4.169506072998046875e+01,3.209732437133789062e+01,1.033427581787109375e+02,9.768246459960937500e+01,-3.465643882751464844e+00,4.033146500587463379e-01,-6.666904449462890625e+01,-1.826858215332031250e+02,-2.342532396316528320e+00,7.562139129638671875e+01,3.135763168334960938e+01
5.121319890022277832e-01,1.000000000000000000e+00,-3.792279434204101562e+01,4.161479187011718750e+01,3.211861038208007812e+01,1.032693328857421875e+02,9.770021820068359375e+01,-3.490939855575561523e+00,4.033146500587463379e-01,-6.666904449462890625e+01,-1.826858215332031250e+02,-2.342532396316528320e+00,7.562146759033203125e+01,3.135763168334960938e+01
5.155709981918334961e-01,1.000000000000000000e+00,-3.796421813964843750e+01,4.153457260131835938e+01,3.213981628417968750e+01,1.031961135864257812e+02,9.771818542480468750e+01,-3.516642332077026367e+00,4.033146500587463379e-01,-6.666904449462890625e+01,-1.826858215332031250e+02,-2.342460393905639648e+00,7.562146759033203125e+01,3.135763168334960938e+01
5.200229883193969727e-01,1.000000000000000000e+00,-3.800564193725585938e+01,4.145468521118164062e+01,3.216092300415039062e+01,1.031225814819335938e+02,9.773652648925781250e+01,-3.542209386825561523e+00,4.033146500587463379e-01,-6.666904449462890625e+01,-1.826858215332031250e+02,-2.342603921890258789e+00,7.562139129638671875e+01,3.135763168334960938e+01
5.233520269393920898e-01,1.000000000000000000e+00,-3.804715347290039062e+01,4.137530136108398438e+01,3.218192672729492188e+01,1.030491027832031250e+02,9.775486755371093750e+01,-3.566216468811035156e+00,4.033146500587463379e-01,-6.666904449462890625e+01,-1.826858215332031250e+02,-2.342460393905639648e+00,7.562139129638671875e+01,3.135763168334960938e+01
5.274519920349121094e-01,1.000000000000000000e+00,-3.808866119384765625e+01,4.129568862915039062e+01,3.220286560058593750e+01,1.029754104614257812e+02,9.777373504638671875e+01,-3.590630531311035156e+00,4.033146500587463379e-01,-6.666904449462890625e+01,-1.826858215332031250e+02,-2.342603921890258789e+00,7.562139129638671875e+01,3.135763168334960938e+01
5.315350294113159180e-01,1.000000000000000000e+00,-3.813037109375000000e+01,4.121587371826171875e+01,3.222391128540039062e+01,1.029021453857421875e+02,9.779298400878906250e+01,-3.615383625030517578e+00,4.033146500587463379e-01,-6.666904449462890625e+01,-1.826858215332031250e+02,-2.342532396316528320e+00,7.562139129638671875e+01,3.135763168334960938e+01
5.362470149993896484e-01,1.000000000000000000e+00,-3.817173767089843750e+01,4.113569641113281250e+01,3.224521636962890625e+01,1.028285522460937500e+02,9.781207275390625000e+01,-3.640136957168579102e+00,4.033146500587463379e-01,-6.666904449462890625e+01,-1.826858215332031250e+02,-2.342532396316528320e+00,7.562139129638671875e+01,3.135763168334960938e+01
5.395830273628234863e-01,1.000000000000000000e+00,-3.821327972412109375e+01,4.105545043945312500e+01,3.226648330688476562e+01,1.027547073364257812e+02,9.782998657226562500e+01,-3.665228843688964844e+00,4.033146500587463379e-01,-6.666896057128906250e+01,-1.826858215332031250e+02,-2.342532396316528320e+00,7.562139129638671875e+01,3.135763168334960938e+01
5.441960096359252930e-01,1.000000000000000000e+00,-3.825476074218750000e+01,4.097459030151367188e+01,3.228771209716796875e+01,1.026812286376953125e+02,9.784795379638671875e+01,-3.690863847732543945e+00,4.033146500587463379e-01,-6.666904449462890625e+01,-1.826858215332031250e+02,-2.342460393905639648e+00,7.562124633789062500e+01,3.135763168334960938e+01
5.476490259170532227e-01,1.000000000000000000e+00,-3.829626846313476562e+01,4.089376068115234375e+01,3.230885314941406250e+01,1.026074295043945312e+02,9.786592102050781250e+01,-3.716362714767456055e+00,4.033146500587463379e-01,-6.666904449462890625e+01,-1.826858215332031250e+02,-2.342532396316528320e+00,7.562139129638671875e+01,3.135763168334960938e+01
5.528119802474975586e-01,1.000000000000000000e+00,-3.833777999877929688e+01,4.081303787231445312e+01,3.233003997802734375e+01,1.025336303710937500e+02,9.788416290283203125e+01,-3.741590976715087891e+00,4.033146500587463379e-01,-6.666904449462890625e+01,-1.826858215332031250e+02,-2.342460393905639648e+00,7.562139129638671875e+01,3.135763168334960938e+01
5.560309886932373047e-01,1.000000000000000000e+00,-3.837949371337890625e+01,4.073258972167968750e+01,3.235130691528320312e+01,1.024588394165039062e+02,9.790229034423828125e+01,-3.765733480453491211e+00,4.033146500587463379e-01,-6.666904449462890625e+01,-1.826858215332031250e+02,-2.342532396316528320e+00,7.562146759033203125e+01,3.135763168334960938e+01
5.604929924011230469e-01,1.000000000000000000e+00,-3.842088699340820312e+01,4.065259170532226562e+01,3.237247467041015625e+01,1.023855133056640625e+02,9.792142486572265625e+01,-3.790487051010131836e+00,4.033146500587463379e-01,-6.666904449462890625e+01,-1.826858215332031250e+02,-2.342532396316528320e+00,7.562139129638671875e+01,3.135763168334960938e+01
5.642060041427612305e-01,1.000000000000000000e+00,-3.846219635009765625e+01,4.057241439819335938e+01,3.239345550537109375e+01,1.023115081787109375e+02,9.794082641601562500e+01,-3.815375804901123047e+00,4.033146500587463379e-01,-6.666904449462890625e+01,-1.826858215332031250e+02,-2.342532396316528320e+00,7.562139129638671875e+01,3.135763168334960938e+01
5.677689909934997559e-01,1.000000000000000000e+00,-3.850353240966796875e+01,4.049214553833007812e+01,3.241456222534179688e+01,1.022380294799804688e+02,9.795965576171875000e+01,-3.840332031250000000e+00,4.033146500587463379e-01,-6.666896057128906250e+01,-1.826858215332031250e+02,-2.342532396316528320e+00,7.562146759033203125e+01,3.135763168334960938e+01
5.717290043830871582e-01,1.000000000000000000e+00,-3.854515838623046875e+01,4.041153717041015625e+01,3.243586730957031250e+01,1.021635971069335938e+02,9.797772979736328125e+01,-3.865628004074096680e+00,4.033146500587463379e-01,-6.666913604736328125e+01,-1.826858215332031250e+02,-2.342532396316528320e+00,7.562139129638671875e+01,3.135763168334960938e+01
5.767830014228820801e-01,1.000000000000000000e+00,-3.858652496337890625e+01,4.033054733276367188e+01,3.245719528198242188e+01,1.020899124145507812e+02,9.799564361572265625e+01,-3.891940832138061523e+00,4.033146500587463379e-01,-6.666904449462890625e+01,-1.826858215332031250e+02,-2.342532396316528320e+00,7.562146759033203125e+01,3.135763168334960938e+01
5.800330042839050293e-01,1.000000000000000000e+00,-3.862800598144531250e+01,4.024946212768554688e+01,3.247854232788085938e+01,1.020156402587890625e+02,9.801403808593750000e+01,-3.917439699172973633e+00,4.033146500587463379e-01,-6.666904449462890625e+01,-1.826858215332031250e+02,-2.342532396316528320e+00,7.562146759033203125e+01,3.135763168334960938e+01
5.846120119094848633e-01,1.000000000000000000e+00,-3.866931533813476562e+01,4.016810607910156250e+01,3.249977111816406250e+01,1.019420471191406250e+02,9.803253936767578125e+01,-3.941718339920043945e+00,4.033146500587463379e-01,-6.666904449462890625e+01,-1.826858215332031250e+02,-2.342460393905639648e+00,7.562124633789062500e+01,3.135763168334960938e+01
5.880399942398071289e-01,1.000000000000000000e+00,-3.871102523803710938e+01,4.008691406250000000e+01,3.252087783813476562e+01,1.018674163818359375e+02,9.805114746093750000e+01,-3.965928792953491211e+00,4.033146500587463379e-01,-6.666904449462890625e+01,-1.826858215332031250e+02,-2.342532396316528320e+00,7.562139129638671875e+01,3.135763168334960938e+01
5.918009877204895020e-01,1.000000000000000000e+00,-3.875259399414062500e+01,4.000589752197265625e+01,3.254214477539062500e+01,1.017936706542968750e+02,9.807038879394531250e+01,-3.991089105606079102e+00,4.033146500587463379e-01,-6.666904449462890625e+01,-1.826858215332031250e+02,-2.342532396316528320e+00,7.562139129638671875e+01,3.135763168334960938e+01
5.960199832916259766e-01,1.000000000000000000e+00,-3.879413223266601562e+01,3.992526626586914062e+01,3.256349182128906250e+01,1.017191314697265625e+02,9.809011840820312500e+01,-4.015774250030517578e+00,4.033146500587463379e-01,-6.666904449462890625e+01,-1.826858215332031250e+02,-2.342603921890258789e+00,7.562146759033203125e+01,3.135740852355957031e+01
6.009529829025268555e-01,1.000000000000000000e+00,-3.883592987060546875e+01,3.984490585327148438e+01,3.258473968505859375e+01,1.016452407836914062e+02,9.810888671875000000e+01,-4.041341304779052734e+00,4.033146500587463379e-01,-6.666904449462890625e+01,-1.826858215332031250e+02,-2.342603921890258789e+00,7.562139129638671875e+01,3.135763168334960938e+01
6.041740179061889648e-01,1.000000000000000000e+00,-3.887769699096679688e+01,3.976430130004882812e+01,3.260612869262695312e+01,1.015702285766601562e+02,9.812696075439453125e+01,-4.067382812500000000e+00,4.033146500587463379e-01,-6.666904449462890625e+01,-1.826858215332031250e+02,-2.342532396316528320e+00,7.562139129638671875e+01,3.135763168334960938e+01
6.089220046997070312e-01,1.000000000000000000e+00,-3.891938018798828125e+01,3.968337631225585938e+01,3.262739562988281250e+01,1.014963226318359375e+02,9.814514160156250000e+01,-4.093356609344482422e+00,4.033146500587463379e-01,-6.666904449462890625e+01,-1.826858215332031250e+02,-2.342460393905639648e+00,7.562139129638671875e+01,3.135763168334960938e+01
6.123859882354736328e-01,1.000000000000000000e+00,-3.896126556396484375e+01,3.960211181640625000e+01,3.264871978759765625e+01,1.014216842651367188e+02,9.816332244873046875e+01,-4.118652343750000000e+00,4.033146500587463379e-01,-6.666896057128906250e+01,-1.826858215332031250e+02,-2.342532396316528320e+00,7.562139129638671875e+01,3.135763168334960938e+01
6.162930130958557129e-01,1.000000000000000000e+00,-3.900334930419921875e+01,3.952080535888671875e+01,3.267021179199218750e+01,1.013473663330078125e+02,9.818176269531250000e+01,-4.142863273620605469e+00,4.033146500587463379e-01,-6.666904449462890625e+01,-1.826858215332031250e+02,-2.342603921890258789e+00,7.562146759033203125e+01,3.135763168334960938e+01
6.213759779930114746e-01,1.000000000000000000e+00,-3.908768844604492188e+01,3.935759735107421875e+01,3.271294784545898438e+01,1.011983413696289062e+02,9.822010040283203125e+01,-4.193182945251464844e+00,4.033146500587463379e-01,-6.666904449462890625e+01,-1.826858215332031250e+02,-2.342532396316528320e+00,7.562146759033203125e+01,3.135763168334960938e+01
6.254550218582153320e-01,1.000000000000000000e+00,-3.908768844604492188e+01,3.935759735107421875e+01,3.271294784545898438e+01,1.011983413696289062e+02,9.822010040283203125e+01,-4.193182945251464844e+00,4.033146500587463379e-01,-6.666904449462890625e+01,-1.826858215332031250e+02,-2.342532396316528320e+00,7.562146759033203125e+01,3.135763168334960938e+01
6.282550096511840820e-01,1.000000000000000000e+00,-3.912974548339843750e+01,3.927632904052734375e+01,3.273437881469726562e+01,1.011238174438476562e+02,9.823956298828125000e+01,-4.218682289123535156e+00,4.033146500587463379e-01,-6.666896057128906250e+01,-1.826858215332031250e+02,-2.342532396316528320e+00,7.562146759033203125e+01,3.135763168334960938e+01
6.329119801521301270e-01,1.000000000000000000e+00,-3.917211532592773438e+01,3.919549560546875000e+01,3.275574874877929688e+01,1.010491256713867188e+02,9.825816345214843750e+01,-4.244452476501464844e+00,4.033146500587463379e-01,-6.666904449462890625e+01,-1.826858215332031250e+02,-2.342532396316528320e+00,7.562139129638671875e+01,3.135763168334960938e+01
6.362199783325195312e-01,1.000000000000000000e+00,-3.921437072753906250e+01,3.911443710327148438e+01,3.277727890014648438e+01,1.009746932983398438e+02,9.827629089355468750e+01,-4.270358562469482422e+00,4.033146500587463379e-01,-6.666904449462890625e+01,-1.826858215332031250e+02,-2.342532396316528320e+00,7.562139129638671875e+01,3.135763168334960938e+01
6.390060186386108398e-01,1.000000000000000000e+00,-3.925691604614257812e+01,3.903342056274414062e+01,3.279878997802734375e+01,1.008999481201171875e+02,9.829453277587890625e+01,-4.295925617218017578e+00,4.033146500587463379e-01,-6.666904449462890625e+01,-1.826858215332031250e+02,-2.342460393905639648e+00,7.562139129638671875e+01,3.135763168334960938e+01
6.430310010910034180e-01,1.000000000000000000e+00,-3.929931259155273438e+01,3.895208740234375000e+01,3.282017898559570312e+01,1.008251495361328125e+02,9.831313323974609375e+01,-4.320882320404052734e+00,4.033146500587463379e-01,-6.666896057128906250e+01,-1.826858215332031250e+02,-2.342532396316528320e+00,7.562139129638671875e+01,3.135763168334960938e+01
6.469690203666687012e-01,1.000000000000000000e+00,-3.934188842773437500e+01,3.887057495117187500e+01,3.284146881103515625e+01,1.007499847412109375e+02,9.833196258544921875e+01,-4.345771312713623047e+00,4.033146500587463379e-01,-6.666904449462890625e+01,-1.826858215332031250e+02,-2.342532396316528320e+00,7.562139129638671875e+01,3.135763168334960938e+01
6.525920033454895020e-01,1.000000000000000000e+00,-3.938439941406250000e+01,3.878863525390625000e+01,3.286289978027343750e+01,1.006752395629882812e+02,9.835083007812500000e+01,-4.371338367462158203e+00,4.033146500587463379e-01,-6.666904449462890625e+01,-1.826858215332031250e+02,-2.342460393905639648e+00,7.562146759033203125e+01,3.135763168334960938e+01
6.571509838104248047e-01,1.000000000000000000e+00,-3.942685699462890625e+01,3.870642089843750000e+01,3.288434600830078125e+01,1.005998611450195312e+02,9.837071990966796875e+01,-4.396769046783447266e+00,4.033146500587463379e-01,-6.666904449462890625e+01,-1.826858215332031250e+02,-2.342603921890258789e+00,7.562139129638671875e+01,3.135763168334960938e+01
6.589769721031188965e-01,1.000000000000000000e+00,-3.946940231323242188e+01,3.862445449829101562e+01,3.290614318847656250e+01,1.005250625610351562e+02,9.839023590087890625e+01,-4.422539710998535156e+00,4.033146500587463379e-01,-6.666904449462890625e+01,-1.826858215332031250e+02,-2.342532396316528320e+00,7.562124633789062500e+01,3.135763168334960938e+01
6.629750132560729980e-01,1.000000000000000000e+00,-3.951200103759765625e+01,3.854257583618164062e+01,3.292767333984375000e+01,1.004500122070312500e+02,9.840872955322265625e+01,-4.448920726776123047e+00,4.033146500587463379e-01,-6.666904449462890625e+01,-1.826858215332031250e+02,-2.342532396316528320e+00,7.562124633789062500e+01,3.135763168334960938e+01
6.670349836349487305e-01,1.000000000000000000e+00,-3.955454635620117188e+01,3.846097183227539062e+01,3.294922637939453125e+01,1.003754196166992188e+02,9.842707824707031250e+01,-4.474961757659912109e+00,4.033146500587463379e-01,-6.666896057128906250e+01,-1.826858215332031250e+02,-2.342532396316528320e+00,7.562139129638671875e+01,3.135763168334960938e+01
6.709700226783752441e-01,1.000000000000000000e+00,-3.959700393676757812e+01,3.837966537475585938e+01,3.297063446044921875e+01,1.002998886108398438e+02,9.844535827636718750e+01,-4.500054359436035156e+00,4.033146500587463379e-01,-6.666904449462890625e+01,-1.826858215332031250e+02,-2.342532396316528320e+00,7.562146759033203125e+01,3.135763168334960938e+01
6.767039895057678223e-01,1.000000000000000000e+00,-3.963951873779296875e+01,3.829817581176757812e+01,3.299218750000000000e+01,1.002252502441406250e+02,9.846423339843750000e+01,-4.524875164031982422e+00,4.033146500587463379e-01,-6.666904449462890625e+01,-1.826858215332031250e+02,-2.342532396316528320e+00,7.562139129638671875e+01,3.135763168334960938e+01
6.814640164375305176e-01,1.000000000000000000e+00,-3.968203353881835938e+01,3.821636581420898438e+01,3.301391983032226562e+01,1.001498718261718750e+02,9.848305511474609375e+01,-4.550510406494140625e+00,4.033146500587463379e-01,-6.666904449462890625e+01,-1.826858215332031250e+02,-2.342532396316528320e+00,7.562139129638671875e+01,3.135763168334960938e+01
6.846240162849426270e-01,1.000000000000000000e+00,-3.972477722167968750e+01,3.813424301147460938e+01,3.303541183471679688e+01,1.000752258300781250e+02,9.850251770019531250e+01,-4.575737953186035156e+00,4.033146500587463379e-01,-6.666904449462890625e+01,-1.826858215332031250e+02,-2.342603921890258789e+00,7.562139129638671875e+01,3.135763168334960938e+01
6.887540221214294434e-01,1.000000000000000000e+00,-3.976729583740234375e+01,3.805205154418945312e+01,3.305669784545898438e+01,9.999938201904296875e+01,9.852235412597656250e+01,-4.601711750030517578e+00,4.033146500587463379e-01,-6.666904449462890625e+01,-1.826858215332031250e+02,-2.342532396316528320e+00,7.562139129638671875e+01,3.135763168334960938e+01
6.927499771118164062e-01,1.000000000000000000e+00,-3.980978012084960938e+01,3.796952056884765625e+01,3.307823181152343750e+01,9.992405700683593750e+01,9.854170227050781250e+01,-4.628228187561035156e+00,4.033146500587463379e-01,-6.666904449462890625e+01,-1.826858215332031250e+02,-2.342532396316528320e+00,7.562139129638671875e+01,3.135763168334960938e+01
6.966879963874816895e-01,1.000000000000000000e+00,-3.985249328613281250e+01,3.788687515258789062e+01,3.309996414184570312e+01,9.984815216064453125e+01,9.856025695800781250e+01,-4.654269695281982422e+00,4.033146500587463379e-01,-6.666904449462890625e+01,-1.826858215332031250e+02,-2.342460393905639648e+00,7.562139129638671875e+01,3.135784912109375000e+01
6.989820003509521484e-01,1.000000000000000000e+00,-3.989492416381835938e+01,3.780461502075195312e+01,3.312176132202148438e+01,9.977335357666015625e+01,9.857865142822265625e+01,-4.679226398468017578e+00,4.033146500587463379e-01,-6.666904449462890625e+01,-1.826858215332031250e+02,-2.342532396316528320e+00,7.562139129638671875e+01,3.135763168334960938e+01
7.030310034751892090e-01,1.000000000000000000e+00,-3.993743896484375000e+01,3.772274398803710938e+01,3.314341354370117188e+01,9.969771575927734375e+01,9.859720611572265625e+01,-4.704115390777587891e+00,4.033146500587463379e-01,-6.666904449462890625e+01,-1.826858215332031250e+02,-2.342532396316528320e+00,7.562146759033203125e+01,3.135763168334960938e+01
7.091259956359863281e-01,1.000000000000000000e+00,-3.997995376586914062e+01,3.764088821411132812e+01,3.316492462158203125e+01,9.962213134765625000e+01,9.861629486083984375e+01,-4.729546546936035156e+00,4.033146500587463379e-01,-6.666896057128906250e+01,-1.826858215332031250e+02,-2.342532396316528320e+00,7.562139129638671875e+01,3.135763168334960938e+01
7.109760046005249023e-01,1.000000000000000000e+00,-4.002249908447265625e+01,3.755885696411132812e+01,3.318629455566406250e+01,9.954617309570312500e+01,9.863554382324218750e+01,-4.755113124847412109e+00,4.033146500587463379e-01,-6.666904449462890625e+01,-1.826858215332031250e+02,-2.342532396316528320e+00,7.562139129638671875e+01,3.135784912109375000e+01
7.150449752807617188e-01,1.000000000000000000e+00,-4.006483840942382812e+01,3.747670745849609375e+01,3.320780563354492188e+01,9.947122192382812500e+01,9.865531921386718750e+01,-4.781087398529052734e+00,4.033146500587463379e-01,-6.666904449462890625e+01,-1.826858215332031250e+02,-2.342532396316528320e+00,7.562124633789062500e+01,3.135763168334960938e+01
7.189739942550659180e-01,1.000000000000000000e+00,-4.010752868652343750e+01,3.739426803588867188e+01,3.322968292236328125e+01,9.939547729492187500e+01,9.867515563964843750e+01,-4.807061195373535156e+00,4.033146500587463379e-01,-6.666904449462890625e+01,-1.826858215332031250e+02,-2.342603921890258789e+00,7.562124633789062500e+01,3.135763168334960938e+01
7.251309752464294434e-01,1.000000000000000000e+00,-4.015010070800781250e+01,3.731146621704101562e+01,3.325145721435546875e+01,9.931946563720703125e+01,9.869423675537109375e+01,-4.833509922027587891e+00,4.033146500587463379e-01,-6.666904449462890625e+01,-1.826858215332031250e+02,-2.342532396316528320e+00,7.562139129638671875e+01,3.135763168334960938e+01
7.269729971885681152e-01,1.000000000000000000e+00,-4.019278335571289062e+01,3.722837066650390625e+01,3.327325439453125000e+01,9.924403381347656250e+01,9.871253204345703125e+01,-4.859076976776123047e+00,4.033146500587463379e-01,-6.666896057128906250e+01,-1.826858215332031250e+02,-2.342603921890258789e+00,7.562139129638671875e+01,3.135763168334960938e+01
7.330949902534484863e-01,1.000000000000000000e+00,-4.023535919189453125e+01,3.714540863037109375e+01,3.329499053955078125e+01,9.916819000244140625e+01,9.873114013671875000e+01,-4.883965492248535156e+00,4.033146500587463379e-01,-6.666896057128906250e+01,-1.826858215332031250e+02,-2.342532396316528320e+00,7.562139129638671875e+01,3.135763168334960938e+01
7.350069880485534668e-01,1.000000000000000000e+00,-4.027804565429687500e+01,3.706258010864257812e+01,3.331672286987304688e+01,9.909243774414062500e+01,9.874979400634765625e+01,-4.909397125244140625e+00,4.033146500587463379e-01,-6.666904449462890625e+01,-1.826859436035156250e+02,-2.342532396316528320e+00,7.562160491943359375e+01,3.135784912109375000e+01
7.390080094337463379e-01,1.000000000000000000e+00,-4.032067489624023438e+01,3.698005294799804688e+01,3.333856201171875000e+01,9.901580047607421875e+01,9.876877593994140625e+01,-4.934963703155517578e+00,4.033146500587463379e-01,-6.666904449462890625e+01,-1.826858215332031250e+02,-2.342532396316528320e+00,7.562160491943359375e+01,3.135763168334960938e+01
7.429760098457336426e-01,1.000000000000000000e+00,-4.036344909667968750e+01,3.689801788330078125e+01,3.336029434204101562e+01,9.893994903564453125e+01,9.878823852539062500e+01,-4.960937500000000000e+00,4.033146500587463379e-01,-6.666904449462890625e+01,-1.826858215332031250e+02,-2.342532396316528320e+00,7.562139129638671875e+01,3.135763168334960938e+01
7.492190003395080566e-01,1.000000000000000000e+00,-4.040630722045898438e+01,3.681580352783203125e+01,3.338190841674804688e+01,9.886404418945312500e+01,9.880844879150390625e+01,-4.986979484558105469e+00,4.033146500587463379e-01,-6.666913604736328125e+01,-1.826858215332031250e+02,-2.342532396316528320e+00,7.562139129638671875e+01,3.135763168334960938e+01
7.509620189666748047e-01,1.000000000000000000e+00,-4.044919204711914062e+01,3.673311233520507812e+01,3.340351867675781250e+01,9.878851318359375000e+01,9.882801055908203125e+01,-5.013699054718017578e+00,4.033146500587463379e-01,-6.666904449462890625e+01,-1.826858215332031250e+02,-2.342532396316528320e+00,7.562139129638671875e+01,3.135763168334960938e+01
7.573419809341430664e-01,1.000000000000000000e+00,-4.049196624755859375e+01,3.665021896362304688e+01,3.342523574829101562e+01,9.871208190917968750e+01,9.884688568115234375e+01,-5.039401531219482422e+00,4.033146500587463379e-01,-6.666904449462890625e+01,-1.826858215332031250e+02,-2.342532396316528320e+00,7.562146759033203125e+01,3.135763168334960938e+01
7.590330243110656738e-01,1.000000000000000000e+00,-4.053488540649414062e+01,3.656714630126953125e+01,3.344731521606445312e+01,9.863628387451171875e+01,9.886533355712890625e+01,-5.064222335815429688e+00,4.033146500587463379e-01,-6.666904449462890625e+01,-1.826858215332031250e+02,-2.342532396316528320e+00,7.562139129638671875e+01,3.135763168334960938e+01
7.630810141563415527e-01,1.000000000000000000e+00,-4.057800292968750000e+01,3.648384475708007812e+01,3.346931457519531250e+01,9.855974578857421875e+01,9.888404083251953125e+01,-5.089789390563964844e+00,4.033146500587463379e-01,-6.666904449462890625e+01,-1.826858215332031250e+02,-2.342532396316528320e+00,7.562139129638671875e+01,3.135763168334960938e+01
7.670940160751342773e-01,1.000000000000000000e+00,-4.062117767333984375e+01,3.640022659301757812e+01,3.349129486083984375e+01,9.848410797119140625e+01,9.890324401855468750e+01,-5.115221023559570312e+00,4.033146500587463379e-01,-6.666904449462890625e+01,-1.826858215332031250e+02,-2.342603921890258789e+00,7.562146759033203125e+01,3.135763168334960938e+01
7.709969878196716309e-01,1.000000000000000000e+00,-4.066418075561523438e+01,3.631715011596679688e+01,3.351296615600585938e+01,9.840767669677734375e+01,9.892227172851562500e+01,-5.140923500061035156e+00,4.033146500587463379e-01,-6.666913604736328125e+01,-1.826858215332031250e+02,-2.342460393905639648e+00,7.562139129638671875e+01,3.135763168334960938e+01
7.760009765625000000e-01,1.000000000000000000e+00,-4.066418075561523438e+01,3.631715011596679688e+01,3.351296615600585938e+01,9.840767669677734375e+01,9.892227172851562500e+01,-5.140923500061035156e+00,4.033146500587463379e-01,-6.666904449462890625e+01,-1.826858215332031250e+02,-2.342532396316528320e+00,7.562139129638671875e+01,3.135763168334960938e+01
7.799959778785705566e-01,1.000000000000000000e+00,-4.075035858154296875e+01,3.615156936645507812e+01,3.355651855468750000e+01,9.825508117675781250e+01,9.896247863769531250e+01,-5.194024085998535156e+00,4.033146500587463379e-01,-6.666904449462890625e+01,-1.826858215332031250e+02,-2.342532396316528320e+00,7.562139129638671875e+01,3.135763168334960938e+01
7.829650044441223145e-01,1.000000000000000000e+00,-4.079362106323242188e+01,3.606890106201171875e+01,3.357863616943359375e+01,9.817896270751953125e+01,9.898204040527343750e+01,-5.220405101776123047e+00,4.033146500587463379e-01,-6.666904449462890625e+01,-1.826858215332031250e+02,-2.342532396316528320e+00,7.562146759033203125e+01,3.135763168334960938e+01
7.894999980926513672e-01,1.000000000000000000e+00,-4.079362106323242188e+01,3.606890106201171875e+01,3.357863616943359375e+01,9.817896270751953125e+01,9.898204040527343750e+01,-5.220405101776123047e+00,4.033146500587463379e-01,-6.666904449462890625e+01,-1.826858215332031250e+02,-2.342532396316528320e+00,7.562146759033203125e+01,3.135763168334960938e+01
7.910000085830688477e-01,1.000000000000000000e+00,-4.088002777099609375e+01,3.590252685546875000e+01,3.362245178222656250e+01,9.802578735351562500e+01,9.901914978027343750e+01,-5.270928382873535156e+00,4.033146500587463379e-01,-6.666904449462890625e+01,-1.826858215332031250e+02,-2.342532396316528320e+00,7.562139129638671875e+01,3.135763168334960938e+01
7.976850271224975586e-01,1.000000000000000000e+00,-4.088002777099609375e+01,3.590252685546875000e+01,3.362245178222656250e+01,9.802578735351562500e+01,9.901914978027343750e+01,-5.270928382873535156e+00,4.033146500587463379e-01,-6.666904449462890625e+01,-1.826858215332031250e+02,-2.342532396316528320e+00,7.562139129638671875e+01,3.135763168334960938e+01
8.000349998474121094e-01,1.000000000000000000e+00,-4.096663665771484375e+01,3.573474884033203125e+01,3.366622924804687500e+01,9.787303161621093750e+01,9.905695343017578125e+01,-5.323215007781982422e+00,4.033146500587463379e-01,-6.666904449462890625e+01,-1.826858215332031250e+02,-2.342532396316528320e+00,7.562139129638671875e+01,3.135763168334960938e+01
8.034909963607788086e-01,1.000000000000000000e+00,-4.100966644287109375e+01,3.565101623535156250e+01,3.368836975097656250e+01,9.779628753662109375e+01,9.907652282714843750e+01,-5.349460124969482422e+00,4.033146500587463379e-01,-6.666904449462890625e+01,-1.826858215332031250e+02,-2.342532396316528320e+00,7.562139129638671875e+01,3.135763168334960938e+01
8.079739809036254883e-01,1.000000000000000000e+00,-4.105295944213867188e+01,3.556733322143554688e+01,3.371026611328125000e+01,9.771975708007812500e+01,9.909667205810546875e+01,-5.376112461090087891e+00,4.033146500587463379e-01,-6.666904449462890625e+01,-1.826858215332031250e+02,-2.342532396316528320e+00,7.562139129638671875e+01,3.135784912109375000e+01
8.109660148620605469e-01,1.000000000000000000e+00,-4.109621810913085938e+01,3.548400878906250000e+01,3.373210144042968750e+01,9.764321899414062500e+01,9.911645507812500000e+01,-5.402289390563964844e+00,4.033146500587463379e-01,-6.666904449462890625e+01,-1.826858215332031250e+02,-2.342532396316528320e+00,7.562139129638671875e+01,3.135763168334960938e+01
8.150889873504638672e-01,1.000000000000000000e+00,-4.109621810913085938e+01,3.548400878906250000e+01,3.373210144042968750e+01,9.764321899414062500e+01,9.911645507812500000e+01,-5.402289390563964844e+00,4.033146500587463379e-01,-6.666904449462890625e+01,-1.826858215332031250e+02,-2.342532396316528320e+00,7.562139129638671875e+01,3.135763168334960938e+01
8.190230131149291992e-01,1.000000000000000000e+00,-4.113948059082031250e+01,3.540109252929687500e+01,3.375399780273437500e+01,9.756636810302734375e+01,9.913553619384765625e+01,-5.427721023559570312e+00,4.033146500587463379e-01,-6.666896057128906250e+01,-1.826858215332031250e+02,-2.342532396316528320e+00,7.562146759033203125e+01,3.135784912109375000e+01
8.230299949645996094e-01,1.000000000000000000e+00,-4.118285369873046875e+01,3.531772232055664062e+01,3.377595901489257812e+01,9.748999023437500000e+01,9.915430450439453125e+01,-5.453558921813964844e+00,4.033146500587463379e-01,-6.666904449462890625e+01,-1.826858215332031250e+02,-2.342532396316528320e+00,7.562124633789062500e+01,3.135763168334960938e+01
8.271470069885253906e-01,1.000000000000000000e+00,-4.122611618041992188e+01,3.523410415649414062e+01,3.379805755615234375e+01,9.741281890869140625e+01,9.917312622070312500e+01,-5.479736804962158203e+00,4.033146500587463379e-01,-6.666904449462890625e+01,-1.826858215332031250e+02,-2.342532396316528320e+00,7.562124633789062500e+01,3.135763168334960938e+01
8.310220241546630859e-01,1.000000000000000000e+00,-4.126917648315429688e+01,3.515014648437500000e+01,3.382015991210937500e+01,9.733602142333984375e+01,9.919226837158203125e+01,-5.505913734436035156e+00,4.033146500587463379e-01,-6.666913604736328125e+01,-1.826858215332031250e+02,-2.342532396316528320e+00,7.562139129638671875e+01,3.135763168334960938e+01
8.350419998168945312e-01,1.000000000000000000e+00,-4.131229400634765625e+01,3.506614685058593750e+01,3.384203720092773438e+01,9.725891113281250000e+01,9.921135711669921875e+01,-5.532362461090087891e+00,4.033146500587463379e-01,-6.666904449462890625e+01,-1.826858215332031250e+02,-2.342532396316528320e+00,7.562139129638671875e+01,3.135763168334960938e+01
8.391209840774536133e-01,1.000000000000000000e+00,-4.135543823242187500e+01,3.498178482055664062e+01,3.386393356323242188e+01,9.718199920654296875e+01,9.923139953613281250e+01,-5.559285640716552734e+00,4.033146500587463379e-01,-6.666904449462890625e+01,-1.826858215332031250e+02,-2.342532396316528320e+00,7.562139129638671875e+01,3.135763168334960938e+01
8.430200219154357910e-01,1.000000000000000000e+00,-4.139881515502929688e+01,3.489723587036132812e+01,3.388603210449218750e+01,9.710436248779296875e+01,9.925198364257812500e+01,-5.586073398590087891e+00,4.033146500587463379e-01,-6.666896057128906250e+01,-1.826858215332031250e+02,-2.342603921890258789e+00,7.562139129638671875e+01,3.135763168334960938e+01
8.470389842987060547e-01,1.000000000000000000e+00,-4.144187545776367188e+01,3.481323623657226562e+01,3.390817260742187500e+01,9.702756500244140625e+01,9.927165985107421875e+01,-5.611843585968017578e+00,4.033146500587463379e-01,-6.666904449462890625e+01,-1.826858215332031250e+02,-2.342532396316528320e+00,7.562139129638671875e+01,3.135763168334960938e+01
8.510469794273376465e-01,1.000000000000000000e+00,-4.148505401611328125e+01,3.472959518432617188e+01,3.393023681640625000e+01,9.695092010498046875e+01,9.929042053222656250e+01,-5.637478351593017578e+00,4.033146500587463379e-01,-6.666904449462890625e+01,-1.826858215332031250e+02,-2.342532396316528320e+00,7.562146759033203125e+01,3.135763168334960938e+01
8.550140261650085449e-01,1.000000000000000000e+00,-4.152816772460937500e+01,3.464582061767578125e+01,3.395243835449218750e+01,9.687364959716796875e+01,9.930897521972656250e+01,-5.663587570190429688e+00,4.033146500587463379e-01,-6.666904449462890625e+01,-1.826858215332031250e+02,-2.342532396316528320e+00,7.562139129638671875e+01,3.135763168334960938e+01
8.590260148048400879e-01,1.000000000000000000e+00,-4.157139968872070312e+01,3.456227111816406250e+01,3.397439575195312500e+01,9.679648590087890625e+01,9.932785034179687500e+01,-5.689561843872070312e+00,4.033146500587463379e-01,-6.666904449462890625e+01,-1.826858215332031250e+02,-2.342532396316528320e+00,7.562139129638671875e+01,3.135763168334960938e+01
8.630089759826660156e-01,1.000000000000000000e+00,-4.161452102661132812e+01,3.447831344604492188e+01,3.399645614624023438e+01,9.671920776367187500e+01,9.934725952148437500e+01,-5.716620922088623047e+00,4.033146500587463379e-01,-6.666904449462890625e+01,-1.826858215332031250e+02,-2.342532396316528320e+00,7.562146759033203125e+01,3.135763168334960938e+01
8.670709729194641113e-01,1.000000000000000000e+00,-4.165795135498046875e+01,3.439381027221679688e+01,3.401863861083984375e+01,9.664225006103515625e+01,9.936693572998046875e+01,-5.743544101715087891e+00,4.033146500587463379e-01,-6.666904449462890625e+01,-1.826858215332031250e+02,-2.342532396316528320e+00,7.562139129638671875e+01,3.135763168334960938e+01
8.720369935035705566e-01,1.000000000000000000e+00,-4.170121383666992188e+01,3.430922317504882812e+01,3.404071807861328125e+01,9.656466674804687500e+01,9.938692474365234375e+01,-5.770331859588623047e+00,4.033146500587463379e-01,-6.666904449462890625e+01,-1.826858215332031250e+02,-2.342532396316528320e+00,7.562139129638671875e+01,3.135763168334960938e+01
8.749629855155944824e-01,1.000000000000000000e+00,-4.178776550292968750e+01,3.413963317871093750e+01,3.408510208129882812e+01,9.640911865234375000e+01,9.942611694335937500e+01,-5.821194648742675781e+00,4.033146500587463379e-01,-6.666904449462890625e+01,-1.826858215332031250e+02,-2.342460393905639648e+00,7.562139129638671875e+01,3.135763168334960938e+01
8.800290226936340332e-01,1.000000000000000000e+00,-4.178776550292968750e+01,3.413963317871093750e+01,3.408510208129882812e+01,9.640911865234375000e+01,9.942611694335937500e+01,-5.821194648742675781e+00,4.033146500587463379e-01,-6.666904449462890625e+01,-1.826858215332031250e+02,-2.342460393905639648e+00,7.562139129638671875e+01,3.135763168334960938e+01
8.840050101280212402e-01,1.000000000000000000e+00,-4.187494659423828125e+01,3.397119903564453125e+01,3.412989044189453125e+01,9.625425720214843750e+01,9.946401977539062500e+01,-5.873955726623535156e+00,4.033146500587463379e-01,-6.666904449462890625e+01,-1.826858215332031250e+02,-2.342532396316528320e+00,7.562139129638671875e+01,3.135763168334960938e+01
8.869680166244506836e-01,1.000000000000000000e+00,-4.191858291625976562e+01,3.388749313354492188e+01,3.415201568603515625e+01,9.617662048339843750e+01,9.948321533203125000e+01,-5.900472164154052734e+00,4.033146500587463379e-01,-6.666904449462890625e+01,-1.826858215332031250e+02,-2.342532396316528320e+00,7.562139129638671875e+01,3.135763168334960938e+01
8.920930027961730957e-01,1.000000000000000000e+00,-4.191858291625976562e+01,3.388749313354492188e+01,3.415201568603515625e+01,9.617662048339843750e+01,9.948321533203125000e+01,-5.900472164154052734e+00,4.033146500587463379e-01,-6.666904449462890625e+01,-1.826858215332031250e+02,-2.342532396316528320e+00,7.562139129638671875e+01,3.135763168334960938e+01
8.950229883193969727e-01,1.000000000000000000e+00,-4.200622558593750000e+01,3.371883010864257812e+01,3.419623565673828125e+01,9.602154541015625000e+01,9.952293395996093750e+01,-5.954522132873535156e+00,4.033146500587463379e-01,-6.666904449462890625e+01,-1.826858215332031250e+02,-2.342603921890258789e+00,7.562139129638671875e+01,3.135763168334960938e+01
8.990349769592285156e-01,1.000000000000000000e+00,-4.200622558593750000e+01,3.371883010864257812e+01,3.419623565673828125e+01,9.602154541015625000e+01,9.952293395996093750e+01,-5.954522132873535156e+00,4.033146500587463379e-01,-6.666904449462890625e+01,-1.826858215332031250e+02,-2.342603921890258789e+00,7.562139129638671875e+01,3.135763168334960938e+01
9.030749797821044922e-01,1.000000000000000000e+00,-4.205008697509765625e+01,3.363437652587890625e+01,3.421847915649414062e+01,9.594390106201171875e+01,9.954319763183593750e+01,-5.980224609375000000e+00,4.033146500587463379e-01,-6.666904449462890625e+01,-1.826858215332031250e+02,-2.342532396316528320e+00,7.562139129638671875e+01,3.135763168334960938e+01
9.072350263595581055e-01,1.000000000000000000e+00,-4.209403991699218750e+01,3.354924011230468750e+01,3.424104690551757812e+01,9.586583709716796875e+01,9.956313323974609375e+01,-6.005723953247070312e+00,4.033146500587463379e-01,-6.666904449462890625e+01,-1.826858215332031250e+02,-2.342532396316528320e+00,7.562139129638671875e+01,3.135763168334960938e+01
9.110130071640014648e-01,1.000000000000000000e+00,-4.213810348510742188e+01,3.346387863159179688e+01,3.426329040527343750e+01,9.578809356689453125e+01,9.958238220214843750e+01,-6.032104492187500000e+00,4.033146500587463379e-01,-6.666904449462890625e+01,-1.826858215332031250e+02,-2.342532396316528320e+00,7.562146759033203125e+01,3.135763168334960938e+01
9.150800108909606934e-01,1.000000000000000000e+00,-4.218222427368164062e+01,3.337883758544921875e+01,3.428567504882812500e+01,9.571002960205078125e+01,9.960104370117187500e+01,-6.058688640594482422e+00,4.033146500587463379e-01,-6.666904449462890625e+01,-1.826858215332031250e+02,-2.342532396316528320e+00,7.562146759033203125e+01,3.135763168334960938e+01
9.190790057182312012e-01,1.000000000000000000e+00,-4.222628784179687500e+01,3.329413223266601562e+01,3.430791854858398438e+01,9.563249206542968750e+01,9.962002563476562500e+01,-6.085611820220947266e+00,4.033146500587463379e-01,-6.666904449462890625e+01,-1.826858215332031250e+02,-2.342603921890258789e+00,7.562146759033203125e+01,3.135763168334960938e+01
9.230120182037353516e-01,1.000000000000000000e+00,-4.227044296264648438e+01,3.320981597900390625e+01,3.433022308349609375e+01,9.555369567871093750e+01,9.963927459716796875e+01,-6.112603187561035156e+00,4.033146500587463379e-01,-6.666904449462890625e+01,-1.826858215332031250e+02,-2.342532396316528320e+00,7.562146759033203125e+01,3.135763168334960938e+01
9.281659722328186035e-01,1.000000000000000000e+00,-4.231484985351562500e+01,3.312528991699218750e+01,3.435271072387695312e+01,9.547594451904296875e+01,9.965937042236328125e+01,-6.139322757720947266e+00,4.033146500587463379e-01,-6.666904449462890625e+01,-1.826858215332031250e+02,-2.342532396316528320e+00,7.562139129638671875e+01,3.135763168334960938e+01
9.330090284347534180e-01,1.000000000000000000e+00,-4.235911560058593750e+01,3.304047393798828125e+01,3.437493133544921875e+01,9.539746856689453125e+01,9.967968750000000000e+01,-6.165500640869140625e+00,4.033146500587463379e-01,-6.666904449462890625e+01,-1.826858215332031250e+02,-2.342532396316528320e+00,7.562139129638671875e+01,3.135763168334960938e+01
9.356089830398559570e-01,1.000000000000000000e+00,-4.244776535034179688e+01,3.286991500854492188e+01,3.441935729980468750e+01,9.524150085449218750e+01,9.971919250488281250e+01,-6.217447757720947266e+00,4.033146500587463379e-01,-6.666904449462890625e+01,-1.826858215332031250e+02,-2.342532396316528320e+00,7.562146759033203125e+01,3.135763168334960938e+01
9.402229785919189453e-01,1.000000000000000000e+00,-4.244776535034179688e+01,3.286991500854492188e+01,3.441935729980468750e+01,9.524150085449218750e+01,9.971919250488281250e+01,-6.217447757720947266e+00,4.033146500587463379e-01,-6.666904449462890625e+01,-1.826858215332031250e+02,-2.342532396316528320e+00,7.562146759033203125e+01,3.135763168334960938e+01
9.439769983291625977e-01,1.000000000000000000e+00,-4.249220275878906250e+01,3.278398513793945312e+01,3.444190597534179688e+01,9.516322326660156250e+01,9.973796081542968750e+01,-6.243828773498535156e+00,4.033146500587463379e-01,-6.666904449462890625e+01,-1.826858215332031250e+02,-2.342532396316528320e+00,7.562139129638671875e+01,3.135763168334960938e+01
9.480010271072387695e-01,1.000000000000000000e+00,-4.253643798828125000e+01,3.269821929931640625e+01,3.446451187133789062e+01,9.508515167236328125e+01,9.975730895996093750e+01,-6.270887851715087891e+00,4.033146500587463379e-01,-6.666904449462890625e+01,-1.826858215332031250e+02,-2.342603921890258789e+00,7.562139129638671875e+01,3.135763168334960938e+01
9.510210156440734863e-01,1.000000000000000000e+00,-4.258082199096679688e+01,3.261254501342773438e+01,3.448702239990234375e+01,9.500693511962890625e+01,9.977677154541015625e+01,-6.298285484313964844e+00,4.033146500587463379e-01,-6.666904449462890625e+01,-1.826858215332031250e+02,-2.342460393905639648e+00,7.562139129638671875e+01,3.135763168334960938e+01
9.557350277900695801e-01,1.000000000000000000e+00,-4.262514114379882812e+01,3.252713775634765625e+01,3.450922393798828125e+01,9.492881774902343750e+01,9.979650115966796875e+01,-6.325479984283447266e+00,4.033146500587463379e-01,-6.666904449462890625e+01,-1.826858215332031250e+02,-2.342532396316528320e+00,7.562139129638671875e+01,3.135763168334960938e+01
9.600020051002502441e-01,1.000000000000000000e+00,-4.266946792602539062e+01,3.244229888916015625e+01,3.453140640258789062e+01,9.485017395019531250e+01,9.981697082519531250e+01,-6.351725578308105469e+00,4.033146500587463379e-01,-6.666904449462890625e+01,-1.826858215332031250e+02,-2.342603921890258789e+00,7.562139129638671875e+01,3.135763168334960938e+01
9.630089998245239258e-01,1.000000000000000000e+00,-4.271350479125976562e+01,3.235718917846679688e+01,3.455381011962890625e+01,9.477210998535156250e+01,9.983755493164062500e+01,-6.377631664276123047e+00,4.033146500587463379e-01,-6.666904449462890625e+01,-1.826858215332031250e+02,-2.342532396316528320e+00,7.562146759033203125e+01,3.135763168334960938e+01
9.683809876441955566e-01,1.000000000000000000e+00,-4.275791549682617188e+01,3.227178192138671875e+01,3.457638168334960938e+01,9.469300079345703125e+01,9.985733032226562500e+01,-6.403876781463623047e+00,4.033146500587463379e-01,-6.666904449462890625e+01,-1.826858215332031250e+02,-2.342532396316528320e+00,7.562139129638671875e+01,3.135763168334960938e+01
9.711070060729980469e-01,1.000000000000000000e+00,-4.280241012573242188e+01,3.218599319458007812e+01,3.459886550903320312e+01,9.461446380615234375e+01,9.987657928466796875e+01,-6.430867671966552734e+00,4.033146500587463379e-01,-6.666904449462890625e+01,-1.826858215332031250e+02,-2.342460393905639648e+00,7.562139129638671875e+01,3.135763168334960938e+01
9.751009941101074219e-01,1.000000000000000000e+00,-4.284672927856445312e+01,3.210004425048828125e+01,3.462145233154296875e+01,9.453576660156250000e+01,9.989556121826171875e+01,-6.458129882812500000e+00,4.033146500587463379e-01,-6.666904449462890625e+01,-1.826858215332031250e+02,-2.342460393905639648e+00,7.562146759033203125e+01,3.135763168334960938e+01
9.797080159187316895e-01,1.000000000000000000e+00,-4.289070892333984375e+01,3.201393890380859375e+01,3.464379882812500000e+01,9.445759582519531250e+01,9.991469573974609375e+01,-6.485731124877929688e+00,4.033146500587463379e-01,-6.666904449462890625e+01,-1.826858215332031250e+02,-2.342460393905639648e+00,7.562139129638671875e+01,3.135763168334960938e+01
9.840090274810791016e-01,1.000000000000000000e+00,-4.293506240844726562e+01,3.192757987976074219e+01,3.466647338867187500e+01,9.437847900390625000e+01,9.993426513671875000e+01,-6.512722492218017578e+00,4.033146500587463379e-01,-6.666904449462890625e+01,-1.826858215332031250e+02,-2.342532396316528320e+00,7.562139129638671875e+01,3.135763168334960938e+01
9.887120127677917480e-01,1.000000000000000000e+00,-4.297944259643554688e+01,3.184174537658691406e+01,3.468907928466796875e+01,9.430010986328125000e+01,9.995463562011718750e+01,-6.538832187652587891e+00,4.033146500587463379e-01,-6.666896057128906250e+01,-1.826858215332031250e+02,-2.342603921890258789e+00,7.562146759033203125e+01,3.135763168334960938e+01
9.929760098457336426e-01,1.000000000000000000e+00,-4.306803131103515625e+01,3.167070960998535156e+01,3.473409271240234375e+01,9.414239501953125000e+01,9.999552917480468750e+01,-6.591796875000000000e+00,4.033146500587463379e-01,-6.666904449462890625e+01,-1.826858215332031250e+02,-2.342460393905639648e+00,7.562139129638671875e+01,3.135763168334960938e+01
9.956439733505249023e-01,1.000000000000000000e+00,-4.311232376098632812e+01,3.158528137207031250e+01,3.475658035278320312e+01,9.406369781494140625e+01,1.000145111083984375e+02,-6.618516921997070312e+00,4.033146500587463379e-01,-6.666904449462890625e+01,-1.826858215332031250e+02,-2.342460393905639648e+00,7.562139129638671875e+01,3.135763168334960938e+01
1.000008940696716309e+00,1.000000000000000000e+00,-4.311232376098632812e+01,3.158528137207031250e+01,3.475658035278320312e+01,9.406369781494140625e+01,1.000145111083984375e+02,-6.618516921997070312e+00,4.033146500587463379e-01,-6.666904449462890625e+01,-1.826858215332031250e+02,-2.342460393905639648e+00,7.562139129638671875e+01,3.135763168334960938e+01
1.003973007202148438e+00,1.000000000000000000e+00,-4.315650558471679688e+01,3.149987602233886719e+01,3.477927398681640625e+01,9.398474121093750000e+01,1.000338134765625000e+02,-6.646185874938964844e+00,4.033146500587463379e-01,-6.666896057128906250e+01,-1.826858215332031250e+02,-2.342532396316528320e+00,7.562139129638671875e+01,3.135763168334960938e+01
1.008005976676940918e+00,1.000000000000000000e+00,-4.320088577270507812e+01,3.141383743286132812e+01,3.480202484130859375e+01,9.390599822998046875e+01,1.000532684326171875e+02,-6.673855304718017578e+00,4.033146500587463379e-01,-6.666896057128906250e+01,-1.826858215332031250e+02,-2.342532396316528320e+00,7.562146759033203125e+01,3.135763168334960938e+01
1.012891054153442383e+00,1.000000000000000000e+00,-4.324526977539062500e+01,3.132725334167480469e+01,3.482473373413085938e+01,9.382640838623046875e+01,1.000729980468750000e+02,-6.701253414154052734e+00,4.033146500587463379e-01,-6.666904449462890625e+01,-1.826858215332031250e+02,-2.342460393905639648e+00,7.562139129638671875e+01,3.135763168334960938e+01
1.017017960548400879e+00,1.000000000000000000e+00,-4.328979110717773438e+01,3.124051475524902344e+01,3.484732055664062500e+01,9.374765777587890625e+01,1.000930404663085938e+02,-6.727633953094482422e+00,4.033146500587463379e-01,-6.666904449462890625e+01,-1.826858215332031250e+02,-2.342532396316528320e+00,7.562139129638671875e+01,3.135763168334960938e+01
1.019747018814086914e+00,1.000000000000000000e+00,-4.337875366210937500e+01,3.106746482849121094e+01,3.489257812500000000e+01,9.358879852294921875e+01,1.001345214843750000e+02,-6.780463218688964844e+00,4.033146500587463379e-01,-6.666896057128906250e+01,-1.826858215332031250e+02,-2.342532396316528320e+00,7.562139129638671875e+01,3.135763168334960938e+01
1.024001955986022949e+00,1.000000000000000000e+00,-4.337875366210937500e+01,3.106746482849121094e+01,3.489257812500000000e+01,9.358879852294921875e+01,1.001345214843750000e+02,-6.780463218688964844e+00,4.033146500587463379e-01,-6.666896057128906250e+01,-1.826858215332031250e+02,-2.342532396316528320e+00,7.562139129638671875e+01,3.135763168334960938e+01
1.028213024139404297e+00,1.000000000000000000e+00,-4.342353439331054688e+01,3.098178672790527344e+01,3.491545104980468750e+01,9.350972747802734375e+01,1.001543045043945312e+02,-6.807725906372070312e+00,4.033146500587463379e-01,-6.666904449462890625e+01,-1.826858215332031250e+02,-2.342532396316528320e+00,7.562146759033203125e+01,3.135763168334960938e+01
1.031494975090026855e+00,1.000000000000000000e+00,-4.346837615966796875e+01,3.089599609375000000e+01,3.493816375732421875e+01,9.343077087402343750e+01,1.001736068725585938e+02,-6.835327148437500000e+00,4.033146500587463379e-01,-6.666904449462890625e+01,-1.826858215332031250e+02,-2.342532396316528320e+00,7.562139129638671875e+01,3.135763168334960938e+01
1.036741971969604492e+00,1.000000000000000000e+00,-4.351318740844726562e+01,3.080995559692382812e+01,3.496087265014648438e+01,9.335139465332031250e+01,1.001927947998046875e+02,-6.862996578216552734e+00,4.033146500587463379e-01,-6.666913604736328125e+01,-1.826858215332031250e+02,-2.342603921890258789e+00,7.562139129638671875e+01,3.135763168334960938e+01
1.040081977844238281e+00,1.000000000000000000e+00,-4.355799865722656250e+01,3.072360229492187500e+01,3.498344421386718750e+01,9.327211761474609375e+01,1.002124786376953125e+02,-6.890259265899658203e+00,4.033146500587463379e-01,-6.666904449462890625e+01,-1.826858215332031250e+02,-2.342532396316528320e+00,7.562139129638671875e+01,3.135784912109375000e+01
1.043606996536254883e+00,1.000000000000000000e+00,-4.360287094116210938e+01,3.063683700561523438e+01,3.500617599487304688e+01,9.319278717041015625e+01,1.002324142456054688e+02,-6.916572093963623047e+00,4.033146500587463379e-01,-6.666904449462890625e+01,-1.826858215332031250e+02,-2.342532396316528320e+00,7.562139129638671875e+01,3.135763168334960938e+01
1.048017024993896484e+00,1.000000000000000000e+00,-4.364773559570312500e+01,3.054975891113281250e+01,3.502904510498046875e+01,9.311288452148437500e+01,1.002530441284179688e+02,-6.942749023437500000e+00,4.033146500587463379e-01,-6.666913604736328125e+01,-1.826858215332031250e+02,-2.342603921890258789e+00,7.562139129638671875e+01,3.135763168334960938e+01
1.052474975585937500e+00,1.000000000000000000e+00,-4.369289016723632812e+01,3.046229171752929688e+01,3.505175781250000000e+01,9.303355407714843750e+01,1.002740020751953125e+02,-6.969808101654052734e+00,4.033146500587463379e-01,-6.666904449462890625e+01,-1.826858215332031250e+02,-2.342532396316528320e+00,7.562139129638671875e+01,3.135763168334960938e+01
1.055657982826232910e+00,1.000000000000000000e+00,-4.373781967163085938e+01,3.037525939941406250e+01,3.507452774047851562e+01,9.295343780517578125e+01,1.002942047119140625e+02,-6.997138500213623047e+00,4.033146500587463379e-01,-6.666896057128906250e+01,-1.826858215332031250e+02,-2.342532396316528320e+00,7.562139129638671875e+01,3.135763168334960938e+01
1.060708999633789062e+00,1.000000000000000000e+00,-4.378294754028320312e+01,3.028860664367675781e+01,3.509727859497070312e+01,9.287411499023437500e+01,1.003135604858398438e+02,-7.024604320526123047e+00,4.033146500587463379e-01,-6.666904449462890625e+01,-1.826858215332031250e+02,-2.342532396316528320e+00,7.562139129638671875e+01,3.135763168334960938e+01
1.064077973365783691e+00,1.000000000000000000e+00,-4.382807540893554688e+01,3.020200347900390625e+01,3.512007141113281250e+01,9.279431152343750000e+01,1.003328628540039062e+02,-7.052340984344482422e+00,4.033146500587463379e-01,-6.666904449462890625e+01,-1.826858215332031250e+02,-2.342603921890258789e+00,7.562139129638671875e+01,3.135763168334960938e+01
1.067788004875183105e+00,1.000000000000000000e+00,-4.387331390380859375e+01,3.011565017700195312e+01,3.514300918579101562e+01,9.271440124511718750e+01,1.003527450561523438e+02,-7.079400062561035156e+00,4.033146500587463379e-01,-6.666904449462890625e+01,-1.826858215332031250e+02,-2.342532396316528320e+00,7.562146759033203125e+01,3.135763168334960938e+01
1.072070956230163574e+00,1.000000000000000000e+00,-4.391847229003906250e+01,3.002915573120117188e+01,3.516569900512695312e+01,9.263465118408203125e+01,1.003727951049804688e+02,-7.105916500091552734e+00,4.033146500587463379e-01,-6.666904449462890625e+01,-1.826858215332031250e+02,-2.342532396316528320e+00,7.562139129638671875e+01,3.135763168334960938e+01
1.076552033424377441e+00,1.000000000000000000e+00,-4.396362686157226562e+01,2.994194030761718750e+01,3.518842697143554688e+01,9.255485534667968750e+01,1.003933715820312500e+02,-7.132229804992675781e+00,4.033146500587463379e-01,-6.666904449462890625e+01,-1.826858215332031250e+02,-2.342460393905639648e+00,7.562139129638671875e+01,3.135763168334960938e+01
1.080042004585266113e+00,1.000000000000000000e+00,-4.400883865356445312e+01,2.985454559326171875e+01,3.521120071411132812e+01,9.247510528564453125e+01,1.004141693115234375e+02,-7.159356117248535156e+00,4.033146500587463379e-01,-6.666904449462890625e+01,-1.826858215332031250e+02,-2.342532396316528320e+00,7.562139129638671875e+01,3.135763168334960938e+01
1.083781957626342773e+00,1.000000000000000000e+00,-4.405396652221679688e+01,2.976671981811523438e+01,3.523415374755859375e+01,9.239488983154296875e+01,1.004349060058593750e+02,-7.187025547027587891e+00,4.033146500587463379e-01,-6.666904449462890625e+01,-1.826858215332031250e+02,-2.342603921890258789e+00,7.562139129638671875e+01,3.135784912109375000e+01
1.088088989257812500e+00,1.000000000000000000e+00,-4.409897994995117188e+01,2.967902755737304688e+01,3.525704574584960938e+01,9.231529235839843750e+01,1.004546356201171875e+02,-7.214830398559570312e+00,4.033146500587463379e-01,-6.666904449462890625e+01,-1.826858215332031250e+02,-2.342532396316528320e+00,7.562139129638671875e+01,3.135763168334960938e+01
1.092093944549560547e+00,1.000000000000000000e+00,-4.414390563964843750e+01,2.959174346923828125e+01,3.528012466430664062e+01,9.223517608642578125e+01,1.004740982055664062e+02,-7.242499828338623047e+00,4.033146500587463379e-01,-6.666904449462890625e+01,-1.826858215332031250e+02,-2.342603921890258789e+00,7.562146759033203125e+01,3.135763168334960938e+01
1.096076965332031250e+00,1.000000000000000000e+00,-4.418920516967773438e+01,2.950489044189453125e+01,3.530299758911132812e+01,9.215468597412109375e+01,1.004937133789062500e+02,-7.269354820251464844e+00,4.033146500587463379e-01,-6.666904449462890625e+01,-1.826858215332031250e+02,-2.342532396316528320e+00,7.562139129638671875e+01,3.135763168334960938e+01
1.100883960723876953e+00,1.000000000000000000e+00,-4.423435974121093750e+01,2.941828346252441406e+01,3.532601165771484375e+01,9.207420349121093750e+01,1.005136032104492188e+02,-7.295803070068359375e+00,4.033146500587463379e-01,-6.666904449462890625e+01,-1.826858215332031250e+02,-2.342460393905639648e+00,7.562139129638671875e+01,3.135763168334960938e+01
1.104150056838989258e+00,1.000000000000000000e+00,-4.427943038940429688e+01,2.933147621154785156e+01,3.534901046752929688e+01,9.199419403076171875e+01,1.005341262817382812e+02,-7.322523593902587891e+00,4.033146500587463379e-01,-6.666904449462890625e+01,-1.826858215332031250e+02,-2.342603921890258789e+00,7.562139129638671875e+01,3.135763168334960938e+01
1.108728051185607910e+00,1.000000000000000000e+00,-4.432427215576171875e+01,2.924432945251464844e+01,3.537180328369140625e+01,9.191439056396484375e+01,1.005550842285156250e+02,-7.349785804748535156e+00,4.033146500587463379e-01,-6.666904449462890625e+01,-1.826858215332031250e+02,-2.342532396316528320e+00,7.562139129638671875e+01,3.135763168334960938e+01
1.112244963645935059e+00,1.000000000000000000e+00,-4.436942672729492188e+01,2.915674972534179688e+01,3.539481735229492188e+01,9.183385467529296875e+01,1.005759277343750000e+02,-7.377251625061035156e+00,4.033146500587463379e-01,-6.666913604736328125e+01,-1.826858215332031250e+02,-2.342532396316528320e+00,7.562139129638671875e+01,3.135763168334960938e+01
1.116170048713684082e+00,1.000000000000000000e+00,-4.441458129882812500e+01,2.906883430480957031e+01,3.541783142089843750e+01,9.175336456298828125e+01,1.005957107543945312e+02,-7.405056476593017578e+00,4.033146500587463379e-01,-6.666904449462890625e+01,-1.826858215332031250e+02,-2.342532396316528320e+00,7.562146759033203125e+01,3.135763168334960938e+01
1.120090007781982422e+00,1.000000000000000000e+00,-4.445967864990234375e+01,2.898057746887207031e+01,3.544097137451171875e+01,9.167282867431640625e+01,1.006151123046875000e+02,-7.432929515838623047e+00,4.033146500587463379e-01,-6.666904449462890625e+01,-1.826859436035156250e+02,-2.342603921890258789e+00,7.562146759033203125e+01,3.135763168334960938e+01
