rpiRobotics/ARM-21-02-F-19-Robot-Motion-Program/data_performance_abb/curve_1/curve_pose_opt1/100L/realrobot/run_1.csv
timestamp,cmd_num,J1,J2,J3,J4,J5,J6
1.420000044163316488e-04,-1.000000000000000000e+00,-3.419768142700195312e+01,4.881624221801757812e+01,3.022803688049316406e+01,1.098919906616210938e+02,9.603819274902343750e+01,-1.239895343780517578e+00,4.033146500587463379e-01,-6.666896057128906250e+01,-1.826858215332031250e+02,-2.342532396316528320e+00,7.562146759033203125e+01,3.135740852355957031e+01
5.001999903470277786e-03,1.000000000000000000e+00,-3.419776916503906250e+01,4.881631088256835938e+01,3.022803688049316406e+01,1.098919906616210938e+02,9.603807830810546875e+01,-1.239895343780517578e+00,4.033146500587463379e-01,-6.666896057128906250e+01,-1.826857147216796875e+02,-2.342603921890258789e+00,7.562146759033203125e+01,3.135740852355957031e+01
8.735000155866146088e-03,1.000000000000000000e+00,-3.419768142700195312e+01,4.881624221801757812e+01,3.022803688049316406e+01,1.098918762207031250e+02,9.603807830810546875e+01,-1.239895343780517578e+00,4.033146500587463379e-01,-6.666896057128906250e+01,-1.826857147216796875e+02,-2.342460393905639648e+00,7.562146759033203125e+01,3.135763168334960938e+01
1.511500030755996704e-02,1.000000000000000000e+00,-3.419782638549804688e+01,4.881624221801757812e+01,3.022797584533691406e+01,1.098921432495117188e+02,9.603807830810546875e+01,-1.239895343780517578e+00,4.033146500587463379e-01,-6.666896057128906250e+01,-1.826857147216796875e+02,-2.342603921890258789e+00,7.562139129638671875e+01,3.135740852355957031e+01
3.952899947762489319e-02,1.000000000000000000e+00,-3.419776916503906250e+01,4.881624221801757812e+01,3.022797584533691406e+01,1.098919906616210938e+02,9.603807830810546875e+01,-1.239895343780517578e+00,4.033146500587463379e-01,-6.666886138916015625e+01,-1.826857147216796875e+02,-2.342460393905639648e+00,7.562160491943359375e+01,3.135740852355957031e+01
4.097200185060501099e-02,1.000000000000000000e+00,-3.419776916503906250e+01,4.881624221801757812e+01,3.022797584533691406e+01,1.098919906616210938e+02,9.603807830810546875e+01,-1.239895343780517578e+00,4.033146500587463379e-01,-6.666886138916015625e+01,-1.826857147216796875e+02,-2.342460393905639648e+00,7.562160491943359375e+01,3.135740852355957031e+01
4.348500072956085205e-02,1.000000000000000000e+00,-3.419768142700195312e+01,4.881620025634765625e+01,3.022803688049316406e+01,1.098919906616210938e+02,9.603807830810546875e+01,-1.240031003952026367e+00,4.033146500587463379e-01,-6.666896057128906250e+01,-1.826857147216796875e+02,-2.342532396316528320e+00,7.562146759033203125e+01,3.135740852355957031e+01
4.910099878907203674e-02,1.000000000000000000e+00,-3.419771194458007812e+01,4.881624221801757812e+01,3.022803688049316406e+01,1.098919906616210938e+02,9.603807830810546875e+01,-1.239895343780517578e+00,4.033146500587463379e-01,-6.666896057128906250e+01,-1.826857147216796875e+02,-2.342532396316528320e+00,7.562146759033203125e+01,3.135763168334960938e+01
5.178299918770790100e-02,1.000000000000000000e+00,-3.419768142700195312e+01,4.881624221801757812e+01,3.022803688049316406e+01,1.098919906616210938e+02,9.603807830810546875e+01,-1.240031003952026367e+00,4.033146500587463379e-01,-6.666896057128906250e+01,-1.826857147216796875e+02,-2.342460393905639648e+00,7.562146759033203125e+01,3.135763168334960938e+01
5.310999974608421326e-02,1.000000000000000000e+00,-3.419768142700195312e+01,4.881624221801757812e+01,3.022803688049316406e+01,1.098919906616210938e+02,9.603807830810546875e+01,-1.240031003952026367e+00,4.033146500587463379e-01,-6.666896057128906250e+01,-1.826857147216796875e+02,-2.342460393905639648e+00,7.562146759033203125e+01,3.135763168334960938e+01
5.634900182485580444e-02,1.000000000000000000e+00,-3.419779968261718750e+01,4.881620025634765625e+01,3.022803688049316406e+01,1.098919906616210938e+02,9.603807830810546875e+01,-1.239895343780517578e+00,4.033146500587463379e-01,-6.666896057128906250e+01,-1.826857147216796875e+02,-2.342532396316528320e+00,7.562146759033203125e+01,3.135763168334960938e+01
5.976200103759765625e-02,1.000000000000000000e+00,-3.419802856445312500e+01,4.881597518920898438e+01,3.022803688049316406e+01,1.098919906616210938e+02,9.603819274902343750e+01,-1.239895343780517578e+00,4.034245014190673828e-01,-6.666896057128906250e+01,-1.826857147216796875e+02,-2.342532396316528320e+00,7.562146759033203125e+01,3.135763168334960938e+01
6.111700087785720825e-02,1.000000000000000000e+00,-3.419802856445312500e+01,4.881597518920898438e+01,3.022803688049316406e+01,1.098919906616210938e+02,9.603819274902343750e+01,-1.239895343780517578e+00,4.034245014190673828e-01,-6.666896057128906250e+01,-1.826857147216796875e+02,-2.342532396316528320e+00,7.562146759033203125e+01,3.135763168334960938e+01
6.468600034713745117e-02,1.000000000000000000e+00,-3.419880294799804688e+01,4.881526947021484375e+01,3.022797584533691406e+01,1.098919906616210938e+02,9.603819274902343750e+01,-1.240031003952026367e+00,4.033146500587463379e-01,-6.666896057128906250e+01,-1.826857147216796875e+02,-2.342460393905639648e+00,7.562146759033203125e+01,3.135740852355957031e+01
6.729499995708465576e-02,1.000000000000000000e+00,-3.419880294799804688e+01,4.881526947021484375e+01,3.022797584533691406e+01,1.098919906616210938e+02,9.603819274902343750e+01,-1.240031003952026367e+00,4.033146500587463379e-01,-6.666896057128906250e+01,-1.826857147216796875e+02,-2.342603921890258789e+00,7.562160491943359375e+01,3.135740852355957031e+01
7.169400155544281006e-02,1.000000000000000000e+00,-3.420175933837890625e+01,4.881164932250976562e+01,3.022797584533691406e+01,1.098919906616210938e+02,9.603819274902343750e+01,-1.240031003952026367e+00,4.033146500587463379e-01,-6.666896057128906250e+01,-1.826857147216796875e+02,-2.342532396316528320e+00,7.562139129638671875e+01,3.135740852355957031e+01
7.305099815130233765e-02,1.000000000000000000e+00,-3.420175933837890625e+01,4.881164932250976562e+01,3.022797584533691406e+01,1.098919906616210938e+02,9.603819274902343750e+01,-1.240031003952026367e+00,4.033146500587463379e-01,-6.666896057128906250e+01,-1.826857147216796875e+02,-2.342532396316528320e+00,7.562139129638671875e+01,3.135740852355957031e+01
7.618799805641174316e-02,1.000000000000000000e+00,-3.420411300659179688e+01,4.880809783935546875e+01,3.022803688049316406e+01,1.098919906616210938e+02,9.603807830810546875e+01,-1.240031003952026367e+00,4.033146500587463379e-01,-6.666896057128906250e+01,-1.826857147216796875e+02,-2.342603921890258789e+00,7.562146759033203125e+01,3.135719108581542969e+01
7.744699716567993164e-02,1.000000000000000000e+00,-3.420411300659179688e+01,4.880809783935546875e+01,3.022803688049316406e+01,1.098919906616210938e+02,9.603807830810546875e+01,-1.240031003952026367e+00,4.033146500587463379e-01,-6.666896057128906250e+01,-1.826857147216796875e+02,-2.342603921890258789e+00,7.562146759033203125e+01,3.135719108581542969e+01
8.119100332260131836e-02,1.000000000000000000e+00,-3.420704269409179688e+01,4.880278015136718750e+01,3.022803688049316406e+01,1.098917236328125000e+02,9.603829956054687500e+01,-1.240031003952026367e+00,4.033146500587463379e-01,-6.666896057128906250e+01,-1.826857147216796875e+02,-2.342460393905639648e+00,7.562146759033203125e+01,3.135719108581542969e+01
8.363900333642959595e-02,1.000000000000000000e+00,-3.421071624755859375e+01,4.879571914672851562e+01,3.022820091247558594e+01,1.098904037475585938e+02,9.603856658935546875e+01,-1.240098714828491211e+00,4.033146500587463379e-01,-6.666896057128906250e+01,-1.826857147216796875e+02,-2.342532396316528320e+00,7.562146759033203125e+01,3.135719108581542969e+01
8.500400185585021973e-02,1.000000000000000000e+00,-3.421071624755859375e+01,4.879571914672851562e+01,3.022820091247558594e+01,1.098904037475585938e+02,9.603856658935546875e+01,-1.240098714828491211e+00,4.033146500587463379e-01,-6.666896057128906250e+01,-1.826857147216796875e+02,-2.342532396316528320e+00,7.562146759033203125e+01,3.135719108581542969e+01
8.746399730443954468e-02,1.000000000000000000e+00,-3.421462249755859375e+01,4.878707504272460938e+01,3.022840309143066406e+01,1.098877716064453125e+02,9.603878021240234375e+01,-1.240302324295043945e+00,4.033146500587463379e-01,-6.666896057128906250e+01,-1.826857147216796875e+02,-2.342532396316528320e+00,7.562146759033203125e+01,3.135740852355957031e+01
8.969599753618240356e-02,1.000000000000000000e+00,-3.421462249755859375e+01,4.878707504272460938e+01,3.022840309143066406e+01,1.098877716064453125e+02,9.603878021240234375e+01,-1.240302324295043945e+00,4.033146500587463379e-01,-6.666896057128906250e+01,-1.826857147216796875e+02,-2.342532396316528320e+00,7.562146759033203125e+01,3.135740852355957031e+01
9.534099698066711426e-02,1.000000000000000000e+00,-3.421967315673828125e+01,4.877666473388671875e+01,3.022895240783691406e+01,1.098835601806640625e+02,9.603973388671875000e+01,-1.241183876991271973e+00,4.033146500587463379e-01,-6.666896057128906250e+01,-1.826857147216796875e+02,-2.342603921890258789e+00,7.562139129638671875e+01,3.135740852355957031e+01
9.674199670553207397e-02,1.000000000000000000e+00,-3.422567367553710938e+01,4.876419830322265625e+01,3.022988891601562500e+01,1.098776550292968750e+02,9.604085540771484375e+01,-1.242743611335754395e+00,4.033146500587463379e-01,-6.666896057128906250e+01,-1.826857147216796875e+02,-2.342603921890258789e+00,7.562139129638671875e+01,3.135740852355957031e+01
1.002250015735626221e-01,1.000000000000000000e+00,-3.422567367553710938e+01,4.876419830322265625e+01,3.022988891601562500e+01,1.098776550292968750e+02,9.604085540771484375e+01,-1.242743611335754395e+00,4.033146500587463379e-01,-6.666896057128906250e+01,-1.826857147216796875e+02,-2.342603921890258789e+00,7.562139129638671875e+01,3.135740852355957031e+01
1.034139990806579590e-01,1.000000000000000000e+00,-3.423310470581054688e+01,4.874935150146484375e+01,3.023137474060058594e+01,1.098702316284179688e+02,9.604251098632812500e+01,-1.245456337928771973e+00,4.033146500587463379e-01,-6.666896057128906250e+01,-1.826855621337890625e+02,-2.342532396316528320e+00,7.562146759033203125e+01,3.135740852355957031e+01
1.073250025510787964e-01,1.000000000000000000e+00,-3.424194717407226562e+01,4.873167419433593750e+01,3.023342704772949219e+01,1.098603286743164062e+02,9.604506683349609375e+01,-1.248779416084289551e+00,4.033146500587463379e-01,-6.666896057128906250e+01,-1.826857147216796875e+02,-2.342532396316528320e+00,7.562146759033203125e+01,3.135740852355957031e+01
1.113519966602325439e-01,1.000000000000000000e+00,-3.425202560424804688e+01,4.871169281005859375e+01,3.023623275756835938e+01,1.098477401733398438e+02,9.604821014404296875e+01,-1.252916097640991211e+00,4.033146500587463379e-01,-6.666896057128906250e+01,-1.826857147216796875e+02,-2.342532396316528320e+00,7.562146759033203125e+01,3.135740852355957031e+01
1.156499981880187988e-01,1.000000000000000000e+00,-3.426333618164062500e+01,4.868913269042968750e+01,3.023999404907226562e+01,1.098323059082031250e+02,9.605210113525390625e+01,-1.258273720741271973e+00,4.033146500587463379e-01,-6.666904449462890625e+01,-1.826857147216796875e+02,-2.342532396316528320e+00,7.562146759033203125e+01,3.135740852355957031e+01
1.200049966573715210e-01,1.000000000000000000e+00,-3.427605056762695312e+01,4.866371917724609375e+01,3.024495506286621094e+01,1.098132934570312500e+02,9.605664062500000000e+01,-1.264309406280517578e+00,4.033146500587463379e-01,-6.666904449462890625e+01,-1.826857147216796875e+02,-2.342532396316528320e+00,7.562146759033203125e+01,3.135740852355957031e+01
1.240580007433891296e-01,1.000000000000000000e+00,-3.429077911376953125e+01,4.863534164428710938e+01,3.025111579895019531e+01,1.097912750244140625e+02,9.606255340576171875e+01,-1.272515296936035156e+00,4.033146500587463379e-01,-6.666896057128906250e+01,-1.826857147216796875e+02,-2.342603921890258789e+00,7.562146759033203125e+01,3.135740852355957031e+01
1.276749968528747559e-01,1.000000000000000000e+00,-3.430722808837890625e+01,4.860361480712890625e+01,3.025835227966308594e+01,1.097649841308593750e+02,9.606890106201171875e+01,-1.281670451164245605e+00,4.033146500587463379e-01,-6.666896057128906250e+01,-1.826857147216796875e+02,-2.342460393905639648e+00,7.562139129638671875e+01,3.135740852355957031e+01
1.320060044527053833e-01,1.000000000000000000e+00,-3.432519912719726562e+01,4.856851577758789062e+01,3.026673126220703125e+01,1.097337493896484375e+02,9.607636260986328125e+01,-1.292656898498535156e+00,4.033146500587463379e-01,-6.666896057128906250e+01,-1.826857147216796875e+02,-2.342603921890258789e+00,7.562146759033203125e+01,3.135740852355957031e+01
1.354070007801055908e-01,1.000000000000000000e+00,-3.434451675415039062e+01,4.852999877929687500e+01,3.027650833129882812e+01,1.096973571777343750e+02,9.608522033691406250e+01,-1.304592609405517578e+00,4.033146500587463379e-01,-6.666896057128906250e+01,-1.826857147216796875e+02,-2.342316627502441406e+00,7.562160491943359375e+01,3.135740852355957031e+01
1.396930068731307983e-01,1.000000000000000000e+00,-3.436521530151367188e+01,4.848813629150390625e+01,3.028779411315917969e+01,1.096573257446289062e+02,9.609475708007812500e+01,-1.317816972732543945e+00,4.033146500587463379e-01,-6.666904449462890625e+01,-1.826857147216796875e+02,-2.342603921890258789e+00,7.562139129638671875e+01,3.135740852355957031e+01
1.440069973468780518e-01,1.000000000000000000e+00,-3.438818359375000000e+01,4.844298934936523438e+01,3.030039978027343750e+01,1.096148681640625000e+02,9.610510253906250000e+01,-1.332668900489807129e+00,4.033146500587463379e-01,-6.666896057128906250e+01,-1.826857147216796875e+02,-2.342532396316528320e+00,7.562146759033203125e+01,3.135740852355957031e+01
1.485719978809356689e-01,1.000000000000000000e+00,-3.441295623779296875e+01,4.839467239379882812e+01,3.031430625915527344e+01,1.095675659179687500e+02,9.611651611328125000e+01,-1.348741412162780762e+00,4.033146500587463379e-01,-6.666896057128906250e+01,-1.826857147216796875e+02,-2.342532396316528320e+00,7.562146759033203125e+01,3.135763168334960938e+01
1.520060002803802490e-01,1.000000000000000000e+00,-3.443887710571289062e+01,4.834346008300781250e+01,3.032941436767578125e+01,1.095146255493164062e+02,9.612893676757812500e+01,-1.366034626960754395e+00,4.033146500587463379e-01,-6.666896057128906250e+01,-1.826857147216796875e+02,-2.342603921890258789e+00,7.562146759033203125e+01,3.135740852355957031e+01
1.560170054435729980e-01,1.000000000000000000e+00,-3.446629333496093750e+01,4.828944396972656250e+01,3.034551620483398438e+01,1.094592666625976562e+02,9.614221191406250000e+01,-1.384345173835754395e+00,4.033146500587463379e-01,-6.666896057128906250e+01,-1.826857147216796875e+02,-2.342460393905639648e+00,7.562146759033203125e+01,3.135763168334960938e+01
1.595990061759948730e-01,1.000000000000000000e+00,-3.449511718750000000e+01,4.823280334472656250e+01,3.036210632324218750e+01,1.094010620117187500e+02,9.615671539306640625e+01,-1.403537392616271973e+00,4.033146500587463379e-01,-6.666896057128906250e+01,-1.826857147216796875e+02,-2.342603921890258789e+00,7.562146759033203125e+01,3.135763168334960938e+01
1.639029979705810547e-01,1.000000000000000000e+00,-3.452528381347656250e+01,4.817357635498046875e+01,3.037938690185546875e+01,1.093402786254882812e+02,9.617195892333984375e+01,-1.424221515655517578e+00,4.033146500587463379e-01,-6.666896057128906250e+01,-1.826857147216796875e+02,-2.342460393905639648e+00,7.562146759033203125e+01,3.135763168334960938e+01
1.680729985237121582e-01,1.000000000000000000e+00,-3.455674743652343750e+01,4.811198043823242188e+01,3.039729881286621094e+01,1.092776489257812500e+02,9.618837738037109375e+01,-1.446262001991271973e+00,4.033146500587463379e-01,-6.666896057128906250e+01,-1.826857147216796875e+02,-2.342532396316528320e+00,7.562146759033203125e+01,3.135763168334960938e+01
1.725959926843643188e-01,1.000000000000000000e+00,-3.458967208862304688e+01,4.804825210571289062e+01,3.041598701477050781e+01,1.092119674682617188e+02,9.620458984375000000e+01,-1.468777179718017578e+00,4.033146500587463379e-01,-6.666886138916015625e+01,-1.826857147216796875e+02,-2.342532396316528320e+00,7.562146759033203125e+01,3.135763168334960938e+01
1.760160028934478760e-01,1.000000000000000000e+00,-3.462372207641601562e+01,4.798233032226562500e+01,3.043525886535644531e+01,1.091456985473632812e+02,9.622084808349609375e+01,-1.491834878921508789e+00,4.033146500587463379e-01,-6.666896057128906250e+01,-1.826857147216796875e+02,-2.342532396316528320e+00,7.562146759033203125e+01,3.135763168334960938e+01
1.799180060625076294e-01,1.000000000000000000e+00,-3.465868377685546875e+01,4.791466903686523438e+01,3.045483970642089844e+01,1.090778579711914062e+02,9.623690032958984375e+01,-1.514960527420043945e+00,4.033146500587463379e-01,-6.666896057128906250e+01,-1.826857147216796875e+02,-2.342460393905639648e+00,7.562146759033203125e+01,3.135763168334960938e+01
1.848340034484863281e-01,1.000000000000000000e+00,-3.469413757324218750e+01,4.784533309936523438e+01,3.047446060180664062e+01,1.090096969604492188e+02,9.625385284423828125e+01,-1.537882566452026367e+00,4.033146500587463379e-01,-6.666896057128906250e+01,-1.826857147216796875e+02,-2.342532396316528320e+00,7.562146759033203125e+01,3.135740852355957031e+01
1.881850063800811768e-01,1.000000000000000000e+00,-3.473068237304687500e+01,4.777400207519531250e+01,3.049412155151367188e+01,1.089402694702148438e+02,9.627102661132812500e+01,-1.561279296875000000e+00,4.033146500587463379e-01,-6.666896057128906250e+01,-1.826857147216796875e+02,-2.342532396316528320e+00,7.562139129638671875e+01,3.135740852355957031e+01
1.921219974756240845e-01,1.000000000000000000e+00,-3.476800155639648438e+01,4.770092773437500000e+01,3.051380157470703125e+01,1.088708496093750000e+02,9.628829956054687500e+01,-1.584811806678771973e+00,4.033146500587463379e-01,-6.666896057128906250e+01,-1.826857147216796875e+02,-2.342532396316528320e+00,7.562146759033203125e+01,3.135740852355957031e+01
1.968979984521865845e-01,1.000000000000000000e+00,-3.480629730224609375e+01,4.762634277343750000e+01,3.053370475769042969e+01,1.088003692626953125e+02,9.630610656738281250e+01,-1.608547687530517578e+00,4.033146500587463379e-01,-6.666896057128906250e+01,-1.826857147216796875e+02,-2.342532396316528320e+00,7.562146759033203125e+01,3.135763168334960938e+01
2.002380043268203735e-01,1.000000000000000000e+00,-3.484505081176757812e+01,4.755082321166992188e+01,3.055383300781250000e+01,1.087303619384765625e+02,9.632438659667968750e+01,-1.632690429687500000e+00,4.033146500587463379e-01,-6.666896057128906250e+01,-1.826857147216796875e+02,-2.342532396316528320e+00,7.562146759033203125e+01,3.135763168334960938e+01
2.041749954223632812e-01,1.000000000000000000e+00,-3.488475036621093750e+01,4.747465515136718750e+01,3.057408523559570312e+01,1.086599349975585938e+02,9.634289550781250000e+01,-1.657714843750000000e+00,4.033146500587463379e-01,-6.666896057128906250e+01,-1.826857147216796875e+02,-2.342532396316528320e+00,7.562146759033203125e+01,3.135740852355957031e+01
2.089039981365203857e-01,1.000000000000000000e+00,-3.492462539672851562e+01,4.739832305908203125e+01,3.059417343139648438e+01,1.085899887084960938e+02,9.636080932617187500e+01,-1.681789875030517578e+00,4.033146500587463379e-01,-6.666896057128906250e+01,-1.826857147216796875e+02,-2.342532396316528320e+00,7.562139129638671875e+01,3.135719108581542969e+01
2.121890038251876831e-01,1.000000000000000000e+00,-3.496475601196289062e+01,4.732205963134765625e+01,3.061415863037109375e+01,1.085193023681640625e+02,9.637802886962890625e+01,-1.705390095710754395e+00,4.033146500587463379e-01,-6.666896057128906250e+01,-1.826857147216796875e+02,-2.342532396316528320e+00,7.562146759033203125e+01,3.135763168334960938e+01
2.161819934844970703e-01,1.000000000000000000e+00,-3.500489044189453125e+01,4.724575042724609375e+01,3.063398361206054688e+01,1.084485549926757812e+02,9.639535522460937500e+01,-1.728651285171508789e+00,4.033146500587463379e-01,-6.666896057128906250e+01,-1.826857147216796875e+02,-2.342460393905639648e+00,7.562146759033203125e+01,3.135740852355957031e+01
2.207099944353103638e-01,1.000000000000000000e+00,-3.504530715942382812e+01,4.716921615600585938e+01,3.065378761291503906e+01,1.083782958984375000e+02,9.641284179687500000e+01,-1.752319455146789551e+00,4.033146500587463379e-01,-6.666896057128906250e+01,-1.826858215332031250e+02,-2.342603921890258789e+00,7.562146759033203125e+01,3.135763168334960938e+01
2.244040071964263916e-01,1.000000000000000000e+00,-3.508621597290039062e+01,4.709241104125976562e+01,3.067397689819335938e+01,1.083077621459960938e+02,9.643033599853515625e+01,-1.776394367218017578e+00,4.033146500587463379e-01,-6.666896057128906250e+01,-1.826857147216796875e+02,-2.342460393905639648e+00,7.562160491943359375e+01,3.135763168334960938e+01
2.269950062036514282e-01,1.000000000000000000e+00,-3.512675094604492188e+01,4.701560592651367188e+01,3.069420433044433594e+01,1.082372283935546875e+02,9.644819641113281250e+01,-1.800265908241271973e+00,4.033146500587463379e-01,-6.666896057128906250e+01,-1.826857147216796875e+02,-2.342532396316528320e+00,7.562139129638671875e+01,3.135763168334960938e+01
2.334990054368972778e-01,1.000000000000000000e+00,-3.516682434082031250e+01,4.693884277343750000e+01,3.071441459655761719e+01,1.081667556762695312e+02,9.646674346923828125e+01,-1.824747800827026367e+00,4.033146500587463379e-01,-6.666896057128906250e+01,-1.826857147216796875e+02,-2.342460393905639648e+00,7.562146759033203125e+01,3.135740852355957031e+01
2.364110052585601807e-01,1.000000000000000000e+00,-3.520684051513671875e+01,4.686185836791992188e+01,3.073456382751464844e+01,1.080960617065429688e+02,9.648524475097656250e+01,-1.849636554718017578e+00,4.033146500587463379e-01,-6.666896057128906250e+01,-1.826857147216796875e+02,-2.342532396316528320e+00,7.562139129638671875e+01,3.135763168334960938e+01
2.390729933977127075e-01,1.000000000000000000e+00,-3.524737548828125000e+01,4.678491592407226562e+01,3.075463104248046875e+01,1.080252685546875000e+02,9.650321197509765625e+01,-1.874118566513061523e+00,4.033146500587463379e-01,-6.666896057128906250e+01,-1.826858215332031250e+02,-2.342532396316528320e+00,7.562146759033203125e+01,3.135740852355957031e+01
2.430199980735778809e-01,1.000000000000000000e+00,-3.528759384155273438e+01,4.670849609375000000e+01,3.077500534057617188e+01,1.079543685913085938e+02,9.652027130126953125e+01,-1.898057699203491211e+00,4.033146500587463379e-01,-6.666896057128906250e+01,-1.826857147216796875e+02,-2.342460393905639648e+00,7.562146759033203125e+01,3.135763168334960938e+01
2.485840022563934326e-01,1.000000000000000000e+00,-3.532769775390625000e+01,4.663211822509765625e+01,3.079556083679199219e+01,1.078838882446289062e+02,9.653786468505859375e+01,-1.921929240226745605e+00,4.033146500587463379e-01,-6.666904449462890625e+01,-1.826857147216796875e+02,-2.342460393905639648e+00,7.562139129638671875e+01,3.135740852355957031e+01
2.525070011615753174e-01,1.000000000000000000e+00,-3.536751556396484375e+01,4.655583190917968750e+01,3.081591224670410156e+01,1.078129425048828125e+02,9.655567932128906250e+01,-1.945597290992736816e+00,4.033146500587463379e-01,-6.666896057128906250e+01,-1.826857147216796875e+02,-2.342603921890258789e+00,7.562146759033203125e+01,3.135763168334960938e+01
2.550100088119506836e-01,1.000000000000000000e+00,-3.540761947631835938e+01,4.647925186157226562e+01,3.083610153198242188e+01,1.077419891357421875e+02,9.657321929931640625e+01,-1.968994140625000000e+00,4.033146500587463379e-01,-6.666896057128906250e+01,-1.826857147216796875e+02,-2.342460393905639648e+00,7.562146759033203125e+01,3.135763168334960938e+01
2.606000006198883057e-01,1.000000000000000000e+00,-3.544743728637695312e+01,4.640278625488281250e+01,3.085627174377441406e+01,1.076708297729492188e+02,9.659118652343750000e+01,-1.993340611457824707e+00,4.033146500587463379e-01,-6.666896057128906250e+01,-1.826857147216796875e+02,-2.342532396316528320e+00,7.562146759033203125e+01,3.135763168334960938e+01
2.646610140800476074e-01,1.000000000000000000e+00,-3.548753738403320312e+01,4.632629776000976562e+01,3.087646102905273438e+01,1.075998229980468750e+02,9.660974121093750000e+01,-2.018025636672973633e+00,4.033146500587463379e-01,-6.666896057128906250e+01,-1.826857147216796875e+02,-2.342532396316528320e+00,7.562160491943359375e+01,3.135763168334960938e+01
2.692469954490661621e-01,1.000000000000000000e+00,-3.552703857421875000e+01,4.624931335449218750e+01,3.089709472656250000e+01,1.075286560058593750e+02,9.662861633300781250e+01,-2.043389320373535156e+00,4.033146500587463379e-01,-6.666896057128906250e+01,-1.826857147216796875e+02,-2.342460393905639648e+00,7.562146759033203125e+01,3.135763168334960938e+01
2.709439992904663086e-01,1.000000000000000000e+00,-3.556671142578125000e+01,4.617221069335937500e+01,3.091765022277832031e+01,1.074574966430664062e+02,9.664668273925781250e+01,-2.067735671997070312e+00,4.033146500587463379e-01,-6.666896057128906250e+01,-1.826858215332031250e+02,-2.342532396316528320e+00,7.562146759033203125e+01,3.135763168334960938e+01
2.749510109424591064e-01,1.000000000000000000e+00,-3.560618209838867188e+01,4.609490966796875000e+01,3.093808746337890625e+01,1.073863906860351562e+02,9.666422271728515625e+01,-2.091132402420043945e+00,4.033146500587463379e-01,-6.666896057128906250e+01,-1.826857147216796875e+02,-2.342532396316528320e+00,7.562146759033203125e+01,3.135763168334960938e+01
2.790170013904571533e-01,1.000000000000000000e+00,-3.564562606811523438e+01,4.601766967773437500e+01,3.095845794677734375e+01,1.073155441284179688e+02,9.668144989013671875e+01,-2.114800453186035156e+00,4.033146500587463379e-01,-6.666896057128906250e+01,-1.826857147216796875e+02,-2.342532396316528320e+00,7.562146759033203125e+01,3.135763168334960938e+01
2.849250137805938721e-01,1.000000000000000000e+00,-3.568498229980468750e+01,4.594041442871093750e+01,3.097875022888183594e+01,1.072443771362304688e+02,9.669915008544921875e+01,-2.139010906219482422e+00,4.033146500587463379e-01,-6.666896057128906250e+01,-1.826857147216796875e+02,-2.342603921890258789e+00,7.562146759033203125e+01,3.135740852355957031e+01
2.889339923858642578e-01,1.000000000000000000e+00,-3.572431182861328125e+01,4.586347198486328125e+01,3.099905967712402344e+01,1.071730575561523438e+02,9.671685028076171875e+01,-2.163425207138061523e+00,4.033146500587463379e-01,-6.666896057128906250e+01,-1.826857147216796875e+02,-2.342532396316528320e+00,7.562146759033203125e+01,3.135763168334960938e+01
2.936919927597045898e-01,1.000000000000000000e+00,-3.576361083984375000e+01,4.578673553466796875e+01,3.101955413818359375e+01,1.071020507812500000e+02,9.673465728759765625e+01,-2.187567949295043945e+00,4.033146500587463379e-01,-6.666896057128906250e+01,-1.826857147216796875e+02,-2.342460393905639648e+00,7.562146759033203125e+01,3.135763168334960938e+01
2.969950139522552490e-01,1.000000000000000000e+00,-3.580273818969726562e+01,4.570960998535156250e+01,3.103990745544433594e+01,1.070308380126953125e+02,9.675321960449218750e+01,-2.212660074234008789e+00,4.033146500587463379e-01,-6.666896057128906250e+01,-1.826857147216796875e+02,-2.342532396316528320e+00,7.562146759033203125e+01,3.135740852355957031e+01
3.008950054645538330e-01,1.000000000000000000e+00,-3.584186553955078125e+01,4.563208007812500000e+01,3.106018066406250000e+01,1.069596786499023438e+02,9.677203369140625000e+01,-2.237548828125000000e+00,4.033146500587463379e-01,-6.666896057128906250e+01,-1.826858215332031250e+02,-2.342532396316528320e+00,7.562146759033203125e+01,3.135763168334960938e+01
3.056119978427886963e-01,1.000000000000000000e+00,-3.588119506835937500e+01,4.555411911010742188e+01,3.108065414428710938e+01,1.068877792358398438e+02,9.679048156738281250e+01,-2.261691570281982422e+00,4.033146500587463379e-01,-6.666896057128906250e+01,-1.826857147216796875e+02,-2.342532396316528320e+00,7.562146759033203125e+01,3.135763168334960938e+01
3.091169893741607666e-01,1.000000000000000000e+00,-3.592084121704101562e+01,4.547608947753906250e+01,3.110114669799804688e+01,1.068163986206054688e+02,9.680802154541015625e+01,-2.285495519638061523e+00,4.033146500587463379e-01,-6.666896057128906250e+01,-1.826857147216796875e+02,-2.342532396316528320e+00,7.562146759033203125e+01,3.135740852355957031e+01
3.109540045261383057e-01,1.000000000000000000e+00,-3.596045303344726562e+01,4.539790344238281250e+01,3.112176322937011719e+01,1.067446060180664062e+02,9.682529449462890625e+01,-2.309299230575561523e+00,4.033146500587463379e-01,-6.666896057128906250e+01,-1.826858215332031250e+02,-2.342460393905639648e+00,7.562146759033203125e+01,3.135740852355957031e+01
3.149679899215698242e-01,1.000000000000000000e+00,-3.600015640258789062e+01,4.531991958618164062e+01,3.114238166809082031e+01,1.066736602783203125e+02,9.684320831298828125e+01,-2.333509922027587891e+00,4.033146500587463379e-01,-6.666896057128906250e+01,-1.826857147216796875e+02,-2.342532396316528320e+00,7.562146759033203125e+01,3.135740852355957031e+01
3.211629986763000488e-01,1.000000000000000000e+00,-3.603994369506835938e+01,4.524225616455078125e+01,3.116275215148925781e+01,1.066018066406250000e+02,9.686096191406250000e+01,-2.358330726623535156e+00,4.033146500587463379e-01,-6.666896057128906250e+01,-1.826857147216796875e+02,-2.342532396316528320e+00,7.562146759033203125e+01,3.135740852355957031e+01
3.230220079421997070e-01,1.000000000000000000e+00,-3.607973098754882812e+01,4.516420745849609375e+01,3.118304443359375000e+01,1.065301208496093750e+02,9.687914276123046875e+01,-2.382948160171508789e+00,4.033146500587463379e-01,-6.666896057128906250e+01,-1.826857147216796875e+02,-2.342532396316528320e+00,7.562146759033203125e+01,3.135763168334960938e+01
3.270179927349090576e-01,1.000000000000000000e+00,-3.611974716186523438e+01,4.508638381958007812e+01,3.120345687866210938e+01,1.064583740234375000e+02,9.689749145507812500e+01,-2.408040523529052734e+00,4.033146500587463379e-01,-6.666896057128906250e+01,-1.826857147216796875e+02,-2.342460393905639648e+00,7.562146759033203125e+01,3.135763168334960938e+01
3.332499861717224121e-01,1.000000000000000000e+00,-3.615996551513671875e+01,4.500817489624023438e+01,3.122388839721679688e+01,1.063872146606445312e+02,9.691651916503906250e+01,-2.432454586029052734e+00,4.033146500587463379e-01,-6.666896057128906250e+01,-1.826857147216796875e+02,-2.342532396316528320e+00,7.562146759033203125e+01,3.135740852355957031e+01
3.349809944629669189e-01,1.000000000000000000e+00,-3.620026779174804688e+01,4.493032836914062500e+01,3.124440383911132812e+01,1.063154220581054688e+02,9.693513488769531250e+01,-2.456393957138061523e+00,4.033146500587463379e-01,-6.666896057128906250e+01,-1.826857147216796875e+02,-2.342460393905639648e+00,7.562146759033203125e+01,3.135763168334960938e+01
3.389889895915985107e-01,1.000000000000000000e+00,-3.624060440063476562e+01,4.485229873657226562e+01,3.126481819152832031e+01,1.062437286376953125e+02,9.695277404785156250e+01,-2.480536699295043945e+00,4.033146500587463379e-01,-6.666896057128906250e+01,-1.826857147216796875e+02,-2.342532396316528320e+00,7.562146759033203125e+01,3.135740852355957031e+01
3.451820015907287598e-01,1.000000000000000000e+00,-3.628113937377929688e+01,4.477395248413085938e+01,3.128551483154296875e+01,1.061718292236328125e+02,9.697042083740234375e+01,-2.504476070404052734e+00,4.033146500587463379e-01,-6.666896057128906250e+01,-1.826857147216796875e+02,-2.342532396316528320e+00,7.562139129638671875e+01,3.135763168334960938e+01
3.469969928264617920e-01,1.000000000000000000e+00,-3.632187271118164062e+01,4.469560623168945312e+01,3.130604934692382812e+01,1.061004028320312500e+02,9.698807525634765625e+01,-2.528618812561035156e+00,4.033146500587463379e-01,-6.666896057128906250e+01,-1.826857147216796875e+02,-2.342532396316528320e+00,7.562139129638671875e+01,3.135740852355957031e+01
3.509880006313323975e-01,1.000000000000000000e+00,-3.636278152465820312e+01,4.461725997924804688e+01,3.132674789428710938e+01,1.060285034179687500e+02,9.700588226318359375e+01,-2.553100585937500000e+00,4.033146500587463379e-01,-6.666896057128906250e+01,-1.826857147216796875e+02,-2.342532396316528320e+00,7.562139129638671875e+01,3.135763168334960938e+01
3.580380082130432129e-01,1.000000000000000000e+00,-3.640371704101562500e+01,4.453905105590820312e+01,3.134748840332031250e+01,1.059560775756835938e+02,9.702384948730468750e+01,-2.577921628952026367e+00,4.033146500587463379e-01,-6.666886138916015625e+01,-1.826857147216796875e+02,-2.342532396316528320e+00,7.562139129638671875e+01,3.135763168334960938e+01
3.594360053539276123e-01,1.000000000000000000e+00,-3.644459533691406250e+01,4.446070861816406250e+01,3.136800193786621094e+01,1.058838043212890625e+02,9.704239654541015625e+01,-2.603081703186035156e+00,4.033146500587463379e-01,-6.666896057128906250e+01,-1.826857147216796875e+02,-2.342532396316528320e+00,7.562139129638671875e+01,3.135740852355957031e+01
3.639729917049407959e-01,1.000000000000000000e+00,-3.648561859130859375e+01,4.438256835937500000e+01,3.138862037658691406e+01,1.058123321533203125e+02,9.706137847900390625e+01,-2.627631425857543945e+00,4.033146500587463379e-01,-6.666886138916015625e+01,-1.826857147216796875e+02,-2.342532396316528320e+00,7.562146759033203125e+01,3.135740852355957031e+01
3.680050075054168701e-01,1.000000000000000000e+00,-3.652669525146484375e+01,4.430494689941406250e+01,3.140923309326171875e+01,1.057402725219726562e+02,9.707977294921875000e+01,-2.651435136795043945e+00,4.033146500587463379e-01,-6.666896057128906250e+01,-1.826857147216796875e+02,-2.342532396316528320e+00,7.562146759033203125e+01,3.135740852355957031e+01
3.709459900856018066e-01,1.000000000000000000e+00,-3.656785964965820312e+01,4.422705841064453125e+01,3.142997360229492188e+01,1.056681671142578125e+02,9.709780120849609375e+01,-2.675306558609008789e+00,4.033146500587463379e-01,-6.666896057128906250e+01,-1.826857147216796875e+02,-2.342532396316528320e+00,7.562146759033203125e+01,3.135763168334960938e+01
3.783060014247894287e-01,1.000000000000000000e+00,-3.656785964965820312e+01,4.422705841064453125e+01,3.142997360229492188e+01,1.056681671142578125e+02,9.709780120849609375e+01,-2.675306558609008789e+00,4.033146500587463379e-01,-6.666896057128906250e+01,-1.826857147216796875e+02,-2.342532396316528320e+00,7.562146759033203125e+01,3.135763168334960938e+01
3.797850012779235840e-01,1.000000000000000000e+00,-3.665019226074218750e+01,4.407050323486328125e+01,3.147163391113281250e+01,1.055240936279296875e+02,9.713309478759765625e+01,-2.723659992218017578e+00,4.033146500587463379e-01,-6.666896057128906250e+01,-1.826857147216796875e+02,-2.342532396316528320e+00,7.562139129638671875e+01,3.135763168334960938e+01
3.830260038375854492e-01,1.000000000000000000e+00,-3.669124221801757812e+01,4.399206542968750000e+01,3.149225044250488281e+01,1.054522018432617188e+02,9.715089416503906250e+01,-2.748888015747070312e+00,4.031498432159423828e-01,-6.666896057128906250e+01,-1.826857147216796875e+02,-2.342603921890258789e+00,7.562139129638671875e+01,3.135740852355957031e+01
3.912459909915924072e-01,1.000000000000000000e+00,-3.677302932739257812e+01,4.383442687988281250e+01,3.153352165222167969e+01,1.053077163696289062e+02,9.718773651123046875e+01,-2.798868894577026367e+00,4.033146500587463379e-01,-6.666896057128906250e+01,-1.826857147216796875e+02,-2.342460393905639648e+00,7.562146759033203125e+01,3.135763168334960938e+01
3.938870131969451904e-01,1.000000000000000000e+00,-3.677302932739257812e+01,4.383442687988281250e+01,3.153352165222167969e+01,1.053077163696289062e+02,9.718773651123046875e+01,-2.798868894577026367e+00,4.033146500587463379e-01,-6.666896057128906250e+01,-1.826857147216796875e+02,-2.342532396316528320e+00,7.562139129638671875e+01,3.135740852355957031e+01
3.959940075874328613e-01,1.000000000000000000e+00,-3.681439590454101562e+01,4.375583267211914062e+01,3.155436515808105469e+01,1.052356567382812500e+02,9.720677185058593750e+01,-2.822875976562500000e+00,4.033146500587463379e-01,-6.666896057128906250e+01,-1.826857147216796875e+02,-2.342532396316528320e+00,7.562139129638671875e+01,3.135740852355957031e+01
3.989900052547454834e-01,1.000000000000000000e+00,-3.685544586181640625e+01,4.367742156982421875e+01,3.157524490356445312e+01,1.051631774902343750e+02,9.722554779052734375e+01,-2.846544027328491211e+00,4.033146500587463379e-01,-6.666896057128906250e+01,-1.826858215332031250e+02,-2.342532396316528320e+00,7.562146759033203125e+01,3.135740852355957031e+01
4.039990007877349854e-01,1.000000000000000000e+00,-3.685544586181640625e+01,4.367742156982421875e+01,3.157524490356445312e+01,1.051631774902343750e+02,9.722554779052734375e+01,-2.846544027328491211e+00,4.033146500587463379e-01,-6.666896057128906250e+01,-1.826858215332031250e+02,-2.342532396316528320e+00,7.562146759033203125e+01,3.135740852355957031e+01
4.069469869136810303e-01,1.000000000000000000e+00,-3.693703079223632812e+01,4.352084350585937500e+01,3.161661911010742188e+01,1.050182723999023438e+02,9.726110076904296875e+01,-2.894897699356079102e+00,4.033146500587463379e-01,-6.666896057128906250e+01,-1.826857147216796875e+02,-2.342603921890258789e+00,7.562139129638671875e+01,3.135740852355957031e+01
4.120160043239593506e-01,1.000000000000000000e+00,-3.693703079223632812e+01,4.352084350585937500e+01,3.161661911010742188e+01,1.050182723999023438e+02,9.726110076904296875e+01,-2.894897699356079102e+00,4.033146500587463379e-01,-6.666896057128906250e+01,-1.826857147216796875e+02,-2.342603921890258789e+00,7.562139129638671875e+01,3.135740852355957031e+01
4.159449934959411621e-01,1.000000000000000000e+00,-3.701901626586914062e+01,4.336370086669921875e+01,3.165813636779785156e+01,1.048734664916992188e+02,9.729640197753906250e+01,-2.944946527481079102e+00,4.033146500587463379e-01,-6.666904449462890625e+01,-1.826857147216796875e+02,-2.342532396316528320e+00,7.562160491943359375e+01,3.135763168334960938e+01
4.189929962158203125e-01,1.000000000000000000e+00,-3.705986404418945312e+01,4.328442764282226562e+01,3.167913818359375000e+01,1.048011474609375000e+02,9.731474304199218750e+01,-2.970648765563964844e+00,4.033146500587463379e-01,-6.666896057128906250e+01,-1.826857147216796875e+02,-2.342532396316528320e+00,7.562146759033203125e+01,3.135740852355957031e+01
4.240260124206542969e-01,1.000000000000000000e+00,-3.705986404418945312e+01,4.328442764282226562e+01,3.167913818359375000e+01,1.048011474609375000e+02,9.731474304199218750e+01,-2.970648765563964844e+00,4.033146500587463379e-01,-6.666896057128906250e+01,-1.826857147216796875e+02,-2.342532396316528320e+00,7.562146759033203125e+01,3.135740852355957031e+01
4.269790053367614746e-01,1.000000000000000000e+00,-3.714145278930664062e+01,4.312545394897460938e+01,3.172069740295410156e+01,1.046562347412109375e+02,9.735237884521484375e+01,-3.019002437591552734e+00,4.033146500587463379e-01,-6.666896057128906250e+01,-1.826857147216796875e+02,-2.342532396316528320e+00,7.562139129638671875e+01,3.135763168334960938e+01
4.320670068264007568e-01,1.000000000000000000e+00,-3.714145278930664062e+01,4.312545394897460938e+01,3.172069740295410156e+01,1.046562347412109375e+02,9.735237884521484375e+01,-3.019002437591552734e+00,4.033146500587463379e-01,-6.666896057128906250e+01,-1.826857147216796875e+02,-2.342532396316528320e+00,7.562139129638671875e+01,3.135763168334960938e+01
4.349870085716247559e-01,1.000000000000000000e+00,-3.722254562377929688e+01,4.296699905395507812e+01,3.176231575012207031e+01,1.045110168457031250e+02,9.738901519775390625e+01,-3.068101882934570312e+00,4.031498432159423828e-01,-6.666896057128906250e+01,-1.826857147216796875e+02,-2.342460393905639648e+00,7.562139129638671875e+01,3.135763168334960938e+01
4.401409924030303955e-01,1.000000000000000000e+00,-3.722254562377929688e+01,4.296699905395507812e+01,3.176231575012207031e+01,1.045110168457031250e+02,9.738901519775390625e+01,-3.068101882934570312e+00,4.031498432159423828e-01,-6.666896057128906250e+01,-1.826857147216796875e+02,-2.342460393905639648e+00,7.562139129638671875e+01,3.135763168334960938e+01
4.429500102996826172e-01,1.000000000000000000e+00,-3.730436325073242188e+01,4.280958557128906250e+01,3.180428123474121094e+01,1.043657455444335938e+02,9.742462158203125000e+01,-3.117472410202026367e+00,4.033146500587463379e-01,-6.666896057128906250e+01,-1.826858215332031250e+02,-2.342532396316528320e+00,7.562146759033203125e+01,3.135740852355957031e+01
4.481349885463714600e-01,1.000000000000000000e+00,-3.730436325073242188e+01,4.280958557128906250e+01,3.180428123474121094e+01,1.043657455444335938e+02,9.742462158203125000e+01,-3.117472410202026367e+00,4.033146500587463379e-01,-6.666896057128906250e+01,-1.826858215332031250e+02,-2.342532396316528320e+00,7.562146759033203125e+01,3.135740852355957031e+01
4.514819979667663574e-01,1.000000000000000000e+00,-3.738629531860351562e+01,4.265119934082031250e+01,3.184561729431152344e+01,1.042200469970703125e+02,9.746072387695312500e+01,-3.167928218841552734e+00,4.033146500587463379e-01,-6.666896057128906250e+01,-1.826857147216796875e+02,-2.342532396316528320e+00,7.562146759033203125e+01,3.135763168334960938e+01
4.550069868564605713e-01,1.000000000000000000e+00,-3.738629531860351562e+01,4.265119934082031250e+01,3.184561729431152344e+01,1.042200469970703125e+02,9.746072387695312500e+01,-3.167928218841552734e+00,4.033146500587463379e-01,-6.666896057128906250e+01,-1.826857147216796875e+02,-2.342532396316528320e+00,7.562146759033203125e+01,3.135763168334960938e+01
4.600600004196166992e-01,1.000000000000000000e+00,-3.742716979980468750e+01,4.257160949707031250e+01,3.186637496948242188e+01,1.041469879150390625e+02,9.747948455810546875e+01,-3.192816972732543945e+00,4.033146500587463379e-01,-6.666896057128906250e+01,-1.826857147216796875e+02,-2.342532396316528320e+00,7.562146759033203125e+01,3.135740852355957031e+01
4.629530012607574463e-01,1.000000000000000000e+00,-3.750933074951171875e+01,4.241229629516601562e+01,3.190852355957031250e+01,1.040011367797851562e+02,9.751782226562500000e+01,-3.241170167922973633e+00,4.033146500587463379e-01,-6.666896057128906250e+01,-1.826857147216796875e+02,-2.342532396316528320e+00,7.562146759033203125e+01,3.135763168334960938e+01
4.679920077323913574e-01,1.000000000000000000e+00,-3.750933074951171875e+01,4.241229629516601562e+01,3.190852355957031250e+01,1.040011367797851562e+02,9.751782226562500000e+01,-3.241170167922973633e+00,4.033146500587463379e-01,-6.666896057128906250e+01,-1.826857147216796875e+02,-2.342532396316528320e+00,7.562146759033203125e+01,3.135763168334960938e+01
4.709480106830596924e-01,1.000000000000000000e+00,-3.759172058105468750e+01,4.225293350219726562e+01,3.195056915283203125e+01,1.038551712036132812e+02,9.755332946777343750e+01,-3.290947914123535156e+00,4.033146500587463379e-01,-6.666896057128906250e+01,-1.826857147216796875e+02,-2.342532396316528320e+00,7.562146759033203125e+01,3.135740852355957031e+01
4.761070013046264648e-01,1.000000000000000000e+00,-3.759172058105468750e+01,4.225293350219726562e+01,3.195056915283203125e+01,1.038551712036132812e+02,9.755332946777343750e+01,-3.290947914123535156e+00,4.033146500587463379e-01,-6.666896057128906250e+01,-1.826857147216796875e+02,-2.342532396316528320e+00,7.562146759033203125e+01,3.135740852355957031e+01
4.790219962596893311e-01,1.000000000000000000e+00,-3.767416763305664062e+01,4.209427642822265625e+01,3.199230957031250000e+01,1.037091598510742188e+02,9.758915710449218750e+01,-3.342217445373535156e+00,4.033146500587463379e-01,-6.666896057128906250e+01,-1.826857147216796875e+02,-2.342532396316528320e+00,7.562139129638671875e+01,3.135740852355957031e+01
4.830819964408874512e-01,1.000000000000000000e+00,-3.767416763305664062e+01,4.209427642822265625e+01,3.199230957031250000e+01,1.037091598510742188e+02,9.758915710449218750e+01,-3.342217445373535156e+00,4.033146500587463379e-01,-6.666896057128906250e+01,-1.826857147216796875e+02,-2.342532396316528320e+00,7.562139129638671875e+01,3.135740852355957031e+01
4.870069921016693115e-01,1.000000000000000000e+00,-3.771544265747070312e+01,4.201496124267578125e+01,3.201339340209960938e+01,1.036362609863281250e+02,9.760749816894531250e+01,-3.367106199264526367e+00,4.033146500587463379e-01,-6.666896057128906250e+01,-1.826857147216796875e+02,-2.342532396316528320e+00,7.562139129638671875e+01,3.135740852355957031e+01
4.920899868011474609e-01,1.000000000000000000e+00,-3.775678253173828125e+01,4.193545913696289062e+01,3.203435516357421875e+01,1.035630416870117188e+02,9.762615966796875000e+01,-3.391384601593017578e+00,4.033146500587463379e-01,-6.666896057128906250e+01,-1.826857147216796875e+02,-2.342532396316528320e+00,7.562146759033203125e+01,3.135740852355957031e+01
4.960669875144958496e-01,1.000000000000000000e+00,-3.783980178833007812e+01,4.177557754516601562e+01,3.207619857788085938e+01,1.034163436889648438e+02,9.766449737548828125e+01,-3.440212965011596680e+00,4.033146500587463379e-01,-6.666896057128906250e+01,-1.826857147216796875e+02,-2.342460393905639648e+00,7.562160491943359375e+01,3.135763168334960938e+01
5.009679794311523438e-01,1.000000000000000000e+00,-3.788134384155273438e+01,4.169526672363281250e+01,3.209736633300781250e+01,1.033428649902343750e+02,9.768235778808593750e+01,-3.465372800827026367e+00,4.031498432159423828e-01,-6.666896057128906250e+01,-1.826855621337890625e+02,-2.342460393905639648e+00,7.562146759033203125e+01,3.135740852355957031e+01
5.036900043487548828e-01,1.000000000000000000e+00,-3.792285156250000000e+01,4.161488342285156250e+01,3.211865234375000000e+01,1.032693328857421875e+02,9.770032501220703125e+01,-3.490736484527587891e+00,4.033146500587463379e-01,-6.666896057128906250e+01,-1.826857147216796875e+02,-2.342603921890258789e+00,7.562146759033203125e+01,3.135763168334960938e+01
5.080620050430297852e-01,1.000000000000000000e+00,-3.792285156250000000e+01,4.161488342285156250e+01,3.211865234375000000e+01,1.032693328857421875e+02,9.770032501220703125e+01,-3.490736484527587891e+00,4.033146500587463379e-01,-6.666896057128906250e+01,-1.826857147216796875e+02,-2.342603921890258789e+00,7.562146759033203125e+01,3.135763168334960938e+01
5.119640231132507324e-01,1.000000000000000000e+00,-3.796435928344726562e+01,4.153461456298828125e+01,3.213981628417968750e+01,1.031959533691406250e+02,9.771839904785156250e+01,-3.516506671905517578e+00,4.033146500587463379e-01,-6.666896057128906250e+01,-1.826857147216796875e+02,-2.342532396316528320e+00,7.562146759033203125e+01,3.135763168334960938e+01
5.160400271415710449e-01,1.000000000000000000e+00,-3.800578689575195312e+01,4.145468521118164062e+01,3.216098022460937500e+01,1.031225814819335938e+02,9.773662567138671875e+01,-3.541870117187500000e+00,4.033146500587463379e-01,-6.666896057128906250e+01,-1.826857147216796875e+02,-2.342460393905639648e+00,7.562139129638671875e+01,3.135763168334960938e+01
5.200849771499633789e-01,1.000000000000000000e+00,-3.804732513427734375e+01,4.137534713745117188e+01,3.218192672729492188e+01,1.030491027832031250e+02,9.775507354736328125e+01,-3.566216468811035156e+00,4.033146500587463379e-01,-6.666896057128906250e+01,-1.826857147216796875e+02,-2.342532396316528320e+00,7.562139129638671875e+01,3.135740852355957031e+01
5.237640142440795898e-01,1.000000000000000000e+00,-3.808880615234375000e+01,4.129582595825195312e+01,3.220286560058593750e+01,1.029754104614257812e+02,9.777384185791015625e+01,-3.590630531311035156e+00,4.033146500587463379e-01,-6.666896057128906250e+01,-1.826857147216796875e+02,-2.342532396316528320e+00,7.562146759033203125e+01,3.135763168334960938e+01
5.280100107192993164e-01,1.000000000000000000e+00,-3.813042831420898438e+01,4.121598815917968750e+01,3.222395324707031250e+01,1.029020385742187500e+02,9.779320526123046875e+01,-3.615112543106079102e+00,4.033146500587463379e-01,-6.666896057128906250e+01,-1.826857147216796875e+02,-2.342603921890258789e+00,7.562146759033203125e+01,3.135763168334960938e+01
5.314229726791381836e-01,1.000000000000000000e+00,-3.817197036743164062e+01,4.113569641113281250e+01,3.224521636962890625e+01,1.028284530639648438e+02,9.781207275390625000e+01,-3.640136957168579102e+00,4.033146500587463379e-01,-6.666886138916015625e+01,-1.826857147216796875e+02,-2.342532396316528320e+00,7.562139129638671875e+01,3.135763168334960938e+01
5.362970232963562012e-01,1.000000000000000000e+00,-3.825496292114257812e+01,4.097459030151367188e+01,3.228771209716796875e+01,1.026812286376953125e+02,9.784795379638671875e+01,-3.690660238265991211e+00,4.033146500587463379e-01,-6.666896057128906250e+01,-1.826857147216796875e+02,-2.342532396316528320e+00,7.562146759033203125e+01,3.135740852355957031e+01
5.400099754333496094e-01,1.000000000000000000e+00,-3.825496292114257812e+01,4.097459030151367188e+01,3.228771209716796875e+01,1.026812286376953125e+02,9.784795379638671875e+01,-3.690660238265991211e+00,4.033146500587463379e-01,-6.666896057128906250e+01,-1.826857147216796875e+02,-2.342532396316528320e+00,7.562146759033203125e+01,3.135740852355957031e+01
5.429559946060180664e-01,1.000000000000000000e+00,-3.829641342163085938e+01,4.089364624023437500e+01,3.230893707275390625e+01,1.026073226928710938e+02,9.786592102050781250e+01,-3.716227531433105469e+00,4.033146500587463379e-01,-6.666896057128906250e+01,-1.826857147216796875e+02,-2.342532396316528320e+00,7.562160491943359375e+01,3.135740852355957031e+01
5.480009913444519043e-01,1.000000000000000000e+00,-3.833789443969726562e+01,4.081299209594726562e+01,3.233003997802734375e+01,1.025337448120117188e+02,9.788416290283203125e+01,-3.741455078125000000e+00,4.033146500587463379e-01,-6.666904449462890625e+01,-1.826857147216796875e+02,-2.342460393905639648e+00,7.562146759033203125e+01,3.135740852355957031e+01
5.519869923591613770e-01,1.000000000000000000e+00,-3.837949371337890625e+01,4.073252105712890625e+01,3.235130691528320312e+01,1.024589462280273438e+02,9.790244293212890625e+01,-3.765733480453491211e+00,4.033146500587463379e-01,-6.666896057128906250e+01,-1.826857147216796875e+02,-2.342603921890258789e+00,7.562146759033203125e+01,3.135763168334960938e+01
5.556179881095886230e-01,1.000000000000000000e+00,-3.842088699340820312e+01,4.065259170532226562e+01,3.237247467041015625e+01,1.023856201171875000e+02,9.792158508300781250e+01,-3.790487051010131836e+00,4.033146500587463379e-01,-6.666896057128906250e+01,-1.826857147216796875e+02,-2.342460393905639648e+00,7.562160491943359375e+01,3.135740852355957031e+01
5.599989891052246094e-01,1.000000000000000000e+00,-3.846228027343750000e+01,4.057232666015625000e+01,3.239349746704101562e+01,1.023115081787109375e+02,9.794082641601562500e+01,-3.815375804901123047e+00,4.033146500587463379e-01,-6.666896057128906250e+01,-1.826855621337890625e+02,-2.342603921890258789e+00,7.562146759033203125e+01,3.135740852355957031e+01
5.639960169792175293e-01,1.000000000000000000e+00,-3.850358963012695312e+01,4.049205780029296875e+01,3.241458129882812500e+01,1.022380294799804688e+02,9.795965576171875000e+01,-3.840196609497070312e+00,4.033146500587463379e-01,-6.666896057128906250e+01,-1.826857147216796875e+02,-2.342532396316528320e+00,7.562146759033203125e+01,3.135740852355957031e+01
5.670729875564575195e-01,1.000000000000000000e+00,-3.854515838623046875e+01,4.041144561767578125e+01,3.243582916259765625e+01,1.021635971069335938e+02,9.797772979736328125e+01,-3.865628004074096680e+00,4.033146500587463379e-01,-6.666896057128906250e+01,-1.826857147216796875e+02,-2.342532396316528320e+00,7.562146759033203125e+01,3.135763168334960938e+01
5.719069838523864746e-01,1.000000000000000000e+00,-3.858658218383789062e+01,4.033054733276367188e+01,3.245723724365234375e+01,1.020899124145507812e+02,9.799574279785156250e+01,-3.891805171966552734e+00,4.033146500587463379e-01,-6.666896057128906250e+01,-1.826857147216796875e+02,-2.342532396316528320e+00,7.562146759033203125e+01,3.135740852355957031e+01
5.759930014610290527e-01,1.000000000000000000e+00,-3.862800598144531250e+01,4.024941635131835938e+01,3.247860336303710938e+01,1.020154800415039062e+02,9.801419067382812500e+01,-3.917236566543579102e+00,4.033146500587463379e-01,-6.666896057128906250e+01,-1.826857147216796875e+02,-2.342532396316528320e+00,7.562146759033203125e+01,3.135740852355957031e+01
5.798720121383666992e-01,1.000000000000000000e+00,-3.866945648193359375e+01,4.016799545288085938e+01,3.249983215332031250e+01,1.019418487548828125e+02,9.803237152099609375e+01,-3.941718339920043945e+00,4.033146500587463379e-01,-6.666904449462890625e+01,-1.826857147216796875e+02,-2.342532396316528320e+00,7.562146759033203125e+01,3.135763168334960938e+01
5.839930176734924316e-01,1.000000000000000000e+00,-3.871102523803710938e+01,4.008679580688476562e+01,3.252091598510742188e+01,1.018674163818359375e+02,9.805114746093750000e+01,-3.966064691543579102e+00,4.033146500587463379e-01,-6.666896057128906250e+01,-1.826857147216796875e+02,-2.342532396316528320e+00,7.562146759033203125e+01,3.135740852355957031e+01
5.880180001258850098e-01,1.000000000000000000e+00,-3.875265121459960938e+01,4.000578308105468750e+01,3.254218292236328125e+01,1.017938308715820312e+02,9.807054901123046875e+01,-3.990749835968017578e+00,4.033146500587463379e-01,-6.666896057128906250e+01,-1.826857147216796875e+02,-2.342532396316528320e+00,7.562146759033203125e+01,3.135740852355957031e+01
5.911899805068969727e-01,1.000000000000000000e+00,-3.879407501220703125e+01,3.992526626586914062e+01,3.256355285644531250e+01,1.017191848754882812e+02,9.808995819091796875e+01,-4.015774250030517578e+00,4.033146500587463379e-01,-6.666896057128906250e+01,-1.826857147216796875e+02,-2.342460393905639648e+00,7.562146759033203125e+01,3.135763168334960938e+01
5.959110260009765625e-01,1.000000000000000000e+00,-3.883578491210937500e+01,3.984506607055664062e+01,3.258477783203125000e+01,1.016451263427734375e+02,9.810898590087890625e+01,-4.041341304779052734e+00,4.033146500587463379e-01,-6.666896057128906250e+01,-1.826857147216796875e+02,-2.342460393905639648e+00,7.562146759033203125e+01,3.135740852355957031e+01
6.000689864158630371e-01,1.000000000000000000e+00,-3.887772750854492188e+01,3.976448059082031250e+01,3.260612869262695312e+01,1.015701217651367188e+02,9.812696075439453125e+01,-4.067179679870605469e+00,4.033146500587463379e-01,-6.666896057128906250e+01,-1.826857147216796875e+02,-2.342603921890258789e+00,7.562146759033203125e+01,3.135763168334960938e+01
6.041190028190612793e-01,1.000000000000000000e+00,-3.891955184936523438e+01,3.968346405029296875e+01,3.262743377685546875e+01,1.014960556030273438e+02,9.814503479003906250e+01,-4.093152999877929688e+00,4.033146500587463379e-01,-6.666896057128906250e+01,-1.826858215332031250e+02,-2.342460393905639648e+00,7.562160491943359375e+01,3.135740852355957031e+01
6.073009967803955078e-01,1.000000000000000000e+00,-3.896143341064453125e+01,3.960215759277343750e+01,3.264876174926757812e+01,1.014215316772460938e+02,9.816332244873046875e+01,-4.118313312530517578e+00,4.033146500587463379e-01,-6.666886138916015625e+01,-1.826857147216796875e+02,-2.342532396316528320e+00,7.562146759033203125e+01,3.135763168334960938e+01
6.114379763603210449e-01,1.000000000000000000e+00,-3.900329208374023438e+01,3.952080535888671875e+01,3.267025375366210938e+01,1.013474655151367188e+02,9.818166351318359375e+01,-4.142998695373535156e+00,4.033146500587463379e-01,-6.666896057128906250e+01,-1.826858215332031250e+02,-2.342460393905639648e+00,7.562146759033203125e+01,3.135740852355957031e+01
6.153759956359863281e-01,1.000000000000000000e+00,-3.904549026489257812e+01,3.943920135498046875e+01,3.269172286987304688e+01,1.012726135253906250e+02,9.820059204101562500e+01,-4.168023109436035156e+00,4.033146500587463379e-01,-6.666896057128906250e+01,-1.826857147216796875e+02,-2.342603921890258789e+00,7.562139129638671875e+01,3.135763168334960938e+01
6.206570267677307129e-01,1.000000000000000000e+00,-3.908768844604492188e+01,3.935766601562500000e+01,3.271297073364257812e+01,1.011983413696289062e+02,9.821999359130859375e+01,-4.193047523498535156e+00,4.033146500587463379e-01,-6.666896057128906250e+01,-1.826857147216796875e+02,-2.342532396316528320e+00,7.562146759033203125e+01,3.135763168334960938e+01
6.240109801292419434e-01,1.000000000000000000e+00,-3.912965774536132812e+01,3.927648925781250000e+01,3.273437881469726562e+01,1.011238174438476562e+02,9.823956298828125000e+01,-4.218682289123535156e+00,4.033146500587463379e-01,-6.666896057128906250e+01,-1.826857147216796875e+02,-2.342532396316528320e+00,7.562146759033203125e+01,3.135763168334960938e+01
6.281679868698120117e-01,1.000000000000000000e+00,-3.917211532592773438e+01,3.919556427001953125e+01,3.275578689575195312e+01,1.010491256713867188e+02,9.825816345214843750e+01,-4.244452476501464844e+00,4.033146500587463379e-01,-6.666896057128906250e+01,-1.826857147216796875e+02,-2.342532396316528320e+00,7.562160491943359375e+01,3.135763168334960938e+01
6.316949725151062012e-01,1.000000000000000000e+00,-3.921448516845703125e+01,3.911448287963867188e+01,3.277736282348632812e+01,1.009746932983398438e+02,9.827629089355468750e+01,-4.270223140716552734e+00,4.033146500587463379e-01,-6.666896057128906250e+01,-1.826855621337890625e+02,-2.342460393905639648e+00,7.562146759033203125e+01,3.135740852355957031e+01
6.361470222473144531e-01,1.000000000000000000e+00,-3.925697326660156250e+01,3.903335189819335938e+01,3.279893493652343750e+01,1.008996887207031250e+02,9.829431915283203125e+01,-4.295654773712158203e+00,4.031498432159423828e-01,-6.666896057128906250e+01,-1.826857147216796875e+02,-2.342532396316528320e+00,7.562146759033203125e+01,3.135763168334960938e+01
6.395339965820312500e-01,1.000000000000000000e+00,-3.929943084716796875e+01,3.895204162597656250e+01,3.282017898559570312e+01,1.008251037597656250e+02,9.831292724609375000e+01,-4.320746421813964844e+00,4.033146500587463379e-01,-6.666896057128906250e+01,-1.826857147216796875e+02,-2.342532396316528320e+00,7.562146759033203125e+01,3.135740852355957031e+01
6.447479724884033203e-01,1.000000000000000000e+00,-3.934197235107421875e+01,3.887046432495117188e+01,3.284152603149414062e+01,1.007500915527343750e+02,9.833169555664062500e+01,-4.345906734466552734e+00,4.033146500587463379e-01,-6.666896057128906250e+01,-1.826857147216796875e+02,-2.342532396316528320e+00,7.562146759033203125e+01,3.135763168334960938e+01
6.479939818382263184e-01,1.000000000000000000e+00,-3.938446044921875000e+01,3.878867721557617188e+01,3.286289978027343750e+01,1.006753540039062500e+02,9.835099792480468750e+01,-4.371473312377929688e+00,4.033146500587463379e-01,-6.666896057128906250e+01,-1.826857147216796875e+02,-2.342603921890258789e+00,7.562139129638671875e+01,3.135740852355957031e+01
6.523979902267456055e-01,1.000000000000000000e+00,-3.942691421508789062e+01,3.870642089843750000e+01,3.288446807861328125e+01,1.005999755859375000e+02,9.837066650390625000e+01,-4.396769046783447266e+00,4.033146500587463379e-01,-6.666896057128906250e+01,-1.826857147216796875e+02,-2.342603921890258789e+00,7.562146759033203125e+01,3.135740852355957031e+01
6.557000279426574707e-01,1.000000000000000000e+00,-3.946945953369140625e+01,3.862431716918945312e+01,3.290624237060546875e+01,1.005250625610351562e+02,9.839006805419921875e+01,-4.422336101531982422e+00,4.033146500587463379e-01,-6.666896057128906250e+01,-1.826857147216796875e+02,-2.342532396316528320e+00,7.562146759033203125e+01,3.135740852355957031e+01
6.601570248603820801e-01,1.000000000000000000e+00,-3.951206207275390625e+01,3.854241943359375000e+01,3.292767333984375000e+01,1.004501113891601562e+02,9.840872955322265625e+01,-4.448920726776123047e+00,4.033146500587463379e-01,-6.666896057128906250e+01,-1.826858215332031250e+02,-2.342532396316528320e+00,7.562146759033203125e+01,3.135763168334960938e+01
6.637229919433593750e-01,1.000000000000000000e+00,-3.955454635620117188e+01,3.846092987060546875e+01,3.294918441772460938e+01,1.003755264282226562e+02,9.842697143554687500e+01,-4.474758625030517578e+00,4.033146500587463379e-01,-6.666896057128906250e+01,-1.826857147216796875e+02,-2.342532396316528320e+00,7.562139129638671875e+01,3.135740852355957031e+01
6.687510013580322266e-01,1.000000000000000000e+00,-3.959700393676757812e+01,3.837957382202148438e+01,3.297063446044921875e+01,1.003001022338867188e+02,9.844525146484375000e+01,-4.499783039093017578e+00,4.033146500587463379e-01,-6.666896057128906250e+01,-1.826857147216796875e+02,-2.342532396316528320e+00,7.562146759033203125e+01,3.135763168334960938e+01
6.720640063285827637e-01,1.000000000000000000e+00,-3.963951873779296875e+01,3.829806137084960938e+01,3.299218750000000000e+01,1.002253494262695312e+02,9.846396636962890625e+01,-4.524875164031982422e+00,4.033146500587463379e-01,-6.666896057128906250e+01,-1.826858215332031250e+02,-2.342532396316528320e+00,7.562139129638671875e+01,3.135763168334960938e+01
6.765969991683959961e-01,1.000000000000000000e+00,-3.968217849731445312e+01,3.821632385253906250e+01,3.301388168334960938e+01,1.001498718261718750e+02,9.848289489746093750e+01,-4.550238609313964844e+00,4.033146500587463379e-01,-6.666896057128906250e+01,-1.826857147216796875e+02,-2.342532396316528320e+00,7.562146759033203125e+01,3.135740852355957031e+01
6.800529956817626953e-01,1.000000000000000000e+00,-3.972469329833984375e+01,3.813413238525390625e+01,3.303541183471679688e+01,1.000750274658203125e+02,9.850241088867187500e+01,-4.575873851776123047e+00,4.033146500587463379e-01,-6.666896057128906250e+01,-1.826857147216796875e+02,-2.342460393905639648e+00,7.562160491943359375e+01,3.135763168334960938e+01
6.840749979019165039e-01,1.000000000000000000e+00,-3.976746368408203125e+01,3.805189132690429688e+01,3.305675888061523438e+01,9.999943542480468750e+01,9.852223968505859375e+01,-4.601711750030517578e+00,4.033146500587463379e-01,-6.666896057128906250e+01,-1.826857147216796875e+02,-2.342532396316528320e+00,7.562146759033203125e+01,3.135740852355957031e+01
6.878889799118041992e-01,1.000000000000000000e+00,-3.980989456176757812e+01,3.796943283081054688e+01,3.307823181152343750e+01,9.992411041259765625e+01,9.854170227050781250e+01,-4.628228187561035156e+00,4.033146500587463379e-01,-6.666904449462890625e+01,-1.826857147216796875e+02,-2.342532396316528320e+00,7.562146759033203125e+01,3.135740852355957031e+01
6.929370164871215820e-01,1.000000000000000000e+00,-3.985232543945312500e+01,3.788674163818359375e+01,3.309998321533203125e+01,9.984805297851562500e+01,9.855993652343750000e+01,-4.654134273529052734e+00,4.033146500587463379e-01,-6.666896057128906250e+01,-1.826857147216796875e+02,-2.342532396316528320e+00,7.562146759033203125e+01,3.135763168334960938e+01
6.961709856986999512e-01,1.000000000000000000e+00,-3.989480590820312500e+01,3.780461502075195312e+01,3.312180328369140625e+01,9.977320098876953125e+01,9.857865142822265625e+01,-4.679226398468017578e+00,4.033146500587463379e-01,-6.666896057128906250e+01,-1.826857147216796875e+02,-2.342460393905639648e+00,7.562146759033203125e+01,3.135740852355957031e+01
7.007629871368408203e-01,1.000000000000000000e+00,-3.993743896484375000e+01,3.772262954711914062e+01,3.314355850219726562e+01,9.969760894775390625e+01,9.859720611572265625e+01,-4.704115390777587891e+00,4.033146500587463379e-01,-6.666896057128906250e+01,-1.826857147216796875e+02,-2.342460393905639648e+00,7.562146759033203125e+01,3.135740852355957031e+01
7.040669918060302734e-01,1.000000000000000000e+00,-3.997995376586914062e+01,3.764077758789062500e+01,3.316506958007812500e+01,9.962197113037109375e+01,9.861629486083984375e+01,-4.729410648345947266e+00,4.033146500587463379e-01,-6.666896057128906250e+01,-1.826857147216796875e+02,-2.342532396316528320e+00,7.562146759033203125e+01,3.135763168334960938e+01
7.081149816513061523e-01,1.000000000000000000e+00,-4.002249908447265625e+01,3.755881118774414062e+01,3.318633651733398438e+01,9.954617309570312500e+01,9.863565063476562500e+01,-4.755249023437500000e+00,4.033146500587463379e-01,-6.666896057128906250e+01,-1.826857147216796875e+02,-2.342532396316528320e+00,7.562146759033203125e+01,3.135763168334960938e+01
7.121739983558654785e-01,1.000000000000000000e+00,-4.006492614746093750e+01,3.747666549682617188e+01,3.320784759521484375e+01,9.947111511230468750e+01,9.865521240234375000e+01,-4.780883789062500000e+00,4.033146500587463379e-01,-6.666896057128906250e+01,-1.826858215332031250e+02,-2.342532396316528320e+00,7.562139129638671875e+01,3.135763168334960938e+01
7.168250083923339844e-01,1.000000000000000000e+00,-4.010752868652343750e+01,3.739415740966796875e+01,3.322972488403320312e+01,9.939536285400390625e+01,9.867515563964843750e+01,-4.807061195373535156e+00,4.033146500587463379e-01,-6.666886138916015625e+01,-1.826857147216796875e+02,-2.342532396316528320e+00,7.562146759033203125e+01,3.135740852355957031e+01
7.202180027961730957e-01,1.000000000000000000e+00,-4.015010070800781250e+01,3.731146621704101562e+01,3.325149917602539062e+01,9.931946563720703125e+01,9.869423675537109375e+01,-4.833374023437500000e+00,4.033146500587463379e-01,-6.666896057128906250e+01,-1.826857147216796875e+02,-2.342532396316528320e+00,7.562139129638671875e+01,3.135763168334960938e+01
7.229380011558532715e-01,1.000000000000000000e+00,-4.019272613525390625e+01,3.722837066650390625e+01,3.327333450317382812e+01,9.924403381347656250e+01,9.871263122558593750e+01,-4.858737468719482422e+00,4.033146500587463379e-01,-6.666896057128906250e+01,-1.826857147216796875e+02,-2.342532396316528320e+00,7.562160491943359375e+01,3.135740852355957031e+01
7.283800244331359863e-01,1.000000000000000000e+00,-4.023541641235351562e+01,3.714540863037109375e+01,3.329507064819335938e+01,9.916807556152343750e+01,9.873102569580078125e+01,-4.883694171905517578e+00,4.033146500587463379e-01,-6.666896057128906250e+01,-1.826857147216796875e+02,-2.342460393905639648e+00,7.562146759033203125e+01,3.135763168334960938e+01
7.309550046920776367e-01,1.000000000000000000e+00,-4.027807235717773438e+01,3.706251144409179688e+01,3.331676483154296875e+01,9.909228515625000000e+01,9.874979400634765625e+01,-4.909193515777587891e+00,4.033146500587463379e-01,-6.666896057128906250e+01,-1.826857147216796875e+02,-2.342603921890258789e+00,7.562146759033203125e+01,3.135763168334960938e+01
7.349439859390258789e-01,1.000000000000000000e+00,-4.032058715820312500e+01,3.698009490966796875e+01,3.333856201171875000e+01,9.901590728759765625e+01,9.876866912841796875e+01,-4.934827804565429688e+00,4.033146500587463379e-01,-6.666896057128906250e+01,-1.826857147216796875e+02,-2.342460393905639648e+00,7.562146759033203125e+01,3.135740852355957031e+01
7.389889955520629883e-01,1.000000000000000000e+00,-4.036344909667968750e+01,3.689812850952148438e+01,3.336025238037109375e+01,9.894031524658203125e+01,9.878839874267578125e+01,-4.960733890533447266e+00,4.033146500587463379e-01,-6.666896057128906250e+01,-1.826857147216796875e+02,-2.342460393905639648e+00,7.562139129638671875e+01,3.135740852355957031e+01
7.444369792938232422e-01,1.000000000000000000e+00,-4.040630722045898438e+01,3.681578063964843750e+01,3.338192749023437500e+01,9.886404418945312500e+01,9.880844879150390625e+01,-4.987114906311035156e+00,4.033146500587463379e-01,-6.666896057128906250e+01,-1.826857147216796875e+02,-2.342460393905639648e+00,7.562146759033203125e+01,3.135763168334960938e+01
7.469879984855651855e-01,1.000000000000000000e+00,-4.044925308227539062e+01,3.673315811157226562e+01,3.340359878540039062e+01,9.878840637207031250e+01,9.882817077636718750e+01,-5.013563156127929688e+00,4.033146500587463379e-01,-6.666896057128906250e+01,-1.826858215332031250e+02,-2.342532396316528320e+00,7.562139129638671875e+01,3.135763168334960938e+01
7.524690032005310059e-01,1.000000000000000000e+00,-4.049196624755859375e+01,3.665021896362304688e+01,3.342535400390625000e+01,9.871192169189453125e+01,9.884677886962890625e+01,-5.039401531219482422e+00,4.033146500587463379e-01,-6.666896057128906250e+01,-1.826857147216796875e+02,-2.342532396316528320e+00,7.562139129638671875e+01,3.135763168334960938e+01
7.550250291824340820e-01,1.000000000000000000e+00,-4.053488540649414062e+01,3.656714630126953125e+01,3.344735336303710938e+01,9.863628387451171875e+01,9.886533355712890625e+01,-5.063883304595947266e+00,4.033146500587463379e-01,-6.666896057128906250e+01,-1.826857147216796875e+02,-2.342460393905639648e+00,7.562146759033203125e+01,3.135763168334960938e+01
7.589439749717712402e-01,1.000000000000000000e+00,-4.057800292968750000e+01,3.648373031616210938e+01,3.346945571899414062e+01,9.855985260009765625e+01,9.888420867919921875e+01,-5.089247226715087891e+00,4.033146500587463379e-01,-6.666896057128906250e+01,-1.826857147216796875e+02,-2.342532396316528320e+00,7.562146759033203125e+01,3.135763168334960938e+01
7.629299759864807129e-01,1.000000000000000000e+00,-4.062117767333984375e+01,3.640027236938476562e+01,3.349129486083984375e+01,9.848400115966796875e+01,9.890324401855468750e+01,-5.115085124969482422e+00,4.033146500587463379e-01,-6.666896057128906250e+01,-1.826857147216796875e+02,-2.342532396316528320e+00,7.562146759033203125e+01,3.135763168334960938e+01
7.687389850616455078e-01,1.000000000000000000e+00,-4.066418075561523438e+01,3.631710815429687500e+01,3.351306915283203125e+01,9.840767669677734375e+01,9.892243957519531250e+01,-5.141262531280517578e+00,4.033146500587463379e-01,-6.666896057128906250e+01,-1.826857147216796875e+02,-2.342532396316528320e+00,7.562146759033203125e+01,3.135740852355957031e+01
7.734419703483581543e-01,1.000000000000000000e+00,-4.070729827880859375e+01,3.623441696166992188e+01,3.353469848632812500e+01,9.833171844482421875e+01,9.894237518310546875e+01,-5.167168617248535156e+00,4.033146500587463379e-01,-6.666896057128906250e+01,-1.826857147216796875e+02,-2.342603921890258789e+00,7.562146759033203125e+01,3.135763168334960938e+01
7.769680023193359375e-01,1.000000000000000000e+00,-4.075053024291992188e+01,3.615156936645507812e+01,3.355661773681640625e+01,9.825534820556640625e+01,9.896258544921875000e+01,-5.193820476531982422e+00,4.033146500587463379e-01,-6.666896057128906250e+01,-1.826857147216796875e+02,-2.342532396316528320e+00,7.562139129638671875e+01,3.135763168334960938e+01
7.806469798088073730e-01,1.000000000000000000e+00,-4.079367828369140625e+01,3.606885528564453125e+01,3.357867813110351562e+01,9.817875671386718750e+01,9.898204040527343750e+01,-5.220269203186035156e+00,4.033146500587463379e-01,-6.666896057128906250e+01,-1.826857147216796875e+02,-2.342532396316528320e+00,7.562146759033203125e+01,3.135740852355957031e+01
7.847340106964111328e-01,1.000000000000000000e+00,-4.083673858642578125e+01,3.598589324951171875e+01,3.360057830810546875e+01,9.810216522216796875e+01,9.900049591064453125e+01,-5.245632648468017578e+00,4.033146500587463379e-01,-6.666896057128906250e+01,-1.826857147216796875e+02,-2.342460393905639648e+00,7.562146759033203125e+01,3.135740852355957031e+01
7.887150049209594727e-01,1.000000000000000000e+00,-4.088008117675781250e+01,3.590245819091796875e+01,3.362259292602539062e+01,9.802578735351562500e+01,9.901914978027343750e+01,-5.270792484283447266e+00,4.033146500587463379e-01,-6.666896057128906250e+01,-1.826857147216796875e+02,-2.342532396316528320e+00,7.562146759033203125e+01,3.135740852355957031e+01
7.929750084877014160e-01,1.000000000000000000e+00,-4.092340469360351562e+01,3.581877136230468750e+01,3.364441299438476562e+01,9.794925689697265625e+01,9.903802490234375000e+01,-5.296834468841552734e+00,4.033146500587463379e-01,-6.666896057128906250e+01,-1.826857147216796875e+02,-2.342460393905639648e+00,7.562146759033203125e+01,3.135763168334960938e+01
7.976710200309753418e-01,1.000000000000000000e+00,-4.096669387817382812e+01,3.573474884033203125e+01,3.366630554199218750e+01,9.787287902832031250e+01,9.905706024169921875e+01,-5.322944164276123047e+00,4.033146500587463379e-01,-6.666904449462890625e+01,-1.826858215332031250e+02,-2.342532396316528320e+00,7.562139129638671875e+01,3.135763168334960938e+01
8.007529973983764648e-01,1.000000000000000000e+00,-4.100960922241210938e+01,3.565101623535156250e+01,3.368838882446289062e+01,9.779644775390625000e+01,9.907678222656250000e+01,-5.349460124969482422e+00,4.033146500587463379e-01,-6.666896057128906250e+01,-1.826857147216796875e+02,-2.342532396316528320e+00,7.562139129638671875e+01,3.135763168334960938e+01
8.049979805946350098e-01,1.000000000000000000e+00,-4.105301284790039062e+01,3.556740188598632812e+01,3.371036911010742188e+01,9.771991729736328125e+01,9.909688568115234375e+01,-5.375976562500000000e+00,4.033146500587463379e-01,-6.666896057128906250e+01,-1.826857147216796875e+02,-2.342603921890258789e+00,7.562160491943359375e+01,3.135740852355957031e+01
8.088200092315673828e-01,1.000000000000000000e+00,-4.109616088867187500e+01,3.548407745361328125e+01,3.373218536376953125e+01,9.764311218261718750e+01,9.911655426025390625e+01,-5.402153968811035156e+00,4.033146500587463379e-01,-6.666896057128906250e+01,-1.826857147216796875e+02,-2.342460393905639648e+00,7.562146759033203125e+01,3.135763168334960938e+01
8.137030005455017090e-01,1.000000000000000000e+00,-4.113959121704101562e+01,3.540104675292968750e+01,3.375408172607421875e+01,9.756626129150390625e+01,9.913565063476562500e+01,-5.427721023559570312e+00,4.033146500587463379e-01,-6.666896057128906250e+01,-1.826857147216796875e+02,-2.342532396316528320e+00,7.562146759033203125e+01,3.135763168334960938e+01
8.171799778938293457e-01,1.000000000000000000e+00,-4.118285369873046875e+01,3.531776809692382812e+01,3.377595901489257812e+01,9.748988342285156250e+01,9.915441131591796875e+01,-5.453288078308105469e+00,4.033146500587463379e-01,-6.666896057128906250e+01,-1.826857147216796875e+02,-2.342532396316528320e+00,7.562146759033203125e+01,3.135740852355957031e+01
8.189259767532348633e-01,1.000000000000000000e+00,-4.122611618041992188e+01,3.523410415649414062e+01,3.379809951782226562e+01,9.741281890869140625e+01,9.917312622070312500e+01,-5.479533195495605469e+00,4.033146500587463379e-01,-6.666896057128906250e+01,-1.826857147216796875e+02,-2.342532396316528320e+00,7.562146759033203125e+01,3.135763168334960938e+01
8.252189755439758301e-01,1.000000000000000000e+00,-4.126920700073242188e+01,3.515019607543945312e+01,3.382022094726562500e+01,9.733586883544921875e+01,9.919232177734375000e+01,-5.505846023559570312e+00,4.033146500587463379e-01,-6.666904449462890625e+01,-1.826857147216796875e+02,-2.342603921890258789e+00,7.562146759033203125e+01,3.135740852355957031e+01
8.269450068473815918e-01,1.000000000000000000e+00,-4.131229400634765625e+01,3.506603622436523438e+01,3.384213638305664062e+01,9.725869750976562500e+01,9.921161651611328125e+01,-5.532362461090087891e+00,4.033146500587463379e-01,-6.666904449462890625e+01,-1.826857147216796875e+02,-2.342532396316528320e+00,7.562146759033203125e+01,3.135763168334960938e+01
8.310480117797851562e-01,1.000000000000000000e+00,-4.135552597045898438e+01,3.498173522949218750e+01,3.386399459838867188e+01,9.718184661865234375e+01,9.923183441162109375e+01,-5.559149742126464844e+00,4.033146500587463379e-01,-6.666896057128906250e+01,-1.826857147216796875e+02,-2.342532396316528320e+00,7.562146759033203125e+01,3.135740852355957031e+01
8.349339962005615234e-01,1.000000000000000000e+00,-4.139881515502929688e+01,3.489732742309570312e+01,3.388613510131835938e+01,9.710452270507812500e+01,9.925198364257812500e+01,-5.585869789123535156e+00,4.033146500587463379e-01,-6.666896057128906250e+01,-1.826858215332031250e+02,-2.342532396316528320e+00,7.562146759033203125e+01,3.135763168334960938e+01
8.411809802055358887e-01,1.000000000000000000e+00,-4.144193267822265625e+01,3.481323623657226562e+01,3.390821456909179688e+01,9.702756500244140625e+01,9.927165985107421875e+01,-5.611572265625000000e+00,4.033146500587463379e-01,-6.666896057128906250e+01,-1.826857147216796875e+02,-2.342532396316528320e+00,7.562146759033203125e+01,3.135763168334960938e+01
8.429390192031860352e-01,1.000000000000000000e+00,-4.148496627807617188e+01,3.472970962524414062e+01,3.393023681640625000e+01,9.695092010498046875e+01,9.929052734375000000e+01,-5.637478351593017578e+00,4.033146500587463379e-01,-6.666896057128906250e+01,-1.826857147216796875e+02,-2.342603921890258789e+00,7.562146759033203125e+01,3.135740852355957031e+01
8.471660017967224121e-01,1.000000000000000000e+00,-4.152808380126953125e+01,3.464595413208007812e+01,3.395239639282226562e+01,9.687364959716796875e+01,9.930918884277343750e+01,-5.663180828094482422e+00,4.033146500587463379e-01,-6.666896057128906250e+01,-1.826858215332031250e+02,-2.342532396316528320e+00,7.562139129638671875e+01,3.135763168334960938e+01
8.509989976882934570e-01,1.000000000000000000e+00,-4.157134628295898438e+01,3.456224822998046875e+01,3.397443771362304688e+01,9.679669952392578125e+01,9.932801055908203125e+01,-5.689765453338623047e+00,4.033146500587463379e-01,-6.666896057128906250e+01,-1.826857147216796875e+02,-2.342532396316528320e+00,7.562146759033203125e+01,3.135740852355957031e+01
8.549990057945251465e-01,1.000000000000000000e+00,-4.161457824707031250e+01,3.447822189331054688e+01,3.399653625488281250e+01,9.671920776367187500e+01,9.934725952148437500e+01,-5.716485023498535156e+00,4.033146500587463379e-01,-6.666896057128906250e+01,-1.826857147216796875e+02,-2.342532396316528320e+00,7.562139129638671875e+01,3.135740852355957031e+01
8.619490265846252441e-01,1.000000000000000000e+00,-4.165786743164062500e+01,3.439387893676757812e+01,3.401878356933593750e+01,9.664236450195312500e+01,9.936693572998046875e+01,-5.743272781372070312e+00,4.033146500587463379e-01,-6.666896057128906250e+01,-1.826858215332031250e+02,-2.342532396316528320e+00,7.562160491943359375e+01,3.135763168334960938e+01
8.639320135116577148e-01,1.000000000000000000e+00,-4.170101165771484375e+01,3.430922317504882812e+01,3.404076004028320312e+01,9.656455993652343750e+01,9.938692474365234375e+01,-5.770195960998535156e+00,4.033146500587463379e-01,-6.666896057128906250e+01,-1.826857147216796875e+02,-2.342532396316528320e+00,7.562146759033203125e+01,3.135763168334960938e+01
8.669329881668090820e-01,1.000000000000000000e+00,-4.174436187744140625e+01,3.422436141967773438e+01,3.406298065185546875e+01,9.648733520507812500e+01,9.940723419189453125e+01,-5.795898437500000000e+00,4.033146500587463379e-01,-6.666896057128906250e+01,-1.826857147216796875e+02,-2.342532396316528320e+00,7.562146759033203125e+01,3.135763168334960938e+01
8.735499978065490723e-01,1.000000000000000000e+00,-4.174436187744140625e+01,3.422436141967773438e+01,3.406298065185546875e+01,9.648733520507812500e+01,9.940723419189453125e+01,-5.795898437500000000e+00,4.033146500587463379e-01,-6.666896057128906250e+01,-1.826857147216796875e+02,-2.342532396316528320e+00,7.562146759033203125e+01,3.135763168334960938e+01
8.759390115737915039e-01,1.000000000000000000e+00,-4.183128738403320312e+01,3.405524444580078125e+01,3.410755157470703125e+01,9.633210754394531250e+01,9.944519805908203125e+01,-5.847303867340087891e+00,4.033146500587463379e-01,-6.666896057128906250e+01,-1.826857147216796875e+02,-2.342532396316528320e+00,7.562146759033203125e+01,3.135763168334960938e+01
8.800060153007507324e-01,1.000000000000000000e+00,-4.187488937377929688e+01,3.397124481201171875e+01,3.412993240356445312e+01,9.625441741943359375e+01,9.946380615234375000e+01,-5.873820304870605469e+00,4.033146500587463379e-01,-6.666896057128906250e+01,-1.826857147216796875e+02,-2.342532396316528320e+00,7.562146759033203125e+01,3.135763168334960938e+01
8.829360008239746094e-01,1.000000000000000000e+00,-4.191852569580078125e+01,3.388744354248046875e+01,3.415207672119140625e+01,9.617677307128906250e+01,9.948342895507812500e+01,-5.900472164154052734e+00,4.033146500587463379e-01,-6.666896057128906250e+01,-1.826857147216796875e+02,-2.342532396316528320e+00,7.562146759033203125e+01,3.135763168334960938e+01
8.900669813156127930e-01,1.000000000000000000e+00,-4.191852569580078125e+01,3.388744354248046875e+01,3.415207672119140625e+01,9.617677307128906250e+01,9.948342895507812500e+01,-5.900472164154052734e+00,4.033146500587463379e-01,-6.666896057128906250e+01,-1.826857147216796875e+02,-2.342532396316528320e+00,7.562146759033203125e+01,3.135763168334960938e+01
8.914539813995361328e-01,1.000000000000000000e+00,-4.200622558593750000e+01,3.371876144409179688e+01,3.419627761840820312e+01,9.602143859863281250e+01,9.952304077148437500e+01,-5.954183101654052734e+00,4.033146500587463379e-01,-6.666896057128906250e+01,-1.826857147216796875e+02,-2.342603921890258789e+00,7.562146759033203125e+01,3.135740852355957031e+01
8.959929943084716797e-01,1.000000000000000000e+00,-4.205008697509765625e+01,3.363419342041015625e+01,3.421858215332031250e+01,9.594380187988281250e+01,9.954330444335937500e+01,-5.979953765869140625e+00,4.033146500587463379e-01,-6.666896057128906250e+01,-1.826857147216796875e+02,-2.342603921890258789e+00,7.562146759033203125e+01,3.135763168334960938e+01
8.990049958229064941e-01,1.000000000000000000e+00,-4.209403991699218750e+01,3.354919815063476562e+01,3.424104690551757812e+01,9.586573791503906250e+01,9.956313323974609375e+01,-6.005723953247070312e+00,4.033146500587463379e-01,-6.666896057128906250e+01,-1.826857147216796875e+02,-2.342532396316528320e+00,7.562146759033203125e+01,3.135763168334960938e+01
9.039919972419738770e-01,1.000000000000000000e+00,-4.209403991699218750e+01,3.354919815063476562e+01,3.424104690551757812e+01,9.586573791503906250e+01,9.956313323974609375e+01,-6.005723953247070312e+00,4.033146500587463379e-01,-6.666896057128906250e+01,-1.826857147216796875e+02,-2.342532396316528320e+00,7.562146759033203125e+01,3.135763168334960938e+01
9.069290161132812500e-01,1.000000000000000000e+00,-4.218214035034179688e+01,3.337906265258789062e+01,3.428563308715820312e+01,9.571024322509765625e+01,9.960093688964843750e+01,-6.058688640594482422e+00,4.033146500587463379e-01,-6.666896057128906250e+01,-1.826857147216796875e+02,-2.342532396316528320e+00,7.562146759033203125e+01,3.135740852355957031e+01
9.119790196418762207e-01,1.000000000000000000e+00,-4.218214035034179688e+01,3.337906265258789062e+01,3.428563308715820312e+01,9.571024322509765625e+01,9.960093688964843750e+01,-6.058688640594482422e+00,4.033146500587463379e-01,-6.666896057128906250e+01,-1.826857147216796875e+02,-2.342532396316528320e+00,7.562146759033203125e+01,3.135740852355957031e+01
9.149889945983886719e-01,1.000000000000000000e+00,-4.227055740356445312e+01,3.320972442626953125e+01,3.433034515380859375e+01,9.555358886718750000e+01,9.963937377929687500e+01,-6.112264156341552734e+00,4.033146500587463379e-01,-6.666896057128906250e+01,-1.826857147216796875e+02,-2.342460393905639648e+00,7.562146759033203125e+01,3.135763168334960938e+01
9.200360178947448730e-01,1.000000000000000000e+00,-4.227055740356445312e+01,3.320972442626953125e+01,3.433034515380859375e+01,9.555358886718750000e+01,9.963937377929687500e+01,-6.112264156341552734e+00,4.033146500587463379e-01,-6.666896057128906250e+01,-1.826857147216796875e+02,-2.342460393905639648e+00,7.562146759033203125e+01,3.135763168334960938e+01
9.230470061302185059e-01,1.000000000000000000e+00,-4.235911560058593750e+01,3.304045486450195312e+01,3.437497329711914062e+01,9.539772796630859375e+01,9.967968750000000000e+01,-6.165364742279052734e+00,4.033146500587463379e-01,-6.666904449462890625e+01,-1.826857147216796875e+02,-2.342532396316528320e+00,7.562146759033203125e+01,3.135763168334960938e+01
9.270070195198059082e-01,1.000000000000000000e+00,-4.235911560058593750e+01,3.304045486450195312e+01,3.437497329711914062e+01,9.539772796630859375e+01,9.967968750000000000e+01,-6.165364742279052734e+00,4.033146500587463379e-01,-6.666904449462890625e+01,-1.826857147216796875e+02,-2.342532396316528320e+00,7.562146759033203125e+01,3.135763168334960938e+01
9.320530295372009277e-01,1.000000000000000000e+00,-4.240349960327148438e+01,3.295536422729492188e+01,3.439713287353515625e+01,9.531993103027343750e+01,9.969979095458984375e+01,-6.191067218780517578e+00,4.033146500587463379e-01,-6.666896057128906250e+01,-1.826858215332031250e+02,-2.342532396316528320e+00,7.562146759033203125e+01,3.135740852355957031e+01
9.359170198440551758e-01,1.000000000000000000e+00,-4.249205780029296875e+01,3.278394317626953125e+01,3.444194793701171875e+01,9.516338348388671875e+01,9.973806762695312500e+01,-6.243625640869140625e+00,4.033146500587463379e-01,-6.666896057128906250e+01,-1.826857147216796875e+02,-2.342460393905639648e+00,7.562139129638671875e+01,3.135763168334960938e+01
9.389939904212951660e-01,1.000000000000000000e+00,-4.253649520874023438e+01,3.269821929931640625e+01,3.446455383300781250e+01,9.508526611328125000e+01,9.975730895996093750e+01,-6.270209312438964844e+00,4.033146500587463379e-01,-6.666896057128906250e+01,-1.826857147216796875e+02,-2.342532396316528320e+00,7.562146759033203125e+01,3.135740852355957031e+01
9.440469741821289062e-01,1.000000000000000000e+00,-4.253649520874023438e+01,3.269821929931640625e+01,3.446455383300781250e+01,9.508526611328125000e+01,9.975730895996093750e+01,-6.270209312438964844e+00,4.033146500587463379e-01,-6.666896057128906250e+01,-1.826857147216796875e+02,-2.342532396316528320e+00,7.562146759033203125e+01,3.135740852355957031e+01
9.469640254974365234e-01,1.000000000000000000e+00,-4.262522888183593750e+01,3.252702331542968750e+01,3.450926589965820312e+01,9.492887115478515625e+01,9.979660797119140625e+01,-6.325140953063964844e+00,4.033146500587463379e-01,-6.666896057128906250e+01,-1.826857147216796875e+02,-2.342603921890258789e+00,7.562146759033203125e+01,3.135740852355957031e+01
9.519860148429870605e-01,1.000000000000000000e+00,-4.262522888183593750e+01,3.252702331542968750e+01,3.450926589965820312e+01,9.492887115478515625e+01,9.979660797119140625e+01,-6.325140953063964844e+00,4.033146500587463379e-01,-6.666896057128906250e+01,-1.826857147216796875e+02,-2.342603921890258789e+00,7.562146759033203125e+01,3.135740852355957031e+01
9.549350142478942871e-01,1.000000000000000000e+00,-4.271370315551757812e+01,3.235702896118164062e+01,3.455391311645507812e+01,9.477232360839843750e+01,9.983744812011718750e+01,-6.377495765686035156e+00,4.033146500587463379e-01,-6.666896057128906250e+01,-1.826857147216796875e+02,-2.342532396316528320e+00,7.562146759033203125e+01,3.135763168334960938e+01
9.599879980087280273e-01,1.000000000000000000e+00,-4.271370315551757812e+01,3.235702896118164062e+01,3.455391311645507812e+01,9.477232360839843750e+01,9.983744812011718750e+01,-6.377495765686035156e+00,4.033146500587463379e-01,-6.666896057128906250e+01,-1.826857147216796875e+02,-2.342532396316528320e+00,7.562146759033203125e+01,3.135763168334960938e+01
9.629279971122741699e-01,1.000000000000000000e+00,-4.280234909057617188e+01,3.218592453002929688e+01,3.459901046752929688e+01,9.461457061767578125e+01,9.987657928466796875e+01,-6.430596351623535156e+00,4.033146500587463379e-01,-6.666896057128906250e+01,-1.826857147216796875e+02,-2.342532396316528320e+00,7.562139129638671875e+01,3.135763168334960938e+01
9.680029749870300293e-01,1.000000000000000000e+00,-4.280234909057617188e+01,3.218592453002929688e+01,3.459901046752929688e+01,9.461457061767578125e+01,9.987657928466796875e+01,-6.430596351623535156e+00,4.033146500587463379e-01,-6.666896057128906250e+01,-1.826857147216796875e+02,-2.342532396316528320e+00,7.562139129638671875e+01,3.135763168334960938e+01
9.709780216217041016e-01,1.000000000000000000e+00,-4.289062500000000000e+01,3.201391220092773438e+01,3.464392089843750000e+01,9.445744323730468750e+01,9.991486358642578125e+01,-6.485121250152587891e+00,4.033146500587463379e-01,-6.666896057128906250e+01,-1.826857147216796875e+02,-2.342460393905639648e+00,7.562146759033203125e+01,3.135740852355957031e+01
9.760180115699768066e-01,1.000000000000000000e+00,-4.289062500000000000e+01,3.201391220092773438e+01,3.464392089843750000e+01,9.445744323730468750e+01,9.991486358642578125e+01,-6.485121250152587891e+00,4.033146500587463379e-01,-6.666896057128906250e+01,-1.826857147216796875e+02,-2.342460393905639648e+00,7.562146759033203125e+01,3.135740852355957031e+01
9.789310097694396973e-01,1.000000000000000000e+00,-4.297944259643554688e+01,3.184169960021972656e+01,3.468926239013671875e+01,9.429999542236328125e+01,9.995452880859375000e+01,-6.538357257843017578e+00,4.033146500587463379e-01,-6.666904449462890625e+01,-1.826857147216796875e+02,-2.342532396316528320e+00,7.562146759033203125e+01,3.135763168334960938e+01
9.840300083160400391e-01,1.000000000000000000e+00,-4.297944259643554688e+01,3.184169960021972656e+01,3.468926239013671875e+01,9.429999542236328125e+01,9.995452880859375000e+01,-6.538357257843017578e+00,4.033146500587463379e-01,-6.666904449462890625e+01,-1.826857147216796875e+02,-2.342532396316528320e+00,7.562146759033203125e+01,3.135763168334960938e+01
9.879360198974609375e-01,1.000000000000000000e+00,-4.306803131103515625e+01,3.167070960998535156e+01,3.473419570922851562e+01,9.414239501953125000e+01,9.999542236328125000e+01,-6.591187000274658203e+00,4.033146500587463379e-01,-6.666896057128906250e+01,-1.826857147216796875e+02,-2.342603921890258789e+00,7.562160491943359375e+01,3.135763168334960938e+01
9.929760098457336426e-01,1.000000000000000000e+00,-4.306803131103515625e+01,3.167070960998535156e+01,3.473419570922851562e+01,9.414239501953125000e+01,9.999542236328125000e+01,-6.591187000274658203e+00,4.033146500587463379e-01,-6.666896057128906250e+01,-1.826857147216796875e+02,-2.342532396316528320e+00,7.562146759033203125e+01,3.135740852355957031e+01
9.954890012741088867e-01,1.000000000000000000e+00,-4.315659332275390625e+01,3.149976348876953125e+01,3.477941131591796875e+01,9.398464202880859375e+01,1.000338134765625000e+02,-6.645847320556640625e+00,4.033146500587463379e-01,-6.666896057128906250e+01,-1.826857147216796875e+02,-2.342532396316528320e+00,7.562146759033203125e+01,3.135763168334960938e+01
9.992640018463134766e-01,1.000000000000000000e+00,-4.315659332275390625e+01,3.149976348876953125e+01,3.477941131591796875e+01,9.398464202880859375e+01,1.000338134765625000e+02,-6.645847320556640625e+00,4.033146500587463379e-01,-6.666896057128906250e+01,-1.826857147216796875e+02,-2.342532396316528320e+00,7.562146759033203125e+01,3.135763168334960938e+01
1.002979993820190430e+00,1.000000000000000000e+00,-4.320083236694335938e+01,3.141372489929199219e+01,3.480214309692382812e+01,9.390609741210937500e+01,1.000532684326171875e+02,-6.673177242279052734e+00,4.033146500587463379e-01,-6.666896057128906250e+01,-1.826857147216796875e+02,-2.342532396316528320e+00,7.562139129638671875e+01,3.135763168334960938e+01
1.008049011230468750e+00,1.000000000000000000e+00,-4.324532699584960938e+01,3.132714080810546875e+01,3.482491683959960938e+01,9.382640838623046875e+01,1.000731048583984375e+02,-6.700711250305175781e+00,4.033146500587463379e-01,-6.666896057128906250e+01,-1.826857147216796875e+02,-2.342532396316528320e+00,7.562146759033203125e+01,3.135740852355957031e+01
1.012011051177978516e+00,1.000000000000000000e+00,-4.328979110717773438e+01,3.124046897888183594e+01,3.484746551513671875e+01,9.374750518798828125e+01,1.000932083129882812e+02,-6.727091789245605469e+00,4.033146500587463379e-01,-6.666896057128906250e+01,-1.826857147216796875e+02,-2.342532396316528320e+00,7.562139129638671875e+01,3.135763168334960938e+01
1.017050981521606445e+00,1.000000000000000000e+00,-4.333417510986328125e+01,3.115374946594238281e+01,3.487001037597656250e+01,9.366785430908203125e+01,1.001137313842773438e+02,-6.753404617309570312e+00,4.033146500587463379e-01,-6.666904449462890625e+01,-1.826857147216796875e+02,-2.342460393905639648e+00,7.562146759033203125e+01,3.135763168334960938e+01
1.019904971122741699e+00,1.000000000000000000e+00,-4.342353439331054688e+01,3.098174095153808594e+01,3.491555404663085938e+01,9.350988769531250000e+01,1.001543579101562500e+02,-6.807183265686035156e+00,4.033146500587463379e-01,-6.666896057128906250e+01,-1.826857147216796875e+02,-2.342460393905639648e+00,7.562146759033203125e+01,3.135740852355957031e+01
1.023983955383300781e+00,1.000000000000000000e+00,-4.342353439331054688e+01,3.098174095153808594e+01,3.491555404663085938e+01,9.350988769531250000e+01,1.001543579101562500e+02,-6.807183265686035156e+00,4.033146500587463379e-01,-6.666896057128906250e+01,-1.826857147216796875e+02,-2.342460393905639648e+00,7.562146759033203125e+01,3.135740852355957031e+01
1.028015971183776855e+00,1.000000000000000000e+00,-4.346837615966796875e+01,3.089606475830078125e+01,3.493830490112304688e+01,9.343077087402343750e+01,1.001736068725585938e+02,-6.834852695465087891e+00,4.033146500587463379e-01,-6.666896057128906250e+01,-1.826857147216796875e+02,-2.342532396316528320e+00,7.562146759033203125e+01,3.135740852355957031e+01
1.031671047210693359e+00,1.000000000000000000e+00,-4.351324844360351562e+01,3.081000328063964844e+01,3.496099472045898438e+01,9.335139465332031250e+01,1.001929092407226562e+02,-6.862521648406982422e+00,4.033146500587463379e-01,-6.666896057128906250e+01,-1.826857147216796875e+02,-2.342460393905639648e+00,7.562139129638671875e+01,3.135763168334960938e+01
1.035971999168395996e+00,1.000000000000000000e+00,-4.355820083618164062e+01,3.072348976135253906e+01,3.498356246948242188e+01,9.327211761474609375e+01,1.002124786376953125e+02,-6.889716625213623047e+00,4.033146500587463379e-01,-6.666896057128906250e+01,-1.826857147216796875e+02,-2.342603921890258789e+00,7.562146759033203125e+01,3.135763168334960938e+01
1.039986968040466309e+00,1.000000000000000000e+00,-4.360284042358398438e+01,3.063679313659667969e+01,3.500633621215820312e+01,9.319290161132812500e+01,1.002324676513671875e+02,-6.916029453277587891e+00,4.033146500587463379e-01,-6.666896057128906250e+01,-1.826857147216796875e+02,-2.342532396316528320e+00,7.562146759033203125e+01,3.135763168334960938e+01
1.042992949485778809e+00,1.000000000000000000e+00,-4.364779663085937500e+01,3.054959869384765625e+01,3.502920913696289062e+01,9.311283111572265625e+01,1.002531585693359375e+02,-6.942478179931640625e+00,4.033146500587463379e-01,-6.666896057128906250e+01,-1.826857147216796875e+02,-2.342532396316528320e+00,7.562146759033203125e+01,3.135763168334960938e+01
1.047559976577758789e+00,1.000000000000000000e+00,-4.369289016723632812e+01,3.046220397949218750e+01,3.505185699462890625e+01,9.303355407714843750e+01,1.002738342285156250e+02,-6.969061851501464844e+00,4.033146500587463379e-01,-6.666896057128906250e+01,-1.826857147216796875e+02,-2.342603921890258789e+00,7.562160491943359375e+01,3.135740852355957031e+01
1.051972985267639160e+00,1.000000000000000000e+00,-4.373801803588867188e+01,3.037514686584472656e+01,3.507467269897460938e+01,9.295322418212890625e+01,1.002941055297851562e+02,-6.996527671813964844e+00,4.033146500587463379e-01,-6.666896057128906250e+01,-1.826857147216796875e+02,-2.342532396316528320e+00,7.562146759033203125e+01,3.135740852355957031e+01
1.055714011192321777e+00,1.000000000000000000e+00,-4.378309249877929688e+01,3.028860664367675781e+01,3.509736251831054688e+01,9.287421417236328125e+01,1.003135604858398438e+02,-7.024197578430175781e+00,4.033146500587463379e-01,-6.666896057128906250e+01,-1.826857147216796875e+02,-2.342603921890258789e+00,7.562160491943359375e+01,3.135763168334960938e+01
1.059977054595947266e+00,1.000000000000000000e+00,-4.382801818847656250e+01,3.020200347900390625e+01,3.512023544311523438e+01,9.279441833496093750e+01,1.003329696655273438e+02,-7.052002429962158203e+00,4.033146500587463379e-01,-6.666896057128906250e+01,-1.826857147216796875e+02,-2.342460393905639648e+00,7.562146759033203125e+01,3.135740852355957031e+01
1.063984036445617676e+00,1.000000000000000000e+00,-4.387337112426757812e+01,3.011567115783691406e+01,3.514307022094726562e+01,9.271440124511718750e+01,1.003527450561523438e+02,-7.078722000122070312e+00,4.034245014190673828e-01,-6.666904449462890625e+01,-1.826857147216796875e+02,-2.342532396316528320e+00,7.562146759033203125e+01,3.135763168334960938e+01
1.068001985549926758e+00,1.000000000000000000e+00,-4.391847229003906250e+01,3.002908706665039062e+01,3.516586303710937500e+01,9.263439178466796875e+01,1.003726882934570312e+02,-7.105374336242675781e+00,4.033146500587463379e-01,-6.666896057128906250e+01,-1.826857147216796875e+02,-2.342532396316528320e+00,7.562146759033203125e+01,3.135740852355957031e+01
1.071990966796875000e+00,1.000000000000000000e+00,-4.396368408203125000e+01,2.994200897216796875e+01,3.518852996826171875e+01,9.255496215820312500e+01,1.003932723999023438e+02,-7.132093906402587891e+00,4.033146500587463379e-01,-6.666896057128906250e+01,-1.826858215332031250e+02,-2.342460393905639648e+00,7.562146759033203125e+01,3.135740852355957031e+01
1.075968980789184570e+00,1.000000000000000000e+00,-4.400889587402343750e+01,2.985443305969238281e+01,3.521130371093750000e+01,9.247510528564453125e+01,1.004144363403320312e+02,-7.159017086029052734e+00,4.033146500587463379e-01,-6.666896057128906250e+01,-1.826857147216796875e+02,-2.342747688293457031e+00,7.562146759033203125e+01,3.135740852355957031e+01
1.079983949661254883e+00,1.000000000000000000e+00,-4.405405426025390625e+01,2.976665115356445312e+01,3.523419189453125000e+01,9.239477539062500000e+01,1.004349060058593750e+02,-7.186551094055175781e+00,4.033146500587463379e-01,-6.666896057128906250e+01,-1.826857147216796875e+02,-2.342532396316528320e+00,7.562146759033203125e+01,3.135740852355957031e+01
1.083206057548522949e+00,1.000000000000000000e+00,-4.409906387329101562e+01,2.967893791198730469e+01,3.525711059570312500e+01,9.231523895263671875e+01,1.004547424316406250e+02,-7.214491367340087891e+00,4.033146500587463379e-01,-6.666896057128906250e+01,-1.826857147216796875e+02,-2.342532396316528320e+00,7.562146759033203125e+01,3.135763168334960938e+01
1.087164998054504395e+00,1.000000000000000000e+00,-4.414402008056640625e+01,2.959169960021972656e+01,3.528016281127929688e+01,9.223517608642578125e+01,1.004740982055664062e+02,-7.241957664489746094e+00,4.033146500587463379e-01,-6.666896057128906250e+01,-1.826858215332031250e+02,-2.342532396316528320e+00,7.562146759033203125e+01,3.135740852355957031e+01
1.091094970703125000e+00,1.000000000000000000e+00,-4.418920516967773438e+01,2.950500297546386719e+01,3.530311965942382812e+01,9.215468597412109375e+01,1.004937133789062500e+02,-7.269016265869140625e+00,4.033146500587463379e-01,-6.666896057128906250e+01,-1.826857147216796875e+02,-2.342460393905639648e+00,7.562146759033203125e+01,3.135740852355957031e+01
1.095932960510253906e+00,1.000000000000000000e+00,-4.423444747924804688e+01,2.941837692260742188e+01,3.532605361938476562e+01,9.207420349121093750e+01,1.005134429931640625e+02,-7.295464515686035156e+00,4.033146500587463379e-01,-6.666896057128906250e+01,-1.826857147216796875e+02,-2.342532396316528320e+00,7.562139129638671875e+01,3.135763168334960938e+01
1.099989056587219238e+00,1.000000000000000000e+00,-4.427943038940429688e+01,2.933163642883300781e+01,3.534904861450195312e+01,9.199408721923828125e+01,1.005339736938476562e+02,-7.322184085845947266e+00,4.033146500587463379e-01,-6.666896057128906250e+01,-1.826858215332031250e+02,-2.342460393905639648e+00,7.562139129638671875e+01,3.135763168334960938e+01
1.104040980339050293e+00,1.000000000000000000e+00,-4.432441329956054688e+01,2.924428558349609375e+01,3.537184143066406250e+01,9.191423034667968750e+01,1.005549774169921875e+02,-7.349446773529052734e+00,4.033146500587463379e-01,-6.666896057128906250e+01,-1.826857147216796875e+02,-2.342460393905639648e+00,7.562146759033203125e+01,3.135763168334960938e+01
1.107290029525756836e+00,1.000000000000000000e+00,-4.436948394775390625e+01,2.915679740905761719e+01,3.539479446411132812e+01,9.183385467529296875e+01,1.005759277343750000e+02,-7.376709461212158203e+00,4.033146500587463379e-01,-6.666896057128906250e+01,-1.826857147216796875e+02,-2.342460393905639648e+00,7.562139129638671875e+01,3.135763168334960938e+01
1.111369013786315918e+00,1.000000000000000000e+00,-4.441458129882812500e+01,2.906894683837890625e+01,3.541783142089843750e+01,9.175352478027343750e+01,1.005957107543945312e+02,-7.404717445373535156e+00,4.033146500587463379e-01,-6.666896057128906250e+01,-1.826857147216796875e+02,-2.342603921890258789e+00,7.562146759033203125e+01,3.135763168334960938e+01
1.115427017211914062e+00,1.000000000000000000e+00,-4.445962524414062500e+01,2.898066711425781250e+01,3.544100952148437500e+01,9.167282867431640625e+01,1.006151123046875000e+02,-7.432658195495605469e+00,4.033146500587463379e-01,-6.666896057128906250e+01,-1.826857147216796875e+02,-2.342460393905639648e+00,7.562160491943359375e+01,3.135740852355957031e+01
