rpiRobotics/ARM-21-02-F-19-Robot-Motion-Program/data_performance_abb/curve_1/curve_pose_opt1/100L/realrobot/run_3.csv
timestamp,cmd_num,J1,J2,J3,J4,J5,J6
1.409999968018382788e-04,-1.000000000000000000e+00,-3.419768142700195312e+01,4.881631088256835938e+01,3.022797584533691406e+01,1.098919906616210938e+02,9.603819274902343750e+01,-1.240031003952026367e+00,4.033146500587463379e-01,-6.666904449462890625e+01,-1.826858215332031250e+02,-2.342532396316528320e+00,7.562146759033203125e+01,3.135763168334960938e+01
4.974000155925750732e-03,1.000000000000000000e+00,-3.419762802124023438e+01,4.881631088256835938e+01,3.022793769836425781e+01,1.098919906616210938e+02,9.603807830810546875e+01,-1.239895343780517578e+00,4.033146500587463379e-01,-6.666904449462890625e+01,-1.826858215332031250e+02,-2.342532396316528320e+00,7.562146759033203125e+01,3.135763168334960938e+01
8.891000412404537201e-03,1.000000000000000000e+00,-3.419768142700195312e+01,4.881631088256835938e+01,3.022797584533691406e+01,1.098919906616210938e+02,9.603807830810546875e+01,-1.240031003952026367e+00,4.033146500587463379e-01,-6.666904449462890625e+01,-1.826858215332031250e+02,-2.342460393905639648e+00,7.562139129638671875e+01,3.135763168334960938e+01
1.551300007849931717e-02,1.000000000000000000e+00,-3.419768142700195312e+01,4.881631088256835938e+01,3.022793769836425781e+01,1.098921432495117188e+02,9.603807830810546875e+01,-1.239895343780517578e+00,4.033146500587463379e-01,-6.666904449462890625e+01,-1.826858215332031250e+02,-2.342460393905639648e+00,7.562139129638671875e+01,3.135763168334960938e+01
3.973399847745895386e-02,1.000000000000000000e+00,-3.419762802124023438e+01,4.881631088256835938e+01,3.022793769836425781e+01,1.098919906616210938e+02,9.603819274902343750e+01,-1.240031003952026367e+00,4.033146500587463379e-01,-6.666904449462890625e+01,-1.826858215332031250e+02,-2.342532396316528320e+00,7.562146759033203125e+01,3.135763168334960938e+01
4.099399968981742859e-02,1.000000000000000000e+00,-3.419762802124023438e+01,4.881631088256835938e+01,3.022793769836425781e+01,1.098919906616210938e+02,9.603819274902343750e+01,-1.240031003952026367e+00,4.033146500587463379e-01,-6.666904449462890625e+01,-1.826858215332031250e+02,-2.342532396316528320e+00,7.562146759033203125e+01,3.135763168334960938e+01
4.365300014615058899e-02,1.000000000000000000e+00,-3.419771194458007812e+01,4.881631088256835938e+01,3.022793769836425781e+01,1.098919906616210938e+02,9.603807830810546875e+01,-1.239827632904052734e+00,4.033146500587463379e-01,-6.666904449462890625e+01,-1.826858215332031250e+02,-2.342603921890258789e+00,7.562139129638671875e+01,3.135763168334960938e+01
4.924000054597854614e-02,1.000000000000000000e+00,-3.419768142700195312e+01,4.881631088256835938e+01,3.022793769836425781e+01,1.098919906616210938e+02,9.603807830810546875e+01,-1.240031003952026367e+00,4.033146500587463379e-01,-6.666904449462890625e+01,-1.826858215332031250e+02,-2.342532396316528320e+00,7.562146759033203125e+01,3.135763168334960938e+01
5.237999930977821350e-02,1.000000000000000000e+00,-3.419762802124023438e+01,4.881631088256835938e+01,3.022793769836425781e+01,1.098921432495117188e+02,9.603807830810546875e+01,-1.240031003952026367e+00,4.033146500587463379e-01,-6.666904449462890625e+01,-1.826858215332031250e+02,-2.342532396316528320e+00,7.562139129638671875e+01,3.135763168334960938e+01
5.368399992585182190e-02,1.000000000000000000e+00,-3.419762802124023438e+01,4.881631088256835938e+01,3.022793769836425781e+01,1.098921432495117188e+02,9.603807830810546875e+01,-1.240031003952026367e+00,4.033146500587463379e-01,-6.666904449462890625e+01,-1.826858215332031250e+02,-2.342532396316528320e+00,7.562139129638671875e+01,3.135763168334960938e+01
5.633600056171417236e-02,1.000000000000000000e+00,-3.419779968261718750e+01,4.881624221801757812e+01,3.022793769836425781e+01,1.098919906616210938e+02,9.603807830810546875e+01,-1.239895343780517578e+00,4.033146500587463379e-01,-6.666904449462890625e+01,-1.826858215332031250e+02,-2.342603921890258789e+00,7.562139129638671875e+01,3.135763168334960938e+01
6.004700064659118652e-02,1.000000000000000000e+00,-3.419796752929687500e+01,4.881601715087890625e+01,3.022793769836425781e+01,1.098919906616210938e+02,9.603807830810546875e+01,-1.239827632904052734e+00,4.033146500587463379e-01,-6.666904449462890625e+01,-1.826858215332031250e+02,-2.342532396316528320e+00,7.562146759033203125e+01,3.135763168334960938e+01
6.133399903774261475e-02,1.000000000000000000e+00,-3.419796752929687500e+01,4.881601715087890625e+01,3.022793769836425781e+01,1.098919906616210938e+02,9.603807830810546875e+01,-1.239827632904052734e+00,4.033146500587463379e-01,-6.666904449462890625e+01,-1.826858215332031250e+02,-2.342532396316528320e+00,7.562146759033203125e+01,3.135763168334960938e+01
6.508699804544448853e-02,1.000000000000000000e+00,-3.419865798950195312e+01,4.881538772583007812e+01,3.022793769836425781e+01,1.098919906616210938e+02,9.603819274902343750e+01,-1.239895343780517578e+00,4.033146500587463379e-01,-6.666904449462890625e+01,-1.826858215332031250e+02,-2.342532396316528320e+00,7.562139129638671875e+01,3.135763168334960938e+01
6.778500229120254517e-02,1.000000000000000000e+00,-3.419865798950195312e+01,4.881538772583007812e+01,3.022793769836425781e+01,1.098919906616210938e+02,9.603819274902343750e+01,-1.239895343780517578e+00,4.033146500587463379e-01,-6.666904449462890625e+01,-1.826858215332031250e+02,-2.342460393905639648e+00,7.562146759033203125e+01,3.135763168334960938e+01
7.170700281858444214e-02,1.000000000000000000e+00,-3.420164489746093750e+01,4.881176376342773438e+01,3.022797584533691406e+01,1.098919906616210938e+02,9.603819274902343750e+01,-1.239895343780517578e+00,4.033146500587463379e-01,-6.666904449462890625e+01,-1.826858215332031250e+02,-2.342532396316528320e+00,7.562146759033203125e+01,3.135784912109375000e+01
7.300300151109695435e-02,1.000000000000000000e+00,-3.420164489746093750e+01,4.881176376342773438e+01,3.022797584533691406e+01,1.098919906616210938e+02,9.603819274902343750e+01,-1.239895343780517578e+00,4.033146500587463379e-01,-6.666904449462890625e+01,-1.826858215332031250e+02,-2.342532396316528320e+00,7.562146759033203125e+01,3.135784912109375000e+01
7.614099979400634766e-02,1.000000000000000000e+00,-3.420164489746093750e+01,4.881176376342773438e+01,3.022797584533691406e+01,1.098919906616210938e+02,9.603819274902343750e+01,-1.239895343780517578e+00,4.033146500587463379e-01,-6.666904449462890625e+01,-1.826858215332031250e+02,-2.342532396316528320e+00,7.562146759033203125e+01,3.135784912109375000e+01
7.756999880075454712e-02,1.000000000000000000e+00,-3.420399856567382812e+01,4.880809783935546875e+01,3.022793769836425781e+01,1.098918762207031250e+02,9.603819274902343750e+01,-1.240098714828491211e+00,4.033146500587463379e-01,-6.666904449462890625e+01,-1.826858215332031250e+02,-2.342532396316528320e+00,7.562139129638671875e+01,3.135763168334960938e+01
8.037900179624557495e-02,1.000000000000000000e+00,-3.420689773559570312e+01,4.880289459228515625e+01,3.022803688049316406e+01,1.098914642333984375e+02,9.603829956054687500e+01,-1.240098714828491211e+00,4.033146500587463379e-01,-6.666904449462890625e+01,-1.826858215332031250e+02,-2.342532396316528320e+00,7.562139129638671875e+01,3.135763168334960938e+01
8.477299660444259644e-02,1.000000000000000000e+00,-3.421045684814453125e+01,4.879582977294921875e+01,3.022807884216308594e+01,1.098902969360351562e+02,9.603856658935546875e+01,-1.240234375000000000e+00,4.033146500587463379e-01,-6.666904449462890625e+01,-1.826858215332031250e+02,-2.342532396316528320e+00,7.562124633789062500e+01,3.135763168334960938e+01
8.609600365161895752e-02,1.000000000000000000e+00,-3.421045684814453125e+01,4.879582977294921875e+01,3.022807884216308594e+01,1.098902969360351562e+02,9.603856658935546875e+01,-1.240234375000000000e+00,4.033146500587463379e-01,-6.666904449462890625e+01,-1.826858215332031250e+02,-2.342532396316528320e+00,7.562124633789062500e+01,3.135763168334960938e+01
8.935599774122238159e-02,1.000000000000000000e+00,-3.421462249755859375e+01,4.878712081909179688e+01,3.022840309143066406e+01,1.098876647949218750e+02,9.603904724121093750e+01,-1.240437984466552734e+00,4.033146500587463379e-01,-6.666904449462890625e+01,-1.826858215332031250e+02,-2.342532396316528320e+00,7.562139129638671875e+01,3.135763168334960938e+01
9.191600233316421509e-02,1.000000000000000000e+00,-3.421955871582031250e+01,4.877675628662109375e+01,3.022901344299316406e+01,1.098832931518554688e+02,9.603973388671875000e+01,-1.241048216819763184e+00,4.033146500587463379e-01,-6.666904449462890625e+01,-1.826858215332031250e+02,-2.342532396316528320e+00,7.562139129638671875e+01,3.135763168334960938e+01
9.654700011014938354e-02,1.000000000000000000e+00,-3.422567367553710938e+01,4.876430892944335938e+01,3.022992897033691406e+01,1.098775558471679688e+02,9.604075622558593750e+01,-1.242811560630798340e+00,4.033146500587463379e-01,-6.666904449462890625e+01,-1.826858215332031250e+02,-2.342532396316528320e+00,7.562139129638671875e+01,3.135763168334960938e+01
9.785799682140350342e-02,1.000000000000000000e+00,-3.422567367553710938e+01,4.876430892944335938e+01,3.022992897033691406e+01,1.098775558471679688e+02,9.604075622558593750e+01,-1.242811560630798340e+00,4.033146500587463379e-01,-6.666904449462890625e+01,-1.826858215332031250e+02,-2.342532396316528320e+00,7.562139129638671875e+01,3.135763168334960938e+01
1.009960025548934937e-01,1.000000000000000000e+00,-3.423302078247070312e+01,4.874939727783203125e+01,3.023137474060058594e+01,1.098699645996093750e+02,9.604251098632812500e+01,-1.245659828186035156e+00,4.033146500587463379e-01,-6.666904449462890625e+01,-1.826858215332031250e+02,-2.342532396316528320e+00,7.562139129638671875e+01,3.135763168334960938e+01
1.039260029792785645e-01,1.000000000000000000e+00,-3.423302078247070312e+01,4.874939727783203125e+01,3.023137474060058594e+01,1.098699645996093750e+02,9.604251098632812500e+01,-1.245659828186035156e+00,4.033146500587463379e-01,-6.666904449462890625e+01,-1.826858215332031250e+02,-2.342532396316528320e+00,7.562139129638671875e+01,3.135763168334960938e+01
1.083849966526031494e-01,1.000000000000000000e+00,-3.424180603027343750e+01,4.873181152343750000e+01,3.023342704772949219e+01,1.098603286743164062e+02,9.604506683349609375e+01,-1.248915076255798340e+00,4.033146500587463379e-01,-6.666904449462890625e+01,-1.826858215332031250e+02,-2.342460393905639648e+00,7.562124633789062500e+01,3.135763168334960938e+01
1.120449975132942200e-01,1.000000000000000000e+00,-3.425193786621093750e+01,4.871174240112304688e+01,3.023629188537597656e+01,1.098477401733398438e+02,9.604821014404296875e+01,-1.252916097640991211e+00,4.031498432159423828e-01,-6.666904449462890625e+01,-1.826858215332031250e+02,-2.342603921890258789e+00,7.562139129638671875e+01,3.135763168334960938e+01
1.160349994897842407e-01,1.000000000000000000e+00,-3.426327896118164062e+01,4.868926620483398438e+01,3.024009513854980469e+01,1.098320465087890625e+02,9.605200195312500000e+01,-1.258070230484008789e+00,4.033146500587463379e-01,-6.666904449462890625e+01,-1.826858215332031250e+02,-2.342532396316528320e+00,7.562139129638671875e+01,3.135763168334960938e+01
1.199410036206245422e-01,1.000000000000000000e+00,-3.427599716186523438e+01,4.866387939453125000e+01,3.024499702453613281e+01,1.098131866455078125e+02,9.605653381347656250e+01,-1.264784097671508789e+00,4.033146500587463379e-01,-6.666904449462890625e+01,-1.826858215332031250e+02,-2.342603921890258789e+00,7.562146759033203125e+01,3.135763168334960938e+01
1.245890036225318909e-01,1.000000000000000000e+00,-3.429069137573242188e+01,4.863541030883789062e+01,3.025117492675781250e+01,1.097910614013671875e+02,9.606228637695312500e+01,-1.272718667984008789e+00,4.033146500587463379e-01,-6.666904449462890625e+01,-1.826858215332031250e+02,-2.342460393905639648e+00,7.562139129638671875e+01,3.135740852355957031e+01
1.280539929866790771e-01,1.000000000000000000e+00,-3.430708312988281250e+01,4.860377502441406250e+01,3.025839424133300781e+01,1.097648849487304688e+02,9.606900787353515625e+01,-1.281874060630798340e+00,4.031498432159423828e-01,-6.666904449462890625e+01,-1.826858215332031250e+02,-2.342532396316528320e+00,7.562146759033203125e+01,3.135763168334960938e+01
1.320499926805496216e-01,1.000000000000000000e+00,-3.432499694824218750e+01,4.856856155395507812e+01,3.026687431335449219e+01,1.097336502075195312e+02,9.607652282714843750e+01,-1.292792558670043945e+00,4.033146500587463379e-01,-6.666913604736328125e+01,-1.826858215332031250e+02,-2.342532396316528320e+00,7.562146759033203125e+01,3.135763168334960938e+01
1.359809935092926025e-01,1.000000000000000000e+00,-3.434417343139648438e+01,4.853011322021484375e+01,3.027660942077636719e+01,1.096971435546875000e+02,9.608522033691406250e+01,-1.304863929748535156e+00,4.033146500587463379e-01,-6.666904449462890625e+01,-1.826858215332031250e+02,-2.342532396316528320e+00,7.562139129638671875e+01,3.135740852355957031e+01
1.401309967041015625e-01,1.000000000000000000e+00,-3.436515808105468750e+01,4.848824691772460938e+01,3.028793525695800781e+01,1.096573257446289062e+02,9.609433746337890625e+01,-1.318156003952026367e+00,4.033146500587463379e-01,-6.666896057128906250e+01,-1.826859436035156250e+02,-2.342460393905639648e+00,7.562146759033203125e+01,3.135763168334960938e+01
1.440780013799667358e-01,1.000000000000000000e+00,-3.438803863525390625e+01,4.844321441650390625e+01,3.030048179626464844e+01,1.096150207519531250e+02,9.610499572753906250e+01,-1.332804441452026367e+00,4.033146500587463379e-01,-6.666913604736328125e+01,-1.826858215332031250e+02,-2.342460393905639648e+00,7.562146759033203125e+01,3.135763168334960938e+01
1.487340033054351807e-01,1.000000000000000000e+00,-3.441289901733398438e+01,4.839480590820312500e+01,3.031451034545898438e+01,1.095675659179687500e+02,9.611640167236328125e+01,-1.348876953125000000e+00,4.033146500587463379e-01,-6.666904449462890625e+01,-1.826858215332031250e+02,-2.342532396316528320e+00,7.562139129638671875e+01,3.135763168334960938e+01
1.523060053586959839e-01,1.000000000000000000e+00,-3.443864822387695312e+01,4.834352874755859375e+01,3.032963562011718750e+01,1.095144653320312500e+02,9.612903594970703125e+01,-1.366170287132263184e+00,4.033146500587463379e-01,-6.666904449462890625e+01,-1.826858215332031250e+02,-2.342532396316528320e+00,7.562139129638671875e+01,3.135763168334960938e+01
1.562909930944442749e-01,1.000000000000000000e+00,-3.446609115600585938e+01,4.828946685791015625e+01,3.034567642211914062e+01,1.094590072631835938e+02,9.614221191406250000e+01,-1.384616494178771973e+00,4.033146500587463379e-01,-6.666904449462890625e+01,-1.826858215332031250e+02,-2.342532396316528320e+00,7.562139129638671875e+01,3.135763168334960938e+01
1.610680073499679565e-01,1.000000000000000000e+00,-3.449482727050781250e+01,4.823293685913085938e+01,3.036230850219726562e+01,1.094008560180664062e+02,9.615655517578125000e+01,-1.403876423835754395e+00,4.033146500587463379e-01,-6.666904449462890625e+01,-1.826858215332031250e+02,-2.342532396316528320e+00,7.562146759033203125e+01,3.135763168334960938e+01
1.644469946622848511e-01,1.000000000000000000e+00,-3.452494049072265625e+01,4.817373657226562500e+01,3.037955093383789062e+01,1.093403778076171875e+02,9.617222595214843750e+01,-1.424628376960754395e+00,4.033146500587463379e-01,-6.666904449462890625e+01,-1.826858215332031250e+02,-2.342532396316528320e+00,7.562139129638671875e+01,3.135784912109375000e+01
1.683309972286224365e-01,1.000000000000000000e+00,-3.455657577514648438e+01,4.811209106445312500e+01,3.039754486083984375e+01,1.092773895263671875e+02,9.618822479248046875e+01,-1.446262001991271973e+00,4.033146500587463379e-01,-6.666904449462890625e+01,-1.826858215332031250e+02,-2.342532396316528320e+00,7.562139129638671875e+01,3.135763168334960938e+01
1.729989945888519287e-01,1.000000000000000000e+00,-3.458947372436523438e+01,4.804832077026367188e+01,3.041625022888183594e+01,1.092118606567382812e+02,9.620448303222656250e+01,-1.468912839889526367e+00,4.033146500587463379e-01,-6.666904449462890625e+01,-1.826858215332031250e+02,-2.342532396316528320e+00,7.562139129638671875e+01,3.135763168334960938e+01
1.765830069780349731e-01,1.000000000000000000e+00,-3.462354660034179688e+01,4.798235702514648438e+01,3.043550491333007812e+01,1.091454315185546875e+02,9.622074890136718750e+01,-1.491970539093017578e+00,4.033146500587463379e-01,-6.666904449462890625e+01,-1.826858215332031250e+02,-2.342532396316528320e+00,7.562139129638671875e+01,3.135784912109375000e+01
1.804649978876113892e-01,1.000000000000000000e+00,-3.465837097167968750e+01,4.791473770141601562e+01,3.045504188537597656e+01,1.090776977539062500e+02,9.623690032958984375e+01,-1.515231728553771973e+00,4.033146500587463379e-01,-6.666904449462890625e+01,-1.826858215332031250e+02,-2.342532396316528320e+00,7.562139129638671875e+01,3.135763168334960938e+01
1.851619929075241089e-01,1.000000000000000000e+00,-3.469385147094726562e+01,4.784533309936523438e+01,3.047464179992675781e+01,1.090095901489257812e+02,9.625396728515625000e+01,-1.538018226623535156e+00,4.033146500587463379e-01,-6.666904449462890625e+01,-1.826858215332031250e+02,-2.342532396316528320e+00,7.562139129638671875e+01,3.135763168334960938e+01
1.886090040206909180e-01,1.000000000000000000e+00,-3.473036956787109375e+01,4.777400207519531250e+01,3.049440383911132812e+01,1.089400100708007812e+02,9.627102661132812500e+01,-1.561279296875000000e+00,4.033146500587463379e-01,-6.666904449462890625e+01,-1.826858215332031250e+02,-2.342532396316528320e+00,7.562146759033203125e+01,3.135763168334960938e+01
1.925240010023117065e-01,1.000000000000000000e+00,-3.476774215698242188e+01,4.770099639892578125e+01,3.051410675048828125e+01,1.088706359863281250e+02,9.628829956054687500e+01,-1.584947466850280762e+00,4.033146500587463379e-01,-6.666904449462890625e+01,-1.826858215332031250e+02,-2.342603921890258789e+00,7.562139129638671875e+01,3.135763168334960938e+01
1.972759962081909180e-01,1.000000000000000000e+00,-3.480595016479492188e+01,4.762643051147460938e+01,3.053397178649902344e+01,1.088003692626953125e+02,9.630593872070312500e+01,-1.608683347702026367e+00,4.033146500587463379e-01,-6.666904449462890625e+01,-1.826858215332031250e+02,-2.342532396316528320e+00,7.562139129638671875e+01,3.135763168334960938e+01
2.007489949464797974e-01,1.000000000000000000e+00,-3.484476470947265625e+01,4.755091857910156250e+01,3.055410003662109375e+01,1.087302627563476562e+02,9.632438659667968750e+01,-1.633029580116271973e+00,4.033146500587463379e-01,-6.666904449462890625e+01,-1.826857147216796875e+02,-2.342532396316528320e+00,7.562146759033203125e+01,3.135763168334960938e+01
2.046079933643341064e-01,1.000000000000000000e+00,-3.488438034057617188e+01,4.747478866577148438e+01,3.057432746887207031e+01,1.086598892211914062e+02,9.634289550781250000e+01,-1.657714843750000000e+00,4.033146500587463379e-01,-6.666896057128906250e+01,-1.826858215332031250e+02,-2.342532396316528320e+00,7.562139129638671875e+01,3.135763168334960938e+01
2.093580067157745361e-01,1.000000000000000000e+00,-3.492425155639648438e+01,4.739859390258789062e+01,3.059435653686523438e+01,1.085899887084960938e+02,9.636090850830078125e+01,-1.682129025459289551e+00,4.033146500587463379e-01,-6.666904449462890625e+01,-1.826858215332031250e+02,-2.342532396316528320e+00,7.562146759033203125e+01,3.135763168334960938e+01
2.113450020551681519e-01,1.000000000000000000e+00,-3.496435546875000000e+01,4.732233047485351562e+01,3.061438369750976562e+01,1.085190887451171875e+02,9.637802886962890625e+01,-1.705729246139526367e+00,4.033146500587463379e-01,-6.666904449462890625e+01,-1.826858215332031250e+02,-2.342532396316528320e+00,7.562139129638671875e+01,3.135763168334960938e+01
2.164259999990463257e-01,1.000000000000000000e+00,-3.500457382202148438e+01,4.724602508544921875e+01,3.063416671752929688e+01,1.084484558105468750e+02,9.639519500732421875e+01,-1.728854775428771973e+00,4.033146500587463379e-01,-6.666904449462890625e+01,-1.826858215332031250e+02,-2.342460393905639648e+00,7.562139129638671875e+01,3.135763168334960938e+01
2.193329930305480957e-01,1.000000000000000000e+00,-3.504502105712890625e+01,4.716928482055664062e+01,3.065402984619140625e+01,1.083779220581054688e+02,9.641284179687500000e+01,-1.752319455146789551e+00,4.033146500587463379e-01,-6.666904449462890625e+01,-1.826858215332031250e+02,-2.342460393905639648e+00,7.562139129638671875e+01,3.135763168334960938e+01
2.233429998159408569e-01,1.000000000000000000e+00,-3.508592987060546875e+01,4.709241104125976562e+01,3.067426109313964844e+01,1.083075027465820312e+02,9.643054199218750000e+01,-1.776394367218017578e+00,4.033146500587463379e-01,-6.666904449462890625e+01,-1.826858215332031250e+02,-2.342532396316528320e+00,7.562146759033203125e+01,3.135763168334960938e+01
2.273939996957778931e-01,1.000000000000000000e+00,-3.512649154663085938e+01,4.701560592651367188e+01,3.069451141357421875e+01,1.082369689941406250e+02,9.644829559326171875e+01,-1.800401568412780762e+00,4.033146500587463379e-01,-6.666904449462890625e+01,-1.826858215332031250e+02,-2.342532396316528320e+00,7.562139129638671875e+01,3.135763168334960938e+01
2.313639968633651733e-01,1.000000000000000000e+00,-3.516667938232421875e+01,4.693879699707031250e+01,3.071470260620117188e+01,1.081666488647460938e+02,9.646674346923828125e+01,-1.824883341789245605e+00,4.033146500587463379e-01,-6.666904449462890625e+01,-1.826858215332031250e+02,-2.342532396316528320e+00,7.562124633789062500e+01,3.135763168334960938e+01
2.369119971990585327e-01,1.000000000000000000e+00,-3.520661163330078125e+01,4.686196899414062500e+01,3.073478889465332031e+01,1.080958023071289062e+02,9.648535156250000000e+01,-1.849840044975280762e+00,4.033146500587463379e-01,-6.666904449462890625e+01,-1.826858215332031250e+02,-2.342532396316528320e+00,7.562139129638671875e+01,3.135763168334960938e+01
2.408719956874847412e-01,1.000000000000000000e+00,-3.524706268310546875e+01,4.678523254394531250e+01,3.075489807128906250e+01,1.080251083374023438e+02,9.650321197509765625e+01,-1.874254107475280762e+00,4.033146500587463379e-01,-6.666904449462890625e+01,-1.826858215332031250e+02,-2.342532396316528320e+00,7.562146759033203125e+01,3.135763168334960938e+01
2.454849928617477417e-01,1.000000000000000000e+00,-3.528725051879882812e+01,4.670883178710937500e+01,3.077524757385253906e+01,1.079543685913085938e+02,9.652059173583984375e+01,-1.898057699203491211e+00,4.033146500587463379e-01,-6.666904449462890625e+01,-1.826858215332031250e+02,-2.342532396316528320e+00,7.562146759033203125e+01,3.135763168334960938e+01
2.473929971456527710e-01,1.000000000000000000e+00,-3.532741165161132812e+01,4.663234710693359375e+01,3.079572105407714844e+01,1.078837356567382812e+02,9.653818511962890625e+01,-1.921725869178771973e+00,4.033146500587463379e-01,-6.666904449462890625e+01,-1.826858215332031250e+02,-2.342532396316528320e+00,7.562139129638671875e+01,3.135763168334960938e+01
2.514489889144897461e-01,1.000000000000000000e+00,-3.536722946166992188e+01,4.655594635009765625e+01,3.081615829467773438e+01,1.078127365112304688e+02,9.655578613281250000e+01,-1.945326089859008789e+00,4.033146500587463379e-01,-6.666904449462890625e+01,-1.826858215332031250e+02,-2.342532396316528320e+00,7.562124633789062500e+01,3.135763168334960938e+01
2.554520070552825928e-01,1.000000000000000000e+00,-3.540733337402343750e+01,4.647936630249023438e+01,3.083644676208496094e+01,1.077418289184570312e+02,9.657337951660156250e+01,-1.969265460968017578e+00,4.033146500587463379e-01,-6.666904449462890625e+01,-1.826858215332031250e+02,-2.342460393905639648e+00,7.562139129638671875e+01,3.135763168334960938e+01
2.594940066337585449e-01,1.000000000000000000e+00,-3.544737625122070312e+01,4.640283203125000000e+01,3.085657501220703125e+01,1.076706161499023438e+02,9.659118652343750000e+01,-1.993611693382263184e+00,4.033146500587463379e-01,-6.666904449462890625e+01,-1.826858215332031250e+02,-2.342532396316528320e+00,7.562139129638671875e+01,3.135763168334960938e+01
2.633680105209350586e-01,1.000000000000000000e+00,-3.548742294311523438e+01,4.632649993896484375e+01,3.087670326232910156e+01,1.075994567871093750e+02,9.660990142822265625e+01,-2.018296957015991211e+00,4.033146500587463379e-01,-6.666913604736328125e+01,-1.826858215332031250e+02,-2.342532396316528320e+00,7.562139129638671875e+01,3.135763168334960938e+01
2.674170136451721191e-01,1.000000000000000000e+00,-3.552683639526367188e+01,4.624960708618164062e+01,3.089730072021484375e+01,1.075285034179687500e+02,9.662861633300781250e+01,-2.043118000030517578e+00,4.033146500587463379e-01,-6.666904449462890625e+01,-1.826858215332031250e+02,-2.342603921890258789e+00,7.562139129638671875e+01,3.135763168334960938e+01
2.713440060615539551e-01,1.000000000000000000e+00,-3.556645202636718750e+01,4.617243957519531250e+01,3.091785621643066406e+01,1.074571304321289062e+02,9.664685058593750000e+01,-2.067464351654052734e+00,4.033146500587463379e-01,-6.666896057128906250e+01,-1.826858215332031250e+02,-2.342460393905639648e+00,7.562139129638671875e+01,3.135763168334960938e+01
2.753260135650634766e-01,1.000000000000000000e+00,-3.560609817504882812e+01,4.609508895874023438e+01,3.093836975097656250e+01,1.073861236572265625e+02,9.666433715820312500e+01,-2.091132402420043945e+00,4.033146500587463379e-01,-6.666904449462890625e+01,-1.826858215332031250e+02,-2.342532396316528320e+00,7.562139129638671875e+01,3.135763168334960938e+01
2.793579995632171631e-01,1.000000000000000000e+00,-3.564548492431640625e+01,4.601778411865234375e+01,3.095872497558593750e+01,1.073152770996093750e+02,9.668177032470703125e+01,-2.115071535110473633e+00,4.033146500587463379e-01,-6.666904449462890625e+01,-1.826858215332031250e+02,-2.342532396316528320e+00,7.562139129638671875e+01,3.135763168334960938e+01
2.834630012512207031e-01,1.000000000000000000e+00,-3.568486785888671875e+01,4.594057083129882812e+01,3.097899246215820312e+01,1.072442703247070312e+02,9.669925689697265625e+01,-2.139010906219482422e+00,4.033146500587463379e-01,-6.666904449462890625e+01,-1.826859436035156250e+02,-2.342532396316528320e+00,7.562124633789062500e+01,3.135763168334960938e+01
2.892839908599853516e-01,1.000000000000000000e+00,-3.572419738769531250e+01,4.586365127563476562e+01,3.099932670593261719e+01,1.071727905273437500e+02,9.671690368652343750e+01,-2.163085937500000000e+00,4.033146500587463379e-01,-6.666904449462890625e+01,-1.826858215332031250e+02,-2.342532396316528320e+00,7.562124633789062500e+01,3.135763168334960938e+01
2.913770079612731934e-01,1.000000000000000000e+00,-3.576349639892578125e+01,4.578698348999023438e+01,3.101975822448730469e+01,1.071019515991210938e+02,9.673482513427734375e+01,-2.187567949295043945e+00,4.033146500587463379e-01,-6.666904449462890625e+01,-1.826858215332031250e+02,-2.342532396316528320e+00,7.562146759033203125e+01,3.135763168334960938e+01
2.953430116176605225e-01,1.000000000000000000e+00,-3.580259704589843750e+01,4.570976638793945312e+01,3.104017066955566406e+01,1.070305786132812500e+02,9.675348663330078125e+01,-2.212863445281982422e+00,4.033146500587463379e-01,-6.666904449462890625e+01,-1.826858215332031250e+02,-2.342532396316528320e+00,7.562146759033203125e+01,3.135763168334960938e+01
2.993260025978088379e-01,1.000000000000000000e+00,-3.584172058105468750e+01,4.563228225708007812e+01,3.106048393249511719e+01,1.069597244262695312e+02,9.677230072021484375e+01,-2.237955808639526367e+00,4.033146500587463379e-01,-6.666904449462890625e+01,-1.826858215332031250e+02,-2.342532396316528320e+00,7.562146759033203125e+01,3.135763168334960938e+01
3.034079968929290771e-01,1.000000000000000000e+00,-3.588113403320312500e+01,4.555441665649414062e+01,3.108085441589355469e+01,1.068876190185546875e+02,9.679048156738281250e+01,-2.261759519577026367e+00,4.033146500587463379e-01,-6.666904449462890625e+01,-1.826859436035156250e+02,-2.342460393905639648e+00,7.562139129638671875e+01,3.135740852355957031e+01
3.073790073394775391e-01,1.000000000000000000e+00,-3.592069625854492188e+01,4.547627258300781250e+01,3.110140991210937500e+01,1.068162994384765625e+02,9.680823516845703125e+01,-2.285563230514526367e+00,4.033146500587463379e-01,-6.666904449462890625e+01,-1.826858215332031250e+02,-2.342532396316528320e+00,7.562139129638671875e+01,3.135763168334960938e+01
3.113479912281036377e-01,1.000000000000000000e+00,-3.596025466918945312e+01,4.539824676513671875e+01,3.112202644348144531e+01,1.067444000244140625e+02,9.682572937011718750e+01,-2.309299230575561523e+00,4.033146500587463379e-01,-6.666904449462890625e+01,-1.826858215332031250e+02,-2.342532396316528320e+00,7.562146759033203125e+01,3.135763168334960938e+01
3.154450058937072754e-01,1.000000000000000000e+00,-3.600006866455078125e+01,4.532012557983398438e+01,3.114260292053222656e+01,1.066735000610351562e+02,9.684332275390625000e+01,-2.333645343780517578e+00,4.033146500587463379e-01,-6.666896057128906250e+01,-1.826858215332031250e+02,-2.342460393905639648e+00,7.562139129638671875e+01,3.135763168334960938e+01
3.193739950656890869e-01,1.000000000000000000e+00,-3.603982925415039062e+01,4.524243927001953125e+01,3.116305541992187500e+01,1.066016998291015625e+02,9.686118316650390625e+01,-2.358127355575561523e+00,4.033146500587463379e-01,-6.666904449462890625e+01,-1.826858215332031250e+02,-2.342532396316528320e+00,7.562139129638671875e+01,3.135763168334960938e+01
3.234510123729705811e-01,1.000000000000000000e+00,-3.607958602905273438e+01,4.516447448730468750e+01,3.118324661254882812e+01,1.065299606323242188e+02,9.687925720214843750e+01,-2.382948160171508789e+00,4.033146500587463379e-01,-6.666904449462890625e+01,-1.826858215332031250e+02,-2.342532396316528320e+00,7.562139129638671875e+01,3.135763168334960938e+01
3.274129927158355713e-01,1.000000000000000000e+00,-3.611968994140625000e+01,4.508649444580078125e+01,3.120362091064453125e+01,1.064582214355468750e+02,9.689780426025390625e+01,-2.408040523529052734e+00,4.033146500587463379e-01,-6.666904449462890625e+01,-1.826858215332031250e+02,-2.342532396316528320e+00,7.562146759033203125e+01,3.135763168334960938e+01
3.314070105552673340e-01,1.000000000000000000e+00,-3.615990829467773438e+01,4.500837707519531250e+01,3.122409439086914062e+01,1.063871078491210938e+02,9.691689300537109375e+01,-2.432793617248535156e+00,4.033146500587463379e-01,-6.666904449462890625e+01,-1.826858215332031250e+02,-2.342532396316528320e+00,7.562139129638671875e+01,3.135763168334960938e+01
3.353300094604492188e-01,1.000000000000000000e+00,-3.620012664794921875e+01,4.493043899536132812e+01,3.124464988708496094e+01,1.063153076171875000e+02,9.693523406982421875e+01,-2.456529378890991211e+00,4.033146500587463379e-01,-6.666904449462890625e+01,-1.826858215332031250e+02,-2.342532396316528320e+00,7.562139129638671875e+01,3.135763168334960938e+01
3.393859863281250000e-01,1.000000000000000000e+00,-3.624060440063476562e+01,4.485250091552734375e+01,3.126516342163085938e+01,1.062434158325195312e+02,9.695304107666015625e+01,-2.480536699295043945e+00,4.033146500587463379e-01,-6.666904449462890625e+01,-1.826858215332031250e+02,-2.342532396316528320e+00,7.562146759033203125e+01,3.135763168334960938e+01
3.458609879016876221e-01,1.000000000000000000e+00,-3.628108215332031250e+01,4.477406692504882812e+01,3.128584289550781250e+01,1.061715698242187500e+02,9.697068786621093750e+01,-2.504476070404052734e+00,4.033146500587463379e-01,-6.666904449462890625e+01,-1.826858215332031250e+02,-2.342532396316528320e+00,7.562146759033203125e+01,3.135763168334960938e+01
3.473750054836273193e-01,1.000000000000000000e+00,-3.632178497314453125e+01,4.469576644897460938e+01,3.130635643005371094e+01,1.061001968383789062e+02,9.698834228515625000e+01,-2.528618812561035156e+00,4.033146500587463379e-01,-6.666904449462890625e+01,-1.826858215332031250e+02,-2.342532396316528320e+00,7.562139129638671875e+01,3.135763168334960938e+01
3.514319956302642822e-01,1.000000000000000000e+00,-3.636272048950195312e+01,4.461748886108398438e+01,3.132697296142578125e+01,1.060283508300781250e+02,9.700588226318359375e+01,-2.553236484527587891e+00,4.033146500587463379e-01,-6.666904449462890625e+01,-1.826858215332031250e+02,-2.342532396316528320e+00,7.562139129638671875e+01,3.135763168334960938e+01
3.563840091228485107e-01,1.000000000000000000e+00,-3.640345764160156250e+01,4.453925704956054688e+01,3.134775161743164062e+01,1.059559707641601562e+02,9.702384948730468750e+01,-2.577921628952026367e+00,4.033146500587463379e-01,-6.666904449462890625e+01,-1.826858215332031250e+02,-2.342532396316528320e+00,7.562139129638671875e+01,3.135763168334960938e+01
3.593260049819946289e-01,1.000000000000000000e+00,-3.644441986083984375e+01,4.446091079711914062e+01,3.136828613281250000e+01,1.058834915161132812e+02,9.704266357421875000e+01,-2.602946043014526367e+00,4.033146500587463379e-01,-6.666904449462890625e+01,-1.826858215332031250e+02,-2.342532396316528320e+00,7.562139129638671875e+01,3.135763168334960938e+01
3.643789887428283691e-01,1.000000000000000000e+00,-3.644441986083984375e+01,4.446091079711914062e+01,3.136828613281250000e+01,1.058834915161132812e+02,9.704266357421875000e+01,-2.602946043014526367e+00,4.033146500587463379e-01,-6.666904449462890625e+01,-1.826858215332031250e+02,-2.342532396316528320e+00,7.562139129638671875e+01,3.135763168334960938e+01
3.676699995994567871e-01,1.000000000000000000e+00,-3.652672576904296875e+01,4.430503845214843750e+01,3.140945816040039062e+01,1.057400131225585938e+02,9.707988739013671875e+01,-2.651435136795043945e+00,4.033146500587463379e-01,-6.666904449462890625e+01,-1.826858215332031250e+02,-2.342603921890258789e+00,7.562146759033203125e+01,3.135763168334960938e+01
3.723919987678527832e-01,1.000000000000000000e+00,-3.656777572631835938e+01,4.422721481323242188e+01,3.143019485473632812e+01,1.056682662963867188e+02,9.709790039062500000e+01,-2.675442218780517578e+00,4.033146500587463379e-01,-6.666904449462890625e+01,-1.826858215332031250e+02,-2.342460393905639648e+00,7.562139129638671875e+01,3.135763168334960938e+01
3.753840029239654541e-01,1.000000000000000000e+00,-3.660885620117187500e+01,4.414913940429687500e+01,3.145107841491699219e+01,1.055958938598632812e+02,9.711502075195312500e+01,-2.699585199356079102e+00,4.033146500587463379e-01,-6.666904449462890625e+01,-1.826858215332031250e+02,-2.342532396316528320e+00,7.562139129638671875e+01,3.135763168334960938e+01
3.793939948081970215e-01,1.000000000000000000e+00,-3.660885620117187500e+01,4.414913940429687500e+01,3.145107841491699219e+01,1.055958938598632812e+02,9.711502075195312500e+01,-2.699585199356079102e+00,4.033146500587463379e-01,-6.666904449462890625e+01,-1.826858215332031250e+02,-2.342532396316528320e+00,7.562139129638671875e+01,3.135763168334960938e+01
3.833769857883453369e-01,1.000000000000000000e+00,-3.665013504028320312e+01,4.407061386108398438e+01,3.147177314758300781e+01,1.055239410400390625e+02,9.713320159912109375e+01,-2.723863363265991211e+00,4.033146500587463379e-01,-6.666904449462890625e+01,-1.826858215332031250e+02,-2.342532396316528320e+00,7.562146759033203125e+01,3.135763168334960938e+01
3.874169886112213135e-01,1.000000000000000000e+00,-3.669130325317382812e+01,4.399211120605468750e+01,3.149243164062500000e+01,1.054517211914062500e+02,9.715116119384765625e+01,-2.748888015747070312e+00,4.033146500587463379e-01,-6.666904449462890625e+01,-1.826858215332031250e+02,-2.342532396316528320e+00,7.562139129638671875e+01,3.135763168334960938e+01
3.943380117416381836e-01,1.000000000000000000e+00,-3.673206329345703125e+01,4.391340255737304688e+01,3.151304817199707031e+01,1.053798751831054688e+02,9.716918945312500000e+01,-2.774183511734008789e+00,4.033146500587463379e-01,-6.666904449462890625e+01,-1.826858215332031250e+02,-2.342532396316528320e+00,7.562139129638671875e+01,3.135763168334960938e+01
3.957380056381225586e-01,1.000000000000000000e+00,-3.681419372558593750e+01,4.375601196289062500e+01,3.155452537536621094e+01,1.052355499267578125e+02,9.720677185058593750e+01,-2.822875976562500000e+00,4.033146500587463379e-01,-6.666904449462890625e+01,-1.826858215332031250e+02,-2.342460393905639648e+00,7.562146759033203125e+01,3.135763168334960938e+01
4.030430018901824951e-01,1.000000000000000000e+00,-3.681419372558593750e+01,4.375601196289062500e+01,3.155452537536621094e+01,1.052355499267578125e+02,9.720677185058593750e+01,-2.822875976562500000e+00,4.033146500587463379e-01,-6.666904449462890625e+01,-1.826858215332031250e+02,-2.342532396316528320e+00,7.562146759033203125e+01,3.135763168334960938e+01
4.043990075588226318e-01,1.000000000000000000e+00,-3.689612197875976562e+01,4.359936904907226562e+01,3.159618568420410156e+01,1.050909576416015625e+02,9.724356079101562500e+01,-2.870687007904052734e+00,4.033146500587463379e-01,-6.666904449462890625e+01,-1.826858215332031250e+02,-2.342532396316528320e+00,7.562139129638671875e+01,3.135763168334960938e+01
4.073350131511688232e-01,1.000000000000000000e+00,-3.693703079223632812e+01,4.352093505859375000e+01,3.161690521240234375e+01,1.050180587768554688e+02,9.726110076904296875e+01,-2.894897699356079102e+00,4.033146500587463379e-01,-6.666904449462890625e+01,-1.826858215332031250e+02,-2.342532396316528320e+00,7.562139129638671875e+01,3.135763168334960938e+01
4.114800095558166504e-01,1.000000000000000000e+00,-3.693703079223632812e+01,4.352093505859375000e+01,3.161690521240234375e+01,1.050180587768554688e+02,9.726110076904296875e+01,-2.894897699356079102e+00,4.033146500587463379e-01,-6.666904449462890625e+01,-1.826858215332031250e+02,-2.342532396316528320e+00,7.562139129638671875e+01,3.135763168334960938e+01
4.153920114040374756e-01,1.000000000000000000e+00,-3.697776794433593750e+01,4.344250106811523438e+01,3.163753890991210938e+01,1.049459991455078125e+02,9.727875518798828125e+01,-2.919854164123535156e+00,4.033146500587463379e-01,-6.666904449462890625e+01,-1.826858215332031250e+02,-2.342603921890258789e+00,7.562139129638671875e+01,3.135763168334960938e+01
4.193750023841857910e-01,1.000000000000000000e+00,-3.701893234252929688e+01,4.336386108398437500e+01,3.165836143493652344e+01,1.048732070922851562e+02,9.729666900634765625e+01,-2.945149898529052734e+00,4.033146500587463379e-01,-6.666904449462890625e+01,-1.826858215332031250e+02,-2.342532396316528320e+00,7.562139129638671875e+01,3.135763168334960938e+01
4.233730137348175049e-01,1.000000000000000000e+00,-3.705972290039062500e+01,4.328465270996093750e+01,3.167932319641113281e+01,1.048009872436523438e+02,9.731484985351562500e+01,-2.970445394515991211e+00,4.033146500587463379e-01,-6.666904449462890625e+01,-1.826858215332031250e+02,-2.342532396316528320e+00,7.562146759033203125e+01,3.135763168334960938e+01
4.274649918079376221e-01,1.000000000000000000e+00,-3.710040283203125000e+01,4.320533752441406250e+01,3.170018196105957031e+01,1.047285079956054688e+02,9.733334350585937500e+01,-2.995130777359008789e+00,4.033146500587463379e-01,-6.666904449462890625e+01,-1.826859436035156250e+02,-2.342532396316528320e+00,7.562146759033203125e+01,3.135763168334960938e+01
4.314010143280029297e-01,1.000000000000000000e+00,-3.714119338989257812e+01,4.312583923339843750e+01,3.172086143493652344e+01,1.046562347412109375e+02,9.735237884521484375e+01,-3.019002437591552734e+00,4.033146500587463379e-01,-6.666904449462890625e+01,-1.826858215332031250e+02,-2.342460393905639648e+00,7.562124633789062500e+01,3.135763168334960938e+01
4.353899955749511719e-01,1.000000000000000000e+00,-3.718204498291015625e+01,4.304633712768554688e+01,3.174159622192382812e+01,1.045833969116210938e+02,9.737120056152343750e+01,-3.043484210968017578e+00,4.033146500587463379e-01,-6.666904449462890625e+01,-1.826858215332031250e+02,-2.342603921890258789e+00,7.562139129638671875e+01,3.135763168334960938e+01
4.394629895687103271e-01,1.000000000000000000e+00,-3.722274780273437500e+01,4.296704483032226562e+01,3.176252174377441406e+01,1.045106964111328125e+02,9.738901519775390625e+01,-3.068101882934570312e+00,4.033146500587463379e-01,-6.666904449462890625e+01,-1.826858215332031250e+02,-2.342603921890258789e+00,7.562139129638671875e+01,3.135763168334960938e+01
4.433740079402923584e-01,1.000000000000000000e+00,-3.726348495483398438e+01,4.288827133178710938e+01,3.178352355957031250e+01,1.044381713867187500e+02,9.740676116943359375e+01,-3.092583656311035156e+00,4.033146500587463379e-01,-6.666904449462890625e+01,-1.826858215332031250e+02,-2.342532396316528320e+00,7.562146759033203125e+01,3.135763168334960938e+01
4.473820030689239502e-01,1.000000000000000000e+00,-3.730436325073242188e+01,4.280974578857421875e+01,3.180446624755859375e+01,1.043655853271484375e+02,9.742473602294921875e+01,-3.117472410202026367e+00,4.033146500587463379e-01,-6.666904449462890625e+01,-1.826858215332031250e+02,-2.342532396316528320e+00,7.562146759033203125e+01,3.135763168334960938e+01
4.514029920101165771e-01,1.000000000000000000e+00,-3.734527206420898438e+01,4.273076629638671875e+01,3.182526397705078125e+01,1.042928924560546875e+02,9.744290924072265625e+01,-3.142768144607543945e+00,4.033146500587463379e-01,-6.666904449462890625e+01,-1.826858215332031250e+02,-2.342460393905639648e+00,7.562146759033203125e+01,3.135763168334960938e+01
4.553839862346649170e-01,1.000000000000000000e+00,-3.738606262207031250e+01,4.265147018432617188e+01,3.184581947326660156e+01,1.042198333740234375e+02,9.746082305908203125e+01,-3.168063640594482422e+00,4.033146500587463379e-01,-6.666904449462890625e+01,-1.826858215332031250e+02,-2.342532396316528320e+00,7.562139129638671875e+01,3.135763168334960938e+01
4.594370126724243164e-01,1.000000000000000000e+00,-3.742702484130859375e+01,4.257199096679687500e+01,3.186660003662109375e+01,1.041469879150390625e+02,9.747953796386718750e+01,-3.192681312561035156e+00,4.033146500587463379e-01,-6.666904449462890625e+01,-1.826858215332031250e+02,-2.342532396316528320e+00,7.562139129638671875e+01,3.135763168334960938e+01
4.634310007095336914e-01,1.000000000000000000e+00,-3.746825027465820312e+01,4.249233627319335938e+01,3.188764381408691406e+01,1.040737152099609375e+02,9.749884033203125000e+01,-3.216824054718017578e+00,4.031498432159423828e-01,-6.666904449462890625e+01,-1.826858215332031250e+02,-2.342532396316528320e+00,7.562139129638671875e+01,3.135763168334960938e+01
4.680649936199188232e-01,1.000000000000000000e+00,-3.755049514770507812e+01,4.233243560791015625e+01,3.192978858947753906e+01,1.039278106689453125e+02,9.753578186035156250e+01,-3.266194820404052734e+00,4.033146500587463379e-01,-6.666904449462890625e+01,-1.826858215332031250e+02,-2.342532396316528320e+00,7.562139129638671875e+01,3.135784912109375000e+01
4.714500010013580322e-01,1.000000000000000000e+00,-3.755049514770507812e+01,4.233243560791015625e+01,3.192978858947753906e+01,1.039278106689453125e+02,9.753578186035156250e+01,-3.266194820404052734e+00,4.033146500587463379e-01,-6.666904449462890625e+01,-1.826858215332031250e+02,-2.342532396316528320e+00,7.562139129638671875e+01,3.135784912109375000e+01
4.753929972648620605e-01,1.000000000000000000e+00,-3.759165954589843750e+01,4.225282287597656250e+01,3.195079231262207031e+01,1.038551712036132812e+02,9.755322265625000000e+01,-3.291083574295043945e+00,4.033146500587463379e-01,-6.666904449462890625e+01,-1.826858215332031250e+02,-2.342532396316528320e+00,7.562139129638671875e+01,3.135763168334960938e+01
4.793770015239715576e-01,1.000000000000000000e+00,-3.763285446166992188e+01,4.217361831665039062e+01,3.197149085998535156e+01,1.037821197509765625e+02,9.757097625732421875e+01,-3.316582679748535156e+00,4.033146500587463379e-01,-6.666904449462890625e+01,-1.826858215332031250e+02,-2.342460393905639648e+00,7.562146759033203125e+01,3.135763168334960938e+01
4.834620058536529541e-01,1.000000000000000000e+00,-3.767401885986328125e+01,4.209447860717773438e+01,3.199234962463378906e+01,1.037089004516601562e+02,9.758910369873046875e+01,-3.342421054840087891e+00,4.033146500587463379e-01,-6.666904449462890625e+01,-1.826858215332031250e+02,-2.342460393905639648e+00,7.562146759033203125e+01,3.135763168334960938e+01
4.873900115489959717e-01,1.000000000000000000e+00,-3.771530151367187500e+01,4.201525497436523438e+01,3.201347732543945312e+01,1.036359405517578125e+02,9.760749816894531250e+01,-3.367038488388061523e+00,4.033146500587463379e-01,-6.666904449462890625e+01,-1.826858215332031250e+02,-2.342532396316528320e+00,7.562146759033203125e+01,3.135763168334960938e+01
4.915220141410827637e-01,1.000000000000000000e+00,-3.775669479370117188e+01,4.193571090698242188e+01,3.203441619873046875e+01,1.035629348754882812e+02,9.762615966796875000e+01,-3.391452550888061523e+00,4.033146500587463379e-01,-6.666904449462890625e+01,-1.826858215332031250e+02,-2.342532396316528320e+00,7.562139129638671875e+01,3.135763168334960938e+01
4.954729974269866943e-01,1.000000000000000000e+00,-3.779823684692382812e+01,4.185582351684570312e+01,3.205546188354492188e+01,1.034895629882812500e+02,9.764556884765625000e+01,-3.415663003921508789e+00,4.033146500587463379e-01,-6.666904449462890625e+01,-1.826858215332031250e+02,-2.342532396316528320e+00,7.562139129638671875e+01,3.135763168334960938e+01
5.003079771995544434e-01,1.000000000000000000e+00,-3.783974838256835938e+01,4.177562332153320312e+01,3.207638168334960938e+01,1.034161911010742188e+02,9.766438293457031250e+01,-3.440416336059570312e+00,4.034245014190673828e-01,-6.666904449462890625e+01,-1.826858215332031250e+02,-2.342532396316528320e+00,7.562139129638671875e+01,3.135763168334960938e+01
5.033910274505615234e-01,1.000000000000000000e+00,-3.788128662109375000e+01,4.169515228271484375e+01,3.209744644165039062e+01,1.033425521850585938e+02,9.768246459960937500e+01,-3.465440511703491211e+00,4.033146500587463379e-01,-6.666904449462890625e+01,-1.826858215332031250e+02,-2.342460393905639648e+00,7.562124633789062500e+01,3.135763168334960938e+01
5.076360106468200684e-01,1.000000000000000000e+00,-3.792273712158203125e+01,4.161490631103515625e+01,3.211877441406250000e+01,1.032691192626953125e+02,9.770042419433593750e+01,-3.490871906280517578e+00,4.033146500587463379e-01,-6.666904449462890625e+01,-1.826858215332031250e+02,-2.342532396316528320e+00,7.562146759033203125e+01,3.135763168334960938e+01
5.114740133285522461e-01,1.000000000000000000e+00,-3.796430587768554688e+01,4.153479766845703125e+01,3.213990020751953125e+01,1.031959533691406250e+02,9.771828460693359375e+01,-3.516371250152587891e+00,4.033146500587463379e-01,-6.666904449462890625e+01,-1.826858215332031250e+02,-2.342532396316528320e+00,7.562146759033203125e+01,3.135763168334960938e+01
5.155220031738281250e-01,1.000000000000000000e+00,-3.800564193725585938e+01,4.145491027832031250e+01,3.216108322143554688e+01,1.031225814819335938e+02,9.773635864257812500e+01,-3.541734695434570312e+00,4.033146500587463379e-01,-6.666904449462890625e+01,-1.826858215332031250e+02,-2.342460393905639648e+00,7.562139129638671875e+01,3.135763168334960938e+01
5.193920135498046875e-01,1.000000000000000000e+00,-3.804726791381835938e+01,4.137550354003906250e+01,3.218202590942382812e+01,1.030488433837890625e+02,9.775497436523437500e+01,-3.566080808639526367e+00,4.033146500587463379e-01,-6.666904449462890625e+01,-1.826858215332031250e+02,-2.342532396316528320e+00,7.562139129638671875e+01,3.135763168334960938e+01
5.241829752922058105e-01,1.000000000000000000e+00,-3.808866119384765625e+01,4.129598236083984375e+01,3.220290756225585938e+01,1.029754104614257812e+02,9.777405548095703125e+01,-3.590494632720947266e+00,4.033146500587463379e-01,-6.666904449462890625e+01,-1.826858215332031250e+02,-2.342532396316528320e+00,7.562139129638671875e+01,3.135740852355957031e+01
5.274440050125122070e-01,1.000000000000000000e+00,-3.813017272949218750e+01,4.121610260009765625e+01,3.222401046752929688e+01,1.029020385742187500e+02,9.779320526123046875e+01,-3.615248203277587891e+00,4.033146500587463379e-01,-6.666904449462890625e+01,-1.826858215332031250e+02,-2.342532396316528320e+00,7.562146759033203125e+01,3.135763168334960938e+01
5.317789912223815918e-01,1.000000000000000000e+00,-3.817173767089843750e+01,4.113573837280273438e+01,3.224531936645507812e+01,1.028284530639648438e+02,9.781223297119140625e+01,-3.640001296997070312e+00,4.033146500587463379e-01,-6.666904449462890625e+01,-1.826858215332031250e+02,-2.342532396316528320e+00,7.562146759033203125e+01,3.135763168334960938e+01
5.354419946670532227e-01,1.000000000000000000e+00,-3.821333312988281250e+01,4.105549621582031250e+01,3.226652526855468750e+01,1.027544479370117188e+02,9.782987976074218750e+01,-3.664958000183105469e+00,4.033146500587463379e-01,-6.666904449462890625e+01,-1.826858215332031250e+02,-2.342532396316528320e+00,7.562139129638671875e+01,3.135763168334960938e+01
5.395330190658569336e-01,1.000000000000000000e+00,-3.825481796264648438e+01,4.097470474243164062e+01,3.228779220581054688e+01,1.026810684204101562e+02,9.784795379638671875e+01,-3.690524578094482422e+00,4.033146500587463379e-01,-6.666904449462890625e+01,-1.826858215332031250e+02,-2.342603921890258789e+00,7.562146759033203125e+01,3.135763168334960938e+01
5.433890223503112793e-01,1.000000000000000000e+00,-3.829641342163085938e+01,4.089377975463867188e+01,3.230897903442382812e+01,1.026073226928710938e+02,9.786592102050781250e+01,-3.716091632843017578e+00,4.033146500587463379e-01,-6.666904449462890625e+01,-1.826858215332031250e+02,-2.342532396316528320e+00,7.562139129638671875e+01,3.135740852355957031e+01
5.482770204544067383e-01,1.000000000000000000e+00,-3.833783721923828125e+01,4.081308364868164062e+01,3.233018493652343750e+01,1.025335311889648438e+02,9.788416290283203125e+01,-3.741455078125000000e+00,4.033146500587463379e-01,-6.666896057128906250e+01,-1.826858215332031250e+02,-2.342532396316528320e+00,7.562139129638671875e+01,3.135763168334960938e+01
5.514900088310241699e-01,1.000000000000000000e+00,-3.837943267822265625e+01,4.073274993896484375e+01,3.235140991210937500e+01,1.024589462280273438e+02,9.790244293212890625e+01,-3.765733480453491211e+00,4.033146500587463379e-01,-6.666904449462890625e+01,-1.826858215332031250e+02,-2.342532396316528320e+00,7.562139129638671875e+01,3.135740852355957031e+01
5.560899972915649414e-01,1.000000000000000000e+00,-3.842085647583007812e+01,4.065277481079101562e+01,3.237251663208007812e+01,1.023855133056640625e+02,9.792158508300781250e+01,-3.790215492248535156e+00,4.033146500587463379e-01,-6.666904449462890625e+01,-1.826858215332031250e+02,-2.342532396316528320e+00,7.562139129638671875e+01,3.135763168334960938e+01
5.594859719276428223e-01,1.000000000000000000e+00,-3.846222305297851562e+01,4.057250595092773438e+01,3.239351654052734375e+01,1.023113479614257812e+02,9.794082641601562500e+01,-3.815375804901123047e+00,4.033146500587463379e-01,-6.666904449462890625e+01,-1.826858215332031250e+02,-2.342532396316528320e+00,7.562139129638671875e+01,3.135763168334960938e+01
5.636299848556518555e-01,1.000000000000000000e+00,-3.850364685058593750e+01,4.049207687377929688e+01,3.241468048095703125e+01,1.022377624511718750e+02,9.795980834960937500e+01,-3.840196609497070312e+00,4.033146500587463379e-01,-6.666904449462890625e+01,-1.826858215332031250e+02,-2.342532396316528320e+00,7.562146759033203125e+01,3.135763168334960938e+01
5.675200223922729492e-01,1.000000000000000000e+00,-3.854521560668945312e+01,4.041153717041015625e+01,3.243595123291015625e+01,1.021634445190429688e+02,9.797772979736328125e+01,-3.865628004074096680e+00,4.033146500587463379e-01,-6.666904449462890625e+01,-1.826858215332031250e+02,-2.342460393905639648e+00,7.562139129638671875e+01,3.135763168334960938e+01
5.722209811210632324e-01,1.000000000000000000e+00,-3.858666992187500000e+01,4.033054733276367188e+01,3.245727920532226562e+01,1.020899124145507812e+02,9.799564361572265625e+01,-3.891940832138061523e+00,4.033146500587463379e-01,-6.666904449462890625e+01,-1.826858215332031250e+02,-2.342532396316528320e+00,7.562139129638671875e+01,3.135784912109375000e+01
5.755720138549804688e-01,1.000000000000000000e+00,-3.862792205810546875e+01,4.024946212768554688e+01,3.247864532470703125e+01,1.020156402587890625e+02,9.801419067382812500e+01,-3.917439699172973633e+00,4.033146500587463379e-01,-6.666904449462890625e+01,-1.826858215332031250e+02,-2.342460393905639648e+00,7.562146759033203125e+01,3.135763168334960938e+01
5.802670121192932129e-01,1.000000000000000000e+00,-3.866922760009765625e+01,4.016826629638671875e+01,3.249983215332031250e+01,1.019419479370117188e+02,9.803263854980468750e+01,-3.941582679748535156e+00,4.033146500587463379e-01,-6.666904449462890625e+01,-1.826858215332031250e+02,-2.342532396316528320e+00,7.562146759033203125e+01,3.135763168334960938e+01
5.835080146789550781e-01,1.000000000000000000e+00,-3.871088409423828125e+01,4.008707046508789062e+01,3.252087783813476562e+01,1.018673629760742188e+02,9.805130004882812500e+01,-3.965928792953491211e+00,4.033146500587463379e-01,-6.666904449462890625e+01,-1.826858215332031250e+02,-2.342532396316528320e+00,7.562146759033203125e+01,3.135763168334960938e+01
5.878580212593078613e-01,1.000000000000000000e+00,-3.875265121459960938e+01,4.000600814819335938e+01,3.254218292236328125e+01,1.017934570312500000e+02,9.807054901123046875e+01,-3.990749835968017578e+00,4.033146500587463379e-01,-6.666904449462890625e+01,-1.826859436035156250e+02,-2.342603921890258789e+00,7.562139129638671875e+01,3.135763168334960938e+01
5.923680067062377930e-01,1.000000000000000000e+00,-3.879407501220703125e+01,3.992544937133789062e+01,3.256359481811523438e+01,1.017191314697265625e+02,9.809011840820312500e+01,-4.015977859497070312e+00,4.033146500587463379e-01,-6.666904449462890625e+01,-1.826858215332031250e+02,-2.342532396316528320e+00,7.562146759033203125e+01,3.135740852355957031e+01
5.966669917106628418e-01,1.000000000000000000e+00,-3.883587265014648438e+01,3.984511184692382812e+01,3.258481979370117188e+01,1.016450271606445312e+02,9.810915374755859375e+01,-4.041341304779052734e+00,4.033146500587463379e-01,-6.666904449462890625e+01,-1.826858215332031250e+02,-2.342532396316528320e+00,7.562139129638671875e+01,3.135784912109375000e+01
5.998399853706359863e-01,1.000000000000000000e+00,-3.887769699096679688e+01,3.976448059082031250e+01,3.260617065429687500e+01,1.015701217651367188e+02,9.812711334228515625e+01,-4.067043781280517578e+00,4.033146500587463379e-01,-6.666904449462890625e+01,-1.826858215332031250e+02,-2.342532396316528320e+00,7.562146759033203125e+01,3.135763168334960938e+01
6.044390201568603516e-01,1.000000000000000000e+00,-3.891946792602539062e+01,3.968346405029296875e+01,3.262747573852539062e+01,1.014960556030273438e+02,9.814514160156250000e+01,-4.093152999877929688e+00,4.033146500587463379e-01,-6.666904449462890625e+01,-1.826858215332031250e+02,-2.342532396316528320e+00,7.562146759033203125e+01,3.135740852355957031e+01
6.077659726142883301e-01,1.000000000000000000e+00,-3.896132278442382812e+01,3.960222244262695312e+01,3.264880371093750000e+01,1.014215316772460938e+02,9.816332244873046875e+01,-4.118449211120605469e+00,4.033146500587463379e-01,-6.666904449462890625e+01,-1.826858215332031250e+02,-2.342532396316528320e+00,7.562146759033203125e+01,3.135763168334960938e+01
6.118969917297363281e-01,1.000000000000000000e+00,-3.900334930419921875e+01,3.952084732055664062e+01,3.267027282714843750e+01,1.013473663330078125e+02,9.818187713623046875e+01,-4.142863273620605469e+00,4.033146500587463379e-01,-6.666904449462890625e+01,-1.826858215332031250e+02,-2.342532396316528320e+00,7.562139129638671875e+01,3.135740852355957031e+01
6.158239841461181641e-01,1.000000000000000000e+00,-3.904549026489257812e+01,3.943933486938476562e+01,3.269168472290039062e+01,1.012726135253906250e+02,9.820096588134765625e+01,-4.167819499969482422e+00,4.033146500587463379e-01,-6.666904449462890625e+01,-1.826858215332031250e+02,-2.342532396316528320e+00,7.562124633789062500e+01,3.135763168334960938e+01
6.198419928550720215e-01,1.000000000000000000e+00,-3.908760070800781250e+01,3.935775375366210938e+01,3.271300888061523438e+01,1.011982421875000000e+02,9.822010040283203125e+01,-4.193182945251464844e+00,4.033146500587463379e-01,-6.666904449462890625e+01,-1.826858215332031250e+02,-2.342532396316528320e+00,7.562139129638671875e+01,3.135763168334960938e+01
6.239439845085144043e-01,1.000000000000000000e+00,-3.912957000732421875e+01,3.927655410766601562e+01,3.273437881469726562e+01,1.011238174438476562e+02,9.823966979980468750e+01,-4.218546867370605469e+00,4.033146500587463379e-01,-6.666904449462890625e+01,-1.826858215332031250e+02,-2.342532396316528320e+00,7.562139129638671875e+01,3.135763168334960938e+01
6.286659836769104004e-01,1.000000000000000000e+00,-3.917203140258789062e+01,3.919567489624023438e+01,3.275582885742187500e+01,1.010491256713867188e+02,9.825849151611328125e+01,-4.244452476501464844e+00,4.033146500587463379e-01,-6.666904449462890625e+01,-1.826858215332031250e+02,-2.342532396316528320e+00,7.562139129638671875e+01,3.135763168334960938e+01
6.319559812545776367e-01,1.000000000000000000e+00,-3.921442794799804688e+01,3.911463928222656250e+01,3.277736282348632812e+01,1.009745330810546875e+02,9.827651214599609375e+01,-4.270494461059570312e+00,4.033146500587463379e-01,-6.666904449462890625e+01,-1.826859436035156250e+02,-2.342532396316528320e+00,7.562139129638671875e+01,3.135763168334960938e+01
6.365280151367187500e-01,1.000000000000000000e+00,-3.925691604614257812e+01,3.903348922729492188e+01,3.279893493652343750e+01,1.008995819091796875e+02,9.829453277587890625e+01,-4.295789718627929688e+00,4.033146500587463379e-01,-6.666904449462890625e+01,-1.826858215332031250e+02,-2.342603921890258789e+00,7.562139129638671875e+01,3.135763168334960938e+01
6.400870084762573242e-01,1.000000000000000000e+00,-3.929931259155273438e+01,3.895222473144531250e+01,3.282017898559570312e+01,1.008251037597656250e+02,9.831303405761718750e+01,-4.320611000061035156e+00,4.033146500587463379e-01,-6.666904449462890625e+01,-1.826858215332031250e+02,-2.342460393905639648e+00,7.562139129638671875e+01,3.135763168334960938e+01
6.442450284957885742e-01,1.000000000000000000e+00,-3.934197235107421875e+01,3.887064361572265625e+01,3.284156799316406250e+01,1.007499847412109375e+02,9.833196258544921875e+01,-4.345906734466552734e+00,4.033146500587463379e-01,-6.666904449462890625e+01,-1.826858215332031250e+02,-2.342532396316528320e+00,7.562139129638671875e+01,3.135740852355957031e+01
6.484379768371582031e-01,1.000000000000000000e+00,-3.938439941406250000e+01,3.878863525390625000e+01,3.286293792724609375e+01,1.006750869750976562e+02,9.835109710693359375e+01,-4.371134757995605469e+00,4.033146500587463379e-01,-6.666904449462890625e+01,-1.826858215332031250e+02,-2.342532396316528320e+00,7.562124633789062500e+01,3.135763168334960938e+01
6.528819799423217773e-01,1.000000000000000000e+00,-3.942691421508789062e+01,3.870650863647460938e+01,3.288446807861328125e+01,1.005997619628906250e+02,9.837071990966796875e+01,-4.396837234497070312e+00,4.033146500587463379e-01,-6.666904449462890625e+01,-1.826858215332031250e+02,-2.342603921890258789e+00,7.562146759033203125e+01,3.135763168334960938e+01
6.561419963836669922e-01,1.000000000000000000e+00,-3.946934509277343750e+01,3.862452316284179688e+01,3.290620040893554688e+01,1.005250625610351562e+02,9.839039611816406250e+01,-4.422336101531982422e+00,4.033146500587463379e-01,-6.666904449462890625e+01,-1.826858215332031250e+02,-2.342532396316528320e+00,7.562139129638671875e+01,3.135763168334960938e+01
6.601279973983764648e-01,1.000000000000000000e+00,-3.951200103759765625e+01,3.854253387451171875e+01,3.292773437500000000e+01,1.004500122070312500e+02,9.840889739990234375e+01,-4.448920726776123047e+00,4.033146500587463379e-01,-6.666904449462890625e+01,-1.826858215332031250e+02,-2.342532396316528320e+00,7.562139129638671875e+01,3.135763168334960938e+01
6.643710136413574219e-01,1.000000000000000000e+00,-3.955454635620117188e+01,3.846092987060546875e+01,3.294918441772460938e+01,1.003754196166992188e+02,9.842717742919921875e+01,-4.474758625030517578e+00,4.033146500587463379e-01,-6.666904449462890625e+01,-1.826858215332031250e+02,-2.342532396316528320e+00,7.562146759033203125e+01,3.135763168334960938e+01
6.682929992675781250e-01,1.000000000000000000e+00,-3.959700393676757812e+01,3.837973403930664062e+01,3.297055435180664062e+01,1.002997283935546875e+02,9.844547271728515625e+01,-4.499850749969482422e+00,4.033146500587463379e-01,-6.666904449462890625e+01,-1.826858215332031250e+02,-2.342460393905639648e+00,7.562139129638671875e+01,3.135763168334960938e+01
6.723210215568542480e-01,1.000000000000000000e+00,-3.963951873779296875e+01,3.829831314086914062e+01,3.299214553833007812e+01,1.002252502441406250e+02,9.846413421630859375e+01,-4.524807453155517578e+00,4.033146500587463379e-01,-6.666904449462890625e+01,-1.826858215332031250e+02,-2.342532396316528320e+00,7.562139129638671875e+01,3.135763168334960938e+01
6.769880056381225586e-01,1.000000000000000000e+00,-3.968217849731445312e+01,3.821646118164062500e+01,3.301388168334960938e+01,1.001496582031250000e+02,9.848316192626953125e+01,-4.550306797027587891e+00,4.033146500587463379e-01,-6.666904449462890625e+01,-1.826858215332031250e+02,-2.342532396316528320e+00,7.562139129638671875e+01,3.135763168334960938e+01
6.804159879684448242e-01,1.000000000000000000e+00,-3.972477722167968750e+01,3.813424301147460938e+01,3.303545379638671875e+01,1.000750274658203125e+02,9.850278472900390625e+01,-4.575737953186035156e+00,4.033146500587463379e-01,-6.666904449462890625e+01,-1.826858215332031250e+02,-2.342603921890258789e+00,7.562139129638671875e+01,3.135763168334960938e+01
6.845039725303649902e-01,1.000000000000000000e+00,-3.976740646362304688e+01,3.805194091796875000e+01,3.305686187744140625e+01,9.999922180175781250e+01,9.852245330810546875e+01,-4.601711750030517578e+00,4.033146500587463379e-01,-6.666904449462890625e+01,-1.826858215332031250e+02,-2.342532396316528320e+00,7.562146759033203125e+01,3.135763168334960938e+01
6.885520219802856445e-01,1.000000000000000000e+00,-3.980997848510742188e+01,3.796943283081054688e+01,3.307831192016601562e+01,9.992405700683593750e+01,9.854180908203125000e+01,-4.628092765808105469e+00,4.033146500587463379e-01,-6.666904449462890625e+01,-1.826858215332031250e+02,-2.342532396316528320e+00,7.562139129638671875e+01,3.135763168334960938e+01
6.926079988479614258e-01,1.000000000000000000e+00,-3.985240936279296875e+01,3.788680648803710938e+01,3.310002517700195312e+01,9.984805297851562500e+01,9.856037139892578125e+01,-4.654134273529052734e+00,4.033146500587463379e-01,-6.666904449462890625e+01,-1.826858215332031250e+02,-2.342603921890258789e+00,7.562146759033203125e+01,3.135763168334960938e+01
6.965630054473876953e-01,1.000000000000000000e+00,-3.989480590820312500e+01,3.780466079711914062e+01,3.312184143066406250e+01,9.977309417724609375e+01,9.857886505126953125e+01,-4.679497718811035156e+00,4.033146500587463379e-01,-6.666904449462890625e+01,-1.826858215332031250e+02,-2.342532396316528320e+00,7.562146759033203125e+01,3.135763168334960938e+01
7.011920213699340820e-01,1.000000000000000000e+00,-3.993743896484375000e+01,3.772274398803710938e+01,3.314360046386718750e+01,9.969734954833984375e+01,9.859747314453125000e+01,-4.704250812530517578e+00,4.033146500587463379e-01,-6.666904449462890625e+01,-1.826858215332031250e+02,-2.342532396316528320e+00,7.562146759033203125e+01,3.135763168334960938e+01
7.043989896774291992e-01,1.000000000000000000e+00,-3.998001098632812500e+01,3.764077758789062500e+01,3.316506958007812500e+01,9.962187194824218750e+01,9.861640167236328125e+01,-4.729682445526123047e+00,4.033146500587463379e-01,-6.666904449462890625e+01,-1.826858215332031250e+02,-2.342532396316528320e+00,7.562146759033203125e+01,3.135763168334960938e+01
7.085959911346435547e-01,1.000000000000000000e+00,-4.002258300781250000e+01,3.755892562866210938e+01,3.318633651733398438e+01,9.954633331298828125e+01,9.863565063476562500e+01,-4.755249023437500000e+00,4.033146500587463379e-01,-6.666904449462890625e+01,-1.826858215332031250e+02,-2.342532396316528320e+00,7.562124633789062500e+01,3.135763168334960938e+01
7.126299738883972168e-01,1.000000000000000000e+00,-4.006492614746093750e+01,3.747680282592773438e+01,3.320790863037109375e+01,9.947085571289062500e+01,9.865531921386718750e+01,-4.781222820281982422e+00,4.033146500587463379e-01,-6.666904449462890625e+01,-1.826858215332031250e+02,-2.342460393905639648e+00,7.562146759033203125e+01,3.135740852355957031e+01
7.163760066032409668e-01,1.000000000000000000e+00,-4.010752868652343750e+01,3.739433670043945312e+01,3.322968292236328125e+01,9.939526367187500000e+01,9.867542266845703125e+01,-4.807061195373535156e+00,4.033146500587463379e-01,-6.666904449462890625e+01,-1.826858215332031250e+02,-2.342532396316528320e+00,7.562139129638671875e+01,3.135763168334960938e+01
7.193679809570312500e-01,1.000000000000000000e+00,-4.015018463134765625e+01,3.731146621704101562e+01,3.325156021118164062e+01,9.931925964355468750e+01,9.869445800781250000e+01,-4.833509922027587891e+00,4.033146500587463379e-01,-6.666896057128906250e+01,-1.826858215332031250e+02,-2.342532396316528320e+00,7.562146759033203125e+01,3.135763168334960938e+01
7.233870029449462891e-01,1.000000000000000000e+00,-4.019278335571289062e+01,3.722837066650390625e+01,3.327343750000000000e+01,9.924403381347656250e+01,9.871289825439453125e+01,-4.858873367309570312e+00,4.033146500587463379e-01,-6.666904449462890625e+01,-1.826858215332031250e+02,-2.342532396316528320e+00,7.562139129638671875e+01,3.135763168334960938e+01
7.273529767990112305e-01,1.000000000000000000e+00,-4.023535919189453125e+01,3.714538192749023438e+01,3.329510879516601562e+01,9.916807556152343750e+01,9.873114013671875000e+01,-4.883965492248535156e+00,4.033146500587463379e-01,-6.666904449462890625e+01,-1.826858215332031250e+02,-2.342532396316528320e+00,7.562139129638671875e+01,3.135763168334960938e+01
7.313479781150817871e-01,1.000000000000000000e+00,-4.027812957763671875e+01,3.706258010864257812e+01,3.331676483154296875e+01,9.909228515625000000e+01,9.874990844726562500e+01,-4.909193515777587891e+00,4.033146500587463379e-01,-6.666904449462890625e+01,-1.826858215332031250e+02,-2.342532396316528320e+00,7.562146759033203125e+01,3.135763168334960938e+01
7.353289723396301270e-01,1.000000000000000000e+00,-4.032070541381835938e+01,3.698016357421875000e+01,3.333864212036132812e+01,9.901569366455078125e+01,9.876877593994140625e+01,-4.934827804565429688e+00,4.033146500587463379e-01,-6.666904449462890625e+01,-1.826858215332031250e+02,-2.342460393905639648e+00,7.562146759033203125e+01,3.135763168334960938e+01
7.393590211868286133e-01,1.000000000000000000e+00,-4.036350631713867188e+01,3.689812850952148438e+01,3.336037445068359375e+01,9.894004821777343750e+01,9.878850555419921875e+01,-4.960733890533447266e+00,4.033146500587463379e-01,-6.666904449462890625e+01,-1.826858215332031250e+02,-2.342532396316528320e+00,7.562139129638671875e+01,3.135763168334960938e+01
7.433490157127380371e-01,1.000000000000000000e+00,-4.040636444091796875e+01,3.681587219238281250e+01,3.338198852539062500e+01,9.886394500732421875e+01,9.880871582031250000e+01,-4.986979484558105469e+00,4.033146500587463379e-01,-6.666904449462890625e+01,-1.826859436035156250e+02,-2.342532396316528320e+00,7.562139129638671875e+01,3.135763168334960938e+01
7.473809719085693359e-01,1.000000000000000000e+00,-4.044939422607421875e+01,3.673315811157226562e+01,3.340366363525390625e+01,9.878840637207031250e+01,9.882817077636718750e+01,-5.013563156127929688e+00,4.033146500587463379e-01,-6.666904449462890625e+01,-1.826858215332031250e+02,-2.342460393905639648e+00,7.562139129638671875e+01,3.135763168334960938e+01
7.513229846954345703e-01,1.000000000000000000e+00,-4.049211120605468750e+01,3.665017318725585938e+01,3.342535400390625000e+01,9.871181488037109375e+01,9.884677886962890625e+01,-5.039537429809570312e+00,4.033146500587463379e-01,-6.666904449462890625e+01,-1.826858215332031250e+02,-2.342532396316528320e+00,7.562139129638671875e+01,3.135763168334960938e+01
7.553650140762329102e-01,1.000000000000000000e+00,-4.053503036499023438e+01,3.656703186035156250e+01,3.344739532470703125e+01,9.863617706298828125e+01,9.886533355712890625e+01,-5.064222335815429688e+00,4.033146500587463379e-01,-6.666904449462890625e+01,-1.826858215332031250e+02,-2.342532396316528320e+00,7.562139129638671875e+01,3.135763168334960938e+01
7.593439817428588867e-01,1.000000000000000000e+00,-4.057814788818359375e+01,3.648377609252929688e+01,3.346935653686523438e+01,9.855985260009765625e+01,9.888420867919921875e+01,-5.089585781097412109e+00,4.033146500587463379e-01,-6.666904449462890625e+01,-1.826858215332031250e+02,-2.342532396316528320e+00,7.562146759033203125e+01,3.135763168334960938e+01
7.633349895477294922e-01,1.000000000000000000e+00,-4.062109375000000000e+01,3.640029525756835938e+01,3.349123382568359375e+01,9.848421478271484375e+01,9.890334320068359375e+01,-5.115221023559570312e+00,4.033146500587463379e-01,-6.666904449462890625e+01,-1.826858215332031250e+02,-2.342532396316528320e+00,7.562139129638671875e+01,3.135763168334960938e+01
7.673720121383666992e-01,1.000000000000000000e+00,-4.066412353515625000e+01,3.631719970703125000e+01,3.351302719116210938e+01,9.840756988525390625e+01,9.892243957519531250e+01,-5.140923500061035156e+00,4.033146500587463379e-01,-6.666896057128906250e+01,-1.826858215332031250e+02,-2.342603921890258789e+00,7.562139129638671875e+01,3.135763168334960938e+01
7.713530063629150391e-01,1.000000000000000000e+00,-4.070741271972656250e+01,3.623441696166992188e+01,3.353475952148437500e+01,9.833156585693359375e+01,9.894248199462890625e+01,-5.167372226715087891e+00,4.033146500587463379e-01,-6.666904449462890625e+01,-1.826859436035156250e+02,-2.342532396316528320e+00,7.562146759033203125e+01,3.135763168334960938e+01
7.753130197525024414e-01,1.000000000000000000e+00,-4.075044631958007812e+01,3.615156936645507812e+01,3.355657577514648438e+01,9.825518798828125000e+01,9.896258544921875000e+01,-5.194159507751464844e+00,4.033146500587463379e-01,-6.666904449462890625e+01,-1.826859436035156250e+02,-2.342532396316528320e+00,7.562139129638671875e+01,3.135763168334960938e+01
7.793740034103393555e-01,1.000000000000000000e+00,-4.079378890991210938e+01,3.606883239746093750e+01,3.357873916625976562e+01,9.817886352539062500e+01,9.898204040527343750e+01,-5.220405101776123047e+00,4.033146500587463379e-01,-6.666904449462890625e+01,-1.826858215332031250e+02,-2.342532396316528320e+00,7.562139129638671875e+01,3.135763168334960938e+01
7.833309769630432129e-01,1.000000000000000000e+00,-4.083673858642578125e+01,3.598589324951171875e+01,3.360061645507812500e+01,9.810206604003906250e+01,9.900075531005859375e+01,-5.245768547058105469e+00,4.033146500587463379e-01,-6.666904449462890625e+01,-1.826858215332031250e+02,-2.342532396316528320e+00,7.562139129638671875e+01,3.135763168334960938e+01
7.873089909553527832e-01,1.000000000000000000e+00,-4.088014221191406250e+01,3.590245819091796875e+01,3.362259292602539062e+01,9.802568817138671875e+01,9.901941680908203125e+01,-5.270792484283447266e+00,4.033146500587463379e-01,-6.666904449462890625e+01,-1.826858215332031250e+02,-2.342532396316528320e+00,7.562146759033203125e+01,3.135784912109375000e+01
7.913470268249511719e-01,1.000000000000000000e+00,-4.092334365844726562e+01,3.581888580322265625e+01,3.364445114135742188e+01,9.794925689697265625e+01,9.903802490234375000e+01,-5.296970367431640625e+00,4.033146500587463379e-01,-6.666904449462890625e+01,-1.826858215332031250e+02,-2.342532396316528320e+00,7.562146759033203125e+01,3.135763168334960938e+01
7.954450249671936035e-01,1.000000000000000000e+00,-4.096663665771484375e+01,3.573490905761718750e+01,3.366630554199218750e+01,9.787287902832031250e+01,9.905695343017578125e+01,-5.323215007781982422e+00,4.033146500587463379e-01,-6.666896057128906250e+01,-1.826858215332031250e+02,-2.342532396316528320e+00,7.562146759033203125e+01,3.135763168334960938e+01
7.993659973144531250e-01,1.000000000000000000e+00,-4.100975418090820312e+01,3.565103912353515625e+01,3.368843078613281250e+01,9.779618835449218750e+01,9.907652282714843750e+01,-5.349460124969482422e+00,4.031498432159423828e-01,-6.666904449462890625e+01,-1.826858215332031250e+02,-2.342532396316528320e+00,7.562139129638671875e+01,3.135763168334960938e+01
8.033859729766845703e-01,1.000000000000000000e+00,-4.105310058593750000e+01,3.556733322143554688e+01,3.371036911010742188e+01,9.771965026855468750e+01,9.909688568115234375e+01,-5.376112461090087891e+00,4.033146500587463379e-01,-6.666904449462890625e+01,-1.826858215332031250e+02,-2.342532396316528320e+00,7.562139129638671875e+01,3.135763168334960938e+01
8.073599934577941895e-01,1.000000000000000000e+00,-4.109627532958984375e+01,3.548400878906250000e+01,3.373222351074218750e+01,9.764300537109375000e+01,9.911655426025390625e+01,-5.402153968811035156e+00,4.033146500587463379e-01,-6.666904449462890625e+01,-1.826858215332031250e+02,-2.342460393905639648e+00,7.562139129638671875e+01,3.135763168334960938e+01
8.113179802894592285e-01,1.000000000000000000e+00,-4.113953781127929688e+01,3.540100097656250000e+01,3.375410079956054688e+01,9.756636810302734375e+01,9.913543701171875000e+01,-5.427721023559570312e+00,4.033146500587463379e-01,-6.666904449462890625e+01,-1.826858215332031250e+02,-2.342532396316528320e+00,7.562139129638671875e+01,3.135784912109375000e+01
8.153340220451354980e-01,1.000000000000000000e+00,-4.118279647827148438e+01,3.531783676147460938e+01,3.377603912353515625e+01,9.748983001708984375e+01,9.915414428710937500e+01,-5.453423500061035156e+00,4.033146500587463379e-01,-6.666904449462890625e+01,-1.826858215332031250e+02,-2.342532396316528320e+00,7.562139129638671875e+01,3.135763168334960938e+01
8.193230032920837402e-01,1.000000000000000000e+00,-4.122614288330078125e+01,3.523419570922851562e+01,3.379814147949218750e+01,9.741266632080078125e+01,9.917323303222656250e+01,-5.479600906372070312e+00,4.033146500587463379e-01,-6.666904449462890625e+01,-1.826858215332031250e+02,-2.342460393905639648e+00,7.562146759033203125e+01,3.135763168334960938e+01
8.233129978179931641e-01,1.000000000000000000e+00,-4.126926422119140625e+01,3.515019607543945312e+01,3.382022094726562500e+01,9.733586883544921875e+01,9.919226837158203125e+01,-5.505913734436035156e+00,4.033146500587463379e-01,-6.666904449462890625e+01,-1.826858215332031250e+02,-2.342460393905639648e+00,7.562139129638671875e+01,3.135763168334960938e+01
8.273460268974304199e-01,1.000000000000000000e+00,-4.131229400634765625e+01,3.506607818603515625e+01,3.384213638305664062e+01,9.725869750976562500e+01,9.921151733398437500e+01,-5.532497882843017578e+00,4.033146500587463379e-01,-6.666904449462890625e+01,-1.826858215332031250e+02,-2.342532396316528320e+00,7.562146759033203125e+01,3.135763168334960938e+01
8.314080238342285156e-01,1.000000000000000000e+00,-4.135538101196289062e+01,3.498178482055664062e+01,3.386405563354492188e+01,9.718184661865234375e+01,9.923156738281250000e+01,-5.559285640716552734e+00,4.033146500587463379e-01,-6.666904449462890625e+01,-1.826858215332031250e+02,-2.342603921890258789e+00,7.562124633789062500e+01,3.135763168334960938e+01
8.353139758110046387e-01,1.000000000000000000e+00,-4.139881515502929688e+01,3.489737319946289062e+01,3.388613510131835938e+01,9.710452270507812500e+01,9.925187683105468750e+01,-5.586073398590087891e+00,4.033146500587463379e-01,-6.666904449462890625e+01,-1.826858215332031250e+02,-2.342532396316528320e+00,7.562124633789062500e+01,3.135763168334960938e+01
8.393769860267639160e-01,1.000000000000000000e+00,-4.144202041625976562e+01,3.481334686279296875e+01,3.390821456909179688e+01,9.702746582031250000e+01,9.927160644531250000e+01,-5.611843585968017578e+00,4.033146500587463379e-01,-6.666904449462890625e+01,-1.826859436035156250e+02,-2.342532396316528320e+00,7.562139129638671875e+01,3.135763168334960938e+01
8.433169722557067871e-01,1.000000000000000000e+00,-4.148510742187500000e+01,3.472977828979492188e+01,3.393027496337890625e+01,9.695066070556640625e+01,9.929037475585937500e+01,-5.637274742126464844e+00,4.033146500587463379e-01,-6.666904449462890625e+01,-1.826858215332031250e+02,-2.342532396316528320e+00,7.562139129638671875e+01,3.135763168334960938e+01
8.483480215072631836e-01,1.000000000000000000e+00,-4.152816772460937500e+01,3.464590835571289062e+01,3.395247650146484375e+01,9.687349700927734375e+01,9.930913543701171875e+01,-5.663384437561035156e+00,4.033146500587463379e-01,-6.666896057128906250e+01,-1.826858215332031250e+02,-2.342532396316528320e+00,7.562139129638671875e+01,3.135763168334960938e+01
8.513470292091369629e-01,1.000000000000000000e+00,-4.157139968872070312e+01,3.456213378906250000e+01,3.397447967529296875e+01,9.679648590087890625e+01,9.932801055908203125e+01,-5.689697265625000000e+00,4.033146500587463379e-01,-6.666904449462890625e+01,-1.826858215332031250e+02,-2.342532396316528320e+00,7.562139129638671875e+01,3.135763168334960938e+01
8.578230142593383789e-01,1.000000000000000000e+00,-4.157139968872070312e+01,3.456213378906250000e+01,3.397447967529296875e+01,9.679648590087890625e+01,9.932801055908203125e+01,-5.689697265625000000e+00,4.033146500587463379e-01,-6.666904449462890625e+01,-1.826858215332031250e+02,-2.342532396316528320e+00,7.562146759033203125e+01,3.135763168334960938e+01
8.593149781227111816e-01,1.000000000000000000e+00,-4.165786743164062500e+01,3.439387893676757812e+01,3.401869964599609375e+01,9.664241027832031250e+01,9.936693572998046875e+01,-5.743272781372070312e+00,4.033146500587463379e-01,-6.666904449462890625e+01,-1.826858215332031250e+02,-2.342460393905639648e+00,7.562139129638671875e+01,3.135784912109375000e+01
8.643770217895507812e-01,1.000000000000000000e+00,-4.165786743164062500e+01,3.439387893676757812e+01,3.401869964599609375e+01,9.664241027832031250e+01,9.936693572998046875e+01,-5.743272781372070312e+00,4.033146500587463379e-01,-6.666904449462890625e+01,-1.826858215332031250e+02,-2.342460393905639648e+00,7.562139129638671875e+01,3.135784912109375000e+01
8.673139810562133789e-01,1.000000000000000000e+00,-4.174436187744140625e+01,3.422451782226562500e+01,3.406298065185546875e+01,9.648723602294921875e+01,9.940702819824218750e+01,-5.796102046966552734e+00,4.033146500587463379e-01,-6.666904449462890625e+01,-1.826858215332031250e+02,-2.342532396316528320e+00,7.562146759033203125e+01,3.135763168334960938e+01
8.713819980621337891e-01,1.000000000000000000e+00,-4.174436187744140625e+01,3.422451782226562500e+01,3.406298065185546875e+01,9.648723602294921875e+01,9.940702819824218750e+01,-5.796102046966552734e+00,4.033146500587463379e-01,-6.666904449462890625e+01,-1.826858215332031250e+02,-2.342532396316528320e+00,7.562146759033203125e+01,3.135763168334960938e+01
8.763790130615234375e-01,1.000000000000000000e+00,-4.178776550292968750e+01,3.413965606689453125e+01,3.408524703979492188e+01,9.640890502929687500e+01,9.942633056640625000e+01,-5.821329593658447266e+00,4.033146500587463379e-01,-6.666904449462890625e+01,-1.826858215332031250e+02,-2.342532396316528320e+00,7.562146759033203125e+01,3.135763168334960938e+01
8.797479867935180664e-01,1.000000000000000000e+00,-4.187488937377929688e+01,3.397124481201171875e+01,3.412993240356445312e+01,9.625441741943359375e+01,9.946391296386718750e+01,-5.873684406280517578e+00,4.033146500587463379e-01,-6.666904449462890625e+01,-1.826858215332031250e+02,-2.342532396316528320e+00,7.562139129638671875e+01,3.135763168334960938e+01
8.843910098075866699e-01,1.000000000000000000e+00,-4.191852569580078125e+01,3.388744354248046875e+01,3.415207672119140625e+01,9.617662048339843750e+01,9.948332214355468750e+01,-5.900472164154052734e+00,4.033146500587463379e-01,-6.666904449462890625e+01,-1.826858215332031250e+02,-2.342532396316528320e+00,7.562139129638671875e+01,3.135763168334960938e+01
8.878899812698364258e-01,1.000000000000000000e+00,-4.196215820312500000e+01,3.380332946777343750e+01,3.417413330078125000e+01,9.609876251220703125e+01,9.950273132324218750e+01,-5.927327632904052734e+00,4.033146500587463379e-01,-6.666904449462890625e+01,-1.826858215332031250e+02,-2.342532396316528320e+00,7.562146759033203125e+01,3.135740852355957031e+01
8.913199901580810547e-01,1.000000000000000000e+00,-4.200608062744140625e+01,3.371887588500976562e+01,3.419627761840820312e+01,9.602143859863281250e+01,9.952293395996093750e+01,-5.954047679901123047e+00,4.033146500587463379e-01,-6.666904449462890625e+01,-1.826858215332031250e+02,-2.342532396316528320e+00,7.562139129638671875e+01,3.135763168334960938e+01
8.953559994697570801e-01,1.000000000000000000e+00,-4.200608062744140625e+01,3.371887588500976562e+01,3.419627761840820312e+01,9.602143859863281250e+01,9.952293395996093750e+01,-5.954047679901123047e+00,4.033146500587463379e-01,-6.666904449462890625e+01,-1.826858215332031250e+02,-2.342532396316528320e+00,7.562139129638671875e+01,3.135763168334960938e+01
8.994359970092773438e-01,1.000000000000000000e+00,-4.205000305175781250e+01,3.363430786132812500e+01,3.421858215332031250e+01,9.594364166259765625e+01,9.954346466064453125e+01,-5.980224609375000000e+00,4.033146500587463379e-01,-6.666904449462890625e+01,-1.826858215332031250e+02,-2.342460393905639648e+00,7.562139129638671875e+01,3.135763168334960938e+01
9.033690094947814941e-01,1.000000000000000000e+00,-4.209409332275390625e+01,3.354915237426757812e+01,3.424104690551757812e+01,9.586562347412109375e+01,9.956340026855468750e+01,-6.005859851837158203e+00,4.033146500587463379e-01,-6.666904449462890625e+01,-1.826858215332031250e+02,-2.342532396316528320e+00,7.562139129638671875e+01,3.135763168334960938e+01
9.073569774627685547e-01,1.000000000000000000e+00,-4.213810348510742188e+01,3.346383666992187500e+01,3.426335144042968750e+01,9.578809356689453125e+01,9.958222198486328125e+01,-6.032104492187500000e+00,4.033146500587463379e-01,-6.666904449462890625e+01,-1.826858215332031250e+02,-2.342532396316528320e+00,7.562139129638671875e+01,3.135740852355957031e+01
9.114450216293334961e-01,1.000000000000000000e+00,-4.218210983276367188e+01,3.337883758544921875e+01,3.428567504882812500e+01,9.571018218994140625e+01,9.960120391845703125e+01,-6.058485507965087891e+00,4.033146500587463379e-01,-6.666904449462890625e+01,-1.826858215332031250e+02,-2.342603921890258789e+00,7.562139129638671875e+01,3.135763168334960938e+01
9.154000282287597656e-01,1.000000000000000000e+00,-4.222614669799804688e+01,3.329402160644531250e+01,3.430796051025390625e+01,9.563227844238281250e+01,9.962029266357421875e+01,-6.085611820220947266e+00,4.033146500587463379e-01,-6.666904449462890625e+01,-1.826858215332031250e+02,-2.342532396316528320e+00,7.562139129638671875e+01,3.135763168334960938e+01
9.193660020828247070e-01,1.000000000000000000e+00,-4.227044296264648438e+01,3.320965576171875000e+01,3.433034515380859375e+01,9.555358886718750000e+01,9.963937377929687500e+01,-6.112467288970947266e+00,4.033146500587463379e-01,-6.666904449462890625e+01,-1.826858215332031250e+02,-2.342532396316528320e+00,7.562139129638671875e+01,3.135763168334960938e+01
9.234259724617004395e-01,1.000000000000000000e+00,-4.231479644775390625e+01,3.312511062622070312e+01,3.435275268554687500e+01,9.547594451904296875e+01,9.965926361083984375e+01,-6.139458656311035156e+00,4.033146500587463379e-01,-6.666904449462890625e+01,-1.826858215332031250e+02,-2.342460393905639648e+00,7.562139129638671875e+01,3.135763168334960938e+01
9.273710250854492188e-01,1.000000000000000000e+00,-4.235911560058593750e+01,3.304045486450195312e+01,3.437497329711914062e+01,9.539762115478515625e+01,9.967968750000000000e+01,-6.165703773498535156e+00,4.033146500587463379e-01,-6.666904449462890625e+01,-1.826858215332031250e+02,-2.342532396316528320e+00,7.562146759033203125e+01,3.135763168334960938e+01
9.314039945602416992e-01,1.000000000000000000e+00,-4.240341186523437500e+01,3.295547866821289062e+01,3.439709091186523438e+01,9.531976318359375000e+01,9.969994354248046875e+01,-6.190931797027587891e+00,4.033146500587463379e-01,-6.666904449462890625e+01,-1.826858215332031250e+02,-2.342532396316528320e+00,7.562146759033203125e+01,3.135763168334960938e+01
9.357069730758666992e-01,1.000000000000000000e+00,-4.244776535034179688e+01,3.286980056762695312e+01,3.441945648193359375e+01,9.524133300781250000e+01,9.971935272216796875e+01,-6.217447757720947266e+00,4.033146500587463379e-01,-6.666904449462890625e+01,-1.826858215332031250e+02,-2.342532396316528320e+00,7.562139129638671875e+01,3.135740852355957031e+01
9.394180178642272949e-01,1.000000000000000000e+00,-4.249225997924804688e+01,3.278380584716796875e+01,3.444202804565429688e+01,9.516322326660156250e+01,9.973806762695312500e+01,-6.243828773498535156e+00,4.033146500587463379e-01,-6.666904449462890625e+01,-1.826858215332031250e+02,-2.342532396316528320e+00,7.562139129638671875e+01,3.135763168334960938e+01
9.433519840240478516e-01,1.000000000000000000e+00,-4.253649520874023438e+01,3.269799423217773438e+01,3.446463775634765625e+01,9.508515167236328125e+01,9.975757598876953125e+01,-6.270548820495605469e+00,4.033146500587463379e-01,-6.666904449462890625e+01,-1.826858215332031250e+02,-2.342532396316528320e+00,7.562146759033203125e+01,3.135763168334960938e+01
9.473770260810852051e-01,1.000000000000000000e+00,-4.258087921142578125e+01,3.261222839355468750e+01,3.448712539672851562e+01,9.500672149658203125e+01,9.977687835693359375e+01,-6.298081874847412109e+00,4.033146500587463379e-01,-6.666904449462890625e+01,-1.826858215332031250e+02,-2.342603921890258789e+00,7.562146759033203125e+01,3.135763168334960938e+01
9.514070153236389160e-01,1.000000000000000000e+00,-4.262517166137695312e+01,3.252695465087890625e+01,3.450932693481445312e+01,9.492865753173828125e+01,9.979660797119140625e+01,-6.325479984283447266e+00,4.033146500587463379e-01,-6.666904449462890625e+01,-1.826858215332031250e+02,-2.342460393905639648e+00,7.562139129638671875e+01,3.135740852355957031e+01
9.554299712181091309e-01,1.000000000000000000e+00,-4.266946792602539062e+01,3.244213867187500000e+01,3.453152847290039062e+01,9.485017395019531250e+01,9.981697082519531250e+01,-6.351725578308105469e+00,4.034245014190673828e-01,-6.666904449462890625e+01,-1.826858215332031250e+02,-2.342532396316528320e+00,7.562146759033203125e+01,3.135763168334960938e+01
9.606000185012817383e-01,1.000000000000000000e+00,-4.271358871459960938e+01,3.235714340209960938e+01,3.455391311645507812e+01,9.477222442626953125e+01,9.983755493164062500e+01,-6.377495765686035156e+00,4.033146500587463379e-01,-6.666904449462890625e+01,-1.826858215332031250e+02,-2.342532396316528320e+00,7.562139129638671875e+01,3.135784912109375000e+01
9.633579850196838379e-01,1.000000000000000000e+00,-4.280234909057617188e+01,3.218614959716796875e+01,3.459907150268554688e+01,9.461457061767578125e+01,9.987668609619140625e+01,-6.431206703186035156e+00,4.033146500587463379e-01,-6.666904449462890625e+01,-1.826858215332031250e+02,-2.342532396316528320e+00,7.562146759033203125e+01,3.135763168334960938e+01
9.673550128936767578e-01,1.000000000000000000e+00,-4.280234909057617188e+01,3.218614959716796875e+01,3.459907150268554688e+01,9.461457061767578125e+01,9.987668609619140625e+01,-6.431206703186035156e+00,4.033146500587463379e-01,-6.666904449462890625e+01,-1.826858215332031250e+02,-2.342532396316528320e+00,7.562146759033203125e+01,3.135763168334960938e+01
9.713829755783081055e-01,1.000000000000000000e+00,-4.284667205810546875e+01,3.210010910034179688e+01,3.462153625488281250e+01,9.453576660156250000e+01,9.989566802978515625e+01,-6.458129882812500000e+00,4.034245014190673828e-01,-6.666904449462890625e+01,-1.826858215332031250e+02,-2.342460393905639648e+00,7.562146759033203125e+01,3.135763168334960938e+01
9.754559993743896484e-01,1.000000000000000000e+00,-4.289079666137695312e+01,3.201377868652343750e+01,3.464392089843750000e+01,9.445728302001953125e+01,9.991496276855468750e+01,-6.485460281372070312e+00,4.033146500587463379e-01,-6.666904449462890625e+01,-1.826858215332031250e+02,-2.342460393905639648e+00,7.562146759033203125e+01,3.135763168334960938e+01
9.793580174446105957e-01,1.000000000000000000e+00,-4.293506240844726562e+01,3.192737770080566406e+01,3.466665267944335938e+01,9.437858581542968750e+01,9.993437957763671875e+01,-6.512451171875000000e+00,4.033146500587463379e-01,-6.666904449462890625e+01,-1.826858215332031250e+02,-2.342532396316528320e+00,7.562139129638671875e+01,3.135763168334960938e+01
9.840620160102844238e-01,1.000000000000000000e+00,-4.297938537597656250e+01,3.184158706665039062e+01,3.468926239013671875e+01,9.430020904541015625e+01,9.995463562011718750e+01,-6.538832187652587891e+00,4.033146500587463379e-01,-6.666904449462890625e+01,-1.826858215332031250e+02,-2.342603921890258789e+00,7.562139129638671875e+01,3.135763168334960938e+01
9.874290227890014648e-01,1.000000000000000000e+00,-4.302367782592773438e+01,3.175629615783691406e+01,3.471181106567382812e+01,9.422156524658203125e+01,9.997527313232421875e+01,-6.565009117126464844e+00,4.033146500587463379e-01,-6.666904449462890625e+01,-1.826858215332031250e+02,-2.342532396316528320e+00,7.562139129638671875e+01,3.135763168334960938e+01
9.913679957389831543e-01,1.000000000000000000e+00,-4.306800460815429688e+01,3.167079925537109375e+01,3.473423767089843750e+01,9.414234161376953125e+01,9.999552917480468750e+01,-6.591457843780517578e+00,4.033146500587463379e-01,-6.666904449462890625e+01,-1.826858215332031250e+02,-2.342603921890258789e+00,7.562139129638671875e+01,3.135740852355957031e+01
9.953719973564147949e-01,1.000000000000000000e+00,-4.311232376098632812e+01,3.158539390563964844e+01,3.475668334960937500e+01,9.406369781494140625e+01,1.000149383544921875e+02,-6.618720054626464844e+00,4.033146500587463379e-01,-6.666904449462890625e+01,-1.826858215332031250e+02,-2.342460393905639648e+00,7.562146759033203125e+01,3.135763168334960938e+01
9.996989965438842773e-01,1.000000000000000000e+00,-4.315665054321289062e+01,3.149976348876953125e+01,3.477953720092773438e+01,9.398464202880859375e+01,1.000338668823242188e+02,-6.646185874938964844e+00,4.033146500587463379e-01,-6.666904449462890625e+01,-1.826858215332031250e+02,-2.342532396316528320e+00,7.562146759033203125e+01,3.135763168334960938e+01
1.003358960151672363e+00,1.000000000000000000e+00,-4.320094299316406250e+01,3.141367912292480469e+01,3.480228805541992188e+01,9.390594482421875000e+01,1.000532684326171875e+02,-6.673855304718017578e+00,4.033146500587463379e-01,-6.666904449462890625e+01,-1.826858215332031250e+02,-2.342603921890258789e+00,7.562146759033203125e+01,3.135763168334960938e+01
1.008087038993835449e+00,1.000000000000000000e+00,-4.324538040161132812e+01,3.132705307006835938e+01,3.482497787475585938e+01,9.382630157470703125e+01,1.000731582641601562e+02,-6.700982093811035156e+00,4.033146500587463379e-01,-6.666904449462890625e+01,-1.826858215332031250e+02,-2.342460393905639648e+00,7.562139129638671875e+01,3.135763168334960938e+01
1.011419057846069336e+00,1.000000000000000000e+00,-4.328984832763671875e+01,3.124028778076171875e+01,3.484752655029296875e+01,9.374739074707031250e+01,1.000932617187500000e+02,-6.727633953094482422e+00,4.033146500587463379e-01,-6.666904449462890625e+01,-1.826858215332031250e+02,-2.342460393905639648e+00,7.562139129638671875e+01,3.135763168334960938e+01
1.015388011932373047e+00,1.000000000000000000e+00,-4.333423233032226562e+01,3.115370559692382812e+01,3.487001037597656250e+01,9.366785430908203125e+01,1.001139984130859375e+02,-6.753811359405517578e+00,4.033146500587463379e-01,-6.666904449462890625e+01,-1.826858215332031250e+02,-2.342532396316528320e+00,7.562139129638671875e+01,3.135763168334960938e+01
1.019356966018676758e+00,1.000000000000000000e+00,-4.337881088256835938e+01,3.106746482849121094e+01,3.489280319213867188e+01,9.358879852294921875e+01,1.001346893310546875e+02,-6.780327796936035156e+00,4.033146500587463379e-01,-6.666904449462890625e+01,-1.826858215332031250e+02,-2.342532396316528320e+00,7.562146759033203125e+01,3.135763168334960938e+01
1.023887038230895996e+00,1.000000000000000000e+00,-4.342353439331054688e+01,3.098174095153808594e+01,3.491559600830078125e+01,9.350972747802734375e+01,1.001545715332031250e+02,-6.807658195495605469e+00,4.033146500587463379e-01,-6.666904449462890625e+01,-1.826858215332031250e+02,-2.342532396316528320e+00,7.562139129638671875e+01,3.135763168334960938e+01
1.027356982231140137e+00,1.000000000000000000e+00,-4.346837615966796875e+01,3.089601898193359375e+01,3.493836975097656250e+01,9.343087768554687500e+01,1.001737136840820312e+02,-6.835327148437500000e+00,4.033146500587463379e-01,-6.666904449462890625e+01,-1.826858215332031250e+02,-2.342532396316528320e+00,7.562146759033203125e+01,3.135763168334960938e+01
1.032066941261291504e+00,1.000000000000000000e+00,-4.351335906982421875e+01,3.081000328063964844e+01,3.496103668212890625e+01,9.335128021240234375e+01,1.001929092407226562e+02,-6.862996578216552734e+00,4.033146500587463379e-01,-6.666904449462890625e+01,-1.826858215332031250e+02,-2.342532396316528320e+00,7.562139129638671875e+01,3.135763168334960938e+01
1.035449028015136719e+00,1.000000000000000000e+00,-4.355808639526367188e+01,3.072344398498535156e+01,3.498364639282226562e+01,9.327179718017578125e+01,1.002126312255859375e+02,-6.890123367309570312e+00,4.033146500587463379e-01,-6.666904449462890625e+01,-1.826858215332031250e+02,-2.342460393905639648e+00,7.562139129638671875e+01,3.135763168334960938e+01
1.039358019828796387e+00,1.000000000000000000e+00,-4.360292434692382812e+01,3.063663673400878906e+01,3.500641632080078125e+01,9.319263458251953125e+01,1.002326812744140625e+02,-6.916572093963623047e+00,4.033146500587463379e-01,-6.666904449462890625e+01,-1.826858215332031250e+02,-2.342532396316528320e+00,7.562139129638671875e+01,3.135763168334960938e+01
1.043352961540222168e+00,1.000000000000000000e+00,-4.364782333374023438e+01,3.054951095581054688e+01,3.502922821044921875e+01,9.311288452148437500e+01,1.002531585693359375e+02,-6.942749023437500000e+00,4.033146500587463379e-01,-6.666904449462890625e+01,-1.826858215332031250e+02,-2.342532396316528320e+00,7.562139129638671875e+01,3.135763168334960938e+01
1.048035025596618652e+00,1.000000000000000000e+00,-4.369280624389648438e+01,3.046215820312500000e+01,3.505195999145507812e+01,9.303366088867187500e+01,1.002740020751953125e+02,-6.969672203063964844e+00,4.033146500587463379e-01,-6.666904449462890625e+01,-1.826858215332031250e+02,-2.342532396316528320e+00,7.562139129638671875e+01,3.135763168334960938e+01
1.051442027091979980e+00,1.000000000000000000e+00,-4.373781967163085938e+01,3.037510108947753906e+01,3.507473373413085938e+01,9.295322418212890625e+01,1.002942581176757812e+02,-6.996799468994140625e+00,4.034245014190673828e-01,-6.666904449462890625e+01,-1.826858215332031250e+02,-2.342603921890258789e+00,7.562139129638671875e+01,3.135763168334960938e+01
1.056105971336364746e+00,1.000000000000000000e+00,-4.378309249877929688e+01,3.028865432739257812e+01,3.509744262695312500e+01,9.287411499023437500e+01,1.003137741088867188e+02,-7.024604320526123047e+00,4.033146500587463379e-01,-6.666904449462890625e+01,-1.826858215332031250e+02,-2.342532396316528320e+00,7.562146759033203125e+01,3.135740852355957031e+01
1.059432029724121094e+00,1.000000000000000000e+00,-4.382801818847656250e+01,3.020209693908691406e+01,3.512027740478515625e+01,9.279415130615234375e+01,1.003329696655273438e+02,-7.052002429962158203e+00,4.033146500587463379e-01,-6.666904449462890625e+01,-1.826858215332031250e+02,-2.342532396316528320e+00,7.562139129638671875e+01,3.135763168334960938e+01
1.063482999801635742e+00,1.000000000000000000e+00,-4.387316894531250000e+01,3.011580657958984375e+01,3.514310836791992188e+01,9.271440124511718750e+01,1.003528594970703125e+02,-7.079061031341552734e+00,4.034245014190673828e-01,-6.666904449462890625e+01,-1.826858215332031250e+02,-2.342532396316528320e+00,7.562139129638671875e+01,3.135763168334960938e+01
1.067435979843139648e+00,1.000000000000000000e+00,-4.391847229003906250e+01,3.002915573120117188e+01,3.516600036621093750e+01,9.263455200195312500e+01,1.003729019165039062e+02,-7.105577468872070312e+00,4.033146500587463379e-01,-6.666904449462890625e+01,-1.826858215332031250e+02,-2.342532396316528320e+00,7.562146759033203125e+01,3.135740852355957031e+01
1.072299957275390625e+00,1.000000000000000000e+00,-4.396368408203125000e+01,2.994200897216796875e+01,3.518852996826171875e+01,9.255485534667968750e+01,1.003933715820312500e+02,-7.132229804992675781e+00,4.033146500587463379e-01,-6.666904449462890625e+01,-1.826858215332031250e+02,-2.342532396316528320e+00,7.562139129638671875e+01,3.135763168334960938e+01
1.075567960739135742e+00,1.000000000000000000e+00,-4.400883865356445312e+01,2.985449790954589844e+01,3.521136474609375000e+01,9.247489166259765625e+01,1.004144363403320312e+02,-7.159220218658447266e+00,4.033146500587463379e-01,-6.666904449462890625e+01,-1.826858215332031250e+02,-2.342460393905639648e+00,7.562146759033203125e+01,3.135763168334960938e+01
1.080364942550659180e+00,1.000000000000000000e+00,-4.405396652221679688e+01,2.976678466796875000e+01,3.523429489135742188e+01,9.239477539062500000e+01,1.004351730346679688e+02,-7.186686515808105469e+00,4.033146500587463379e-01,-6.666904449462890625e+01,-1.826858215332031250e+02,-2.342532396316528320e+00,7.562139129638671875e+01,3.135763168334960938e+01
1.083757042884826660e+00,1.000000000000000000e+00,-4.409892272949218750e+01,2.967902755737304688e+01,3.525725173950195312e+01,9.231523895263671875e+01,1.004547424316406250e+02,-7.214491367340087891e+00,4.033146500587463379e-01,-6.666904449462890625e+01,-1.826858215332031250e+02,-2.342460393905639648e+00,7.562139129638671875e+01,3.135763168334960938e+01
1.088312029838562012e+00,1.000000000000000000e+00,-4.418920516967773438e+01,2.950493621826171875e+01,3.530316162109375000e+01,9.215468597412109375e+01,1.004937133789062500e+02,-7.269016265869140625e+00,4.033146500587463379e-01,-6.666904449462890625e+01,-1.826858215332031250e+02,-2.342460393905639648e+00,7.562139129638671875e+01,3.135784912109375000e+01
1.091668963432312012e+00,1.000000000000000000e+00,-4.418920516967773438e+01,2.950493621826171875e+01,3.530316162109375000e+01,9.215468597412109375e+01,1.004937133789062500e+02,-7.269016265869140625e+00,4.033146500587463379e-01,-6.666904449462890625e+01,-1.826858215332031250e+02,-2.342460393905639648e+00,7.562139129638671875e+01,3.135784912109375000e+01
1.096429944038391113e+00,1.000000000000000000e+00,-4.423430252075195312e+01,2.941839599609375000e+01,3.532615661621093750e+01,9.207420349121093750e+01,1.005134429931640625e+02,-7.295464515686035156e+00,4.033146500587463379e-01,-6.666904449462890625e+01,-1.826858215332031250e+02,-2.342532396316528320e+00,7.562139129638671875e+01,3.135763168334960938e+01
1.099787950515747070e+00,1.000000000000000000e+00,-4.427928543090820312e+01,2.933158874511718750e+01,3.534913253784179688e+01,9.199408721923828125e+01,1.005342407226562500e+02,-7.322319984436035156e+00,4.033146500587463379e-01,-6.666904449462890625e+01,-1.826859436035156250e+02,-2.342532396316528320e+00,7.562139129638671875e+01,3.135763168334960938e+01
1.104413032531738281e+00,1.000000000000000000e+00,-4.432432937622070312e+01,2.924444198608398438e+01,3.537192153930664062e+01,9.191413116455078125e+01,1.005555114746093750e+02,-7.349446773529052734e+00,4.033146500587463379e-01,-6.666904449462890625e+01,-1.826858215332031250e+02,-2.342532396316528320e+00,7.562139129638671875e+01,3.135763168334960938e+01
1.107789039611816406e+00,1.000000000000000000e+00,-4.436942672729492188e+01,2.915686607360839844e+01,3.539491653442382812e+01,9.183354187011718750e+01,1.005757675170898438e+02,-7.376912593841552734e+00,4.034245014190673828e-01,-6.666904449462890625e+01,-1.826858215332031250e+02,-2.342603921890258789e+00,7.562146759033203125e+01,3.135763168334960938e+01
1.111829996109008789e+00,1.000000000000000000e+00,-4.441452407836914062e+01,2.906887817382812500e+01,3.541785049438476562e+01,9.175336456298828125e+01,1.005957107543945312e+02,-7.404853343963623047e+00,4.033146500587463379e-01,-6.666904449462890625e+01,-1.826858215332031250e+02,-2.342532396316528320e+00,7.562139129638671875e+01,3.135763168334960938e+01
1.115641951560974121e+00,1.000000000000000000e+00,-4.445956802368164062e+01,2.898066711425781250e+01,3.544108963012695312e+01,9.167282867431640625e+01,1.006152801513671875e+02,-7.432793617248535156e+00,4.033146500587463379e-01,-6.666904449462890625e+01,-1.826858215332031250e+02,-2.342532396316528320e+00,7.562139129638671875e+01,3.135763168334960938e+01
