rpiRobotics/ARM-21-02-F-19-Robot-Motion-Program/data_performance_abb/curve_1/curve_pose_opt1/100L/realrobot/run_0.csv
timestamp,cmd_num,J1,J2,J3,J4,J5,J6
1.331000006757676601e-03,-1.000000000000000000e+00,-3.419811248779296875e+01,4.881522750854492188e+01,3.022747039794921875e+01,1.098924026489257812e+02,9.603807830810546875e+01,-1.239895343780517578e+00,4.033146500587463379e-01,-6.666896057128906250e+01,-1.826857147216796875e+02,-2.342532396316528320e+00,7.562146759033203125e+01,3.135740852355957031e+01
6.147000007331371307e-03,1.000000000000000000e+00,-3.419811248779296875e+01,4.881522750854492188e+01,3.022752761840820312e+01,1.098924026489257812e+02,9.603819274902343750e+01,-1.239827632904052734e+00,4.033146500587463379e-01,-6.666886138916015625e+01,-1.826857147216796875e+02,-2.342532396316528320e+00,7.562146759033203125e+01,3.135740852355957031e+01
9.947000071406364441e-03,1.000000000000000000e+00,-3.419811248779296875e+01,4.881522750854492188e+01,3.022752761840820312e+01,1.098924026489257812e+02,9.603819274902343750e+01,-1.239827632904052734e+00,4.033146500587463379e-01,-6.666886138916015625e+01,-1.826857147216796875e+02,-2.342532396316528320e+00,7.562139129638671875e+01,3.135763168334960938e+01
1.368699967861175537e-02,1.000000000000000000e+00,-3.419811248779296875e+01,4.881511306762695312e+01,3.022752761840820312e+01,1.098924026489257812e+02,9.603819274902343750e+01,-1.239895343780517578e+00,4.033146500587463379e-01,-6.666886138916015625e+01,-1.826857147216796875e+02,-2.342532396316528320e+00,7.562139129638671875e+01,3.135763168334960938e+01
3.807799890637397766e-02,1.000000000000000000e+00,-3.419811248779296875e+01,4.881515884399414062e+01,3.022752761840820312e+01,1.098924026489257812e+02,9.603807830810546875e+01,-1.239691972732543945e+00,4.033146500587463379e-01,-6.666904449462890625e+01,-1.826857147216796875e+02,-2.342603921890258789e+00,7.562146759033203125e+01,3.135740852355957031e+01
3.944399952888488770e-02,1.000000000000000000e+00,-3.419811248779296875e+01,4.881515884399414062e+01,3.022752761840820312e+01,1.098924026489257812e+02,9.603807830810546875e+01,-1.239691972732543945e+00,4.033146500587463379e-01,-6.666904449462890625e+01,-1.826857147216796875e+02,-2.342603921890258789e+00,7.562146759033203125e+01,3.135740852355957031e+01
4.201700165867805481e-02,1.000000000000000000e+00,-3.419811248779296875e+01,4.881515884399414062e+01,3.022752761840820312e+01,1.098924026489257812e+02,9.603807830810546875e+01,-1.239827632904052734e+00,4.033146500587463379e-01,-6.666896057128906250e+01,-1.826857147216796875e+02,-2.342532396316528320e+00,7.562146759033203125e+01,3.135740852355957031e+01
4.839799925684928894e-02,1.000000000000000000e+00,-3.419811248779296875e+01,4.881515884399414062e+01,3.022752761840820312e+01,1.098924026489257812e+02,9.603819274902343750e+01,-1.239827632904052734e+00,4.033146500587463379e-01,-6.666896057128906250e+01,-1.826857147216796875e+02,-2.342460393905639648e+00,7.562146759033203125e+01,3.135719108581542969e+01
5.084700137376785278e-02,1.000000000000000000e+00,-3.419820022583007812e+01,4.881515884399414062e+01,3.022752761840820312e+01,1.098924026489257812e+02,9.603807830810546875e+01,-1.239691972732543945e+00,4.033146500587463379e-01,-6.666886138916015625e+01,-1.826857147216796875e+02,-2.342532396316528320e+00,7.562146759033203125e+01,3.135763168334960938e+01
5.212299898266792297e-02,1.000000000000000000e+00,-3.419820022583007812e+01,4.881515884399414062e+01,3.022752761840820312e+01,1.098924026489257812e+02,9.603807830810546875e+01,-1.239691972732543945e+00,4.033146500587463379e-01,-6.666886138916015625e+01,-1.826857147216796875e+02,-2.342532396316528320e+00,7.562146759033203125e+01,3.135763168334960938e+01
5.542999878525733948e-02,1.000000000000000000e+00,-3.419820022583007812e+01,4.881511306762695312e+01,3.022752761840820312e+01,1.098922500610351562e+02,9.603807830810546875e+01,-1.239691972732543945e+00,4.033146500587463379e-01,-6.666896057128906250e+01,-1.826857147216796875e+02,-2.342532396316528320e+00,7.562146759033203125e+01,3.135763168334960938e+01
5.835700035095214844e-02,1.000000000000000000e+00,-3.419840240478515625e+01,4.881493377685546875e+01,3.022752761840820312e+01,1.098924026489257812e+02,9.603819274902343750e+01,-1.239827632904052734e+00,4.033146500587463379e-01,-6.666886138916015625e+01,-1.826857147216796875e+02,-2.342532396316528320e+00,7.562146759033203125e+01,3.135740852355957031e+01
6.190799921751022339e-02,1.000000000000000000e+00,-3.419888687133789062e+01,4.881425094604492188e+01,3.022752761840820312e+01,1.098924026489257812e+02,9.603819274902343750e+01,-1.239691972732543945e+00,4.033146500587463379e-01,-6.666896057128906250e+01,-1.826857147216796875e+02,-2.342603921890258789e+00,7.562146759033203125e+01,3.135763168334960938e+01
6.320100277662277222e-02,1.000000000000000000e+00,-3.419888687133789062e+01,4.881425094604492188e+01,3.022752761840820312e+01,1.098924026489257812e+02,9.603819274902343750e+01,-1.239691972732543945e+00,4.033146500587463379e-01,-6.666896057128906250e+01,-1.826857147216796875e+02,-2.342603921890258789e+00,7.562146759033203125e+01,3.135763168334960938e+01
6.577999889850616455e-02,1.000000000000000000e+00,-3.419888687133789062e+01,4.881425094604492188e+01,3.022752761840820312e+01,1.098924026489257812e+02,9.603819274902343750e+01,-1.239691972732543945e+00,4.033146500587463379e-01,-6.666896057128906250e+01,-1.826857147216796875e+02,-2.342603921890258789e+00,7.562146759033203125e+01,3.135763168334960938e+01
6.978199630975723267e-02,1.000000000000000000e+00,-3.419986343383789062e+01,4.881296539306640625e+01,3.022752761840820312e+01,1.098924026489257812e+02,9.603807830810546875e+01,-1.239827632904052734e+00,4.033146500587463379e-01,-6.666896057128906250e+01,-1.826857147216796875e+02,-2.342532396316528320e+00,7.562139129638671875e+01,3.135740852355957031e+01
7.111500203609466553e-02,1.000000000000000000e+00,-3.420170211791992188e+01,4.881063079833984375e+01,3.022752761840820312e+01,1.098922500610351562e+02,9.603807830810546875e+01,-1.239624023437500000e+00,4.033146500587463379e-01,-6.666896057128906250e+01,-1.826857147216796875e+02,-2.342532396316528320e+00,7.562146759033203125e+01,3.135740852355957031e+01
7.249400019645690918e-02,1.000000000000000000e+00,-3.420170211791992188e+01,4.881063079833984375e+01,3.022752761840820312e+01,1.098922500610351562e+02,9.603807830810546875e+01,-1.239624023437500000e+00,4.033146500587463379e-01,-6.666896057128906250e+01,-1.826857147216796875e+02,-2.342532396316528320e+00,7.562146759033203125e+01,3.135740852355957031e+01
7.567200064659118652e-02,1.000000000000000000e+00,-3.420411300659179688e+01,4.880710220336914062e+01,3.022752761840820312e+01,1.098922500610351562e+02,9.603819274902343750e+01,-1.239827632904052734e+00,4.033146500587463379e-01,-6.666896057128906250e+01,-1.826857147216796875e+02,-2.342747688293457031e+00,7.562139129638671875e+01,3.135719108581542969e+01
7.814700156450271606e-02,1.000000000000000000e+00,-3.420686721801757812e+01,4.880194473266601562e+01,3.022756958007812500e+01,1.098921432495117188e+02,9.603829956054687500e+01,-1.239895343780517578e+00,4.033146500587463379e-01,-6.666896057128906250e+01,-1.826857147216796875e+02,-2.342460393905639648e+00,7.562139129638671875e+01,3.135740852355957031e+01
8.059299737215042114e-02,1.000000000000000000e+00,-3.420686721801757812e+01,4.880194473266601562e+01,3.022756958007812500e+01,1.098921432495117188e+02,9.603829956054687500e+01,-1.239895343780517578e+00,4.033146500587463379e-01,-6.666896057128906250e+01,-1.826857147216796875e+02,-2.342460393905639648e+00,7.562139129638671875e+01,3.135740852355957031e+01
8.318699896335601807e-02,1.000000000000000000e+00,-3.421039962768554688e+01,4.879495239257812500e+01,3.022767257690429688e+01,1.098914642333984375e+02,9.603856658935546875e+01,-1.239895343780517578e+00,4.033146500587463379e-01,-6.666904449462890625e+01,-1.826857147216796875e+02,-2.342747688293457031e+00,7.562146759033203125e+01,3.135740852355957031e+01
8.664599806070327759e-02,1.000000000000000000e+00,-3.421039962768554688e+01,4.879495239257812500e+01,3.022767257690429688e+01,1.098914642333984375e+02,9.603856658935546875e+01,-1.239895343780517578e+00,4.033146500587463379e-01,-6.666904449462890625e+01,-1.826857147216796875e+02,-2.342747688293457031e+00,7.562146759033203125e+01,3.135740852355957031e+01
8.803799748420715332e-02,1.000000000000000000e+00,-3.421453475952148438e+01,4.878625869750976562e+01,3.022797584533691406e+01,1.098896179199218750e+02,9.603893280029296875e+01,-1.240031003952026367e+00,4.033146500587463379e-01,-6.666896057128906250e+01,-1.826857147216796875e+02,-2.342532396316528320e+00,7.562146759033203125e+01,3.135740852355957031e+01
9.150200337171554565e-02,1.000000000000000000e+00,-3.421944427490234375e+01,4.877587509155273438e+01,3.022860717773437500e+01,1.098855590820312500e+02,9.603963470458984375e+01,-1.240098714828491211e+00,4.033146500587463379e-01,-6.666896057128906250e+01,-1.826857147216796875e+02,-2.342460393905639648e+00,7.562139129638671875e+01,3.135740852355957031e+01
9.649900346994400024e-02,1.000000000000000000e+00,-3.421944427490234375e+01,4.877587509155273438e+01,3.022860717773437500e+01,1.098855590820312500e+02,9.603963470458984375e+01,-1.240098714828491211e+00,4.033146500587463379e-01,-6.666896057128906250e+01,-1.826857147216796875e+02,-2.342460393905639648e+00,7.562139129638671875e+01,3.135740852355957031e+01
9.969999641180038452e-02,1.000000000000000000e+00,-3.423293685913085938e+01,4.874855804443359375e+01,3.023106575012207031e+01,1.098719177246093750e+02,9.604277801513671875e+01,-1.242201209068298340e+00,4.033146500587463379e-01,-6.666896057128906250e+01,-1.826857147216796875e+02,-2.342460393905639648e+00,7.562146759033203125e+01,3.135763168334960938e+01
1.060819998383522034e-01,1.000000000000000000e+00,-3.423293685913085938e+01,4.874855804443359375e+01,3.023106575012207031e+01,1.098719177246093750e+02,9.604277801513671875e+01,-1.242201209068298340e+00,4.033146500587463379e-01,-6.666896057128906250e+01,-1.826857147216796875e+02,-2.342747688293457031e+00,7.562146759033203125e+01,3.135763168334960938e+01
1.076140031218528748e-01,1.000000000000000000e+00,-3.425168228149414062e+01,4.871094894409179688e+01,3.023606872558593750e+01,1.098499984741210938e+02,9.604821014404296875e+01,-1.250474810600280762e+00,4.033146500587463379e-01,-6.666896057128906250e+01,-1.826857147216796875e+02,-2.342532396316528320e+00,7.562139129638671875e+01,3.135740852355957031e+01
1.125070005655288696e-01,1.000000000000000000e+00,-3.425168228149414062e+01,4.871094894409179688e+01,3.023606872558593750e+01,1.098499984741210938e+02,9.604821014404296875e+01,-1.250474810600280762e+00,4.033146500587463379e-01,-6.666896057128906250e+01,-1.826857147216796875e+02,-2.342532396316528320e+00,7.562139129638671875e+01,3.135740852355957031e+01
1.155230030417442322e-01,1.000000000000000000e+00,-3.427570724487304688e+01,4.866301727294921875e+01,3.024475097656250000e+01,1.098154449462890625e+02,9.605690765380859375e+01,-1.261868119239807129e+00,4.033146500587463379e-01,-6.666896057128906250e+01,-1.826857147216796875e+02,-2.342603921890258789e+00,7.562146759033203125e+01,3.135719108581542969e+01
1.195620000362396240e-01,1.000000000000000000e+00,-3.427570724487304688e+01,4.866301727294921875e+01,3.024475097656250000e+01,1.098154449462890625e+02,9.605690765380859375e+01,-1.261868119239807129e+00,4.033146500587463379e-01,-6.666896057128906250e+01,-1.826857147216796875e+02,-2.342603921890258789e+00,7.562146759033203125e+01,3.135719108581542969e+01
1.235029995441436768e-01,1.000000000000000000e+00,-3.429023361206054688e+01,4.863466262817382812e+01,3.025097274780273438e+01,1.097935943603515625e+02,9.606255340576171875e+01,-1.269599080085754395e+00,4.033146500587463379e-01,-6.666896057128906250e+01,-1.826857147216796875e+02,-2.342460393905639648e+00,7.562139129638671875e+01,3.135740852355957031e+01
1.274989992380142212e-01,1.000000000000000000e+00,-3.430659484863281250e+01,4.860293579101562500e+01,3.025835227966308594e+01,1.097672576904296875e+02,9.606900787353515625e+01,-1.278890132904052734e+00,4.033146500587463379e-01,-6.666896057128906250e+01,-1.826857147216796875e+02,-2.342532396316528320e+00,7.562139129638671875e+01,3.135763168334960938e+01
1.314930021762847900e-01,1.000000000000000000e+00,-3.432448196411132812e+01,4.856776809692382812e+01,3.026673126220703125e+01,1.097361221313476562e+02,9.607662963867187500e+01,-1.289876341819763184e+00,4.033146500587463379e-01,-6.666896057128906250e+01,-1.826857147216796875e+02,-2.342603921890258789e+00,7.562146759033203125e+01,3.135740852355957031e+01
1.355820000171661377e-01,1.000000000000000000e+00,-3.434374237060546875e+01,4.852929687500000000e+01,3.027650833129882812e+01,1.096997756958007812e+02,9.608531951904296875e+01,-1.301744341850280762e+00,4.033146500587463379e-01,-6.666896057128906250e+01,-1.826857147216796875e+02,-2.342532396316528320e+00,7.562146759033203125e+01,3.135719108581542969e+01
1.394959986209869385e-01,1.000000000000000000e+00,-3.436458587646484375e+01,4.848734283447265625e+01,3.028779411315917969e+01,1.096599578857421875e+02,9.609475708007812500e+01,-1.315036416053771973e+00,4.033146500587463379e-01,-6.666896057128906250e+01,-1.826857147216796875e+02,-2.342747688293457031e+00,7.562146759033203125e+01,3.135740852355957031e+01
1.435119956731796265e-01,1.000000000000000000e+00,-3.438746643066406250e+01,4.844223785400390625e+01,3.030035781860351562e+01,1.096173934936523438e+02,9.610510253906250000e+01,-1.329684853553771973e+00,4.033146500587463379e-01,-6.666896057128906250e+01,-1.826857147216796875e+02,-2.342316627502441406e+00,7.562139129638671875e+01,3.135740852355957031e+01
1.475970000028610229e-01,1.000000000000000000e+00,-3.441215133666992188e+01,4.839379119873046875e+01,3.031430625915527344e+01,1.095701522827148438e+02,9.611651611328125000e+01,-1.345893025398254395e+00,4.033146500587463379e-01,-6.666896057128906250e+01,-1.826857147216796875e+02,-2.342603921890258789e+00,7.562146759033203125e+01,3.135763168334960938e+01
1.515029966831207275e-01,1.000000000000000000e+00,-3.443793106079101562e+01,4.834244537353515625e+01,3.032945251464843750e+01,1.095170516967773438e+02,9.612903594970703125e+01,-1.363254189491271973e+00,4.033146500587463379e-01,-6.666896057128906250e+01,-1.826857147216796875e+02,-2.342532396316528320e+00,7.562146759033203125e+01,3.135763168334960938e+01
1.555089950561523438e-01,1.000000000000000000e+00,-3.446531677246093750e+01,4.828837966918945312e+01,3.034549522399902344e+01,1.094616394042968750e+02,9.614247131347656250e+01,-1.381496906280517578e+00,4.033146500587463379e-01,-6.666896057128906250e+01,-1.826857147216796875e+02,-2.342316627502441406e+00,7.562146759033203125e+01,3.135763168334960938e+01
1.595759987831115723e-01,1.000000000000000000e+00,-3.449407958984375000e+01,4.823184967041015625e+01,3.036218833923339844e+01,1.094034881591796875e+02,9.615671539306640625e+01,-1.400892496109008789e+00,4.033146500587463379e-01,-6.666896057128906250e+01,-1.826857147216796875e+02,-2.342747688293457031e+00,7.562139129638671875e+01,3.135763168334960938e+01
1.635089963674545288e-01,1.000000000000000000e+00,-3.452419662475585938e+01,4.817251586914062500e+01,3.037942886352539062e+01,1.093428039550781250e+02,9.617233276367187500e+01,-1.421508908271789551e+00,4.033146500587463379e-01,-6.666896057128906250e+01,-1.826857147216796875e+02,-2.342316627502441406e+00,7.562146759033203125e+01,3.135740852355957031e+01
1.675029993057250977e-01,1.000000000000000000e+00,-3.455577087402343750e+01,4.811071395874023438e+01,3.039742279052734375e+01,1.092799148559570312e+02,9.618849182128906250e+01,-1.443345904350280762e+00,4.033146500587463379e-01,-6.666896057128906250e+01,-1.826857147216796875e+02,-2.342603921890258789e+00,7.562146759033203125e+01,3.135719108581542969e+01
1.715510040521621704e-01,1.000000000000000000e+00,-3.458869934082031250e+01,4.804689407348632812e+01,3.041610717773437500e+01,1.092141799926757812e+02,9.620458984375000000e+01,-1.465928912162780762e+00,4.033146500587463379e-01,-6.666896057128906250e+01,-1.826857147216796875e+02,-2.342603921890258789e+00,7.562146759033203125e+01,3.135740852355957031e+01
1.755540072917938232e-01,1.000000000000000000e+00,-3.462277221679687500e+01,4.798097610473632812e+01,3.043534088134765625e+01,1.091479644775390625e+02,9.622074890136718750e+01,-1.489054441452026367e+00,4.033146500587463379e-01,-6.666896057128906250e+01,-1.826857147216796875e+02,-2.342460393905639648e+00,7.562139129638671875e+01,3.135719108581542969e+01
1.795350015163421631e-01,1.000000000000000000e+00,-3.465762329101562500e+01,4.791328811645507812e+01,3.045488166809082031e+01,1.090798568725585938e+02,9.623716735839843750e+01,-1.512247800827026367e+00,4.033146500587463379e-01,-6.666896057128906250e+01,-1.826857147216796875e+02,-2.342819452285766602e+00,7.562146759033203125e+01,3.135719108581542969e+01
1.836279928684234619e-01,1.000000000000000000e+00,-3.469310760498046875e+01,4.784383773803710938e+01,3.047456359863281250e+01,1.090118026733398438e+02,9.625411987304687500e+01,-1.535169839859008789e+00,4.033146500587463379e-01,-6.666896057128906250e+01,-1.826857147216796875e+02,-2.342316627502441406e+00,7.562146759033203125e+01,3.135719108581542969e+01
1.875550001859664917e-01,1.000000000000000000e+00,-3.472959136962890625e+01,4.777239608764648438e+01,3.049426460266113281e+01,1.089423828125000000e+02,9.627102661132812500e+01,-1.558634519577026367e+00,4.033146500587463379e-01,-6.666896057128906250e+01,-1.826857147216796875e+02,-2.342603921890258789e+00,7.562139129638671875e+01,3.135697174072265625e+01
1.914909929037094116e-01,1.000000000000000000e+00,-3.476699447631835938e+01,4.769929885864257812e+01,3.051390457153320312e+01,1.088729019165039062e+02,9.628839874267578125e+01,-1.582302570343017578e+00,4.033146500587463379e-01,-6.666896057128906250e+01,-1.826857147216796875e+02,-2.342532396316528320e+00,7.562146759033203125e+01,3.135740852355957031e+01
1.955540031194686890e-01,1.000000000000000000e+00,-3.480520629882812500e+01,4.762480163574218750e+01,3.053380775451660156e+01,1.088024215698242188e+02,9.630620574951171875e+01,-1.605970621109008789e+00,4.033146500587463379e-01,-6.666904449462890625e+01,-1.826857147216796875e+02,-2.342316627502441406e+00,7.562146759033203125e+01,3.135740852355957031e+01
1.995249986648559570e-01,1.000000000000000000e+00,-3.484395980834960938e+01,4.754928970336914062e+01,3.055393600463867188e+01,1.087322616577148438e+02,9.632465362548828125e+01,-1.630113482475280762e+00,4.033146500587463379e-01,-6.666896057128906250e+01,-1.826857147216796875e+02,-2.342747688293457031e+00,7.562146759033203125e+01,3.135740852355957031e+01
2.034949958324432373e-01,1.000000000000000000e+00,-3.488351821899414062e+01,4.747302246093750000e+01,3.057412719726562500e+01,1.086619949340820312e+02,9.634289550781250000e+01,-1.655002236366271973e+00,4.033146500587463379e-01,-6.666896057128906250e+01,-1.826857147216796875e+02,-2.342460393905639648e+00,7.562146759033203125e+01,3.135763168334960938e+01
2.082370072603225708e-01,1.000000000000000000e+00,-3.492353439331054688e+01,4.739662551879882812e+01,3.059425544738769531e+01,1.085918350219726562e+02,9.636080932617187500e+01,-1.679348468780517578e+00,4.033146500587463379e-01,-6.666886138916015625e+01,-1.826857147216796875e+02,-2.342532396316528320e+00,7.562146759033203125e+01,3.135740852355957031e+01
2.115589976310729980e-01,1.000000000000000000e+00,-3.496380996704101562e+01,4.732027053833007812e+01,3.061424064636230469e+01,1.085211410522460938e+02,9.637813568115234375e+01,-1.703152179718017578e+00,4.033146500587463379e-01,-6.666896057128906250e+01,-1.826857147216796875e+02,-2.342603921890258789e+00,7.562146759033203125e+01,3.135763168334960938e+01
2.154950052499771118e-01,1.000000000000000000e+00,-3.500382995605468750e+01,4.724391555786132812e+01,3.063412666320800781e+01,1.084504013061523438e+02,9.639546203613281250e+01,-1.726413369178771973e+00,4.033146500587463379e-01,-6.666896057128906250e+01,-1.826857147216796875e+02,-2.342316627502441406e+00,7.562139129638671875e+01,3.135740852355957031e+01
2.196719944477081299e-01,1.000000000000000000e+00,-3.504430389404296875e+01,4.716731643676757812e+01,3.065398788452148438e+01,1.083798141479492188e+02,9.641284179687500000e+01,-1.749878048896789551e+00,4.033146500587463379e-01,-6.666896057128906250e+01,-1.826857147216796875e+02,-2.342819452285766602e+00,7.562139129638671875e+01,3.135763168334960938e+01
2.235250025987625122e-01,1.000000000000000000e+00,-3.508520889282226562e+01,4.709051132202148438e+01,3.067419815063476562e+01,1.083093414306640625e+02,9.643043518066406250e+01,-1.774156332015991211e+00,4.033146500587463379e-01,-6.666896057128906250e+01,-1.826857147216796875e+02,-2.342316627502441406e+00,7.562160491943359375e+01,3.135763168334960938e+01
2.275220006704330444e-01,1.000000000000000000e+00,-3.512569046020507812e+01,4.701381683349609375e+01,3.069441032409667969e+01,1.082389755249023438e+02,9.644819641113281250e+01,-1.798027873039245605e+00,4.033146500587463379e-01,-6.666904449462890625e+01,-1.826857147216796875e+02,-2.342532396316528320e+00,7.562146759033203125e+01,3.135763168334960938e+01
2.329040020704269409e-01,1.000000000000000000e+00,-3.516596221923828125e+01,4.693694305419921875e+01,3.071457862854003906e+01,1.081683349609375000e+02,9.646685028076171875e+01,-1.822374105453491211e+00,4.033146500587463379e-01,-6.666896057128906250e+01,-1.826857147216796875e+02,-2.342747688293457031e+00,7.562146759033203125e+01,3.135719108581542969e+01
2.357659935951232910e-01,1.000000000000000000e+00,-3.524642944335937500e+01,4.678312683105468750e+01,3.075475502014160156e+01,1.080267410278320312e+02,9.650321197509765625e+01,-1.872151613235473633e+00,4.033146500587463379e-01,-6.666896057128906250e+01,-1.826857147216796875e+02,-2.342819452285766602e+00,7.562146759033203125e+01,3.135740852355957031e+01
2.395049929618835449e-01,1.000000000000000000e+00,-3.524642944335937500e+01,4.678312683105468750e+01,3.075475502014160156e+01,1.080267410278320312e+02,9.650321197509765625e+01,-1.872151613235473633e+00,4.033146500587463379e-01,-6.666896057128906250e+01,-1.826857147216796875e+02,-2.342819452285766602e+00,7.562146759033203125e+01,3.135740852355957031e+01
2.439260035753250122e-01,1.000000000000000000e+00,-3.528647613525390625e+01,4.670679855346679688e+01,3.077516555786132812e+01,1.079561080932617188e+02,9.652059173583984375e+01,-1.896091103553771973e+00,4.033146500587463379e-01,-6.666896057128906250e+01,-1.826857147216796875e+02,-2.342460393905639648e+00,7.562146759033203125e+01,3.135763168334960938e+01
2.475730031728744507e-01,1.000000000000000000e+00,-3.532669448852539062e+01,4.663028717041015625e+01,3.079572105407714844e+01,1.078853683471679688e+02,9.653818511962890625e+01,-1.919691324234008789e+00,4.033146500587463379e-01,-6.666896057128906250e+01,-1.826857147216796875e+02,-2.342460393905639648e+00,7.562139129638671875e+01,3.135740852355957031e+01
2.519730031490325928e-01,1.000000000000000000e+00,-3.540666961669921875e+01,4.647728347778320312e+01,3.083638572692871094e+01,1.077432556152343750e+02,9.657337951660156250e+01,-1.967637896537780762e+00,4.033146500587463379e-01,-6.666896057128906250e+01,-1.826857147216796875e+02,-2.342316627502441406e+00,7.562146759033203125e+01,3.135763168334960938e+01
2.554939985275268555e-01,1.000000000000000000e+00,-3.540666961669921875e+01,4.647728347778320312e+01,3.083638572692871094e+01,1.077432556152343750e+02,9.657337951660156250e+01,-1.967637896537780762e+00,4.033146500587463379e-01,-6.666896057128906250e+01,-1.826857147216796875e+02,-2.342316627502441406e+00,7.562146759033203125e+01,3.135763168334960938e+01
2.595680058002471924e-01,1.000000000000000000e+00,-3.544657135009765625e+01,4.640084075927734375e+01,3.085651397705078125e+01,1.076720962524414062e+02,9.659145355224609375e+01,-1.991644978523254395e+00,4.033146500587463379e-01,-6.666896057128906250e+01,-1.826857147216796875e+02,-2.342603921890258789e+00,7.562146759033203125e+01,3.135740852355957031e+01
2.635050117969512939e-01,1.000000000000000000e+00,-3.548656082153320312e+01,4.632444000244140625e+01,3.087670326232910156e+01,1.076011428833007812e+02,9.660984039306640625e+01,-2.016126871109008789e+00,4.033146500587463379e-01,-6.666896057128906250e+01,-1.826857147216796875e+02,-2.342532396316528320e+00,7.562160491943359375e+01,3.135719108581542969e+01
2.680929899215698242e-01,1.000000000000000000e+00,-3.552614593505859375e+01,4.624752044677734375e+01,3.089734077453613281e+01,1.075298690795898438e+02,9.662866973876953125e+01,-2.041558265686035156e+00,4.033146500587463379e-01,-6.666896057128906250e+01,-1.826857147216796875e+02,-2.342460393905639648e+00,7.562146759033203125e+01,3.135719108581542969e+01
2.716169953346252441e-01,1.000000000000000000e+00,-3.556581878662109375e+01,4.617042160034179688e+01,3.091789627075195312e+01,1.074585494995117188e+02,9.664701080322265625e+01,-2.065972328186035156e+00,4.033146500587463379e-01,-6.666886138916015625e+01,-1.826855621337890625e+02,-2.342747688293457031e+00,7.562146759033203125e+01,3.135763168334960938e+01
2.755450010299682617e-01,1.000000000000000000e+00,-3.560532379150390625e+01,4.609302902221679688e+01,3.093836975097656250e+01,1.073875961303710938e+02,9.666439056396484375e+01,-2.089572668075561523e+00,4.033146500587463379e-01,-6.666896057128906250e+01,-1.826857147216796875e+02,-2.342460393905639648e+00,7.562146759033203125e+01,3.135763168334960938e+01
2.796129882335662842e-01,1.000000000000000000e+00,-3.564485168457031250e+01,4.601560974121093750e+01,3.095876121520996094e+01,1.073164901733398438e+02,9.668182373046875000e+01,-2.113444089889526367e+00,4.033146500587463379e-01,-6.666896057128906250e+01,-1.826857147216796875e+02,-2.342747688293457031e+00,7.562146759033203125e+01,3.135763168334960938e+01
2.837960124015808105e-01,1.000000000000000000e+00,-3.568423843383789062e+01,4.593842315673828125e+01,3.097903442382812500e+01,1.072458038330078125e+02,9.669925689697265625e+01,-2.137722492218017578e+00,4.033146500587463379e-01,-6.666896057128906250e+01,-1.826857147216796875e+02,-2.342532396316528320e+00,7.562146759033203125e+01,3.135740852355957031e+01
2.876780033111572266e-01,1.000000000000000000e+00,-3.572347640991210938e+01,4.586152267456054688e+01,3.099936676025390625e+01,1.071743240356445312e+02,9.671685028076171875e+01,-2.161729812622070312e+00,4.033146500587463379e-01,-6.666896057128906250e+01,-1.826855621337890625e+02,-2.342460393905639648e+00,7.562139129638671875e+01,3.135740852355957031e+01
2.922140061855316162e-01,1.000000000000000000e+00,-3.576286315917968750e+01,4.578471755981445312e+01,3.101990127563476562e+01,1.071029510498046875e+02,9.673487091064453125e+01,-2.186482667922973633e+00,4.033146500587463379e-01,-6.666896057128906250e+01,-1.826857147216796875e+02,-2.342747688293457031e+00,7.562146759033203125e+01,3.135740852355957031e+01
2.958190143108367920e-01,1.000000000000000000e+00,-3.580202102661132812e+01,4.570748138427734375e+01,3.104027366638183594e+01,1.070317840576171875e+02,9.675342559814453125e+01,-2.211507320404052734e+00,4.033146500587463379e-01,-6.666896057128906250e+01,-1.826857147216796875e+02,-2.342316627502441406e+00,7.562146759033203125e+01,3.135740852355957031e+01
2.996920049190521240e-01,1.000000000000000000e+00,-3.584120559692382812e+01,4.562999725341796875e+01,3.106056594848632812e+01,1.069607315063476562e+02,9.677214050292968750e+01,-2.236056804656982422e+00,4.033146500587463379e-01,-6.666904449462890625e+01,-1.826857147216796875e+02,-2.342603921890258789e+00,7.562146759033203125e+01,3.135719108581542969e+01
3.037360012531280518e-01,1.000000000000000000e+00,-3.588050460815429688e+01,4.555208206176757812e+01,3.108095741271972656e+01,1.068888854980468750e+02,9.679037475585937500e+01,-2.260538816452026367e+00,4.033146500587463379e-01,-6.666896057128906250e+01,-1.826857147216796875e+02,-2.342532396316528320e+00,7.562146759033203125e+01,3.135719108581542969e+01
3.079249858856201172e-01,1.000000000000000000e+00,-3.592012405395507812e+01,4.547405624389648438e+01,3.110149192810058594e+01,1.068173522949218750e+02,9.680812835693359375e+01,-2.284410476684570312e+00,4.033146500587463379e-01,-6.666904449462890625e+01,-1.826857147216796875e+02,-2.342316627502441406e+00,7.562146759033203125e+01,3.135697174072265625e+01
3.117170035839080811e-01,1.000000000000000000e+00,-3.595973587036132812e+01,4.539593887329101562e+01,3.112210845947265625e+01,1.067455062866210938e+02,9.682561492919921875e+01,-2.308349847793579102e+00,4.033146500587463379e-01,-6.666896057128906250e+01,-1.826855621337890625e+02,-2.342747688293457031e+00,7.562139129638671875e+01,3.135697174072265625e+01
3.164449930191040039e-01,1.000000000000000000e+00,-3.599943923950195312e+01,4.531786346435546875e+01,3.114266395568847656e+01,1.066744995117187500e+02,9.684320831298828125e+01,-2.332560300827026367e+00,4.033146500587463379e-01,-6.666896057128906250e+01,-1.826857147216796875e+02,-2.342532396316528320e+00,7.562146759033203125e+01,3.135719108581542969e+01
3.199479877948760986e-01,1.000000000000000000e+00,-3.603934097290039062e+01,4.524019622802734375e+01,3.116309738159179688e+01,1.066028594970703125e+02,9.686096191406250000e+01,-2.356974363327026367e+00,4.033146500587463379e-01,-6.666896057128906250e+01,-1.826857147216796875e+02,-2.342603921890258789e+00,7.562139129638671875e+01,3.135740852355957031e+01
3.238590061664581299e-01,1.000000000000000000e+00,-3.607912826538085938e+01,4.516221618652343750e+01,3.118334770202636719e+01,1.065309066772460938e+02,9.687925720214843750e+01,-2.381795406341552734e+00,4.033146500587463379e-01,-6.666896057128906250e+01,-1.826857147216796875e+02,-2.342603921890258789e+00,7.562146759033203125e+01,3.135740852355957031e+01
3.281410038471221924e-01,1.000000000000000000e+00,-3.611920166015625000e+01,4.508423233032226562e+01,3.120382118225097656e+01,1.064590148925781250e+02,9.689770507812500000e+01,-2.406887531280517578e+00,4.033146500587463379e-01,-6.666896057128906250e+01,-1.826857147216796875e+02,-2.342316627502441406e+00,7.562139129638671875e+01,3.135763168334960938e+01
3.321230113506317139e-01,1.000000000000000000e+00,-3.615950775146484375e+01,4.500616073608398438e+01,3.122425460815429688e+01,1.063881072998046875e+02,9.691678619384765625e+01,-2.431572914123535156e+00,4.033146500587463379e-01,-6.666896057128906250e+01,-1.826857147216796875e+02,-2.342819452285766602e+00,7.562139129638671875e+01,3.135740852355957031e+01
3.359000086784362793e-01,1.000000000000000000e+00,-3.619966888427734375e+01,4.492815399169921875e+01,3.124471092224121094e+01,1.063163681030273438e+02,9.693513488769531250e+01,-2.455512046813964844e+00,4.033146500587463379e-01,-6.666886138916015625e+01,-1.826857147216796875e+02,-2.342460393905639648e+00,7.562146759033203125e+01,3.135763168334960938e+01
3.406409919261932373e-01,1.000000000000000000e+00,-3.624005889892578125e+01,4.485007858276367188e+01,3.126524543762207031e+01,1.062444686889648438e+02,9.695304107666015625e+01,-2.479519367218017578e+00,4.033146500587463379e-01,-6.666896057128906250e+01,-1.826857147216796875e+02,-2.342460393905639648e+00,7.562146759033203125e+01,3.135740852355957031e+01
3.441460132598876953e-01,1.000000000000000000e+00,-3.628070831298828125e+01,4.477178192138671875e+01,3.128596115112304688e+01,1.061725082397460938e+02,9.697058868408203125e+01,-2.503458738327026367e+00,4.033146500587463379e-01,-6.666896057128906250e+01,-1.826857147216796875e+02,-2.342819452285766602e+00,7.562146759033203125e+01,3.135740852355957031e+01
3.481689989566802979e-01,1.000000000000000000e+00,-3.632144165039062500e+01,4.469345855712890625e+01,3.130643463134765625e+01,1.061010360717773438e+02,9.698807525634765625e+01,-2.527601718902587891e+00,4.033146500587463379e-01,-6.666896057128906250e+01,-1.826857147216796875e+02,-2.342316627502441406e+00,7.562139129638671875e+01,3.135763168334960938e+01
3.519270122051239014e-01,1.000000000000000000e+00,-3.636223220825195312e+01,4.461508941650390625e+01,3.132713508605957031e+01,1.060292434692382812e+02,9.700598907470703125e+01,-2.552083253860473633e+00,4.033146500587463379e-01,-6.666896057128906250e+01,-1.826857147216796875e+02,-2.342603921890258789e+00,7.562146759033203125e+01,3.135740852355957031e+01
3.562510013580322266e-01,1.000000000000000000e+00,-3.640308380126953125e+01,4.453693008422851562e+01,3.134787368774414062e+01,1.059568710327148438e+02,9.702384948730468750e+01,-2.577039957046508789e+00,4.033146500587463379e-01,-6.666896057128906250e+01,-1.826857147216796875e+02,-2.342532396316528320e+00,7.562146759033203125e+01,3.135740852355957031e+01
3.602130115032196045e-01,1.000000000000000000e+00,-3.644396209716796875e+01,4.445867156982421875e+01,3.136840820312500000e+01,1.058845977783203125e+02,9.704239654541015625e+01,-2.601996660232543945e+00,4.033146500587463379e-01,-6.666896057128906250e+01,-1.826857147216796875e+02,-2.342316627502441406e+00,7.562146759033203125e+01,3.135719108581542969e+01
3.649060130119323730e-01,1.000000000000000000e+00,-3.648507308959960938e+01,4.438069152832031250e+01,3.138892364501953125e+01,1.058128051757812500e+02,9.706137847900390625e+01,-2.626817464828491211e+00,4.033146500587463379e-01,-6.666896057128906250e+01,-1.826857147216796875e+02,-2.342747688293457031e+00,7.562146759033203125e+01,3.135740852355957031e+01
3.685910105705261230e-01,1.000000000000000000e+00,-3.652635192871093750e+01,4.430286407470703125e+01,3.140956115722656250e+01,1.057409057617187500e+02,9.707988739013671875e+01,-2.650417804718017578e+00,4.033146500587463379e-01,-6.666896057128906250e+01,-1.826857147216796875e+02,-2.342316627502441406e+00,7.562160491943359375e+01,3.135719108581542969e+01
3.723610043525695801e-01,1.000000000000000000e+00,-3.656745910644531250e+01,4.422483825683593750e+01,3.143027687072753906e+01,1.056688461303710938e+02,9.709763336181640625e+01,-2.674492835998535156e+00,4.033146500587463379e-01,-6.666896057128906250e+01,-1.826857147216796875e+02,-2.342532396316528320e+00,7.562146759033203125e+01,3.135719108581542969e+01
3.771510124206542969e-01,1.000000000000000000e+00,-3.660859680175781250e+01,4.414667510986328125e+01,3.145121765136718750e+01,1.055965805053710938e+02,9.711517333984375000e+01,-2.698906898498535156e+00,4.033146500587463379e-01,-6.666896057128906250e+01,-1.826857147216796875e+02,-2.342603921890258789e+00,7.562160491943359375e+01,3.135719108581542969e+01
3.804360032081604004e-01,1.000000000000000000e+00,-3.664970779418945312e+01,4.406832885742187500e+01,3.147195816040039062e+01,1.055248336791992188e+02,9.713309478759765625e+01,-2.723185300827026367e+00,4.033146500587463379e-01,-6.666896057128906250e+01,-1.826857147216796875e+02,-2.342460393905639648e+00,7.562139129638671875e+01,3.135740852355957031e+01
3.843509852886199951e-01,1.000000000000000000e+00,-3.669089889526367188e+01,4.398991394042968750e+01,3.149253463745117188e+01,1.054527740478515625e+02,9.715089416503906250e+01,-2.748006343841552734e+00,4.033146500587463379e-01,-6.666896057128906250e+01,-1.826857147216796875e+02,-2.342747688293457031e+00,7.562139129638671875e+01,3.135763168334960938e+01
3.890649974346160889e-01,1.000000000000000000e+00,-3.673183441162109375e+01,4.391114425659179688e+01,3.151310920715332031e+01,1.053805084228515625e+02,9.716908264160156250e+01,-2.773437500000000000e+00,4.033146500587463379e-01,-6.666896057128906250e+01,-1.826857147216796875e+02,-2.342316627502441406e+00,7.562146759033203125e+01,3.135740852355957031e+01
3.925409913063049316e-01,1.000000000000000000e+00,-3.677274322509765625e+01,4.383227920532226562e+01,3.153382873535156250e+01,1.053081893920898438e+02,9.718773651123046875e+01,-2.798394203186035156e+00,4.033146500587463379e-01,-6.666886138916015625e+01,-1.826857147216796875e+02,-2.342532396316528320e+00,7.562146759033203125e+01,3.135719108581542969e+01
3.965370059013366699e-01,1.000000000000000000e+00,-3.681396484375000000e+01,4.375368499755859375e+01,3.155462646484375000e+01,1.052362365722656250e+02,9.720677185058593750e+01,-2.822333335876464844e+00,4.033146500587463379e-01,-6.666896057128906250e+01,-1.826857147216796875e+02,-2.342532396316528320e+00,7.562139129638671875e+01,3.135740852355957031e+01
4.011299908161163330e-01,1.000000000000000000e+00,-3.685504531860351562e+01,4.367524719238281250e+01,3.157554817199707031e+01,1.051638565063476562e+02,9.722528076171875000e+01,-2.845662593841552734e+00,4.033146500587463379e-01,-6.666896057128906250e+01,-1.826857147216796875e+02,-2.342316627502441406e+00,7.562146759033203125e+01,3.135719108581542969e+01
4.046449959278106689e-01,1.000000000000000000e+00,-3.689580917358398438e+01,4.359712982177734375e+01,3.159628868103027344e+01,1.050916442871093750e+02,9.724356079101562500e+01,-2.869805335998535156e+00,4.033146500587463379e-01,-6.666896057128906250e+01,-1.826857147216796875e+02,-2.342747688293457031e+00,7.562146759033203125e+01,3.135719108581542969e+01
4.086250066757202148e-01,1.000000000000000000e+00,-3.693668746948242188e+01,4.351866912841796875e+01,3.161694335937500000e+01,1.050186843872070312e+02,9.726110076904296875e+01,-2.894558429718017578e+00,4.033146500587463379e-01,-6.666896057128906250e+01,-1.826857147216796875e+02,-2.342460393905639648e+00,7.562139129638671875e+01,3.135719108581542969e+01
4.131230115890502930e-01,1.000000000000000000e+00,-3.697750854492187500e+01,4.344023513793945312e+01,3.163766288757324219e+01,1.049466323852539062e+02,9.727890777587890625e+01,-2.919379234313964844e+00,4.033146500587463379e-01,-6.666896057128906250e+01,-1.826857147216796875e+02,-2.342532396316528320e+00,7.562146759033203125e+01,3.135740852355957031e+01
4.167340099811553955e-01,1.000000000000000000e+00,-3.701861572265625000e+01,4.336155319213867188e+01,3.165847969055175781e+01,1.048740005493164062e+02,9.729650115966796875e+01,-2.944607257843017578e+00,4.033146500587463379e-01,-6.666896057128906250e+01,-1.826857147216796875e+02,-2.342532396316528320e+00,7.562146759033203125e+01,3.135740852355957031e+01
4.206680059432983398e-01,1.000000000000000000e+00,-3.705946731567382812e+01,4.328237152099609375e+01,3.167944526672363281e+01,1.048016738891601562e+02,9.731474304199218750e+01,-2.969970703125000000e+00,4.033146500587463379e-01,-6.666896057128906250e+01,-1.826857147216796875e+02,-2.342532396316528320e+00,7.562139129638671875e+01,3.135740852355957031e+01
4.247539937496185303e-01,1.000000000000000000e+00,-3.710028839111328125e+01,4.320293807983398438e+01,3.170026397705078125e+01,1.047291412353515625e+02,9.733334350585937500e+01,-2.994588375091552734e+00,4.033146500587463379e-01,-6.666896057128906250e+01,-1.826855621337890625e+02,-2.342603921890258789e+00,7.562146759033203125e+01,3.135740852355957031e+01
4.288060069084167480e-01,1.000000000000000000e+00,-3.714093780517578125e+01,4.312346267700195312e+01,3.172092247009277344e+01,1.046568756103515625e+02,9.735237884521484375e+01,-3.018527746200561523e+00,4.033146500587463379e-01,-6.666896057128906250e+01,-1.826857147216796875e+02,-2.342460393905639648e+00,7.562146759033203125e+01,3.135740852355957031e+01
4.327070116996765137e-01,1.000000000000000000e+00,-3.718169784545898438e+01,4.304407882690429688e+01,3.174167823791503906e+01,1.045842361450195312e+02,9.737109375000000000e+01,-3.043009519577026367e+00,4.033146500587463379e-01,-6.666896057128906250e+01,-1.826857147216796875e+02,-2.342603921890258789e+00,7.562146759033203125e+01,3.135740852355957031e+01
4.371080100536346436e-01,1.000000000000000000e+00,-3.722231674194335938e+01,4.296498489379882812e+01,3.176256179809570312e+01,1.045113372802734375e+02,9.738911437988281250e+01,-3.067627191543579102e+00,4.033146500587463379e-01,-6.666896057128906250e+01,-1.826857147216796875e+02,-2.342532396316528320e+00,7.562146759033203125e+01,3.135740852355957031e+01
4.394550025463104248e-01,1.000000000000000000e+00,-3.726311111450195312e+01,4.288611984252929688e+01,3.178356170654296875e+01,1.044387969970703125e+02,9.740665435791015625e+01,-3.092108964920043945e+00,4.033146500587463379e-01,-6.666896057128906250e+01,-1.826857147216796875e+02,-2.342316627502441406e+00,7.562146759033203125e+01,3.135719108581542969e+01
4.434520006179809570e-01,1.000000000000000000e+00,-3.730413436889648438e+01,4.280750274658203125e+01,3.180452728271484375e+01,1.043661651611328125e+02,9.742451477050781250e+01,-3.116997718811035156e+00,4.033146500587463379e-01,-6.666896057128906250e+01,-1.826857147216796875e+02,-2.342603921890258789e+00,7.562146759033203125e+01,3.135740852355957031e+01
4.474909901618957520e-01,1.000000000000000000e+00,-3.734495544433593750e+01,4.272861480712890625e+01,3.182526397705078125e+01,1.042934722900390625e+02,9.744269561767578125e+01,-3.142361164093017578e+00,4.033146500587463379e-01,-6.666886138916015625e+01,-1.826857147216796875e+02,-2.342460393905639648e+00,7.562146759033203125e+01,3.135697174072265625e+01
4.514429867267608643e-01,1.000000000000000000e+00,-3.738589096069335938e+01,4.264925384521484375e+01,3.184585952758789062e+01,1.042204666137695312e+02,9.746099090576171875e+01,-3.167656898498535156e+00,4.033146500587463379e-01,-6.666896057128906250e+01,-1.826857147216796875e+02,-2.342532396316528320e+00,7.562146759033203125e+01,3.135740852355957031e+01
4.554519951343536377e-01,1.000000000000000000e+00,-3.742673873901367188e+01,4.256966400146484375e+01,3.186660003662109375e+01,1.041475143432617188e+02,9.747953796386718750e+01,-3.192274332046508789e+00,4.033146500587463379e-01,-6.666896057128906250e+01,-1.826857147216796875e+02,-2.342532396316528320e+00,7.562139129638671875e+01,3.135740852355957031e+01
4.594390094280242920e-01,1.000000000000000000e+00,-3.746784973144531250e+01,4.249011993408203125e+01,3.188758277893066406e+01,1.040743560791015625e+02,9.749884033203125000e+01,-3.216213703155517578e+00,4.033146500587463379e-01,-6.666896057128906250e+01,-1.826857147216796875e+02,-2.342532396316528320e+00,7.562146759033203125e+01,3.135740852355957031e+01
4.634810090065002441e-01,1.000000000000000000e+00,-3.750892639160156250e+01,4.241032409667968750e+01,3.190866279602050781e+01,1.040012893676757812e+02,9.751765441894531250e+01,-3.240831375122070312e+00,4.033146500587463379e-01,-6.666896057128906250e+01,-1.826857147216796875e+02,-2.342532396316528320e+00,7.562160491943359375e+01,3.135740852355957031e+01
4.674659967422485352e-01,1.000000000000000000e+00,-3.755012130737304688e+01,4.233030700683593750e+01,3.192978858947753906e+01,1.039283370971679688e+02,9.753562927246093750e+01,-3.265720129013061523e+00,4.033146500587463379e-01,-6.666896057128906250e+01,-1.826857147216796875e+02,-2.342532396316528320e+00,7.562139129638671875e+01,3.135763168334960938e+01
4.714570045471191406e-01,1.000000000000000000e+00,-3.759128952026367188e+01,4.225073623657226562e+01,3.195079231262207031e+01,1.038556976318359375e+02,9.755322265625000000e+01,-3.290540933609008789e+00,4.033146500587463379e-01,-6.666896057128906250e+01,-1.826858215332031250e+02,-2.342603921890258789e+00,7.562146759033203125e+01,3.135740852355957031e+01
4.755010008811950684e-01,1.000000000000000000e+00,-3.763251113891601562e+01,4.217144393920898438e+01,3.197153282165527344e+01,1.037826461791992188e+02,9.757113647460937500e+01,-3.315904378890991211e+00,4.033146500587463379e-01,-6.666886138916015625e+01,-1.826857147216796875e+02,-2.342532396316528320e+00,7.562139129638671875e+01,3.135740852355957031e+01
4.794749915599822998e-01,1.000000000000000000e+00,-3.767378997802734375e+01,4.209226226806640625e+01,3.199239158630371094e+01,1.037096328735351562e+02,9.758915710449218750e+01,-3.341607093811035156e+00,4.033146500587463379e-01,-6.666896057128906250e+01,-1.826857147216796875e+02,-2.342532396316528320e+00,7.562146759033203125e+01,3.135763168334960938e+01
4.834310114383697510e-01,1.000000000000000000e+00,-3.771492767333984375e+01,4.201310348510742188e+01,3.201347732543945312e+01,1.036364669799804688e+02,9.760749816894531250e+01,-3.366563796997070312e+00,4.033146500587463379e-01,-6.666896057128906250e+01,-1.826857147216796875e+02,-2.342532396316528320e+00,7.562146759033203125e+01,3.135763168334960938e+01
4.875380098819732666e-01,1.000000000000000000e+00,-3.775635528564453125e+01,4.193355941772460938e+01,3.203450012207031250e+01,1.035633621215820312e+02,9.762615966796875000e+01,-3.391045570373535156e+00,4.033146500587463379e-01,-6.666896057128906250e+01,-1.826857147216796875e+02,-2.342603921890258789e+00,7.562146759033203125e+01,3.135740852355957031e+01
4.914509952068328857e-01,1.000000000000000000e+00,-3.779797744750976562e+01,4.185376358032226562e+01,3.205554199218750000e+01,1.034901962280273438e+02,9.764556884765625000e+01,-3.415256261825561523e+00,4.033146500587463379e-01,-6.666896057128906250e+01,-1.826857147216796875e+02,-2.342532396316528320e+00,7.562146759033203125e+01,3.135719108581542969e+01
4.955449998378753662e-01,1.000000000000000000e+00,-3.783942794799804688e+01,4.177351760864257812e+01,3.207644271850585938e+01,1.034168701171875000e+02,9.766438293457031250e+01,-3.439738035202026367e+00,4.033146500587463379e-01,-6.666896057128906250e+01,-1.826857147216796875e+02,-2.342603921890258789e+00,7.562146759033203125e+01,3.135740852355957031e+01
4.995290040969848633e-01,1.000000000000000000e+00,-3.788096618652343750e+01,4.169309234619140625e+01,3.209744644165039062e+01,1.033430786132812500e+02,9.768224334716796875e+01,-3.464965820312500000e+00,4.033146500587463379e-01,-6.666896057128906250e+01,-1.826857147216796875e+02,-2.342532396316528320e+00,7.562146759033203125e+01,3.135740852355957031e+01
5.034859776496887207e-01,1.000000000000000000e+00,-3.792239379882812500e+01,4.161280059814453125e+01,3.211873245239257812e+01,1.032696990966796875e+02,9.770021820068359375e+01,-3.490261554718017578e+00,4.033146500587463379e-01,-6.666896057128906250e+01,-1.826857147216796875e+02,-2.342460393905639648e+00,7.562139129638671875e+01,3.135763168334960938e+01
5.074710249900817871e-01,1.000000000000000000e+00,-3.796398925781250000e+01,4.153255844116210938e+01,3.213999938964843750e+01,1.031963806152343750e+02,9.771828460693359375e+01,-3.516031980514526367e+00,4.033146500587463379e-01,-6.666896057128906250e+01,-1.826857147216796875e+02,-2.342532396316528320e+00,7.562160491943359375e+01,3.135740852355957031e+01
5.118589997291564941e-01,1.000000000000000000e+00,-3.800538253784179688e+01,4.145276260375976562e+01,3.216112518310546875e+01,1.031229476928710938e+02,9.773652648925781250e+01,-3.541260004043579102e+00,4.033146500587463379e-01,-6.666896057128906250e+01,-1.826857147216796875e+02,-2.342532396316528320e+00,7.562146759033203125e+01,3.135719108581542969e+01
5.154539942741394043e-01,1.000000000000000000e+00,-3.804692459106445312e+01,4.137344360351562500e+01,3.218202590942382812e+01,1.030493698120117188e+02,9.775497436523437500e+01,-3.565606117248535156e+00,4.033146500587463379e-01,-6.666896057128906250e+01,-1.826857147216796875e+02,-2.342460393905639648e+00,7.562160491943359375e+01,3.135740852355957031e+01
5.194360017776489258e-01,1.000000000000000000e+00,-3.808852005004882812e+01,4.129396820068359375e+01,3.220290756225585938e+01,1.029759368896484375e+02,9.777384185791015625e+01,-3.590223550796508789e+00,4.033146500587463379e-01,-6.666896057128906250e+01,-1.826857147216796875e+02,-2.342603921890258789e+00,7.562146759033203125e+01,3.135763168334960938e+01
5.235080122947692871e-01,1.000000000000000000e+00,-3.813003158569335938e+01,4.121397399902343750e+01,3.222401046752929688e+01,1.029025115966796875e+02,9.779335784912109375e+01,-3.614840984344482422e+00,4.033146500587463379e-01,-6.666896057128906250e+01,-1.826857147216796875e+02,-2.342532396316528320e+00,7.562146759033203125e+01,3.135763168334960938e+01
5.274400115013122559e-01,1.000000000000000000e+00,-3.817159652709960938e+01,4.113368225097656250e+01,3.224531936645507812e+01,1.028287658691406250e+02,9.781207275390625000e+01,-3.639729738235473633e+00,4.033146500587463379e-01,-6.666896057128906250e+01,-1.826857147216796875e+02,-2.342532396316528320e+00,7.562139129638671875e+01,3.135740852355957031e+01
5.314729809761047363e-01,1.000000000000000000e+00,-3.821313476562500000e+01,4.105332565307617188e+01,3.226658630371093750e+01,1.027549209594726562e+02,9.782998657226562500e+01,-3.664822101593017578e+00,4.033146500587463379e-01,-6.666896057128906250e+01,-1.826857147216796875e+02,-2.342532396316528320e+00,7.562139129638671875e+01,3.135719108581542969e+01
5.354949831962585449e-01,1.000000000000000000e+00,-3.825461578369140625e+01,4.097253417968750000e+01,3.228785324096679688e+01,1.026813812255859375e+02,9.784779357910156250e+01,-3.690253496170043945e+00,4.033146500587463379e-01,-6.666886138916015625e+01,-1.826857147216796875e+02,-2.342532396316528320e+00,7.562139129638671875e+01,3.135763168334960938e+01
5.394449830055236816e-01,1.000000000000000000e+00,-3.829615402221679688e+01,4.089163208007812500e+01,3.230897903442382812e+01,1.026076965332031250e+02,9.786592102050781250e+01,-3.716091632843017578e+00,4.033146500587463379e-01,-6.666896057128906250e+01,-1.826857147216796875e+02,-2.342460393905639648e+00,7.562146759033203125e+01,3.135719108581542969e+01
5.434299707412719727e-01,1.000000000000000000e+00,-3.833772277832031250e+01,4.081095504760742188e+01,3.233010482788085938e+01,1.025338973999023438e+02,9.788416290283203125e+01,-3.741116285324096680e+00,4.033146500587463379e-01,-6.666896057128906250e+01,-1.826857147216796875e+02,-2.342532396316528320e+00,7.562146759033203125e+01,3.135719108581542969e+01
5.475670099258422852e-01,1.000000000000000000e+00,-3.837931823730468750e+01,4.073057174682617188e+01,3.235136795043945312e+01,1.024593582153320312e+02,9.790244293212890625e+01,-3.765598058700561523e+00,4.033146500587463379e-01,-6.666896057128906250e+01,-1.826857147216796875e+02,-2.342532396316528320e+00,7.562146759033203125e+01,3.135740852355957031e+01
5.514349937438964844e-01,1.000000000000000000e+00,-3.842071151733398438e+01,4.065073394775390625e+01,3.237253570556640625e+01,1.023857269287109375e+02,9.792142486572265625e+01,-3.789876461029052734e+00,4.033146500587463379e-01,-6.666904449462890625e+01,-1.826855621337890625e+02,-2.342532396316528320e+00,7.562139129638671875e+01,3.135740852355957031e+01
5.554620027542114258e-01,1.000000000000000000e+00,-3.846205139160156250e+01,4.057053375244140625e+01,3.239351654052734375e+01,1.023116073608398438e+02,9.794082641601562500e+01,-3.815036296844482422e+00,4.033146500587463379e-01,-6.666896057128906250e+01,-1.826857147216796875e+02,-2.342603921890258789e+00,7.562146759033203125e+01,3.135740852355957031e+01
5.595139861106872559e-01,1.000000000000000000e+00,-3.850353240966796875e+01,4.049010848999023438e+01,3.241468048095703125e+01,1.022380294799804688e+02,9.795992279052734375e+01,-3.839993000030517578e+00,4.033146500587463379e-01,-6.666896057128906250e+01,-1.826857147216796875e+02,-2.342460393905639648e+00,7.562146759033203125e+01,3.135763168334960938e+01
5.634620189666748047e-01,1.000000000000000000e+00,-3.854501342773437500e+01,4.040963745117187500e+01,3.243586730957031250e+01,1.021639709472656250e+02,9.797772979736328125e+01,-3.865424394607543945e+00,4.033146500587463379e-01,-6.666896057128906250e+01,-1.826857147216796875e+02,-2.342532396316528320e+00,7.562146759033203125e+01,3.135740852355957031e+01
5.685049891471862793e-01,1.000000000000000000e+00,-3.854501342773437500e+01,4.040963745117187500e+01,3.243586730957031250e+01,1.021639709472656250e+02,9.797772979736328125e+01,-3.865424394607543945e+00,4.033146500587463379e-01,-6.666896057128906250e+01,-1.826857147216796875e+02,-2.342532396316528320e+00,7.562146759033203125e+01,3.135740852355957031e+01
5.722550153732299805e-01,1.000000000000000000e+00,-3.862777709960937500e+01,4.024756240844726562e+01,3.247860336303710938e+01,1.020159530639648438e+02,9.801403808593750000e+01,-3.916897535324096680e+00,4.033146500587463379e-01,-6.666896057128906250e+01,-1.826857147216796875e+02,-2.342603921890258789e+00,7.562139129638671875e+01,3.135740852355957031e+01
5.754569768905639648e-01,1.000000000000000000e+00,-3.866922760009765625e+01,4.016625213623046875e+01,3.249987411499023438e+01,1.019421615600585938e+02,9.803263854980468750e+01,-3.941379070281982422e+00,4.033146500587463379e-01,-6.666896057128906250e+01,-1.826857147216796875e+02,-2.342532396316528320e+00,7.562146759033203125e+01,3.135719108581542969e+01
5.819730162620544434e-01,1.000000000000000000e+00,-3.866922760009765625e+01,4.016625213623046875e+01,3.249987411499023438e+01,1.019421615600585938e+02,9.803263854980468750e+01,-3.941379070281982422e+00,4.033146500587463379e-01,-6.666904449462890625e+01,-1.826855621337890625e+02,-2.342460393905639648e+00,7.562146759033203125e+01,3.135740852355957031e+01
5.834410190582275391e-01,1.000000000000000000e+00,-3.875253677368164062e+01,4.000395202636718750e+01,3.254224395751953125e+01,1.017939834594726562e+02,9.807054901123046875e+01,-3.990749835968017578e+00,4.033146500587463379e-01,-6.666896057128906250e+01,-1.826857147216796875e+02,-2.342532396316528320e+00,7.562160491943359375e+01,3.135719108581542969e+01
5.875049829483032227e-01,1.000000000000000000e+00,-3.879401779174804688e+01,3.992350006103515625e+01,3.256359481811523438e+01,1.017196655273437500e+02,9.809011840820312500e+01,-4.015638351440429688e+00,4.033146500587463379e-01,-6.666896057128906250e+01,-1.826857147216796875e+02,-2.342532396316528320e+00,7.562139129638671875e+01,3.135719108581542969e+01
5.924530029296875000e-01,1.000000000000000000e+00,-3.879401779174804688e+01,3.992350006103515625e+01,3.256359481811523438e+01,1.017196655273437500e+02,9.809011840820312500e+01,-4.015638351440429688e+00,4.033146500587463379e-01,-6.666896057128906250e+01,-1.826857147216796875e+02,-2.342532396316528320e+00,7.562139129638671875e+01,3.135719108581542969e+01
5.957310199737548828e-01,1.000000000000000000e+00,-3.887744140625000000e+01,3.976264572143554688e+01,3.260617065429687500e+01,1.015703277587890625e+02,9.812711334228515625e+01,-4.067043781280517578e+00,4.033146500587463379e-01,-6.666896057128906250e+01,-1.826857147216796875e+02,-2.342603921890258789e+00,7.562146759033203125e+01,3.135740852355957031e+01
5.995129942893981934e-01,1.000000000000000000e+00,-3.891938018798828125e+01,3.968161010742187500e+01,3.262747573852539062e+01,1.014964294433593750e+02,9.814514160156250000e+01,-4.093017578125000000e+00,4.033146500587463379e-01,-6.666904449462890625e+01,-1.826855621337890625e+02,-2.342532396316528320e+00,7.562160491943359375e+01,3.135763168334960938e+01
6.034799814224243164e-01,1.000000000000000000e+00,-3.891938018798828125e+01,3.968161010742187500e+01,3.262747573852539062e+01,1.014964294433593750e+02,9.814514160156250000e+01,-4.093017578125000000e+00,4.033146500587463379e-01,-6.666904449462890625e+01,-1.826855621337890625e+02,-2.342532396316528320e+00,7.562160491943359375e+01,3.135763168334960938e+01
6.074900031089782715e-01,1.000000000000000000e+00,-3.896100616455078125e+01,3.960034561157226562e+01,3.264884567260742188e+01,1.014217910766601562e+02,9.816316223144531250e+01,-4.118313312530517578e+00,4.033146500587463379e-01,-6.666896057128906250e+01,-1.826857147216796875e+02,-2.342603921890258789e+00,7.562146759033203125e+01,3.135763168334960938e+01
6.115549802780151367e-01,1.000000000000000000e+00,-3.900329208374023438e+01,3.951898956298828125e+01,3.267031478881835938e+01,1.013474655151367188e+02,9.818187713623046875e+01,-4.142998695373535156e+00,4.033146500587463379e-01,-6.666896057128906250e+01,-1.826855621337890625e+02,-2.342460393905639648e+00,7.562146759033203125e+01,3.135763168334960938e+01
6.154779791831970215e-01,1.000000000000000000e+00,-3.904528808593750000e+01,3.943743515014648438e+01,3.269174575805664062e+01,1.012728805541992188e+02,9.820069885253906250e+01,-4.167684078216552734e+00,4.033146500587463379e-01,-6.666896057128906250e+01,-1.826857147216796875e+02,-2.342603921890258789e+00,7.562146759033203125e+01,3.135740852355957031e+01
6.198269724845886230e-01,1.000000000000000000e+00,-3.908760070800781250e+01,3.935583114624023438e+01,3.271309280395507812e+01,1.011987686157226562e+02,9.822021484375000000e+01,-4.192912101745605469e+00,4.033146500587463379e-01,-6.666896057128906250e+01,-1.826858215332031250e+02,-2.342532396316528320e+00,7.562146759033203125e+01,3.135740852355957031e+01
6.269530057907104492e-01,1.000000000000000000e+00,-3.917203140258789062e+01,3.919377899169921875e+01,3.275582885742187500e+01,1.010492248535156250e+02,9.825838470458984375e+01,-4.244113445281982422e+00,4.033146500587463379e-01,-6.666896057128906250e+01,-1.826857147216796875e+02,-2.342532396316528320e+00,7.562146759033203125e+01,3.135719108581542969e+01
6.284130215644836426e-01,1.000000000000000000e+00,-3.921442794799804688e+01,3.911269378662109375e+01,3.277736282348632812e+01,1.009749603271484375e+02,9.827629089355468750e+01,-4.269951820373535156e+00,4.033146500587463379e-01,-6.666904449462890625e+01,-1.826857147216796875e+02,-2.342532396316528320e+00,7.562139129638671875e+01,3.135740852355957031e+01
6.314319968223571777e-01,1.000000000000000000e+00,-3.925685882568359375e+01,3.903163146972656250e+01,3.279893493652343750e+01,1.009000015258789062e+02,9.829463958740234375e+01,-4.295518875122070312e+00,4.034245014190673828e-01,-6.666896057128906250e+01,-1.826857147216796875e+02,-2.342532396316528320e+00,7.562146759033203125e+01,3.135763168334960938e+01
6.355509757995605469e-01,1.000000000000000000e+00,-3.925685882568359375e+01,3.903163146972656250e+01,3.279893493652343750e+01,1.009000015258789062e+02,9.829463958740234375e+01,-4.295518875122070312e+00,4.034245014190673828e-01,-6.666896057128906250e+01,-1.826857147216796875e+02,-2.342532396316528320e+00,7.562146759033203125e+01,3.135763168334960938e+01
6.394990086555480957e-01,1.000000000000000000e+00,-3.929928588867187500e+01,3.895030212402343750e+01,3.282024002075195312e+01,1.008253631591796875e+02,9.831303405761718750e+01,-4.320475578308105469e+00,4.033146500587463379e-01,-6.666896057128906250e+01,-1.826857147216796875e+02,-2.342532396316528320e+00,7.562139129638671875e+01,3.135740852355957031e+01
6.441860198974609375e-01,1.000000000000000000e+00,-3.934188842773437500e+01,3.886867523193359375e+01,3.284156799316406250e+01,1.007500915527343750e+02,9.833196258544921875e+01,-4.345635414123535156e+00,4.033146500587463379e-01,-6.666896057128906250e+01,-1.826857147216796875e+02,-2.342532396316528320e+00,7.562160491943359375e+01,3.135763168334960938e+01
6.475849747657775879e-01,1.000000000000000000e+00,-3.942691421508789062e+01,3.870465469360351562e+01,3.288451004028320312e+01,1.005999755859375000e+02,9.837071990966796875e+01,-4.396430015563964844e+00,4.033146500587463379e-01,-6.666896057128906250e+01,-1.826857147216796875e+02,-2.342603921890258789e+00,7.562146759033203125e+01,3.135740852355957031e+01
6.514999866485595703e-01,1.000000000000000000e+00,-3.942691421508789062e+01,3.870465469360351562e+01,3.288451004028320312e+01,1.005999755859375000e+02,9.837071990966796875e+01,-4.396430015563964844e+00,4.033146500587463379e-01,-6.666896057128906250e+01,-1.826857147216796875e+02,-2.342603921890258789e+00,7.562146759033203125e+01,3.135740852355957031e+01
6.554840207099914551e-01,1.000000000000000000e+00,-3.946945953369140625e+01,3.862257385253906250e+01,3.290620040893554688e+01,1.005254364013671875e+02,9.839044952392578125e+01,-4.422336101531982422e+00,4.033146500587463379e-01,-6.666896057128906250e+01,-1.826857147216796875e+02,-2.342460393905639648e+00,7.562146759033203125e+01,3.135740852355957031e+01
6.595479846000671387e-01,1.000000000000000000e+00,-3.951206207275390625e+01,3.854067993164062500e+01,3.292773437500000000e+01,1.004502716064453125e+02,9.840889739990234375e+01,-4.448648929595947266e+00,4.033146500587463379e-01,-6.666896057128906250e+01,-1.826857147216796875e+02,-2.342603921890258789e+00,7.562146759033203125e+01,3.135740852355957031e+01
6.635180115699768066e-01,1.000000000000000000e+00,-3.955454635620117188e+01,3.845920944213867188e+01,3.294922637939453125e+01,1.003756790161132812e+02,9.842729187011718750e+01,-4.474690914154052734e+00,4.033146500587463379e-01,-6.666896057128906250e+01,-1.826857147216796875e+02,-2.342532396316528320e+00,7.562146759033203125e+01,3.135740852355957031e+01
6.681799888610839844e-01,1.000000000000000000e+00,-3.959700393676757812e+01,3.837789916992187500e+01,3.297059249877929688e+01,1.003001022338867188e+02,9.844541931152343750e+01,-4.499783039093017578e+00,4.033146500587463379e-01,-6.666896057128906250e+01,-1.826857147216796875e+02,-2.342532396316528320e+00,7.562146759033203125e+01,3.135763168334960938e+01
6.724420189857482910e-01,1.000000000000000000e+00,-3.968223571777343750e+01,3.821451187133789062e+01,3.301388168334960938e+01,1.001499252319335938e+02,9.848321533203125000e+01,-4.550035476684570312e+00,4.033146500587463379e-01,-6.666896057128906250e+01,-1.826857147216796875e+02,-2.342603921890258789e+00,7.562146759033203125e+01,3.135763168334960938e+01
6.756799817085266113e-01,1.000000000000000000e+00,-3.972489166259765625e+01,3.813245391845703125e+01,3.303541183471679688e+01,1.000755538940429688e+02,9.850251770019531250e+01,-4.575602054595947266e+00,4.033146500587463379e-01,-6.666896057128906250e+01,-1.826857147216796875e+02,-2.342603921890258789e+00,7.562146759033203125e+01,3.135740852355957031e+01
6.795070171356201172e-01,1.000000000000000000e+00,-3.972489166259765625e+01,3.813245391845703125e+01,3.303541183471679688e+01,1.000755538940429688e+02,9.850251770019531250e+01,-4.575602054595947266e+00,4.033146500587463379e-01,-6.666896057128906250e+01,-1.826857147216796875e+02,-2.342603921890258789e+00,7.562146759033203125e+01,3.135740852355957031e+01
6.835240125656127930e-01,1.000000000000000000e+00,-3.976760864257812500e+01,3.805022048950195312e+01,3.305673980712890625e+01,9.999943542480468750e+01,9.852235412597656250e+01,-4.601508140563964844e+00,4.033146500587463379e-01,-6.666896057128906250e+01,-1.826857147216796875e+02,-2.342460393905639648e+00,7.562146759033203125e+01,3.135740852355957031e+01
6.874740123748779297e-01,1.000000000000000000e+00,-3.981009674072265625e+01,3.796777725219726562e+01,3.307823181152343750e+01,9.992411041259765625e+01,9.854170227050781250e+01,-4.627820968627929688e+00,4.033146500587463379e-01,-6.666896057128906250e+01,-1.826857147216796875e+02,-2.342603921890258789e+00,7.562139129638671875e+01,3.135719108581542969e+01
6.922349929809570312e-01,1.000000000000000000e+00,-3.985243606567382812e+01,3.788510894775390625e+01,3.309998321533203125e+01,9.984825897216796875e+01,9.856037139892578125e+01,-4.654066562652587891e+00,4.033146500587463379e-01,-6.666896057128906250e+01,-1.826857147216796875e+02,-2.342532396316528320e+00,7.562146759033203125e+01,3.135740852355957031e+01
6.964650154113769531e-01,1.000000000000000000e+00,-3.989492416381835938e+01,3.780298614501953125e+01,3.312184143066406250e+01,9.977356719970703125e+01,9.857865142822265625e+01,-4.679362297058105469e+00,4.033146500587463379e-01,-6.666896057128906250e+01,-1.826857147216796875e+02,-2.342532396316528320e+00,7.562139129638671875e+01,3.135763168334960938e+01
7.014629840850830078e-01,1.000000000000000000e+00,-3.993758010864257812e+01,3.772117996215820312e+01,3.314355850219726562e+01,9.969771575927734375e+01,9.859747314453125000e+01,-4.704115390777587891e+00,4.033146500587463379e-01,-6.666896057128906250e+01,-1.826857147216796875e+02,-2.342603921890258789e+00,7.562146759033203125e+01,3.135763168334960938e+01
7.040269970893859863e-01,1.000000000000000000e+00,-4.002264022827148438e+01,3.755720138549804688e+01,3.318639755249023438e+01,9.954643249511718750e+01,9.863554382324218750e+01,-4.754638671875000000e+00,4.033146500587463379e-01,-6.666896057128906250e+01,-1.826857147216796875e+02,-2.342532396316528320e+00,7.562146759033203125e+01,3.135740852355957031e+01
7.069650292396545410e-01,1.000000000000000000e+00,-4.002264022827148438e+01,3.755720138549804688e+01,3.318639755249023438e+01,9.954643249511718750e+01,9.863554382324218750e+01,-4.754638671875000000e+00,4.033146500587463379e-01,-6.666896057128906250e+01,-1.826857147216796875e+02,-2.342532396316528320e+00,7.562146759033203125e+01,3.135740852355957031e+01
7.115139961242675781e-01,1.000000000000000000e+00,-4.006498336791992188e+01,3.747503662109375000e+01,3.320795059204101562e+01,9.947132110595703125e+01,9.865531921386718750e+01,-4.780748367309570312e+00,4.033146500587463379e-01,-6.666896057128906250e+01,-1.826857147216796875e+02,-2.342460393905639648e+00,7.562146759033203125e+01,3.135740852355957031e+01
7.162089943885803223e-01,1.000000000000000000e+00,-4.010766983032226562e+01,3.739254760742187500e+01,3.322968292236328125e+01,9.939557647705078125e+01,9.867515563964843750e+01,-4.806925296783447266e+00,4.033146500587463379e-01,-6.666896057128906250e+01,-1.826857147216796875e+02,-2.342603921890258789e+00,7.562146759033203125e+01,3.135697174072265625e+01
7.195050120353698730e-01,1.000000000000000000e+00,-4.015030288696289062e+01,3.730990600585937500e+01,3.325149917602539062e+01,9.931957244873046875e+01,9.869435119628906250e+01,-4.833103179931640625e+00,4.033146500587463379e-01,-6.666886138916015625e+01,-1.826857147216796875e+02,-2.342603921890258789e+00,7.562146759033203125e+01,3.135740852355957031e+01
7.236989736557006836e-01,1.000000000000000000e+00,-4.019284439086914062e+01,3.722680664062500000e+01,3.327339553833007812e+01,9.924403381347656250e+01,9.871279907226562500e+01,-4.858602046966552734e+00,4.033146500587463379e-01,-6.666896057128906250e+01,-1.826857147216796875e+02,-2.342460393905639648e+00,7.562160491943359375e+01,3.135763168334960938e+01
7.275050282478332520e-01,1.000000000000000000e+00,-4.023544311523437500e+01,3.714389038085937500e+01,3.329499053955078125e+01,9.916834259033203125e+01,9.873102569580078125e+01,-4.883694171905517578e+00,4.033146500587463379e-01,-6.666896057128906250e+01,-1.826857147216796875e+02,-2.342460393905639648e+00,7.562146759033203125e+01,3.135763168334960938e+01
7.316480278968811035e-01,1.000000000000000000e+00,-4.027807235717773438e+01,3.706104278564453125e+01,3.331668472290039062e+01,9.909243774414062500e+01,9.874979400634765625e+01,-4.908854484558105469e+00,4.033146500587463379e-01,-6.666886138916015625e+01,-1.826855621337890625e+02,-2.342532396316528320e+00,7.562146759033203125e+01,3.135740852355957031e+01
7.355170249938964844e-01,1.000000000000000000e+00,-4.032078933715820312e+01,3.697859954833984375e+01,3.333853912353515625e+01,9.901580047607421875e+01,9.876877593994140625e+01,-4.934624671936035156e+00,4.033146500587463379e-01,-6.666896057128906250e+01,-1.826857147216796875e+02,-2.342532396316528320e+00,7.562139129638671875e+01,3.135740852355957031e+01
7.402099967002868652e-01,1.000000000000000000e+00,-4.036350631713867188e+01,3.689665985107421875e+01,3.336035537719726562e+01,9.894020843505859375e+01,9.878839874267578125e+01,-4.960598468780517578e+00,4.033146500587463379e-01,-6.666896057128906250e+01,-1.826857147216796875e+02,-2.342603921890258789e+00,7.562139129638671875e+01,3.135740852355957031e+01
7.434909939765930176e-01,1.000000000000000000e+00,-4.040642166137695312e+01,3.681424331665039062e+01,3.338196945190429688e+01,9.886404418945312500e+01,9.880844879150390625e+01,-4.986775875091552734e+00,4.033146500587463379e-01,-6.666896057128906250e+01,-1.826855621337890625e+02,-2.342460393905639648e+00,7.562139129638671875e+01,3.135719108581542969e+01
7.479100227355957031e-01,1.000000000000000000e+00,-4.044939422607421875e+01,3.673159790039062500e+01,3.340362167358398438e+01,9.878851318359375000e+01,9.882817077636718750e+01,-5.013224601745605469e+00,4.033146500587463379e-01,-6.666896057128906250e+01,-1.826857147216796875e+02,-2.342603921890258789e+00,7.562139129638671875e+01,3.135719108581542969e+01
7.515069842338562012e-01,1.000000000000000000e+00,-4.049211120605468750e+01,3.664861297607421875e+01,3.342531585693359375e+01,9.871218109130859375e+01,9.884688568115234375e+01,-5.039198398590087891e+00,4.033146500587463379e-01,-6.666896057128906250e+01,-1.826858215332031250e+02,-2.342532396316528320e+00,7.562139129638671875e+01,3.135719108581542969e+01
7.556269764900207520e-01,1.000000000000000000e+00,-4.053503036499023438e+01,3.656546783447265625e+01,3.344731521606445312e+01,9.863617706298828125e+01,9.886533355712890625e+01,-5.063883304595947266e+00,4.033146500587463379e-01,-6.666896057128906250e+01,-1.826857147216796875e+02,-2.342603921890258789e+00,7.562146759033203125e+01,3.135740852355957031e+01
7.595189809799194336e-01,1.000000000000000000e+00,-4.057820129394531250e+01,3.648219299316406250e+01,3.346931457519531250e+01,9.855995941162109375e+01,9.888420867919921875e+01,-5.089247226715087891e+00,4.033146500587463379e-01,-6.666896057128906250e+01,-1.826857147216796875e+02,-2.342532396316528320e+00,7.562160491943359375e+01,3.135763168334960938e+01
7.642390131950378418e-01,1.000000000000000000e+00,-4.062123489379882812e+01,3.639866638183593750e+01,3.349113082885742188e+01,9.848421478271484375e+01,9.890324401855468750e+01,-5.114881992340087891e+00,4.033146500587463379e-01,-6.666896057128906250e+01,-1.826857147216796875e+02,-2.342603921890258789e+00,7.562146759033203125e+01,3.135740852355957031e+01
7.674999833106994629e-01,1.000000000000000000e+00,-4.066435241699218750e+01,3.631550216674804688e+01,3.351302719116210938e+01,9.840767669677734375e+01,9.892253875732421875e+01,-5.140720367431640625e+00,4.033146500587463379e-01,-6.666904449462890625e+01,-1.826857147216796875e+02,-2.342532396316528320e+00,7.562146759033203125e+01,3.135740852355957031e+01
7.721679806709289551e-01,1.000000000000000000e+00,-4.070746994018554688e+01,3.623281097412109375e+01,3.353475952148437500e+01,9.833183288574218750e+01,9.894264221191406250e+01,-5.167033195495605469e+00,4.033146500587463379e-01,-6.666896057128906250e+01,-1.826857147216796875e+02,-2.342532396316528320e+00,7.562146759033203125e+01,3.135740852355957031e+01
7.755759954452514648e-01,1.000000000000000000e+00,-4.075070190429687500e+01,3.615007400512695312e+01,3.355657577514648438e+01,9.825534820556640625e+01,9.896247863769531250e+01,-5.193685054779052734e+00,4.033146500587463379e-01,-6.666896057128906250e+01,-1.826857147216796875e+02,-2.342603921890258789e+00,7.562146759033203125e+01,3.135740852355957031e+01
7.796840071678161621e-01,1.000000000000000000e+00,-4.079384994506835938e+01,3.606720352172851562e+01,3.357857513427734375e+01,9.817906951904296875e+01,9.898204040527343750e+01,-5.220133304595947266e+00,4.033146500587463379e-01,-6.666896057128906250e+01,-1.826855621337890625e+02,-2.342532396316528320e+00,7.562146759033203125e+01,3.135719108581542969e+01
7.835749983787536621e-01,1.000000000000000000e+00,-4.083696746826171875e+01,3.598419570922851562e+01,3.360053634643554688e+01,9.810216522216796875e+01,9.900064849853515625e+01,-5.245293617248535156e+00,4.033146500587463379e-01,-6.666896057128906250e+01,-1.826857147216796875e+02,-2.342532396316528320e+00,7.562139129638671875e+01,3.135740852355957031e+01
7.884190082550048828e-01,1.000000000000000000e+00,-4.088025665283203125e+01,3.590082931518554688e+01,3.362245178222656250e+01,9.802578735351562500e+01,9.901930999755859375e+01,-5.270453453063964844e+00,4.033146500587463379e-01,-6.666896057128906250e+01,-1.826857147216796875e+02,-2.342460393905639648e+00,7.562146759033203125e+01,3.135763168334960938e+01
7.917730212211608887e-01,1.000000000000000000e+00,-4.092354583740234375e+01,3.581723403930664062e+01,3.364432907104492188e+01,9.794951629638671875e+01,9.903802490234375000e+01,-5.296631336212158203e+00,4.033146500587463379e-01,-6.666904449462890625e+01,-1.826857147216796875e+02,-2.342532396316528320e+00,7.562139129638671875e+01,3.135763168334960938e+01
7.964190244674682617e-01,1.000000000000000000e+00,-4.096692276000976562e+01,3.573327636718750000e+01,3.366634750366210938e+01,9.787303161621093750e+01,9.905695343017578125e+01,-5.322944164276123047e+00,4.033146500587463379e-01,-6.666896057128906250e+01,-1.826857147216796875e+02,-2.342532396316528320e+00,7.562139129638671875e+01,3.135740852355957031e+01
7.995610237121582031e-01,1.000000000000000000e+00,-4.100981140136718750e+01,3.564947891235351562e+01,3.368832778930664062e+01,9.779628753662109375e+01,9.907667541503906250e+01,-5.349189281463623047e+00,4.033146500587463379e-01,-6.666896057128906250e+01,-1.826857147216796875e+02,-2.342532396316528320e+00,7.562146759033203125e+01,3.135740852355957031e+01
8.037790060043334961e-01,1.000000000000000000e+00,-4.105315780639648438e+01,3.556581497192382812e+01,3.371026611328125000e+01,9.771975708007812500e+01,9.909677886962890625e+01,-5.375840663909912109e+00,4.033146500587463379e-01,-6.666896057128906250e+01,-1.826857147216796875e+02,-2.342603921890258789e+00,7.562146759033203125e+01,3.135740852355957031e+01
8.077380061149597168e-01,1.000000000000000000e+00,-4.109642028808593750e+01,3.548262786865234375e+01,3.373212432861328125e+01,9.764321899414062500e+01,9.911666870117187500e+01,-5.402018547058105469e+00,4.033146500587463379e-01,-6.666896057128906250e+01,-1.826857147216796875e+02,-2.342603921890258789e+00,7.562146759033203125e+01,3.135719108581542969e+01
8.126839995384216309e-01,1.000000000000000000e+00,-4.113976669311523438e+01,3.539957809448242188e+01,3.375403976440429688e+01,9.756636810302734375e+01,9.913553619384765625e+01,-5.427721023559570312e+00,4.033146500587463379e-01,-6.666896057128906250e+01,-1.826857147216796875e+02,-2.342532396316528320e+00,7.562160491943359375e+01,3.135719108581542969e+01
8.158370256423950195e-01,1.000000000000000000e+00,-4.118308258056640625e+01,3.531629943847656250e+01,3.377595901489257812e+01,9.748999023437500000e+01,9.915419769287109375e+01,-5.453016281127929688e+00,4.033146500587463379e-01,-6.666896057128906250e+01,-1.826857147216796875e+02,-2.342603921890258789e+00,7.562139129638671875e+01,3.135697174072265625e+01
8.204600214958190918e-01,1.000000000000000000e+00,-4.122643280029296875e+01,3.523268127441406250e+01,3.379799652099609375e+01,9.741293334960937500e+01,9.917323303222656250e+01,-5.479261875152587891e+00,4.033146500587463379e-01,-6.666896057128906250e+01,-1.826857147216796875e+02,-2.342603921890258789e+00,7.562146759033203125e+01,3.135719108581542969e+01
8.237569928169250488e-01,1.000000000000000000e+00,-4.126943588256835938e+01,3.514883804321289062e+01,3.382011795043945312e+01,9.733602142333984375e+01,9.919226837158203125e+01,-5.505846023559570312e+00,4.033146500587463379e-01,-6.666896057128906250e+01,-1.826857147216796875e+02,-2.342532396316528320e+00,7.562146759033203125e+01,3.135719108581542969e+01
8.279169797897338867e-01,1.000000000000000000e+00,-4.131261062622070312e+01,3.506463241577148438e+01,3.384203720092773438e+01,9.725880432128906250e+01,9.921125030517578125e+01,-5.532294273376464844e+00,4.033146500587463379e-01,-6.666896057128906250e+01,-1.826857147216796875e+02,-2.342603921890258789e+00,7.562139129638671875e+01,3.135719108581542969e+01
8.324940204620361328e-01,1.000000000000000000e+00,-4.135581207275390625e+01,3.498031234741210938e+01,3.386393356323242188e+01,9.718199920654296875e+01,9.923150634765625000e+01,-5.558946132659912109e+00,4.033146500587463379e-01,-6.666896057128906250e+01,-1.826857147216796875e+02,-2.342532396316528320e+00,7.562146759033203125e+01,3.135719108581542969e+01
8.358250260353088379e-01,1.000000000000000000e+00,-4.139907455444335938e+01,3.489590072631835938e+01,3.388597106933593750e+01,9.710462951660156250e+01,9.925187683105468750e+01,-5.585869789123535156e+00,4.033146500587463379e-01,-6.666896057128906250e+01,-1.826857147216796875e+02,-2.342532396316528320e+00,7.562146759033203125e+01,3.135763168334960938e+01
8.401110172271728516e-01,1.000000000000000000e+00,-4.144224929809570312e+01,3.481194305419921875e+01,3.390811538696289062e+01,9.702756500244140625e+01,9.927165985107421875e+01,-5.611504554748535156e+00,4.033146500587463379e-01,-6.666904449462890625e+01,-1.826857147216796875e+02,-2.342460393905639648e+00,7.562146759033203125e+01,3.135763168334960938e+01
8.439940214157104492e-01,1.000000000000000000e+00,-4.148539352416992188e+01,3.472835159301757812e+01,3.393013381958007812e+01,9.695092010498046875e+01,9.929042053222656250e+01,-5.637071609497070312e+00,4.033146500587463379e-01,-6.666896057128906250e+01,-1.826857147216796875e+02,-2.342603921890258789e+00,7.562160491943359375e+01,3.135763168334960938e+01
8.479419946670532227e-01,1.000000000000000000e+00,-4.152845382690429688e+01,3.464448547363281250e+01,3.395229721069335938e+01,9.687364959716796875e+01,9.930918884277343750e+01,-5.663113117218017578e+00,4.033146500587463379e-01,-6.666896057128906250e+01,-1.826857147216796875e+02,-2.342532396316528320e+00,7.562146759033203125e+01,3.135740852355957031e+01
8.529570102691650391e-01,1.000000000000000000e+00,-4.157174682617187500e+01,3.456077575683593750e+01,3.397423171997070312e+01,9.679658508300781250e+01,9.932795715332031250e+01,-5.689425945281982422e+00,4.033146500587463379e-01,-6.666896057128906250e+01,-1.826857147216796875e+02,-2.342460393905639648e+00,7.562146759033203125e+01,3.135740852355957031e+01
8.561599850654602051e-01,1.000000000000000000e+00,-4.161486434936523438e+01,3.447688674926757812e+01,3.399627304077148438e+01,9.671931457519531250e+01,9.934720611572265625e+01,-5.716145992279052734e+00,4.033146500587463379e-01,-6.666896057128906250e+01,-1.826857147216796875e+02,-2.342603921890258789e+00,7.562146759033203125e+01,3.135719108581542969e+01
8.602300286293029785e-01,1.000000000000000000e+00,-4.165821075439453125e+01,3.439249801635742188e+01,3.401843261718750000e+01,9.664241027832031250e+01,9.936698913574218750e+01,-5.743069648742675781e+00,4.033146500587463379e-01,-6.666896057128906250e+01,-1.826857147216796875e+02,-2.342316627502441406e+00,7.562146759033203125e+01,3.135719108581542969e+01
8.641890287399291992e-01,1.000000000000000000e+00,-4.170141601562500000e+01,3.430792999267578125e+01,3.404051589965820312e+01,9.656455993652343750e+01,9.938708496093750000e+01,-5.769925117492675781e+00,4.033146500587463379e-01,-6.666896057128906250e+01,-1.826857147216796875e+02,-2.342532396316528320e+00,7.562146759033203125e+01,3.135719108581542969e+01
8.681759834289550781e-01,1.000000000000000000e+00,-4.174467468261718750e+01,3.422302627563476562e+01,3.406271743774414062e+01,9.648723602294921875e+01,9.940692138671875000e+01,-5.795763015747070312e+00,4.033146500587463379e-01,-6.666896057128906250e+01,-1.826857147216796875e+02,-2.342532396316528320e+00,7.562139129638671875e+01,3.135740852355957031e+01
8.721410036087036133e-01,1.000000000000000000e+00,-4.178810882568359375e+01,3.413825225830078125e+01,3.408487701416015625e+01,9.640927886962890625e+01,9.942621612548828125e+01,-5.821194648742675781e+00,4.033146500587463379e-01,-6.666896057128906250e+01,-1.826857147216796875e+02,-2.342603921890258789e+00,7.562146759033203125e+01,3.135740852355957031e+01
8.770200014114379883e-01,1.000000000000000000e+00,-4.183165740966796875e+01,3.405373001098632812e+01,3.410730361938476562e+01,9.633221435546875000e+01,9.944530487060546875e+01,-5.847032546997070312e+00,4.033146500587463379e-01,-6.666896057128906250e+01,-1.826857147216796875e+02,-2.342747688293457031e+00,7.562160491943359375e+01,3.135763168334960938e+01
8.803849816322326660e-01,1.000000000000000000e+00,-4.187523269653320312e+01,3.396986389160156250e+01,3.412971115112304688e+01,9.625441741943359375e+01,9.946401977539062500e+01,-5.873345375061035156e+00,4.033146500587463379e-01,-6.666896057128906250e+01,-1.826857147216796875e+02,-2.342316627502441406e+00,7.562146759033203125e+01,3.135763168334960938e+01
8.841720223426818848e-01,1.000000000000000000e+00,-4.191881179809570312e+01,3.388613128662109375e+01,3.415183258056640625e+01,9.617662048339843750e+01,9.948321533203125000e+01,-5.900200843811035156e+00,4.033146500587463379e-01,-6.666896057128906250e+01,-1.826857147216796875e+02,-2.342747688293457031e+00,7.562146759033203125e+01,3.135740852355957031e+01
8.884860277175903320e-01,1.000000000000000000e+00,-4.196244430541992188e+01,3.380201721191406250e+01,3.417389297485351562e+01,9.609902954101562500e+01,9.950283050537109375e+01,-5.927056312561035156e+00,4.033146500587463379e-01,-6.666896057128906250e+01,-1.826857147216796875e+02,-2.342532396316528320e+00,7.562160491943359375e+01,3.135763168334960938e+01
8.925840258598327637e-01,1.000000000000000000e+00,-4.200656890869140625e+01,3.371742630004882812e+01,3.419603347778320312e+01,9.602154541015625000e+01,9.952304077148437500e+01,-5.954047679901123047e+00,4.033146500587463379e-01,-6.666896057128906250e+01,-1.826857147216796875e+02,-2.342460393905639648e+00,7.562146759033203125e+01,3.135740852355957031e+01
8.964220285415649414e-01,1.000000000000000000e+00,-4.205040359497070312e+01,3.363281631469726562e+01,3.421827316284179688e+01,9.594390106201171875e+01,9.954346466064453125e+01,-5.979750156402587891e+00,4.033146500587463379e-01,-6.666896057128906250e+01,-1.826857147216796875e+02,-2.342747688293457031e+00,7.562146759033203125e+01,3.135740852355957031e+01
9.011409878730773926e-01,1.000000000000000000e+00,-4.209432601928710938e+01,3.354772567749023438e+01,3.424078369140625000e+01,9.586573791503906250e+01,9.956340026855468750e+01,-6.005520343780517578e+00,4.033146500587463379e-01,-6.666896057128906250e+01,-1.826858215332031250e+02,-2.342316627502441406e+00,7.562146759033203125e+01,3.135763168334960938e+01
9.045699834823608398e-01,1.000000000000000000e+00,-4.213842010498046875e+01,3.346243286132812500e+01,3.426310729980468750e+01,9.578829956054687500e+01,9.958222198486328125e+01,-6.031562328338623047e+00,4.033146500587463379e-01,-6.666896057128906250e+01,-1.826857147216796875e+02,-2.342747688293457031e+00,7.562139129638671875e+01,3.135740852355957031e+01
9.094160199165344238e-01,1.000000000000000000e+00,-4.218245697021484375e+01,3.337752532958984375e+01,3.428551483154296875e+01,9.571018218994140625e+01,9.960104370117187500e+01,-6.058213710784912109e+00,4.033146500587463379e-01,-6.666896057128906250e+01,-1.826857147216796875e+02,-2.342460393905639648e+00,7.562146759033203125e+01,3.135719108581542969e+01
9.127609729766845703e-01,1.000000000000000000e+00,-4.222657775878906250e+01,3.329270935058593750e+01,3.430771636962890625e+01,9.563239288330078125e+01,9.962017822265625000e+01,-6.085272789001464844e+00,4.033146500587463379e-01,-6.666896057128906250e+01,-1.826857147216796875e+02,-2.342460393905639648e+00,7.562146759033203125e+01,3.135719108581542969e+01
9.168789982795715332e-01,1.000000000000000000e+00,-4.227078628540039062e+01,3.320836639404296875e+01,3.433003997802734375e+01,9.555369567871093750e+01,9.963937377929687500e+01,-6.112128257751464844e+00,4.033146500587463379e-01,-6.666896057128906250e+01,-1.826857147216796875e+02,-2.342747688293457031e+00,7.562139129638671875e+01,3.135719108581542969e+01
9.205650091171264648e-01,1.000000000000000000e+00,-4.231516647338867188e+01,3.312382125854492188e+01,3.435252380371093750e+01,9.547605133056640625e+01,9.965937042236328125e+01,-6.139119625091552734e+00,4.033146500587463379e-01,-6.666904449462890625e+01,-1.826857147216796875e+02,-2.342316627502441406e+00,7.562146759033203125e+01,3.135740852355957031e+01
9.253619909286499023e-01,1.000000000000000000e+00,-4.235946273803710938e+01,3.303895950317382812e+01,3.437479019165039062e+01,9.539772796630859375e+01,9.967978668212890625e+01,-6.165364742279052734e+00,4.033146500587463379e-01,-6.666896057128906250e+01,-1.826855621337890625e+02,-2.342819452285766602e+00,7.562146759033203125e+01,3.135719108581542969e+01
9.286429882049560547e-01,1.000000000000000000e+00,-4.240386962890625000e+01,3.295400619506835938e+01,3.439691162109375000e+01,9.531993103027343750e+01,9.970005035400390625e+01,-6.190728187561035156e+00,4.033146500587463379e-01,-6.666896057128906250e+01,-1.826857147216796875e+02,-2.342603921890258789e+00,7.562146759033203125e+01,3.135740852355957031e+01
9.337589740753173828e-01,1.000000000000000000e+00,-4.244805145263671875e+01,3.286848831176757812e+01,3.441917419433593750e+01,9.524150085449218750e+01,9.971919250488281250e+01,-6.217108726501464844e+00,4.033146500587463379e-01,-6.666896057128906250e+01,-1.826857147216796875e+02,-2.342316627502441406e+00,7.562139129638671875e+01,3.135740852355957031e+01
9.354180097579956055e-01,1.000000000000000000e+00,-4.249254608154296875e+01,3.278256225585937500e+01,3.444174194335937500e+01,9.516338348388671875e+01,9.973806762695312500e+01,-6.243286609649658203e+00,4.033146500587463379e-01,-6.666896057128906250e+01,-1.826857147216796875e+02,-2.342747688293457031e+00,7.562139129638671875e+01,3.135740852355957031e+01
9.394279718399047852e-01,1.000000000000000000e+00,-4.253692626953125000e+01,3.269679641723632812e+01,3.446441268920898438e+01,9.508526611328125000e+01,9.975747680664062500e+01,-6.270209312438964844e+00,4.033146500587463379e-01,-6.666896057128906250e+01,-1.826857147216796875e+02,-2.342316627502441406e+00,7.562146759033203125e+01,3.135719108581542969e+01
9.444410204887390137e-01,1.000000000000000000e+00,-4.258124923706054688e+01,3.261109542846679688e+01,3.448687744140625000e+01,9.500672149658203125e+01,9.977703857421875000e+01,-6.297607421875000000e+00,4.033146500587463379e-01,-6.666896057128906250e+01,-1.826857147216796875e+02,-2.342603921890258789e+00,7.562146759033203125e+01,3.135719108581542969e+01
9.474310278892517090e-01,1.000000000000000000e+00,-4.262560272216796875e+01,3.252568817138671875e+01,3.450912094116210938e+01,9.492887115478515625e+01,9.979650115966796875e+01,-6.325005531311035156e+00,4.033146500587463379e-01,-6.666896057128906250e+01,-1.826857147216796875e+02,-2.342603921890258789e+00,7.562146759033203125e+01,3.135763168334960938e+01
9.514179825782775879e-01,1.000000000000000000e+00,-4.266989517211914062e+01,3.244080352783203125e+01,3.453136444091796875e+01,9.485022735595703125e+01,9.981697082519531250e+01,-6.351386070251464844e+00,4.033146500587463379e-01,-6.666886138916015625e+01,-1.826857147216796875e+02,-2.342316627502441406e+00,7.562146759033203125e+01,3.135763168334960938e+01
9.555569887161254883e-01,1.000000000000000000e+00,-4.271396255493164062e+01,3.235578536987304688e+01,3.455370712280273438e+01,9.477210998535156250e+01,9.983755493164062500e+01,-6.377292156219482422e+00,4.033146500587463379e-01,-6.666886138916015625e+01,-1.826857147216796875e+02,-2.342819452285766602e+00,7.562146759033203125e+01,3.135763168334960938e+01
9.594590067863464355e-01,1.000000000000000000e+00,-4.275834274291992188e+01,3.227035522460937500e+01,3.457621765136718750e+01,9.469300079345703125e+01,9.985749816894531250e+01,-6.403604984283447266e+00,4.033146500587463379e-01,-6.666896057128906250e+01,-1.826857147216796875e+02,-2.342316627502441406e+00,7.562139129638671875e+01,3.135719108581542969e+01
9.634870290756225586e-01,1.000000000000000000e+00,-4.280280685424804688e+01,3.218479537963867188e+01,3.459886550903320312e+01,9.461457061767578125e+01,9.987657928466796875e+01,-6.430596351623535156e+00,4.033146500587463379e-01,-6.666896057128906250e+01,-1.826857147216796875e+02,-2.342603921890258789e+00,7.562139129638671875e+01,3.135719108581542969e+01
9.674900174140930176e-01,1.000000000000000000e+00,-4.284716033935546875e+01,3.209886550903320312e+01,3.462135314941406250e+01,9.453561401367187500e+01,9.989556121826171875e+01,-6.457655429840087891e+00,4.033146500587463379e-01,-6.666896057128906250e+01,-1.826857147216796875e+02,-2.342603921890258789e+00,7.562139129638671875e+01,3.135719108581542969e+01
9.714229702949523926e-01,1.000000000000000000e+00,-4.289113998413085938e+01,3.201253509521484375e+01,3.464375686645507812e+01,9.445744323730468750e+01,9.991486358642578125e+01,-6.485256671905517578e+00,4.033146500587463379e-01,-6.666896057128906250e+01,-1.826857147216796875e+02,-2.342316627502441406e+00,7.562160491943359375e+01,3.135740852355957031e+01
9.754409790039062500e-01,1.000000000000000000e+00,-4.293549346923828125e+01,3.192617988586425781e+01,3.466643142700195312e+01,9.437874603271484375e+01,9.993426513671875000e+01,-6.512179851531982422e+00,4.033146500587463379e-01,-6.666896057128906250e+01,-1.826857147216796875e+02,-2.342747688293457031e+00,7.562146759033203125e+01,3.135740852355957031e+01
9.794899821281433105e-01,1.000000000000000000e+00,-4.297978591918945312e+01,3.184032058715820312e+01,3.468906021118164062e+01,9.430020904541015625e+01,9.995463562011718750e+01,-6.538425445556640625e+00,4.033146500587463379e-01,-6.666896057128906250e+01,-1.826858215332031250e+02,-2.342532396316528320e+00,7.562146759033203125e+01,3.135740852355957031e+01
9.834489822387695312e-01,1.000000000000000000e+00,-4.302413558959960938e+01,3.175504875183105469e+01,3.471154403686523438e+01,9.422156524658203125e+01,9.997527313232421875e+01,-6.564670562744140625e+00,4.033146500587463379e-01,-6.666896057128906250e+01,-1.826857147216796875e+02,-2.342747688293457031e+00,7.562139129638671875e+01,3.135740852355957031e+01
9.874370098114013672e-01,1.000000000000000000e+00,-4.306843566894531250e+01,3.166941833496093750e+01,3.473403167724609375e+01,9.414234161376953125e+01,9.999542236328125000e+01,-6.591321945190429688e+00,4.033146500587463379e-01,-6.666896057128906250e+01,-1.826857147216796875e+02,-2.342603921890258789e+00,7.562139129638671875e+01,3.135763168334960938e+01
9.914820194244384766e-01,1.000000000000000000e+00,-4.311272811889648438e+01,3.158401489257812500e+01,3.475654220581054688e+01,9.406386566162109375e+01,1.000146179199218750e+02,-6.618516921997070312e+00,4.033146500587463379e-01,-6.666896057128906250e+01,-1.826857147216796875e+02,-2.342245101928710938e+00,7.562146759033203125e+01,3.135740852355957031e+01
9.954220056533813477e-01,1.000000000000000000e+00,-4.315690994262695312e+01,3.149849319458007812e+01,3.477923202514648438e+01,9.398458862304687500e+01,1.000338668823242188e+02,-6.645711421966552734e+00,4.033146500587463379e-01,-6.666886138916015625e+01,-1.826857147216796875e+02,-2.342747688293457031e+00,7.562146759033203125e+01,3.135719108581542969e+01
9.994630217552185059e-01,1.000000000000000000e+00,-4.320120239257812500e+01,3.141234397888183594e+01,3.480206298828125000e+01,9.390599822998046875e+01,1.000534820556640625e+02,-6.673244953155517578e+00,4.033146500587463379e-01,-6.666896057128906250e+01,-1.826857147216796875e+02,-2.342460393905639648e+00,7.562160491943359375e+01,3.135719108581542969e+01
1.003486990928649902e+00,1.000000000000000000e+00,-4.324572753906250000e+01,3.132566833496093750e+01,3.482473373413085938e+01,9.382630157470703125e+01,1.000731582641601562e+02,-6.700914382934570312e+00,4.033146500587463379e-01,-6.666904449462890625e+01,-1.826857147216796875e+02,-2.342460393905639648e+00,7.562139129638671875e+01,3.135740852355957031e+01
1.007428050041198730e+00,1.000000000000000000e+00,-4.329019546508789062e+01,3.123888397216796875e+01,3.484736251831054688e+01,9.374739074707031250e+01,1.000932083129882812e+02,-6.727294921875000000e+00,4.033146500587463379e-01,-6.666896057128906250e+01,-1.826857147216796875e+02,-2.342747688293457031e+00,7.562146759033203125e+01,3.135719108581542969e+01
1.011417984962463379e+00,1.000000000000000000e+00,-4.333460235595703125e+01,3.115234565734863281e+01,3.486980819702148438e+01,9.366796875000000000e+01,1.001137313842773438e+02,-6.753675937652587891e+00,4.033146500587463379e-01,-6.666904449462890625e+01,-1.826857147216796875e+02,-2.342245101928710938e+00,7.562146759033203125e+01,3.135740852355957031e+01
1.015588998794555664e+00,1.000000000000000000e+00,-4.337918472290039062e+01,3.106614875793457031e+01,3.489257812500000000e+01,9.358879852294921875e+01,1.001346282958984375e+02,-6.780260086059570312e+00,4.033146500587463379e-01,-6.666896057128906250e+01,-1.826857147216796875e+02,-2.342603921890258789e+00,7.562146759033203125e+01,3.135740852355957031e+01
1.019474983215332031e+00,1.000000000000000000e+00,-4.342393875122070312e+01,3.098045158386230469e+01,3.491539001464843750e+01,9.350988769531250000e+01,1.001544647216796875e+02,-6.807386875152587891e+00,4.033146500587463379e-01,-6.666896057128906250e+01,-1.826857147216796875e+02,-2.342532396316528320e+00,7.562146759033203125e+01,3.135719108581542969e+01
1.023444056510925293e+00,1.000000000000000000e+00,-4.346875000000000000e+01,3.089470481872558594e+01,3.493816375732421875e+01,9.343061828613281250e+01,1.001737136840820312e+02,-6.835327148437500000e+00,4.033146500587463379e-01,-6.666896057128906250e+01,-1.826857147216796875e+02,-2.342460393905639648e+00,7.562139129638671875e+01,3.135719108581542969e+01
1.027521014213562012e+00,1.000000000000000000e+00,-4.351361846923828125e+01,3.080859947204589844e+01,3.496087265014648438e+01,9.335128021240234375e+01,1.001927947998046875e+02,-6.862861156463623047e+00,4.033146500587463379e-01,-6.666896057128906250e+01,-1.826857147216796875e+02,-2.342603921890258789e+00,7.562146759033203125e+01,3.135740852355957031e+01
1.031579971313476562e+00,1.000000000000000000e+00,-4.355848693847656250e+01,3.072206115722656250e+01,3.498344421386718750e+01,9.327201080322265625e+01,1.002124786376953125e+02,-6.889852046966552734e+00,4.033146500587463379e-01,-6.666886138916015625e+01,-1.826857147216796875e+02,-2.342460393905639648e+00,7.562146759033203125e+01,3.135719108581542969e+01
1.037737965583801270e+00,1.000000000000000000e+00,-4.364813995361328125e+01,3.054810714721679688e+01,3.502906799316406250e+01,9.311283111572265625e+01,1.002531585693359375e+02,-6.942749023437500000e+00,4.033146500587463379e-01,-6.666896057128906250e+01,-1.826857147216796875e+02,-2.342532396316528320e+00,7.562146759033203125e+01,3.135719108581542969e+01
1.039479970932006836e+00,1.000000000000000000e+00,-4.364813995361328125e+01,3.054810714721679688e+01,3.502906799316406250e+01,9.311283111572265625e+01,1.002531585693359375e+02,-6.942749023437500000e+00,4.033146500587463379e-01,-6.666896057128906250e+01,-1.826857147216796875e+02,-2.342532396316528320e+00,7.562146759033203125e+01,3.135719108581542969e+01
1.043481945991516113e+00,1.000000000000000000e+00,-4.369323730468750000e+01,3.046082305908203125e+01,3.505175781250000000e+01,9.303355407714843750e+01,1.002738952636718750e+02,-6.969536781311035156e+00,4.033146500587463379e-01,-6.666896057128906250e+01,-1.826857147216796875e+02,-2.342460393905639648e+00,7.562160491943359375e+01,3.135719108581542969e+01
1.047425031661987305e+00,1.000000000000000000e+00,-4.373827743530273438e+01,3.037378692626953125e+01,3.507456970214843750e+01,9.295333862304687500e+01,1.002942581176757812e+02,-6.996799468994140625e+00,4.033146500587463379e-01,-6.666896057128906250e+01,-1.826857147216796875e+02,-2.342747688293457031e+00,7.562146759033203125e+01,3.135740852355957031e+01
1.051489949226379395e+00,1.000000000000000000e+00,-4.378343582153320312e+01,3.028734016418457031e+01,3.509727859497070312e+01,9.287421417236328125e+01,1.003136672973632812e+02,-7.024468421936035156e+00,4.033146500587463379e-01,-6.666904449462890625e+01,-1.826857147216796875e+02,-2.342460393905639648e+00,7.562146759033203125e+01,3.135740852355957031e+01
1.055495977401733398e+00,1.000000000000000000e+00,-4.382838821411132812e+01,3.020087432861328125e+01,3.512007141113281250e+01,9.279431152343750000e+01,1.003329696655273438e+02,-7.052205562591552734e+00,4.033146500587463379e-01,-6.666896057128906250e+01,-1.826857147216796875e+02,-2.342603921890258789e+00,7.562139129638671875e+01,3.135784912109375000e+01
1.059437036514282227e+00,1.000000000000000000e+00,-4.387374496459960938e+01,3.011440277099609375e+01,3.514296722412109375e+01,9.271430206298828125e+01,1.003528594970703125e+02,-7.079671382904052734e+00,4.033146500587463379e-01,-6.666896057128906250e+01,-1.826857147216796875e+02,-2.342603921890258789e+00,7.562160491943359375e+01,3.135763168334960938e+01
1.063439965248107910e+00,1.000000000000000000e+00,-4.391893005371093750e+01,3.002773094177246094e+01,3.516569900512695312e+01,9.263439178466796875e+01,1.003729019165039062e+02,-7.105712890625000000e+00,4.033146500587463379e-01,-6.666886138916015625e+01,-1.826857147216796875e+02,-2.342532396316528320e+00,7.562146759033203125e+01,3.135763168334960938e+01
1.067494034767150879e+00,1.000000000000000000e+00,-4.396411514282226562e+01,2.994062995910644531e+01,3.518836593627929688e+01,9.255496215820312500e+01,1.003933715820312500e+02,-7.132229804992675781e+00,4.033146500587463379e-01,-6.666896057128906250e+01,-1.826857147216796875e+02,-2.342747688293457031e+00,7.562146759033203125e+01,3.135740852355957031e+01
1.073995947837829590e+00,1.000000000000000000e+00,-4.400924301147460938e+01,2.985321044921875000e+01,3.521115875244140625e+01,9.247510528564453125e+01,1.004144363403320312e+02,-7.159356117248535156e+00,4.033146500587463379e-01,-6.666886138916015625e+01,-1.826857147216796875e+02,-2.342460393905639648e+00,7.562139129638671875e+01,3.135740852355957031e+01
1.076483011245727539e+00,1.000000000000000000e+00,-4.405439758300781250e+01,2.976544952392578125e+01,3.523409652709960938e+01,9.239472961425781250e+01,1.004350738525390625e+02,-7.186890125274658203e+00,4.033146500587463379e-01,-6.666896057128906250e+01,-1.826857147216796875e+02,-2.342532396316528320e+00,7.562139129638671875e+01,3.135740852355957031e+01
1.079745054244995117e+00,1.000000000000000000e+00,-4.409946823120117188e+01,2.967775917053222656e+01,3.525696563720703125e+01,9.231529235839843750e+01,1.004547424316406250e+02,-7.214830398559570312e+00,4.033146500587463379e-01,-6.666896057128906250e+01,-1.826857147216796875e+02,-2.342603921890258789e+00,7.562146759033203125e+01,3.135763168334960938e+01
1.083456039428710938e+00,1.000000000000000000e+00,-4.414445114135742188e+01,2.959043312072753906e+01,3.528002548217773438e+01,9.223501586914062500e+01,1.004740982055664062e+02,-7.242499828338623047e+00,4.033146500587463379e-01,-6.666896057128906250e+01,-1.826857147216796875e+02,-2.342460393905639648e+00,7.562139129638671875e+01,3.135763168334960938e+01
1.088521003723144531e+00,1.000000000000000000e+00,-4.414445114135742188e+01,2.959043312072753906e+01,3.528002548217773438e+01,9.223501586914062500e+01,1.004740982055664062e+02,-7.242499828338623047e+00,4.033146500587463379e-01,-6.666896057128906250e+01,-1.826857147216796875e+02,-2.342460393905639648e+00,7.562139129638671875e+01,3.135763168334960938e+01
1.091488957405090332e+00,1.000000000000000000e+00,-4.423484802246093750e+01,2.941704177856445312e+01,3.532597351074218750e+01,9.207409667968750000e+01,1.005136032104492188e+02,-7.295599937438964844e+00,4.033146500587463379e-01,-6.666896057128906250e+01,-1.826857147216796875e+02,-2.342316627502441406e+00,7.562139129638671875e+01,3.135740852355957031e+01
1.098098993301391602e+00,1.000000000000000000e+00,-4.423484802246093750e+01,2.941704177856445312e+01,3.532597351074218750e+01,9.207409667968750000e+01,1.005136032104492188e+02,-7.295599937438964844e+00,4.033146500587463379e-01,-6.666896057128906250e+01,-1.826857147216796875e+02,-2.342603921890258789e+00,7.562146759033203125e+01,3.135719108581542969e+01
1.099517941474914551e+00,1.000000000000000000e+00,-4.432484436035156250e+01,2.924296951293945312e+01,3.537180328369140625e+01,9.191413116455078125e+01,1.005550842285156250e+02,-7.349446773529052734e+00,4.033146500587463379e-01,-6.666896057128906250e+01,-1.826857147216796875e+02,-2.342603921890258789e+00,7.562139129638671875e+01,3.135719108581542969e+01
1.104518055915832520e+00,1.000000000000000000e+00,-4.432484436035156250e+01,2.924296951293945312e+01,3.537180328369140625e+01,9.191413116455078125e+01,1.005550842285156250e+02,-7.349446773529052734e+00,4.033146500587463379e-01,-6.666896057128906250e+01,-1.826857147216796875e+02,-2.342603921890258789e+00,7.562139129638671875e+01,3.135719108581542969e+01
1.107421040534973145e+00,1.000000000000000000e+00,-4.441501235961914062e+01,2.906758880615234375e+01,3.541775131225585938e+01,9.175336456298828125e+01,1.005958709716796875e+02,-7.405192375183105469e+00,4.033146500587463379e-01,-6.666896057128906250e+01,-1.826857147216796875e+02,-2.342747688293457031e+00,7.562160491943359375e+01,3.135719108581542969e+01
1.111533999443054199e+00,1.000000000000000000e+00,-4.441501235961914062e+01,2.906758880615234375e+01,3.541775131225585938e+01,9.175336456298828125e+01,1.005958709716796875e+02,-7.405192375183105469e+00,4.033146500587463379e-01,-6.666896057128906250e+01,-1.826857147216796875e+02,-2.342747688293457031e+00,7.562160491943359375e+01,3.135719108581542969e+01
1.116459012031555176e+00,1.000000000000000000e+00,-4.446005630493164062e+01,2.897937583923339844e+01,3.544092941284179688e+01,9.167282867431640625e+01,1.006153793334960938e+02,-7.432929515838623047e+00,4.033146500587463379e-01,-6.666896057128906250e+01,-1.826857147216796875e+02,-2.342316627502441406e+00,7.562139129638671875e+01,3.135740852355957031e+01
