rpiRobotics/ARM-21-02-F-19-Robot-Motion-Program/data_performance_abb/curve_1/curve_pose_opt1/100L/realrobot/run_2.csv
timestamp,cmd_num,J1,J2,J3,J4,J5,J6
1.570000022184103727e-04,-1.000000000000000000e+00,-3.419768142700195312e+01,4.881631088256835938e+01,3.022797584533691406e+01,1.098919906616210938e+02,9.603807830810546875e+01,-1.240031003952026367e+00,4.033146500587463379e-01,-6.666896057128906250e+01,-1.826858215332031250e+02,-2.342532396316528320e+00,7.562139129638671875e+01,3.135763168334960938e+01
3.762000007554888725e-03,1.000000000000000000e+00,-3.419779968261718750e+01,4.881631088256835938e+01,3.022797584533691406e+01,1.098918762207031250e+02,9.603807830810546875e+01,-1.239895343780517578e+00,4.033146500587463379e-01,-6.666896057128906250e+01,-1.826858215332031250e+02,-2.342532396316528320e+00,7.562139129638671875e+01,3.135763168334960938e+01
8.723000064492225647e-03,1.000000000000000000e+00,-3.419768142700195312e+01,4.881636047363281250e+01,3.022797584533691406e+01,1.098918762207031250e+02,9.603807830810546875e+01,-1.240031003952026367e+00,4.033146500587463379e-01,-6.666896057128906250e+01,-1.826858215332031250e+02,-2.342460393905639648e+00,7.562139129638671875e+01,3.135763168334960938e+01
1.232399977743625641e-02,1.000000000000000000e+00,-3.419768142700195312e+01,4.881631088256835938e+01,3.022793769836425781e+01,1.098918762207031250e+02,9.603797912597656250e+01,-1.240031003952026367e+00,4.033146500587463379e-01,-6.666896057128906250e+01,-1.826858215332031250e+02,-2.342460393905639648e+00,7.562139129638671875e+01,3.135763168334960938e+01
3.731900081038475037e-02,1.000000000000000000e+00,-3.419771194458007812e+01,4.881631088256835938e+01,3.022797584533691406e+01,1.098919906616210938e+02,9.603807830810546875e+01,-1.239895343780517578e+00,4.033146500587463379e-01,-6.666896057128906250e+01,-1.826858215332031250e+02,-2.342532396316528320e+00,7.562124633789062500e+01,3.135763168334960938e+01
4.007500037550926208e-02,1.000000000000000000e+00,-3.419771194458007812e+01,4.881631088256835938e+01,3.022793769836425781e+01,1.098919906616210938e+02,9.603807830810546875e+01,-1.239895343780517578e+00,4.033146500587463379e-01,-6.666896057128906250e+01,-1.826858215332031250e+02,-2.342603921890258789e+00,7.562139129638671875e+01,3.135763168334960938e+01
4.132099822163581848e-02,1.000000000000000000e+00,-3.419771194458007812e+01,4.881631088256835938e+01,3.022793769836425781e+01,1.098919906616210938e+02,9.603807830810546875e+01,-1.239895343780517578e+00,4.033146500587463379e-01,-6.666896057128906250e+01,-1.826858215332031250e+02,-2.342603921890258789e+00,7.562139129638671875e+01,3.135763168334960938e+01
5.135099962353706360e-02,1.000000000000000000e+00,-3.419779968261718750e+01,4.881624221801757812e+01,3.022793769836425781e+01,1.098918762207031250e+02,9.603797912597656250e+01,-1.239827632904052734e+00,4.033146500587463379e-01,-6.666896057128906250e+01,-1.826859436035156250e+02,-2.342603921890258789e+00,7.562139129638671875e+01,3.135763168334960938e+01
5.268900096416473389e-02,1.000000000000000000e+00,-3.419776916503906250e+01,4.881624221801757812e+01,3.022793769836425781e+01,1.098919906616210938e+02,9.603807830810546875e+01,-1.240031003952026367e+00,4.033146500587463379e-01,-6.666886138916015625e+01,-1.826858215332031250e+02,-2.342603921890258789e+00,7.562139129638671875e+01,3.135763168334960938e+01
5.510799959301948547e-02,1.000000000000000000e+00,-3.419820022583007812e+01,4.881601715087890625e+01,3.022793769836425781e+01,1.098919906616210938e+02,9.603807830810546875e+01,-1.239895343780517578e+00,4.033146500587463379e-01,-6.666896057128906250e+01,-1.826858215332031250e+02,-2.342532396316528320e+00,7.562139129638671875e+01,3.135763168334960938e+01
5.640700086951255798e-02,1.000000000000000000e+00,-3.419820022583007812e+01,4.881601715087890625e+01,3.022793769836425781e+01,1.098919906616210938e+02,9.603807830810546875e+01,-1.239895343780517578e+00,4.033146500587463379e-01,-6.666896057128906250e+01,-1.826858215332031250e+02,-2.342532396316528320e+00,7.562139129638671875e+01,3.135763168334960938e+01
5.889900028705596924e-02,1.000000000000000000e+00,-3.419820022583007812e+01,4.881601715087890625e+01,3.022793769836425781e+01,1.098919906616210938e+02,9.603807830810546875e+01,-1.239895343780517578e+00,4.033146500587463379e-01,-6.666896057128906250e+01,-1.826858215332031250e+02,-2.342532396316528320e+00,7.562139129638671875e+01,3.135763168334960938e+01
6.356299668550491333e-02,1.000000000000000000e+00,-3.419992065429687500e+01,4.881402587890625000e+01,3.022793769836425781e+01,1.098919906616210938e+02,9.603807830810546875e+01,-1.239827632904052734e+00,4.033146500587463379e-01,-6.666896057128906250e+01,-1.826859436035156250e+02,-2.342532396316528320e+00,7.562124633789062500e+01,3.135763168334960938e+01
6.490500271320343018e-02,1.000000000000000000e+00,-3.419992065429687500e+01,4.881402587890625000e+01,3.022793769836425781e+01,1.098919906616210938e+02,9.603807830810546875e+01,-1.239827632904052734e+00,4.033146500587463379e-01,-6.666896057128906250e+01,-1.826859436035156250e+02,-2.342532396316528320e+00,7.562124633789062500e+01,3.135763168334960938e+01
6.757099926471710205e-02,1.000000000000000000e+00,-3.420173263549804688e+01,4.881176376342773438e+01,3.022793769836425781e+01,1.098918762207031250e+02,9.603819274902343750e+01,-1.240031003952026367e+00,4.033146500587463379e-01,-6.666896057128906250e+01,-1.826858215332031250e+02,-2.342532396316528320e+00,7.562139129638671875e+01,3.135763168334960938e+01
6.890700012445449829e-02,1.000000000000000000e+00,-3.420173263549804688e+01,4.881176376342773438e+01,3.022793769836425781e+01,1.098918762207031250e+02,9.603819274902343750e+01,-1.240031003952026367e+00,4.033146500587463379e-01,-6.666896057128906250e+01,-1.826858215332031250e+02,-2.342532396316528320e+00,7.562139129638671875e+01,3.135763168334960938e+01
7.496599853038787842e-02,1.000000000000000000e+00,-3.420405578613281250e+01,4.880809783935546875e+01,3.022797584533691406e+01,1.098918762207031250e+02,9.603829956054687500e+01,-1.240031003952026367e+00,4.033146500587463379e-01,-6.666896057128906250e+01,-1.826858215332031250e+02,-2.342603921890258789e+00,7.562139129638671875e+01,3.135763168334960938e+01
7.631999999284744263e-02,1.000000000000000000e+00,-3.420698547363281250e+01,4.880293655395507812e+01,3.022803688049316406e+01,1.098917236328125000e+02,9.603829956054687500e+01,-1.240031003952026367e+00,4.034245014190673828e-01,-6.666896057128906250e+01,-1.826858215332031250e+02,-2.342460393905639648e+00,7.562139129638671875e+01,3.135763168334960938e+01
7.764399796724319458e-02,1.000000000000000000e+00,-3.420698547363281250e+01,4.880293655395507812e+01,3.022803688049316406e+01,1.098917236328125000e+02,9.603829956054687500e+01,-1.240031003952026367e+00,4.034245014190673828e-01,-6.666896057128906250e+01,-1.826858215332031250e+02,-2.342460393905639648e+00,7.562139129638671875e+01,3.135763168334960938e+01
8.021900057792663574e-02,1.000000000000000000e+00,-3.421054458618164062e+01,4.879589843750000000e+01,3.022813987731933594e+01,1.098905639648437500e+02,9.603856658935546875e+01,-1.240234375000000000e+00,4.033146500587463379e-01,-6.666896057128906250e+01,-1.826859436035156250e+02,-2.342532396316528320e+00,7.562124633789062500e+01,3.135763168334960938e+01
8.355399966239929199e-02,1.000000000000000000e+00,-3.421462249755859375e+01,4.878723144531250000e+01,3.022840309143066406e+01,1.098880310058593750e+02,9.603893280029296875e+01,-1.240437984466552734e+00,4.033146500587463379e-01,-6.666904449462890625e+01,-1.826858215332031250e+02,-2.342460393905639648e+00,7.562139129638671875e+01,3.135763168334960938e+01
8.488400280475616455e-02,1.000000000000000000e+00,-3.421462249755859375e+01,4.878723144531250000e+01,3.022840309143066406e+01,1.098880310058593750e+02,9.603893280029296875e+01,-1.240437984466552734e+00,4.033146500587463379e-01,-6.666904449462890625e+01,-1.826858215332031250e+02,-2.342460393905639648e+00,7.562139129638671875e+01,3.135763168334960938e+01
8.820199966430664062e-02,1.000000000000000000e+00,-3.421958541870117188e+01,4.877682495117187500e+01,3.022895240783691406e+01,1.098838195800781250e+02,9.603973388671875000e+01,-1.241183876991271973e+00,4.033146500587463379e-01,-6.666896057128906250e+01,-1.826858215332031250e+02,-2.342532396316528320e+00,7.562139129638671875e+01,3.135763168334960938e+01
8.958700299263000488e-02,1.000000000000000000e+00,-3.421958541870117188e+01,4.877682495117187500e+01,3.022895240783691406e+01,1.098838195800781250e+02,9.603973388671875000e+01,-1.241183876991271973e+00,4.033146500587463379e-01,-6.666896057128906250e+01,-1.826858215332031250e+02,-2.342532396316528320e+00,7.562139129638671875e+01,3.135763168334960938e+01
9.313400089740753174e-02,1.000000000000000000e+00,-3.422567367553710938e+01,4.876440048217773438e+01,3.022992897033691406e+01,1.098778152465820312e+02,9.604085540771484375e+01,-1.242947220802307129e+00,4.033146500587463379e-01,-6.666896057128906250e+01,-1.826858215332031250e+02,-2.342460393905639648e+00,7.562139129638671875e+01,3.135763168334960938e+01
9.638100117444992065e-02,1.000000000000000000e+00,-3.423310470581054688e+01,4.874953460693359375e+01,3.023137474060058594e+01,1.098703384399414062e+02,9.604267120361328125e+01,-1.245727539062500000e+00,4.033146500587463379e-01,-6.666904449462890625e+01,-1.826858215332031250e+02,-2.342532396316528320e+00,7.562139129638671875e+01,3.135784912109375000e+01
9.927800297737121582e-02,1.000000000000000000e+00,-3.423310470581054688e+01,4.874953460693359375e+01,3.023137474060058594e+01,1.098703384399414062e+02,9.604267120361328125e+01,-1.245727539062500000e+00,4.033146500587463379e-01,-6.666904449462890625e+01,-1.826858215332031250e+02,-2.342532396316528320e+00,7.562139129638671875e+01,3.135784912109375000e+01
1.032679975032806396e-01,1.000000000000000000e+00,-3.424183654785156250e+01,4.873190307617187500e+01,3.023346710205078125e+01,1.098605880737304688e+02,9.604506683349609375e+01,-1.249118447303771973e+00,4.033146500587463379e-01,-6.666896057128906250e+01,-1.826858215332031250e+02,-2.342532396316528320e+00,7.562146759033203125e+01,3.135763168334960938e+01
1.073570027947425842e-01,1.000000000000000000e+00,-3.425193786621093750e+01,4.871180725097656250e+01,3.023633193969726562e+01,1.098479537963867188e+02,9.604811096191406250e+01,-1.253051757812500000e+00,4.033146500587463379e-01,-6.666904449462890625e+01,-1.826858215332031250e+02,-2.342532396316528320e+00,7.562124633789062500e+01,3.135763168334960938e+01
1.113779991865158081e-01,1.000000000000000000e+00,-3.426322174072265625e+01,4.868938446044921875e+01,3.024025726318359375e+01,1.098325195312500000e+02,9.605189514160156250e+01,-1.258138060569763184e+00,4.033146500587463379e-01,-6.666896057128906250e+01,-1.826858215332031250e+02,-2.342603921890258789e+00,7.562139129638671875e+01,3.135763168334960938e+01
1.155399978160858154e-01,1.000000000000000000e+00,-3.427605056762695312e+01,4.866394424438476562e+01,3.024505424499511719e+01,1.098138122558593750e+02,9.605664062500000000e+01,-1.265191078186035156e+00,4.033146500587463379e-01,-6.666896057128906250e+01,-1.826858215332031250e+02,-2.342460393905639648e+00,7.562139129638671875e+01,3.135763168334960938e+01
1.201829984784126282e-01,1.000000000000000000e+00,-3.429063796997070312e+01,4.863556671142578125e+01,3.025111579895019531e+01,1.097915344238281250e+02,9.606228637695312500e+01,-1.273057818412780762e+00,4.033146500587463379e-01,-6.666896057128906250e+01,-1.826858215332031250e+02,-2.342603921890258789e+00,7.562124633789062500e+01,3.135763168334960938e+01
1.234029978513717651e-01,1.000000000000000000e+00,-3.430708312988281250e+01,4.860386276245117188e+01,3.025839424133300781e+01,1.097653579711914062e+02,9.606900787353515625e+01,-1.282145261764526367e+00,4.033146500587463379e-01,-6.666896057128906250e+01,-1.826858215332031250e+02,-2.342532396316528320e+00,7.562139129638671875e+01,3.135763168334960938e+01
1.273079961538314819e-01,1.000000000000000000e+00,-3.432499694824218750e+01,4.856869888305664062e+01,3.026687431335449219e+01,1.097340698242187500e+02,9.607636260986328125e+01,-1.292860269546508789e+00,4.033146500587463379e-01,-6.666896057128906250e+01,-1.826858215332031250e+02,-2.342532396316528320e+00,7.562139129638671875e+01,3.135763168334960938e+01
1.314280033111572266e-01,1.000000000000000000e+00,-3.434443283081054688e+01,4.853015899658203125e+01,3.027675437927246094e+01,1.096976699829101562e+02,9.608505249023437500e+01,-1.304931640625000000e+00,4.033146500587463379e-01,-6.666904449462890625e+01,-1.826858215332031250e+02,-2.342532396316528320e+00,7.562124633789062500e+01,3.135784912109375000e+01
1.354939937591552734e-01,1.000000000000000000e+00,-3.436515808105468750e+01,4.848843002319335938e+01,3.028793525695800781e+01,1.096577453613281250e+02,9.609460449218750000e+01,-1.318291664123535156e+00,4.033146500587463379e-01,-6.666896057128906250e+01,-1.826858215332031250e+02,-2.342532396316528320e+00,7.562139129638671875e+01,3.135763168334960938e+01
1.394059956073760986e-01,1.000000000000000000e+00,-3.438818359375000000e+01,4.844332504272460938e+01,3.030052185058593750e+01,1.096153945922851562e+02,9.610488891601562500e+01,-1.332939982414245605e+00,4.033146500587463379e-01,-6.666896057128906250e+01,-1.826858215332031250e+02,-2.342532396316528320e+00,7.562124633789062500e+01,3.135763168334960938e+01
1.443360000848770142e-01,1.000000000000000000e+00,-3.441289901733398438e+01,4.839492034912109375e+01,3.031447029113769531e+01,1.095679321289062500e+02,9.611640167236328125e+01,-1.349012613296508789e+00,4.033146500587463379e-01,-6.666896057128906250e+01,-1.826858215332031250e+02,-2.342532396316528320e+00,7.562139129638671875e+01,3.135763168334960938e+01
1.475500017404556274e-01,1.000000000000000000e+00,-3.443878936767578125e+01,4.834366226196289062e+01,3.032961654663085938e+01,1.095148925781250000e+02,9.612877655029296875e+01,-1.366441607475280762e+00,4.033146500587463379e-01,-6.666904449462890625e+01,-1.826858215332031250e+02,-2.342532396316528320e+00,7.562139129638671875e+01,3.135763168334960938e+01
1.514299958944320679e-01,1.000000000000000000e+00,-3.446629333496093750e+01,4.828962707519531250e+01,3.034565734863281250e+01,1.094595336914062500e+02,9.614221191406250000e+01,-1.384752154350280762e+00,4.033146500587463379e-01,-6.666896057128906250e+01,-1.826858215332031250e+02,-2.342532396316528320e+00,7.562139129638671875e+01,3.135763168334960938e+01
1.556019932031631470e-01,1.000000000000000000e+00,-3.449496841430664062e+01,4.823304748535156250e+01,3.036232948303222656e+01,1.094013290405273438e+02,9.615671539306640625e+01,-1.404283404350280762e+00,4.033146500587463379e-01,-6.666896057128906250e+01,-1.826858215332031250e+02,-2.342603921890258789e+00,7.562139129638671875e+01,3.135763168334960938e+01
1.597490012645721436e-01,1.000000000000000000e+00,-3.452514266967773438e+01,4.817389678955078125e+01,3.037961196899414062e+01,1.093406448364257812e+02,9.617195892333984375e+01,-1.424628376960754395e+00,4.033146500587463379e-01,-6.666896057128906250e+01,-1.826858215332031250e+02,-2.342532396316528320e+00,7.562146759033203125e+01,3.135763168334960938e+01
1.637780070304870605e-01,1.000000000000000000e+00,-3.455674743652343750e+01,4.811220550537109375e+01,3.039754486083984375e+01,1.092777557373046875e+02,9.618811035156250000e+01,-1.446533203125000000e+00,4.033146500587463379e-01,-6.666896057128906250e+01,-1.826858215332031250e+02,-2.342532396316528320e+00,7.562139129638671875e+01,3.135763168334960938e+01
1.684509962797164917e-01,1.000000000000000000e+00,-3.458961868286132812e+01,4.804841232299804688e+01,3.041627120971679688e+01,1.092123870849609375e+02,9.620448303222656250e+01,-1.469184041023254395e+00,4.033146500587463379e-01,-6.666896057128906250e+01,-1.826858215332031250e+02,-2.342532396316528320e+00,7.562139129638671875e+01,3.135763168334960938e+01
1.717540025711059570e-01,1.000000000000000000e+00,-3.462377929687500000e+01,4.798253631591796875e+01,3.043546295166015625e+01,1.091459655761718750e+02,9.622058105468750000e+01,-1.492309689521789551e+00,4.033146500587463379e-01,-6.666896057128906250e+01,-1.826858215332031250e+02,-2.342460393905639648e+00,7.562139129638671875e+01,3.135763168334960938e+01
1.756149977445602417e-01,1.000000000000000000e+00,-3.465859985351562500e+01,4.791496276855468750e+01,3.045504188537597656e+01,1.090781250000000000e+02,9.623690032958984375e+01,-1.515435218811035156e+00,4.033146500587463379e-01,-6.666896057128906250e+01,-1.826859436035156250e+02,-2.342460393905639648e+00,7.562146759033203125e+01,3.135763168334960938e+01
1.798689961433410645e-01,1.000000000000000000e+00,-3.469413757324218750e+01,4.784555816650390625e+01,3.047474288940429688e+01,1.090099563598632812e+02,9.625385284423828125e+01,-1.538221716880798340e+00,4.033146500587463379e-01,-6.666896057128906250e+01,-1.826859436035156250e+02,-2.342532396316528320e+00,7.562146759033203125e+01,3.135763168334960938e+01
1.852270066738128662e-01,1.000000000000000000e+00,-3.473056793212890625e+01,4.777418136596679688e+01,3.049440383911132812e+01,1.089405364990234375e+02,9.627102661132812500e+01,-1.561753988265991211e+00,4.033146500587463379e-01,-6.666896057128906250e+01,-1.826859436035156250e+02,-2.342532396316528320e+00,7.562146759033203125e+01,3.135763168334960938e+01
1.877129971981048584e-01,1.000000000000000000e+00,-3.476800155639648438e+01,4.770111083984375000e+01,3.051410675048828125e+01,1.088712158203125000e+02,9.628813171386718750e+01,-1.585286498069763184e+00,4.033146500587463379e-01,-6.666896057128906250e+01,-1.826859436035156250e+02,-2.342532396316528320e+00,7.562139129638671875e+01,3.135763168334960938e+01
1.927919983863830566e-01,1.000000000000000000e+00,-3.480620956420898438e+01,4.762665557861328125e+01,3.053397178649902344e+01,1.088006896972656250e+02,9.630583953857421875e+01,-1.608886837959289551e+00,4.034245014190673828e-01,-6.666896057128906250e+01,-1.826858215332031250e+02,-2.342532396316528320e+00,7.562139129638671875e+01,3.135763168334960938e+01
1.962430030107498169e-01,1.000000000000000000e+00,-3.484505081176757812e+01,4.755114364624023438e+01,3.055410003662109375e+01,1.087306289672851562e+02,9.632438659667968750e+01,-1.633368730545043945e+00,4.033146500587463379e-01,-6.666896057128906250e+01,-1.826858215332031250e+02,-2.342532396316528320e+00,7.562124633789062500e+01,3.135763168334960938e+01
1.998919993638992310e-01,1.000000000000000000e+00,-3.488460922241210938e+01,4.747488021850585938e+01,3.057432746887207031e+01,1.086601486206054688e+02,9.634289550781250000e+01,-1.657918453216552734e+00,4.033146500587463379e-01,-6.666896057128906250e+01,-1.826858215332031250e+02,-2.342532396316528320e+00,7.562139129638671875e+01,3.135763168334960938e+01
2.043810039758682251e-01,1.000000000000000000e+00,-3.492454147338867188e+01,4.739863967895507812e+01,3.059441947937011719e+01,1.085903015136718750e+02,9.636064147949218750e+01,-1.682264566421508789e+00,4.033146500587463379e-01,-6.666896057128906250e+01,-1.826858215332031250e+02,-2.342460393905639648e+00,7.562139129638671875e+01,3.135763168334960938e+01
2.081100046634674072e-01,1.000000000000000000e+00,-3.496475601196289062e+01,4.732228851318359375e+01,3.061442375183105469e+01,1.085195083618164062e+02,9.637786865234375000e+01,-1.705864787101745605e+00,4.033146500587463379e-01,-6.666896057128906250e+01,-1.826858215332031250e+02,-2.342532396316528320e+00,7.562139129638671875e+01,3.135763168334960938e+01
2.121589928865432739e-01,1.000000000000000000e+00,-3.500483322143554688e+01,4.724602508544921875e+01,3.063420867919921875e+01,1.084488220214843750e+02,9.639519500732421875e+01,-1.728854775428771973e+00,4.033146500587463379e-01,-6.666896057128906250e+01,-1.826859436035156250e+02,-2.342532396316528320e+00,7.562139129638671875e+01,3.135763168334960938e+01
2.168830037117004395e-01,1.000000000000000000e+00,-3.504539489746093750e+01,4.716944503784179688e+01,3.065406990051269531e+01,1.083782958984375000e+02,9.641257476806640625e+01,-1.752658486366271973e+00,4.034245014190673828e-01,-6.666896057128906250e+01,-1.826858215332031250e+02,-2.342532396316528320e+00,7.562139129638671875e+01,3.135763168334960938e+01
2.202299982309341431e-01,1.000000000000000000e+00,-3.508615875244140625e+01,4.709270858764648438e+01,3.067421913146972656e+01,1.083079223632812500e+02,9.643033599853515625e+01,-1.776733517646789551e+00,4.033146500587463379e-01,-6.666896057128906250e+01,-1.826858215332031250e+02,-2.342532396316528320e+00,7.562139129638671875e+01,3.135763168334960938e+01
2.240020036697387695e-01,1.000000000000000000e+00,-3.512651824951171875e+01,4.701594543457031250e+01,3.069441032409667969e+01,1.082374954223632812e+02,9.644819641113281250e+01,-1.800605058670043945e+00,4.033146500587463379e-01,-6.666896057128906250e+01,-1.826858215332031250e+02,-2.342532396316528320e+00,7.562139129638671875e+01,3.135763168334960938e+01
2.282879948616027832e-01,1.000000000000000000e+00,-3.516676712036132812e+01,4.693907165527343750e+01,3.071459960937500000e+01,1.081669158935546875e+02,9.646664428710937500e+01,-1.825086951255798340e+00,4.033146500587463379e-01,-6.666896057128906250e+01,-1.826859436035156250e+02,-2.342460393905639648e+00,7.562139129638671875e+01,3.135763168334960938e+01
2.323119938373565674e-01,1.000000000000000000e+00,-3.520706939697265625e+01,4.686206054687500000e+01,3.073478889465332031e+01,1.080960617065429688e+02,9.648524475097656250e+01,-1.849975705146789551e+00,4.033146500587463379e-01,-6.666904449462890625e+01,-1.826858215332031250e+02,-2.342532396316528320e+00,7.562124633789062500e+01,3.135763168334960938e+01
2.362380027770996094e-01,1.000000000000000000e+00,-3.524720382690429688e+01,4.678523254394531250e+01,3.075491714477539062e+01,1.080255889892578125e+02,9.650310516357421875e+01,-1.874457478523254395e+00,4.033146500587463379e-01,-6.666896057128906250e+01,-1.826858215332031250e+02,-2.342603921890258789e+00,7.562139129638671875e+01,3.135763168334960938e+01
2.411720007658004761e-01,1.000000000000000000e+00,-3.528730773925781250e+01,4.670890045166015625e+01,3.077524757385253906e+01,1.079547424316406250e+02,9.652049255371093750e+01,-1.898193478584289551e+00,4.033146500587463379e-01,-6.666896057128906250e+01,-1.826858215332031250e+02,-2.342460393905639648e+00,7.562139129638671875e+01,3.135763168334960938e+01
2.444660067558288574e-01,1.000000000000000000e+00,-3.532755661010742188e+01,4.663241195678710938e+01,3.079578399658203125e+01,1.078840560913085938e+02,9.653786468505859375e+01,-1.921929240226745605e+00,4.033146500587463379e-01,-6.666896057128906250e+01,-1.826858215332031250e+02,-2.342532396316528320e+00,7.562139129638671875e+01,3.135763168334960938e+01
2.483430057764053345e-01,1.000000000000000000e+00,-3.536742782592773438e+01,4.655599212646484375e+01,3.081615829467773438e+01,1.078129959106445312e+02,9.655557250976562500e+01,-1.945597290992736816e+00,4.033146500587463379e-01,-6.666896057128906250e+01,-1.826859436035156250e+02,-2.342532396316528320e+00,7.562139129638671875e+01,3.135763168334960938e+01
2.524470090866088867e-01,1.000000000000000000e+00,-3.540761947631835938e+01,4.647943496704101562e+01,3.083644676208496094e+01,1.077420959472656250e+02,9.657321929931640625e+01,-1.969604611396789551e+00,4.033146500587463379e-01,-6.666904449462890625e+01,-1.826858215332031250e+02,-2.342532396316528320e+00,7.562139129638671875e+01,3.135763168334960938e+01
2.563839852809906006e-01,1.000000000000000000e+00,-3.544763565063476562e+01,4.640301132202148438e+01,3.085657501220703125e+01,1.076710357666015625e+02,9.659118652343750000e+01,-1.993882894515991211e+00,4.033146500587463379e-01,-6.666896057128906250e+01,-1.826858215332031250e+02,-2.342532396316528320e+00,7.562139129638671875e+01,3.135763168334960938e+01
2.605189979076385498e-01,1.000000000000000000e+00,-3.548748016357421875e+01,4.632666015625000000e+01,3.087670326232910156e+01,1.075999221801757812e+02,9.660968780517578125e+01,-2.018432855606079102e+00,4.033146500587463379e-01,-6.666886138916015625e+01,-1.826859436035156250e+02,-2.342460393905639648e+00,7.562139129638671875e+01,3.135763168334960938e+01
2.652600109577178955e-01,1.000000000000000000e+00,-3.552692031860351562e+01,4.624971771240234375e+01,3.089730072021484375e+01,1.075287628173828125e+02,9.662850189208984375e+01,-2.043389320373535156e+00,4.033146500587463379e-01,-6.666896057128906250e+01,-1.826858215332031250e+02,-2.342532396316528320e+00,7.562146759033203125e+01,3.135763168334960938e+01
2.683489918708801270e-01,1.000000000000000000e+00,-3.556662750244140625e+01,4.617268753051757812e+01,3.091785621643066406e+01,1.074576568603515625e+02,9.664668273925781250e+01,-2.067871093750000000e+00,4.033146500587463379e-01,-6.666896057128906250e+01,-1.826859436035156250e+02,-2.342603921890258789e+00,7.562139129638671875e+01,3.135763168334960938e+01
2.712349891662597656e-01,1.000000000000000000e+00,-3.560620880126953125e+01,4.609522247314453125e+01,3.093836975097656250e+01,1.073865432739257812e+02,9.666422271728515625e+01,-2.091268062591552734e+00,4.033146500587463379e-01,-6.666896057128906250e+01,-1.826858215332031250e+02,-2.342460393905639648e+00,7.562139129638671875e+01,3.135763168334960938e+01
2.751759886741638184e-01,1.000000000000000000e+00,-3.564574050903320312e+01,4.601782989501953125e+01,3.095872497558593750e+01,1.073155441284179688e+02,9.668161010742187500e+01,-2.115342855453491211e+00,4.033146500587463379e-01,-6.666896057128906250e+01,-1.826859436035156250e+02,-2.342603921890258789e+00,7.562139129638671875e+01,3.135763168334960938e+01
2.792209982872009277e-01,1.000000000000000000e+00,-3.568503952026367188e+01,4.594061279296875000e+01,3.097895240783691406e+01,1.072445373535156250e+02,9.669910430908203125e+01,-2.139146804809570312e+00,4.033146500587463379e-01,-6.666886138916015625e+01,-1.826858215332031250e+02,-2.342460393905639648e+00,7.562139129638671875e+01,3.135740852355957031e+01
2.832329869270324707e-01,1.000000000000000000e+00,-3.572439575195312500e+01,4.586369705200195312e+01,3.099928474426269531e+01,1.071731643676757812e+02,9.671674346923828125e+01,-2.163289546966552734e+00,4.033146500587463379e-01,-6.666896057128906250e+01,-1.826859436035156250e+02,-2.342532396316528320e+00,7.562139129638671875e+01,3.135763168334960938e+01
2.871870100498199463e-01,1.000000000000000000e+00,-3.576361083984375000e+01,4.578702926635742188e+01,3.101975822448730469e+01,1.071023635864257812e+02,9.673482513427734375e+01,-2.188178300857543945e+00,4.033146500587463379e-01,-6.666896057128906250e+01,-1.826858215332031250e+02,-2.342532396316528320e+00,7.562139129638671875e+01,3.135763168334960938e+01
2.911739945411682129e-01,1.000000000000000000e+00,-3.580273818969726562e+01,4.570983505249023438e+01,3.104017066955566406e+01,1.070309448242187500e+02,9.675305175781250000e+01,-2.213067054748535156e+00,4.033146500587463379e-01,-6.666896057128906250e+01,-1.826858215332031250e+02,-2.342603921890258789e+00,7.562139129638671875e+01,3.135763168334960938e+01
2.952339947223663330e-01,1.000000000000000000e+00,-3.584201049804687500e+01,4.563232803344726562e+01,3.106048393249511719e+01,1.069597244262695312e+02,9.677203369140625000e+01,-2.237955808639526367e+00,4.034245014190673828e-01,-6.666896057128906250e+01,-1.826859436035156250e+02,-2.342532396316528320e+00,7.562124633789062500e+01,3.135763168334960938e+01
2.992280125617980957e-01,1.000000000000000000e+00,-3.588127899169921875e+01,4.555434799194335938e+01,3.108081436157226562e+01,1.068879318237304688e+02,9.679026794433593750e+01,-2.262030839920043945e+00,4.033146500587463379e-01,-6.666896057128906250e+01,-1.826859436035156250e+02,-2.342532396316528320e+00,7.562139129638671875e+01,3.135763168334960938e+01
3.032079935073852539e-01,1.000000000000000000e+00,-3.592089462280273438e+01,4.547631835937500000e+01,3.110136985778808594e+01,1.068165130615234375e+02,9.680812835693359375e+01,-2.285630941390991211e+00,4.033146500587463379e-01,-6.666904449462890625e+01,-1.826859436035156250e+02,-2.342532396316528320e+00,7.562146759033203125e+01,3.135763168334960938e+01
3.072699904441833496e-01,1.000000000000000000e+00,-3.596051406860351562e+01,4.539828872680664062e+01,3.112196540832519531e+01,1.067447128295898438e+02,9.682540130615234375e+01,-2.309705972671508789e+00,4.033146500587463379e-01,-6.666886138916015625e+01,-1.826858215332031250e+02,-2.342532396316528320e+00,7.562124633789062500e+01,3.135763168334960938e+01
3.111909925937652588e-01,1.000000000000000000e+00,-3.600015640258789062e+01,4.532012557983398438e+01,3.114256286621093750e+01,1.066737594604492188e+02,9.684320831298828125e+01,-2.334052085876464844e+00,4.033146500587463379e-01,-6.666896057128906250e+01,-1.826858215332031250e+02,-2.342532396316528320e+00,7.562139129638671875e+01,3.135763168334960938e+01
3.151719868183135986e-01,1.000000000000000000e+00,-3.603988647460937500e+01,4.524238967895507812e+01,3.116305541992187500e+01,1.066018066406250000e+02,9.686106872558593750e+01,-2.358330726623535156e+00,4.033146500587463379e-01,-6.666896057128906250e+01,-1.826858215332031250e+02,-2.342532396316528320e+00,7.562139129638671875e+01,3.135763168334960938e+01
3.193159997463226318e-01,1.000000000000000000e+00,-3.607978820800781250e+01,4.516447448730468750e+01,3.118324661254882812e+01,1.065302200317382812e+02,9.687914276123046875e+01,-2.383287429809570312e+00,4.033146500587463379e-01,-6.666896057128906250e+01,-1.826858215332031250e+02,-2.342603921890258789e+00,7.562124633789062500e+01,3.135763168334960938e+01
3.232679963111877441e-01,1.000000000000000000e+00,-3.611980819702148438e+01,4.508665466308593750e+01,3.120362091064453125e+01,1.064584884643554688e+02,9.689759063720703125e+01,-2.408311605453491211e+00,4.033146500587463379e-01,-6.666896057128906250e+01,-1.826858215332031250e+02,-2.342460393905639648e+00,7.562124633789062500e+01,3.135763168334960938e+01
3.290799856185913086e-01,1.000000000000000000e+00,-3.615996551513671875e+01,4.500846862792968750e+01,3.122413444519042969e+01,1.063872146606445312e+02,9.691651916503906250e+01,-2.432793617248535156e+00,4.033146500587463379e-01,-6.666896057128906250e+01,-1.826858215332031250e+02,-2.342532396316528320e+00,7.562139129638671875e+01,3.135763168334960938e+01
3.312509953975677490e-01,1.000000000000000000e+00,-3.620032882690429688e+01,4.493046188354492188e+01,3.124464988708496094e+01,1.063153076171875000e+02,9.693523406982421875e+01,-2.456529378890991211e+00,4.033146500587463379e-01,-6.666896057128906250e+01,-1.826859436035156250e+02,-2.342532396316528320e+00,7.562139129638671875e+01,3.135763168334960938e+01
3.352130055427551270e-01,1.000000000000000000e+00,-3.624074935913085938e+01,4.485241317749023438e+01,3.126516342163085938e+01,1.062436218261718750e+02,9.695277404785156250e+01,-2.480672121047973633e+00,4.033146500587463379e-01,-6.666896057128906250e+01,-1.826858215332031250e+02,-2.342532396316528320e+00,7.562139129638671875e+01,3.135763168334960938e+01
3.391740024089813232e-01,1.000000000000000000e+00,-3.628122329711914062e+01,4.477413558959960938e+01,3.128577995300292969e+01,1.061718292236328125e+02,9.697042083740234375e+01,-2.504747390747070312e+00,4.033146500587463379e-01,-6.666896057128906250e+01,-1.826858215332031250e+02,-2.342532396316528320e+00,7.562146759033203125e+01,3.135763168334960938e+01
3.432469964027404785e-01,1.000000000000000000e+00,-3.632201766967773438e+01,4.469588088989257812e+01,3.130627441406250000e+01,1.061004562377929688e+02,9.698822784423828125e+01,-2.528890132904052734e+00,4.033146500587463379e-01,-6.666896057128906250e+01,-1.826858215332031250e+02,-2.342532396316528320e+00,7.562139129638671875e+01,3.135763168334960938e+01
3.471809923648834229e-01,1.000000000000000000e+00,-3.636278152465820312e+01,4.461742401123046875e+01,3.132695388793945312e+01,1.060286102294921875e+02,9.700588226318359375e+01,-2.553439855575561523e+00,4.033146500587463379e-01,-6.666896057128906250e+01,-1.826858215332031250e+02,-2.342532396316528320e+00,7.562139129638671875e+01,3.135763168334960938e+01
3.512420058250427246e-01,1.000000000000000000e+00,-3.640365982055664062e+01,4.453921508789062500e+01,3.134766960144042969e+01,1.059560775756835938e+02,9.702384948730468750e+01,-2.578192710876464844e+00,4.033146500587463379e-01,-6.666896057128906250e+01,-1.826858215332031250e+02,-2.342603921890258789e+00,7.562139129638671875e+01,3.135763168334960938e+01
3.552199900150299072e-01,1.000000000000000000e+00,-3.644459533691406250e+01,4.446102905273437500e+01,3.136828613281250000e+01,1.058839645385742188e+02,9.704239654541015625e+01,-2.603217363357543945e+00,4.033146500587463379e-01,-6.666904449462890625e+01,-1.826858215332031250e+02,-2.342532396316528320e+00,7.562146759033203125e+01,3.135763168334960938e+01
3.591850101947784424e-01,1.000000000000000000e+00,-3.648564529418945312e+01,4.438304519653320312e+01,3.138882064819335938e+01,1.058123321533203125e+02,9.706137847900390625e+01,-2.627631425857543945e+00,4.033146500587463379e-01,-6.666896057128906250e+01,-1.826858215332031250e+02,-2.342460393905639648e+00,7.562139129638671875e+01,3.135763168334960938e+01
3.631849884986877441e-01,1.000000000000000000e+00,-3.652680969238281250e+01,4.430524063110351562e+01,3.140943717956542969e+01,1.057401123046875000e+02,9.707962036132812500e+01,-2.651435136795043945e+00,4.033146500587463379e-01,-6.666896057128906250e+01,-1.826858215332031250e+02,-2.342460393905639648e+00,7.562139129638671875e+01,3.135763168334960938e+01
3.672379851341247559e-01,1.000000000000000000e+00,-3.656780624389648438e+01,4.422735214233398438e+01,3.143013763427734375e+01,1.056682662963867188e+02,9.709763336181640625e+01,-2.675442218780517578e+00,4.033146500587463379e-01,-6.666896057128906250e+01,-1.826858215332031250e+02,-2.342532396316528320e+00,7.562146759033203125e+01,3.135763168334960938e+01
3.712339997291564941e-01,1.000000000000000000e+00,-3.660908508300781250e+01,4.414918518066406250e+01,3.145095443725585938e+01,1.055961532592773438e+02,9.711502075195312500e+01,-2.699923992156982422e+00,4.033146500587463379e-01,-6.666896057128906250e+01,-1.826859436035156250e+02,-2.342603921890258789e+00,7.562124633789062500e+01,3.135763168334960938e+01
3.752210140228271484e-01,1.000000000000000000e+00,-3.665030670166015625e+01,4.407065963745117188e+01,3.147177314758300781e+01,1.055243606567382812e+02,9.713309478759765625e+01,-2.723999261856079102e+00,4.033146500587463379e-01,-6.666904449462890625e+01,-1.826858215332031250e+02,-2.342460393905639648e+00,7.562139129638671875e+01,3.135763168334960938e+01
3.792510032653808594e-01,1.000000000000000000e+00,-3.669135665893554688e+01,4.399211120605468750e+01,3.149243164062500000e+01,1.054519348144531250e+02,9.715106201171875000e+01,-2.749023437500000000e+00,4.033146500587463379e-01,-6.666904449462890625e+01,-1.826858215332031250e+02,-2.342603921890258789e+00,7.562139129638671875e+01,3.135763168334960938e+01
3.833940029144287109e-01,1.000000000000000000e+00,-3.673226547241210938e+01,4.391349792480468750e+01,3.151304817199707031e+01,1.053801879882812500e+02,9.716908264160156250e+01,-2.774522781372070312e+00,4.033146500587463379e-01,-6.666896057128906250e+01,-1.826858215332031250e+02,-2.342532396316528320e+00,7.562139129638671875e+01,3.135763168334960938e+01
3.871810138225555420e-01,1.000000000000000000e+00,-3.677308654785156250e+01,4.383465194702148438e+01,3.153368568420410156e+01,1.053076629638671875e+02,9.718763732910156250e+01,-2.798868894577026367e+00,4.033146500587463379e-01,-6.666896057128906250e+01,-1.826858215332031250e+02,-2.342532396316528320e+00,7.562124633789062500e+01,3.135763168334960938e+01
3.932070136070251465e-01,1.000000000000000000e+00,-3.681433868408203125e+01,4.375613021850585938e+01,3.155452537536621094e+01,1.052357025146484375e+02,9.720661163330078125e+01,-2.823215246200561523e+00,4.033146500587463379e-01,-6.666896057128906250e+01,-1.826858215332031250e+02,-2.342460393905639648e+00,7.562139129638671875e+01,3.135763168334960938e+01
3.952420055866241455e-01,1.000000000000000000e+00,-3.685530090332031250e+01,4.367771530151367188e+01,3.157540512084960938e+01,1.051631774902343750e+02,9.722543334960937500e+01,-2.846544027328491211e+00,4.033146500587463379e-01,-6.666896057128906250e+01,-1.826858215332031250e+02,-2.342532396316528320e+00,7.562124633789062500e+01,3.135763168334960938e+01
4.002169966697692871e-01,1.000000000000000000e+00,-3.689612197875976562e+01,4.359946060180664062e+01,3.159614562988281250e+01,1.050911712646484375e+02,9.724340820312500000e+01,-2.871026039123535156e+00,4.033146500587463379e-01,-6.666896057128906250e+01,-1.826859436035156250e+02,-2.342532396316528320e+00,7.562139129638671875e+01,3.135763168334960938e+01
4.031850099563598633e-01,1.000000000000000000e+00,-3.693700027465820312e+01,4.352104568481445312e+01,3.161686325073242188e+01,1.050182723999023438e+02,9.726100158691406250e+01,-2.895236492156982422e+00,4.033146500587463379e-01,-6.666896057128906250e+01,-1.826858215332031250e+02,-2.342532396316528320e+00,7.562124633789062500e+01,3.135763168334960938e+01
4.072650074958801270e-01,1.000000000000000000e+00,-3.697811126708984375e+01,4.344250106811523438e+01,3.163753890991210938e+01,1.049459991455078125e+02,9.727864074707031250e+01,-2.920057773590087891e+00,4.033146500587463379e-01,-6.666896057128906250e+01,-1.826858215332031250e+02,-2.342532396316528320e+00,7.562139129638671875e+01,3.135763168334960938e+01
4.136739969253540039e-01,1.000000000000000000e+00,-3.697811126708984375e+01,4.344250106811523438e+01,3.163753890991210938e+01,1.049459991455078125e+02,9.727864074707031250e+01,-2.920057773590087891e+00,4.033146500587463379e-01,-6.666896057128906250e+01,-1.826858215332031250e+02,-2.342460393905639648e+00,7.562139129638671875e+01,3.135763168334960938e+01
4.151850044727325439e-01,1.000000000000000000e+00,-3.705972290039062500e+01,4.328472137451171875e+01,3.167932319641113281e+01,1.048012466430664062e+02,9.731458282470703125e+01,-2.970920085906982422e+00,4.033146500587463379e-01,-6.666904449462890625e+01,-1.826858215332031250e+02,-2.342603921890258789e+00,7.562139129638671875e+01,3.135763168334960938e+01
4.201880097389221191e-01,1.000000000000000000e+00,-3.705972290039062500e+01,4.328472137451171875e+01,3.167932319641113281e+01,1.048012466430664062e+02,9.731458282470703125e+01,-2.970920085906982422e+00,4.033146500587463379e-01,-6.666904449462890625e+01,-1.826858215332031250e+02,-2.342603921890258789e+00,7.562139129638671875e+01,3.135763168334960938e+01
4.231840074062347412e-01,1.000000000000000000e+00,-3.714125061035156250e+01,4.312590789794921875e+01,3.172084045410156250e+01,1.046563491821289062e+02,9.735217285156250000e+01,-3.019544839859008789e+00,4.033146500587463379e-01,-6.666896057128906250e+01,-1.826858215332031250e+02,-2.342460393905639648e+00,7.562124633789062500e+01,3.135763168334960938e+01
4.282639920711517334e-01,1.000000000000000000e+00,-3.714125061035156250e+01,4.312590789794921875e+01,3.172084045410156250e+01,1.046563491821289062e+02,9.735217285156250000e+01,-3.019544839859008789e+00,4.033146500587463379e-01,-6.666896057128906250e+01,-1.826858215332031250e+02,-2.342460393905639648e+00,7.562124633789062500e+01,3.135763168334960938e+01
4.312439858913421631e-01,1.000000000000000000e+00,-3.722274780273437500e+01,4.296715545654296875e+01,3.176252174377441406e+01,1.045109100341796875e+02,9.738901519775390625e+01,-3.068237304687500000e+00,4.033146500587463379e-01,-6.666896057128906250e+01,-1.826858215332031250e+02,-2.342532396316528320e+00,7.562139129638671875e+01,3.135763168334960938e+01
4.352490007877349854e-01,1.000000000000000000e+00,-3.722274780273437500e+01,4.296715545654296875e+01,3.176252174377441406e+01,1.045109100341796875e+02,9.738901519775390625e+01,-3.068237304687500000e+00,4.033146500587463379e-01,-6.666896057128906250e+01,-1.826858215332031250e+02,-2.342532396316528320e+00,7.562139129638671875e+01,3.135763168334960938e+01
4.393280148506164551e-01,1.000000000000000000e+00,-3.726354217529296875e+01,4.288833618164062500e+01,3.178352355957031250e+01,1.044383850097656250e+02,9.740665435791015625e+01,-3.092719316482543945e+00,4.033146500587463379e-01,-6.666896057128906250e+01,-1.826859436035156250e+02,-2.342532396316528320e+00,7.562139129638671875e+01,3.135763168334960938e+01
4.443840086460113525e-01,1.000000000000000000e+00,-3.730436325073242188e+01,4.280983352661132812e+01,3.180442428588867188e+01,1.043657455444335938e+02,9.742446899414062500e+01,-3.117608070373535156e+00,4.033146500587463379e-01,-6.666904449462890625e+01,-1.826858215332031250e+02,-2.342532396316528320e+00,7.562124633789062500e+01,3.135763168334960938e+01
4.478969871997833252e-01,1.000000000000000000e+00,-3.738623428344726562e+01,4.265151596069335938e+01,3.184571647644042969e+01,1.042200469970703125e+02,9.746082305908203125e+01,-3.168334960937500000e+00,4.033146500587463379e-01,-6.666896057128906250e+01,-1.826858215332031250e+02,-2.342603921890258789e+00,7.562139129638671875e+01,3.135763168334960938e+01
4.511860013008117676e-01,1.000000000000000000e+00,-3.742728424072265625e+01,4.257194900512695312e+01,3.186647605895996094e+01,1.041469879150390625e+02,9.747953796386718750e+01,-3.192816972732543945e+00,4.033146500587463379e-01,-6.666904449462890625e+01,-1.826858215332031250e+02,-2.342532396316528320e+00,7.562139129638671875e+01,3.135763168334960938e+01
4.552949965000152588e-01,1.000000000000000000e+00,-3.742728424072265625e+01,4.257194900512695312e+01,3.186647605895996094e+01,1.041469879150390625e+02,9.747953796386718750e+01,-3.192816972732543945e+00,4.033146500587463379e-01,-6.666904449462890625e+01,-1.826858215332031250e+02,-2.342532396316528320e+00,7.562139129638671875e+01,3.135763168334960938e+01
4.592329859733581543e-01,1.000000000000000000e+00,-3.746833419799804688e+01,4.249226760864257812e+01,3.188754081726074219e+01,1.040739822387695312e+02,9.749868011474609375e+01,-3.217095375061035156e+00,4.033146500587463379e-01,-6.666896057128906250e+01,-1.826858215332031250e+02,-2.342532396316528320e+00,7.562124633789062500e+01,3.135763168334960938e+01
4.632180035114288330e-01,1.000000000000000000e+00,-3.750941467285156250e+01,4.241263198852539062e+01,3.190862655639648438e+01,1.040011367797851562e+02,9.751765441894531250e+01,-3.241509437561035156e+00,4.033146500587463379e-01,-6.666896057128906250e+01,-1.826858215332031250e+02,-2.342603921890258789e+00,7.562139129638671875e+01,3.135763168334960938e+01
4.673419892787933350e-01,1.000000000000000000e+00,-3.755055236816406250e+01,4.233270263671875000e+01,3.192968750000000000e+01,1.039280700683593750e+02,9.753530883789062500e+01,-3.266330242156982422e+00,4.033146500587463379e-01,-6.666896057128906250e+01,-1.826859436035156250e+02,-2.342532396316528320e+00,7.562139129638671875e+01,3.135763168334960938e+01
4.712190032005310059e-01,1.000000000000000000e+00,-3.759165954589843750e+01,4.225313949584960938e+01,3.195064926147460938e+01,1.038554382324218750e+02,9.755322265625000000e+01,-3.291083574295043945e+00,4.033146500587463379e-01,-6.666896057128906250e+01,-1.826859436035156250e+02,-2.342532396316528320e+00,7.562139129638671875e+01,3.135763168334960938e+01
4.752170145511627197e-01,1.000000000000000000e+00,-3.763291168212890625e+01,4.217368316650390625e+01,3.197145080566406250e+01,1.037821197509765625e+02,9.757102966308593750e+01,-3.316582679748535156e+00,4.033146500587463379e-01,-6.666904449462890625e+01,-1.826858215332031250e+02,-2.342460393905639648e+00,7.562146759033203125e+01,3.135763168334960938e+01
4.793069958686828613e-01,1.000000000000000000e+00,-3.767422103881835938e+01,4.209454727172851562e+01,3.199239158630371094e+01,1.037091598510742188e+02,9.758910369873046875e+01,-3.342421054840087891e+00,4.033146500587463379e-01,-6.666896057128906250e+01,-1.826858215332031250e+02,-2.342532396316528320e+00,7.562124633789062500e+01,3.135763168334960938e+01
4.832189977169036865e-01,1.000000000000000000e+00,-3.771535873413085938e+01,4.201520919799804688e+01,3.201345443725585938e+01,1.036360473632812500e+02,9.760744476318359375e+01,-3.367241859436035156e+00,4.033146500587463379e-01,-6.666896057128906250e+01,-1.826858215332031250e+02,-2.342460393905639648e+00,7.562139129638671875e+01,3.135763168334960938e+01
4.872170090675354004e-01,1.000000000000000000e+00,-3.775678253173828125e+01,4.193564224243164062e+01,3.203443908691406250e+01,1.035631484985351562e+02,9.762621307373046875e+01,-3.391384601593017578e+00,4.033146500587463379e-01,-6.666896057128906250e+01,-1.826858215332031250e+02,-2.342532396316528320e+00,7.562139129638671875e+01,3.135784912109375000e+01
4.912140071392059326e-01,1.000000000000000000e+00,-3.779823684692382812e+01,4.185593795776367188e+01,3.205533981323242188e+01,1.034897689819335938e+02,9.764535522460937500e+01,-3.415798664093017578e+00,4.033146500587463379e-01,-6.666886138916015625e+01,-1.826858215332031250e+02,-2.342532396316528320e+00,7.562139129638671875e+01,3.135763168334960938e+01
4.955410063266754150e-01,1.000000000000000000e+00,-3.783980178833007812e+01,4.177580261230468750e+01,3.207633972167968750e+01,1.034165039062500000e+02,9.766428375244140625e+01,-3.440619707107543945e+00,4.033146500587463379e-01,-6.666896057128906250e+01,-1.826858215332031250e+02,-2.342532396316528320e+00,7.562139129638671875e+01,3.135763168334960938e+01
4.992440044879913330e-01,1.000000000000000000e+00,-3.788142776489257812e+01,4.169535446166992188e+01,3.209740447998046875e+01,1.033426589965820312e+02,9.768235778808593750e+01,-3.465576410293579102e+00,4.033146500587463379e-01,-6.666896057128906250e+01,-1.826858215332031250e+02,-2.342460393905639648e+00,7.562139129638671875e+01,3.135784912109375000e+01
5.032789707183837891e-01,1.000000000000000000e+00,-3.792285156250000000e+01,4.161506652832031250e+01,3.211873245239257812e+01,1.032693328857421875e+02,9.770021820068359375e+01,-3.490871906280517578e+00,4.033146500587463379e-01,-6.666896057128906250e+01,-1.826858215332031250e+02,-2.342532396316528320e+00,7.562146759033203125e+01,3.135763168334960938e+01
5.072270035743713379e-01,1.000000000000000000e+00,-3.796435928344726562e+01,4.153479766845703125e+01,3.213996124267578125e+01,1.031959533691406250e+02,9.771828460693359375e+01,-3.516642332077026367e+00,4.033146500587463379e-01,-6.666896057128906250e+01,-1.826858215332031250e+02,-2.342460393905639648e+00,7.562139129638671875e+01,3.135763168334960938e+01
5.112140178680419922e-01,1.000000000000000000e+00,-3.800578689575195312e+01,4.145497894287109375e+01,3.216098022460937500e+01,1.031226882934570312e+02,9.773625946044921875e+01,-3.541938066482543945e+00,4.033146500587463379e-01,-6.666896057128906250e+01,-1.826858215332031250e+02,-2.342532396316528320e+00,7.562139129638671875e+01,3.135763168334960938e+01
5.155959725379943848e-01,1.000000000000000000e+00,-3.804732513427734375e+01,4.137557220458984375e+01,3.218192672729492188e+01,1.030491027832031250e+02,9.775486755371093750e+01,-3.566216468811035156e+00,4.033146500587463379e-01,-6.666904449462890625e+01,-1.826858215332031250e+02,-2.342532396316528320e+00,7.562124633789062500e+01,3.135784912109375000e+01
5.200700163841247559e-01,1.000000000000000000e+00,-3.808886337280273438e+01,4.129598236083984375e+01,3.220290756225585938e+01,1.029753036499023438e+02,9.777384185791015625e+01,-3.590630531311035156e+00,4.033146500587463379e-01,-6.666896057128906250e+01,-1.826858215332031250e+02,-2.342603921890258789e+00,7.562146759033203125e+01,3.135763168334960938e+01
5.245599746704101562e-01,1.000000000000000000e+00,-3.817188262939453125e+01,4.113580703735351562e+01,3.224531936645507812e+01,1.028284530639648438e+02,9.781207275390625000e+01,-3.640136957168579102e+00,4.033146500587463379e-01,-6.666904449462890625e+01,-1.826858215332031250e+02,-2.342532396316528320e+00,7.562139129638671875e+01,3.135763168334960938e+01
5.277349948883056641e-01,1.000000000000000000e+00,-3.821347808837890625e+01,4.105545043945312500e+01,3.226648330688476562e+01,1.027544937133789062e+02,9.782998657226562500e+01,-3.665228843688964844e+00,4.031498432159423828e-01,-6.666896057128906250e+01,-1.826858215332031250e+02,-2.342532396316528320e+00,7.562139129638671875e+01,3.135763168334960938e+01
5.312510132789611816e-01,1.000000000000000000e+00,-3.821347808837890625e+01,4.105545043945312500e+01,3.226648330688476562e+01,1.027544937133789062e+02,9.782998657226562500e+01,-3.665228843688964844e+00,4.031498432159423828e-01,-6.666896057128906250e+01,-1.826858215332031250e+02,-2.342532396316528320e+00,7.562139129638671875e+01,3.135763168334960938e+01
5.352159738540649414e-01,1.000000000000000000e+00,-3.825490188598632812e+01,4.097475433349609375e+01,3.228775405883789062e+01,1.026811752319335938e+02,9.784779357910156250e+01,-3.690863847732543945e+00,4.033146500587463379e-01,-6.666896057128906250e+01,-1.826858215332031250e+02,-2.342603921890258789e+00,7.562139129638671875e+01,3.135763168334960938e+01
5.392709970474243164e-01,1.000000000000000000e+00,-3.829647064208984375e+01,4.089384841918945312e+01,3.230889511108398438e+01,1.026073760986328125e+02,9.786592102050781250e+01,-3.716702222824096680e+00,4.033146500587463379e-01,-6.666896057128906250e+01,-1.826859436035156250e+02,-2.342532396316528320e+00,7.562146759033203125e+01,3.135763168334960938e+01
5.439689755439758301e-01,1.000000000000000000e+00,-3.833795166015625000e+01,4.081328582763671875e+01,3.233008193969726562e+01,1.025337448120117188e+02,9.788416290283203125e+01,-3.741590976715087891e+00,4.033146500587463379e-01,-6.666896057128906250e+01,-1.826858215332031250e+02,-2.342532396316528320e+00,7.562139129638671875e+01,3.135763168334960938e+01
5.472189784049987793e-01,1.000000000000000000e+00,-3.837957763671875000e+01,4.073281478881835938e+01,3.235136795043945312e+01,1.024589462280273438e+02,9.790244293212890625e+01,-3.765733480453491211e+00,4.033146500587463379e-01,-6.666896057128906250e+01,-1.826858215332031250e+02,-2.342532396316528320e+00,7.562124633789062500e+01,3.135763168334960938e+01
5.516549944877624512e-01,1.000000000000000000e+00,-3.842100143432617188e+01,4.065277481079101562e+01,3.237251663208007812e+01,1.023856201171875000e+02,9.792115783691406250e+01,-3.790351152420043945e+00,4.033146500587463379e-01,-6.666896057128906250e+01,-1.826858215332031250e+02,-2.342532396316528320e+00,7.562139129638671875e+01,3.135763168334960938e+01
5.552440285682678223e-01,1.000000000000000000e+00,-3.846228027343750000e+01,4.057259368896484375e+01,3.239351654052734375e+01,1.023115081787109375e+02,9.794072723388671875e+01,-3.815375804901123047e+00,4.033146500587463379e-01,-6.666896057128906250e+01,-1.826858215332031250e+02,-2.342532396316528320e+00,7.562139129638671875e+01,3.135763168334960938e+01
5.592280030250549316e-01,1.000000000000000000e+00,-3.850370788574218750e+01,4.049219131469726562e+01,3.241462326049804688e+01,1.022380294799804688e+02,9.795965576171875000e+01,-3.840535640716552734e+00,4.033146500587463379e-01,-6.666904449462890625e+01,-1.826858215332031250e+02,-2.342532396316528320e+00,7.562139129638671875e+01,3.135763168334960938e+01
5.632619857788085938e-01,1.000000000000000000e+00,-3.854515838623046875e+01,4.041165161132812500e+01,3.243586730957031250e+01,1.021634445190429688e+02,9.797756958007812500e+01,-3.865763425827026367e+00,4.033146500587463379e-01,-6.666896057128906250e+01,-1.826858215332031250e+02,-2.342532396316528320e+00,7.562139129638671875e+01,3.135763168334960938e+01
5.679609775543212891e-01,1.000000000000000000e+00,-3.858666992187500000e+01,4.033077239990234375e+01,3.245723724365234375e+01,1.020897521972656250e+02,9.799564361572265625e+01,-3.891940832138061523e+00,4.033146500587463379e-01,-6.666896057128906250e+01,-1.826858215332031250e+02,-2.342532396316528320e+00,7.562139129638671875e+01,3.135763168334960938e+01
5.722939968109130859e-01,1.000000000000000000e+00,-3.862800598144531250e+01,4.024966812133789062e+01,3.247860336303710938e+01,1.020157394409179688e+02,9.801392364501953125e+01,-3.917439699172973633e+00,4.033146500587463379e-01,-6.666896057128906250e+01,-1.826858215332031250e+02,-2.342532396316528320e+00,7.562139129638671875e+01,3.135763168334960938e+01
5.755450129508972168e-01,1.000000000000000000e+00,-3.866939926147460938e+01,4.016826629638671875e+01,3.249983215332031250e+01,1.019420471191406250e+02,9.803263854980468750e+01,-3.941718339920043945e+00,4.033146500587463379e-01,-6.666904449462890625e+01,-1.826858215332031250e+02,-2.342532396316528320e+00,7.562139129638671875e+01,3.135763168334960938e+01
5.792509913444519043e-01,1.000000000000000000e+00,-3.871102523803710938e+01,4.008713912963867188e+01,3.252091598510742188e+01,1.018674163818359375e+02,9.805103302001953125e+01,-3.966267824172973633e+00,4.033146500587463379e-01,-6.666904449462890625e+01,-1.826858215332031250e+02,-2.342460393905639648e+00,7.562139129638671875e+01,3.135763168334960938e+01
5.832279920578002930e-01,1.000000000000000000e+00,-3.875265121459960938e+01,4.000612258911132812e+01,3.254218292236328125e+01,1.017936706542968750e+02,9.807038879394531250e+01,-3.991224527359008789e+00,4.033146500587463379e-01,-6.666896057128906250e+01,-1.826858215332031250e+02,-2.342532396316528320e+00,7.562139129638671875e+01,3.135763168334960938e+01
5.872629880905151367e-01,1.000000000000000000e+00,-3.879424667358398438e+01,3.992549133300781250e+01,3.256359481811523438e+01,1.017190322875976562e+02,9.808995819091796875e+01,-4.015977859497070312e+00,4.033146500587463379e-01,-6.666896057128906250e+01,-1.826858215332031250e+02,-2.342460393905639648e+00,7.562139129638671875e+01,3.135784912109375000e+01
5.919640064239501953e-01,1.000000000000000000e+00,-3.883595657348632812e+01,3.984520339965820312e+01,3.258488082885742188e+01,1.016452407836914062e+02,9.810915374755859375e+01,-4.041680335998535156e+00,4.033146500587463379e-01,-6.666896057128906250e+01,-1.826858215332031250e+02,-2.342460393905639648e+00,7.562146759033203125e+01,3.135763168334960938e+01
5.962460041046142578e-01,1.000000000000000000e+00,-3.887781143188476562e+01,3.976461791992187500e+01,3.260617065429687500e+01,1.015703277587890625e+02,9.812684631347656250e+01,-4.067382812500000000e+00,4.033146500587463379e-01,-6.666896057128906250e+01,-1.826858215332031250e+02,-2.342460393905639648e+00,7.562139129638671875e+01,3.135763168334960938e+01
5.999339818954467773e-01,1.000000000000000000e+00,-3.891952514648437500e+01,3.968367004394531250e+01,3.262747573852539062e+01,1.014963226318359375e+02,9.814487457275390625e+01,-4.093356609344482422e+00,4.033146500587463379e-01,-6.666896057128906250e+01,-1.826858215332031250e+02,-2.342603921890258789e+00,7.562124633789062500e+01,3.135763168334960938e+01
6.042950153350830078e-01,1.000000000000000000e+00,-3.896123504638671875e+01,3.960245132446289062e+01,3.264871978759765625e+01,1.014215316772460938e+02,9.816332244873046875e+01,-4.118449211120605469e+00,4.033146500587463379e-01,-6.666896057128906250e+01,-1.826858215332031250e+02,-2.342532396316528320e+00,7.562139129638671875e+01,3.135763168334960938e+01
6.072549819946289062e-01,1.000000000000000000e+00,-3.900355148315429688e+01,3.952096176147460938e+01,3.267021179199218750e+01,1.013473663330078125e+02,9.818176269531250000e+01,-4.142998695373535156e+00,4.033146500587463379e-01,-6.666896057128906250e+01,-1.826858215332031250e+02,-2.342603921890258789e+00,7.562139129638671875e+01,3.135763168334960938e+01
6.112750172615051270e-01,1.000000000000000000e+00,-3.904563522338867188e+01,3.943939971923828125e+01,3.269174575805664062e+01,1.012726135253906250e+02,9.820059204101562500e+01,-4.168023109436035156e+00,4.033146500587463379e-01,-6.666896057128906250e+01,-1.826858215332031250e+02,-2.342532396316528320e+00,7.562146759033203125e+01,3.135763168334960938e+01
6.166960000991821289e-01,1.000000000000000000e+00,-3.908760070800781250e+01,3.935782241821289062e+01,3.271303176879882812e+01,1.011983413696289062e+02,9.822010040283203125e+01,-4.193386554718017578e+00,4.033146500587463379e-01,-6.666896057128906250e+01,-1.826858215332031250e+02,-2.342532396316528320e+00,7.562139129638671875e+01,3.135763168334960938e+01
6.193580031394958496e-01,1.000000000000000000e+00,-3.912965774536132812e+01,3.927660369873046875e+01,3.273439788818359375e+01,1.011239166259765625e+02,9.823956298828125000e+01,-4.218682289123535156e+00,4.033146500587463379e-01,-6.666904449462890625e+01,-1.826858215332031250e+02,-2.342532396316528320e+00,7.562139129638671875e+01,3.135763168334960938e+01
6.239600181579589844e-01,1.000000000000000000e+00,-3.917211532592773438e+01,3.919567489624023438e+01,3.275578689575195312e+01,1.010492248535156250e+02,9.825827789306640625e+01,-4.244588375091552734e+00,4.033146500587463379e-01,-6.666904449462890625e+01,-1.826858215332031250e+02,-2.342532396316528320e+00,7.562146759033203125e+01,3.135763168334960938e+01
6.274219751358032227e-01,1.000000000000000000e+00,-3.921468734741210938e+01,3.911452484130859375e+01,3.277740097045898438e+01,1.009745864868164062e+02,9.827629089355468750e+01,-4.270629882812500000e+00,4.033146500587463379e-01,-6.666896057128906250e+01,-1.826858215332031250e+02,-2.342460393905639648e+00,7.562139129638671875e+01,3.135763168334960938e+01
6.313239932060241699e-01,1.000000000000000000e+00,-3.925714492797851562e+01,3.903348922729492188e+01,3.279893493652343750e+01,1.008997344970703125e+02,9.829463958740234375e+01,-4.295925617218017578e+00,4.033146500587463379e-01,-6.666896057128906250e+01,-1.826858215332031250e+02,-2.342603921890258789e+00,7.562139129638671875e+01,3.135763168334960938e+01
6.353859901428222656e-01,1.000000000000000000e+00,-3.929948806762695312e+01,3.895227050781250000e+01,3.282028198242187500e+01,1.008252563476562500e+02,9.831313323974609375e+01,-4.320882320404052734e+00,4.033146500587463379e-01,-6.666896057128906250e+01,-1.826859436035156250e+02,-2.342532396316528320e+00,7.562139129638671875e+01,3.135763168334960938e+01
6.396560072898864746e-01,1.000000000000000000e+00,-3.934200286865234375e+01,3.887068939208984375e+01,3.284156799316406250e+01,1.007500915527343750e+02,9.833190917968750000e+01,-4.345906734466552734e+00,4.033146500587463379e-01,-6.666896057128906250e+01,-1.826858215332031250e+02,-2.342532396316528320e+00,7.562124633789062500e+01,3.135763168334960938e+01
6.435179710388183594e-01,1.000000000000000000e+00,-3.938454437255859375e+01,3.878874588012695312e+01,3.286283874511718750e+01,1.006750869750976562e+02,9.835094451904296875e+01,-4.371338367462158203e+00,4.033146500587463379e-01,-6.666904449462890625e+01,-1.826858215332031250e+02,-2.342460393905639648e+00,7.562139129638671875e+01,3.135763168334960938e+01
6.483880281448364258e-01,1.000000000000000000e+00,-3.942703247070312500e+01,3.870655441284179688e+01,3.288440704345703125e+01,1.005998611450195312e+02,9.837071990966796875e+01,-4.397108554840087891e+00,4.033146500587463379e-01,-6.666904449462890625e+01,-1.826858215332031250e+02,-2.342532396316528320e+00,7.562139129638671875e+01,3.135763168334960938e+01
6.516630053520202637e-01,1.000000000000000000e+00,-3.946945953369140625e+01,3.862449645996093750e+01,3.290614318847656250e+01,1.005251770019531250e+02,9.839028930664062500e+01,-4.422472000122070312e+00,4.033146500587463379e-01,-6.666896057128906250e+01,-1.826859436035156250e+02,-2.342532396316528320e+00,7.562139129638671875e+01,3.135763168334960938e+01
6.555060148239135742e-01,1.000000000000000000e+00,-3.951211929321289062e+01,3.854253387451171875e+01,3.292767333984375000e+01,1.004501113891601562e+02,9.840884399414062500e+01,-4.449123859405517578e+00,4.033146500587463379e-01,-6.666896057128906250e+01,-1.826858215332031250e+02,-2.342532396316528320e+00,7.562139129638671875e+01,3.135763168334960938e+01
6.594650149345397949e-01,1.000000000000000000e+00,-3.955454635620117188e+01,3.846092987060546875e+01,3.294922637939453125e+01,1.003755264282226562e+02,9.842717742919921875e+01,-4.475097656250000000e+00,4.033146500587463379e-01,-6.666896057128906250e+01,-1.826858215332031250e+02,-2.342603921890258789e+00,7.562124633789062500e+01,3.135763168334960938e+01
6.637619733810424805e-01,1.000000000000000000e+00,-3.959706115722656250e+01,3.837973403930664062e+01,3.297067642211914062e+01,1.002998886108398438e+02,9.844535827636718750e+01,-4.500054359436035156e+00,4.033146500587463379e-01,-6.666904449462890625e+01,-1.826858215332031250e+02,-2.342532396316528320e+00,7.562139129638671875e+01,3.135763168334960938e+01
6.676840186119079590e-01,1.000000000000000000e+00,-3.963951873779296875e+01,3.829833221435546875e+01,3.299222946166992188e+01,1.002253494262695312e+02,9.846413421630859375e+01,-4.524807453155517578e+00,4.033146500587463379e-01,-6.666904449462890625e+01,-1.826859436035156250e+02,-2.342532396316528320e+00,7.562139129638671875e+01,3.135763168334960938e+01
6.723380088806152344e-01,1.000000000000000000e+00,-3.968223571777343750e+01,3.821652603149414062e+01,3.301383972167968750e+01,1.001500244140625000e+02,9.848305511474609375e+01,-4.550510406494140625e+00,4.033146500587463379e-01,-6.666896057128906250e+01,-1.826858215332031250e+02,-2.342532396316528320e+00,7.562139129638671875e+01,3.135763168334960938e+01
6.758710145950317383e-01,1.000000000000000000e+00,-3.972477722167968750e+01,3.813435745239257812e+01,3.303541183471679688e+01,1.000750732421875000e+02,9.850267028808593750e+01,-4.575941085815429688e+00,4.033146500587463379e-01,-6.666896057128906250e+01,-1.826858215332031250e+02,-2.342532396316528320e+00,7.562146759033203125e+01,3.135763168334960938e+01
6.802240014076232910e-01,1.000000000000000000e+00,-3.976740646362304688e+01,3.805194091796875000e+01,3.305686187744140625e+01,9.999927520751953125e+01,9.852245330810546875e+01,-4.601983070373535156e+00,4.033146500587463379e-01,-6.666896057128906250e+01,-1.826858215332031250e+02,-2.342532396316528320e+00,7.562139129638671875e+01,3.135763168334960938e+01
6.836979985237121582e-01,1.000000000000000000e+00,-3.980989456176757812e+01,3.796947479248046875e+01,3.307837295532226562e+01,9.992405700683593750e+01,9.854159545898437500e+01,-4.628295898437500000e+00,4.033146500587463379e-01,-6.666896057128906250e+01,-1.826858215332031250e+02,-2.342532396316528320e+00,7.562139129638671875e+01,3.135763168334960938e+01
6.889430284500122070e-01,1.000000000000000000e+00,-3.985243606567382812e+01,3.788685607910156250e+01,3.310002517700195312e+01,9.984805297851562500e+01,9.856037139892578125e+01,-4.654405593872070312e+00,4.033146500587463379e-01,-6.666896057128906250e+01,-1.826858215332031250e+02,-2.342532396316528320e+00,7.562139129638671875e+01,3.135763168334960938e+01
6.922490000724792480e-01,1.000000000000000000e+00,-3.989486694335937500e+01,3.780477523803710938e+01,3.312188339233398438e+01,9.977335357666015625e+01,9.857865142822265625e+01,-4.679497718811035156e+00,4.033146500587463379e-01,-6.666896057128906250e+01,-1.826859436035156250e+02,-2.342460393905639648e+00,7.562139129638671875e+01,3.135763168334960938e+01
6.967269778251647949e-01,1.000000000000000000e+00,-3.993743896484375000e+01,3.772285461425781250e+01,3.314355850219726562e+01,9.969771575927734375e+01,9.859720611572265625e+01,-4.704386234283447266e+00,4.033146500587463379e-01,-6.666896057128906250e+01,-1.826858215332031250e+02,-2.342532396316528320e+00,7.562139129638671875e+01,3.135763168334960938e+01
7.000619769096374512e-01,1.000000000000000000e+00,-3.998015594482421875e+01,3.764084625244140625e+01,3.316502761840820312e+01,9.962197113037109375e+01,9.861629486083984375e+01,-4.729817867279052734e+00,4.033146500587463379e-01,-6.666896057128906250e+01,-1.826858215332031250e+02,-2.342532396316528320e+00,7.562139129638671875e+01,3.135763168334960938e+01
7.039319872856140137e-01,1.000000000000000000e+00,-4.002264022827148438e+01,3.755887985229492188e+01,3.318633651733398438e+01,9.954617309570312500e+01,9.863554382324218750e+01,-4.755384922027587891e+00,4.033146500587463379e-01,-6.666896057128906250e+01,-1.826858215332031250e+02,-2.342532396316528320e+00,7.562139129638671875e+01,3.135763168334960938e+01
7.083089947700500488e-01,1.000000000000000000e+00,-4.006498336791992188e+01,3.747684478759765625e+01,3.320795059204101562e+01,9.947111511230468750e+01,9.865531921386718750e+01,-4.781087398529052734e+00,4.033146500587463379e-01,-6.666896057128906250e+01,-1.826858215332031250e+02,-2.342532396316528320e+00,7.562139129638671875e+01,3.135763168334960938e+01
7.128369808197021484e-01,1.000000000000000000e+00,-4.010766983032226562e+01,3.739438247680664062e+01,3.322968292236328125e+01,9.939547729492187500e+01,9.867515563964843750e+01,-4.807400226593017578e+00,4.033146500587463379e-01,-6.666896057128906250e+01,-1.826858215332031250e+02,-2.342532396316528320e+00,7.562146759033203125e+01,3.135763168334960938e+01
7.162230014801025391e-01,1.000000000000000000e+00,-4.015024185180664062e+01,3.731158065795898438e+01,3.325149917602539062e+01,9.931935882568359375e+01,9.869435119628906250e+01,-4.833848953247070312e+00,4.033146500587463379e-01,-6.666896057128906250e+01,-1.826858215332031250e+02,-2.342460393905639648e+00,7.562139129638671875e+01,3.135763168334960938e+01
7.207790017127990723e-01,1.000000000000000000e+00,-4.019290161132812500e+01,3.722837066650390625e+01,3.327339553833007812e+01,9.924393463134765625e+01,9.871263122558593750e+01,-4.859076976776123047e+00,4.033146500587463379e-01,-6.666896057128906250e+01,-1.826858215332031250e+02,-2.342532396316528320e+00,7.562146759033203125e+01,3.135763168334960938e+01
7.243549823760986328e-01,1.000000000000000000e+00,-4.023550033569335938e+01,3.714547348022460938e+01,3.329510879516601562e+01,9.916812896728515625e+01,9.873102569580078125e+01,-4.883830070495605469e+00,4.033146500587463379e-01,-6.666896057128906250e+01,-1.826858215332031250e+02,-2.342532396316528320e+00,7.562124633789062500e+01,3.135740852355957031e+01
7.281579971313476562e-01,1.000000000000000000e+00,-4.027824783325195312e+01,3.706262588500976562e+01,3.331676483154296875e+01,9.909233856201171875e+01,9.874979400634765625e+01,-4.909397125244140625e+00,4.033146500587463379e-01,-6.666896057128906250e+01,-1.826858215332031250e+02,-2.342532396316528320e+00,7.562139129638671875e+01,3.135763168334960938e+01
7.320870161056518555e-01,1.000000000000000000e+00,-4.032084655761718750e+01,3.698009490966796875e+01,3.333860015869140625e+01,9.901580047607421875e+01,9.876877593994140625e+01,-4.934963703155517578e+00,4.033146500587463379e-01,-6.666896057128906250e+01,-1.826858215332031250e+02,-2.342532396316528320e+00,7.562139129638671875e+01,3.135763168334960938e+01
7.370569705963134766e-01,1.000000000000000000e+00,-4.036356353759765625e+01,3.689812850952148438e+01,3.336037445068359375e+01,9.894020843505859375e+01,9.878839874267578125e+01,-4.960937500000000000e+00,4.033146500587463379e-01,-6.666896057128906250e+01,-1.826859436035156250e+02,-2.342532396316528320e+00,7.562139129638671875e+01,3.135763168334960938e+01
7.403320074081420898e-01,1.000000000000000000e+00,-4.040648269653320312e+01,3.681591415405273438e+01,3.338198852539062500e+01,9.886394500732421875e+01,9.880828094482421875e+01,-4.986979484558105469e+00,4.033146500587463379e-01,-6.666896057128906250e+01,-1.826858215332031250e+02,-2.342532396316528320e+00,7.562139129638671875e+01,3.135763168334960938e+01
7.452250123023986816e-01,1.000000000000000000e+00,-4.044939422607421875e+01,3.673329544067382812e+01,3.340359878540039062e+01,9.878851318359375000e+01,9.882817077636718750e+01,-5.013902664184570312e+00,4.033146500587463379e-01,-6.666896057128906250e+01,-1.826859436035156250e+02,-2.342532396316528320e+00,7.562139129638671875e+01,3.135763168334960938e+01
7.484089732170104980e-01,1.000000000000000000e+00,-4.049219512939453125e+01,3.665028762817382812e+01,3.342531585693359375e+01,9.871192169189453125e+01,9.884688568115234375e+01,-5.039537429809570312e+00,4.033146500587463379e-01,-6.666896057128906250e+01,-1.826858215332031250e+02,-2.342532396316528320e+00,7.562139129638671875e+01,3.135784912109375000e+01
7.523109912872314453e-01,1.000000000000000000e+00,-4.053511428833007812e+01,3.656707763671875000e+01,3.344735336303710938e+01,9.863617706298828125e+01,9.886533355712890625e+01,-5.064086914062500000e+00,4.033146500587463379e-01,-6.666896057128906250e+01,-1.826859436035156250e+02,-2.342460393905639648e+00,7.562139129638671875e+01,3.135763168334960938e+01
7.562130093574523926e-01,1.000000000000000000e+00,-4.057828903198242188e+01,3.648377609252929688e+01,3.346935653686523438e+01,9.855974578857421875e+01,9.888420867919921875e+01,-5.089585781097412109e+00,4.033146500587463379e-01,-6.666896057128906250e+01,-1.826858215332031250e+02,-2.342603921890258789e+00,7.562139129638671875e+01,3.135763168334960938e+01
7.612190246582031250e-01,1.000000000000000000e+00,-4.062137985229492188e+01,3.640027236938476562e+01,3.349133300781250000e+01,9.848400115966796875e+01,9.890324401855468750e+01,-5.115221023559570312e+00,4.033146500587463379e-01,-6.666904449462890625e+01,-1.826858215332031250e+02,-2.342532396316528320e+00,7.562139129638671875e+01,3.135763168334960938e+01
7.644550204277038574e-01,1.000000000000000000e+00,-4.066435241699218750e+01,3.631724166870117188e+01,3.351302719116210938e+01,9.840778350830078125e+01,9.892253875732421875e+01,-5.141262531280517578e+00,4.033146500587463379e-01,-6.666904449462890625e+01,-1.826858215332031250e+02,-2.342460393905639648e+00,7.562139129638671875e+01,3.135763168334960938e+01
7.688710093498229980e-01,1.000000000000000000e+00,-4.070746994018554688e+01,3.623453140258789062e+01,3.353475952148437500e+01,9.833156585693359375e+01,9.894237518310546875e+01,-5.167507648468017578e+00,4.033146500587463379e-01,-6.666904449462890625e+01,-1.826859436035156250e+02,-2.342532396316528320e+00,7.562139129638671875e+01,3.135763168334960938e+01
7.725859880447387695e-01,1.000000000000000000e+00,-4.075070190429687500e+01,3.615168380737304688e+01,3.355657577514648438e+01,9.825508117675781250e+01,9.896258544921875000e+01,-5.194024085998535156e+00,4.033146500587463379e-01,-6.666896057128906250e+01,-1.826858215332031250e+02,-2.342460393905639648e+00,7.562139129638671875e+01,3.135763168334960938e+01
7.751690149307250977e-01,1.000000000000000000e+00,-4.079388046264648438e+01,3.606885528564453125e+01,3.357867813110351562e+01,9.817896270751953125e+01,9.898214721679687500e+01,-5.220744132995605469e+00,4.033146500587463379e-01,-6.666896057128906250e+01,-1.826858215332031250e+02,-2.342532396316528320e+00,7.562124633789062500e+01,3.135763168334960938e+01
7.801579833030700684e-01,1.000000000000000000e+00,-4.083696746826171875e+01,3.598594284057617188e+01,3.360061645507812500e+01,9.810227203369140625e+01,9.900049591064453125e+01,-5.245903968811035156e+00,4.033146500587463379e-01,-6.666896057128906250e+01,-1.826858215332031250e+02,-2.342532396316528320e+00,7.562139129638671875e+01,3.135763168334960938e+01
7.832059860229492188e-01,1.000000000000000000e+00,-4.088019943237304688e+01,3.590252685546875000e+01,3.362255477905273438e+01,9.802568817138671875e+01,9.901904296875000000e+01,-5.270928382873535156e+00,4.033146500587463379e-01,-6.666896057128906250e+01,-1.826858215332031250e+02,-2.342460393905639648e+00,7.562139129638671875e+01,3.135763168334960938e+01
7.872440218925476074e-01,1.000000000000000000e+00,-4.092346191406250000e+01,3.581893157958984375e+01,3.364437103271484375e+01,9.794925689697265625e+01,9.903791809082031250e+01,-5.296970367431640625e+00,4.033146500587463379e-01,-6.666904449462890625e+01,-1.826858215332031250e+02,-2.342532396316528320e+00,7.562139129638671875e+01,3.135763168334960938e+01
7.912819981575012207e-01,1.000000000000000000e+00,-4.096677780151367188e+01,3.573490905761718750e+01,3.366630554199218750e+01,9.787287902832031250e+01,9.905695343017578125e+01,-5.323215007781982422e+00,4.033146500587463379e-01,-6.666896057128906250e+01,-1.826858215332031250e+02,-2.342460393905639648e+00,7.562139129638671875e+01,3.135763168334960938e+01
7.951710224151611328e-01,1.000000000000000000e+00,-4.100981140136718750e+01,3.565097045898437500e+01,3.368838882446289062e+01,9.779628753662109375e+01,9.907667541503906250e+01,-5.349460124969482422e+00,4.033146500587463379e-01,-6.666896057128906250e+01,-1.826858215332031250e+02,-2.342532396316528320e+00,7.562124633789062500e+01,3.135763168334960938e+01
7.991549968719482422e-01,1.000000000000000000e+00,-4.105310058593750000e+01,3.556728744506835938e+01,3.371032714843750000e+01,9.771991729736328125e+01,9.909667205810546875e+01,-5.376315593719482422e+00,4.033146500587463379e-01,-6.666896057128906250e+01,-1.826858215332031250e+02,-2.342532396316528320e+00,7.562139129638671875e+01,3.135763168334960938e+01
8.032699823379516602e-01,1.000000000000000000e+00,-4.109621810913085938e+01,3.548400878906250000e+01,3.373212432861328125e+01,9.764311218261718750e+01,9.911655426025390625e+01,-5.402289390563964844e+00,4.033146500587463379e-01,-6.666896057128906250e+01,-1.826859436035156250e+02,-2.342532396316528320e+00,7.562146759033203125e+01,3.135763168334960938e+01
8.071600198745727539e-01,1.000000000000000000e+00,-4.113965225219726562e+01,3.540104675292968750e+01,3.375408172607421875e+01,9.756626129150390625e+01,9.913553619384765625e+01,-5.427721023559570312e+00,4.033146500587463379e-01,-6.666896057128906250e+01,-1.826858215332031250e+02,-2.342532396316528320e+00,7.562146759033203125e+01,3.135763168334960938e+01
8.111670017242431641e-01,1.000000000000000000e+00,-4.118294143676757812e+01,3.531783676147460938e+01,3.377600097656250000e+01,9.748999023437500000e+01,9.915430450439453125e+01,-5.453423500061035156e+00,4.033146500587463379e-01,-6.666896057128906250e+01,-1.826859436035156250e+02,-2.342460393905639648e+00,7.562139129638671875e+01,3.135763168334960938e+01
8.152229785919189453e-01,1.000000000000000000e+00,-4.122623062133789062e+01,3.523424148559570312e+01,3.379805755615234375e+01,9.741281890869140625e+01,9.917296600341796875e+01,-5.479533195495605469e+00,4.033146500587463379e-01,-6.666896057128906250e+01,-1.826858215332031250e+02,-2.342532396316528320e+00,7.562139129638671875e+01,3.135763168334960938e+01
8.209459781646728516e-01,1.000000000000000000e+00,-4.126934814453125000e+01,3.515026473999023438e+01,3.382022094726562500e+01,9.733597564697265625e+01,9.919206237792968750e+01,-5.505913734436035156e+00,4.033146500587463379e-01,-6.666896057128906250e+01,-1.826858215332031250e+02,-2.342532396316528320e+00,7.562139129638671875e+01,3.135763168334960938e+01
8.231509923934936523e-01,1.000000000000000000e+00,-4.131240844726562500e+01,3.506607818603515625e+01,3.384207916259765625e+01,9.725869750976562500e+01,9.921146392822265625e+01,-5.532362461090087891e+00,4.033146500587463379e-01,-6.666896057128906250e+01,-1.826858215332031250e+02,-2.342460393905639648e+00,7.562139129638671875e+01,3.135763168334960938e+01
8.272330164909362793e-01,1.000000000000000000e+00,-4.135558319091796875e+01,3.498178482055664062e+01,3.386399459838867188e+01,9.718184661865234375e+01,9.923150634765625000e+01,-5.559353351593017578e+00,4.033146500587463379e-01,-6.666896057128906250e+01,-1.826858215332031250e+02,-2.342532396316528320e+00,7.562124633789062500e+01,3.135763168334960938e+01
8.311610221862792969e-01,1.000000000000000000e+00,-4.139887237548828125e+01,3.489737319946289062e+01,3.388607406616210938e+01,9.710452270507812500e+01,9.925182342529296875e+01,-5.586073398590087891e+00,4.033146500587463379e-01,-6.666896057128906250e+01,-1.826858215332031250e+02,-2.342532396316528320e+00,7.562146759033203125e+01,3.135763168334960938e+01
8.351929783821105957e-01,1.000000000000000000e+00,-4.144207763671875000e+01,3.481330490112304688e+01,3.390817260742187500e+01,9.702746582031250000e+01,9.927144622802734375e+01,-5.611843585968017578e+00,4.033146500587463379e-01,-6.666896057128906250e+01,-1.826858215332031250e+02,-2.342532396316528320e+00,7.562139129638671875e+01,3.135763168334960938e+01
8.392230272293090820e-01,1.000000000000000000e+00,-4.148525238037109375e+01,3.472966003417968750e+01,3.393023681640625000e+01,9.695092010498046875e+01,9.929037475585937500e+01,-5.637478351593017578e+00,4.033146500587463379e-01,-6.666896057128906250e+01,-1.826858215332031250e+02,-2.342532396316528320e+00,7.562124633789062500e+01,3.135763168334960938e+01
8.431710004806518555e-01,1.000000000000000000e+00,-4.152831268310546875e+01,3.464595413208007812e+01,3.395239639282226562e+01,9.687349700927734375e+01,9.930902862548828125e+01,-5.663316726684570312e+00,4.033146500587463379e-01,-6.666896057128906250e+01,-1.826858215332031250e+02,-2.342532396316528320e+00,7.562139129638671875e+01,3.135740852355957031e+01
8.471649885177612305e-01,1.000000000000000000e+00,-4.157145690917968750e+01,3.456229019165039062e+01,3.397439575195312500e+01,9.679648590087890625e+01,9.932779693603515625e+01,-5.689561843872070312e+00,4.033146500587463379e-01,-6.666896057128906250e+01,-1.826858215332031250e+02,-2.342603921890258789e+00,7.562146759033203125e+01,3.135763168334960938e+01
8.531140089035034180e-01,1.000000000000000000e+00,-4.161468887329101562e+01,3.447838211059570312e+01,3.399663925170898438e+01,9.671920776367187500e+01,9.934709930419921875e+01,-5.716485023498535156e+00,4.033146500587463379e-01,-6.666896057128906250e+01,-1.826858215332031250e+02,-2.342460393905639648e+00,7.562146759033203125e+01,3.135763168334960938e+01
8.552200198173522949e-01,1.000000000000000000e+00,-4.165795135498046875e+01,3.439392852783203125e+01,3.401871871948242188e+01,9.664251708984375000e+01,9.936693572998046875e+01,-5.743544101715087891e+00,4.033146500587463379e-01,-6.666896057128906250e+01,-1.826858215332031250e+02,-2.342532396316528320e+00,7.562124633789062500e+01,3.135763168334960938e+01
8.591729998588562012e-01,1.000000000000000000e+00,-4.170118331909179688e+01,3.430933380126953125e+01,3.404076004028320312e+01,9.656455993652343750e+01,9.938692474365234375e+01,-5.770195960998535156e+00,4.033146500587463379e-01,-6.666896057128906250e+01,-1.826859436035156250e+02,-2.342532396316528320e+00,7.562139129638671875e+01,3.135763168334960938e+01
8.632050156593322754e-01,1.000000000000000000e+00,-4.174459075927734375e+01,3.422456359863281250e+01,3.406299972534179688e+01,9.648723602294921875e+01,9.940692138671875000e+01,-5.796034336090087891e+00,4.033146500587463379e-01,-6.666896057128906250e+01,-1.826858215332031250e+02,-2.342603921890258789e+00,7.562124633789062500e+01,3.135763168334960938e+01
8.672900199890136719e-01,1.000000000000000000e+00,-4.178799438476562500e+01,3.413974380493164062e+01,3.408520507812500000e+01,9.640901947021484375e+01,9.942621612548828125e+01,-5.821329593658447266e+00,4.033146500587463379e-01,-6.666896057128906250e+01,-1.826858215332031250e+02,-2.342603921890258789e+00,7.562124633789062500e+01,3.135763168334960938e+01
8.711590170860290527e-01,1.000000000000000000e+00,-4.183145523071289062e+01,3.405529403686523438e+01,3.410750961303710938e+01,9.633221435546875000e+01,9.944509887695312500e+01,-5.847303867340087891e+00,4.033146500587463379e-01,-6.666896057128906250e+01,-1.826859436035156250e+02,-2.342532396316528320e+00,7.562139129638671875e+01,3.135763168334960938e+01
8.773139715194702148e-01,1.000000000000000000e+00,-4.187500762939453125e+01,3.397131347656250000e+01,3.412999343872070312e+01,9.625441741943359375e+01,9.946401977539062500e+01,-5.873820304870605469e+00,4.033146500587463379e-01,-6.666896057128906250e+01,-1.826858215332031250e+02,-2.342603921890258789e+00,7.562146759033203125e+01,3.135763168334960938e+01
8.792139887809753418e-01,1.000000000000000000e+00,-4.191866683959960938e+01,3.388735580444335938e+01,3.415207672119140625e+01,9.617662048339843750e+01,9.948332214355468750e+01,-5.900607585906982422e+00,4.033146500587463379e-01,-6.666896057128906250e+01,-1.826858215332031250e+02,-2.342532396316528320e+00,7.562139129638671875e+01,3.135784912109375000e+01
8.831769824028015137e-01,1.000000000000000000e+00,-4.196236038208007812e+01,3.380335235595703125e+01,3.417413330078125000e+01,9.609902954101562500e+01,9.950283050537109375e+01,-5.927531242370605469e+00,4.033146500587463379e-01,-6.666896057128906250e+01,-1.826858215332031250e+02,-2.342603921890258789e+00,7.562139129638671875e+01,3.135763168334960938e+01
8.872089982032775879e-01,1.000000000000000000e+00,-4.200622558593750000e+01,3.371891784667968750e+01,3.419617462158203125e+01,9.602154541015625000e+01,9.952293395996093750e+01,-5.954183101654052734e+00,4.033146500587463379e-01,-6.666896057128906250e+01,-1.826858215332031250e+02,-2.342532396316528320e+00,7.562124633789062500e+01,3.135763168334960938e+01
8.912249803543090820e-01,1.000000000000000000e+00,-4.205014419555664062e+01,3.363430786132812500e+01,3.421852111816406250e+01,9.594380187988281250e+01,9.954330444335937500e+01,-5.980089187622070312e+00,4.033146500587463379e-01,-6.666896057128906250e+01,-1.826858215332031250e+02,-2.342532396316528320e+00,7.562139129638671875e+01,3.135763168334960938e+01
8.951759934425354004e-01,1.000000000000000000e+00,-4.209409332275390625e+01,3.354915237426757812e+01,3.424104690551757812e+01,9.586562347412109375e+01,9.956340026855468750e+01,-6.005723953247070312e+00,4.034245014190673828e-01,-6.666904449462890625e+01,-1.826858215332031250e+02,-2.342532396316528320e+00,7.562139129638671875e+01,3.135763168334960938e+01
9.014549851417541504e-01,1.000000000000000000e+00,-4.213819122314453125e+01,3.346383666992187500e+01,3.426335144042968750e+01,9.578829956054687500e+01,9.958222198486328125e+01,-6.031900882720947266e+00,4.033146500587463379e-01,-6.666896057128906250e+01,-1.826858215332031250e+02,-2.342460393905639648e+00,7.562146759033203125e+01,3.135763168334960938e+01
9.032300114631652832e-01,1.000000000000000000e+00,-4.218222427368164062e+01,3.337888336181640625e+01,3.428563308715820312e+01,9.571035003662109375e+01,9.960093688964843750e+01,-6.058349609375000000e+00,4.033146500587463379e-01,-6.666896057128906250e+01,-1.826858215332031250e+02,-2.342532396316528320e+00,7.562139129638671875e+01,3.135763168334960938e+01
9.096400141716003418e-01,1.000000000000000000e+00,-4.218222427368164062e+01,3.337888336181640625e+01,3.428563308715820312e+01,9.571035003662109375e+01,9.960093688964843750e+01,-6.058349609375000000e+00,4.033146500587463379e-01,-6.666896057128906250e+01,-1.826858215332031250e+02,-2.342603921890258789e+00,7.562139129638671875e+01,3.135763168334960938e+01
9.111509919166564941e-01,1.000000000000000000e+00,-4.227049636840820312e+01,3.320965576171875000e+01,3.433030319213867188e+01,9.555358886718750000e+01,9.963937377929687500e+01,-6.112264156341552734e+00,4.033146500587463379e-01,-6.666904449462890625e+01,-1.826858215332031250e+02,-2.342532396316528320e+00,7.562139129638671875e+01,3.135763168334960938e+01
9.161769747734069824e-01,1.000000000000000000e+00,-4.227049636840820312e+01,3.320965576171875000e+01,3.433030319213867188e+01,9.555358886718750000e+01,9.963937377929687500e+01,-6.112264156341552734e+00,4.033146500587463379e-01,-6.666904449462890625e+01,-1.826858215332031250e+02,-2.342532396316528320e+00,7.562139129638671875e+01,3.135763168334960938e+01
9.192000031471252441e-01,1.000000000000000000e+00,-4.235911560058593750e+01,3.304045486450195312e+01,3.437499237060546875e+01,9.539772796630859375e+01,9.967968750000000000e+01,-6.165364742279052734e+00,4.033146500587463379e-01,-6.666896057128906250e+01,-1.826858215332031250e+02,-2.342532396316528320e+00,7.562139129638671875e+01,3.135763168334960938e+01
9.257640242576599121e-01,1.000000000000000000e+00,-4.235911560058593750e+01,3.304045486450195312e+01,3.437499237060546875e+01,9.539772796630859375e+01,9.967968750000000000e+01,-6.165364742279052734e+00,4.033146500587463379e-01,-6.666896057128906250e+01,-1.826858215332031250e+02,-2.342532396316528320e+00,7.562139129638671875e+01,3.135763168334960938e+01
9.282289743423461914e-01,1.000000000000000000e+00,-4.244784927368164062e+01,3.286991500854492188e+01,3.441938018798828125e+01,9.524150085449218750e+01,9.971908569335937500e+01,-6.217244625091552734e+00,4.033146500587463379e-01,-6.666896057128906250e+01,-1.826858215332031250e+02,-2.342532396316528320e+00,7.562139129638671875e+01,3.135763168334960938e+01
9.321439862251281738e-01,1.000000000000000000e+00,-4.249234390258789062e+01,3.278389739990234375e+01,3.444194793701171875e+01,9.516322326660156250e+01,9.973806762695312500e+01,-6.243625640869140625e+00,4.033146500587463379e-01,-6.666896057128906250e+01,-1.826858215332031250e+02,-2.342532396316528320e+00,7.562139129638671875e+01,3.135763168334960938e+01
9.351639747619628906e-01,1.000000000000000000e+00,-4.253649520874023438e+01,3.269808197021484375e+01,3.446459579467773438e+01,9.508515167236328125e+01,9.975730895996093750e+01,-6.270548820495605469e+00,4.033146500587463379e-01,-6.666896057128906250e+01,-1.826858215332031250e+02,-2.342532396316528320e+00,7.562139129638671875e+01,3.135763168334960938e+01
9.392279982566833496e-01,1.000000000000000000e+00,-4.253649520874023438e+01,3.269808197021484375e+01,3.446459579467773438e+01,9.508515167236328125e+01,9.975730895996093750e+01,-6.270548820495605469e+00,4.033146500587463379e-01,-6.666896057128906250e+01,-1.826858215332031250e+02,-2.342532396316528320e+00,7.562139129638671875e+01,3.135763168334960938e+01
9.442020058631896973e-01,1.000000000000000000e+00,-4.258093261718750000e+01,3.261233901977539062e+01,3.448708343505859375e+01,9.500704193115234375e+01,9.977687835693359375e+01,-6.297607421875000000e+00,4.033146500587463379e-01,-6.666896057128906250e+01,-1.826858215332031250e+02,-2.342532396316528320e+00,7.562146759033203125e+01,3.135763168334960938e+01
9.476040005683898926e-01,1.000000000000000000e+00,-4.266958236694335938e+01,3.244213867187500000e+01,3.453152847290039062e+01,9.485017395019531250e+01,9.981681823730468750e+01,-6.351386070251464844e+00,4.033146500587463379e-01,-6.666896057128906250e+01,-1.826858215332031250e+02,-2.342532396316528320e+00,7.562146759033203125e+01,3.135763168334960938e+01
9.522230029106140137e-01,1.000000000000000000e+00,-4.271370315551757812e+01,3.235705184936523438e+01,3.455391311645507812e+01,9.477210998535156250e+01,9.983755493164062500e+01,-6.377495765686035156e+00,4.033146500587463379e-01,-6.666896057128906250e+01,-1.826858215332031250e+02,-2.342532396316528320e+00,7.562146759033203125e+01,3.135763168334960938e+01
9.560490250587463379e-01,1.000000000000000000e+00,-4.275802612304687500e+01,3.227164840698242188e+01,3.457641983032226562e+01,9.469300079345703125e+01,9.985749816894531250e+01,-6.403469562530517578e+00,4.033146500587463379e-01,-6.666896057128906250e+01,-1.826858215332031250e+02,-2.342532396316528320e+00,7.562124633789062500e+01,3.135763168334960938e+01
9.591540098190307617e-01,1.000000000000000000e+00,-4.280220794677734375e+01,3.218603897094726562e+01,3.459901046752929688e+01,9.461457061767578125e+01,9.987631225585937500e+01,-6.430596351623535156e+00,4.033146500587463379e-01,-6.666896057128906250e+01,-1.826858215332031250e+02,-2.342532396316528320e+00,7.562139129638671875e+01,3.135740852355957031e+01
9.632120132446289062e-01,1.000000000000000000e+00,-4.280220794677734375e+01,3.218603897094726562e+01,3.459901046752929688e+01,9.461457061767578125e+01,9.987631225585937500e+01,-6.430596351623535156e+00,4.033146500587463379e-01,-6.666896057128906250e+01,-1.826858215332031250e+02,-2.342532396316528320e+00,7.562139129638671875e+01,3.135740852355957031e+01
9.672729969024658203e-01,1.000000000000000000e+00,-4.284672927856445312e+01,3.210010910034179688e+01,3.462149429321289062e+01,9.453576660156250000e+01,9.989529418945312500e+01,-6.457655429840087891e+00,4.033146500587463379e-01,-6.666886138916015625e+01,-1.826858215332031250e+02,-2.342603921890258789e+00,7.562139129638671875e+01,3.135784912109375000e+01
9.712600111961364746e-01,1.000000000000000000e+00,-4.289085388183593750e+01,3.201382446289062500e+01,3.464388275146484375e+01,9.445744323730468750e+01,9.991486358642578125e+01,-6.485256671905517578e+00,4.033146500587463379e-01,-6.666896057128906250e+01,-1.826858215332031250e+02,-2.342532396316528320e+00,7.562139129638671875e+01,3.135763168334960938e+01
9.751999974250793457e-01,1.000000000000000000e+00,-4.293520355224609375e+01,3.192749023437500000e+01,3.466657257080078125e+01,9.437874603271484375e+01,9.993437957763671875e+01,-6.512179851531982422e+00,4.033146500587463379e-01,-6.666904449462890625e+01,-1.826858215332031250e+02,-2.342532396316528320e+00,7.562139129638671875e+01,3.135763168334960938e+01
9.799720048904418945e-01,1.000000000000000000e+00,-4.297953033447265625e+01,3.184163284301757812e+01,3.468920135498046875e+01,9.430010986328125000e+01,9.995452880859375000e+01,-6.537950515747070312e+00,4.033146500587463379e-01,-6.666896057128906250e+01,-1.826859436035156250e+02,-2.342532396316528320e+00,7.562139129638671875e+01,3.135763168334960938e+01
9.831619858741760254e-01,1.000000000000000000e+00,-4.306817626953125000e+01,3.167075347900390625e+01,3.473419570922851562e+01,9.414239501953125000e+01,9.999531555175781250e+01,-6.591593742370605469e+00,4.033146500587463379e-01,-6.666896057128906250e+01,-1.826858215332031250e+02,-2.342532396316528320e+00,7.562139129638671875e+01,3.135763168334960938e+01
9.872050285339355469e-01,1.000000000000000000e+00,-4.306817626953125000e+01,3.167075347900390625e+01,3.473419570922851562e+01,9.414239501953125000e+01,9.999531555175781250e+01,-6.591593742370605469e+00,4.033146500587463379e-01,-6.666896057128906250e+01,-1.826858215332031250e+02,-2.342532396316528320e+00,7.562139129638671875e+01,3.135763168334960938e+01
9.912109971046447754e-01,1.000000000000000000e+00,-4.311241531372070312e+01,3.158539390563964844e+01,3.475661849975585938e+01,9.406396484375000000e+01,1.000147171020507812e+02,-6.618313312530517578e+00,4.033146500587463379e-01,-6.666896057128906250e+01,-1.826858215332031250e+02,-2.342532396316528320e+00,7.562146759033203125e+01,3.135763168334960938e+01
9.953330159187316895e-01,1.000000000000000000e+00,-4.315673446655273438e+01,3.149987602233886719e+01,3.477941131591796875e+01,9.398464202880859375e+01,1.000338134765625000e+02,-6.645711421966552734e+00,4.033146500587463379e-01,-6.666896057128906250e+01,-1.826858215332031250e+02,-2.342532396316528320e+00,7.562139129638671875e+01,3.135763168334960938e+01
9.992409944534301758e-01,1.000000000000000000e+00,-4.320094299316406250e+01,3.141372489929199219e+01,3.480210113525390625e+01,9.390599822998046875e+01,1.000532150268554688e+02,-6.673448562622070312e+00,4.033146500587463379e-01,-6.666904449462890625e+01,-1.826858215332031250e+02,-2.342532396316528320e+00,7.562139129638671875e+01,3.135763168334960938e+01
1.004153013229370117e+00,1.000000000000000000e+00,-4.324546813964843750e+01,3.132714080810546875e+01,3.482483291625976562e+01,9.382630157470703125e+01,1.000729980468750000e+02,-6.700914382934570312e+00,4.033146500587463379e-01,-6.666896057128906250e+01,-1.826858215332031250e+02,-2.342460393905639648e+00,7.562139129638671875e+01,3.135740852355957031e+01
1.007174015045166016e+00,1.000000000000000000e+00,-4.333437347412109375e+01,3.115370559692382812e+01,3.486997222900390625e+01,9.366796875000000000e+01,1.001137313842773438e+02,-6.753675937652587891e+00,4.033146500587463379e-01,-6.666896057128906250e+01,-1.826859436035156250e+02,-2.342532396316528320e+00,7.562139129638671875e+01,3.135763168334960938e+01
1.011201024055480957e+00,1.000000000000000000e+00,-4.333437347412109375e+01,3.115370559692382812e+01,3.486997222900390625e+01,9.366796875000000000e+01,1.001137313842773438e+02,-6.753675937652587891e+00,4.033146500587463379e-01,-6.666896057128906250e+01,-1.826859436035156250e+02,-2.342532396316528320e+00,7.562139129638671875e+01,3.135763168334960938e+01
1.015259027481079102e+00,1.000000000000000000e+00,-4.337881088256835938e+01,3.106753158569335938e+01,3.489263916015625000e+01,9.358895111083984375e+01,1.001345214843750000e+02,-6.780124187469482422e+00,4.033146500587463379e-01,-6.666896057128906250e+01,-1.826858215332031250e+02,-2.342532396316528320e+00,7.562146759033203125e+01,3.135763168334960938e+01
1.019237995147705078e+00,1.000000000000000000e+00,-4.342359542846679688e+01,3.098189926147460938e+01,3.491545104980468750e+01,9.350988769531250000e+01,1.001543579101562500e+02,-6.807386875152587891e+00,4.033146500587463379e-01,-6.666896057128906250e+01,-1.826858215332031250e+02,-2.342532396316528320e+00,7.562139129638671875e+01,3.135763168334960938e+01
1.023197054862976074e+00,1.000000000000000000e+00,-4.346843338012695312e+01,3.089613151550292969e+01,3.493822479248046875e+01,9.343077087402343750e+01,1.001736068725585938e+02,-6.835056304931640625e+00,4.033146500587463379e-01,-6.666896057128906250e+01,-1.826858215332031250e+02,-2.342532396316528320e+00,7.562146759033203125e+01,3.135763168334960938e+01
1.027963995933532715e+00,1.000000000000000000e+00,-4.351335906982421875e+01,3.081004714965820312e+01,3.496091461181640625e+01,9.335128021240234375e+01,1.001929092407226562e+02,-6.862792968750000000e+00,4.033146500587463379e-01,-6.666896057128906250e+01,-1.826859436035156250e+02,-2.342532396316528320e+00,7.562139129638671875e+01,3.135763168334960938e+01
1.033221006393432617e+00,1.000000000000000000e+00,-4.355811309814453125e+01,3.072348976135253906e+01,3.498348617553710938e+01,9.327201080322265625e+01,1.002124176025390625e+02,-6.889852046966552734e+00,4.033146500587463379e-01,-6.666896057128906250e+01,-1.826858215332031250e+02,-2.342532396316528320e+00,7.562139129638671875e+01,3.135763168334960938e+01
1.036188960075378418e+00,1.000000000000000000e+00,-4.364779663085937500e+01,3.054951095581054688e+01,3.502908706665039062e+01,9.311288452148437500e+01,1.002530441284179688e+02,-6.942884922027587891e+00,4.033146500587463379e-01,-6.666896057128906250e+01,-1.826858215332031250e+02,-2.342532396316528320e+00,7.562146759033203125e+01,3.135763168334960938e+01
1.040194988250732422e+00,1.000000000000000000e+00,-4.364779663085937500e+01,3.054951095581054688e+01,3.502908706665039062e+01,9.311288452148437500e+01,1.002530441284179688e+02,-6.942884922027587891e+00,4.033146500587463379e-01,-6.666896057128906250e+01,-1.826858215332031250e+02,-2.342532396316528320e+00,7.562146759033203125e+01,3.135763168334960938e+01
1.045194983482360840e+00,1.000000000000000000e+00,-4.369289016723632812e+01,3.046215820312500000e+01,3.505185699462890625e+01,9.303366088867187500e+01,1.002738952636718750e+02,-6.969536781311035156e+00,4.033146500587463379e-01,-6.666896057128906250e+01,-1.826858215332031250e+02,-2.342603921890258789e+00,7.562139129638671875e+01,3.135763168334960938e+01
1.048020958900451660e+00,1.000000000000000000e+00,-4.378309249877929688e+01,3.028860664367675781e+01,3.509736251831054688e+01,9.287421417236328125e+01,1.003135604858398438e+02,-7.024468421936035156e+00,4.033146500587463379e-01,-6.666904449462890625e+01,-1.826858215332031250e+02,-2.342532396316528320e+00,7.562139129638671875e+01,3.135763168334960938e+01
1.052281975746154785e+00,1.000000000000000000e+00,-4.378309249877929688e+01,3.028860664367675781e+01,3.509736251831054688e+01,9.287421417236328125e+01,1.003135604858398438e+02,-7.024468421936035156e+00,4.033146500587463379e-01,-6.666904449462890625e+01,-1.826858215332031250e+02,-2.342532396316528320e+00,7.562139129638671875e+01,3.135763168334960938e+01
1.056229948997497559e+00,1.000000000000000000e+00,-4.382801818847656250e+01,3.020204925537109375e+01,3.512015533447265625e+01,9.279415130615234375e+01,1.003329696655273438e+02,-7.052340984344482422e+00,4.033146500587463379e-01,-6.666904449462890625e+01,-1.826858215332031250e+02,-2.342532396316528320e+00,7.562139129638671875e+01,3.135763168334960938e+01
1.060210943222045898e+00,1.000000000000000000e+00,-4.387331390380859375e+01,3.011565017700195312e+01,3.514307022094726562e+01,9.271430206298828125e+01,1.003527450561523438e+02,-7.079400062561035156e+00,4.033146500587463379e-01,-6.666896057128906250e+01,-1.826858215332031250e+02,-2.342603921890258789e+00,7.562124633789062500e+01,3.135763168334960938e+01
1.064412951469421387e+00,1.000000000000000000e+00,-4.391847229003906250e+01,3.002915573120117188e+01,3.516586303710937500e+01,9.263455200195312500e+01,1.003727951049804688e+02,-7.105712890625000000e+00,4.033146500587463379e-01,-6.666896057128906250e+01,-1.826858215332031250e+02,-2.342460393905639648e+00,7.562139129638671875e+01,3.135763168334960938e+01
1.069187045097351074e+00,1.000000000000000000e+00,-4.396356964111328125e+01,2.994200897216796875e+01,3.518842697143554688e+01,9.255485534667968750e+01,1.003933715820312500e+02,-7.132432937622070312e+00,4.033146500587463379e-01,-6.666904449462890625e+01,-1.826859436035156250e+02,-2.342532396316528320e+00,7.562139129638671875e+01,3.135763168334960938e+01
1.071758031845092773e+00,1.000000000000000000e+00,-4.405396652221679688e+01,2.976674079895019531e+01,3.523429489135742188e+01,9.239477539062500000e+01,1.004350738525390625e+02,-7.186890125274658203e+00,4.033146500587463379e-01,-6.666904449462890625e+01,-1.826859436035156250e+02,-2.342532396316528320e+00,7.562139129638671875e+01,3.135763168334960938e+01
1.076192021369934082e+00,1.000000000000000000e+00,-4.405396652221679688e+01,2.976674079895019531e+01,3.523429489135742188e+01,9.239477539062500000e+01,1.004350738525390625e+02,-7.186890125274658203e+00,4.033146500587463379e-01,-6.666904449462890625e+01,-1.826859436035156250e+02,-2.342532396316528320e+00,7.562139129638671875e+01,3.135763168334960938e+01
1.079282045364379883e+00,1.000000000000000000e+00,-4.409897994995117188e+01,2.967898178100585938e+01,3.525714874267578125e+01,9.231529235839843750e+01,1.004547424316406250e+02,-7.214626312255859375e+00,4.033146500587463379e-01,-6.666896057128906250e+01,-1.826858215332031250e+02,-2.342603921890258789e+00,7.562139129638671875e+01,3.135763168334960938e+01
1.083202004432678223e+00,1.000000000000000000e+00,-4.414407730102539062e+01,2.959174346923828125e+01,3.528016281127929688e+01,9.223501586914062500e+01,1.004740982055664062e+02,-7.242499828338623047e+00,4.033146500587463379e-01,-6.666896057128906250e+01,-1.826858215332031250e+02,-2.342460393905639648e+00,7.562139129638671875e+01,3.135763168334960938e+01
1.087265014648437500e+00,1.000000000000000000e+00,-4.418920516967773438e+01,2.950504875183105469e+01,3.530308151245117188e+01,9.215474700927734375e+01,1.004937133789062500e+02,-7.269219398498535156e+00,4.033146500587463379e-01,-6.666896057128906250e+01,-1.826858215332031250e+02,-2.342532396316528320e+00,7.562139129638671875e+01,3.135763168334960938e+01
1.091699957847595215e+00,1.000000000000000000e+00,-4.423435974121093750e+01,2.941844558715820312e+01,3.532609558105468750e+01,9.207409667968750000e+01,1.005137100219726562e+02,-7.295599937438964844e+00,4.033146500587463379e-01,-6.666896057128906250e+01,-1.826858215332031250e+02,-2.342460393905639648e+00,7.562139129638671875e+01,3.135763168334960938e+01
1.095199942588806152e+00,1.000000000000000000e+00,-4.427943038940429688e+01,2.933158874511718750e+01,3.534904861450195312e+01,9.199429321289062500e+01,1.005341262817382812e+02,-7.322523593902587891e+00,4.031498432159423828e-01,-6.666904449462890625e+01,-1.826858215332031250e+02,-2.342532396316528320e+00,7.562139129638671875e+01,3.135763168334960938e+01
1.100154042243957520e+00,1.000000000000000000e+00,-4.432432937622070312e+01,2.924439811706542969e+01,3.537192153930664062e+01,9.191423034667968750e+01,1.005550842285156250e+02,-7.349649906158447266e+00,4.033146500587463379e-01,-6.666904449462890625e+01,-1.826858215332031250e+02,-2.342532396316528320e+00,7.562139129638671875e+01,3.135763168334960938e+01
1.103291034698486328e+00,1.000000000000000000e+00,-4.436948394775390625e+01,2.915686607360839844e+01,3.539481735229492188e+01,9.183369445800781250e+01,1.005759277343750000e+02,-7.377048492431640625e+00,4.033146500587463379e-01,-6.666904449462890625e+01,-1.826858215332031250e+02,-2.342532396316528320e+00,7.562139129638671875e+01,3.135784912109375000e+01
1.107292056083679199e+00,1.000000000000000000e+00,-4.441458129882812500e+01,2.906894683837890625e+01,3.541785049438476562e+01,9.175352478027343750e+01,1.005957107543945312e+02,-7.405056476593017578e+00,4.033146500587463379e-01,-6.666904449462890625e+01,-1.826858215332031250e+02,-2.342532396316528320e+00,7.562139129638671875e+01,3.135763168334960938e+01
1.111256957054138184e+00,1.000000000000000000e+00,-4.445962524414062500e+01,2.898069190979003906e+01,3.544104766845703125e+01,9.167266845703125000e+01,1.006152801513671875e+02,-7.432929515838623047e+00,4.033146500587463379e-01,-6.666896057128906250e+01,-1.826858215332031250e+02,-2.342532396316528320e+00,7.562139129638671875e+01,3.135763168334960938e+01
1.115903973579406738e+00,1.000000000000000000e+00,-4.450477981567382812e+01,2.889281654357910156e+01,3.546430969238281250e+01,9.159307861328125000e+01,1.006350555419921875e+02,-7.460259914398193359e+00,4.033146500587463379e-01,-6.666896057128906250e+01,-1.826858215332031250e+02,-2.342532396316528320e+00,7.562139129638671875e+01,3.135763168334960938e+01
