rpiRobotics/ARM-21-02-F-19-Robot-Motion-Program/data_performance_abb/curve_2/dual_arm/diffevo_pose6/grad_result/sim/dual_iteration_3.csv
timestamp,cmd_num,J1,J2,J3,J4,J5,J6,J1_2,J2_2,J3_2,J4_2,J5_2,J6_2
0.000000000000000000e+00,-1.000000000000000000e+00,5.481218338012695312e+00,1.144808387756347656e+01,3.551936340332031250e+01,-1.088655090332031250e+02,9.032160186767578125e+01,-6.530667877197265625e+01,5.259019470214843750e+01,-1.307407569885253906e+01,-1.082528915405273438e+02,-1.127508316040039062e+02,6.387591552734375000e+01,-3.729009246826171875e+01
2.000000094994902611e-03,-1.000000000000000000e+00,5.481218338012695312e+00,1.144808387756347656e+01,3.551936340332031250e+01,-1.088655090332031250e+02,9.032160186767578125e+01,-6.530667877197265625e+01,5.259019470214843750e+01,-1.307407569885253906e+01,-1.082528915405273438e+02,-1.127508316040039062e+02,6.387591552734375000e+01,-3.729009246826171875e+01
6.000000052154064178e-03,-1.000000000000000000e+00,5.481218338012695312e+00,1.144808387756347656e+01,3.551936340332031250e+01,-1.088655090332031250e+02,9.032160186767578125e+01,-6.530667877197265625e+01,5.259019470214843750e+01,-1.307407569885253906e+01,-1.082528915405273438e+02,-1.127508316040039062e+02,6.387591552734375000e+01,-3.729009246826171875e+01
8.000000379979610443e-03,-1.000000000000000000e+00,5.481218338012695312e+00,1.144808387756347656e+01,3.551936340332031250e+01,-1.088655090332031250e+02,9.032160186767578125e+01,-6.530667877197265625e+01,5.259019470214843750e+01,-1.307407569885253906e+01,-1.082528915405273438e+02,-1.127508316040039062e+02,6.387591552734375000e+01,-3.729009246826171875e+01
1.099999994039535522e-02,-1.000000000000000000e+00,5.481218338012695312e+00,1.144808387756347656e+01,3.551936340332031250e+01,-1.088655090332031250e+02,9.032160186767578125e+01,-6.530667877197265625e+01,5.259019470214843750e+01,-1.307407569885253906e+01,-1.082528915405273438e+02,-1.127508316040039062e+02,6.387591552734375000e+01,-3.729009246826171875e+01
1.600000075995922089e-02,-1.000000000000000000e+00,5.481218338012695312e+00,1.144808387756347656e+01,3.551936340332031250e+01,-1.088655090332031250e+02,9.032160186767578125e+01,-6.530667877197265625e+01,5.259019470214843750e+01,-1.307407569885253906e+01,-1.082528915405273438e+02,-1.127508316040039062e+02,6.387591552734375000e+01,-3.729009246826171875e+01
1.999999955296516418e-02,-1.000000000000000000e+00,5.481218338012695312e+00,1.144808387756347656e+01,3.551936340332031250e+01,-1.088655090332031250e+02,9.032160186767578125e+01,-6.530667877197265625e+01,5.259019470214843750e+01,-1.307407569885253906e+01,-1.082528915405273438e+02,-1.127508316040039062e+02,6.387591552734375000e+01,-3.729009246826171875e+01
2.400000020861625671e-02,-1.000000000000000000e+00,5.481218338012695312e+00,1.144808387756347656e+01,3.551936340332031250e+01,-1.088655090332031250e+02,9.032160186767578125e+01,-6.530667877197265625e+01,5.259019470214843750e+01,-1.307407569885253906e+01,-1.082528915405273438e+02,-1.127508316040039062e+02,6.387591552734375000e+01,-3.729009246826171875e+01
2.800000086426734924e-02,2.000000000000000000e+00,5.481218338012695312e+00,1.144808387756347656e+01,3.551936340332031250e+01,-1.088655090332031250e+02,9.032160186767578125e+01,-6.530667877197265625e+01,5.259019470214843750e+01,-1.307407569885253906e+01,-1.082528915405273438e+02,-1.127508316040039062e+02,6.387591552734375000e+01,-3.729009246826171875e+01
3.299999982118606567e-02,2.000000000000000000e+00,5.481218338012695312e+00,1.144808387756347656e+01,3.551936340332031250e+01,-1.088655090332031250e+02,9.032160186767578125e+01,-6.530667877197265625e+01,5.259019470214843750e+01,-1.307407569885253906e+01,-1.082528915405273438e+02,-1.127508316040039062e+02,6.387591552734375000e+01,-3.729009246826171875e+01
3.700000047683715820e-02,2.000000000000000000e+00,5.481218338012695312e+00,1.144808387756347656e+01,3.551936340332031250e+01,-1.088655090332031250e+02,9.032160186767578125e+01,-6.530667877197265625e+01,5.259019470214843750e+01,-1.307407569885253906e+01,-1.082528915405273438e+02,-1.127508316040039062e+02,6.387591552734375000e+01,-3.729009246826171875e+01
3.999999910593032837e-02,2.000000000000000000e+00,5.481218338012695312e+00,1.144808387756347656e+01,3.551936340332031250e+01,-1.088655090332031250e+02,9.032160186767578125e+01,-6.530667877197265625e+01,5.259019470214843750e+01,-1.307407569885253906e+01,-1.082528915405273438e+02,-1.127508316040039062e+02,6.387591552734375000e+01,-3.729009246826171875e+01
4.600000008940696716e-02,2.000000000000000000e+00,5.481218338012695312e+00,1.144808387756347656e+01,3.551936340332031250e+01,-1.088655090332031250e+02,9.032160186767578125e+01,-6.530667877197265625e+01,5.259019470214843750e+01,-1.307407569885253906e+01,-1.082528915405273438e+02,-1.127508316040039062e+02,6.387591552734375000e+01,-3.729009246826171875e+01
4.800000041723251343e-02,2.000000000000000000e+00,5.481218338012695312e+00,1.144808387756347656e+01,3.551936340332031250e+01,-1.088655090332031250e+02,9.032160186767578125e+01,-6.530667877197265625e+01,5.259019470214843750e+01,-1.307407569885253906e+01,-1.082528915405273438e+02,-1.127508316040039062e+02,6.387591552734375000e+01,-3.729009246826171875e+01
5.200000107288360596e-02,2.000000000000000000e+00,5.481218338012695312e+00,1.144808387756347656e+01,3.551936340332031250e+01,-1.088655090332031250e+02,9.032160186767578125e+01,-6.530667877197265625e+01,5.259019470214843750e+01,-1.307407569885253906e+01,-1.082528915405273438e+02,-1.127508316040039062e+02,6.387591552734375000e+01,-3.729009246826171875e+01
5.600000172853469849e-02,2.000000000000000000e+00,5.481218338012695312e+00,1.144808387756347656e+01,3.551936340332031250e+01,-1.088655090332031250e+02,9.032160186767578125e+01,-6.530667877197265625e+01,5.259019470214843750e+01,-1.307407569885253906e+01,-1.082528915405273438e+02,-1.127508316040039062e+02,6.387591552734375000e+01,-3.729009246826171875e+01
5.999999865889549255e-02,2.000000000000000000e+00,5.481218338012695312e+00,1.144808387756347656e+01,3.551936340332031250e+01,-1.088655090332031250e+02,9.032160186767578125e+01,-6.530667877197265625e+01,5.259019470214843750e+01,-1.307407569885253906e+01,-1.082528915405273438e+02,-1.127508316040039062e+02,6.387591552734375000e+01,-3.729009246826171875e+01
6.400000303983688354e-02,2.000000000000000000e+00,5.481218338012695312e+00,1.144808387756347656e+01,3.551936340332031250e+01,-1.088655090332031250e+02,9.032160186767578125e+01,-6.530667877197265625e+01,5.259019470214843750e+01,-1.307407569885253906e+01,-1.082528915405273438e+02,-1.127508316040039062e+02,6.387591552734375000e+01,-3.729009246826171875e+01
6.800000369548797607e-02,2.000000000000000000e+00,5.481248855590820312e+00,1.144806003570556641e+01,3.551936340332031250e+01,-1.088655090332031250e+02,9.032160186767578125e+01,-6.530667877197265625e+01,5.259019470214843750e+01,-1.307407569885253906e+01,-1.082528915405273438e+02,-1.127508316040039062e+02,6.387591552734375000e+01,-3.729009246826171875e+01
7.199999690055847168e-02,2.000000000000000000e+00,5.481432437896728516e+00,1.144791316986083984e+01,3.551936721801757812e+01,-1.088655166625976562e+02,9.032160949707031250e+01,-6.530667877197265625e+01,5.259019470214843750e+01,-1.307407569885253906e+01,-1.082528915405273438e+02,-1.127508316040039062e+02,6.387591552734375000e+01,-3.729009246826171875e+01
7.599999755620956421e-02,2.000000000000000000e+00,5.481973171234130859e+00,1.144746017456054688e+01,3.551937484741210938e+01,-1.088655548095703125e+02,9.032162475585937500e+01,-6.530668640136718750e+01,5.259019470214843750e+01,-1.307407569885253906e+01,-1.082528915405273438e+02,-1.127508316040039062e+02,6.387591552734375000e+01,-3.729009246826171875e+01
7.999999821186065674e-02,2.000000000000000000e+00,5.483054637908935547e+00,1.144649410247802734e+01,3.551938629150390625e+01,-1.088656539916992188e+02,9.032166290283203125e+01,-6.530671691894531250e+01,5.259016418457031250e+01,-1.307407951354980469e+01,-1.082528839111328125e+02,-1.127508316040039062e+02,6.387591552734375000e+01,-3.729009628295898438e+01
8.399999886751174927e-02,2.000000000000000000e+00,5.484766006469726562e+00,1.144484901428222656e+01,3.551939010620117188e+01,-1.088658981323242188e+02,9.032172393798828125e+01,-6.530680847167968750e+01,5.258995437622070312e+01,-1.307409954071044922e+01,-1.082528457641601562e+02,-1.127508468627929688e+02,6.387590789794921875e+01,-3.729009628295898438e+01
8.799999952316284180e-02,2.000000000000000000e+00,5.487128734588623047e+00,1.144239807128906250e+01,3.551938247680664062e+01,-1.088663940429687500e+02,9.032182312011718750e+01,-6.530699157714843750e+01,5.258926391601562500e+01,-1.307416343688964844e+01,-1.082527008056640625e+02,-1.127509078979492188e+02,6.387589645385742188e+01,-3.729012298583984375e+01
9.200000017881393433e-02,2.000000000000000000e+00,5.490165710449218750e+00,1.143901443481445312e+01,3.551933670043945312e+01,-1.088672790527343750e+02,9.032195281982421875e+01,-6.530735015869140625e+01,5.258770751953125000e+01,-1.307429313659667969e+01,-1.082524108886718750e+02,-1.127510910034179688e+02,6.387586975097656250e+01,-3.729019546508789062e+01
9.600000083446502686e-02,2.000000000000000000e+00,5.493900775909423828e+00,1.143453979492187500e+01,3.551922607421875000e+01,-1.088687744140625000e+02,9.032212829589843750e+01,-6.530796813964843750e+01,5.258490371704101562e+01,-1.307449531555175781e+01,-1.082519378662109375e+02,-1.127515640258789062e+02,6.387580108642578125e+01,-3.729039764404296875e+01
1.000000014901161194e-01,2.000000000000000000e+00,5.498355388641357422e+00,1.142878818511962891e+01,3.551902770996093750e+01,-1.088711166381835938e+02,9.032236480712890625e+01,-6.530894470214843750e+01,5.258050537109375000e+01,-1.307474994659423828e+01,-1.082513122558593750e+02,-1.127525405883789062e+02,6.387569046020507812e+01,-3.729083633422851562e+01
1.040000021457672119e-01,2.000000000000000000e+00,5.503606796264648438e+00,1.142154216766357422e+01,3.551869201660156250e+01,-1.088745803833007812e+02,9.032264709472656250e+01,-6.531040954589843750e+01,5.257413101196289062e+01,-1.307501888275146484e+01,-1.082506027221679688e+02,-1.127543640136718750e+02,6.387550735473632812e+01,-3.729166412353515625e+01
1.080000028014183044e-01,2.000000000000000000e+00,5.509823799133300781e+00,1.141253662109375000e+01,3.551818084716796875e+01,-1.088794937133789062e+02,9.032301330566406250e+01,-6.531250762939453125e+01,5.256544113159179688e+01,-1.307524108886718750e+01,-1.082499237060546875e+02,-1.127574310302734375e+02,6.387523269653320312e+01,-3.729308700561523438e+01
1.120000034570693970e-01,2.000000000000000000e+00,5.517233848571777344e+00,1.140146541595458984e+01,3.551744842529296875e+01,-1.088862152099609375e+02,9.032347106933593750e+01,-6.531539916992187500e+01,5.255412292480468750e+01,-1.307532882690429688e+01,-1.082494125366210938e+02,-1.127622222900390625e+02,6.387482833862304688e+01,-3.729533004760742188e+01
1.159999966621398926e-01,2.000000000000000000e+00,5.526006698608398438e+00,1.138808727264404297e+01,3.551643753051757812e+01,-1.088951568603515625e+02,9.032402038574218750e+01,-6.531925201416015625e+01,5.253986740112304688e+01,-1.307518768310546875e+01,-1.082492599487304688e+02,-1.127692718505859375e+02,6.387427139282226562e+01,-3.729864501953125000e+01
1.199999973177909851e-01,2.000000000000000000e+00,5.536119937896728516e+00,1.137241935729980469e+01,3.551508712768554688e+01,-1.089067153930664062e+02,9.032466888427734375e+01,-6.532426452636718750e+01,5.252222442626953125e+01,-1.307473278045654297e+01,-1.082496032714843750e+02,-1.127791137695312500e+02,6.387351989746093750e+01,-3.730329895019531250e+01
1.239999979734420776e-01,2.000000000000000000e+00,5.547366142272949219e+00,1.135475730895996094e+01,3.551332092285156250e+01,-1.089213180541992188e+02,9.032541656494140625e+01,-6.533062744140625000e+01,5.250060653686523438e+01,-1.307389450073242188e+01,-1.082505722045898438e+02,-1.127922897338867188e+02,6.387254333496093750e+01,-3.730955505371093750e+01
1.280000060796737671e-01,2.000000000000000000e+00,5.559525012969970703e+00,1.133543109893798828e+01,3.551107788085937500e+01,-1.089393081665039062e+02,9.032623291015625000e+01,-6.533850097656250000e+01,5.247446441650390625e+01,-1.307260608673095703e+01,-1.082522659301757812e+02,-1.128093261718750000e+02,6.387130737304687500e+01,-3.731764984130859375e+01
1.309999972581863403e-01,2.000000000000000000e+00,5.572514533996582031e+00,1.131456470489501953e+01,3.550831604003906250e+01,-1.089609756469726562e+02,9.032713317871093750e+01,-6.534801483154296875e+01,5.244358825683593750e+01,-1.307076740264892578e+01,-1.082548675537109375e+02,-1.128307037353515625e+02,6.386978149414062500e+01,-3.732783889770507812e+01
1.360000073909759521e-01,2.000000000000000000e+00,5.586373329162597656e+00,1.129211044311523438e+01,3.550500869750976562e+01,-1.089865036010742188e+02,9.032811737060546875e+01,-6.535925292968750000e+01,5.240818023681640625e+01,-1.306825637817382812e+01,-1.082586364746093750e+02,-1.128568420410156250e+02,6.386795043945312500e+01,-3.734031295776367188e+01
1.389999985694885254e-01,2.000000000000000000e+00,5.601173877716064453e+00,1.126797199249267578e+01,3.550114059448242188e+01,-1.090159301757812500e+02,9.032918548583984375e+01,-6.537223052978515625e+01,5.236865997314453125e+01,-1.306496143341064453e+01,-1.082637939453125000e+02,-1.128880004882812500e+02,6.386580657958984375e+01,-3.735520935058593750e+01
1.439999938011169434e-01,2.000000000000000000e+00,5.617024898529052734e+00,1.124198913574218750e+01,3.549673461914062500e+01,-1.090491867065429688e+02,9.033032989501953125e+01,-6.538692474365234375e+01,5.232539749145507812e+01,-1.306082439422607422e+01,-1.082704696655273438e+02,-1.129242553710937500e+02,6.386334991455078125e+01,-3.737256622314453125e+01
1.480000019073486328e-01,2.000000000000000000e+00,5.634059429168701172e+00,1.121395969390869141e+01,3.549182128906250000e+01,-1.090861358642578125e+02,9.033158111572265625e+01,-6.540325927734375000e+01,5.227874374389648438e+01,-1.305584907531738281e+01,-1.082786712646484375e+02,-1.129654312133789062e+02,6.386058807373046875e+01,-3.739230346679687500e+01
1.519999951124191284e-01,2.000000000000000000e+00,5.652350902557373047e+00,1.118375873565673828e+01,3.548643493652343750e+01,-1.091265029907226562e+02,9.033293151855468750e+01,-6.542110443115234375e+01,5.222903823852539062e+01,-1.305010318756103516e+01,-1.082882766723632812e+02,-1.130111160278320312e+02,6.385755157470703125e+01,-3.741422271728515625e+01
1.560000032186508179e-01,2.000000000000000000e+00,5.671828269958496094e+00,1.115147113800048828e+01,3.548062896728515625e+01,-1.091699905395507812e+02,9.033437347412109375e+01,-6.544033813476562500e+01,5.217637634277343750e+01,-1.304373264312744141e+01,-1.082990264892578125e+02,-1.130606765747070312e+02,6.385427856445312500e+01,-3.743801498413085938e+01
1.599999964237213135e-01,2.000000000000000000e+00,5.692276954650878906e+00,1.111735534667968750e+01,3.547445297241210938e+01,-1.092162322998046875e+02,9.033589935302734375e+01,-6.546078491210937500e+01,5.212043762207031250e+01,-1.303696632385253906e+01,-1.083104629516601562e+02,-1.131133422851562500e+02,6.385079574584960938e+01,-3.746329879760742188e+01
1.640000045299530029e-01,2.000000000000000000e+00,5.713457107543945312e+00,1.108167839050292969e+01,3.546794891357421875e+01,-1.092648239135742188e+02,9.033749389648437500e+01,-6.548228454589843750e+01,5.206091308593750000e+01,-1.303003978729248047e+01,-1.083221130371093750e+02,-1.131683197021484375e+02,6.384714126586914062e+01,-3.748967361450195312e+01
1.679999977350234985e-01,2.000000000000000000e+00,5.735294342041015625e+00,1.104451847076416016e+01,3.546119308471679688e+01,-1.093153457641601562e+02,9.033915710449218750e+01,-6.550463104248046875e+01,5.199790573120117188e+01,-1.302312374114990234e+01,-1.083336563110351562e+02,-1.132248611450195312e+02,6.384335708618164062e+01,-3.751678466796875000e+01
1.720000058412551880e-01,2.000000000000000000e+00,5.757939338684082031e+00,1.100576686859130859e+01,3.545424652099609375e+01,-1.093673706054687500e+02,9.034088897705078125e+01,-6.552763366699218750e+01,5.193191528320312500e+01,-1.301631069183349609e+01,-1.083449249267578125e+02,-1.132823486328125000e+02,6.383948516845703125e+01,-3.754433441162109375e+01
1.759999990463256836e-01,2.000000000000000000e+00,5.781616687774658203e+00,1.096529960632324219e+01,3.544717407226562500e+01,-1.094205093383789062e+02,9.034268951416015625e+01,-6.555110931396484375e+01,5.186353302001953125e+01,-1.300964164733886719e+01,-1.083558349609375000e+02,-1.133403625488281250e+02,6.383554840087890625e+01,-3.757211685180664062e+01
1.800000071525573730e-01,2.000000000000000000e+00,5.806429386138916016e+00,1.092315578460693359e+01,3.544002532958984375e+01,-1.094743804931640625e+02,9.034455108642578125e+01,-6.557490539550781250e+01,5.179339981079101562e+01,-1.300311279296875000e+01,-1.083664321899414062e+02,-1.133986206054687500e+02,6.383158111572265625e+01,-3.759999847412109375e+01
1.840000003576278687e-01,2.000000000000000000e+00,5.832358360290527344e+00,1.087951087951660156e+01,3.543284988403320312e+01,-1.095287322998046875e+02,9.034648132324218750e+01,-6.559889221191406250e+01,5.172221374511718750e+01,-1.299668121337890625e+01,-1.083768081665039062e+02,-1.134569549560546875e+02,6.382759094238281250e+01,-3.762791061401367188e+01
1.879999935626983643e-01,2.000000000000000000e+00,5.859350681304931641e+00,1.083459186553955078e+01,3.542566299438476562e+01,-1.095833206176757812e+02,9.034844970703125000e+01,-6.562297058105468750e+01,5.165057754516601562e+01,-1.299029636383056641e+01,-1.083870697021484375e+02,-1.135153121948242188e+02,6.382360458374023438e+01,-3.765583038330078125e+01
1.920000016689300537e-01,2.000000000000000000e+00,5.887250900268554688e+00,1.078871345520019531e+01,3.541848754882812500e+01,-1.096380462646484375e+02,9.035046386718750000e+01,-6.564709472656250000e+01,5.157884597778320312e+01,-1.298392295837402344e+01,-1.083973159790039062e+02,-1.135736694335937500e+02,6.381960678100585938e+01,-3.768375015258789062e+01
1.959999948740005493e-01,2.000000000000000000e+00,5.915751934051513672e+00,1.074226760864257812e+01,3.541131591796875000e+01,-1.096928100585937500e+02,9.035249328613281250e+01,-6.567123413085937500e+01,5.150711441040039062e+01,-1.297755146026611328e+01,-1.084075546264648438e+02,-1.136320190429687500e+02,6.381562042236328125e+01,-3.771166229248046875e+01
2.000000029802322388e-01,2.000000000000000000e+00,5.944516181945800781e+00,1.069559669494628906e+01,3.540414428710937500e+01,-1.097475814819335938e+02,9.035453033447265625e+01,-6.569536590576171875e+01,5.143539047241210938e+01,-1.297118091583251953e+01,-1.084177856445312500e+02,-1.136903610229492188e+02,6.381162261962890625e+01,-3.773957061767578125e+01
2.039999961853027344e-01,2.000000000000000000e+00,5.973336696624755859e+00,1.064888381958007812e+01,3.539698028564453125e+01,-1.098023529052734375e+02,9.035657501220703125e+01,-6.571949768066406250e+01,5.136367416381835938e+01,-1.296481037139892578e+01,-1.084280242919921875e+02,-1.137486953735351562e+02,6.380763626098632812e+01,-3.776747894287109375e+01
2.080000042915344238e-01,2.000000000000000000e+00,6.002157688140869141e+00,1.060217380523681641e+01,3.538981628417968750e+01,-1.098571090698242188e+02,9.035861206054687500e+01,-6.574362945556640625e+01,5.129196929931640625e+01,-1.295844173431396484e+01,-1.084382629394531250e+02,-1.138070220947265625e+02,6.380363845825195312e+01,-3.779538345336914062e+01
2.119999974966049194e-01,2.000000000000000000e+00,6.030975341796875000e+00,1.055546855926513672e+01,3.538265609741210938e+01,-1.099118728637695312e+02,9.036065673828125000e+01,-6.576776123046875000e+01,5.122026824951171875e+01,-1.295207309722900391e+01,-1.084484939575195312e+02,-1.138653488159179688e+02,6.379965209960937500e+01,-3.782328796386718750e+01
2.160000056028366089e-01,2.000000000000000000e+00,6.059790611267089844e+00,1.050876808166503906e+01,3.537549209594726562e+01,-1.099666213989257812e+02,9.036270141601562500e+01,-6.579188537597656250e+01,5.114857864379882812e+01,-1.294570541381835938e+01,-1.084587249755859375e+02,-1.139236602783203125e+02,6.379566192626953125e+01,-3.785118484497070312e+01
2.199999988079071045e-01,2.000000000000000000e+00,6.088602066040039062e+00,1.046207237243652344e+01,3.536833190917968750e+01,-1.100213623046875000e+02,9.036474609375000000e+01,-6.581600952148437500e+01,5.107689666748046875e+01,-1.293933868408203125e+01,-1.084689559936523438e+02,-1.139819641113281250e+02,6.379166412353515625e+01,-3.787907791137695312e+01
2.240000069141387939e-01,2.000000000000000000e+00,6.117410182952880859e+00,1.041538143157958984e+01,3.536117172241210938e+01,-1.100761032104492188e+02,9.036678314208984375e+01,-6.584012603759765625e+01,5.100522232055664062e+01,-1.293297195434570312e+01,-1.084791870117187500e+02,-1.140402679443359375e+02,6.378767776489257812e+01,-3.790697097778320312e+01
2.280000001192092896e-01,2.000000000000000000e+00,6.146215438842773438e+00,1.036869716644287109e+01,3.535400772094726562e+01,-1.101308288574218750e+02,9.036882781982421875e+01,-6.586424255371093750e+01,5.093355941772460938e+01,-1.292660617828369141e+01,-1.084894180297851562e+02,-1.140985641479492188e+02,6.378368759155273438e+01,-3.793485641479492188e+01
2.319999933242797852e-01,2.000000000000000000e+00,6.175017356872558594e+00,1.032201671600341797e+01,3.534685134887695312e+01,-1.101855621337890625e+02,9.037087249755859375e+01,-6.588835906982421875e+01,5.086190032958984375e+01,-1.292024135589599609e+01,-1.084996490478515625e+02,-1.141568527221679688e+02,6.377970123291015625e+01,-3.796274185180664062e+01
2.360000014305114746e-01,2.000000000000000000e+00,6.203815937042236328e+00,1.027534294128417969e+01,3.533969116210937500e+01,-1.102402801513671875e+02,9.037290191650390625e+01,-6.591247558593750000e+01,5.079024887084960938e+01,-1.291387748718261719e+01,-1.085098724365234375e+02,-1.142151336669921875e+02,6.377571105957031250e+01,-3.799062728881835938e+01
2.399999946355819702e-01,2.000000000000000000e+00,6.232611656188964844e+00,1.022867393493652344e+01,3.533253479003906250e+01,-1.102949905395507812e+02,9.037494659423828125e+01,-6.593657684326171875e+01,5.071860885620117188e+01,-1.290751361846923828e+01,-1.085200958251953125e+02,-1.142734069824218750e+02,6.377172088623046875e+01,-3.801850509643554688e+01
2.440000027418136597e-01,2.000000000000000000e+00,6.261404037475585938e+00,1.018200874328613281e+01,3.532537841796875000e+01,-1.103497009277343750e+02,9.037699127197265625e+01,-6.596068572998046875e+01,5.064697265625000000e+01,-1.290115070343017578e+01,-1.085303192138671875e+02,-1.143316802978515625e+02,6.376773452758789062e+01,-3.804637908935546875e+01
2.479999959468841553e-01,2.000000000000000000e+00,6.290193080902099609e+00,1.013534927368164062e+01,3.531822204589843750e+01,-1.104044036865234375e+02,9.037902832031250000e+01,-6.598479461669921875e+01,5.057534408569335938e+01,-1.289478874206542969e+01,-1.085405426025390625e+02,-1.143899383544921875e+02,6.376375198364257812e+01,-3.807425308227539062e+01
2.520000040531158447e-01,2.000000000000000000e+00,6.318979263305664062e+00,1.008869457244873047e+01,3.531106567382812500e+01,-1.104590988159179688e+02,9.038106536865234375e+01,-6.600889587402343750e+01,5.050372695922851562e+01,-1.288842678070068359e+01,-1.085507659912109375e+02,-1.144481964111328125e+02,6.375976181030273438e+01,-3.810212326049804688e+01
2.560000121593475342e-01,2.000000000000000000e+00,6.347762107849121094e+00,1.004204559326171875e+01,3.530391311645507812e+01,-1.105137863159179688e+02,9.038311004638671875e+01,-6.603298950195312500e+01,5.043211746215820312e+01,-1.288206672668457031e+01,-1.085609893798828125e+02,-1.145064468383789062e+02,6.375577163696289062e+01,-3.812998962402343750e+01
2.599999904632568359e-01,2.000000000000000000e+00,6.376542091369628906e+00,9.995402336120605469e+00,3.529675674438476562e+01,-1.105684661865234375e+02,9.038514709472656250e+01,-6.605709075927734375e+01,5.036051177978515625e+01,-1.287570667266845703e+01,-1.085712051391601562e+02,-1.145646896362304688e+02,6.375179290771484375e+01,-3.815785217285156250e+01
2.639999985694885254e-01,2.000000000000000000e+00,6.405318737030029297e+00,9.948763847351074219e+00,3.528960800170898438e+01,-1.106231460571289062e+02,9.038718414306640625e+01,-6.608117675781250000e+01,5.028891754150390625e+01,-1.286934661865234375e+01,-1.085814208984375000e+02,-1.146229248046875000e+02,6.374780273437500000e+01,-3.818571472167968750e+01
2.680000066757202148e-01,2.000000000000000000e+00,6.434092044830322266e+00,9.902131080627441406e+00,3.528245544433593750e+01,-1.106778106689453125e+02,9.038922882080078125e+01,-6.610527038574218750e+01,5.021733093261718750e+01,-1.286298847198486328e+01,-1.085916442871093750e+02,-1.146811599731445312e+02,6.374382019042968750e+01,-3.821357345581054688e+01
2.720000147819519043e-01,2.000000000000000000e+00,6.462862491607666016e+00,9.855502128601074219e+00,3.527530288696289062e+01,-1.107324829101562500e+02,9.039126586914062500e+01,-6.612935638427734375e+01,5.014575195312500000e+01,-1.285663032531738281e+01,-1.086018600463867188e+02,-1.147393951416015625e+02,6.373983001708984375e+01,-3.824142837524414062e+01
2.759999930858612061e-01,2.000000000000000000e+00,6.491630077362060547e+00,9.808877944946289062e+00,3.526815414428710938e+01,-1.107871475219726562e+02,9.039330291748046875e+01,-6.615345001220703125e+01,5.007417678833007812e+01,-1.285027313232421875e+01,-1.086120758056640625e+02,-1.147975997924804688e+02,6.373585128784179688e+01,-3.826927947998046875e+01
2.800000011920928955e-01,2.000000000000000000e+00,6.520393848419189453e+00,9.762257575988769531e+00,3.526100158691406250e+01,-1.108417968750000000e+02,9.039533996582031250e+01,-6.617753601074218750e+01,5.000260925292968750e+01,-1.284391593933105469e+01,-1.086222915649414062e+02,-1.148558197021484375e+02,6.373186874389648438e+01,-3.829713058471679688e+01
2.840000092983245850e-01,2.000000000000000000e+00,6.549155712127685547e+00,9.715643882751464844e+00,3.525385284423828125e+01,-1.108964462280273438e+02,9.039737701416015625e+01,-6.620160675048828125e+01,4.993105316162109375e+01,-1.283755970001220703e+01,-1.086324996948242188e+02,-1.149140243530273438e+02,6.372787857055664062e+01,-3.832497406005859375e+01
2.879999876022338867e-01,2.000000000000000000e+00,6.577913761138916016e+00,9.669034004211425781e+00,3.524670791625976562e+01,-1.109510879516601562e+02,9.039942169189453125e+01,-6.622569274902343750e+01,4.985950469970703125e+01,-1.283120441436767578e+01,-1.086427154541015625e+02,-1.149722213745117188e+02,6.372389602661132812e+01,-3.835281753540039062e+01
2.919999957084655762e-01,2.000000000000000000e+00,6.606668949127197266e+00,9.622428894042968750e+00,3.523955917358398438e+01,-1.110057220458984375e+02,9.040145111083984375e+01,-6.624976348876953125e+01,4.978795623779296875e+01,-1.282485008239746094e+01,-1.086529312133789062e+02,-1.150304260253906250e+02,6.371991348266601562e+01,-3.838066101074218750e+01
2.960000038146972656e-01,2.000000000000000000e+00,6.635421752929687500e+00,9.575828552246093750e+00,3.523241043090820312e+01,-1.110603561401367188e+02,9.040348815917968750e+01,-6.627384185791015625e+01,4.971642684936523438e+01,-1.281849575042724609e+01,-1.086631393432617188e+02,-1.150886077880859375e+02,6.371593093872070312e+01,-3.840849685668945312e+01
3.000000119209289551e-01,2.000000000000000000e+00,6.664170742034912109e+00,9.529232978820800781e+00,3.522526550292968750e+01,-1.111149902343750000e+02,9.040553283691406250e+01,-6.629790496826171875e+01,4.964489746093750000e+01,-1.281214237213134766e+01,-1.086733474731445312e+02,-1.151467895507812500e+02,6.371195220947265625e+01,-3.843632888793945312e+01
3.039999902248382568e-01,2.000000000000000000e+00,6.692917346954345703e+00,9.482643127441406250e+00,3.521812057495117188e+01,-1.111696090698242188e+02,9.040756988525390625e+01,-6.632197570800781250e+01,4.957337188720703125e+01,-1.280578994750976562e+01,-1.086835556030273438e+02,-1.152049636840820312e+02,6.370796966552734375e+01,-3.846416473388671875e+01
3.079999983310699463e-01,2.000000000000000000e+00,6.721660614013671875e+00,9.436057090759277344e+00,3.521097564697265625e+01,-1.112242202758789062e+02,9.040960693359375000e+01,-6.634604644775390625e+01,4.950186157226562500e+01,-1.279943752288818359e+01,-1.086937637329101562e+02,-1.152631454467773438e+02,6.370399475097656250e+01,-3.849199295043945312e+01
3.120000064373016357e-01,2.000000000000000000e+00,6.750401020050048828e+00,9.389476776123046875e+00,3.520383453369140625e+01,-1.112788314819335938e+02,9.041163635253906250e+01,-6.637010955810546875e+01,4.943035507202148438e+01,-1.279308509826660156e+01,-1.087039718627929688e+02,-1.153213119506835938e+02,6.370001220703125000e+01,-3.851981735229492188e+01
3.160000145435333252e-01,2.000000000000000000e+00,6.779138565063476562e+00,9.342899322509765625e+00,3.519668960571289062e+01,-1.113334350585937500e+02,9.041367340087890625e+01,-6.639416503906250000e+01,4.935885620117187500e+01,-1.278673458099365234e+01,-1.087141723632812500e+02,-1.153794631958007812e+02,6.369602966308593750e+01,-3.854764175415039062e+01
3.199999928474426270e-01,2.000000000000000000e+00,6.807873249053955078e+00,9.296328544616699219e+00,3.518954849243164062e+01,-1.113880310058593750e+02,9.041571044921875000e+01,-6.641822814941406250e+01,4.928736495971679688e+01,-1.278038501739501953e+01,-1.087243804931640625e+02,-1.154376144409179688e+02,6.369204711914062500e+01,-3.857546234130859375e+01
3.240000009536743164e-01,2.000000000000000000e+00,6.836605072021484375e+00,9.249761581420898438e+00,3.518240356445312500e+01,-1.114426269531250000e+02,9.041775512695312500e+01,-6.644228363037109375e+01,4.921588134765625000e+01,-1.277403545379638672e+01,-1.087345809936523438e+02,-1.154957656860351562e+02,6.368807220458984375e+01,-3.860327911376953125e+01
3.280000090599060059e-01,2.000000000000000000e+00,6.865334033966064453e+00,9.203200340270996094e+00,3.517526626586914062e+01,-1.114972076416015625e+02,9.041978454589843750e+01,-6.646633148193359375e+01,4.914440536499023438e+01,-1.276768684387207031e+01,-1.087447814941406250e+02,-1.155539093017578125e+02,6.368408966064453125e+01,-3.863109588623046875e+01
3.319999873638153076e-01,2.000000000000000000e+00,6.894059658050537109e+00,9.156642913818359375e+00,3.516812515258789062e+01,-1.115517883300781250e+02,9.042182159423828125e+01,-6.649038696289062500e+01,4.907293319702148438e+01,-1.276133823394775391e+01,-1.087549896240234375e+02,-1.156120452880859375e+02,6.368011474609375000e+01,-3.865890502929687500e+01
3.359999954700469971e-01,2.000000000000000000e+00,6.922782897949218750e+00,9.110090255737304688e+00,3.516098403930664062e+01,-1.116063690185546875e+02,9.042385864257812500e+01,-6.651444244384765625e+01,4.900147247314453125e+01,-1.275499057769775391e+01,-1.087651824951171875e+02,-1.156701736450195312e+02,6.367613220214843750e+01,-3.868671417236328125e+01
3.400000035762786865e-01,2.000000000000000000e+00,6.951502799987792969e+00,9.063542366027832031e+00,3.515384674072265625e+01,-1.116609344482421875e+02,9.042589569091796875e+01,-6.653848266601562500e+01,4.893001937866210938e+01,-1.274864292144775391e+01,-1.087753829956054688e+02,-1.157282943725585938e+02,6.367215728759765625e+01,-3.871452331542968750e+01
3.440000116825103760e-01,2.000000000000000000e+00,6.980220317840576172e+00,9.016999244689941406e+00,3.514670944213867188e+01,-1.117155075073242188e+02,9.042792510986328125e+01,-6.656253051757812500e+01,4.885856628417968750e+01,-1.274229717254638672e+01,-1.087855758666992188e+02,-1.157864074707031250e+02,6.366818237304687500e+01,-3.874232482910156250e+01
3.479999899864196777e-01,2.000000000000000000e+00,7.008934497833251953e+00,8.970460891723632812e+00,3.513957214355468750e+01,-1.117700653076171875e+02,9.042995452880859375e+01,-6.658656311035156250e+01,4.878712844848632812e+01,-1.273595142364501953e+01,-1.087957763671875000e+02,-1.158445205688476562e+02,6.366419982910156250e+01,-3.877012634277343750e+01
3.519999980926513672e-01,2.000000000000000000e+00,7.037645816802978516e+00,8.923926353454589844e+00,3.513243484497070312e+01,-1.118246154785156250e+02,9.043199157714843750e+01,-6.661061096191406250e+01,4.871569442749023438e+01,-1.272960662841796875e+01,-1.088059768676757812e+02,-1.159026260375976562e+02,6.366022491455078125e+01,-3.879792404174804688e+01
3.560000061988830566e-01,2.000000000000000000e+00,7.066354751586914062e+00,8.877397537231445312e+00,3.512530136108398438e+01,-1.118791656494140625e+02,9.043402862548828125e+01,-6.663464355468750000e+01,4.864426803588867188e+01,-1.272326183319091797e+01,-1.088161621093750000e+02,-1.159607238769531250e+02,6.365625000000000000e+01,-3.882571792602539062e+01
3.600000143051147461e-01,2.000000000000000000e+00,7.095060348510742188e+00,8.830872535705566406e+00,3.511816406250000000e+01,-1.119337081909179688e+02,9.043606567382812500e+01,-6.665867614746093750e+01,4.857284545898437500e+01,-1.271691799163818359e+01,-1.088263626098632812e+02,-1.160188217163085938e+02,6.365227508544921875e+01,-3.885351562500000000e+01
3.639999926090240479e-01,2.000000000000000000e+00,7.123763561248779297e+00,8.784352302551269531e+00,3.511102676391601562e+01,-1.119882507324218750e+02,9.043809509277343750e+01,-6.668271636962890625e+01,4.850143432617187500e+01,-1.271057510375976562e+01,-1.088365554809570312e+02,-1.160769042968750000e+02,6.364830017089843750e+01,-3.888130187988281250e+01
3.680000007152557373e-01,2.000000000000000000e+00,7.152463436126708984e+00,8.737835884094238281e+00,3.510389328002929688e+01,-1.120427780151367188e+02,9.044012451171875000e+01,-6.670674133300781250e+01,4.843002700805664062e+01,-1.270423221588134766e+01,-1.088467407226562500e+02,-1.161349945068359375e+02,6.364432525634765625e+01,-3.890908813476562500e+01
3.720000088214874268e-01,2.000000000000000000e+00,7.181160926818847656e+00,8.691325187683105469e+00,3.509676361083984375e+01,-1.120973129272460938e+02,9.044216156005859375e+01,-6.673077392578125000e+01,4.835862731933593750e+01,-1.269789028167724609e+01,-1.088569335937500000e+02,-1.161930770874023438e+02,6.364035034179687500e+01,-3.893687438964843750e+01
3.759999871253967285e-01,2.000000000000000000e+00,7.209855556488037109e+00,8.644819259643554688e+00,3.508963012695312500e+01,-1.121518325805664062e+02,9.044419860839843750e+01,-6.675479125976562500e+01,4.828723526000976562e+01,-1.269154834747314453e+01,-1.088671264648437500e+02,-1.162511444091796875e+02,6.363637542724609375e+01,-3.896465682983398438e+01
3.799999952316284180e-01,2.000000000000000000e+00,7.238547325134277344e+00,8.598317146301269531e+00,3.508250045776367188e+01,-1.122063522338867188e+02,9.044623565673828125e+01,-6.677881622314453125e+01,4.821585464477539062e+01,-1.268520832061767578e+01,-1.088773117065429688e+02,-1.163092193603515625e+02,6.363240051269531250e+01,-3.899243545532226562e+01
3.840000033378601074e-01,2.000000000000000000e+00,7.267235755920410156e+00,8.551819801330566406e+00,3.507536697387695312e+01,-1.122608642578125000e+02,9.044826507568359375e+01,-6.680283355712890625e+01,4.814447402954101562e+01,-1.267886829376220703e+01,-1.088875045776367188e+02,-1.163672714233398438e+02,6.362842941284179688e+01,-3.902021026611328125e+01
3.880000114440917969e-01,2.000000000000000000e+00,7.295922756195068359e+00,8.505326271057128906e+00,3.506823730468750000e+01,-1.123153686523437500e+02,9.045029449462890625e+01,-6.682685089111328125e+01,4.807310104370117188e+01,-1.267252826690673828e+01,-1.088976898193359375e+02,-1.164253311157226562e+02,6.362445449829101562e+01,-3.904798507690429688e+01
3.919999897480010986e-01,2.000000000000000000e+00,7.324605941772460938e+00,8.458838462829589844e+00,3.506110763549804688e+01,-1.123698654174804688e+02,9.045232391357421875e+01,-6.685087585449218750e+01,4.800173568725585938e+01,-1.266619014739990234e+01,-1.089078750610351562e+02,-1.164833755493164062e+02,6.362047958374023438e+01,-3.907575607299804688e+01
3.959999978542327881e-01,2.000000000000000000e+00,7.353286743164062500e+00,8.412354469299316406e+00,3.505397796630859375e+01,-1.124243621826171875e+02,9.045436096191406250e+01,-6.687487792968750000e+01,4.793038177490234375e+01,-1.265985107421875000e+01,-1.089180603027343750e+02,-1.165414123535156250e+02,6.361651229858398438e+01,-3.910352325439453125e+01
4.000000059604644775e-01,2.000000000000000000e+00,7.381964206695556641e+00,8.365874290466308594e+00,3.504685211181640625e+01,-1.124788513183593750e+02,9.045639038085937500e+01,-6.689889526367187500e+01,4.785903167724609375e+01,-1.265351390838623047e+01,-1.089282455444335938e+02,-1.165994567871093750e+02,6.361253738403320312e+01,-3.913128662109375000e+01
4.040000140666961670e-01,2.000000000000000000e+00,7.410640239715576172e+00,8.319398880004882812e+00,3.503972625732421875e+01,-1.125333404541015625e+02,9.045842742919921875e+01,-6.692290496826171875e+01,4.778768539428710938e+01,-1.264717674255371094e+01,-1.089384231567382812e+02,-1.166574859619140625e+02,6.360857009887695312e+01,-3.915905380249023438e+01
4.079999923706054688e-01,2.000000000000000000e+00,7.439312458038330078e+00,8.272929191589355469e+00,3.503259658813476562e+01,-1.125878143310546875e+02,9.046045684814453125e+01,-6.694691467285156250e+01,4.771635055541992188e+01,-1.264084053039550781e+01,-1.089486083984375000e+02,-1.167155151367187500e+02,6.360459518432617188e+01,-3.918681335449218750e+01
4.120000004768371582e-01,2.000000000000000000e+00,7.467982292175292969e+00,8.226462364196777344e+00,3.502547073364257812e+01,-1.126422958374023438e+02,9.046248626708984375e+01,-6.697091674804687500e+01,4.764501953125000000e+01,-1.263450431823730469e+01,-1.089587936401367188e+02,-1.167735443115234375e+02,6.360062408447265625e+01,-3.921457290649414062e+01
4.160000085830688477e-01,2.000000000000000000e+00,7.496649265289306641e+00,8.180001258850097656e+00,3.501834487915039062e+01,-1.126967620849609375e+02,9.046451568603515625e+01,-6.699491882324218750e+01,4.757369613647460938e+01,-1.262817001342773438e+01,-1.089689712524414062e+02,-1.168315582275390625e+02,6.359665679931640625e+01,-3.924232482910156250e+01
4.199999868869781494e-01,2.000000000000000000e+00,7.525312900543212891e+00,8.133543014526367188e+00,3.501121902465820312e+01,-1.127512283325195312e+02,9.046655273437500000e+01,-6.701891326904296875e+01,4.750237655639648438e+01,-1.262183475494384766e+01,-1.089791488647460938e+02,-1.168895645141601562e+02,6.359268188476562500e+01,-3.927007675170898438e+01
4.239999949932098389e-01,2.000000000000000000e+00,7.553975105285644531e+00,8.087090492248535156e+00,3.500409317016601562e+01,-1.128056869506835938e+02,9.046858215332031250e+01,-6.704290771484375000e+01,4.743107223510742188e+01,-1.261550045013427734e+01,-1.089893264770507812e+02,-1.169475784301757812e+02,6.358871459960937500e+01,-3.929782867431640625e+01
4.280000030994415283e-01,2.000000000000000000e+00,7.582633495330810547e+00,8.040641784667968750e+00,3.499697113037109375e+01,-1.128601379394531250e+02,9.047061157226562500e+01,-6.706690979003906250e+01,4.735976791381835938e+01,-1.260916709899902344e+01,-1.089995040893554688e+02,-1.170055694580078125e+02,6.358474349975585938e+01,-3.932557678222656250e+01
4.320000112056732178e-01,2.000000000000000000e+00,7.611289501190185547e+00,7.994196891784667969e+00,3.498984909057617188e+01,-1.129145889282226562e+02,9.047264862060546875e+01,-6.709089660644531250e+01,4.728847122192382812e+01,-1.260283374786376953e+01,-1.090096817016601562e+02,-1.170635681152343750e+02,6.358077621459960938e+01,-3.935332107543945312e+01
4.359999895095825195e-01,2.000000000000000000e+00,7.639943122863769531e+00,7.947756767272949219e+00,3.498272705078125000e+01,-1.129690322875976562e+02,9.047467803955078125e+01,-6.711489105224609375e+01,4.721717834472656250e+01,-1.259650135040283203e+01,-1.090198516845703125e+02,-1.171215591430664062e+02,6.357680892944335938e+01,-3.938106155395507812e+01
4.399999976158142090e-01,2.000000000000000000e+00,7.668594360351562500e+00,7.901320934295654297e+00,3.497560501098632812e+01,-1.130234756469726562e+02,9.047669982910156250e+01,-6.713888549804687500e+01,4.714589691162109375e+01,-1.259016990661621094e+01,-1.090300292968750000e+02,-1.171795501708984375e+02,6.357284164428710938e+01,-3.940880203247070312e+01
4.440000057220458984e-01,2.000000000000000000e+00,7.697242736816406250e+00,7.854889392852783203e+00,3.496848678588867188e+01,-1.130779113769531250e+02,9.047872924804687500e+01,-6.716287231445312500e+01,4.707461929321289062e+01,-1.258383941650390625e+01,-1.090401992797851562e+02,-1.172375183105468750e+02,6.356887054443359375e+01,-3.943653869628906250e+01
4.480000138282775879e-01,2.000000000000000000e+00,7.725888252258300781e+00,7.808462619781494141e+00,3.496136474609375000e+01,-1.131323394775390625e+02,9.048076629638671875e+01,-6.718685150146484375e+01,4.700334930419921875e+01,-1.257750797271728516e+01,-1.090503768920898438e+02,-1.172954940795898438e+02,6.356490325927734375e+01,-3.946427154541015625e+01
4.519999921321868896e-01,2.000000000000000000e+00,7.754531383514404297e+00,7.762039661407470703e+00,3.495424652099609375e+01,-1.131867599487304688e+02,9.048279571533203125e+01,-6.721083068847656250e+01,4.693208312988281250e+01,-1.257117843627929688e+01,-1.090605468750000000e+02,-1.173534545898437500e+02,6.356093597412109375e+01,-3.949200439453125000e+01
4.560000002384185791e-01,2.000000000000000000e+00,7.783171176910400391e+00,7.715620994567871094e+00,3.494712829589843750e+01,-1.132411804199218750e+02,9.048482513427734375e+01,-6.723480987548828125e+01,4.686082839965820312e+01,-1.256484985351562500e+01,-1.090707168579101562e+02,-1.174114151000976562e+02,6.355697250366210938e+01,-3.951973342895507812e+01
4.600000083446502686e-01,2.000000000000000000e+00,7.811809539794921875e+00,7.669206142425537109e+00,3.494000625610351562e+01,-1.132955932617187500e+02,9.048685455322265625e+01,-6.725878906250000000e+01,4.678958129882812500e+01,-1.255852031707763672e+01,-1.090808868408203125e+02,-1.174693756103515625e+02,6.355300521850585938e+01,-3.954746246337890625e+01
4.639999866485595703e-01,2.000000000000000000e+00,7.840444087982177734e+00,7.622796058654785156e+00,3.493289184570312500e+01,-1.133500061035156250e+02,9.048888397216796875e+01,-6.728276824951171875e+01,4.671833419799804688e+01,-1.255219268798828125e+01,-1.090910568237304688e+02,-1.175273284912109375e+02,6.354903793334960938e+01,-3.957518386840820312e+01
4.679999947547912598e-01,2.000000000000000000e+00,7.869077205657958984e+00,7.576389789581298828e+00,3.492577362060546875e+01,-1.134044036865234375e+02,9.049091339111328125e+01,-6.730673980712890625e+01,4.664709472656250000e+01,-1.254586410522460938e+01,-1.091012191772460938e+02,-1.175852737426757812e+02,6.354507446289062500e+01,-3.960290527343750000e+01
4.720000028610229492e-01,2.000000000000000000e+00,7.897706985473632812e+00,7.529988288879394531e+00,3.491865539550781250e+01,-1.134588088989257812e+02,9.049293518066406250e+01,-6.733071136474609375e+01,4.657586669921875000e+01,-1.253953742980957031e+01,-1.091113891601562500e+02,-1.176432189941406250e+02,6.354110717773437500e+01,-3.963062667846679688e+01
4.760000109672546387e-01,2.000000000000000000e+00,7.926334857940673828e+00,7.483590602874755859e+00,3.491154098510742188e+01,-1.135132064819335938e+02,9.049496459960937500e+01,-6.735468292236328125e+01,4.650464248657226562e+01,-1.253321075439453125e+01,-1.091215591430664062e+02,-1.177011566162109375e+02,6.353714752197265625e+01,-3.965834426879882812e+01
4.799999892711639404e-01,2.000000000000000000e+00,7.954959392547607422e+00,7.437196731567382812e+00,3.490442657470703125e+01,-1.135675888061523438e+02,9.049699401855468750e+01,-6.737863922119140625e+01,4.643342208862304688e+01,-1.252688503265380859e+01,-1.091317291259765625e+02,-1.177590866088867188e+02,6.353317642211914062e+01,-3.968605804443359375e+01
4.839999973773956299e-01,2.000000000000000000e+00,7.983582019805908203e+00,7.390807628631591797e+00,3.489731216430664062e+01,-1.136219711303710938e+02,9.049902343750000000e+01,-6.740261077880859375e+01,4.636221313476562500e+01,-1.252056026458740234e+01,-1.091418914794921875e+02,-1.178170089721679688e+02,6.352921676635742188e+01,-3.971376800537109375e+01
4.880000054836273193e-01,2.000000000000000000e+00,8.012201309204101562e+00,7.344422340393066406e+00,3.489019775390625000e+01,-1.136763534545898438e+02,9.050105285644531250e+01,-6.742656707763671875e+01,4.629100418090820312e+01,-1.251423454284667969e+01,-1.091520538330078125e+02,-1.178749313354492188e+02,6.352524566650390625e+01,-3.974147796630859375e+01
4.920000135898590088e-01,2.000000000000000000e+00,8.040818214416503906e+00,7.298040866851806641e+00,3.488308334350585938e+01,-1.137307281494140625e+02,9.050308227539062500e+01,-6.745053100585937500e+01,4.621980667114257812e+01,-1.250791072845458984e+01,-1.091622085571289062e+02,-1.179328460693359375e+02,6.352128601074218750e+01,-3.976918411254882812e+01
4.959999918937683105e-01,2.000000000000000000e+00,8.069433212280273438e+00,7.251664161682128906e+00,3.487597274780273438e+01,-1.137851028442382812e+02,9.050511169433593750e+01,-6.747448730468750000e+01,4.614860916137695312e+01,-1.250158691406250000e+01,-1.091723709106445312e+02,-1.179907531738281250e+02,6.351732254028320312e+01,-3.979688644409179688e+01
5.000000000000000000e-01,2.000000000000000000e+00,8.098045349121093750e+00,7.205291271209716797e+00,3.486886215209960938e+01,-1.138394699096679688e+02,9.050714111328125000e+01,-6.749844360351562500e+01,4.607742691040039062e+01,-1.249526309967041016e+01,-1.091825332641601562e+02,-1.180486602783203125e+02,6.351336288452148438e+01,-3.982458877563476562e+01
5.040000081062316895e-01,2.000000000000000000e+00,8.126654624938964844e+00,7.158922195434570312e+00,3.486175155639648438e+01,-1.138938293457031250e+02,9.050916290283203125e+01,-6.752240753173828125e+01,4.600624465942382812e+01,-1.248894119262695312e+01,-1.091926956176757812e+02,-1.181065673828125000e+02,6.350940322875976562e+01,-3.985229110717773438e+01
5.080000162124633789e-01,2.000000000000000000e+00,8.155261993408203125e+00,7.112557411193847656e+00,3.485464096069335938e+01,-1.139481811523437500e+02,9.051119232177734375e+01,-6.754634857177734375e+01,4.593507003784179688e+01,-1.248261928558349609e+01,-1.092028579711914062e+02,-1.181644592285156250e+02,6.350543975830078125e+01,-3.987998580932617188e+01
5.120000243186950684e-01,2.000000000000000000e+00,8.183867454528808594e+00,7.066196441650390625e+00,3.484753036499023438e+01,-1.140025329589843750e+02,9.051321411132812500e+01,-6.757030487060546875e+01,4.586390304565429688e+01,-1.247629737854003906e+01,-1.092130126953125000e+02,-1.182223510742187500e+02,6.350148010253906250e+01,-3.990768432617187500e+01
5.159999728202819824e-01,2.000000000000000000e+00,8.212470054626464844e+00,7.019839763641357422e+00,3.484041976928710938e+01,-1.140568771362304688e+02,9.051524353027343750e+01,-6.759425354003906250e+01,4.579273986816406250e+01,-1.246997642517089844e+01,-1.092231674194335938e+02,-1.182802276611328125e+02,6.349751663208007812e+01,-3.993537139892578125e+01
5.199999809265136719e-01,2.000000000000000000e+00,8.241069793701171875e+00,6.973486423492431641e+00,3.483330917358398438e+01,-1.141112213134765625e+02,9.051726531982421875e+01,-6.761819458007812500e+01,4.572158432006835938e+01,-1.246365642547607422e+01,-1.092333221435546875e+02,-1.183381118774414062e+02,6.349355697631835938e+01,-3.996306228637695312e+01
5.239999890327453613e-01,2.000000000000000000e+00,8.269667625427246094e+00,6.927137374877929688e+00,3.482620239257812500e+01,-1.141655578613281250e+02,9.051929473876953125e+01,-6.764213562011718750e+01,4.565043258666992188e+01,-1.245733642578125000e+01,-1.092434844970703125e+02,-1.183959884643554688e+02,6.348959350585937500e+01,-3.999074935913085938e+01
5.279999971389770508e-01,2.000000000000000000e+00,8.298263549804687500e+00,6.880792140960693359e+00,3.481909561157226562e+01,-1.142198944091796875e+02,9.052132415771484375e+01,-6.766608428955078125e+01,4.557929229736328125e+01,-1.245101737976074219e+01,-1.092536315917968750e+02,-1.184538574218750000e+02,6.348563385009765625e+01,-4.001843261718750000e+01
5.320000052452087402e-01,2.000000000000000000e+00,8.326856613159179688e+00,6.834450721740722656e+00,3.481198883056640625e+01,-1.142742233276367188e+02,9.052334594726562500e+01,-6.769002532958984375e+01,4.550815200805664062e+01,-1.244469833374023438e+01,-1.092637863159179688e+02,-1.185117187500000000e+02,6.348167037963867188e+01,-4.004611587524414062e+01
5.360000133514404297e-01,2.000000000000000000e+00,8.355447769165039062e+00,6.788113117218017578e+00,3.480488204956054688e+01,-1.143285446166992188e+02,9.052537536621093750e+01,-6.771395874023437500e+01,4.543701934814453125e+01,-1.243838119506835938e+01,-1.092739334106445312e+02,-1.185695877075195312e+02,6.347771072387695312e+01,-4.007379913330078125e+01
5.400000214576721191e-01,2.000000000000000000e+00,8.384035110473632812e+00,6.741779327392578125e+00,3.479777526855468750e+01,-1.143828659057617188e+02,9.052740478515625000e+01,-6.773789978027343750e+01,4.536589050292968750e+01,-1.243206310272216797e+01,-1.092840957641601562e+02,-1.186274337768554688e+02,6.347374725341796875e+01,-4.010147857666015625e+01
5.440000295639038086e-01,2.000000000000000000e+00,8.412621498107910156e+00,6.695449352264404297e+00,3.479067230224609375e+01,-1.144371795654296875e+02,9.052942657470703125e+01,-6.776183319091796875e+01,4.529477310180664062e+01,-1.242574596405029297e+01,-1.092942428588867188e+02,-1.186852874755859375e+02,6.346978759765625000e+01,-4.012915420532226562e+01
5.479999780654907227e-01,2.000000000000000000e+00,8.441205024719238281e+00,6.649123191833496094e+00,3.478356552124023438e+01,-1.144914932250976562e+02,9.053145599365234375e+01,-6.778575897216796875e+01,4.522365570068359375e+01,-1.241942882537841797e+01,-1.093043899536132812e+02,-1.187431411743164062e+02,6.346583175659179688e+01,-4.015682601928710938e+01
5.519999861717224121e-01,2.000000000000000000e+00,8.469786643981933594e+00,6.602800369262695312e+00,3.477646255493164062e+01,-1.145457992553710938e+02,9.053347778320312500e+01,-6.780969238281250000e+01,4.515254592895507812e+01,-1.241311264038085938e+01,-1.093145446777343750e+02,-1.188009796142578125e+02,6.346186828613281250e+01,-4.018450164794921875e+01
5.559999942779541016e-01,2.000000000000000000e+00,8.498364448547363281e+00,6.556481361389160156e+00,3.476935958862304688e+01,-1.146000976562500000e+02,9.053550720214843750e+01,-6.783361816406250000e+01,4.508143997192382812e+01,-1.240679740905761719e+01,-1.093246917724609375e+02,-1.188588180541992188e+02,6.345791625976562500e+01,-4.021216964721679688e+01
5.600000023841857910e-01,2.000000000000000000e+00,8.526941299438476562e+00,6.510166168212890625e+00,3.476225662231445312e+01,-1.146543960571289062e+02,9.053752899169921875e+01,-6.785754394531250000e+01,4.501034545898437500e+01,-1.240048217773437500e+01,-1.093348312377929688e+02,-1.189166564941406250e+02,6.345395278930664062e+01,-4.023983383178710938e+01
5.640000104904174805e-01,2.000000000000000000e+00,8.555516242980957031e+00,6.463854789733886719e+00,3.475514984130859375e+01,-1.147086868286132812e+02,9.053955078125000000e+01,-6.788146972656250000e+01,4.493925094604492188e+01,-1.239416599273681641e+01,-1.093449859619140625e+02,-1.189744796752929688e+02,6.345000076293945312e+01,-4.026750183105468750e+01
5.680000185966491699e-01,2.000000000000000000e+00,8.584088325500488281e+00,6.417546272277832031e+00,3.474805068969726562e+01,-1.147629852294921875e+02,9.054157257080078125e+01,-6.790539550781250000e+01,4.486816406250000000e+01,-1.238785266876220703e+01,-1.093551330566406250e+02,-1.190323028564453125e+02,6.344603729248046875e+01,-4.029516601562500000e+01
5.720000267028808594e-01,2.000000000000000000e+00,8.612657546997070312e+00,6.371242523193359375e+00,3.474094772338867188e+01,-1.148172683715820312e+02,9.054360198974609375e+01,-6.792931365966796875e+01,4.479708480834960938e+01,-1.238153839111328125e+01,-1.093652801513671875e+02,-1.190901260375976562e+02,6.344208145141601562e+01,-4.032282638549804688e+01
5.759999752044677734e-01,2.000000000000000000e+00,8.641225814819335938e+00,6.324941158294677734e+00,3.473384857177734375e+01,-1.148715438842773438e+02,9.054562377929687500e+01,-6.795323181152343750e+01,4.472600936889648438e+01,-1.237522506713867188e+01,-1.093754196166992188e+02,-1.191479415893554688e+02,6.343812942504882812e+01,-4.035048294067382812e+01
5.799999833106994629e-01,2.000000000000000000e+00,8.669791221618652344e+00,6.278644084930419922e+00,3.472674942016601562e+01,-1.149258193969726562e+02,9.054764556884765625e+01,-6.797714233398437500e+01,4.465493774414062500e+01,-1.236891269683837891e+01,-1.093855590820312500e+02,-1.192057495117187500e+02,6.343416595458984375e+01,-4.037814331054687500e+01
5.839999914169311523e-01,2.000000000000000000e+00,8.698354721069335938e+00,6.232350349426269531e+00,3.471964645385742188e+01,-1.149800872802734375e+02,9.054967498779296875e+01,-6.800106048583984375e+01,4.458387374877929688e+01,-1.236260032653808594e+01,-1.093957061767578125e+02,-1.192635574340820312e+02,6.343021392822265625e+01,-4.040579605102539062e+01
5.879999995231628418e-01,2.000000000000000000e+00,8.726915359497070312e+00,6.186059951782226562e+00,3.471254730224609375e+01,-1.150343627929687500e+02,9.055169677734375000e+01,-6.802497863769531250e+01,4.451280975341796875e+01,-1.235628795623779297e+01,-1.094058456420898438e+02,-1.193213577270507812e+02,6.342625808715820312e+01,-4.043344497680664062e+01
5.920000076293945312e-01,2.000000000000000000e+00,8.755474090576171875e+00,6.139773845672607422e+00,3.470545196533203125e+01,-1.150886306762695312e+02,9.055371856689453125e+01,-6.804888916015625000e+01,4.444175720214843750e+01,-1.234997653961181641e+01,-1.094159927368164062e+02,-1.193791503906250000e+02,6.342230224609375000e+01,-4.046109771728515625e+01
5.960000157356262207e-01,2.000000000000000000e+00,8.784031867980957031e+00,6.093490600585937500e+00,3.469835281372070312e+01,-1.151428909301757812e+02,9.055574798583984375e+01,-6.807279205322265625e+01,4.437070846557617188e+01,-1.234366607666015625e+01,-1.094261322021484375e+02,-1.194369506835937500e+02,6.341834640502929688e+01,-4.048874664306640625e+01
6.000000238418579102e-01,2.000000000000000000e+00,8.812585830688476562e+00,6.047211170196533203e+00,3.469125366210937500e+01,-1.151971359252929688e+02,9.055776977539062500e+01,-6.809671020507812500e+01,4.429966354370117188e+01,-1.233735561370849609e+01,-1.094362792968750000e+02,-1.194947357177734375e+02,6.341439437866210938e+01,-4.051639175415039062e+01
6.039999723434448242e-01,2.000000000000000000e+00,8.841137886047363281e+00,6.000934600830078125e+00,3.468415832519531250e+01,-1.152513961791992188e+02,9.055979156494140625e+01,-6.812061309814453125e+01,4.422862625122070312e+01,-1.233104515075683594e+01,-1.094464111328125000e+02,-1.195525207519531250e+02,6.341043853759765625e+01,-4.054403686523437500e+01
6.079999804496765137e-01,2.000000000000000000e+00,8.869688987731933594e+00,5.954661846160888672e+00,3.467706298828125000e+01,-1.153056411743164062e+02,9.056181335449218750e+01,-6.814451599121093750e+01,4.415759277343750000e+01,-1.232473564147949219e+01,-1.094565505981445312e+02,-1.196102981567382812e+02,6.340648269653320312e+01,-4.057167816162109375e+01
6.119999885559082031e-01,2.000000000000000000e+00,8.898236274719238281e+00,5.908392429351806641e+00,3.466996383666992188e+01,-1.153598861694335938e+02,9.056383514404296875e+01,-6.816841888427734375e+01,4.408656692504882812e+01,-1.231842708587646484e+01,-1.094666900634765625e+02,-1.196680679321289062e+02,6.340253067016601562e+01,-4.059931945800781250e+01
6.159999966621398926e-01,2.000000000000000000e+00,8.926782608032226562e+00,5.862126827239990234e+00,3.466287231445312500e+01,-1.154141311645507812e+02,9.056586456298828125e+01,-6.819231414794921875e+01,4.401554107666015625e+01,-1.231211853027343750e+01,-1.094768295288085938e+02,-1.197258377075195312e+02,6.339857482910156250e+01,-4.062695693969726562e+01
6.200000047683715820e-01,2.000000000000000000e+00,8.955327033996582031e+00,5.815864086151123047e+00,3.465577697753906250e+01,-1.154683685302734375e+02,9.056788635253906250e+01,-6.821621704101562500e+01,4.394452667236328125e+01,-1.230580997467041016e+01,-1.094869613647460938e+02,-1.197836074829101562e+02,6.339461898803710938e+01,-4.065459442138671875e+01
6.240000128746032715e-01,2.000000000000000000e+00,8.983868598937988281e+00,5.769605636596679688e+00,3.464868164062500000e+01,-1.155225982666015625e+02,9.056990814208984375e+01,-6.824011230468750000e+01,4.387351608276367188e+01,-1.229950237274169922e+01,-1.094971008300781250e+02,-1.198413772583007812e+02,6.339067077636718750e+01,-4.068222427368164062e+01
6.280000209808349609e-01,2.000000000000000000e+00,9.012408256530761719e+00,5.723350048065185547e+00,3.464158630371093750e+01,-1.155768280029296875e+02,9.057192993164062500e+01,-6.826401519775390625e+01,4.380250930786132812e+01,-1.229319572448730469e+01,-1.095072326660156250e+02,-1.198991394042968750e+02,6.338671875000000000e+01,-4.070985794067382812e+01
6.320000290870666504e-01,2.000000000000000000e+00,9.040946006774902344e+00,5.677097797393798828e+00,3.463449478149414062e+01,-1.156310501098632812e+02,9.057395172119140625e+01,-6.828790283203125000e+01,4.373150634765625000e+01,-1.228688907623291016e+01,-1.095173645019531250e+02,-1.199568939208984375e+02,6.338276290893554688e+01,-4.073748779296875000e+01
6.359999775886535645e-01,2.000000000000000000e+00,9.069480895996093750e+00,5.630848884582519531e+00,3.462739944458007812e+01,-1.156852645874023438e+02,9.057597351074218750e+01,-6.831179809570312500e+01,4.366051101684570312e+01,-1.228058338165283203e+01,-1.095275039672851562e+02,-1.200146331787109375e+02,6.337881469726562500e+01,-4.076511764526367188e+01
6.399999856948852539e-01,2.000000000000000000e+00,9.098014831542968750e+00,5.584603309631347656e+00,3.462031173706054688e+01,-1.157394866943359375e+02,9.057799530029296875e+01,-6.833568572998046875e+01,4.358951950073242188e+01,-1.227427673339843750e+01,-1.095376281738281250e+02,-1.200723876953125000e+02,6.337485885620117188e+01,-4.079274368286132812e+01
6.439999938011169434e-01,2.000000000000000000e+00,9.126546859741210938e+00,5.538361549377441406e+00,3.461321640014648438e+01,-1.157937011718750000e+02,9.058001708984375000e+01,-6.835957336425781250e+01,4.351853561401367188e+01,-1.226797199249267578e+01,-1.095477676391601562e+02,-1.201301345825195312e+02,6.337091064453125000e+01,-4.082036590576171875e+01
6.480000019073486328e-01,2.000000000000000000e+00,9.155075073242187500e+00,5.492122650146484375e+00,3.460612869262695312e+01,-1.158479080200195312e+02,9.058203887939453125e+01,-6.838346099853515625e+01,4.344755172729492188e+01,-1.226166629791259766e+01,-1.095578918457031250e+02,-1.201878585815429688e+02,6.336695861816406250e+01,-4.084798812866210938e+01
6.520000100135803223e-01,2.000000000000000000e+00,9.183602333068847656e+00,5.445887565612792969e+00,3.459903335571289062e+01,-1.159021072387695312e+02,9.058406066894531250e+01,-6.840734100341796875e+01,4.337657546997070312e+01,-1.225536251068115234e+01,-1.095680236816406250e+02,-1.202456054687500000e+02,6.336301040649414062e+01,-4.087560653686523438e+01
6.560000181198120117e-01,2.000000000000000000e+00,9.212127685546875000e+00,5.399655342102050781e+00,3.459194564819335938e+01,-1.159563140869140625e+02,9.058608245849609375e+01,-6.843122863769531250e+01,4.330560684204101562e+01,-1.224905872344970703e+01,-1.095781555175781250e+02,-1.203033370971679688e+02,6.335905456542968750e+01,-4.090322494506835938e+01
6.600000262260437012e-01,2.000000000000000000e+00,9.240651130676269531e+00,5.353426456451416016e+00,3.458485412597656250e+01,-1.160105056762695312e+02,9.058810424804687500e+01,-6.845510864257812500e+01,4.323464202880859375e+01,-1.224275493621826172e+01,-1.095882797241210938e+02,-1.203610458374023438e+02,6.335510635375976562e+01,-4.093083953857421875e+01
6.639999747276306152e-01,2.000000000000000000e+00,9.269171714782714844e+00,5.307200908660888672e+00,3.457776641845703125e+01,-1.160646972656250000e+02,9.059012603759765625e+01,-6.847899627685546875e+01,4.316367721557617188e+01,-1.223645210266113281e+01,-1.095984115600585938e+02,-1.204187774658203125e+02,6.335115432739257812e+01,-4.095845413208007812e+01
6.679999828338623047e-01,2.000000000000000000e+00,9.297691345214843750e+00,5.260978221893310547e+00,3.457067871093750000e+01,-1.161188888549804688e+02,9.059214782714843750e+01,-6.850286865234375000e+01,4.309272384643554688e+01,-1.223014926910400391e+01,-1.096085433959960938e+02,-1.204764938354492188e+02,6.334720611572265625e+01,-4.098606872558593750e+01
6.719999909400939941e-01,2.000000000000000000e+00,9.326208114624023438e+00,5.214759826660156250e+00,3.456358718872070312e+01,-1.161730804443359375e+02,9.059416961669921875e+01,-6.852674102783203125e+01,4.302177429199218750e+01,-1.222384738922119141e+01,-1.096186676025390625e+02,-1.205342102050781250e+02,6.334325790405273438e+01,-4.101367950439453125e+01
6.759999990463256836e-01,2.000000000000000000e+00,9.354723930358886719e+00,5.168543815612792969e+00,3.455650329589843750e+01,-1.162272567749023438e+02,9.059618377685546875e+01,-6.855062103271484375e+01,4.295082855224609375e+01,-1.221754550933837891e+01,-1.096287918090820312e+02,-1.205919113159179688e+02,6.333930969238281250e+01,-4.104128646850585938e+01
6.800000071525573730e-01,2.000000000000000000e+00,9.383236885070800781e+00,5.122331619262695312e+00,3.454941177368164062e+01,-1.162814331054687500e+02,9.059820556640625000e+01,-6.857449340820312500e+01,4.287988662719726562e+01,-1.221124458312988281e+01,-1.096389236450195312e+02,-1.206496276855468750e+02,6.333536148071289062e+01,-4.106888961791992188e+01
6.840000152587890625e-01,2.000000000000000000e+00,9.411747932434082031e+00,5.076122283935546875e+00,3.454232788085937500e+01,-1.163356094360351562e+02,9.060022735595703125e+01,-6.859836578369140625e+01,4.280895233154296875e+01,-1.220494365692138672e+01,-1.096490478515625000e+02,-1.207073287963867188e+02,6.333140563964843750e+01,-4.109649276733398438e+01
6.880000233650207520e-01,2.000000000000000000e+00,9.440257072448730469e+00,5.029916286468505859e+00,3.453524017333984375e+01,-1.163897705078125000e+02,9.060224914550781250e+01,-6.862223815917968750e+01,4.273802185058593750e+01,-1.219864273071289062e+01,-1.096591644287109375e+02,-1.207650146484375000e+02,6.332745742797851562e+01,-4.112409973144531250e+01
6.919999718666076660e-01,2.000000000000000000e+00,9.468764305114746094e+00,4.983713150024414062e+00,3.452815628051757812e+01,-1.164439315795898438e+02,9.060427093505859375e+01,-6.864610290527343750e+01,4.266709518432617188e+01,-1.219234275817871094e+01,-1.096692886352539062e+02,-1.208227157592773438e+02,6.332350921630859375e+01,-4.115169525146484375e+01
6.959999799728393555e-01,2.000000000000000000e+00,9.497269630432128906e+00,4.937513828277587891e+00,3.452107238769531250e+01,-1.164981002807617188e+02,9.060628509521484375e+01,-6.866996765136718750e+01,4.259617614746093750e+01,-1.218604373931884766e+01,-1.096794128417968750e+02,-1.208804016113281250e+02,6.331956481933593750e+01,-4.117929458618164062e+01
6.999999880790710449e-01,2.000000000000000000e+00,9.525773048400878906e+00,4.891316890716552734e+00,3.451398468017578125e+01,-1.165522613525390625e+02,9.060830688476562500e+01,-6.869383239746093750e+01,4.252525711059570312e+01,-1.217974472045898438e+01,-1.096895370483398438e+02,-1.209380798339843750e+02,6.331561660766601562e+01,-4.120689392089843750e+01
7.039999961853027344e-01,2.000000000000000000e+00,9.554274559020996094e+00,4.845124244689941406e+00,3.450690078735351562e+01,-1.166064147949218750e+02,9.061032867431640625e+01,-6.871769714355468750e+01,4.245434570312500000e+01,-1.217344665527343750e+01,-1.096996536254882812e+02,-1.209957656860351562e+02,6.331166839599609375e+01,-4.123448944091796875e+01
7.080000042915344238e-01,2.000000000000000000e+00,9.582773208618164062e+00,4.798933506011962891e+00,3.449981689453125000e+01,-1.166605606079101562e+02,9.061234283447265625e+01,-6.874156188964843750e+01,4.238344192504882812e+01,-1.216714763641357422e+01,-1.097097778320312500e+02,-1.210534362792968750e+02,6.330772018432617188e+01,-4.126207733154296875e+01
7.120000123977661133e-01,2.000000000000000000e+00,9.611270904541015625e+00,4.752746582031250000e+00,3.449273300170898438e+01,-1.167147140502929688e+02,9.061436462402343750e+01,-6.876541900634765625e+01,4.231254196166992188e+01,-1.216084957122802734e+01,-1.097199020385742188e+02,-1.211111145019531250e+02,6.330377960205078125e+01,-4.128966903686523438e+01
7.160000205039978027e-01,2.000000000000000000e+00,9.639766693115234375e+00,4.706562519073486328e+00,3.448564910888671875e+01,-1.167688598632812500e+02,9.061638641357421875e+01,-6.878927612304687500e+01,4.224164199829101562e+01,-1.215455245971679688e+01,-1.097300186157226562e+02,-1.211687850952148438e+02,6.329983139038085938e+01,-4.131726074218750000e+01
7.200000286102294922e-01,2.000000000000000000e+00,9.668259620666503906e+00,4.660381793975830078e+00,3.447856903076171875e+01,-1.168229980468750000e+02,9.061840057373046875e+01,-6.881313323974609375e+01,4.217074966430664062e+01,-1.214825534820556641e+01,-1.097401351928710938e+02,-1.212264480590820312e+02,6.329588317871093750e+01,-4.134484481811523438e+01
7.239999771118164062e-01,2.000000000000000000e+00,9.696751594543457031e+00,4.614204406738281250e+00,3.447148513793945312e+01,-1.168771362304687500e+02,9.062042236328125000e+01,-6.883699035644531250e+01,4.209986114501953125e+01,-1.214195919036865234e+01,-1.097502517700195312e+02,-1.212841110229492188e+02,6.329193496704101562e+01,-4.137242889404296875e+01
7.279999852180480957e-01,2.000000000000000000e+00,9.725241661071777344e+00,4.568029880523681641e+00,3.446440505981445312e+01,-1.169312667846679688e+02,9.062243652343750000e+01,-6.886083984375000000e+01,4.202898025512695312e+01,-1.213566303253173828e+01,-1.097603683471679688e+02,-1.213417663574218750e+02,6.328799438476562500e+01,-4.140001296997070312e+01
7.319999933242797852e-01,2.000000000000000000e+00,9.753728866577148438e+00,4.521858215332031250e+00,3.445732498168945312e+01,-1.169853897094726562e+02,9.062445831298828125e+01,-6.888468933105468750e+01,4.195810699462890625e+01,-1.212936782836914062e+01,-1.097704849243164062e+02,-1.213994140625000000e+02,6.328404617309570312e+01,-4.142759704589843750e+01
7.360000014305114746e-01,2.000000000000000000e+00,9.782215118408203125e+00,4.475689888000488281e+00,3.445024490356445312e+01,-1.170395278930664062e+02,9.062647247314453125e+01,-6.890854644775390625e+01,4.188722991943359375e+01,-1.212307167053222656e+01,-1.097806015014648438e+02,-1.214570770263671875e+02,6.328009796142578125e+01,-4.145517730712890625e+01
7.400000095367431641e-01,2.000000000000000000e+00,9.810699462890625000e+00,4.429523944854736328e+00,3.444316101074218750e+01,-1.170936508178710938e+02,9.062849426269531250e+01,-6.893239593505859375e+01,4.181636047363281250e+01,-1.211677742004394531e+01,-1.097907180786132812e+02,-1.215147247314453125e+02,6.327615737915039062e+01,-4.148275375366210938e+01
7.440000176429748535e-01,2.000000000000000000e+00,9.839180946350097656e+00,4.383361816406250000e+00,3.443608093261718750e+01,-1.171477584838867188e+02,9.063050842285156250e+01,-6.895623779296875000e+01,4.174549865722656250e+01,-1.211048316955566406e+01,-1.098008346557617188e+02,-1.215723571777343750e+02,6.327220916748046875e+01,-4.151033020019531250e+01
7.480000257492065430e-01,2.000000000000000000e+00,9.867661476135253906e+00,4.337202548980712891e+00,3.442900848388671875e+01,-1.172018814086914062e+02,9.063253021240234375e+01,-6.898008728027343750e+01,4.167464065551757812e+01,-1.210418891906738281e+01,-1.098109436035156250e+02,-1.216300048828125000e+02,6.326826858520507812e+01,-4.153790664672851562e+01
7.519999742507934570e-01,2.000000000000000000e+00,9.896140098571777344e+00,4.291046142578125000e+00,3.442192840576171875e+01,-1.172559890747070312e+02,9.063455200195312500e+01,-6.900393676757812500e+01,4.160378646850585938e+01,-1.209789466857910156e+01,-1.098210525512695312e+02,-1.216876373291015625e+02,6.326432037353515625e+01,-4.156547927856445312e+01
7.559999823570251465e-01,2.000000000000000000e+00,9.924616813659667969e+00,4.244892597198486328e+00,3.441484832763671875e+01,-1.173100967407226562e+02,9.063657379150390625e+01,-6.902777099609375000e+01,4.153293609619140625e+01,-1.209160232543945312e+01,-1.098311691284179688e+02,-1.217452697753906250e+02,6.326037979125976562e+01,-4.159304809570312500e+01
7.599999904632568359e-01,2.000000000000000000e+00,9.953091621398925781e+00,4.198742389678955078e+00,3.440777206420898438e+01,-1.173642044067382812e+02,9.063858795166015625e+01,-6.905161285400390625e+01,4.146208953857421875e+01,-1.208530902862548828e+01,-1.098412780761718750e+02,-1.218028869628906250e+02,6.325643157958984375e+01,-4.162061691284179688e+01
7.639999985694885254e-01,2.000000000000000000e+00,9.981564521789550781e+00,4.152595043182373047e+00,3.440069198608398438e+01,-1.174183044433593750e+02,9.064060974121093750e+01,-6.907545471191406250e+01,4.139125061035156250e+01,-1.207901668548583984e+01,-1.098513946533203125e+02,-1.218605194091796875e+02,6.325249099731445312e+01,-4.164818572998046875e+01
7.680000066757202148e-01,2.000000000000000000e+00,1.001003551483154297e+01,4.106450557708740234e+00,3.439361572265625000e+01,-1.174723968505859375e+02,9.064262390136718750e+01,-6.909928894042968750e+01,4.132041549682617188e+01,-1.207272529602050781e+01,-1.098615036010742188e+02,-1.219181442260742188e+02,6.324855041503906250e+01,-4.167574691772460938e+01
7.720000147819519043e-01,2.000000000000000000e+00,1.003850460052490234e+01,4.060308933258056641e+00,3.438653945922851562e+01,-1.175264892578125000e+02,9.064463806152343750e+01,-6.912313079833984375e+01,4.124958419799804688e+01,-1.206643390655517578e+01,-1.098716125488281250e+02,-1.219757461547851562e+02,6.324460220336914062e+01,-4.170331573486328125e+01
7.760000228881835938e-01,2.000000000000000000e+00,1.006697273254394531e+01,4.014170646667480469e+00,3.437946319580078125e+01,-1.175805892944335938e+02,9.064665985107421875e+01,-6.914696502685546875e+01,4.117875289916992188e+01,-1.206014156341552734e+01,-1.098817214965820312e+02,-1.220333633422851562e+02,6.324066162109375000e+01,-4.173087692260742188e+01
7.799999713897705078e-01,2.000000000000000000e+00,1.009543800354003906e+01,3.968034744262695312e+00,3.437238693237304688e+01,-1.176346664428710938e+02,9.064867401123046875e+01,-6.917079162597656250e+01,4.110792922973632812e+01,-1.205385112762451172e+01,-1.098918304443359375e+02,-1.220909729003906250e+02,6.323672103881835938e+01,-4.175843429565429688e+01
7.839999794960021973e-01,2.000000000000000000e+00,1.012390232086181641e+01,3.921901941299438477e+00,3.436531448364257812e+01,-1.176887664794921875e+02,9.065068817138671875e+01,-6.919463348388671875e+01,4.103711700439453125e+01,-1.204756069183349609e+01,-1.099019393920898438e+02,-1.221485748291015625e+02,6.323278045654296875e+01,-4.178599548339843750e+01
7.879999876022338867e-01,2.000000000000000000e+00,1.015236473083496094e+01,3.875771999359130859e+00,3.435823822021484375e+01,-1.177428283691406250e+02,9.065270996093750000e+01,-6.921846008300781250e+01,4.096630096435546875e+01,-1.204127120971679688e+01,-1.099120483398437500e+02,-1.222061843872070312e+02,6.322883224487304688e+01,-4.181355285644531250e+01
7.919999957084655762e-01,2.000000000000000000e+00,1.018082523345947266e+01,3.829645395278930664e+00,3.435116577148437500e+01,-1.177969131469726562e+02,9.065472412109375000e+01,-6.924228668212890625e+01,4.089549255371093750e+01,-1.203498172760009766e+01,-1.099221572875976562e+02,-1.222637786865234375e+02,6.322489166259765625e+01,-4.184110641479492188e+01
7.960000038146972656e-01,2.000000000000000000e+00,1.020928287506103516e+01,3.783520936965942383e+00,3.434408950805664062e+01,-1.178509979248046875e+02,9.065673828125000000e+01,-6.926612091064453125e+01,4.082468795776367188e+01,-1.202869129180908203e+01,-1.099322586059570312e+02,-1.223213653564453125e+02,6.322094726562500000e+01,-4.186865997314453125e+01
8.000000119209289551e-01,2.000000000000000000e+00,1.023773956298828125e+01,3.737399816513061523e+00,3.433701705932617188e+01,-1.179050598144531250e+02,9.065875244140625000e+01,-6.928993988037109375e+01,4.075388336181640625e+01,-1.202240276336669922e+01,-1.099423675537109375e+02,-1.223789596557617188e+02,6.321700668334960938e+01,-4.189620971679687500e+01
8.040000200271606445e-01,2.000000000000000000e+00,1.026619434356689453e+01,3.691281557083129883e+00,3.432994461059570312e+01,-1.179591293334960938e+02,9.066077423095703125e+01,-6.931376647949218750e+01,4.068309020996093750e+01,-1.201611423492431641e+01,-1.099524688720703125e+02,-1.224365539550781250e+02,6.321306610107421875e+01,-4.192375946044921875e+01
8.080000281333923340e-01,2.000000000000000000e+00,1.029464817047119141e+01,3.645166158676147461e+00,3.432287216186523438e+01,-1.180131835937500000e+02,9.066278839111328125e+01,-6.933758544921875000e+01,4.061229705810546875e+01,-1.200982666015625000e+01,-1.099625778198242188e+02,-1.224941329956054688e+02,6.320912551879882812e+01,-4.195130920410156250e+01
8.119999766349792480e-01,2.000000000000000000e+00,1.032309913635253906e+01,3.599053382873535156e+00,3.431579971313476562e+01,-1.180672531127929688e+02,9.066480255126953125e+01,-6.936141204833984375e+01,4.054151153564453125e+01,-1.200353813171386719e+01,-1.099726791381835938e+02,-1.225517120361328125e+02,6.320518493652343750e+01,-4.197885513305664062e+01
8.159999847412109375e-01,2.000000000000000000e+00,1.035155010223388672e+01,3.552943468093872070e+00,3.430873107910156250e+01,-1.181213073730468750e+02,9.066682434082031250e+01,-6.938523101806640625e+01,4.047072982788085938e+01,-1.199725151062011719e+01,-1.099827804565429688e+02,-1.226092910766601562e+02,6.320124435424804688e+01,-4.200640106201171875e+01
8.199999928474426270e-01,2.000000000000000000e+00,1.037999725341796875e+01,3.506836175918579102e+00,3.430165863037109375e+01,-1.181753616333007812e+02,9.066883850097656250e+01,-6.940904998779296875e+01,4.039994812011718750e+01,-1.199096488952636719e+01,-1.099928817749023438e+02,-1.226668624877929688e+02,6.319731140136718750e+01,-4.203394317626953125e+01
8.240000009536743164e-01,2.000000000000000000e+00,1.040844345092773438e+01,3.460731983184814453e+00,3.429458999633789062e+01,-1.182294158935546875e+02,9.067085266113281250e+01,-6.943286895751953125e+01,4.032917404174804688e+01,-1.198467826843261719e+01,-1.100029830932617188e+02,-1.227244338989257812e+02,6.319336700439453125e+01,-4.206148529052734375e+01
8.280000090599060059e-01,2.000000000000000000e+00,1.043688869476318359e+01,3.414630413055419922e+00,3.428751754760742188e+01,-1.182834548950195312e+02,9.067287445068359375e+01,-6.945668792724609375e+01,4.025840759277343750e+01,-1.197839260101318359e+01,-1.100130844116210938e+02,-1.227819976806640625e+02,6.318942642211914062e+01,-4.208902359008789062e+01
8.320000171661376953e-01,2.000000000000000000e+00,1.046533107757568359e+01,3.368531465530395508e+00,3.428044509887695312e+01,-1.183375091552734375e+02,9.067488861083984375e+01,-6.948049926757812500e+01,4.018763732910156250e+01,-1.197210597991943359e+01,-1.100231857299804688e+02,-1.228395614624023438e+02,6.318548583984375000e+01,-4.211656188964843750e+01
8.360000252723693848e-01,2.000000000000000000e+00,1.049377346038818359e+01,3.322435617446899414e+00,3.427337646484375000e+01,-1.183915481567382812e+02,9.067690277099609375e+01,-6.950431060791015625e+01,4.011687850952148438e+01,-1.196582031250000000e+01,-1.100332870483398438e+02,-1.228971252441406250e+02,6.318155288696289062e+01,-4.214409637451171875e+01
8.399999737739562988e-01,2.000000000000000000e+00,1.052221202850341797e+01,3.276342391967773438e+00,3.426630783081054688e+01,-1.184455795288085938e+02,9.067891693115234375e+01,-6.952812194824218750e+01,4.004611968994140625e+01,-1.195953559875488281e+01,-1.100433883666992188e+02,-1.229546737670898438e+02,6.317761230468750000e+01,-4.217163467407226562e+01
8.439999818801879883e-01,2.000000000000000000e+00,1.055064964294433594e+01,3.230251550674438477e+00,3.425924301147460938e+01,-1.184996185302734375e+02,9.068093109130859375e+01,-6.955193328857421875e+01,3.997536468505859375e+01,-1.195325088500976562e+01,-1.100534896850585938e+02,-1.230122299194335938e+02,6.317367172241210938e+01,-4.219916534423828125e+01
8.479999899864196777e-01,2.000000000000000000e+00,1.057908630371093750e+01,3.184163808822631836e+00,3.425217437744140625e+01,-1.185536422729492188e+02,9.068294525146484375e+01,-6.957574462890625000e+01,3.990461730957031250e+01,-1.194696617126464844e+01,-1.100635833740234375e+02,-1.230697784423828125e+02,6.316973495483398438e+01,-4.222669982910156250e+01
8.519999980926513672e-01,2.000000000000000000e+00,1.060752010345458984e+01,3.138078689575195312e+00,3.424510192871093750e+01,-1.186076736450195312e+02,9.068495941162109375e+01,-6.959954833984375000e+01,3.983387374877929688e+01,-1.194068241119384766e+01,-1.100736770629882812e+02,-1.231273269653320312e+02,6.316579437255859375e+01,-4.225422668457031250e+01
8.560000061988830566e-01,2.000000000000000000e+00,1.063595390319824219e+01,3.091996192932128906e+00,3.423803710937500000e+01,-1.186616973876953125e+02,9.068697357177734375e+01,-6.962335968017578125e+01,3.976313018798828125e+01,-1.193439865112304688e+01,-1.100837783813476562e+02,-1.231848678588867188e+02,6.316185379028320312e+01,-4.228175735473632812e+01
8.600000143051147461e-01,2.000000000000000000e+00,1.066438484191894531e+01,3.045916318893432617e+00,3.423097229003906250e+01,-1.187157211303710938e+02,9.068899536132812500e+01,-6.964716339111328125e+01,3.969239425659179688e+01,-1.192811584472656250e+01,-1.100938720703125000e+02,-1.232424011230468750e+02,6.315792083740234375e+01,-4.230928421020507812e+01
8.640000224113464355e-01,2.000000000000000000e+00,1.069281387329101562e+01,2.999839067459106445e+00,3.422390365600585938e+01,-1.187697372436523438e+02,9.069100952148437500e+01,-6.967095947265625000e+01,3.962166213989257812e+01,-1.192183303833007812e+01,-1.101039657592773438e+02,-1.232999420166015625e+02,6.315398025512695312e+01,-4.233680725097656250e+01
8.679999709129333496e-01,2.000000000000000000e+00,1.072124195098876953e+01,2.953764677047729492e+00,3.421683883666992188e+01,-1.188237533569335938e+02,9.069302368164062500e+01,-6.969476318359375000e+01,3.955093002319335938e+01,-1.191555118560791016e+01,-1.101140670776367188e+02,-1.233574829101562500e+02,6.315004348754882812e+01,-4.236433410644531250e+01
8.719999790191650391e-01,2.000000000000000000e+00,1.074966812133789062e+01,2.907692670822143555e+00,3.420977020263671875e+01,-1.188777618408203125e+02,9.069503784179687500e+01,-6.971855926513671875e+01,3.948020935058593750e+01,-1.190926933288574219e+01,-1.101241607666015625e+02,-1.234150009155273438e+02,6.314611053466796875e+01,-4.239185714721679688e+01
8.759999871253967285e-01,2.000000000000000000e+00,1.077809333801269531e+01,2.861623525619506836e+00,3.420270919799804688e+01,-1.189317779541015625e+02,9.069705200195312500e+01,-6.974236297607421875e+01,3.940948486328125000e+01,-1.190298748016357422e+01,-1.101342544555664062e+02,-1.234725265502929688e+02,6.314216995239257812e+01,-4.241937637329101562e+01
8.799999952316284180e-01,2.000000000000000000e+00,1.080651664733886719e+01,2.815556764602661133e+00,3.419564437866210938e+01,-1.189857864379882812e+02,9.069905853271484375e+01,-6.976615905761718750e+01,3.933876800537109375e+01,-1.189670562744140625e+01,-1.101443481445312500e+02,-1.235300521850585938e+02,6.313823699951171875e+01,-4.244689559936523438e+01
8.840000033378601074e-01,2.000000000000000000e+00,1.083493709564208984e+01,2.769492864608764648e+00,3.418857574462890625e+01,-1.190397872924804688e+02,9.070107269287109375e+01,-6.978995513916015625e+01,3.926805496215820312e+01,-1.189042472839355469e+01,-1.101544342041015625e+02,-1.235875778198242188e+02,6.313430023193359375e+01,-4.247441482543945312e+01
8.880000114440917969e-01,2.000000000000000000e+00,1.086335754394531250e+01,2.723431348800659180e+00,3.418151473999023438e+01,-1.190937881469726562e+02,9.070308685302734375e+01,-6.981375122070312500e+01,3.919734954833984375e+01,-1.188414382934570312e+01,-1.101645355224609375e+02,-1.236450881958007812e+02,6.313035964965820312e+01,-4.250193023681640625e+01
8.920000195503234863e-01,2.000000000000000000e+00,1.089177703857421875e+01,2.677372455596923828e+00,3.417444992065429688e+01,-1.191477890014648438e+02,9.070510101318359375e+01,-6.983754730224609375e+01,3.912664413452148438e+01,-1.187786388397216797e+01,-1.101746215820312500e+02,-1.237026062011718750e+02,6.312642669677734375e+01,-4.252944183349609375e+01
8.960000276565551758e-01,2.000000000000000000e+00,1.092019271850585938e+01,2.631316184997558594e+00,3.416738510131835938e+01,-1.192017745971679688e+02,9.070712280273437500e+01,-6.986134338378906250e+01,3.905594253540039062e+01,-1.187158393859863281e+01,-1.101847152709960938e+02,-1.237601089477539062e+02,6.312248992919921875e+01,-4.255695724487304688e+01
8.999999761581420898e-01,2.000000000000000000e+00,1.094860935211181641e+01,2.585262060165405273e+00,3.416032409667968750e+01,-1.192557754516601562e+02,9.070913696289062500e+01,-6.988513183593750000e+01,3.898524475097656250e+01,-1.186530399322509766e+01,-1.101948013305664062e+02,-1.238176193237304688e+02,6.311855697631835938e+01,-4.258446502685546875e+01
9.039999842643737793e-01,2.000000000000000000e+00,1.097702217102050781e+01,2.539210319519042969e+00,3.415326309204101562e+01,-1.193097610473632812e+02,9.071114349365234375e+01,-6.990892028808593750e+01,3.891455078125000000e+01,-1.185902404785156250e+01,-1.102048950195312500e+02,-1.238751296997070312e+02,6.311461639404296875e+01,-4.261197662353515625e+01
9.079999923706054688e-01,2.000000000000000000e+00,1.100543498992919922e+01,2.493161439895629883e+00,3.414619827270507812e+01,-1.193637466430664062e+02,9.071315765380859375e+01,-6.993270874023437500e+01,3.884386444091796875e+01,-1.185274600982666016e+01,-1.102149887084960938e+02,-1.239326248168945312e+02,6.311068344116210938e+01,-4.263948440551757812e+01
9.120000004768371582e-01,2.000000000000000000e+00,1.103384590148925781e+01,2.447114706039428711e+00,3.413913726806640625e+01,-1.194177322387695312e+02,9.071517181396484375e+01,-6.995649719238281250e+01,3.877317810058593750e+01,-1.184646701812744141e+01,-1.102250747680664062e+02,-1.239901199340820312e+02,6.310674667358398438e+01,-4.266698837280273438e+01
9.160000085830688477e-01,2.000000000000000000e+00,1.106225585937500000e+01,2.401070356369018555e+00,3.413207626342773438e+01,-1.194717025756835938e+02,9.071718597412109375e+01,-6.998027801513671875e+01,3.870249557495117188e+01,-1.184018898010253906e+01,-1.102351608276367188e+02,-1.240476150512695312e+02,6.310281372070312500e+01,-4.269449615478515625e+01
9.200000166893005371e-01,2.000000000000000000e+00,1.109066390991210938e+01,2.355028390884399414e+00,3.412501525878906250e+01,-1.195256881713867188e+02,9.071919250488281250e+01,-7.000407409667968750e+01,3.863181686401367188e+01,-1.183391094207763672e+01,-1.102452545166015625e+02,-1.241051101684570312e+02,6.309888076782226562e+01,-4.272200012207031250e+01
9.240000247955322266e-01,2.000000000000000000e+00,1.111907100677490234e+01,2.308988809585571289e+00,3.411795425415039062e+01,-1.195796585083007812e+02,9.072120666503906250e+01,-7.002785491943359375e+01,3.856114196777343750e+01,-1.182763385772705078e+01,-1.102553329467773438e+02,-1.241625976562500000e+02,6.309494400024414062e+01,-4.274950408935546875e+01
9.279999732971191406e-01,2.000000000000000000e+00,1.114747619628906250e+01,2.262951374053955078e+00,3.411089324951171875e+01,-1.196336364746093750e+02,9.072322845458984375e+01,-7.005163574218750000e+01,3.849047088623046875e+01,-1.182135581970214844e+01,-1.102654190063476562e+02,-1.242200775146484375e+02,6.309101104736328125e+01,-4.277700424194335938e+01
9.319999814033508301e-01,2.000000000000000000e+00,1.117588043212890625e+01,2.216916322708129883e+00,3.410383605957031250e+01,-1.196876068115234375e+02,9.072523498535156250e+01,-7.007540893554687500e+01,3.841979980468750000e+01,-1.181507873535156250e+01,-1.102755126953125000e+02,-1.242775573730468750e+02,6.308707809448242188e+01,-4.280450057983398438e+01
9.359999895095825195e-01,2.000000000000000000e+00,1.120428276062011719e+01,2.170883417129516602e+00,3.409677505493164062e+01,-1.197415618896484375e+02,9.072724914550781250e+01,-7.009919738769531250e+01,3.834913635253906250e+01,-1.180880260467529297e+01,-1.102855987548828125e+02,-1.243350448608398438e+02,6.308314132690429688e+01,-4.283200073242187500e+01
9.399999976158142090e-01,2.000000000000000000e+00,1.123268413543701172e+01,2.124852657318115234e+00,3.408971405029296875e+01,-1.197955398559570312e+02,9.072926330566406250e+01,-7.012297821044921875e+01,3.827847671508789062e+01,-1.180252647399902344e+01,-1.102956771850585938e+02,-1.243925247192382812e+02,6.307920837402343750e+01,-4.285950088500976562e+01
9.440000057220458984e-01,2.000000000000000000e+00,1.126108455657958984e+01,2.078824281692504883e+00,3.408265304565429688e+01,-1.198494949340820312e+02,9.073126983642578125e+01,-7.014675140380859375e+01,3.820782089233398438e+01,-1.179625034332275391e+01,-1.103057632446289062e+02,-1.244499969482421875e+02,6.307527542114257812e+01,-4.288699340820312500e+01
9.480000138282775879e-01,2.000000000000000000e+00,1.128948211669921875e+01,2.032797813415527344e+00,3.407559585571289062e+01,-1.199034500122070312e+02,9.073328399658203125e+01,-7.017053222656250000e+01,3.813716506958007812e+01,-1.178997421264648438e+01,-1.103158493041992188e+02,-1.245074615478515625e+02,6.307134628295898438e+01,-4.291448974609375000e+01
9.520000219345092773e-01,2.000000000000000000e+00,1.131787967681884766e+01,1.986773610115051270e+00,3.406853866577148438e+01,-1.199574127197265625e+02,9.073529815673828125e+01,-7.019430541992187500e+01,3.806651306152343750e+01,-1.178369903564453125e+01,-1.103259353637695312e+02,-1.245649337768554688e+02,6.306741333007812500e+01,-4.294198226928710938e+01
9.559999704360961914e-01,2.000000000000000000e+00,1.134627532958984375e+01,1.940751314163208008e+00,3.406148147583007812e+01,-1.200113601684570312e+02,9.073731231689453125e+01,-7.021807861328125000e+01,3.799586486816406250e+01,-1.177742385864257812e+01,-1.103360214233398438e+02,-1.246224060058593750e+02,6.306348037719726562e+01,-4.296947479248046875e+01
9.599999785423278809e-01,2.000000000000000000e+00,1.137466907501220703e+01,1.894731163978576660e+00,3.405442047119140625e+01,-1.200653152465820312e+02,9.073932647705078125e+01,-7.024185943603515625e+01,3.792522048950195312e+01,-1.177114772796630859e+01,-1.103460998535156250e+02,-1.246798706054687500e+02,6.305954360961914062e+01,-4.299696731567382812e+01
9.639999866485595703e-01,2.000000000000000000e+00,1.140306282043457031e+01,1.848713278770446777e+00,3.404736709594726562e+01,-1.201192626953125000e+02,9.074133300781250000e+01,-7.026562500000000000e+01,3.785457611083984375e+01,-1.176487350463867188e+01,-1.103561859130859375e+02,-1.247373275756835938e+02,6.305561065673828125e+01,-4.302445983886718750e+01
9.679999947547912598e-01,2.000000000000000000e+00,1.143145465850830078e+01,1.802697181701660156e+00,3.404030609130859375e+01,-1.201732177734375000e+02,9.074334716796875000e+01,-7.028939819335937500e+01,3.778393936157226562e+01,-1.175859832763671875e+01,-1.103662719726562500e+02,-1.247947998046875000e+02,6.305168151855468750e+01,-4.305194473266601562e+01
9.720000028610229492e-01,2.000000000000000000e+00,1.145984554290771484e+01,1.756683111190795898e+00,3.403325271606445312e+01,-1.202271652221679688e+02,9.074536132812500000e+01,-7.031317138671875000e+01,3.771330261230468750e+01,-1.175232505798339844e+01,-1.103763504028320312e+02,-1.248522567749023438e+02,6.304774856567382812e+01,-4.307943344116210938e+01
9.760000109672546387e-01,2.000000000000000000e+00,1.148823451995849609e+01,1.710671067237854004e+00,3.402619552612304688e+01,-1.202810974121093750e+02,9.074736785888671875e+01,-7.033693695068359375e+01,3.764266967773437500e+01,-1.174605083465576172e+01,-1.103864288330078125e+02,-1.249097061157226562e+02,6.304381561279296875e+01,-4.310691833496093750e+01
9.800000190734863281e-01,2.000000000000000000e+00,1.151662254333496094e+01,1.664661049842834473e+00,3.401914215087890625e+01,-1.203350372314453125e+02,9.074938201904296875e+01,-7.036071014404296875e+01,3.757203674316406250e+01,-1.173977756500244141e+01,-1.103965148925781250e+02,-1.249671478271484375e+02,6.303988647460937500e+01,-4.313440322875976562e+01
9.840000271797180176e-01,2.000000000000000000e+00,1.154500961303710938e+01,1.618652939796447754e+00,3.401208114624023438e+01,-1.203889694213867188e+02,9.075139617919921875e+01,-7.038447570800781250e+01,3.750141525268554688e+01,-1.173350334167480469e+01,-1.104065933227539062e+02,-1.250246047973632812e+02,6.303595352172851562e+01,-4.316188812255859375e+01
9.879999756813049316e-01,2.000000000000000000e+00,1.157339668273925781e+01,1.572646856307983398e+00,3.400502777099609375e+01,-1.204429168701171875e+02,9.075341033935546875e+01,-7.040824127197265625e+01,3.743078994750976562e+01,-1.172723102569580078e+01,-1.104166717529296875e+02,-1.250820465087890625e+02,6.303202438354492188e+01,-4.318937301635742188e+01
9.919999837875366211e-01,2.000000000000000000e+00,1.160178089141845703e+01,1.526642680168151855e+00,3.399797439575195312e+01,-1.204968490600585938e+02,9.075541687011718750e+01,-7.043200683593750000e+01,3.736016845703125000e+01,-1.172095775604248047e+01,-1.104267501831054688e+02,-1.251394882202148438e+02,6.302809143066406250e+01,-4.321685409545898438e+01
9.959999918937683105e-01,2.000000000000000000e+00,1.163016319274902344e+01,1.480640411376953125e+00,3.399091720581054688e+01,-1.205507812500000000e+02,9.075743103027343750e+01,-7.045577239990234375e+01,3.728955078125000000e+01,-1.171468448638916016e+01,-1.104368286132812500e+02,-1.251969299316406250e+02,6.302415847778320312e+01,-4.324433517456054688e+01
1.000000000000000000e+00,2.000000000000000000e+00,1.165854644775390625e+01,1.434640288352966309e+00,3.398386383056640625e+01,-1.206047058105468750e+02,9.075943756103515625e+01,-7.047953796386718750e+01,3.721893310546875000e+01,-1.170841312408447266e+01,-1.104469146728515625e+02,-1.252543716430664062e+02,6.302022933959960938e+01,-4.327181243896484375e+01
1.003999948501586914e+00,2.000000000000000000e+00,1.168692684173583984e+01,1.388642430305480957e+00,3.397680664062500000e+01,-1.206586227416992188e+02,9.076144409179687500e+01,-7.050329589843750000e+01,3.714832305908203125e+01,-1.170213985443115234e+01,-1.104569854736328125e+02,-1.253118133544921875e+02,6.301629638671875000e+01,-4.329928970336914062e+01
1.008000016212463379e+00,2.000000000000000000e+00,1.171530723571777344e+01,1.342647075653076172e+00,3.396975326538085938e+01,-1.207125549316406250e+02,9.076345825195312500e+01,-7.052706146240234375e+01,3.707771301269531250e+01,-1.169586849212646484e+01,-1.104670715332031250e+02,-1.253692550659179688e+02,6.301236724853515625e+01,-4.332677078247070312e+01
1.011999964714050293e+00,2.000000000000000000e+00,1.174368572235107422e+01,1.296654224395751953e+00,3.396269989013671875e+01,-1.207664718627929688e+02,9.076547241210937500e+01,-7.055081939697265625e+01,3.700711059570312500e+01,-1.168959712982177734e+01,-1.104771423339843750e+02,-1.254266891479492188e+02,6.300843429565429688e+01,-4.335424423217773438e+01
1.016000032424926758e+00,2.000000000000000000e+00,1.177206230163574219e+01,1.250663399696350098e+00,3.395564270019531250e+01,-1.208203887939453125e+02,9.076748657226562500e+01,-7.057458496093750000e+01,3.693650436401367188e+01,-1.168332576751708984e+01,-1.104872207641601562e+02,-1.254841156005859375e+02,6.300450515747070312e+01,-4.338171768188476562e+01
1.019999980926513672e+00,2.000000000000000000e+00,1.180043888092041016e+01,1.204674363136291504e+00,3.394859313964843750e+01,-1.208743133544921875e+02,9.076949310302734375e+01,-7.059833526611328125e+01,3.686590576171875000e+01,-1.167705440521240234e+01,-1.104972991943359375e+02,-1.255415420532226562e+02,6.300057983398437500e+01,-4.340919113159179688e+01
1.024000048637390137e+00,2.000000000000000000e+00,1.182881355285644531e+01,1.158687233924865723e+00,3.394153976440429688e+01,-1.209282302856445312e+02,9.077149963378906250e+01,-7.062209320068359375e+01,3.679530715942382812e+01,-1.167078399658203125e+01,-1.105073699951171875e+02,-1.255989685058593750e+02,6.299664688110351562e+01,-4.343666839599609375e+01
1.026999950408935547e+00,2.000000000000000000e+00,1.185718822479248047e+01,1.112701296806335449e+00,3.393448257446289062e+01,-1.209821472167968750e+02,9.077351379394531250e+01,-7.064585876464843750e+01,3.672471237182617188e+01,-1.166451358795166016e+01,-1.105174484252929688e+02,-1.256563949584960938e+02,6.299271774291992188e+01,-4.346413803100585938e+01
1.031999945640563965e+00,2.000000000000000000e+00,1.188556098937988281e+01,1.066716909408569336e+00,3.392743301391601562e+01,-1.210360488891601562e+02,9.077552032470703125e+01,-7.066960906982421875e+01,3.665412139892578125e+01,-1.165824317932128906e+01,-1.105275268554687500e+02,-1.257138137817382812e+02,6.298879241943359375e+01,-4.349160766601562500e+01
1.036000013351440430e+00,2.000000000000000000e+00,1.191393280029296875e+01,1.020733714103698730e+00,3.392037963867187500e+01,-1.210899658203125000e+02,9.077754211425781250e+01,-7.069336700439453125e+01,3.658353042602539062e+01,-1.165197372436523438e+01,-1.105376052856445312e+02,-1.257712249755859375e+02,6.298485565185546875e+01,-4.351907730102539062e+01
1.039999961853027344e+00,2.000000000000000000e+00,1.194230270385742188e+01,9.747523069381713867e-01,3.391332626342773438e+01,-1.211438674926757812e+02,9.077954864501953125e+01,-7.071711730957031250e+01,3.651294708251953125e+01,-1.164570331573486328e+01,-1.105476760864257812e+02,-1.258286437988281250e+02,6.298093032836914062e+01,-4.354654312133789062e+01
1.044000029563903809e+00,2.000000000000000000e+00,1.197067260742187500e+01,9.287726283073425293e-01,3.390627670288085938e+01,-1.211977767944335938e+02,9.078155517578125000e+01,-7.074086761474609375e+01,3.644236373901367188e+01,-1.163943386077880859e+01,-1.105577545166015625e+02,-1.258860549926757812e+02,6.297700119018554688e+01,-4.357401275634765625e+01
1.047999978065490723e+00,2.000000000000000000e+00,1.199904060363769531e+01,8.827947974205017090e-01,3.389922714233398438e+01,-1.212516784667968750e+02,9.078356933593750000e+01,-7.076461791992187500e+01,3.637178039550781250e+01,-1.163316440582275391e+01,-1.105678253173828125e+02,-1.259434738159179688e+02,6.297306823730468750e+01,-4.360147857666015625e+01
1.052000045776367188e+00,2.000000000000000000e+00,1.202740859985351562e+01,8.368187546730041504e-01,3.389217376708984375e+01,-1.213055801391601562e+02,9.078557586669921875e+01,-7.078837585449218750e+01,3.630120086669921875e+01,-1.162689495086669922e+01,-1.105778961181640625e+02,-1.260008850097656250e+02,6.296913909912109375e+01,-4.362894439697265625e+01
1.054999947547912598e+00,2.000000000000000000e+00,1.205577373504638672e+01,7.908444404602050781e-01,3.388512039184570312e+01,-1.213594741821289062e+02,9.078758239746093750e+01,-7.081212615966796875e+01,3.623062896728515625e+01,-1.162062644958496094e+01,-1.105879669189453125e+02,-1.260582885742187500e+02,6.296521377563476562e+01,-4.365640640258789062e+01
1.059999942779541016e+00,2.000000000000000000e+00,1.208413887023925781e+01,7.448719739913940430e-01,3.387807464599609375e+01,-1.214133758544921875e+02,9.078959655761718750e+01,-7.083586883544921875e+01,3.616005706787109375e+01,-1.161435794830322266e+01,-1.105980453491210938e+02,-1.261156997680664062e+02,6.296128463745117188e+01,-4.368386840820312500e+01
1.064000010490417480e+00,2.000000000000000000e+00,1.211250305175781250e+01,6.989012360572814941e-01,3.387102127075195312e+01,-1.214672622680664062e+02,9.079161071777343750e+01,-7.085961914062500000e+01,3.608948898315429688e+01,-1.160808944702148438e+01,-1.106081161499023438e+02,-1.261731033325195312e+02,6.295735931396484375e+01,-4.371133422851562500e+01
1.067999958992004395e+00,2.000000000000000000e+00,1.214086627960205078e+01,6.529322862625122070e-01,3.386397171020507812e+01,-1.215211563110351562e+02,9.079361724853515625e+01,-7.088336944580078125e+01,3.601892089843750000e+01,-1.160182189941406250e+01,-1.106181869506835938e+02,-1.262305068969726562e+02,6.295343017578125000e+01,-4.373879241943359375e+01
1.072000026702880859e+00,2.000000000000000000e+00,1.216922760009765625e+01,6.069650053977966309e-01,3.385692214965820312e+01,-1.215750427246093750e+02,9.079562377929687500e+01,-7.090711975097656250e+01,3.594835662841796875e+01,-1.159555339813232422e+01,-1.106282577514648438e+02,-1.262879028320312500e+02,6.294949722290039062e+01,-4.376625061035156250e+01
1.075999975204467773e+00,2.000000000000000000e+00,1.219758892059326172e+01,5.609994530677795410e-01,3.384987640380859375e+01,-1.216289367675781250e+02,9.079763031005859375e+01,-7.093086242675781250e+01,3.587779235839843750e+01,-1.158928585052490234e+01,-1.106383285522460938e+02,-1.263452911376953125e+02,6.294556808471679688e+01,-4.379371261596679688e+01
1.080000042915344238e+00,2.000000000000000000e+00,1.222594833374023438e+01,5.150356292724609375e-01,3.384282684326171875e+01,-1.216828231811523438e+02,9.079964447021484375e+01,-7.095460510253906250e+01,3.580723571777343750e+01,-1.158301830291748047e+01,-1.106484069824218750e+02,-1.264026947021484375e+02,6.294164276123046875e+01,-4.382117080688476562e+01
1.083999991416931152e+00,2.000000000000000000e+00,1.225430679321289062e+01,4.690735340118408203e-01,3.383577346801757812e+01,-1.217367019653320312e+02,9.080165863037109375e+01,-7.097834777832031250e+01,3.573667526245117188e+01,-1.157675170898437500e+01,-1.106584701538085938e+02,-1.264600830078125000e+02,6.293771362304687500e+01,-4.384862136840820312e+01
1.088000059127807617e+00,2.000000000000000000e+00,1.228266525268554688e+01,4.231131672859191895e-01,3.382872772216796875e+01,-1.217905960083007812e+02,9.080366516113281250e+01,-7.100209045410156250e+01,3.566612625122070312e+01,-1.157048416137695312e+01,-1.106685485839843750e+02,-1.265174789428710938e+02,6.293378829956054688e+01,-4.387607955932617188e+01
1.090999960899353027e+00,2.000000000000000000e+00,1.231102180480957031e+01,3.771544694900512695e-01,3.382167816162109375e+01,-1.218444671630859375e+02,9.080567169189453125e+01,-7.102583312988281250e+01,3.559557342529296875e+01,-1.156421756744384766e+01,-1.106786117553710938e+02,-1.265748672485351562e+02,6.292985916137695312e+01,-4.390353393554687500e+01
1.095999956130981445e+00,2.000000000000000000e+00,1.233937740325927734e+01,3.311974108219146729e-01,3.381463241577148438e+01,-1.218983459472656250e+02,9.080767822265625000e+01,-7.104957580566406250e+01,3.552502441406250000e+01,-1.155795192718505859e+01,-1.106886825561523438e+02,-1.266322555541992188e+02,6.292593383789062500e+01,-4.393098831176757812e+01
1.100000023841857910e+00,2.000000000000000000e+00,1.236773204803466797e+01,2.852420508861541748e-01,3.380758285522460938e+01,-1.219522247314453125e+02,9.080969238281250000e+01,-7.107331848144531250e+01,3.545447921752929688e+01,-1.155168437957763672e+01,-1.106987457275390625e+02,-1.266896286010742188e+02,6.292200469970703125e+01,-4.395844268798828125e+01
1.103999972343444824e+00,2.000000000000000000e+00,1.239608573913574219e+01,2.392883449792861938e-01,3.380053329467773438e+01,-1.220060958862304688e+02,9.081170654296875000e+01,-7.109706115722656250e+01,3.538393402099609375e+01,-1.154541873931884766e+01,-1.107088241577148438e+02,-1.267470169067382812e+02,6.291807937622070312e+01,-4.398589324951171875e+01
1.108000040054321289e+00,2.000000000000000000e+00,1.242443752288818359e+01,1.933362632989883423e-01,3.379348754882812500e+01,-1.220599746704101562e+02,9.081371307373046875e+01,-7.112079620361328125e+01,3.531339263916015625e+01,-1.153915309906005859e+01,-1.107188873291015625e+02,-1.268043899536132812e+02,6.291415023803710938e+01,-4.401334381103515625e+01
1.111999988555908203e+00,2.000000000000000000e+00,1.245279026031494141e+01,1.473858207464218140e-01,3.378643798828125000e+01,-1.221138381958007812e+02,9.081571960449218750e+01,-7.114453887939453125e+01,3.524285507202148438e+01,-1.153288745880126953e+01,-1.107289581298828125e+02,-1.268617782592773438e+02,6.291022872924804688e+01,-4.404079437255859375e+01
