rpiRobotics/ARM-21-02-F-19-Robot-Motion-Program/data_performance_abb/curve_2/dual_arm/diffevo_pose6/grad_result/sim/dual_iteration_4.csv
timestamp,cmd_num,J1,J2,J3,J4,J5,J6,J1_2,J2_2,J3_2,J4_2,J5_2,J6_2
0.000000000000000000e+00,-1.000000000000000000e+00,5.525461673736572266e+00,1.169633960723876953e+01,3.523125839233398438e+01,-1.086063079833984375e+02,9.035853576660156250e+01,-6.526844024658203125e+01,5.296300506591796875e+01,-1.386834907531738281e+01,-1.067692794799804688e+02,-1.134176330566406250e+02,6.396965408325195312e+01,-3.650029754638671875e+01
2.000000094994902611e-03,-1.000000000000000000e+00,5.525461673736572266e+00,1.169633960723876953e+01,3.523125839233398438e+01,-1.086063079833984375e+02,9.035853576660156250e+01,-6.526844024658203125e+01,5.296300506591796875e+01,-1.386834907531738281e+01,-1.067692794799804688e+02,-1.134176330566406250e+02,6.396965408325195312e+01,-3.650029754638671875e+01
4.000000189989805222e-03,-1.000000000000000000e+00,5.525461673736572266e+00,1.169633960723876953e+01,3.523125839233398438e+01,-1.086063079833984375e+02,9.035853576660156250e+01,-6.526844024658203125e+01,5.296300506591796875e+01,-1.386834907531738281e+01,-1.067692794799804688e+02,-1.134176330566406250e+02,6.396965408325195312e+01,-3.650029754638671875e+01
9.999999776482582092e-03,-1.000000000000000000e+00,5.525461673736572266e+00,1.169633960723876953e+01,3.523125839233398438e+01,-1.086063079833984375e+02,9.035853576660156250e+01,-6.526844024658203125e+01,5.296300506591796875e+01,-1.386834907531738281e+01,-1.067692794799804688e+02,-1.134176330566406250e+02,6.396965408325195312e+01,-3.650029754638671875e+01
1.200000010430812836e-02,-1.000000000000000000e+00,5.525461673736572266e+00,1.169633960723876953e+01,3.523125839233398438e+01,-1.086063079833984375e+02,9.035853576660156250e+01,-6.526844024658203125e+01,5.296300506591796875e+01,-1.386834907531738281e+01,-1.067692794799804688e+02,-1.134176330566406250e+02,6.396965408325195312e+01,-3.650029754638671875e+01
1.600000075995922089e-02,-1.000000000000000000e+00,5.525461673736572266e+00,1.169633960723876953e+01,3.523125839233398438e+01,-1.086063079833984375e+02,9.035853576660156250e+01,-6.526844024658203125e+01,5.296300506591796875e+01,-1.386834907531738281e+01,-1.067692794799804688e+02,-1.134176330566406250e+02,6.396965408325195312e+01,-3.650029754638671875e+01
1.999999955296516418e-02,-1.000000000000000000e+00,5.525461673736572266e+00,1.169633960723876953e+01,3.523125839233398438e+01,-1.086063079833984375e+02,9.035853576660156250e+01,-6.526844024658203125e+01,5.296300506591796875e+01,-1.386834907531738281e+01,-1.067692794799804688e+02,-1.134176330566406250e+02,6.396965408325195312e+01,-3.650029754638671875e+01
2.400000020861625671e-02,-1.000000000000000000e+00,5.525461673736572266e+00,1.169633960723876953e+01,3.523125839233398438e+01,-1.086063079833984375e+02,9.035853576660156250e+01,-6.526844024658203125e+01,5.296300506591796875e+01,-1.386834907531738281e+01,-1.067692794799804688e+02,-1.134176330566406250e+02,6.396965408325195312e+01,-3.650029754638671875e+01
2.800000086426734924e-02,-1.000000000000000000e+00,5.525461673736572266e+00,1.169633960723876953e+01,3.523125839233398438e+01,-1.086063079833984375e+02,9.035853576660156250e+01,-6.526844024658203125e+01,5.296300506591796875e+01,-1.386834907531738281e+01,-1.067692794799804688e+02,-1.134176330566406250e+02,6.396965408325195312e+01,-3.650029754638671875e+01
3.200000151991844177e-02,2.000000000000000000e+00,5.525461673736572266e+00,1.169633960723876953e+01,3.523125839233398438e+01,-1.086063079833984375e+02,9.035853576660156250e+01,-6.526844024658203125e+01,5.296300506591796875e+01,-1.386834907531738281e+01,-1.067692794799804688e+02,-1.134176330566406250e+02,6.396965408325195312e+01,-3.650029754638671875e+01
3.700000047683715820e-02,2.000000000000000000e+00,5.525461673736572266e+00,1.169633960723876953e+01,3.523125839233398438e+01,-1.086063079833984375e+02,9.035853576660156250e+01,-6.526844024658203125e+01,5.296300506591796875e+01,-1.386834907531738281e+01,-1.067692794799804688e+02,-1.134176330566406250e+02,6.396965408325195312e+01,-3.650029754638671875e+01
4.300000146031379700e-02,2.000000000000000000e+00,5.525461673736572266e+00,1.169633960723876953e+01,3.523125839233398438e+01,-1.086063079833984375e+02,9.035853576660156250e+01,-6.526844024658203125e+01,5.296300506591796875e+01,-1.386834907531738281e+01,-1.067692794799804688e+02,-1.134176330566406250e+02,6.396965408325195312e+01,-3.650029754638671875e+01
4.399999976158142090e-02,2.000000000000000000e+00,5.525461673736572266e+00,1.169633960723876953e+01,3.523125839233398438e+01,-1.086063079833984375e+02,9.035853576660156250e+01,-6.526844024658203125e+01,5.296300506591796875e+01,-1.386834907531738281e+01,-1.067692794799804688e+02,-1.134176330566406250e+02,6.396965408325195312e+01,-3.650029754638671875e+01
5.000000074505805969e-02,2.000000000000000000e+00,5.525461673736572266e+00,1.169633960723876953e+01,3.523125839233398438e+01,-1.086063079833984375e+02,9.035853576660156250e+01,-6.526844024658203125e+01,5.296300506591796875e+01,-1.386834907531738281e+01,-1.067692794799804688e+02,-1.134176330566406250e+02,6.396965408325195312e+01,-3.650029754638671875e+01
5.200000107288360596e-02,2.000000000000000000e+00,5.525461673736572266e+00,1.169633960723876953e+01,3.523125839233398438e+01,-1.086063079833984375e+02,9.035853576660156250e+01,-6.526844024658203125e+01,5.296300506591796875e+01,-1.386834907531738281e+01,-1.067692794799804688e+02,-1.134176330566406250e+02,6.396965408325195312e+01,-3.650029754638671875e+01
5.600000172853469849e-02,2.000000000000000000e+00,5.525461673736572266e+00,1.169633960723876953e+01,3.523125839233398438e+01,-1.086063079833984375e+02,9.035853576660156250e+01,-6.526844024658203125e+01,5.296300506591796875e+01,-1.386834907531738281e+01,-1.067692794799804688e+02,-1.134176330566406250e+02,6.396965408325195312e+01,-3.650029754638671875e+01
5.999999865889549255e-02,2.000000000000000000e+00,5.525461673736572266e+00,1.169633960723876953e+01,3.523125839233398438e+01,-1.086063079833984375e+02,9.035853576660156250e+01,-6.526844024658203125e+01,5.296300506591796875e+01,-1.386834907531738281e+01,-1.067692794799804688e+02,-1.134176330566406250e+02,6.396965408325195312e+01,-3.650029754638671875e+01
6.400000303983688354e-02,2.000000000000000000e+00,5.525461673736572266e+00,1.169633960723876953e+01,3.523125839233398438e+01,-1.086063079833984375e+02,9.035853576660156250e+01,-6.526844024658203125e+01,5.296300506591796875e+01,-1.386834907531738281e+01,-1.067692794799804688e+02,-1.134176330566406250e+02,6.396965408325195312e+01,-3.650029754638671875e+01
6.800000369548797607e-02,2.000000000000000000e+00,5.525461673736572266e+00,1.169633960723876953e+01,3.523125839233398438e+01,-1.086063079833984375e+02,9.035853576660156250e+01,-6.526844024658203125e+01,5.296300506591796875e+01,-1.386834907531738281e+01,-1.067692794799804688e+02,-1.134176330566406250e+02,6.396965408325195312e+01,-3.650029754638671875e+01
7.199999690055847168e-02,2.000000000000000000e+00,5.525461673736572266e+00,1.169633960723876953e+01,3.523125839233398438e+01,-1.086063079833984375e+02,9.035853576660156250e+01,-6.526844024658203125e+01,5.296300506591796875e+01,-1.386834907531738281e+01,-1.067692794799804688e+02,-1.134176330566406250e+02,6.396965408325195312e+01,-3.650029754638671875e+01
7.599999755620956421e-02,2.000000000000000000e+00,5.525492668151855469e+00,1.169631576538085938e+01,3.523125839233398438e+01,-1.086063079833984375e+02,9.035853576660156250e+01,-6.526844024658203125e+01,5.296300506591796875e+01,-1.386834907531738281e+01,-1.067692794799804688e+02,-1.134176330566406250e+02,6.396965408325195312e+01,-3.650029754638671875e+01
7.999999821186065674e-02,2.000000000000000000e+00,5.525676250457763672e+00,1.169616889953613281e+01,3.523125839233398438e+01,-1.086063156127929688e+02,9.035853576660156250e+01,-6.526844024658203125e+01,5.296300506591796875e+01,-1.386834907531738281e+01,-1.067692794799804688e+02,-1.134176330566406250e+02,6.396965408325195312e+01,-3.650029754638671875e+01
8.399999886751174927e-02,2.000000000000000000e+00,5.526216983795166016e+00,1.169571685791015625e+01,3.523126602172851562e+01,-1.086063461303710938e+02,9.035855102539062500e+01,-6.526844787597656250e+01,5.296300506591796875e+01,-1.386834907531738281e+01,-1.067692794799804688e+02,-1.134176330566406250e+02,6.396965408325195312e+01,-3.650029754638671875e+01
8.799999952316284180e-02,2.000000000000000000e+00,5.527298927307128906e+00,1.169474887847900391e+01,3.523128128051757812e+01,-1.086064529418945312e+02,9.035858917236328125e+01,-6.526848602294921875e+01,5.296297454833984375e+01,-1.386835289001464844e+01,-1.067692718505859375e+02,-1.134176330566406250e+02,6.396965408325195312e+01,-3.650029754638671875e+01
9.200000017881393433e-02,2.000000000000000000e+00,5.529010295867919922e+00,1.169310092926025391e+01,3.523129272460937500e+01,-1.086066970825195312e+02,9.035865783691406250e+01,-6.526856994628906250e+01,5.296276092529296875e+01,-1.386837100982666016e+01,-1.067692260742187500e+02,-1.134176483154296875e+02,6.396965408325195312e+01,-3.650030517578125000e+01
9.600000083446502686e-02,2.000000000000000000e+00,5.531372547149658203e+00,1.169064903259277344e+01,3.523129272460937500e+01,-1.086071853637695312e+02,9.035874938964843750e+01,-6.526875305175781250e+01,5.296206283569335938e+01,-1.386842632293701172e+01,-1.067690963745117188e+02,-1.134177093505859375e+02,6.396963882446289062e+01,-3.650032806396484375e+01
1.000000014901161194e-01,2.000000000000000000e+00,5.534408569335937500e+00,1.168726253509521484e+01,3.523125457763671875e+01,-1.086080856323242188e+02,9.035887908935546875e+01,-6.526911926269531250e+01,5.296048355102539062e+01,-1.386853885650634766e+01,-1.067688140869140625e+02,-1.134178924560546875e+02,6.396960449218750000e+01,-3.650040817260742188e+01
1.040000021457672119e-01,2.000000000000000000e+00,5.538141727447509766e+00,1.168278217315673828e+01,3.523116302490234375e+01,-1.086095809936523438e+02,9.035906219482421875e+01,-6.526972961425781250e+01,5.295764541625976562e+01,-1.386870861053466797e+01,-1.067683792114257812e+02,-1.134183502197265625e+02,6.396954345703125000e+01,-3.650061798095703125e+01
1.080000028014183044e-01,2.000000000000000000e+00,5.542593955993652344e+00,1.167702293395996094e+01,3.523097991943359375e+01,-1.086119155883789062e+02,9.035928344726562500e+01,-6.527070617675781250e+01,5.295319747924804688e+01,-1.386891269683837891e+01,-1.067678146362304688e+02,-1.134193115234375000e+02,6.396942901611328125e+01,-3.650107192993164062e+01
1.120000034570693970e-01,2.000000000000000000e+00,5.547843933105468750e+00,1.166976451873779297e+01,3.523067092895507812e+01,-1.086153869628906250e+02,9.035958099365234375e+01,-6.527217102050781250e+01,5.294675827026367188e+01,-1.386910629272460938e+01,-1.067672042846679688e+02,-1.134210739135742188e+02,6.396924209594726562e+01,-3.650192642211914062e+01
1.159999966621398926e-01,2.000000000000000000e+00,5.554058551788330078e+00,1.166074180603027344e+01,3.523020172119140625e+01,-1.086203002929687500e+02,9.035994720458984375e+01,-6.527426910400390625e+01,5.293797302246093750e+01,-1.386922264099121094e+01,-1.067666549682617188e+02,-1.134240722656250000e+02,6.396896362304687500e+01,-3.650339889526367188e+01
1.199999973177909851e-01,2.000000000000000000e+00,5.561466217041015625e+00,1.164964580535888672e+01,3.522952651977539062e+01,-1.086270294189453125e+02,9.036039733886718750e+01,-6.527716064453125000e+01,5.292654418945312500e+01,-1.386916923522949219e+01,-1.067663497924804688e+02,-1.134287414550781250e+02,6.396855545043945312e+01,-3.650572204589843750e+01
1.239999979734420776e-01,2.000000000000000000e+00,5.570235729217529297e+00,1.163623523712158203e+01,3.522858428955078125e+01,-1.086359863281250000e+02,9.036095428466796875e+01,-6.528100585937500000e+01,5.291215896606445312e+01,-1.386884403228759766e+01,-1.067664642333984375e+02,-1.134356002807617188e+02,6.396797943115234375e+01,-3.650916290283203125e+01
1.280000060796737671e-01,2.000000000000000000e+00,5.580344200134277344e+00,1.162052822113037109e+01,3.522731781005859375e+01,-1.086475677490234375e+02,9.036161041259765625e+01,-6.528602600097656250e+01,5.289435195922851562e+01,-1.386815452575683594e+01,-1.067671737670898438e+02,-1.134451828002929688e+02,6.396722030639648438e+01,-3.651398468017578125e+01
1.309999972581863403e-01,2.000000000000000000e+00,5.591584205627441406e+00,1.160281944274902344e+01,3.522565841674804688e+01,-1.086621932983398438e+02,9.036235046386718750e+01,-6.529238128662109375e+01,5.287253952026367188e+01,-1.386702632904052734e+01,-1.067685928344726562e+02,-1.134580078125000000e+02,6.396622467041015625e+01,-3.652046203613281250e+01
1.360000073909759521e-01,2.000000000000000000e+00,5.603733062744140625e+00,1.158343982696533203e+01,3.522354888916015625e+01,-1.086802215576171875e+02,9.036317443847656250e+01,-6.530025482177734375e+01,5.284616851806640625e+01,-1.386538124084472656e+01,-1.067708740234375000e+02,-1.134746017456054688e+02,6.396496200561523438e+01,-3.652885818481445312e+01
1.389999985694885254e-01,2.000000000000000000e+00,5.616707324981689453e+00,1.156251811981201172e+01,3.522093582153320312e+01,-1.087019424438476562e+02,9.036407470703125000e+01,-6.530977630615234375e+01,5.281502151489257812e+01,-1.386311626434326172e+01,-1.067742004394531250e+02,-1.134954223632812500e+02,6.396340560913085938e+01,-3.653941726684570312e+01
1.439999938011169434e-01,2.000000000000000000e+00,5.630544185638427734e+00,1.154000473022460938e+01,3.521779632568359375e+01,-1.087275314331054688e+02,9.036505889892578125e+01,-6.532102966308593750e+01,5.277931594848632812e+01,-1.386010742187500000e+01,-1.067788314819335938e+02,-1.135208892822265625e+02,6.396152496337890625e+01,-3.655235671997070312e+01
1.480000019073486328e-01,2.000000000000000000e+00,5.645317077636718750e+00,1.151580047607421875e+01,3.521413040161132812e+01,-1.087570343017578125e+02,9.036611938476562500e+01,-6.533401489257812500e+01,5.273947906494140625e+01,-1.385624217987060547e+01,-1.067849960327148438e+02,-1.135512542724609375e+02,6.395933151245117188e+01,-3.656781387329101562e+01
1.519999951124191284e-01,2.000000000000000000e+00,5.661134243011474609e+00,1.148974990844726562e+01,3.520994186401367188e+01,-1.087903900146484375e+02,9.036727905273437500e+01,-6.534872436523437500e+01,5.269588851928710938e+01,-1.385146522521972656e+01,-1.067928237915039062e+02,-1.135865859985351562e+02,6.395681381225585938e+01,-3.658582305908203125e+01
1.560000032186508179e-01,2.000000000000000000e+00,5.678131103515625000e+00,1.146164512634277344e+01,3.520527267456054688e+01,-1.088274459838867188e+02,9.036853027343750000e+01,-6.536506652832031250e+01,5.264890289306640625e+01,-1.384578609466552734e+01,-1.068023223876953125e+02,-1.136267242431640625e+02,6.395398712158203125e+01,-3.660631179809570312e+01
1.599999964237213135e-01,2.000000000000000000e+00,5.696380615234375000e+00,1.143136405944824219e+01,3.520014953613281250e+01,-1.088679428100585938e+02,9.036988067626953125e+01,-6.538294219970703125e+01,5.259886550903320312e+01,-1.383927631378173828e+01,-1.068133621215820312e+02,-1.136712570190429688e+02,6.395087051391601562e+01,-3.662906646728515625e+01
1.640000045299530029e-01,2.000000000000000000e+00,5.715813636779785156e+00,1.139898872375488281e+01,3.519462585449218750e+01,-1.089115753173828125e+02,9.037133026123046875e+01,-6.540220642089843750e+01,5.254584884643554688e+01,-1.383208942413330078e+01,-1.068256530761718750e+02,-1.137195892333984375e+02,6.394750213623046875e+01,-3.665377044677734375e+01
1.679999977350234985e-01,2.000000000000000000e+00,5.736216068267822266e+00,1.136478137969970703e+01,3.518874359130859375e+01,-1.089579620361328125e+02,9.037285614013671875e+01,-6.542269134521484375e+01,5.248954010009765625e+01,-1.382445430755615234e+01,-1.068387298583984375e+02,-1.137709579467773438e+02,6.394393157958984375e+01,-3.668002700805664062e+01
1.720000058412551880e-01,2.000000000000000000e+00,5.757348537445068359e+00,1.132900714874267578e+01,3.518255233764648438e+01,-1.090067291259765625e+02,9.037445831298828125e+01,-6.544421386718750000e+01,5.242960739135742188e+01,-1.381660842895507812e+01,-1.068521118164062500e+02,-1.138245849609375000e+02,6.394018173217773438e+01,-3.670742416381835938e+01
1.759999990463256836e-01,2.000000000000000000e+00,5.779134750366210938e+00,1.129174518585205078e+01,3.517612075805664062e+01,-1.090574340820312500e+02,9.037612152099609375e+01,-6.546659851074218750e+01,5.236614227294921875e+01,-1.380872917175292969e+01,-1.068654403686523438e+02,-1.138797454833984375e+02,6.393630218505859375e+01,-3.673558425903320312e+01
1.800000071525573730e-01,2.000000000000000000e+00,5.801724910736083984e+00,1.125288486480712891e+01,3.516950988769531250e+01,-1.091096496582031250e+02,9.037785339355468750e+01,-6.548964691162109375e+01,5.229964447021484375e+01,-1.380091857910156250e+01,-1.068785324096679688e+02,-1.139358444213867188e+02,6.393232727050781250e+01,-3.676420593261718750e+01
1.840000003576278687e-01,2.000000000000000000e+00,5.825346946716308594e+00,1.121230220794677734e+01,3.516277694702148438e+01,-1.091629791259765625e+02,9.037965393066406250e+01,-6.551316833496093750e+01,5.223072052001953125e+01,-1.379322338104248047e+01,-1.068913192749023438e+02,-1.139924468994140625e+02,6.392829513549804688e+01,-3.679306793212890625e+01
1.879999935626983643e-01,2.000000000000000000e+00,5.850106239318847656e+00,1.117003536224365234e+01,3.515598297119140625e+01,-1.092170639038085938e+02,9.038152313232421875e+01,-6.553701019287109375e+01,5.216001129150390625e+01,-1.378564739227294922e+01,-1.069038009643554688e+02,-1.140492858886718750e+02,6.392422485351562500e+01,-3.682203674316406250e+01
1.920000016689300537e-01,2.000000000000000000e+00,5.875985622406005859e+00,1.112625789642333984e+01,3.514915466308593750e+01,-1.092716064453125000e+02,9.038345336914062500e+01,-6.556104278564453125e+01,5.208822631835937500e+01,-1.377816009521484375e+01,-1.069160690307617188e+02,-1.141062164306640625e+02,6.392013549804687500e+01,-3.685103607177734375e+01
1.959999948740005493e-01,2.000000000000000000e+00,5.902933120727539062e+00,1.108119964599609375e+01,3.514232635498046875e+01,-1.093264160156250000e+02,9.038542938232421875e+01,-6.558517456054687500e+01,5.201598358154296875e+01,-1.377071380615234375e+01,-1.069282379150390625e+02,-1.141631546020507812e+02,6.391604232788085938e+01,-3.688003921508789062e+01
2.000000029802322388e-01,2.000000000000000000e+00,5.930791854858398438e+00,1.103517532348632812e+01,3.513550567626953125e+01,-1.093813400268554688e+02,9.038744354248046875e+01,-6.560934448242187500e+01,5.194363784790039062e+01,-1.376327991485595703e+01,-1.069403762817382812e+02,-1.142201004028320312e+02,6.391194534301757812e+01,-3.690904617309570312e+01
2.039999961853027344e-01,2.000000000000000000e+00,5.959256172180175781e+00,1.098857879638671875e+01,3.512869644165039062e+01,-1.094363098144531250e+02,9.038948059082031250e+01,-6.563352203369140625e+01,5.187129592895507812e+01,-1.375584697723388672e+01,-1.069525146484375000e+02,-1.142770385742187500e+02,6.390785598754882812e+01,-3.693804550170898438e+01
2.080000042915344238e-01,2.000000000000000000e+00,5.987986087799072266e+00,1.094175624847412109e+01,3.512188720703125000e+01,-1.094912948608398438e+02,9.039152526855468750e+01,-6.565770721435546875e+01,5.179896163940429688e+01,-1.374841403961181641e+01,-1.069646530151367188e+02,-1.143339614868164062e+02,6.390375518798828125e+01,-3.696704483032226562e+01
2.119999974966049194e-01,2.000000000000000000e+00,6.016773700714111328e+00,1.089489078521728516e+01,3.511508178710937500e+01,-1.095462722778320312e+02,9.039356994628906250e+01,-6.568188476562500000e+01,5.172663497924804688e+01,-1.374098300933837891e+01,-1.069767837524414062e+02,-1.143908843994140625e+02,6.389966583251953125e+01,-3.699603652954101562e+01
2.160000056028366089e-01,2.000000000000000000e+00,6.045560836791992188e+00,1.084802627563476562e+01,3.510827636718750000e+01,-1.096012420654296875e+02,9.039562225341796875e+01,-6.570606231689453125e+01,5.165431594848632812e+01,-1.373355293273925781e+01,-1.069889144897460938e+02,-1.144477996826171875e+02,6.389557266235351562e+01,-3.702502822875976562e+01
2.199999988079071045e-01,2.000000000000000000e+00,6.074346065521240234e+00,1.080116939544677734e+01,3.510147476196289062e+01,-1.096562042236328125e+02,9.039767456054687500e+01,-6.573024749755859375e+01,5.158200454711914062e+01,-1.372612380981445312e+01,-1.070010452270507812e+02,-1.145047149658203125e+02,6.389147567749023438e+01,-3.705401229858398438e+01
2.240000069141387939e-01,2.000000000000000000e+00,6.103127002716064453e+00,1.075431537628173828e+01,3.509466934204101562e+01,-1.097111663818359375e+02,9.039971160888671875e+01,-6.575441741943359375e+01,5.150970458984375000e+01,-1.371869468688964844e+01,-1.070131759643554688e+02,-1.145616149902343750e+02,6.388738250732421875e+01,-3.708299636840820312e+01
2.280000001192092896e-01,2.000000000000000000e+00,6.131905078887939453e+00,1.070746707916259766e+01,3.508786773681640625e+01,-1.097661132812500000e+02,9.040176391601562500e+01,-6.577858734130859375e+01,5.143741226196289062e+01,-1.371126651763916016e+01,-1.070253067016601562e+02,-1.146185150146484375e+02,6.388329315185546875e+01,-3.711197662353515625e+01
2.319999933242797852e-01,2.000000000000000000e+00,6.160680294036865234e+00,1.066062450408935547e+01,3.508106613159179688e+01,-1.098210601806640625e+02,9.040380859375000000e+01,-6.580275726318359375e+01,5.136512756347656250e+01,-1.370384025573730469e+01,-1.070374374389648438e+02,-1.146753921508789062e+02,6.387919998168945312e+01,-3.714095306396484375e+01
2.360000014305114746e-01,2.000000000000000000e+00,6.189452648162841797e+00,1.061378574371337891e+01,3.507426452636718750e+01,-1.098759994506835938e+02,9.040585327148437500e+01,-6.582691955566406250e+01,5.129285049438476562e+01,-1.369641399383544922e+01,-1.070495605468750000e+02,-1.147322921752929688e+02,6.387511062622070312e+01,-3.716992568969726562e+01
2.399999946355819702e-01,2.000000000000000000e+00,6.218221187591552734e+00,1.056695270538330078e+01,3.506746673583984375e+01,-1.099309310913085938e+02,9.040790557861328125e+01,-6.585108184814453125e+01,5.122058486938476562e+01,-1.368898868560791016e+01,-1.070616836547851562e+02,-1.147891540527343750e+02,6.387101745605468750e+01,-3.719889831542968750e+01
2.440000027418136597e-01,2.000000000000000000e+00,6.246986865997314453e+00,1.052012348175048828e+01,3.506066513061523438e+01,-1.099858627319335938e+02,9.040994262695312500e+01,-6.587524414062500000e+01,5.114831924438476562e+01,-1.368156528472900391e+01,-1.070738067626953125e+02,-1.148460235595703125e+02,6.386692810058593750e+01,-3.722786331176757812e+01
2.479999959468841553e-01,2.000000000000000000e+00,6.275749206542968750e+00,1.047329998016357422e+01,3.505387115478515625e+01,-1.100407791137695312e+02,9.041199493408203125e+01,-6.589939880371093750e+01,5.107606506347656250e+01,-1.367414093017578125e+01,-1.070859375000000000e+02,-1.149028930664062500e+02,6.386284255981445312e+01,-3.725683212280273438e+01
2.520000040531158447e-01,2.000000000000000000e+00,6.304508209228515625e+00,1.042648315429687500e+01,3.504706954956054688e+01,-1.100956954956054688e+02,9.041403961181640625e+01,-6.592355346679687500e+01,5.100382232666015625e+01,-1.366671752929687500e+01,-1.070980529785156250e+02,-1.149597473144531250e+02,6.385875320434570312e+01,-3.728578948974609375e+01
2.560000121593475342e-01,2.000000000000000000e+00,6.333264350891113281e+00,1.037966918945312500e+01,3.504027557373046875e+01,-1.101506042480468750e+02,9.041607666015625000e+01,-6.594770050048828125e+01,5.093158340454101562e+01,-1.365929603576660156e+01,-1.071101760864257812e+02,-1.150166015625000000e+02,6.385466003417968750e+01,-3.731474685668945312e+01
2.599999904632568359e-01,2.000000000000000000e+00,6.362017154693603516e+00,1.033286094665527344e+01,3.503347778320312500e+01,-1.102055053710937500e+02,9.041812896728515625e+01,-6.597185516357421875e+01,5.085935592651367188e+01,-1.365187454223632812e+01,-1.071222915649414062e+02,-1.150734558105468750e+02,6.385057449340820312e+01,-3.734370422363281250e+01
2.639999985694885254e-01,2.000000000000000000e+00,6.390767097473144531e+00,1.028605937957763672e+01,3.502668380737304688e+01,-1.102604064941406250e+02,9.042016601562500000e+01,-6.599600219726562500e+01,5.078713607788085938e+01,-1.364445495605468750e+01,-1.071344070434570312e+02,-1.151302947998046875e+02,6.384648513793945312e+01,-3.737265396118164062e+01
2.680000066757202148e-01,2.000000000000000000e+00,6.419513702392578125e+00,1.023926162719726562e+01,3.501988983154296875e+01,-1.103152923583984375e+02,9.042221069335937500e+01,-6.602014160156250000e+01,5.071492004394531250e+01,-1.363703441619873047e+01,-1.071465225219726562e+02,-1.151871261596679688e+02,6.384239959716796875e+01,-3.740160369873046875e+01
2.720000147819519043e-01,2.000000000000000000e+00,6.448257446289062500e+00,1.019246864318847656e+01,3.501309585571289062e+01,-1.103701858520507812e+02,9.042426300048828125e+01,-6.604428100585937500e+01,5.064271545410156250e+01,-1.362961578369140625e+01,-1.071586380004882812e+02,-1.152439498901367188e+02,6.383831787109375000e+01,-3.743054962158203125e+01
2.759999930858612061e-01,2.000000000000000000e+00,6.476997375488281250e+00,1.014568138122558594e+01,3.500630187988281250e+01,-1.104250640869140625e+02,9.042630004882812500e+01,-6.606842041015625000e+01,5.057051467895507812e+01,-1.362219810485839844e+01,-1.071707534790039062e+02,-1.153007812500000000e+02,6.383422470092773438e+01,-3.745949172973632812e+01
2.800000011920928955e-01,2.000000000000000000e+00,6.505735397338867188e+00,1.009889793395996094e+01,3.499951171875000000e+01,-1.104799346923828125e+02,9.042834472656250000e+01,-6.609255981445312500e+01,5.049832534790039062e+01,-1.361478137969970703e+01,-1.071828613281250000e+02,-1.153575897216796875e+02,6.383013916015625000e+01,-3.748843002319335938e+01
2.840000092983245850e-01,2.000000000000000000e+00,6.534469604492187500e+00,1.005212020874023438e+01,3.499271774291992188e+01,-1.105348052978515625e+02,9.043038940429687500e+01,-6.611669921875000000e+01,5.042614364624023438e+01,-1.360736465454101562e+01,-1.071949691772460938e+02,-1.154144058227539062e+02,6.382605743408203125e+01,-3.751736450195312500e+01
2.879999876022338867e-01,2.000000000000000000e+00,6.563200473785400391e+00,1.000534725189208984e+01,3.498592758178710938e+01,-1.105896606445312500e+02,9.043242645263671875e+01,-6.614083099365234375e+01,5.035396957397460938e+01,-1.359994792938232422e+01,-1.072070770263671875e+02,-1.154712066650390625e+02,6.382197189331054688e+01,-3.754629898071289062e+01
2.919999957084655762e-01,2.000000000000000000e+00,6.591928958892822266e+00,9.958579063415527344e+00,3.497913742065429688e+01,-1.106445236206054688e+02,9.043447875976562500e+01,-6.616495513916015625e+01,5.028179931640625000e+01,-1.359253311157226562e+01,-1.072191925048828125e+02,-1.155280075073242188e+02,6.381788635253906250e+01,-3.757522964477539062e+01
2.960000038146972656e-01,2.000000000000000000e+00,6.620654106140136719e+00,9.911815643310546875e+00,3.497234725952148438e+01,-1.106993789672851562e+02,9.043652343750000000e+01,-6.618907928466796875e+01,5.020964050292968750e+01,-1.358511924743652344e+01,-1.072313003540039062e+02,-1.155847930908203125e+02,6.381380081176757812e+01,-3.760415649414062500e+01
3.000000119209289551e-01,2.000000000000000000e+00,6.649376392364501953e+00,9.865057945251464844e+00,3.496556091308593750e+01,-1.107542190551757812e+02,9.043856048583984375e+01,-6.621320343017578125e+01,5.013748550415039062e+01,-1.357770633697509766e+01,-1.072434005737304688e+02,-1.156415786743164062e+02,6.380971908569335938e+01,-3.763308334350585938e+01
3.039999902248382568e-01,2.000000000000000000e+00,6.678095340728759766e+00,9.818304061889648438e+00,3.495877456665039062e+01,-1.108090591430664062e+02,9.044060516357421875e+01,-6.623732757568359375e+01,5.006534194946289062e+01,-1.357029342651367188e+01,-1.072555084228515625e+02,-1.156983642578125000e+02,6.380563354492187500e+01,-3.766200256347656250e+01
3.079999983310699463e-01,2.000000000000000000e+00,6.706811904907226562e+00,9.771555900573730469e+00,3.495198440551757812e+01,-1.108638992309570312e+02,9.044264984130859375e+01,-6.626144409179687500e+01,4.999320220947265625e+01,-1.356288146972656250e+01,-1.072676086425781250e+02,-1.157551345825195312e+02,6.380154800415039062e+01,-3.769092178344726562e+01
3.120000064373016357e-01,2.000000000000000000e+00,6.735525131225585938e+00,9.724812507629394531e+00,3.494519805908203125e+01,-1.109187240600585938e+02,9.044468688964843750e+01,-6.628556060791015625e+01,4.992107009887695312e+01,-1.355547046661376953e+01,-1.072797164916992188e+02,-1.158119125366210938e+02,6.379746627807617188e+01,-3.771983718872070312e+01
3.160000145435333252e-01,2.000000000000000000e+00,6.764235019683837891e+00,9.678072929382324219e+00,3.493841171264648438e+01,-1.109735412597656250e+02,9.044673156738281250e+01,-6.630966949462890625e+01,4.984894943237304688e+01,-1.354806041717529297e+01,-1.072918167114257812e+02,-1.158686676025390625e+02,6.379338836669921875e+01,-3.774874877929687500e+01
3.199999928474426270e-01,2.000000000000000000e+00,6.792943000793457031e+00,9.631339073181152344e+00,3.493162536621093750e+01,-1.110283584594726562e+02,9.044876861572265625e+01,-6.633377838134765625e+01,4.977683639526367188e+01,-1.354065036773681641e+01,-1.073039093017578125e+02,-1.159254302978515625e+02,6.378930282592773438e+01,-3.777765655517578125e+01
3.240000009536743164e-01,2.000000000000000000e+00,6.821647167205810547e+00,9.584609031677246094e+00,3.492484283447265625e+01,-1.110831756591796875e+02,9.045081329345703125e+01,-6.635788726806640625e+01,4.970472335815429688e+01,-1.353324127197265625e+01,-1.073160095214843750e+02,-1.159821701049804688e+02,6.378521728515625000e+01,-3.780656433105468750e+01
3.280000090599060059e-01,2.000000000000000000e+00,6.850348949432373047e+00,9.537884712219238281e+00,3.491806030273437500e+01,-1.111379776000976562e+02,9.045285034179687500e+01,-6.638199615478515625e+01,4.963262557983398438e+01,-1.352583312988281250e+01,-1.073281021118164062e+02,-1.160389175415039062e+02,6.378113937377929688e+01,-3.783546447753906250e+01
3.319999873638153076e-01,2.000000000000000000e+00,6.879047393798828125e+00,9.491165161132812500e+00,3.491127777099609375e+01,-1.111927795410156250e+02,9.045489501953125000e+01,-6.640609741210937500e+01,4.956052780151367188e+01,-1.351842594146728516e+01,-1.073402023315429688e+02,-1.160956649780273438e+02,6.377706146240234375e+01,-3.786436462402343750e+01
3.359999954700469971e-01,2.000000000000000000e+00,6.907742977142333984e+00,9.444449424743652344e+00,3.490449523925781250e+01,-1.112475738525390625e+02,9.045693969726562500e+01,-6.643019866943359375e+01,4.948844528198242188e+01,-1.351101970672607422e+01,-1.073522949218750000e+02,-1.161523971557617188e+02,6.377297973632812500e+01,-3.789326477050781250e+01
3.400000035762786865e-01,2.000000000000000000e+00,6.936435699462890625e+00,9.397739410400390625e+00,3.489771270751953125e+01,-1.113023605346679688e+02,9.045896911621093750e+01,-6.645429992675781250e+01,4.941636276245117188e+01,-1.350361347198486328e+01,-1.073643875122070312e+02,-1.162091293334960938e+02,6.376890182495117188e+01,-3.792215728759765625e+01
3.440000116825103760e-01,2.000000000000000000e+00,6.965126037597656250e+00,9.351033210754394531e+00,3.489093399047851562e+01,-1.113571472167968750e+02,9.046101379394531250e+01,-6.647839355468750000e+01,4.934429168701171875e+01,-1.349620914459228516e+01,-1.073764801025390625e+02,-1.162658462524414062e+02,6.376482391357421875e+01,-3.795104980468750000e+01
3.479999899864196777e-01,2.000000000000000000e+00,6.993813037872314453e+00,9.304331779479980469e+00,3.488415145874023438e+01,-1.114119262695312500e+02,9.046305847167968750e+01,-6.650249481201171875e+01,4.927222824096679688e+01,-1.348880386352539062e+01,-1.073885726928710938e+02,-1.163225631713867188e+02,6.376073837280273438e+01,-3.797993850708007812e+01
3.519999980926513672e-01,2.000000000000000000e+00,7.022497177124023438e+00,9.257636070251464844e+00,3.487737274169921875e+01,-1.114666976928710938e+02,9.046509552001953125e+01,-6.652658081054687500e+01,4.920017242431640625e+01,-1.348140144348144531e+01,-1.074006652832031250e+02,-1.163792648315429688e+02,6.375666046142578125e+01,-3.800882339477539062e+01
3.560000061988830566e-01,2.000000000000000000e+00,7.051178932189941406e+00,9.210944175720214844e+00,3.487059020996093750e+01,-1.115214691162109375e+02,9.046713256835937500e+01,-6.655067443847656250e+01,4.912812042236328125e+01,-1.347399806976318359e+01,-1.074127502441406250e+02,-1.164359741210937500e+02,6.375258255004882812e+01,-3.803770828247070312e+01
3.600000143051147461e-01,2.000000000000000000e+00,7.079856872558593750e+00,9.164257049560546875e+00,3.486381149291992188e+01,-1.115762252807617188e+02,9.046917724609375000e+01,-6.657476043701171875e+01,4.905607986450195312e+01,-1.346659564971923828e+01,-1.074248428344726562e+02,-1.164926757812500000e+02,6.374850463867187500e+01,-3.806658935546875000e+01
3.639999926090240479e-01,2.000000000000000000e+00,7.108532905578613281e+00,9.117574691772460938e+00,3.485703659057617188e+01,-1.116309814453125000e+02,9.047121429443359375e+01,-6.659884643554687500e+01,4.898403930664062500e+01,-1.345919418334960938e+01,-1.074369201660156250e+02,-1.165493621826171875e+02,6.374442672729492188e+01,-3.809546661376953125e+01
3.680000007152557373e-01,2.000000000000000000e+00,7.137205600738525391e+00,9.070897102355957031e+00,3.485025787353515625e+01,-1.116857299804687500e+02,9.047325134277343750e+01,-6.662293243408203125e+01,4.891201400756835938e+01,-1.345179367065429688e+01,-1.074490051269531250e+02,-1.166060562133789062e+02,6.374034881591796875e+01,-3.812434005737304688e+01
3.720000088214874268e-01,2.000000000000000000e+00,7.165874958038330078e+00,9.024223327636718750e+00,3.484348297119140625e+01,-1.117404785156250000e+02,9.047528839111328125e+01,-6.664700317382812500e+01,4.883999252319335938e+01,-1.344439315795898438e+01,-1.074610900878906250e+02,-1.166627502441406250e+02,6.373627471923828125e+01,-3.815321350097656250e+01
3.759999871253967285e-01,2.000000000000000000e+00,7.194542407989501953e+00,8.977554321289062500e+00,3.483670806884765625e+01,-1.117952194213867188e+02,9.047733306884765625e+01,-6.667108154296875000e+01,4.876797866821289062e+01,-1.343699455261230469e+01,-1.074731750488281250e+02,-1.167194213867187500e+02,6.373220062255859375e+01,-3.818207931518554688e+01
3.799999952316284180e-01,2.000000000000000000e+00,7.223206996917724609e+00,8.930891036987304688e+00,3.482993316650390625e+01,-1.118499603271484375e+02,9.047937011718750000e+01,-6.669515991210937500e+01,4.869596862792968750e+01,-1.342959594726562500e+01,-1.074852523803710938e+02,-1.167760848999023438e+02,6.372812271118164062e+01,-3.821094512939453125e+01
3.840000033378601074e-01,2.000000000000000000e+00,7.251868724822998047e+00,8.884231567382812500e+00,3.482315826416015625e+01,-1.119046783447265625e+02,9.048140716552734375e+01,-6.671923065185546875e+01,4.862396621704101562e+01,-1.342219829559326172e+01,-1.074973373413085938e+02,-1.168327484130859375e+02,6.372404861450195312e+01,-3.823980712890625000e+01
3.880000114440917969e-01,2.000000000000000000e+00,7.280527591705322266e+00,8.837575912475585938e+00,3.481638336181640625e+01,-1.119594116210937500e+02,9.048344421386718750e+01,-6.674330139160156250e+01,4.855197525024414062e+01,-1.341480159759521484e+01,-1.075094146728515625e+02,-1.168894119262695312e+02,6.371997451782226562e+01,-3.826866912841796875e+01
3.919999897480010986e-01,2.000000000000000000e+00,7.309183597564697266e+00,8.790925979614257812e+00,3.480961227416992188e+01,-1.120141296386718750e+02,9.048548126220703125e+01,-6.676736450195312500e+01,4.847998809814453125e+01,-1.340740489959716797e+01,-1.075214843750000000e+02,-1.169460754394531250e+02,6.371590042114257812e+01,-3.829752731323242188e+01
3.959999978542327881e-01,2.000000000000000000e+00,7.337836265563964844e+00,8.744279861450195312e+00,3.480284118652343750e+01,-1.120688400268554688e+02,9.048751831054687500e+01,-6.679143524169921875e+01,4.840800857543945312e+01,-1.340000915527343750e+01,-1.075335693359375000e+02,-1.170027236938476562e+02,6.371182632446289062e+01,-3.832638168334960938e+01
4.000000059604644775e-01,2.000000000000000000e+00,7.366487026214599609e+00,8.697638511657714844e+00,3.479606628417968750e+01,-1.121235504150390625e+02,9.048955535888671875e+01,-6.681549835205078125e+01,4.833603668212890625e+01,-1.339261436462402344e+01,-1.075456390380859375e+02,-1.170593643188476562e+02,6.370774841308593750e+01,-3.835523223876953125e+01
4.040000140666961670e-01,2.000000000000000000e+00,7.395134925842285156e+00,8.651000976562500000e+00,3.478929519653320312e+01,-1.121782531738281250e+02,9.049159240722656250e+01,-6.683955383300781250e+01,4.826407241821289062e+01,-1.338522052764892578e+01,-1.075577163696289062e+02,-1.171159973144531250e+02,6.370367813110351562e+01,-3.838408279418945312e+01
4.079999923706054688e-01,2.000000000000000000e+00,7.423779487609863281e+00,8.604368209838867188e+00,3.478252792358398438e+01,-1.122329483032226562e+02,9.049363708496093750e+01,-6.686361694335937500e+01,4.819211196899414062e+01,-1.337782764434814453e+01,-1.075697937011718750e+02,-1.171726379394531250e+02,6.369960021972656250e+01,-3.841292572021484375e+01
4.120000004768371582e-01,2.000000000000000000e+00,7.452422142028808594e+00,8.557740211486816406e+00,3.477575302124023438e+01,-1.122876434326171875e+02,9.049567413330078125e+01,-6.688767242431640625e+01,4.812015914916992188e+01,-1.337043476104736328e+01,-1.075818634033203125e+02,-1.172292709350585938e+02,6.369552993774414062e+01,-3.844176864624023438e+01
4.160000085830688477e-01,2.000000000000000000e+00,7.481061935424804688e+00,8.511116981506347656e+00,3.476898574829101562e+01,-1.123423309326171875e+02,9.049770355224609375e+01,-6.691172790527343750e+01,4.804821395874023438e+01,-1.336304283142089844e+01,-1.075939254760742188e+02,-1.172858886718750000e+02,6.369145965576171875e+01,-3.847061157226562500e+01
4.199999868869781494e-01,2.000000000000000000e+00,7.509698390960693359e+00,8.464497566223144531e+00,3.476221847534179688e+01,-1.123970108032226562e+02,9.049974060058593750e+01,-6.693577575683593750e+01,4.797627258300781250e+01,-1.335565090179443359e+01,-1.076060028076171875e+02,-1.173424987792968750e+02,6.368738937377929688e+01,-3.849945068359375000e+01
4.239999949932098389e-01,2.000000000000000000e+00,7.538331985473632812e+00,8.417882919311523438e+00,3.475545120239257812e+01,-1.124516906738281250e+02,9.050177764892578125e+01,-6.695983123779296875e+01,4.790434646606445312e+01,-1.334825992584228516e+01,-1.076180648803710938e+02,-1.173991241455078125e+02,6.368331909179687500e+01,-3.852828598022460938e+01
4.280000030994415283e-01,2.000000000000000000e+00,7.566963672637939453e+00,8.371272087097167969e+00,3.474868392944335938e+01,-1.125063552856445312e+02,9.050381469726562500e+01,-6.698387908935546875e+01,4.783242034912109375e+01,-1.334086990356445312e+01,-1.076301345825195312e+02,-1.174557189941406250e+02,6.367924880981445312e+01,-3.855711746215820312e+01
4.320000112056732178e-01,2.000000000000000000e+00,7.595592021942138672e+00,8.324666023254394531e+00,3.474191665649414062e+01,-1.125610275268554688e+02,9.050584411621093750e+01,-6.700791931152343750e+01,4.776050186157226562e+01,-1.333348083496093750e+01,-1.076422042846679688e+02,-1.175123291015625000e+02,6.367517852783203125e+01,-3.858594894409179688e+01
4.359999895095825195e-01,2.000000000000000000e+00,7.624218463897705078e+00,8.278064727783203125e+00,3.473514938354492188e+01,-1.126156921386718750e+02,9.050788116455078125e+01,-6.703195953369140625e+01,4.768859100341796875e+01,-1.332609176635742188e+01,-1.076542663574218750e+02,-1.175689239501953125e+02,6.367110443115234375e+01,-3.861477661132812500e+01
4.399999976158142090e-01,2.000000000000000000e+00,7.652842044830322266e+00,8.231466293334960938e+00,3.472838592529296875e+01,-1.126703414916992188e+02,9.050992584228515625e+01,-6.705600738525390625e+01,4.761668395996093750e+01,-1.331870460510253906e+01,-1.076663284301757812e+02,-1.176255187988281250e+02,6.366703414916992188e+01,-3.864360046386718750e+01
4.440000057220458984e-01,2.000000000000000000e+00,7.681462287902832031e+00,8.184873580932617188e+00,3.472162246704101562e+01,-1.127249984741210938e+02,9.051196289062500000e+01,-6.708004760742187500e+01,4.754478836059570312e+01,-1.331131744384765625e+01,-1.076783981323242188e+02,-1.176820983886718750e+02,6.366296386718750000e+01,-3.867242050170898438e+01
4.480000138282775879e-01,2.000000000000000000e+00,7.710080623626708984e+00,8.138284683227539062e+00,3.471485519409179688e+01,-1.127796401977539062e+02,9.051399230957031250e+01,-6.710408020019531250e+01,4.747289657592773438e+01,-1.330393028259277344e+01,-1.076904602050781250e+02,-1.177386779785156250e+02,6.365889358520507812e+01,-3.870124053955078125e+01
4.519999921321868896e-01,2.000000000000000000e+00,7.738695621490478516e+00,8.091700553894042969e+00,3.470809555053710938e+01,-1.128342819213867188e+02,9.051602172851562500e+01,-6.712811279296875000e+01,4.740101242065429688e+01,-1.329654502868652344e+01,-1.077025146484375000e+02,-1.177952499389648438e+02,6.365483093261718750e+01,-3.873006057739257812e+01
4.560000002384185791e-01,2.000000000000000000e+00,7.767308235168457031e+00,8.045120239257812500e+00,3.470132827758789062e+01,-1.128889160156250000e+02,9.051805877685546875e+01,-6.715214538574218750e+01,4.732913208007812500e+01,-1.328915977478027344e+01,-1.077145767211914062e+02,-1.178518142700195312e+02,6.365076065063476562e+01,-3.875887298583984375e+01
4.600000083446502686e-01,2.000000000000000000e+00,7.795918941497802734e+00,7.998545169830322266e+00,3.469456863403320312e+01,-1.129435501098632812e+02,9.052009582519531250e+01,-6.717617797851562500e+01,4.725726318359375000e+01,-1.328177547454833984e+01,-1.077266311645507812e+02,-1.179083786010742188e+02,6.364668655395507812e+01,-3.878768157958984375e+01
4.639999866485595703e-01,2.000000000000000000e+00,7.824526309967041016e+00,7.951973438262939453e+00,3.468780517578125000e+01,-1.129981765747070312e+02,9.052213287353515625e+01,-6.720020294189453125e+01,4.718539428710937500e+01,-1.327439117431640625e+01,-1.077386932373046875e+02,-1.179649505615234375e+02,6.364262390136718750e+01,-3.881649017333984375e+01
4.679999947547912598e-01,2.000000000000000000e+00,7.853131294250488281e+00,7.905405998229980469e+00,3.468104934692382812e+01,-1.130528030395507812e+02,9.052416229248046875e+01,-6.722422790527343750e+01,4.711354064941406250e+01,-1.326700782775878906e+01,-1.077507476806640625e+02,-1.180215072631835938e+02,6.363855361938476562e+01,-3.884529876708984375e+01
4.720000028610229492e-01,2.000000000000000000e+00,7.881733417510986328e+00,7.858842849731445312e+00,3.467428588867187500e+01,-1.131074142456054688e+02,9.052619934082031250e+01,-6.724824523925781250e+01,4.704168701171875000e+01,-1.325962543487548828e+01,-1.077628021240234375e+02,-1.180780410766601562e+02,6.363449096679687500e+01,-3.887409973144531250e+01
4.760000109672546387e-01,2.000000000000000000e+00,7.910333156585693359e+00,7.812284469604492188e+00,3.466752624511718750e+01,-1.131620254516601562e+02,9.052822875976562500e+01,-6.727227020263671875e+01,4.696984100341796875e+01,-1.325224399566650391e+01,-1.077748565673828125e+02,-1.181345977783203125e+02,6.363042449951171875e+01,-3.890290069580078125e+01
4.799999892711639404e-01,2.000000000000000000e+00,7.938930511474609375e+00,7.765728950500488281e+00,3.466077041625976562e+01,-1.132166366577148438e+02,9.053026580810546875e+01,-6.729628753662109375e+01,4.689800262451171875e+01,-1.324486351013183594e+01,-1.077869110107421875e+02,-1.181911239624023438e+02,6.362635421752929688e+01,-3.893169784545898438e+01
4.839999973773956299e-01,2.000000000000000000e+00,7.967525005340576172e+00,7.719178676605224609e+00,3.465401077270507812e+01,-1.132712402343750000e+02,9.053230285644531250e+01,-6.732030487060546875e+01,4.682617187500000000e+01,-1.323748207092285156e+01,-1.077989654541015625e+02,-1.182476654052734375e+02,6.362229156494140625e+01,-3.896049499511718750e+01
4.880000054836273193e-01,2.000000000000000000e+00,7.996116161346435547e+00,7.672632694244384766e+00,3.464725112915039062e+01,-1.133258285522460938e+02,9.053433990478515625e+01,-6.734432220458984375e+01,4.675434494018554688e+01,-1.323010253906250000e+01,-1.078110122680664062e+02,-1.183041915893554688e+02,6.361822509765625000e+01,-3.898928833007812500e+01
4.920000135898590088e-01,2.000000000000000000e+00,8.024705886840820312e+00,7.626090049743652344e+00,3.464049148559570312e+01,-1.133804244995117188e+02,9.053636169433593750e+01,-6.736833190917968750e+01,4.668252563476562500e+01,-1.322272300720214844e+01,-1.078230590820312500e+02,-1.183607177734375000e+02,6.361416244506835938e+01,-3.901807785034179688e+01
4.959999918937683105e-01,2.000000000000000000e+00,8.053292274475097656e+00,7.579552173614501953e+00,3.463373947143554688e+01,-1.134350128173828125e+02,9.053839874267578125e+01,-6.739234161376953125e+01,4.661071014404296875e+01,-1.321534442901611328e+01,-1.078351135253906250e+02,-1.184172286987304688e+02,6.361009216308593750e+01,-3.904686737060546875e+01
5.000000000000000000e-01,2.000000000000000000e+00,8.081876754760742188e+00,7.533018112182617188e+00,3.462697982788085938e+01,-1.134895935058593750e+02,9.054043579101562500e+01,-6.741635131835937500e+01,4.653890609741210938e+01,-1.320796680450439453e+01,-1.078471603393554688e+02,-1.184737472534179688e+02,6.360602951049804688e+01,-3.907565307617187500e+01
5.040000081062316895e-01,2.000000000000000000e+00,8.110458374023437500e+00,7.486488342285156250e+00,3.462022399902343750e+01,-1.135441741943359375e+02,9.054246520996093750e+01,-6.744035339355468750e+01,4.646710586547851562e+01,-1.320059013366699219e+01,-1.078592071533203125e+02,-1.185302581787109375e+02,6.360196304321289062e+01,-3.910443496704101562e+01
5.080000162124633789e-01,2.000000000000000000e+00,8.139039039611816406e+00,7.439962863922119141e+00,3.461346817016601562e+01,-1.135987472534179688e+02,9.054450225830078125e+01,-6.746436309814453125e+01,4.639530944824218750e+01,-1.319321346282958984e+01,-1.078712463378906250e+02,-1.185867538452148438e+02,6.359790039062500000e+01,-3.913321304321289062e+01
5.120000243186950684e-01,2.000000000000000000e+00,8.167615890502929688e+00,7.393440723419189453e+00,3.460671615600585938e+01,-1.136533126831054688e+02,9.054653167724609375e+01,-6.748836517333984375e+01,4.632352447509765625e+01,-1.318583774566650391e+01,-1.078832931518554688e+02,-1.186432571411132812e+02,6.359384155273437500e+01,-3.916199493408203125e+01
5.159999728202819824e-01,2.000000000000000000e+00,8.196190834045410156e+00,7.346922874450683594e+00,3.459996414184570312e+01,-1.137078704833984375e+02,9.054856109619140625e+01,-6.751235961914062500e+01,4.625174331665039062e+01,-1.317846202850341797e+01,-1.078953399658203125e+02,-1.186997528076171875e+02,6.358977890014648438e+01,-3.919076919555664062e+01
5.199999809265136719e-01,2.000000000000000000e+00,8.224761962890625000e+00,7.300409317016601562e+00,3.459320831298828125e+01,-1.137624282836914062e+02,9.055059051513671875e+01,-6.753636169433593750e+01,4.617996978759765625e+01,-1.317108726501464844e+01,-1.079073791503906250e+02,-1.187562408447265625e+02,6.358571624755859375e+01,-3.921953964233398438e+01
5.239999890327453613e-01,2.000000000000000000e+00,8.253332138061523438e+00,7.253900051116943359e+00,3.458645629882812500e+01,-1.138169860839843750e+02,9.055262756347656250e+01,-6.756035614013671875e+01,4.610819625854492188e+01,-1.316371345520019531e+01,-1.079194183349609375e+02,-1.188127288818359375e+02,6.358164978027343750e+01,-3.924831008911132812e+01
5.279999971389770508e-01,2.000000000000000000e+00,8.281899452209472656e+00,7.207394123077392578e+00,3.457970428466796875e+01,-1.138715362548828125e+02,9.055465698242187500e+01,-6.758435058593750000e+01,4.603643417358398438e+01,-1.315634059906005859e+01,-1.079314575195312500e+02,-1.188692016601562500e+02,6.357758712768554688e+01,-3.927707672119140625e+01
5.320000052452087402e-01,2.000000000000000000e+00,8.310464859008789062e+00,7.160892009735107422e+00,3.457295227050781250e+01,-1.139260711669921875e+02,9.055669403076171875e+01,-6.760833740234375000e+01,4.596467590332031250e+01,-1.314896678924560547e+01,-1.079434967041015625e+02,-1.189256820678710938e+02,6.357352828979492188e+01,-3.930584335327148438e+01
5.360000133514404297e-01,2.000000000000000000e+00,8.339027404785156250e+00,7.114393711090087891e+00,3.456620025634765625e+01,-1.139806213378906250e+02,9.055872344970703125e+01,-6.763232421875000000e+01,4.589292526245117188e+01,-1.314159584045410156e+01,-1.079555358886718750e+02,-1.189821395874023438e+02,6.356946563720703125e+01,-3.933460617065429688e+01
5.400000214576721191e-01,2.000000000000000000e+00,8.367587089538574219e+00,7.067899703979492188e+00,3.455945205688476562e+01,-1.140351562500000000e+02,9.056074523925781250e+01,-6.765631103515625000e+01,4.582118225097656250e+01,-1.313422393798828125e+01,-1.079675750732421875e+02,-1.190386123657226562e+02,6.356541061401367188e+01,-3.936336898803710938e+01
5.440000295639038086e-01,2.000000000000000000e+00,8.396144866943359375e+00,7.021409511566162109e+00,3.455270004272460938e+01,-1.140896835327148438e+02,9.056278228759765625e+01,-6.768029785156250000e+01,4.574943923950195312e+01,-1.312685394287109375e+01,-1.079796066284179688e+02,-1.190950698852539062e+02,6.356134414672851562e+01,-3.939212799072265625e+01
5.479999780654907227e-01,2.000000000000000000e+00,8.424700736999511719e+00,6.974922657012939453e+00,3.454595184326171875e+01,-1.141442108154296875e+02,9.056481170654296875e+01,-6.770427703857421875e+01,4.567770767211914062e+01,-1.311948299407958984e+01,-1.079916458129882812e+02,-1.191515350341796875e+02,6.355728912353515625e+01,-3.942087936401367188e+01
5.519999861717224121e-01,2.000000000000000000e+00,8.453253746032714844e+00,6.928439617156982422e+00,3.453920364379882812e+01,-1.141987304687500000e+02,9.056684112548828125e+01,-6.772825622558593750e+01,4.560597991943359375e+01,-1.311211299896240234e+01,-1.080036773681640625e+02,-1.192079772949218750e+02,6.355322265625000000e+01,-3.944963455200195312e+01
5.559999942779541016e-01,2.000000000000000000e+00,8.481804847717285156e+00,6.881960868835449219e+00,3.453245544433593750e+01,-1.142532501220703125e+02,9.056887054443359375e+01,-6.775224304199218750e+01,4.553425979614257812e+01,-1.310474395751953125e+01,-1.080157165527343750e+02,-1.192644348144531250e+02,6.354916763305664062e+01,-3.947838592529296875e+01
5.600000023841857910e-01,2.000000000000000000e+00,8.510353088378906250e+00,6.835485458374023438e+00,3.452570724487304688e+01,-1.143077621459960938e+02,9.057090759277343750e+01,-6.777622222900390625e+01,4.546254348754882812e+01,-1.309737491607666016e+01,-1.080277404785156250e+02,-1.193208618164062500e+02,6.354510879516601562e+01,-3.950713729858398438e+01
5.640000104904174805e-01,2.000000000000000000e+00,8.538900375366210938e+00,6.789013862609863281e+00,3.451895904541015625e+01,-1.143622741699218750e+02,9.057293701171875000e+01,-6.780019378662109375e+01,4.539083099365234375e+01,-1.309000778198242188e+01,-1.080397796630859375e+02,-1.193773117065429688e+02,6.354104614257812500e+01,-3.953588104248046875e+01
5.680000185966491699e-01,2.000000000000000000e+00,8.567443847656250000e+00,6.742546081542968750e+00,3.451221466064453125e+01,-1.144167785644531250e+02,9.057495880126953125e+01,-6.782416534423828125e+01,4.531912994384765625e+01,-1.308263969421386719e+01,-1.080518035888671875e+02,-1.194337387084960938e+02,6.353698730468750000e+01,-3.956462478637695312e+01
5.720000267028808594e-01,2.000000000000000000e+00,8.595985412597656250e+00,6.696082115173339844e+00,3.450547027587890625e+01,-1.144712753295898438e+02,9.057698822021484375e+01,-6.784814453125000000e+01,4.524742889404296875e+01,-1.307527351379394531e+01,-1.080638351440429688e+02,-1.194901733398437500e+02,6.353293228149414062e+01,-3.959336853027343750e+01
5.759999752044677734e-01,2.000000000000000000e+00,8.624525070190429688e+00,6.649621009826660156e+00,3.449872207641601562e+01,-1.145257720947265625e+02,9.057901763916015625e+01,-6.787210845947265625e+01,4.517573547363281250e+01,-1.306790733337402344e+01,-1.080758590698242188e+02,-1.195465927124023438e+02,6.352887344360351562e+01,-3.962210845947265625e+01
5.799999833106994629e-01,2.000000000000000000e+00,8.653061866760253906e+00,6.603164196014404297e+00,3.449197769165039062e+01,-1.145802612304687500e+02,9.058105468750000000e+01,-6.789608001708984375e+01,4.510404586791992188e+01,-1.306054210662841797e+01,-1.080878906250000000e+02,-1.196030197143554688e+02,6.352481842041015625e+01,-3.965084838867187500e+01
5.839999914169311523e-01,2.000000000000000000e+00,8.681597709655761719e+00,6.556710243225097656e+00,3.448523330688476562e+01,-1.146347579956054688e+02,9.058308410644531250e+01,-6.792004394531250000e+01,4.503236389160156250e+01,-1.305317592620849609e+01,-1.080999145507812500e+02,-1.196594390869140625e+02,6.352075958251953125e+01,-3.967958068847656250e+01
5.879999995231628418e-01,2.000000000000000000e+00,8.710129737854003906e+00,6.510260581970214844e+00,3.447849273681640625e+01,-1.146892318725585938e+02,9.058511352539062500e+01,-6.794400787353515625e+01,4.496068572998046875e+01,-1.304581165313720703e+01,-1.081119461059570312e+02,-1.197158432006835938e+02,6.351670455932617188e+01,-3.970831680297851562e+01
5.920000076293945312e-01,2.000000000000000000e+00,8.738659858703613281e+00,6.463814258575439453e+00,3.447174835205078125e+01,-1.147437133789062500e+02,9.058714294433593750e+01,-6.796797180175781250e+01,4.488901519775390625e+01,-1.303844833374023438e+01,-1.081239624023437500e+02,-1.197722473144531250e+02,6.351264572143554688e+01,-3.973704910278320312e+01
5.960000157356262207e-01,2.000000000000000000e+00,8.767189025878906250e+00,6.417371273040771484e+00,3.446500396728515625e+01,-1.147981872558593750e+02,9.058917236328125000e+01,-6.799192810058593750e+01,4.481734848022460938e+01,-1.303108501434326172e+01,-1.081359939575195312e+02,-1.198286514282226562e+02,6.350858688354492188e+01,-3.976577377319335938e+01
6.000000238418579102e-01,2.000000000000000000e+00,8.795715332031250000e+00,6.370932102203369141e+00,3.445825958251953125e+01,-1.148526611328125000e+02,9.059119415283203125e+01,-6.801589202880859375e+01,4.474568557739257812e+01,-1.302372169494628906e+01,-1.081480178833007812e+02,-1.198850555419921875e+02,6.350453186035156250e+01,-3.979450225830078125e+01
6.039999723434448242e-01,2.000000000000000000e+00,8.824238777160644531e+00,6.324496269226074219e+00,3.445151901245117188e+01,-1.149071273803710938e+02,9.059322357177734375e+01,-6.803985595703125000e+01,4.467403030395507812e+01,-1.301635932922363281e+01,-1.081600341796875000e+02,-1.199414443969726562e+02,6.350047302246093750e+01,-3.982322692871093750e+01
6.079999804496765137e-01,2.000000000000000000e+00,8.852761268615722656e+00,6.278063774108886719e+00,3.444477844238281250e+01,-1.149615936279296875e+02,9.059525299072265625e+01,-6.806380462646484375e+01,4.460238265991210938e+01,-1.300899791717529297e+01,-1.081720581054687500e+02,-1.199978332519531250e+02,6.349642562866210938e+01,-3.985194778442382812e+01
6.119999885559082031e-01,2.000000000000000000e+00,8.881281852722167969e+00,6.231635093688964844e+00,3.443803787231445312e+01,-1.150160598754882812e+02,9.059728240966796875e+01,-6.808776092529296875e+01,4.453073883056640625e+01,-1.300163650512695312e+01,-1.081840744018554688e+02,-1.200542221069335938e+02,6.349236679077148438e+01,-3.988066864013671875e+01
6.159999966621398926e-01,2.000000000000000000e+00,8.909799575805664062e+00,6.185209274291992188e+00,3.443129730224609375e+01,-1.150705032348632812e+02,9.059931182861328125e+01,-6.811170959472656250e+01,4.445909881591796875e+01,-1.299427604675292969e+01,-1.081960983276367188e+02,-1.201105957031250000e+02,6.348830795288085938e+01,-3.990938568115234375e+01
6.200000047683715820e-01,2.000000000000000000e+00,8.938314437866210938e+00,6.138787746429443359e+00,3.442455673217773438e+01,-1.151249542236328125e+02,9.060134124755859375e+01,-6.813565826416015625e+01,4.438746261596679688e+01,-1.298691558837890625e+01,-1.082081146240234375e+02,-1.201669769287109375e+02,6.348426055908203125e+01,-3.993810272216796875e+01
6.240000128746032715e-01,2.000000000000000000e+00,8.966827392578125000e+00,6.092369079589843750e+00,3.441781997680664062e+01,-1.151794052124023438e+02,9.060336303710937500e+01,-6.815960693359375000e+01,4.431583404541015625e+01,-1.297955608367919922e+01,-1.082201309204101562e+02,-1.202233505249023438e+02,6.348020172119140625e+01,-3.996681976318359375e+01
6.280000209808349609e-01,2.000000000000000000e+00,8.995339393615722656e+00,6.045954227447509766e+00,3.441107940673828125e+01,-1.152338409423828125e+02,9.060539245605468750e+01,-6.818355560302734375e+01,4.424421310424804688e+01,-1.297219753265380859e+01,-1.082321472167968750e+02,-1.202797317504882812e+02,6.347614669799804688e+01,-3.999552917480468750e+01
6.320000290870666504e-01,2.000000000000000000e+00,9.023848533630371094e+00,5.999542713165283203e+00,3.440434265136718750e+01,-1.152882843017578125e+02,9.060742187500000000e+01,-6.820749664306640625e+01,4.417259597778320312e+01,-1.296483898162841797e+01,-1.082441635131835938e+02,-1.203360900878906250e+02,6.347209548950195312e+01,-4.002423858642578125e+01
6.359999775886535645e-01,2.000000000000000000e+00,9.052355766296386719e+00,5.953134536743164062e+00,3.439760589599609375e+01,-1.153427200317382812e+02,9.060945129394531250e+01,-6.823143768310546875e+01,4.410098266601562500e+01,-1.295748138427734375e+01,-1.082561798095703125e+02,-1.203924560546875000e+02,6.346803665161132812e+01,-4.005294799804687500e+01
6.399999856948852539e-01,2.000000000000000000e+00,9.080860137939453125e+00,5.906729221343994141e+00,3.439086532592773438e+01,-1.153971557617187500e+02,9.061147308349609375e+01,-6.825538635253906250e+01,4.402937316894531250e+01,-1.295012378692626953e+01,-1.082681884765625000e+02,-1.204487991333007812e+02,6.346398925781250000e+01,-4.008164978027343750e+01
6.439999938011169434e-01,2.000000000000000000e+00,9.109363555908203125e+00,5.860328197479248047e+00,3.438412857055664062e+01,-1.154515762329101562e+02,9.061349487304687500e+01,-6.827932739257812500e+01,4.395777130126953125e+01,-1.294276618957519531e+01,-1.082802047729492188e+02,-1.205051651000976562e+02,6.345993041992187500e+01,-4.011035537719726562e+01
6.480000019073486328e-01,2.000000000000000000e+00,9.137864112854003906e+00,5.813930034637451172e+00,3.437739562988281250e+01,-1.155059967041015625e+02,9.061552429199218750e+01,-6.830326080322265625e+01,4.388617706298828125e+01,-1.293541049957275391e+01,-1.082922210693359375e+02,-1.205615158081054688e+02,6.345587921142578125e+01,-4.013905334472656250e+01
6.520000100135803223e-01,2.000000000000000000e+00,9.166363716125488281e+00,5.767535686492919922e+00,3.437065505981445312e+01,-1.155604248046875000e+02,9.061755371093750000e+01,-6.832720184326171875e+01,4.381458663940429688e+01,-1.292805480957031250e+01,-1.083042297363281250e+02,-1.206178512573242188e+02,6.345182800292968750e+01,-4.016775512695312500e+01
6.560000181198120117e-01,2.000000000000000000e+00,9.194859504699707031e+00,5.721144199371337891e+00,3.436392211914062500e+01,-1.156148300170898438e+02,9.061958312988281250e+01,-6.835112762451171875e+01,4.374299621582031250e+01,-1.292070007324218750e+01,-1.083162384033203125e+02,-1.206742019653320312e+02,6.344777297973632812e+01,-4.019645309448242188e+01
6.600000262260437012e-01,2.000000000000000000e+00,9.223355293273925781e+00,5.674756050109863281e+00,3.435718536376953125e+01,-1.156692428588867188e+02,9.062160491943359375e+01,-6.837506103515625000e+01,4.367141342163085938e+01,-1.291334438323974609e+01,-1.083282470703125000e+02,-1.207305374145507812e+02,6.344372177124023438e+01,-4.022515106201171875e+01
6.639999747276306152e-01,2.000000000000000000e+00,9.251847267150878906e+00,5.628371238708496094e+00,3.435045242309570312e+01,-1.157236480712890625e+02,9.062363433837890625e+01,-6.839899444580078125e+01,4.359984207153320312e+01,-1.290598964691162109e+01,-1.083402557373046875e+02,-1.207868576049804688e+02,6.343967056274414062e+01,-4.025384140014648438e+01
6.679999828338623047e-01,2.000000000000000000e+00,9.280337333679199219e+00,5.581990242004394531e+00,3.434371948242187500e+01,-1.157780609130859375e+02,9.062566375732421875e+01,-6.842292022705078125e+01,4.352826690673828125e+01,-1.289863681793212891e+01,-1.083522644042968750e+02,-1.208431930541992188e+02,6.343562316894531250e+01,-4.028253173828125000e+01
6.719999909400939941e-01,2.000000000000000000e+00,9.308826446533203125e+00,5.535611629486083984e+00,3.433698654174804688e+01,-1.158324584960937500e+02,9.062768554687500000e+01,-6.844684600830078125e+01,4.345669937133789062e+01,-1.289128398895263672e+01,-1.083642730712890625e+02,-1.208995132446289062e+02,6.343157196044921875e+01,-4.031122207641601562e+01
6.759999990463256836e-01,2.000000000000000000e+00,9.337313652038574219e+00,5.489236831665039062e+00,3.433025360107421875e+01,-1.158868484497070312e+02,9.062971496582031250e+01,-6.847077941894531250e+01,4.338513946533203125e+01,-1.288393115997314453e+01,-1.083762817382812500e+02,-1.209558334350585938e+02,6.342751312255859375e+01,-4.033990859985351562e+01
6.800000071525573730e-01,2.000000000000000000e+00,9.365797996520996094e+00,5.442865371704101562e+00,3.432352066040039062e+01,-1.159412460327148438e+02,9.063173675537109375e+01,-6.849470520019531250e+01,4.331358337402343750e+01,-1.287657928466796875e+01,-1.083882904052734375e+02,-1.210121536254882812e+02,6.342346954345703125e+01,-4.036859512329101562e+01
6.840000152587890625e-01,2.000000000000000000e+00,9.394280433654785156e+00,5.396497249603271484e+00,3.431678771972656250e+01,-1.159956283569335938e+02,9.063376617431640625e+01,-6.851862335205078125e+01,4.324203491210937500e+01,-1.286922740936279297e+01,-1.084002914428710938e+02,-1.210684661865234375e+02,6.341942214965820312e+01,-4.039727783203125000e+01
6.880000233650207520e-01,2.000000000000000000e+00,9.422760963439941406e+00,5.350131988525390625e+00,3.431005477905273438e+01,-1.160500106811523438e+02,9.063578796386718750e+01,-6.854254150390625000e+01,4.317048645019531250e+01,-1.286187648773193359e+01,-1.084122924804687500e+02,-1.211247711181640625e+02,6.341537094116210938e+01,-4.042595672607421875e+01
6.919999718666076660e-01,2.000000000000000000e+00,9.451240539550781250e+00,5.303770542144775391e+00,3.430332565307617188e+01,-1.161043930053710938e+02,9.063780975341796875e+01,-6.856645965576171875e+01,4.309894561767578125e+01,-1.285452556610107422e+01,-1.084242935180664062e+02,-1.211810836791992188e+02,6.341131973266601562e+01,-4.045463562011718750e+01
6.959999799728393555e-01,2.000000000000000000e+00,9.479716300964355469e+00,5.257411956787109375e+00,3.429659271240234375e+01,-1.161587753295898438e+02,9.063983154296875000e+01,-6.859037780761718750e+01,4.302740859985351562e+01,-1.284717559814453125e+01,-1.084362945556640625e+02,-1.212373733520507812e+02,6.340726852416992188e+01,-4.048331451416015625e+01
6.999999880790710449e-01,2.000000000000000000e+00,9.508191108703613281e+00,5.211056709289550781e+00,3.428986358642578125e+01,-1.162131423950195312e+02,9.064186096191406250e+01,-6.861429595947265625e+01,4.295587921142578125e+01,-1.283982563018798828e+01,-1.084483032226562500e+02,-1.212936706542968750e+02,6.340322113037109375e+01,-4.051198577880859375e+01
7.039999961853027344e-01,2.000000000000000000e+00,9.536664009094238281e+00,5.164704322814941406e+00,3.428313446044921875e+01,-1.162675094604492188e+02,9.064388275146484375e+01,-6.863821411132812500e+01,4.288434982299804688e+01,-1.283247661590576172e+01,-1.084603042602539062e+02,-1.213499679565429688e+02,6.339916992187500000e+01,-4.054066085815429688e+01
7.080000042915344238e-01,2.000000000000000000e+00,9.565134048461914062e+00,5.118355274200439453e+00,3.427640533447265625e+01,-1.163218765258789062e+02,9.064591217041015625e+01,-6.866212463378906250e+01,4.281283187866210938e+01,-1.282512855529785156e+01,-1.084722976684570312e+02,-1.214062576293945312e+02,6.339512634277343750e+01,-4.056932830810546875e+01
7.120000123977661133e-01,2.000000000000000000e+00,9.593603134155273438e+00,5.072009086608886719e+00,3.426967620849609375e+01,-1.163762359619140625e+02,9.064793395996093750e+01,-6.868603515625000000e+01,4.274131393432617188e+01,-1.281778049468994141e+01,-1.084842987060546875e+02,-1.214625396728515625e+02,6.339107513427734375e+01,-4.059799957275390625e+01
7.160000205039978027e-01,2.000000000000000000e+00,9.622070312500000000e+00,5.025666713714599609e+00,3.426294708251953125e+01,-1.164306030273437500e+02,9.064996337890625000e+01,-6.870993804931640625e+01,4.266980361938476562e+01,-1.281043338775634766e+01,-1.084962997436523438e+02,-1.215188217163085938e+02,6.338703155517578125e+01,-4.062666702270507812e+01
7.200000286102294922e-01,2.000000000000000000e+00,9.650534629821777344e+00,4.979327201843261719e+00,3.425622177124023438e+01,-1.164849472045898438e+02,9.065198516845703125e+01,-6.873384857177734375e+01,4.259829711914062500e+01,-1.280308532714843750e+01,-1.085082931518554688e+02,-1.215751037597656250e+02,6.338298034667968750e+01,-4.065533065795898438e+01
7.239999771118164062e-01,2.000000000000000000e+00,9.678997993469238281e+00,4.932990550994873047e+00,3.424949264526367188e+01,-1.165392990112304688e+02,9.065400695800781250e+01,-6.875775146484375000e+01,4.252679443359375000e+01,-1.279574012756347656e+01,-1.085202941894531250e+02,-1.216313705444335938e+02,6.337893295288085938e+01,-4.068399429321289062e+01
7.279999852180480957e-01,2.000000000000000000e+00,9.707459449768066406e+00,4.886657238006591797e+00,3.424276733398437500e+01,-1.165936508178710938e+02,9.065603637695312500e+01,-6.878166198730468750e+01,4.245529556274414062e+01,-1.278839302062988281e+01,-1.085322875976562500e+02,-1.216876525878906250e+02,6.337488937377929688e+01,-4.071265792846679688e+01
7.319999933242797852e-01,2.000000000000000000e+00,9.735918045043945312e+00,4.840327262878417969e+00,3.423604202270507812e+01,-1.166479949951171875e+02,9.065805816650390625e+01,-6.880556488037109375e+01,4.238380432128906250e+01,-1.278104782104492188e+01,-1.085442810058593750e+02,-1.217439193725585938e+02,6.337083816528320312e+01,-4.074131774902343750e+01
7.360000014305114746e-01,2.000000000000000000e+00,9.764376640319824219e+00,4.794000148773193359e+00,3.422931289672851562e+01,-1.167023315429687500e+02,9.066007995605468750e+01,-6.882946014404296875e+01,4.231231689453125000e+01,-1.277370262145996094e+01,-1.085562744140625000e+02,-1.218001708984375000e+02,6.336679458618164062e+01,-4.076997375488281250e+01
7.400000095367431641e-01,2.000000000000000000e+00,9.792831420898437500e+00,4.747675895690917969e+00,3.422258758544921875e+01,-1.167566604614257812e+02,9.066210937500000000e+01,-6.885336303710937500e+01,4.224083328247070312e+01,-1.276635837554931641e+01,-1.085682678222656250e+02,-1.218564376831054688e+02,6.336275100708007812e+01,-4.079862976074218750e+01
7.440000176429748535e-01,2.000000000000000000e+00,9.821284294128417969e+00,4.701354980468750000e+00,3.421586227416992188e+01,-1.168110046386718750e+02,9.066413116455078125e+01,-6.887725830078125000e+01,4.216935729980468750e+01,-1.275901412963867188e+01,-1.085802612304687500e+02,-1.219126892089843750e+02,6.335869979858398438e+01,-4.082728195190429688e+01
7.480000257492065430e-01,2.000000000000000000e+00,9.849736213684082031e+00,4.655036926269531250e+00,3.420914077758789062e+01,-1.168653335571289062e+02,9.066615295410156250e+01,-6.890116119384765625e+01,4.209788131713867188e+01,-1.275167083740234375e+01,-1.085922470092773438e+02,-1.219689407348632812e+02,6.335465621948242188e+01,-4.085593414306640625e+01
7.519999742507934570e-01,2.000000000000000000e+00,9.878186225891113281e+00,4.608722209930419922e+00,3.420241546630859375e+01,-1.169196548461914062e+02,9.066817474365234375e+01,-6.892504882812500000e+01,4.202641296386718750e+01,-1.274432754516601562e+01,-1.086042404174804688e+02,-1.220251846313476562e+02,6.335061264038085938e+01,-4.088458251953125000e+01
7.559999823570251465e-01,2.000000000000000000e+00,9.906634330749511719e+00,4.562410354614257812e+00,3.419569015502929688e+01,-1.169739685058593750e+02,9.067019653320312500e+01,-6.894894409179687500e+01,4.195494842529296875e+01,-1.273698425292968750e+01,-1.086162338256835938e+02,-1.220814361572265625e+02,6.334656906127929688e+01,-4.091323471069335938e+01
7.599999904632568359e-01,2.000000000000000000e+00,9.935080528259277344e+00,4.516101360321044922e+00,3.418896484375000000e+01,-1.170282974243164062e+02,9.067222595214843750e+01,-6.897283935546875000e+01,4.188348770141601562e+01,-1.272964191436767578e+01,-1.086282272338867188e+02,-1.221376800537109375e+02,6.334251785278320312e+01,-4.094187927246093750e+01
7.639999985694885254e-01,2.000000000000000000e+00,9.963524818420410156e+00,4.469795227050781250e+00,3.418224334716796875e+01,-1.170826110839843750e+02,9.067424774169921875e+01,-6.899672698974609375e+01,4.181203460693359375e+01,-1.272230052947998047e+01,-1.086402130126953125e+02,-1.221939010620117188e+02,6.333847427368164062e+01,-4.097052001953125000e+01
7.680000066757202148e-01,2.000000000000000000e+00,9.991966247558593750e+00,4.423492431640625000e+00,3.417552185058593750e+01,-1.171369094848632812e+02,9.067626953125000000e+01,-6.902061462402343750e+01,4.174058532714843750e+01,-1.271495914459228516e+01,-1.086521987915039062e+02,-1.222501449584960938e+02,6.333443069458007812e+01,-4.099916458129882812e+01
7.720000147819519043e-01,2.000000000000000000e+00,1.002040767669677734e+01,4.377192974090576172e+00,3.416880035400390625e+01,-1.171912231445312500e+02,9.067829132080078125e+01,-6.904450225830078125e+01,4.166913986206054688e+01,-1.270761871337890625e+01,-1.086641845703125000e+02,-1.223063659667968750e+02,6.333038711547851562e+01,-4.102780532836914062e+01
7.760000228881835938e-01,2.000000000000000000e+00,1.004884719848632812e+01,4.330895900726318359e+00,3.416207504272460938e+01,-1.172455291748046875e+02,9.068031311035156250e+01,-6.906838989257812500e+01,4.159769821166992188e+01,-1.270027828216552734e+01,-1.086761703491210938e+02,-1.223625946044921875e+02,6.332634735107421875e+01,-4.105644607543945312e+01
7.799999713897705078e-01,2.000000000000000000e+00,1.007728385925292969e+01,4.284602165222167969e+00,3.415535354614257812e+01,-1.172998275756835938e+02,9.068233489990234375e+01,-6.909227752685546875e+01,4.152626419067382812e+01,-1.269293880462646484e+01,-1.086881561279296875e+02,-1.224188232421875000e+02,6.332230377197265625e+01,-4.108507919311523438e+01
7.839999794960021973e-01,2.000000000000000000e+00,1.010571861267089844e+01,4.238310813903808594e+00,3.414863586425781250e+01,-1.173541259765625000e+02,9.068435668945312500e+01,-6.911614990234375000e+01,4.145483016967773438e+01,-1.268559932708740234e+01,-1.087001419067382812e+02,-1.224750366210937500e+02,6.331826019287109375e+01,-4.111371612548828125e+01
7.879999876022338867e-01,2.000000000000000000e+00,1.013415145874023438e+01,4.192022800445556641e+00,3.414191818237304688e+01,-1.174084243774414062e+02,9.068637847900390625e+01,-6.914003753662109375e+01,4.138340377807617188e+01,-1.267826080322265625e+01,-1.087121276855468750e+02,-1.225312423706054688e+02,6.331421661376953125e+01,-4.114234924316406250e+01
7.919999957084655762e-01,2.000000000000000000e+00,1.016258335113525391e+01,4.145737648010253906e+00,3.413519668579101562e+01,-1.174627151489257812e+02,9.068840026855468750e+01,-6.916391754150390625e+01,4.131198120117187500e+01,-1.267092227935791016e+01,-1.087241058349609375e+02,-1.225874557495117188e+02,6.331017303466796875e+01,-4.117098236083984375e+01
7.960000038146972656e-01,2.000000000000000000e+00,1.019101333618164062e+01,4.099455356597900391e+00,3.412847518920898438e+01,-1.175169982910156250e+02,9.069042205810546875e+01,-6.918779754638671875e+01,4.124055862426757812e+01,-1.266358375549316406e+01,-1.087360839843750000e+02,-1.226436691284179688e+02,6.330612945556640625e+01,-4.119960784912109375e+01
8.000000119209289551e-01,2.000000000000000000e+00,1.021944141387939453e+01,4.053175449371337891e+00,3.412175750732421875e+01,-1.175712814331054688e+02,9.069244384765625000e+01,-6.921166992187500000e+01,4.116914749145507812e+01,-1.265624713897705078e+01,-1.087480773925781250e+02,-1.226998672485351562e+02,6.330208969116210938e+01,-4.122823715209960938e+01
8.040000200271606445e-01,2.000000000000000000e+00,1.024786758422851562e+01,4.006899356842041016e+00,3.411503601074218750e+01,-1.176255569458007812e+02,9.069446563720703125e+01,-6.923554229736328125e+01,4.109773635864257812e+01,-1.264890956878662109e+01,-1.087600555419921875e+02,-1.227560806274414062e+02,6.329804992675781250e+01,-4.125686264038085938e+01
8.080000281333923340e-01,2.000000000000000000e+00,1.027629184722900391e+01,3.960625171661376953e+00,3.410831832885742188e+01,-1.176798477172851562e+02,9.069648742675781250e+01,-6.925941467285156250e+01,4.102632904052734375e+01,-1.264157295227050781e+01,-1.087720336914062500e+02,-1.228122787475585938e+02,6.329400634765625000e+01,-4.128548812866210938e+01
8.119999766349792480e-01,2.000000000000000000e+00,1.030471420288085938e+01,3.914354562759399414e+00,3.410160064697265625e+01,-1.177341156005859375e+02,9.069850921630859375e+01,-6.928328704833984375e+01,4.095493316650390625e+01,-1.263423633575439453e+01,-1.087840118408203125e+02,-1.228684692382812500e+02,6.328996276855468750e+01,-4.131410980224609375e+01
8.159999847412109375e-01,2.000000000000000000e+00,1.033313560485839844e+01,3.868086338043212891e+00,3.409488296508789062e+01,-1.177883911132812500e+02,9.070053100585937500e+01,-6.930715942382812500e+01,4.088353729248046875e+01,-1.262690067291259766e+01,-1.087959899902343750e+02,-1.229246673583984375e+02,6.328592300415039062e+01,-4.134273147583007812e+01
8.199999928474426270e-01,2.000000000000000000e+00,1.036155509948730469e+01,3.821821212768554688e+00,3.408816528320312500e+01,-1.178426513671875000e+02,9.070255279541015625e+01,-6.933103179931640625e+01,4.081214141845703125e+01,-1.261956596374511719e+01,-1.088079681396484375e+02,-1.229808502197265625e+02,6.328187942504882812e+01,-4.137134933471679688e+01
8.240000009536743164e-01,2.000000000000000000e+00,1.038997173309326172e+01,3.775559186935424805e+00,3.408144760131835938e+01,-1.178969039916992188e+02,9.070457458496093750e+01,-6.935489654541015625e+01,4.074075317382812500e+01,-1.261223125457763672e+01,-1.088199386596679688e+02,-1.230370330810546875e+02,6.327784347534179688e+01,-4.139997100830078125e+01
8.280000090599060059e-01,2.000000000000000000e+00,1.041838836669921875e+01,3.729299545288085938e+00,3.407473373413085938e+01,-1.179511795043945312e+02,9.070659637451171875e+01,-6.937876892089843750e+01,4.066937255859375000e+01,-1.260489654541015625e+01,-1.088319244384765625e+02,-1.230932083129882812e+02,6.327379989624023438e+01,-4.142858505249023438e+01
8.320000171661376953e-01,2.000000000000000000e+00,1.044680213928222656e+01,3.683042526245117188e+00,3.406801605224609375e+01,-1.180054244995117188e+02,9.070861816406250000e+01,-6.940263366699218750e+01,4.059799194335937500e+01,-1.259756278991699219e+01,-1.088438949584960938e+02,-1.231493911743164062e+02,6.326976394653320312e+01,-4.145719909667968750e+01
8.360000252723693848e-01,2.000000000000000000e+00,1.047521495819091797e+01,3.636788368225097656e+00,3.406130218505859375e+01,-1.180596847534179688e+02,9.071063232421875000e+01,-6.942649078369140625e+01,4.052661895751953125e+01,-1.259022998809814453e+01,-1.088558731079101562e+02,-1.232055664062500000e+02,6.326572036743164062e+01,-4.148581314086914062e+01
8.399999737739562988e-01,2.000000000000000000e+00,1.050362491607666016e+01,3.590537309646606445e+00,3.405458831787109375e+01,-1.181139297485351562e+02,9.071265411376953125e+01,-6.945035552978515625e+01,4.045524978637695312e+01,-1.258289623260498047e+01,-1.088678512573242188e+02,-1.232617340087890625e+02,6.326168441772460938e+01,-4.151441955566406250e+01
8.439999818801879883e-01,2.000000000000000000e+00,1.053203392028808594e+01,3.544288873672485352e+00,3.404787063598632812e+01,-1.181681900024414062e+02,9.071467590332031250e+01,-6.947421264648437500e+01,4.038388061523437500e+01,-1.257556343078613281e+01,-1.088798217773437500e+02,-1.233178939819335938e+02,6.325764083862304688e+01,-4.154302978515625000e+01
8.479999899864196777e-01,2.000000000000000000e+00,1.056044197082519531e+01,3.498043298721313477e+00,3.404115676879882812e+01,-1.182224197387695312e+02,9.071669769287109375e+01,-6.949807739257812500e+01,4.031251907348632812e+01,-1.256823158264160156e+01,-1.088917922973632812e+02,-1.233740615844726562e+02,6.325360488891601562e+01,-4.157163619995117188e+01
8.519999980926513672e-01,2.000000000000000000e+00,1.058884620666503906e+01,3.451800107955932617e+00,3.403444290161132812e+01,-1.182766647338867188e+02,9.071871185302734375e+01,-6.952193450927734375e+01,4.024116134643554688e+01,-1.256089973449707031e+01,-1.089037628173828125e+02,-1.234302215576171875e+02,6.324956130981445312e+01,-4.160024261474609375e+01
8.560000061988830566e-01,2.000000000000000000e+00,1.061725044250488281e+01,3.405559778213500977e+00,3.402773284912109375e+01,-1.183309097290039062e+02,9.072073364257812500e+01,-6.954578399658203125e+01,4.016980743408203125e+01,-1.255356884002685547e+01,-1.089157333374023438e+02,-1.234863815307617188e+02,6.324552536010742188e+01,-4.162884521484375000e+01
8.600000143051147461e-01,2.000000000000000000e+00,1.064565372467041016e+01,3.359322071075439453e+00,3.402101898193359375e+01,-1.183851394653320312e+02,9.072275543212890625e+01,-6.956964111328125000e+01,4.009845733642578125e+01,-1.254623699188232422e+01,-1.089277114868164062e+02,-1.235425338745117188e+02,6.324148559570312500e+01,-4.165744781494140625e+01
8.640000224113464355e-01,2.000000000000000000e+00,1.067405414581298828e+01,3.313086986541748047e+00,3.401430511474609375e+01,-1.184393768310546875e+02,9.072477722167968750e+01,-6.959349822998046875e+01,4.002711105346679688e+01,-1.253890705108642578e+01,-1.089396743774414062e+02,-1.235986785888671875e+02,6.323744964599609375e+01,-4.168605041503906250e+01
8.679999709129333496e-01,2.000000000000000000e+00,1.070245361328125000e+01,3.266854763031005859e+00,3.400759506225585938e+01,-1.184936065673828125e+02,9.072679138183593750e+01,-6.961734771728515625e+01,3.995576858520507812e+01,-1.253157711029052734e+01,-1.089516448974609375e+02,-1.236548233032226562e+02,6.323340606689453125e+01,-4.171464538574218750e+01
8.719999790191650391e-01,2.000000000000000000e+00,1.073085021972656250e+01,3.220625162124633789e+00,3.400088119506835938e+01,-1.185478210449218750e+02,9.072881317138671875e+01,-6.964119720458984375e+01,3.988443756103515625e+01,-1.252424716949462891e+01,-1.089636154174804688e+02,-1.237109680175781250e+02,6.322937011718750000e+01,-4.174324417114257812e+01
8.759999871253967285e-01,2.000000000000000000e+00,1.075924587249755859e+01,3.174398422241210938e+00,3.399417114257812500e+01,-1.186020431518554688e+02,9.073083496093750000e+01,-6.966504669189453125e+01,3.981310272216796875e+01,-1.251691818237304688e+01,-1.089755783081054688e+02,-1.237671127319335938e+02,6.322533416748046875e+01,-4.177183914184570312e+01
8.799999952316284180e-01,2.000000000000000000e+00,1.078764057159423828e+01,3.128174066543579102e+00,3.398745727539062500e+01,-1.186562576293945312e+02,9.073284912109375000e+01,-6.968889617919921875e+01,3.974177551269531250e+01,-1.250958919525146484e+01,-1.089875488281250000e+02,-1.238232574462890625e+02,6.322129821777343750e+01,-4.180043411254882812e+01
8.840000033378601074e-01,2.000000000000000000e+00,1.081603240966796875e+01,3.081952095031738281e+00,3.398074722290039062e+01,-1.187104797363281250e+02,9.073487091064453125e+01,-6.971274566650390625e+01,3.967044448852539062e+01,-1.250226116180419922e+01,-1.089995117187500000e+02,-1.238793869018554688e+02,6.321726226806640625e+01,-4.182902526855468750e+01
8.880000114440917969e-01,2.000000000000000000e+00,1.084442424774169922e+01,3.035732984542846680e+00,3.397403717041015625e+01,-1.187646942138671875e+02,9.073688507080078125e+01,-6.973658752441406250e+01,3.959912490844726562e+01,-1.249493312835693359e+01,-1.090114822387695312e+02,-1.239355163574218750e+02,6.321322250366210938e+01,-4.185761642456054688e+01
8.920000195503234863e-01,2.000000000000000000e+00,1.087281227111816406e+01,2.989516496658325195e+00,3.396732711791992188e+01,-1.188189010620117188e+02,9.073890686035156250e+01,-6.976042938232421875e+01,3.952780914306640625e+01,-1.248760509490966797e+01,-1.090234451293945312e+02,-1.239916458129882812e+02,6.320918655395507812e+01,-4.188620376586914062e+01
8.960000276565551758e-01,2.000000000000000000e+00,1.090120029449462891e+01,2.943302392959594727e+00,3.396062088012695312e+01,-1.188731079101562500e+02,9.074092864990234375e+01,-6.978427886962890625e+01,3.945649719238281250e+01,-1.248027801513671875e+01,-1.090354156494140625e+02,-1.240477676391601562e+02,6.320515060424804688e+01,-4.191479110717773438e+01
8.999999761581420898e-01,2.000000000000000000e+00,1.092958641052246094e+01,2.897090911865234375e+00,3.395391082763671875e+01,-1.189273071289062500e+02,9.074294281005859375e+01,-6.980812072753906250e+01,3.938518524169921875e+01,-1.247295188903808594e+01,-1.090473709106445312e+02,-1.241038970947265625e+02,6.320111465454101562e+01,-4.194337844848632812e+01
9.039999842643737793e-01,2.000000000000000000e+00,1.095797157287597656e+01,2.850882053375244141e+00,3.394720077514648438e+01,-1.189815139770507812e+02,9.074496459960937500e+01,-6.983195495605468750e+01,3.931388473510742188e+01,-1.246562576293945312e+01,-1.090593414306640625e+02,-1.241600112915039062e+02,6.319707870483398438e+01,-4.197196197509765625e+01
9.079999923706054688e-01,2.000000000000000000e+00,1.098635482788085938e+01,2.804675817489624023e+00,3.394049072265625000e+01,-1.190357208251953125e+02,9.074697875976562500e+01,-6.985579681396484375e+01,3.924258422851562500e+01,-1.245829963684082031e+01,-1.090712966918945312e+02,-1.242161331176757812e+02,6.319303894042968750e+01,-4.200054550170898438e+01
9.120000004768371582e-01,2.000000000000000000e+00,1.101473712921142578e+01,2.758471488952636719e+00,3.393378448486328125e+01,-1.190899124145507812e+02,9.074900054931640625e+01,-6.987963104248046875e+01,3.917128372192382812e+01,-1.245097351074218750e+01,-1.090832672119140625e+02,-1.242722473144531250e+02,6.318900299072265625e+01,-4.202912521362304688e+01
9.160000085830688477e-01,2.000000000000000000e+00,1.104311752319335938e+01,2.712270021438598633e+00,3.392707824707031250e+01,-1.191440963745117188e+02,9.075101470947265625e+01,-6.990347290039062500e+01,3.909999084472656250e+01,-1.244364833831787109e+01,-1.090952224731445312e+02,-1.243283538818359375e+02,6.318497467041015625e+01,-4.205770492553710938e+01
9.200000166893005371e-01,2.000000000000000000e+00,1.107149696350097656e+01,2.666070699691772461e+00,3.392036819458007812e+01,-1.191982879638671875e+02,9.075303649902343750e+01,-6.992730712890625000e+01,3.902870178222656250e+01,-1.243632411956787109e+01,-1.091071853637695312e+02,-1.243844528198242188e+02,6.318093872070312500e+01,-4.208628463745117188e+01
9.240000247955322266e-01,2.000000000000000000e+00,1.109987449645996094e+01,2.619873762130737305e+00,3.391366195678710938e+01,-1.192524795532226562e+02,9.075505065917968750e+01,-6.995113372802734375e+01,3.895741653442382812e+01,-1.242899990081787109e+01,-1.091191406250000000e+02,-1.244405593872070312e+02,6.317690277099609375e+01,-4.211486053466796875e+01
9.279999732971191406e-01,2.000000000000000000e+00,1.112825107574462891e+01,2.573679447174072266e+00,3.390695571899414062e+01,-1.193066558837890625e+02,9.075707244873046875e+01,-6.997497558593750000e+01,3.888613128662109375e+01,-1.242167568206787109e+01,-1.091311035156250000e+02,-1.244966583251953125e+02,6.317286300659179688e+01,-4.214343643188476562e+01
9.319999814033508301e-01,2.000000000000000000e+00,1.115662574768066406e+01,2.527487277984619141e+00,3.390024566650390625e+01,-1.193608322143554688e+02,9.075908660888671875e+01,-6.999880218505859375e+01,3.881485366821289062e+01,-1.241435241699218750e+01,-1.091430664062500000e+02,-1.245527648925781250e+02,6.316883468627929688e+01,-4.217200851440429688e+01
9.359999895095825195e-01,2.000000000000000000e+00,1.118499851226806641e+01,2.481297254562377930e+00,3.389353942871093750e+01,-1.194150238037109375e+02,9.076110839843750000e+01,-7.002263641357421875e+01,3.874357604980468750e+01,-1.240702915191650391e+01,-1.091550216674804688e+02,-1.246088562011718750e+02,6.316479873657226562e+01,-4.220058059692382812e+01
9.399999976158142090e-01,2.000000000000000000e+00,1.121337127685546875e+01,2.435109615325927734e+00,3.388683700561523438e+01,-1.194691925048828125e+02,9.076313018798828125e+01,-7.004646301269531250e+01,3.867230224609375000e+01,-1.239970684051513672e+01,-1.091669769287109375e+02,-1.246649398803710938e+02,6.316076278686523438e+01,-4.222915267944335938e+01
9.440000057220458984e-01,2.000000000000000000e+00,1.124174118041992188e+01,2.388924121856689453e+00,3.388013076782226562e+01,-1.195233688354492188e+02,9.076514434814453125e+01,-7.007028961181640625e+01,3.860103607177734375e+01,-1.239238357543945312e+01,-1.091789321899414062e+02,-1.247210311889648438e+02,6.315673065185546875e+01,-4.225772094726562500e+01
9.480000138282775879e-01,2.000000000000000000e+00,1.127011108398437500e+01,2.342740774154663086e+00,3.387342453002929688e+01,-1.195775451660156250e+02,9.076716613769531250e+01,-7.009411621093750000e+01,3.852976989746093750e+01,-1.238506221771240234e+01,-1.091908950805664062e+02,-1.247771224975585938e+02,6.315269470214843750e+01,-4.228628921508789062e+01
9.520000219345092773e-01,2.000000000000000000e+00,1.129847812652587891e+01,2.296559572219848633e+00,3.386672210693359375e+01,-1.196317062377929688e+02,9.076918029785156250e+01,-7.011794281005859375e+01,3.845850753784179688e+01,-1.237773990631103516e+01,-1.092028503417968750e+02,-1.248332138061523438e+02,6.314866638183593750e+01,-4.231485748291015625e+01
9.559999704360961914e-01,2.000000000000000000e+00,1.132684516906738281e+01,2.250380754470825195e+00,3.386001586914062500e+01,-1.196858673095703125e+02,9.077119445800781250e+01,-7.014176940917968750e+01,3.838724899291992188e+01,-1.237041759490966797e+01,-1.092147979736328125e+02,-1.248892898559570312e+02,6.314462661743164062e+01,-4.234342193603515625e+01
9.599999785423278809e-01,2.000000000000000000e+00,1.135521030426025391e+01,2.204203605651855469e+00,3.385330963134765625e+01,-1.197400360107421875e+02,9.077321624755859375e+01,-7.016558837890625000e+01,3.831599044799804688e+01,-1.236309719085693359e+01,-1.092267608642578125e+02,-1.249453735351562500e+02,6.314059829711914062e+01,-4.237198638916015625e+01
9.639999866485595703e-01,2.000000000000000000e+00,1.138357448577880859e+01,2.158029079437255859e+00,3.384660720825195312e+01,-1.197941970825195312e+02,9.077523040771484375e+01,-7.018941497802734375e+01,3.824473953247070312e+01,-1.235577583312988281e+01,-1.092387161254882812e+02,-1.250014495849609375e+02,6.313656234741210938e+01,-4.240055084228515625e+01
9.679999947547912598e-01,2.000000000000000000e+00,1.141193675994873047e+01,2.111856222152709961e+00,3.383990097045898438e+01,-1.198483581542968750e+02,9.077724456787109375e+01,-7.021323394775390625e+01,3.817349243164062500e+01,-1.234845542907714844e+01,-1.092506637573242188e+02,-1.250575256347656250e+02,6.313253021240234375e+01,-4.242911148071289062e+01
9.720000028610229492e-01,2.000000000000000000e+00,1.144029712677001953e+01,2.065685510635375977e+00,3.383320236206054688e+01,-1.199025115966796875e+02,9.077926635742187500e+01,-7.023705291748046875e+01,3.810224533081054688e+01,-1.234113502502441406e+01,-1.092626190185546875e+02,-1.251136016845703125e+02,6.312849426269531250e+01,-4.245767211914062500e+01
9.760000109672546387e-01,2.000000000000000000e+00,1.146865749359130859e+01,2.019516944885253906e+00,3.382649993896484375e+01,-1.199566574096679688e+02,9.078128051757812500e+01,-7.026087188720703125e+01,3.803100204467773438e+01,-1.233381462097167969e+01,-1.092745742797851562e+02,-1.251696624755859375e+02,6.312446594238281250e+01,-4.248623275756835938e+01
9.800000190734863281e-01,2.000000000000000000e+00,1.149701595306396484e+01,1.973350286483764648e+00,3.381979370117187500e+01,-1.200108261108398438e+02,9.078329467773437500e+01,-7.028469085693359375e+01,3.795975875854492188e+01,-1.232649517059326172e+01,-1.092865219116210938e+02,-1.252257385253906250e+02,6.312043762207031250e+01,-4.251478958129882812e+01
9.840000271797180176e-01,2.000000000000000000e+00,1.152537441253662109e+01,1.927186369895935059e+00,3.381309127807617188e+01,-1.200649566650390625e+02,9.078530883789062500e+01,-7.030850982666015625e+01,3.788852310180664062e+01,-1.231917572021484375e+01,-1.092984771728515625e+02,-1.252818069458007812e+02,6.311639785766601562e+01,-4.254334640502929688e+01
9.879999756813049316e-01,2.000000000000000000e+00,1.155373001098632812e+01,1.881024718284606934e+00,3.380638885498046875e+01,-1.201191101074218750e+02,9.078733062744140625e+01,-7.033232116699218750e+01,3.781729125976562500e+01,-1.231185722351074219e+01,-1.093104324340820312e+02,-1.253378677368164062e+02,6.311236953735351562e+01,-4.257190322875976562e+01
9.919999837875366211e-01,2.000000000000000000e+00,1.158208465576171875e+01,1.834865689277648926e+00,3.379968643188476562e+01,-1.201732559204101562e+02,9.078934478759765625e+01,-7.035614013671875000e+01,3.774605941772460938e+01,-1.230453777313232422e+01,-1.093223800659179688e+02,-1.253939285278320312e+02,6.310834121704101562e+01,-4.260045623779296875e+01
9.959999918937683105e-01,2.000000000000000000e+00,1.161043930053710938e+01,1.788708686828613281e+00,3.379298782348632812e+01,-1.202273941040039062e+02,9.079136657714843750e+01,-7.037995910644531250e+01,3.767483139038085938e+01,-1.229722023010253906e+01,-1.093343276977539062e+02,-1.254499740600585938e+02,6.310430145263671875e+01,-4.262900924682617188e+01
1.000000000000000000e+00,2.000000000000000000e+00,1.163879108428955078e+01,1.742553591728210449e+00,3.378628158569335938e+01,-1.202815475463867188e+02,9.079338073730468750e+01,-7.040377044677734375e+01,3.760360717773437500e+01,-1.228990173339843750e+01,-1.093462829589843750e+02,-1.255060424804687500e+02,6.310027313232421875e+01,-4.265756607055664062e+01
1.003999948501586914e+00,2.000000000000000000e+00,1.166714191436767578e+01,1.696400403976440430e+00,3.377958297729492188e+01,-1.203356781005859375e+02,9.079539489746093750e+01,-7.042758178710937500e+01,3.753238677978515625e+01,-1.228258419036865234e+01,-1.093582305908203125e+02,-1.255620880126953125e+02,6.309624481201171875e+01,-4.268611526489257812e+01
1.008000016212463379e+00,2.000000000000000000e+00,1.169549274444580078e+01,1.650248765945434570e+00,3.377288055419921875e+01,-1.203898162841796875e+02,9.079741668701171875e+01,-7.045139312744140625e+01,3.746116638183593750e+01,-1.227526664733886719e+01,-1.093701782226562500e+02,-1.256181335449218750e+02,6.309221267700195312e+01,-4.271466445922851562e+01
1.011999964714050293e+00,2.000000000000000000e+00,1.172384166717529297e+01,1.604098439216613770e+00,3.376618194580078125e+01,-1.204439392089843750e+02,9.079943084716796875e+01,-7.047520446777343750e+01,3.738995361328125000e+01,-1.226795005798339844e+01,-1.093821258544921875e+02,-1.256741867065429688e+02,6.308818435668945312e+01,-4.274320983886718750e+01
1.016000032424926758e+00,2.000000000000000000e+00,1.175218963623046875e+01,1.557949662208557129e+00,3.375947952270507812e+01,-1.204980773925781250e+02,9.080144500732421875e+01,-7.049901580810546875e+01,3.731873703002929688e+01,-1.226063251495361328e+01,-1.093940734863281250e+02,-1.257302322387695312e+02,6.308415222167968750e+01,-4.277175903320312500e+01
1.019999980926513672e+00,2.000000000000000000e+00,1.178053665161132812e+01,1.511802554130554199e+00,3.375278091430664062e+01,-1.205522003173828125e+02,9.080345916748046875e+01,-7.052282714843750000e+01,3.724752807617187500e+01,-1.225331592559814453e+01,-1.094060211181640625e+02,-1.257862777709960938e+02,6.308011627197265625e+01,-4.280030441284179688e+01
1.024000048637390137e+00,2.000000000000000000e+00,1.180888271331787109e+01,1.465657353401184082e+00,3.374607849121093750e+01,-1.206063308715820312e+02,9.080547332763671875e+01,-7.054663085937500000e+01,3.717631912231445312e+01,-1.224600028991699219e+01,-1.094179687500000000e+02,-1.258423156738281250e+02,6.307608795166015625e+01,-4.282885360717773438e+01
1.026999950408935547e+00,2.000000000000000000e+00,1.183722686767578125e+01,1.419513940811157227e+00,3.373937988281250000e+01,-1.206604537963867188e+02,9.080748748779296875e+01,-7.057043457031250000e+01,3.710511398315429688e+01,-1.223868370056152344e+01,-1.094299163818359375e+02,-1.258983612060546875e+02,6.307205581665039062e+01,-4.285739517211914062e+01
1.031999945640563965e+00,2.000000000000000000e+00,1.186557006835937500e+01,1.373372554779052734e+00,3.373268127441406250e+01,-1.207145767211914062e+02,9.080950164794921875e+01,-7.059423828125000000e+01,3.703391265869140625e+01,-1.223136806488037109e+01,-1.094418563842773438e+02,-1.259543991088867188e+02,6.306802749633789062e+01,-4.288594055175781250e+01
1.036000013351440430e+00,2.000000000000000000e+00,1.189391231536865234e+01,1.327232837677001953e+00,3.372598266601562500e+01,-1.207686996459960938e+02,9.081151580810546875e+01,-7.061804199218750000e+01,3.696271514892578125e+01,-1.222405242919921875e+01,-1.094538040161132812e+02,-1.260104370117187500e+02,6.306399917602539062e+01,-4.291447830200195312e+01
1.039999961853027344e+00,2.000000000000000000e+00,1.192225360870361328e+01,1.281095147132873535e+00,3.371928405761718750e+01,-1.208228073120117188e+02,9.081353759765625000e+01,-7.064184570312500000e+01,3.689152145385742188e+01,-1.221673774719238281e+01,-1.094657516479492188e+02,-1.260664672851562500e+02,6.305996704101562500e+01,-4.294301986694335938e+01
1.044000029563903809e+00,2.000000000000000000e+00,1.195059299468994141e+01,1.234959125518798828e+00,3.371258544921875000e+01,-1.208769302368164062e+02,9.081555175781250000e+01,-7.066564941406250000e+01,3.682032775878906250e+01,-1.220942306518554688e+01,-1.094776916503906250e+02,-1.261225051879882812e+02,6.305593872070312500e+01,-4.297155761718750000e+01
1.047999978065490723e+00,2.000000000000000000e+00,1.197893142700195312e+01,1.188825011253356934e+00,3.370588684082031250e+01,-1.209310379028320312e+02,9.081757354736328125e+01,-7.068945312500000000e+01,3.674913787841796875e+01,-1.220210838317871094e+01,-1.094896392822265625e+02,-1.261785278320312500e+02,6.305191040039062500e+01,-4.300009536743164062e+01
1.052000045776367188e+00,2.000000000000000000e+00,1.200726985931396484e+01,1.142692685127258301e+00,3.369919204711914062e+01,-1.209851531982421875e+02,9.081958770751953125e+01,-7.071324920654296875e+01,3.667795181274414062e+01,-1.219479370117187500e+01,-1.095015792846679688e+02,-1.262345504760742188e+02,6.304787826538085938e+01,-4.302863311767578125e+01
1.054999947547912598e+00,2.000000000000000000e+00,1.203560638427734375e+01,1.096562266349792480e+00,3.369249343872070312e+01,-1.210392608642578125e+02,9.082160186767578125e+01,-7.073705291748046875e+01,3.660676574707031250e+01,-1.218748092651367188e+01,-1.095135269165039062e+02,-1.262905807495117188e+02,6.304384994506835938e+01,-4.305716705322265625e+01
1.059999942779541016e+00,2.000000000000000000e+00,1.206394195556640625e+01,1.050433516502380371e+00,3.368579483032226562e+01,-1.210933685302734375e+02,9.082361602783203125e+01,-7.076084899902343750e+01,3.653558349609375000e+01,-1.218016624450683594e+01,-1.095254669189453125e+02,-1.263466033935546875e+02,6.303982543945312500e+01,-4.308570480346679688e+01
1.064000010490417480e+00,2.000000000000000000e+00,1.209227657318115234e+01,1.004306554794311523e+00,3.367909622192382812e+01,-1.211474761962890625e+02,9.082563018798828125e+01,-7.078465270996093750e+01,3.646440505981445312e+01,-1.217285251617431641e+01,-1.095374145507812500e+02,-1.264026260375976562e+02,6.303579711914062500e+01,-4.311423873901367188e+01
1.067999958992004395e+00,2.000000000000000000e+00,1.212060928344726562e+01,9.581813216209411621e-01,3.367240142822265625e+01,-1.212015838623046875e+02,9.082764434814453125e+01,-7.080844879150390625e+01,3.639323043823242188e+01,-1.216554069519042969e+01,-1.095493469238281250e+02,-1.264586334228515625e+02,6.303176498413085938e+01,-4.314277267456054688e+01
1.072000026702880859e+00,2.000000000000000000e+00,1.214894199371337891e+01,9.120578765869140625e-01,3.366570663452148438e+01,-1.212556838989257812e+02,9.082965850830078125e+01,-7.083224487304687500e+01,3.632205581665039062e+01,-1.215822696685791016e+01,-1.095612945556640625e+02,-1.265146560668945312e+02,6.302773666381835938e+01,-4.317129898071289062e+01
1.075999975204467773e+00,2.000000000000000000e+00,1.217727279663085938e+01,8.659362196922302246e-01,3.365900802612304688e+01,-1.213097763061523438e+02,9.083167266845703125e+01,-7.085603332519531250e+01,3.625088500976562500e+01,-1.215091419219970703e+01,-1.095732345581054688e+02,-1.265706634521484375e+02,6.302370834350585938e+01,-4.319983291625976562e+01
1.080000042915344238e+00,2.000000000000000000e+00,1.220560264587402344e+01,8.198162317276000977e-01,3.365231323242187500e+01,-1.213638687133789062e+02,9.083368682861328125e+01,-7.087982940673828125e+01,3.617971801757812500e+01,-1.214360237121582031e+01,-1.095851745605468750e+02,-1.266266708374023438e+02,6.301968383789062500e+01,-4.322836303710937500e+01
1.083999991416931152e+00,2.000000000000000000e+00,1.223393154144287109e+01,7.736980319023132324e-01,3.364561843872070312e+01,-1.214179687500000000e+02,9.083570098876953125e+01,-7.090362548828125000e+01,3.610855102539062500e+01,-1.213629055023193359e+01,-1.095971145629882812e+02,-1.266826858520507812e+02,6.301565551757812500e+01,-4.325688934326171875e+01
1.088000059127807617e+00,2.000000000000000000e+00,1.226226043701171875e+01,7.275815606117248535e-01,3.363891983032226562e+01,-1.214720611572265625e+02,9.083772277832031250e+01,-7.092741394042968750e+01,3.603739166259765625e+01,-1.212897968292236328e+01,-1.096090545654296875e+02,-1.267386932373046875e+02,6.301162338256835938e+01,-4.328541564941406250e+01
1.090999960899353027e+00,2.000000000000000000e+00,1.229058742523193359e+01,6.814666986465454102e-01,3.363222503662109375e+01,-1.215261535644531250e+02,9.083973693847656250e+01,-7.095121002197265625e+01,3.596622848510742188e+01,-1.212166786193847656e+01,-1.096209945678710938e+02,-1.267946929931640625e+02,6.300759506225585938e+01,-4.331394195556640625e+01
1.095999956130981445e+00,2.000000000000000000e+00,1.231891345977783203e+01,6.353536248207092285e-01,3.362553024291992188e+01,-1.215802383422851562e+02,9.084174346923828125e+01,-7.097500610351562500e+01,3.589506912231445312e+01,-1.211435604095458984e+01,-1.096329345703125000e+02,-1.268507003784179688e+02,6.300357055664062500e+01,-4.334246826171875000e+01
1.100000023841857910e+00,2.000000000000000000e+00,1.234723758697509766e+01,5.892421603202819824e-01,3.361883544921875000e+01,-1.216343307495117188e+02,9.084375762939453125e+01,-7.099879455566406250e+01,3.582391738891601562e+01,-1.210704517364501953e+01,-1.096448745727539062e+02,-1.269066925048828125e+02,6.299954223632812500e+01,-4.337099075317382812e+01
1.103999972343444824e+00,2.000000000000000000e+00,1.237556171417236328e+01,5.431324243545532227e-01,3.361214065551757812e+01,-1.216884155273437500e+02,9.084577178955078125e+01,-7.102258300781250000e+01,3.575276184082031250e+01,-1.209973526000976562e+01,-1.096568069458007812e+02,-1.269626998901367188e+02,6.299551010131835938e+01,-4.339951324462890625e+01
1.108000040054321289e+00,2.000000000000000000e+00,1.240388488769531250e+01,4.970243275165557861e-01,3.360544586181640625e+01,-1.217424926757812500e+02,9.084778594970703125e+01,-7.104636383056640625e+01,3.568161392211914062e+01,-1.209242439270019531e+01,-1.096687393188476562e+02,-1.270186920166015625e+02,6.299148941040039062e+01,-4.342803573608398438e+01
1.111999988555908203e+00,2.000000000000000000e+00,1.243220615386962891e+01,4.509178400039672852e-01,3.359875106811523438e+01,-1.217965774536132812e+02,9.084980010986328125e+01,-7.107015228271484375e+01,3.561046600341796875e+01,-1.208511447906494141e+01,-1.096806793212890625e+02,-1.270746841430664062e+02,6.298745727539062500e+01,-4.345655822753906250e+01
