rpiRobotics/ARM-21-02-F-19-Robot-Motion-Program/data_performance_abb/curve_2/dual_arm/diffevo_pose6/grad_result/sim/dual_iteration_0.csv
timestamp,cmd_num,J1,J2,J3,J4,J5,J6,J1_2,J2_2,J3_2,J4_2,J5_2,J6_2
0.000000000000000000e+00,-1.000000000000000000e+00,5.584928989410400391e+00,1.204804992675781250e+01,3.481150817871093750e+01,-1.082173309326171875e+02,9.040695953369140625e+01,-6.521485137939453125e+01,5.345922088623046875e+01,-1.511929798126220703e+01,-1.044288330078125000e+02,-1.143801574707031250e+02,6.418356323242187500e+01,-3.528071212768554688e+01
2.000000094994902611e-03,-1.000000000000000000e+00,5.584928989410400391e+00,1.204804992675781250e+01,3.481150817871093750e+01,-1.082173309326171875e+02,9.040695953369140625e+01,-6.521485137939453125e+01,5.345922088623046875e+01,-1.511929798126220703e+01,-1.044288330078125000e+02,-1.143801574707031250e+02,6.418356323242187500e+01,-3.528071212768554688e+01
4.000000189989805222e-03,-1.000000000000000000e+00,5.584928989410400391e+00,1.204804992675781250e+01,3.481150817871093750e+01,-1.082173309326171875e+02,9.040695953369140625e+01,-6.521485137939453125e+01,5.345922088623046875e+01,-1.511929798126220703e+01,-1.044288330078125000e+02,-1.143801574707031250e+02,6.418356323242187500e+01,-3.528071212768554688e+01
8.000000379979610443e-03,-1.000000000000000000e+00,5.584928989410400391e+00,1.204804992675781250e+01,3.481150817871093750e+01,-1.082173309326171875e+02,9.040695953369140625e+01,-6.521485137939453125e+01,5.345922088623046875e+01,-1.511929798126220703e+01,-1.044288330078125000e+02,-1.143801574707031250e+02,6.418356323242187500e+01,-3.528071212768554688e+01
1.099999994039535522e-02,-1.000000000000000000e+00,5.584928989410400391e+00,1.204804992675781250e+01,3.481150817871093750e+01,-1.082173309326171875e+02,9.040695953369140625e+01,-6.521485137939453125e+01,5.345922088623046875e+01,-1.511929798126220703e+01,-1.044288330078125000e+02,-1.143801574707031250e+02,6.418356323242187500e+01,-3.528071212768554688e+01
1.600000075995922089e-02,-1.000000000000000000e+00,5.584928989410400391e+00,1.204804992675781250e+01,3.481150817871093750e+01,-1.082173309326171875e+02,9.040695953369140625e+01,-6.521485137939453125e+01,5.345922088623046875e+01,-1.511929798126220703e+01,-1.044288330078125000e+02,-1.143801574707031250e+02,6.418356323242187500e+01,-3.528071212768554688e+01
1.999999955296516418e-02,-1.000000000000000000e+00,5.584928989410400391e+00,1.204804992675781250e+01,3.481150817871093750e+01,-1.082173309326171875e+02,9.040695953369140625e+01,-6.521485137939453125e+01,5.345922088623046875e+01,-1.511929798126220703e+01,-1.044288330078125000e+02,-1.143801574707031250e+02,6.418356323242187500e+01,-3.528071212768554688e+01
2.400000020861625671e-02,-1.000000000000000000e+00,5.584928989410400391e+00,1.204804992675781250e+01,3.481150817871093750e+01,-1.082173309326171875e+02,9.040695953369140625e+01,-6.521485137939453125e+01,5.345922088623046875e+01,-1.511929798126220703e+01,-1.044288330078125000e+02,-1.143801574707031250e+02,6.418356323242187500e+01,-3.528071212768554688e+01
2.800000086426734924e-02,-1.000000000000000000e+00,5.584928989410400391e+00,1.204804992675781250e+01,3.481150817871093750e+01,-1.082173309326171875e+02,9.040695953369140625e+01,-6.521485137939453125e+01,5.345922088623046875e+01,-1.511929798126220703e+01,-1.044288330078125000e+02,-1.143801574707031250e+02,6.418356323242187500e+01,-3.528071212768554688e+01
3.200000151991844177e-02,2.000000000000000000e+00,5.584928989410400391e+00,1.204804992675781250e+01,3.481150817871093750e+01,-1.082173309326171875e+02,9.040695953369140625e+01,-6.521485137939453125e+01,5.345922088623046875e+01,-1.511929798126220703e+01,-1.044288330078125000e+02,-1.143801574707031250e+02,6.418356323242187500e+01,-3.528071212768554688e+01
3.700000047683715820e-02,2.000000000000000000e+00,5.584928989410400391e+00,1.204804992675781250e+01,3.481150817871093750e+01,-1.082173309326171875e+02,9.040695953369140625e+01,-6.521485137939453125e+01,5.345922088623046875e+01,-1.511929798126220703e+01,-1.044288330078125000e+02,-1.143801574707031250e+02,6.418356323242187500e+01,-3.528071212768554688e+01
4.300000146031379700e-02,2.000000000000000000e+00,5.584928989410400391e+00,1.204804992675781250e+01,3.481150817871093750e+01,-1.082173309326171875e+02,9.040695953369140625e+01,-6.521485137939453125e+01,5.345922088623046875e+01,-1.511929798126220703e+01,-1.044288330078125000e+02,-1.143801574707031250e+02,6.418356323242187500e+01,-3.528071212768554688e+01
4.399999976158142090e-02,2.000000000000000000e+00,5.584928989410400391e+00,1.204804992675781250e+01,3.481150817871093750e+01,-1.082173309326171875e+02,9.040695953369140625e+01,-6.521485137939453125e+01,5.345922088623046875e+01,-1.511929798126220703e+01,-1.044288330078125000e+02,-1.143801574707031250e+02,6.418356323242187500e+01,-3.528071212768554688e+01
5.000000074505805969e-02,2.000000000000000000e+00,5.584928989410400391e+00,1.204804992675781250e+01,3.481150817871093750e+01,-1.082173309326171875e+02,9.040695953369140625e+01,-6.521485137939453125e+01,5.345922088623046875e+01,-1.511929798126220703e+01,-1.044288330078125000e+02,-1.143801574707031250e+02,6.418356323242187500e+01,-3.528071212768554688e+01
5.200000107288360596e-02,2.000000000000000000e+00,5.584928989410400391e+00,1.204804992675781250e+01,3.481150817871093750e+01,-1.082173309326171875e+02,9.040695953369140625e+01,-6.521485137939453125e+01,5.345922088623046875e+01,-1.511929798126220703e+01,-1.044288330078125000e+02,-1.143801574707031250e+02,6.418356323242187500e+01,-3.528071212768554688e+01
5.600000172853469849e-02,2.000000000000000000e+00,5.584928989410400391e+00,1.204804992675781250e+01,3.481150817871093750e+01,-1.082173309326171875e+02,9.040695953369140625e+01,-6.521485137939453125e+01,5.345922088623046875e+01,-1.511929798126220703e+01,-1.044288330078125000e+02,-1.143801574707031250e+02,6.418356323242187500e+01,-3.528071212768554688e+01
5.999999865889549255e-02,2.000000000000000000e+00,5.584928989410400391e+00,1.204804992675781250e+01,3.481150817871093750e+01,-1.082173309326171875e+02,9.040695953369140625e+01,-6.521485137939453125e+01,5.345922088623046875e+01,-1.511929798126220703e+01,-1.044288330078125000e+02,-1.143801574707031250e+02,6.418356323242187500e+01,-3.528071212768554688e+01
6.400000303983688354e-02,2.000000000000000000e+00,5.584928989410400391e+00,1.204804992675781250e+01,3.481150817871093750e+01,-1.082173309326171875e+02,9.040695953369140625e+01,-6.521485137939453125e+01,5.345922088623046875e+01,-1.511929798126220703e+01,-1.044288330078125000e+02,-1.143801574707031250e+02,6.418356323242187500e+01,-3.528071212768554688e+01
6.800000369548797607e-02,2.000000000000000000e+00,5.584928989410400391e+00,1.204804992675781250e+01,3.481150817871093750e+01,-1.082173309326171875e+02,9.040695953369140625e+01,-6.521485137939453125e+01,5.345922088623046875e+01,-1.511929798126220703e+01,-1.044288330078125000e+02,-1.143801574707031250e+02,6.418356323242187500e+01,-3.528071212768554688e+01
7.199999690055847168e-02,2.000000000000000000e+00,5.584928989410400391e+00,1.204804992675781250e+01,3.481150817871093750e+01,-1.082173309326171875e+02,9.040695953369140625e+01,-6.521485137939453125e+01,5.345922088623046875e+01,-1.511929798126220703e+01,-1.044288330078125000e+02,-1.143801574707031250e+02,6.418356323242187500e+01,-3.528071212768554688e+01
7.599999755620956421e-02,2.000000000000000000e+00,5.584959030151367188e+00,1.204802608489990234e+01,3.481150817871093750e+01,-1.082173309326171875e+02,9.040695953369140625e+01,-6.521485137939453125e+01,5.345922088623046875e+01,-1.511929798126220703e+01,-1.044288330078125000e+02,-1.143801574707031250e+02,6.418356323242187500e+01,-3.528071212768554688e+01
7.999999821186065674e-02,2.000000000000000000e+00,5.585141181945800781e+00,1.204787921905517578e+01,3.481151199340820312e+01,-1.082173461914062500e+02,9.040696716308593750e+01,-6.521485900878906250e+01,5.345922088623046875e+01,-1.511929798126220703e+01,-1.044288330078125000e+02,-1.143801574707031250e+02,6.418356323242187500e+01,-3.528071212768554688e+01
8.399999886751174927e-02,2.000000000000000000e+00,5.585674762725830078e+00,1.204742622375488281e+01,3.481151962280273438e+01,-1.082173843383789062e+02,9.040698242187500000e+01,-6.521486663818359375e+01,5.345922088623046875e+01,-1.511929798126220703e+01,-1.044288330078125000e+02,-1.143801574707031250e+02,6.418356323242187500e+01,-3.528071212768554688e+01
8.799999952316284180e-02,2.000000000000000000e+00,5.586744785308837891e+00,1.204645729064941406e+01,3.481153488159179688e+01,-1.082174835205078125e+02,9.040701293945312500e+01,-6.521489715576171875e+01,5.345918655395507812e+01,-1.511930179595947266e+01,-1.044288330078125000e+02,-1.143801574707031250e+02,6.418356323242187500e+01,-3.528071212768554688e+01
9.200000017881393433e-02,2.000000000000000000e+00,5.588436603546142578e+00,1.204480838775634766e+01,3.481155014038085938e+01,-1.082177200317382812e+02,9.040708160400390625e+01,-6.521498107910156250e+01,5.345898056030273438e+01,-1.511931705474853516e+01,-1.044287948608398438e+02,-1.143801727294921875e+02,6.418355560302734375e+01,-3.528071594238281250e+01
9.600000083446502686e-02,2.000000000000000000e+00,5.590770244598388672e+00,1.204235458374023438e+01,3.481155014038085938e+01,-1.082182083129882812e+02,9.040717315673828125e+01,-6.521516418457031250e+01,5.345828628540039062e+01,-1.511936283111572266e+01,-1.044286727905273438e+02,-1.143802337646484375e+02,6.418354034423828125e+01,-3.528074264526367188e+01
1.000000014901161194e-01,2.000000000000000000e+00,5.593768596649169922e+00,1.203896331787109375e+01,3.481151962280273438e+01,-1.082191009521484375e+02,9.040730285644531250e+01,-6.521552276611328125e+01,5.345672607421875000e+01,-1.511945533752441406e+01,-1.044284286499023438e+02,-1.143804244995117188e+02,6.418351745605468750e+01,-3.528081893920898438e+01
1.040000021457672119e-01,2.000000000000000000e+00,5.597454547882080078e+00,1.203447628021240234e+01,3.481143951416015625e+01,-1.082205886840820312e+02,9.040747070312500000e+01,-6.521612548828125000e+01,5.345392227172851562e+01,-1.511959075927734375e+01,-1.044280548095703125e+02,-1.143808822631835938e+02,6.418344879150390625e+01,-3.528102874755859375e+01
1.080000028014183044e-01,2.000000000000000000e+00,5.601851463317871094e+00,1.202870368957519531e+01,3.481127548217773438e+01,-1.082229232788085938e+02,9.040769958496093750e+01,-6.521708679199218750e+01,5.344952774047851562e+01,-1.511973857879638672e+01,-1.044275894165039062e+02,-1.143818511962890625e+02,6.418333435058593750e+01,-3.528148269653320312e+01
1.120000034570693970e-01,2.000000000000000000e+00,5.607037067413330078e+00,1.202141952514648438e+01,3.481099700927734375e+01,-1.082263793945312500e+02,9.040797424316406250e+01,-6.521852111816406250e+01,5.344317245483398438e+01,-1.511985683441162109e+01,-1.044271087646484375e+02,-1.143836517333984375e+02,6.418315124511718750e+01,-3.528234100341796875e+01
1.159999966621398926e-01,2.000000000000000000e+00,5.613177776336669922e+00,1.201235485076904297e+01,3.481056594848632812e+01,-1.082312850952148438e+02,9.040832519531250000e+01,-6.522058105468750000e+01,5.343450546264648438e+01,-1.511987018585205078e+01,-1.044267578125000000e+02,-1.143866729736328125e+02,6.418286132812500000e+01,-3.528381347656250000e+01
1.199999973177909851e-01,2.000000000000000000e+00,5.620498180389404297e+00,1.200119972229003906e+01,3.480993652343750000e+01,-1.082379989624023438e+02,9.040875244140625000e+01,-6.522342681884765625e+01,5.342324447631835938e+01,-1.511968803405761719e+01,-1.044266891479492188e+02,-1.143914031982421875e+02,6.418244171142578125e+01,-3.528613281250000000e+01
1.239999979734420776e-01,2.000000000000000000e+00,5.629166603088378906e+00,1.198770809173583984e+01,3.480906295776367188e+01,-1.082469329833984375e+02,9.040927886962890625e+01,-6.522721862792968750e+01,5.340905761718750000e+01,-1.511920833587646484e+01,-1.044271087646484375e+02,-1.143983535766601562e+02,6.418186187744140625e+01,-3.528957748413085938e+01
1.280000060796737671e-01,2.000000000000000000e+00,5.639158248901367188e+00,1.197189617156982422e+01,3.480788421630859375e+01,-1.082585067749023438e+02,9.040988159179687500e+01,-6.523217010498046875e+01,5.339150619506835938e+01,-1.511833381652832031e+01,-1.044281921386718750e+02,-1.144080581665039062e+02,6.418106842041015625e+01,-3.529440307617187500e+01
1.309999972581863403e-01,2.000000000000000000e+00,5.650264739990234375e+00,1.195406055450439453e+01,3.480633544921875000e+01,-1.082731399536132812e+02,9.041057586669921875e+01,-6.523843383789062500e+01,5.337000274658203125e+01,-1.511698341369628906e+01,-1.044300689697265625e+02,-1.144210662841796875e+02,6.418004608154296875e+01,-3.530088806152343750e+01
1.360000073909759521e-01,2.000000000000000000e+00,5.662259578704833984e+00,1.193453788757324219e+01,3.480435562133789062e+01,-1.082911758422851562e+02,9.041133880615234375e+01,-6.524620819091796875e+01,5.334399795532226562e+01,-1.511506843566894531e+01,-1.044329071044921875e+02,-1.144378967285156250e+02,6.417873382568359375e+01,-3.530930328369140625e+01
1.389999985694885254e-01,2.000000000000000000e+00,5.675059318542480469e+00,1.191346073150634766e+01,3.480189895629882812e+01,-1.083129196166992188e+02,9.041215515136718750e+01,-6.525560760498046875e+01,5.331327819824218750e+01,-1.511249256134033203e+01,-1.044368820190429688e+02,-1.144590377807617188e+02,6.417711639404296875e+01,-3.531989669799804688e+01
1.439999938011169434e-01,2.000000000000000000e+00,5.688699722290039062e+00,1.189077854156494141e+01,3.479893875122070312e+01,-1.083385543823242188e+02,9.041304779052734375e+01,-6.526672363281250000e+01,5.327806854248046875e+01,-1.510912609100341797e+01,-1.044422760009765625e+02,-1.144849166870117188e+02,6.417517089843750000e+01,-3.533288192749023438e+01
1.480000019073486328e-01,2.000000000000000000e+00,5.703253269195556641e+00,1.186639213562011719e+01,3.479547882080078125e+01,-1.083681335449218750e+02,9.041400146484375000e+01,-6.527957153320312500e+01,5.323880004882812500e+01,-1.510486984252929688e+01,-1.044493026733398438e+02,-1.145157928466796875e+02,6.417287445068359375e+01,-3.534841156005859375e+01
1.519999951124191284e-01,2.000000000000000000e+00,5.718825817108154297e+00,1.184014225006103516e+01,3.479151916503906250e+01,-1.084015884399414062e+02,9.041502380371093750e+01,-6.529411315917968750e+01,5.319586944580078125e+01,-1.509966468811035156e+01,-1.044580993652343750e+02,-1.145517578125000000e+02,6.417023468017578125e+01,-3.536652374267578125e+01
1.560000032186508179e-01,2.000000000000000000e+00,5.735551357269287109e+00,1.181182479858398438e+01,3.478709793090820312e+01,-1.084387664794921875e+02,9.041613769531250000e+01,-6.531029510498046875e+01,5.314961624145507812e+01,-1.509352493286132812e+01,-1.044686508178710938e+02,-1.145926361083984375e+02,6.416728210449218750e+01,-3.538714218139648438e+01
1.599999964237213135e-01,2.000000000000000000e+00,5.753506183624267578e+00,1.178131294250488281e+01,3.478224945068359375e+01,-1.084794311523437500e+02,9.041733551025390625e+01,-6.532799530029296875e+01,5.310038375854492188e+01,-1.508652019500732422e+01,-1.044808425903320312e+02,-1.146380462646484375e+02,6.416401672363281250e+01,-3.541006469726562500e+01
1.640000045299530029e-01,2.000000000000000000e+00,5.772623538970947266e+00,1.174868774414062500e+01,3.477701950073242188e+01,-1.085232467651367188e+02,9.041861724853515625e+01,-6.534706878662109375e+01,5.304824066162109375e+01,-1.507880592346191406e+01,-1.044943695068359375e+02,-1.146873321533203125e+02,6.416048431396484375e+01,-3.543495941162109375e+01
1.679999977350234985e-01,2.000000000000000000e+00,5.792693614959716797e+00,1.171421146392822266e+01,3.477144622802734375e+01,-1.085698547363281250e+02,9.041996765136718750e+01,-6.536737060546875000e+01,5.299285507202148438e+01,-1.507060050964355469e+01,-1.045087661743164062e+02,-1.147397613525390625e+02,6.415673065185546875e+01,-3.546143722534179688e+01
1.720000058412551880e-01,2.000000000000000000e+00,5.813480377197265625e+00,1.167815208435058594e+01,3.476557922363281250e+01,-1.086188583374023438e+02,9.042138671875000000e+01,-6.538871765136718750e+01,5.293387603759765625e+01,-1.506213951110839844e+01,-1.045235671997070312e+02,-1.147945022583007812e+02,6.415280151367187500e+01,-3.548907470703125000e+01
1.759999990463256836e-01,2.000000000000000000e+00,5.834907054901123047e+00,1.164059257507324219e+01,3.475947570800781250e+01,-1.086698303222656250e+02,9.042285919189453125e+01,-6.541091156005859375e+01,5.287137985229492188e+01,-1.505360031127929688e+01,-1.045384063720703125e+02,-1.148508377075195312e+02,6.414872741699218750e+01,-3.551749420166015625e+01
1.800000071525573730e-01,2.000000000000000000e+00,5.857125759124755859e+00,1.160142040252685547e+01,3.475320053100585938e+01,-1.087223358154296875e+02,9.042440032958984375e+01,-6.543376922607421875e+01,5.280584335327148438e+01,-1.504509544372558594e+01,-1.045530624389648438e+02,-1.149081268310546875e+02,6.414455413818359375e+01,-3.554637908935546875e+01
1.840000003576278687e-01,2.000000000000000000e+00,5.880367755889892578e+00,1.156050586700439453e+01,3.474681472778320312e+01,-1.087759704589843750e+02,9.042599487304687500e+01,-6.545710754394531250e+01,5.273786544799804688e+01,-1.503667545318603516e+01,-1.045674591064453125e+02,-1.149659500122070312e+02,6.414032745361328125e+01,-3.557551193237304688e+01
1.879999935626983643e-01,2.000000000000000000e+00,5.904740333557128906e+00,1.151788425445556641e+01,3.474036788940429688e+01,-1.088303604125976562e+02,9.042766571044921875e+01,-6.548075866699218750e+01,5.266809082031250000e+01,-1.502835750579833984e+01,-1.045815887451171875e+02,-1.150240325927734375e+02,6.413606262207031250e+01,-3.560475540161132812e+01
1.920000016689300537e-01,2.000000000000000000e+00,5.930230140686035156e+00,1.147372722625732422e+01,3.473389434814453125e+01,-1.088852310180664062e+02,9.042938995361328125e+01,-6.550460052490234375e+01,5.259722518920898438e+01,-1.502011394500732422e+01,-1.045955200195312500e+02,-1.150821838378906250e+02,6.413177490234375000e+01,-3.563402938842773438e+01
1.959999948740005493e-01,2.000000000000000000e+00,5.956786155700683594e+00,1.142827033996582031e+01,3.472742462158203125e+01,-1.089403610229492188e+02,9.043116760253906250e+01,-6.552854156494140625e+01,5.252589416503906250e+01,-1.501190757751464844e+01,-1.046093597412109375e+02,-1.151403656005859375e+02,6.412748718261718750e+01,-3.566331100463867188e+01
2.000000029802322388e-01,2.000000000000000000e+00,5.984256744384765625e+00,1.138182640075683594e+01,3.472095870971679688e+01,-1.089956207275390625e+02,9.043297576904296875e+01,-6.555252838134765625e+01,5.245445632934570312e+01,-1.500371074676513672e+01,-1.046231765747070312e+02,-1.151985473632812500e+02,6.412319946289062500e+01,-3.569259262084960938e+01
2.039999961853027344e-01,2.000000000000000000e+00,6.012339115142822266e+00,1.133479595184326172e+01,3.471450424194335938e+01,-1.090509262084960938e+02,9.043481445312500000e+01,-6.557653045654296875e+01,5.238301467895507812e+01,-1.499551677703857422e+01,-1.046369934082031250e+02,-1.152567214965820312e+02,6.411890411376953125e+01,-3.572187042236328125e+01
2.080000042915344238e-01,2.000000000000000000e+00,6.040692329406738281e+00,1.128752803802490234e+01,3.470805358886718750e+01,-1.091062393188476562e+02,9.043666076660156250e+01,-6.560052490234375000e+01,5.231158447265625000e+01,-1.498732185363769531e+01,-1.046508102416992188e+02,-1.153148880004882812e+02,6.411460876464843750e+01,-3.575114059448242188e+01
2.119999974966049194e-01,2.000000000000000000e+00,6.069106101989746094e+00,1.124021530151367188e+01,3.470160675048828125e+01,-1.091615447998046875e+02,9.043849945068359375e+01,-6.562452697753906250e+01,5.224016571044921875e+01,-1.497912883758544922e+01,-1.046646118164062500e+02,-1.153730468750000000e+02,6.411032104492187500e+01,-3.578041076660156250e+01
2.160000056028366089e-01,2.000000000000000000e+00,6.097519397735595703e+00,1.119290542602539062e+01,3.469516372680664062e+01,-1.092168502807617188e+02,9.044034576416015625e+01,-6.564852142333984375e+01,5.216875457763671875e+01,-1.497093772888183594e+01,-1.046784210205078125e+02,-1.154311981201171875e+02,6.410603332519531250e+01,-3.580967330932617188e+01
2.199999988079071045e-01,2.000000000000000000e+00,6.125929832458496094e+00,1.114560031890869141e+01,3.468871307373046875e+01,-1.092721481323242188e+02,9.044219207763671875e+01,-6.567250823974609375e+01,5.209735107421875000e+01,-1.496274662017822266e+01,-1.046922225952148438e+02,-1.154893493652343750e+02,6.410174560546875000e+01,-3.583893966674804688e+01
2.240000069141387939e-01,2.000000000000000000e+00,6.154336929321289062e+00,1.109830093383789062e+01,3.468227005004882812e+01,-1.093274383544921875e+02,9.044403076171875000e+01,-6.569649505615234375e+01,5.202595520019531250e+01,-1.495455741882324219e+01,-1.047060394287109375e+02,-1.155474700927734375e+02,6.409745025634765625e+01,-3.586819458007812500e+01
2.280000001192092896e-01,2.000000000000000000e+00,6.182740688323974609e+00,1.105100727081298828e+01,3.467582702636718750e+01,-1.093827209472656250e+02,9.044587707519531250e+01,-6.572048187255859375e+01,5.195456695556640625e+01,-1.494636821746826172e+01,-1.047198333740234375e+02,-1.156056137084960938e+02,6.409317016601562500e+01,-3.589745330810546875e+01
2.319999933242797852e-01,2.000000000000000000e+00,6.211141586303710938e+00,1.100371837615966797e+01,3.466938018798828125e+01,-1.094379959106445312e+02,9.044772338867187500e+01,-6.574446105957031250e+01,5.188318634033203125e+01,-1.493818092346191406e+01,-1.047336349487304688e+02,-1.156637344360351562e+02,6.408888244628906250e+01,-3.592670822143554688e+01
2.360000014305114746e-01,2.000000000000000000e+00,6.239539146423339844e+00,1.095643520355224609e+01,3.466293716430664062e+01,-1.094932708740234375e+02,9.044956970214843750e+01,-6.576844787597656250e+01,5.181181335449218750e+01,-1.492999267578125000e+01,-1.047474365234375000e+02,-1.157218475341796875e+02,6.408459472656250000e+01,-3.595595169067382812e+01
2.399999946355819702e-01,2.000000000000000000e+00,6.267933368682861328e+00,1.090915870666503906e+01,3.465649795532226562e+01,-1.095485305786132812e+02,9.045140838623046875e+01,-6.579242706298828125e+01,5.174045181274414062e+01,-1.492180728912353516e+01,-1.047612380981445312e+02,-1.157799606323242188e+02,6.408029937744140625e+01,-3.598519897460937500e+01
2.440000027418136597e-01,2.000000000000000000e+00,6.296324729919433594e+00,1.086188602447509766e+01,3.465005111694335938e+01,-1.096037902832031250e+02,9.045325469970703125e+01,-6.581639862060546875e+01,5.166909790039062500e+01,-1.491362285614013672e+01,-1.047750320434570312e+02,-1.158380661010742188e+02,6.407601928710937500e+01,-3.601443862915039062e+01
2.479999959468841553e-01,2.000000000000000000e+00,6.324712276458740234e+00,1.081461906433105469e+01,3.464361190795898438e+01,-1.096590347290039062e+02,9.045510101318359375e+01,-6.584037017822265625e+01,5.159774780273437500e+01,-1.490543842315673828e+01,-1.047888259887695312e+02,-1.158961639404296875e+02,6.407173156738281250e+01,-3.604368209838867188e+01
2.520000040531158447e-01,2.000000000000000000e+00,6.353096961975097656e+00,1.076735782623291016e+01,3.463717269897460938e+01,-1.097142868041992188e+02,9.045693969726562500e+01,-6.586434173583984375e+01,5.152641296386718750e+01,-1.489725399017333984e+01,-1.048026199340820312e+02,-1.159542541503906250e+02,6.406745147705078125e+01,-3.607291412353515625e+01
2.560000121593475342e-01,2.000000000000000000e+00,6.381478309631347656e+00,1.072010135650634766e+01,3.463073348999023438e+01,-1.097695236206054688e+02,9.045878601074218750e+01,-6.588829803466796875e+01,5.145508193969726562e+01,-1.488907146453857422e+01,-1.048164138793945312e+02,-1.160123367309570312e+02,6.406316375732421875e+01,-3.610214614868164062e+01
2.599999904632568359e-01,2.000000000000000000e+00,6.409856319427490234e+00,1.067285156250000000e+01,3.462429428100585938e+01,-1.098247604370117188e+02,9.046063232421875000e+01,-6.591226959228515625e+01,5.138375854492187500e+01,-1.488089084625244141e+01,-1.048302001953125000e+02,-1.160704193115234375e+02,6.405887603759765625e+01,-3.613137817382812500e+01
2.639999985694885254e-01,2.000000000000000000e+00,6.438231468200683594e+00,1.062560462951660156e+01,3.461785507202148438e+01,-1.098799819946289062e+02,9.046247863769531250e+01,-6.593622589111328125e+01,5.131244659423828125e+01,-1.487271022796630859e+01,-1.048439941406250000e+02,-1.161284866333007812e+02,6.405459594726562500e+01,-3.616060256958007812e+01
2.680000066757202148e-01,2.000000000000000000e+00,6.466603279113769531e+00,1.057836532592773438e+01,3.461141586303710938e+01,-1.099352035522460938e+02,9.046430969238281250e+01,-6.596018981933593750e+01,5.124113845825195312e+01,-1.486453056335449219e+01,-1.048577728271484375e+02,-1.161865615844726562e+02,6.405030822753906250e+01,-3.618982315063476562e+01
2.720000147819519043e-01,2.000000000000000000e+00,6.494972229003906250e+00,1.053112983703613281e+01,3.460498428344726562e+01,-1.099904174804687500e+02,9.046615600585937500e+01,-6.598414611816406250e+01,5.116983795166015625e+01,-1.485635185241699219e+01,-1.048715667724609375e+02,-1.162446136474609375e+02,6.404602813720703125e+01,-3.621904373168945312e+01
2.759999930858612061e-01,2.000000000000000000e+00,6.523337364196777344e+00,1.048390007019042969e+01,3.459854507446289062e+01,-1.100456237792968750e+02,9.046800231933593750e+01,-6.600809478759765625e+01,5.109854888916015625e+01,-1.484817409515380859e+01,-1.048853454589843750e+02,-1.163026580810546875e+02,6.404174804687500000e+01,-3.624825668334960938e+01
2.800000011920928955e-01,2.000000000000000000e+00,6.551699638366699219e+00,1.043667507171630859e+01,3.459210968017578125e+01,-1.101008300781250000e+02,9.046984863281250000e+01,-6.603205108642578125e+01,5.102726364135742188e+01,-1.483999633789062500e+01,-1.048991317749023438e+02,-1.163607177734375000e+02,6.403746032714843750e+01,-3.627746963500976562e+01
2.840000092983245850e-01,2.000000000000000000e+00,6.580059051513671875e+00,1.038945579528808594e+01,3.458567810058593750e+01,-1.101560211181640625e+02,9.047167968750000000e+01,-6.605599975585937500e+01,5.095598983764648438e+01,-1.483182048797607422e+01,-1.049129180908203125e+02,-1.164187469482421875e+02,6.403318023681640625e+01,-3.630668258666992188e+01
2.879999876022338867e-01,2.000000000000000000e+00,6.608415603637695312e+00,1.034224128723144531e+01,3.457924270629882812e+01,-1.102112197875976562e+02,9.047352600097656250e+01,-6.607994079589843750e+01,5.088471984863281250e+01,-1.482364463806152344e+01,-1.049266891479492188e+02,-1.164767913818359375e+02,6.402890777587890625e+01,-3.633588790893554688e+01
2.919999957084655762e-01,2.000000000000000000e+00,6.636768341064453125e+00,1.029503059387207031e+01,3.457281112670898438e+01,-1.102663955688476562e+02,9.047536468505859375e+01,-6.610388183593750000e+01,5.081345748901367188e+01,-1.481547069549560547e+01,-1.049404678344726562e+02,-1.165348205566406250e+02,6.402462005615234375e+01,-3.636509323120117188e+01
2.960000038146972656e-01,2.000000000000000000e+00,6.665118694305419922e+00,1.024782657623291016e+01,3.456637573242187500e+01,-1.103215789794921875e+02,9.047721099853515625e+01,-6.612782287597656250e+01,5.074220657348632812e+01,-1.480729675292968750e+01,-1.049542465209960938e+02,-1.165928344726562500e+02,6.402033996582031250e+01,-3.639429092407226562e+01
3.000000119209289551e-01,2.000000000000000000e+00,6.693465709686279297e+00,1.020062732696533203e+01,3.455994415283203125e+01,-1.103767471313476562e+02,9.047904968261718750e+01,-6.615176391601562500e+01,5.067095947265625000e+01,-1.479912471771240234e+01,-1.049680252075195312e+02,-1.166508483886718750e+02,6.401606750488281250e+01,-3.642348861694335938e+01
3.039999902248382568e-01,2.000000000000000000e+00,6.721809864044189453e+00,1.015343284606933594e+01,3.455351257324218750e+01,-1.104319152832031250e+02,9.048088836669921875e+01,-6.617569732666015625e+01,5.059972381591796875e+01,-1.479095268249511719e+01,-1.049817962646484375e+02,-1.167088470458984375e+02,6.401177978515625000e+01,-3.645268249511718750e+01
3.079999983310699463e-01,2.000000000000000000e+00,6.750151157379150391e+00,1.010624313354492188e+01,3.454708480834960938e+01,-1.104870758056640625e+02,9.048273468017578125e+01,-6.619963073730468750e+01,5.052849197387695312e+01,-1.478278160095214844e+01,-1.049955673217773438e+02,-1.167668685913085938e+02,6.400750732421875000e+01,-3.648187637329101562e+01
3.120000064373016357e-01,2.000000000000000000e+00,6.778489112854003906e+00,1.005905914306640625e+01,3.454065322875976562e+01,-1.105422363281250000e+02,9.048457336425781250e+01,-6.622356414794921875e+01,5.045727157592773438e+01,-1.477461242675781250e+01,-1.050093460083007812e+02,-1.168248519897460938e+02,6.400322723388671875e+01,-3.651106262207031250e+01
3.160000145435333252e-01,2.000000000000000000e+00,6.806823730468750000e+00,1.001187992095947266e+01,3.453422546386718750e+01,-1.105973815917968750e+02,9.048641204833984375e+01,-6.624748992919921875e+01,5.038605499267578125e+01,-1.476644420623779297e+01,-1.050231170654296875e+02,-1.168828430175781250e+02,6.399894714355468750e+01,-3.654024887084960938e+01
3.199999928474426270e-01,2.000000000000000000e+00,6.835155487060546875e+00,9.964705467224121094e+00,3.452779769897460938e+01,-1.106525192260742188e+02,9.048825073242187500e+01,-6.627141571044921875e+01,5.031484985351562500e+01,-1.475827503204345703e+01,-1.050368804931640625e+02,-1.169408340454101562e+02,6.399467086791992188e+01,-3.656942749023437500e+01
3.240000009536743164e-01,2.000000000000000000e+00,6.863484859466552734e+00,9.917536735534667969e+00,3.452136611938476562e+01,-1.107076644897460938e+02,9.049008941650390625e+01,-6.629533386230468750e+01,5.024365234375000000e+01,-1.475010776519775391e+01,-1.050506439208984375e+02,-1.169988021850585938e+02,6.399039840698242188e+01,-3.659860610961914062e+01
3.280000090599060059e-01,2.000000000000000000e+00,6.891810894012451172e+00,9.870371818542480469e+00,3.451494216918945312e+01,-1.107627944946289062e+02,9.049193572998046875e+01,-6.631925201416015625e+01,5.017245483398437500e+01,-1.474194049835205078e+01,-1.050644073486328125e+02,-1.170567779541015625e+02,6.398612213134765625e+01,-3.662778472900390625e+01
3.319999873638153076e-01,2.000000000000000000e+00,6.920134067535400391e+00,9.823212623596191406e+00,3.450851821899414062e+01,-1.108179244995117188e+02,9.049377441406250000e+01,-6.634317016601562500e+01,5.010127258300781250e+01,-1.473377513885498047e+01,-1.050781707763671875e+02,-1.171147384643554688e+02,6.398183822631835938e+01,-3.665695571899414062e+01
3.359999954700469971e-01,2.000000000000000000e+00,6.948453903198242188e+00,9.776057243347167969e+00,3.450209045410156250e+01,-1.108730392456054688e+02,9.049560546875000000e+01,-6.636708068847656250e+01,5.003009414672851562e+01,-1.472560977935791016e+01,-1.050919342041015625e+02,-1.171726989746093750e+02,6.397756195068359375e+01,-3.668612289428710938e+01
3.400000035762786865e-01,2.000000000000000000e+00,6.976771354675292969e+00,9.728907585144042969e+00,3.449566650390625000e+01,-1.109281539916992188e+02,9.049744415283203125e+01,-6.639099884033203125e+01,4.995892333984375000e+01,-1.471744632720947266e+01,-1.051056976318359375e+02,-1.172306671142578125e+02,6.397329330444335938e+01,-3.671529388427734375e+01
3.440000116825103760e-01,2.000000000000000000e+00,7.005085468292236328e+00,9.681763648986816406e+00,3.448924255371093750e+01,-1.109832687377929688e+02,9.049929046630859375e+01,-6.641490936279296875e+01,4.988776016235351562e+01,-1.470928382873535156e+01,-1.051194610595703125e+02,-1.172886123657226562e+02,6.396901702880859375e+01,-3.674445343017578125e+01
3.479999899864196777e-01,2.000000000000000000e+00,7.033396720886230469e+00,9.634623527526855469e+00,3.448281860351562500e+01,-1.110383682250976562e+02,9.050112915039062500e+01,-6.643881225585937500e+01,4.981660842895507812e+01,-1.470112133026123047e+01,-1.051332168579101562e+02,-1.173465423583984375e+02,6.396474456787109375e+01,-3.677361679077148438e+01
3.519999980926513672e-01,2.000000000000000000e+00,7.061705112457275391e+00,9.587488174438476562e+00,3.447639465332031250e+01,-1.110934677124023438e+02,9.050296783447265625e+01,-6.646272277832031250e+01,4.974545669555664062e+01,-1.469295978546142578e+01,-1.051469726562500000e+02,-1.174044952392578125e+02,6.396046829223632812e+01,-3.680277252197265625e+01
3.560000061988830566e-01,2.000000000000000000e+00,7.090011119842529297e+00,9.540357589721679688e+00,3.446997070312500000e+01,-1.111485595703125000e+02,9.050479888916015625e+01,-6.648662567138671875e+01,4.967431640625000000e+01,-1.468479919433593750e+01,-1.051607284545898438e+02,-1.174624099731445312e+02,6.395619964599609375e+01,-3.683192825317382812e+01
3.600000143051147461e-01,2.000000000000000000e+00,7.118313312530517578e+00,9.493231773376464844e+00,3.446355056762695312e+01,-1.112036437988281250e+02,9.050663757324218750e+01,-6.651052856445312500e+01,4.960318374633789062e+01,-1.467663860321044922e+01,-1.051744842529296875e+02,-1.175203475952148438e+02,6.395192337036132812e+01,-3.686108016967773438e+01
3.639999926090240479e-01,2.000000000000000000e+00,7.146613121032714844e+00,9.446112632751464844e+00,3.445713043212890625e+01,-1.112587203979492188e+02,9.050847625732421875e+01,-6.653442382812500000e+01,4.953205871582031250e+01,-1.466847991943359375e+01,-1.051882324218750000e+02,-1.175782546997070312e+02,6.394764709472656250e+01,-3.689022827148437500e+01
3.680000007152557373e-01,2.000000000000000000e+00,7.174909591674804688e+00,9.398996353149414062e+00,3.445071029663085938e+01,-1.113137969970703125e+02,9.051031494140625000e+01,-6.655831909179687500e+01,4.946093750000000000e+01,-1.466032123565673828e+01,-1.052019805908203125e+02,-1.176361694335937500e+02,6.394337844848632812e+01,-3.691937255859375000e+01
3.720000088214874268e-01,2.000000000000000000e+00,7.203203678131103516e+00,9.351884841918945312e+00,3.444429016113281250e+01,-1.113688659667968750e+02,9.051215362548828125e+01,-6.658220672607421875e+01,4.938982772827148438e+01,-1.465216445922851562e+01,-1.052157287597656250e+02,-1.176940765380859375e+02,6.393910980224609375e+01,-3.694851684570312500e+01
3.759999871253967285e-01,2.000000000000000000e+00,7.231495380401611328e+00,9.304779052734375000e+00,3.443787002563476562e+01,-1.114239273071289062e+02,9.051399230957031250e+01,-6.660610198974609375e+01,4.931872177124023438e+01,-1.464400768280029297e+01,-1.052294845581054688e+02,-1.177519683837890625e+02,6.393483352661132812e+01,-3.697765350341796875e+01
3.799999952316284180e-01,2.000000000000000000e+00,7.259783267974853516e+00,9.257678031921386719e+00,3.443145370483398438e+01,-1.114789886474609375e+02,9.051582336425781250e+01,-6.662998962402343750e+01,4.924762344360351562e+01,-1.463585281372070312e+01,-1.052432327270507812e+02,-1.178098754882812500e+02,6.393056488037109375e+01,-3.700679016113281250e+01
3.840000033378601074e-01,2.000000000000000000e+00,7.288068771362304688e+00,9.210580825805664062e+00,3.442503356933593750e+01,-1.115340423583984375e+02,9.051766204833984375e+01,-6.665387725830078125e+01,4.917653656005859375e+01,-1.462769699096679688e+01,-1.052569732666015625e+02,-1.178677597045898438e+02,6.392628860473632812e+01,-3.703592681884765625e+01
3.880000114440917969e-01,2.000000000000000000e+00,7.316350936889648438e+00,9.163488388061523438e+00,3.441861724853515625e+01,-1.115890884399414062e+02,9.051950073242187500e+01,-6.667775726318359375e+01,4.910544967651367188e+01,-1.461954402923583984e+01,-1.052707214355468750e+02,-1.179256515502929688e+02,6.392201995849609375e+01,-3.706505584716796875e+01
3.919999897480010986e-01,2.000000000000000000e+00,7.344630718231201172e+00,9.116401672363281250e+00,3.441220092773437500e+01,-1.116441268920898438e+02,9.052133941650390625e+01,-6.670163726806640625e+01,4.903437423706054688e+01,-1.461139011383056641e+01,-1.052844619750976562e+02,-1.179835281372070312e+02,6.391775131225585938e+01,-3.709418487548828125e+01
3.959999978542327881e-01,2.000000000000000000e+00,7.372907638549804688e+00,9.069318771362304688e+00,3.440578460693359375e+01,-1.116991653442382812e+02,9.052317810058593750e+01,-6.672551727294921875e+01,4.896330642700195312e+01,-1.460323810577392578e+01,-1.052982101440429688e+02,-1.180413970947265625e+02,6.391348266601562500e+01,-3.712330627441406250e+01
4.000000059604644775e-01,2.000000000000000000e+00,7.401182174682617188e+00,9.022241592407226562e+00,3.439937210083007812e+01,-1.117541961669921875e+02,9.052500915527343750e+01,-6.674939727783203125e+01,4.889224243164062500e+01,-1.459508609771728516e+01,-1.053119430541992188e+02,-1.180992584228515625e+02,6.390921401977539062e+01,-3.715243148803710938e+01
4.040000140666961670e-01,2.000000000000000000e+00,7.429452896118164062e+00,8.975167274475097656e+00,3.439295578002929688e+01,-1.118092193603515625e+02,9.052684783935546875e+01,-6.677326965332031250e+01,4.882118988037109375e+01,-1.458693599700927734e+01,-1.053256835937500000e+02,-1.181571273803710938e+02,6.390494537353515625e+01,-3.718154907226562500e+01
4.079999923706054688e-01,2.000000000000000000e+00,7.457721233367919922e+00,8.928098678588867188e+00,3.438653945922851562e+01,-1.118642425537109375e+02,9.052868652343750000e+01,-6.679714202880859375e+01,4.875014114379882812e+01,-1.457878589630126953e+01,-1.053394165039062500e+02,-1.182149734497070312e+02,6.390067672729492188e+01,-3.721066665649414062e+01
4.120000004768371582e-01,2.000000000000000000e+00,7.485987186431884766e+00,8.881034851074218750e+00,3.438012695312500000e+01,-1.119192581176757812e+02,9.053051757812500000e+01,-6.682100677490234375e+01,4.867910003662109375e+01,-1.457063579559326172e+01,-1.053531570434570312e+02,-1.182728271484375000e+02,6.389640808105468750e+01,-3.723978042602539062e+01
4.160000085830688477e-01,2.000000000000000000e+00,7.514250755310058594e+00,8.833975791931152344e+00,3.437371444702148438e+01,-1.119742660522460938e+02,9.053235626220703125e+01,-6.684487915039062500e+01,4.860806655883789062e+01,-1.456248760223388672e+01,-1.053668899536132812e+02,-1.183306655883789062e+02,6.389213943481445312e+01,-3.726889038085937500e+01
4.199999868869781494e-01,2.000000000000000000e+00,7.542510509490966797e+00,8.786920547485351562e+00,3.436730194091796875e+01,-1.120292663574218750e+02,9.053419494628906250e+01,-6.686874389648437500e+01,4.853704071044921875e+01,-1.455434131622314453e+01,-1.053806304931640625e+02,-1.183885040283203125e+02,6.388787460327148438e+01,-3.729799652099609375e+01
4.239999949932098389e-01,2.000000000000000000e+00,7.570767879486083984e+00,8.739871025085449219e+00,3.436089324951171875e+01,-1.120842666625976562e+02,9.053602600097656250e+01,-6.689260101318359375e+01,4.846602249145507812e+01,-1.454619407653808594e+01,-1.053943557739257812e+02,-1.184463272094726562e+02,6.388360595703125000e+01,-3.732710266113281250e+01
4.280000030994415283e-01,2.000000000000000000e+00,7.599022865295410156e+00,8.692825317382812500e+00,3.435448074340820312e+01,-1.121392593383789062e+02,9.053785705566406250e+01,-6.691646575927734375e+01,4.839500808715820312e+01,-1.453804779052734375e+01,-1.054080810546875000e+02,-1.185041656494140625e+02,6.387934494018554688e+01,-3.735620498657226562e+01
4.320000112056732178e-01,2.000000000000000000e+00,7.627274036407470703e+00,8.645784378051757812e+00,3.434807205200195312e+01,-1.121942443847656250e+02,9.053969573974609375e+01,-6.694032287597656250e+01,4.832400131225585938e+01,-1.452990245819091797e+01,-1.054218139648437500e+02,-1.185619735717773438e+02,6.387507629394531250e+01,-3.738530349731445312e+01
4.359999895095825195e-01,2.000000000000000000e+00,7.655523777008056641e+00,8.598747253417968750e+00,3.434166336059570312e+01,-1.122492294311523438e+02,9.054152679443359375e+01,-6.696417236328125000e+01,4.825300216674804688e+01,-1.452175712585449219e+01,-1.054355392456054688e+02,-1.186198043823242188e+02,6.387081527709960938e+01,-3.741440200805664062e+01
4.399999976158142090e-01,2.000000000000000000e+00,7.683770179748535156e+00,8.551715850830078125e+00,3.433525085449218750e+01,-1.123042068481445312e+02,9.054336547851562500e+01,-6.698802185058593750e+01,4.818201065063476562e+01,-1.451361465454101562e+01,-1.054492721557617188e+02,-1.186775970458984375e+02,6.386654663085937500e+01,-3.744349288940429688e+01
4.440000057220458984e-01,2.000000000000000000e+00,7.712013721466064453e+00,8.504688262939453125e+00,3.432884597778320312e+01,-1.123591842651367188e+02,9.054519653320312500e+01,-6.701187133789062500e+01,4.811102294921875000e+01,-1.450547313690185547e+01,-1.054629898071289062e+02,-1.187354125976562500e+02,6.386228179931640625e+01,-3.747258377075195312e+01
4.480000138282775879e-01,2.000000000000000000e+00,7.740254878997802734e+00,8.457665443420410156e+00,3.432243347167968750e+01,-1.124141464233398438e+02,9.054703521728515625e+01,-6.703572845458984375e+01,4.804004287719726562e+01,-1.449732971191406250e+01,-1.054767227172851562e+02,-1.187932052612304688e+02,6.385802078247070312e+01,-3.750167465209960938e+01
4.519999921321868896e-01,2.000000000000000000e+00,7.768493175506591797e+00,8.410646438598632812e+00,3.431602859497070312e+01,-1.124691085815429688e+02,9.054886627197265625e+01,-6.705957031250000000e+01,4.796907424926757812e+01,-1.448918819427490234e+01,-1.054904403686523438e+02,-1.188510055541992188e+02,6.385375976562500000e+01,-3.753075790405273438e+01
4.560000002384185791e-01,2.000000000000000000e+00,7.796728610992431641e+00,8.363632202148437500e+00,3.430961990356445312e+01,-1.125240631103515625e+02,9.055070495605468750e+01,-6.708341217041015625e+01,4.789810943603515625e+01,-1.448104763031005859e+01,-1.055041656494140625e+02,-1.189087829589843750e+02,6.384949874877929688e+01,-3.755984115600585938e+01
4.600000083446502686e-01,2.000000000000000000e+00,7.824962139129638672e+00,8.316622734069824219e+00,3.430321884155273438e+01,-1.125790176391601562e+02,9.055252838134765625e+01,-6.710726165771484375e+01,4.782714843750000000e+01,-1.447290802001953125e+01,-1.055178833007812500e+02,-1.189665679931640625e+02,6.384523391723632812e+01,-3.758892059326171875e+01
4.639999866485595703e-01,2.000000000000000000e+00,7.853191852569580078e+00,8.269618034362792969e+00,3.429681015014648438e+01,-1.126339569091796875e+02,9.055436706542968750e+01,-6.713109588623046875e+01,4.775619888305664062e+01,-1.446477031707763672e+01,-1.055316009521484375e+02,-1.190243377685546875e+02,6.384097290039062500e+01,-3.761800003051757812e+01
4.679999947547912598e-01,2.000000000000000000e+00,7.881419181823730469e+00,8.222617149353027344e+00,3.429040908813476562e+01,-1.126889038085937500e+02,9.055619812011718750e+01,-6.715493011474609375e+01,4.768525314331054688e+01,-1.445663166046142578e+01,-1.055453186035156250e+02,-1.190821075439453125e+02,6.383671188354492188e+01,-3.764707183837890625e+01
4.720000028610229492e-01,2.000000000000000000e+00,7.909645080566406250e+00,8.175621032714843750e+00,3.428400039672851562e+01,-1.127438354492187500e+02,9.055803680419921875e+01,-6.717876434326171875e+01,4.761431503295898438e+01,-1.444849395751953125e+01,-1.055590362548828125e+02,-1.191398773193359375e+02,6.383244705200195312e+01,-3.767614364624023438e+01
4.760000109672546387e-01,2.000000000000000000e+00,7.937867641448974609e+00,8.128629684448242188e+00,3.427759933471679688e+01,-1.127987670898437500e+02,9.055986785888671875e+01,-6.720259857177734375e+01,4.754338455200195312e+01,-1.444035720825195312e+01,-1.055727539062500000e+02,-1.191976318359375000e+02,6.382818603515625000e+01,-3.770521163940429688e+01
4.799999892711639404e-01,2.000000000000000000e+00,7.966086387634277344e+00,8.081642150878906250e+00,3.427119827270507812e+01,-1.128536911010742188e+02,9.056169891357421875e+01,-6.722643280029296875e+01,4.747245407104492188e+01,-1.443222045898437500e+01,-1.055864639282226562e+02,-1.192553939819335938e+02,6.382392501831054688e+01,-3.773427963256835938e+01
4.839999973773956299e-01,2.000000000000000000e+00,7.994303703308105469e+00,8.034659385681152344e+00,3.426479339599609375e+01,-1.129086074829101562e+02,9.056353759765625000e+01,-6.725025177001953125e+01,4.740153884887695312e+01,-1.442408561706542969e+01,-1.056001739501953125e+02,-1.193131484985351562e+02,6.381966400146484375e+01,-3.776333999633789062e+01
4.880000054836273193e-01,2.000000000000000000e+00,8.022518157958984375e+00,7.987679958343505859e+00,3.425839233398437500e+01,-1.129635238647460938e+02,9.056536865234375000e+01,-6.727408599853515625e+01,4.733062744140625000e+01,-1.441595077514648438e+01,-1.056138839721679688e+02,-1.193708877563476562e+02,6.381540679931640625e+01,-3.779240417480468750e+01
4.920000135898590088e-01,2.000000000000000000e+00,8.050730705261230469e+00,7.940705299377441406e+00,3.425199127197265625e+01,-1.130184402465820312e+02,9.056719970703125000e+01,-6.729791259765625000e+01,4.725971984863281250e+01,-1.440781784057617188e+01,-1.056276016235351562e+02,-1.194286193847656250e+02,6.381114578247070312e+01,-3.782146072387695312e+01
4.959999918937683105e-01,2.000000000000000000e+00,8.078940391540527344e+00,7.893734931945800781e+00,3.424559402465820312e+01,-1.130733413696289062e+02,9.056902313232421875e+01,-6.732172393798828125e+01,4.718881988525390625e+01,-1.439968490600585938e+01,-1.056413040161132812e+02,-1.194863586425781250e+02,6.380688858032226562e+01,-3.785051345825195312e+01
5.000000000000000000e-01,2.000000000000000000e+00,8.107146263122558594e+00,7.846769809722900391e+00,3.423919296264648438e+01,-1.131282424926757812e+02,9.057086181640625000e+01,-6.734555053710937500e+01,4.711792755126953125e+01,-1.439155197143554688e+01,-1.056550140380859375e+02,-1.195440902709960938e+02,6.380262756347656250e+01,-3.787956619262695312e+01
5.040000081062316895e-01,2.000000000000000000e+00,8.135350227355957031e+00,7.799808025360107422e+00,3.423279190063476562e+01,-1.131831359863281250e+02,9.057269287109375000e+01,-6.736936950683593750e+01,4.704704284667968750e+01,-1.438342094421386719e+01,-1.056687164306640625e+02,-1.196018066406250000e+02,6.379837417602539062e+01,-3.790861892700195312e+01
5.080000162124633789e-01,2.000000000000000000e+00,8.163552284240722656e+00,7.752850532531738281e+00,3.422639083862304688e+01,-1.132380218505859375e+02,9.057452392578125000e+01,-6.739317321777343750e+01,4.697616195678710938e+01,-1.437529087066650391e+01,-1.056824264526367188e+02,-1.196595230102539062e+02,6.379410934448242188e+01,-3.793766403198242188e+01
5.120000243186950684e-01,2.000000000000000000e+00,8.191751480102539062e+00,7.705898284912109375e+00,3.421999740600585938e+01,-1.132929077148437500e+02,9.057635498046875000e+01,-6.741699218750000000e+01,4.690528869628906250e+01,-1.436716175079345703e+01,-1.056961288452148438e+02,-1.197172317504882812e+02,6.378985595703125000e+01,-3.796670913696289062e+01
5.159999728202819824e-01,2.000000000000000000e+00,8.219948768615722656e+00,7.658948898315429688e+00,3.421359634399414062e+01,-1.133477859497070312e+02,9.057818603515625000e+01,-6.744080352783203125e+01,4.683442306518554688e+01,-1.435903167724609375e+01,-1.057098312377929688e+02,-1.197749481201171875e+02,6.378559875488281250e+01,-3.799575042724609375e+01
5.199999809265136719e-01,2.000000000000000000e+00,8.248142242431640625e+00,7.612004280090332031e+00,3.420719909667968750e+01,-1.134026641845703125e+02,9.058001708984375000e+01,-6.746461486816406250e+01,4.676356506347656250e+01,-1.435090351104736328e+01,-1.057235260009765625e+02,-1.198326492309570312e+02,6.378134536743164062e+01,-3.802479171752929688e+01
5.239999890327453613e-01,2.000000000000000000e+00,8.276333808898925781e+00,7.565063953399658203e+00,3.420080184936523438e+01,-1.134575271606445312e+02,9.058184814453125000e+01,-6.748841857910156250e+01,4.669270706176757812e+01,-1.434277629852294922e+01,-1.057372283935546875e+02,-1.198903427124023438e+02,6.377709197998046875e+01,-3.805382919311523438e+01
5.279999971389770508e-01,2.000000000000000000e+00,8.304524421691894531e+00,7.518126964569091797e+00,3.419440841674804688e+01,-1.135123977661132812e+02,9.058367919921875000e+01,-6.751222229003906250e+01,4.662186050415039062e+01,-1.433464813232421875e+01,-1.057509307861328125e+02,-1.199480438232421875e+02,6.377282714843750000e+01,-3.808286285400390625e+01
5.320000052452087402e-01,2.000000000000000000e+00,8.332710266113281250e+00,7.471194744110107422e+00,3.418801498413085938e+01,-1.135672607421875000e+02,9.058551025390625000e+01,-6.753602600097656250e+01,4.655101776123046875e+01,-1.432652187347412109e+01,-1.057646255493164062e+02,-1.200057144165039062e+02,6.376857376098632812e+01,-3.811189651489257812e+01
5.360000133514404297e-01,2.000000000000000000e+00,8.360895156860351562e+00,7.424266338348388672e+00,3.418161773681640625e+01,-1.136221084594726562e+02,9.058734130859375000e+01,-6.755982971191406250e+01,4.648018264770507812e+01,-1.431839656829833984e+01,-1.057783203125000000e+02,-1.200634002685546875e+02,6.376431655883789062e+01,-3.814092254638671875e+01
5.400000214576721191e-01,2.000000000000000000e+00,8.389077186584472656e+00,7.377342224121093750e+00,3.417522430419921875e+01,-1.136769638061523438e+02,9.058917236328125000e+01,-6.758362579345703125e+01,4.640935516357421875e+01,-1.431027221679687500e+01,-1.057920150756835938e+02,-1.201210784912109375e+02,6.376007080078125000e+01,-3.816995239257812500e+01
5.440000295639038086e-01,2.000000000000000000e+00,8.417257308959960938e+00,7.330421447753906250e+00,3.416883087158203125e+01,-1.137318115234375000e+02,9.059099578857421875e+01,-6.760742187500000000e+01,4.633852767944335938e+01,-1.430214691162109375e+01,-1.058057098388671875e+02,-1.201787490844726562e+02,6.375581359863281250e+01,-3.819897460937500000e+01
5.479999780654907227e-01,2.000000000000000000e+00,8.445434570312500000e+00,7.283505439758300781e+00,3.416243743896484375e+01,-1.137866516113281250e+02,9.059282684326171875e+01,-6.763121795654296875e+01,4.626771163940429688e+01,-1.429402351379394531e+01,-1.058194046020507812e+02,-1.202364120483398438e+02,6.375156021118164062e+01,-3.822800064086914062e+01
5.519999861717224121e-01,2.000000000000000000e+00,8.473609924316406250e+00,7.236593246459960938e+00,3.415604400634765625e+01,-1.138414916992187500e+02,9.059465789794921875e+01,-6.765500640869140625e+01,4.619689941406250000e+01,-1.428590106964111328e+01,-1.058330917358398438e+02,-1.202940826416015625e+02,6.374730300903320312e+01,-3.825701522827148438e+01
5.559999942779541016e-01,2.000000000000000000e+00,8.501781463623046875e+00,7.189684391021728516e+00,3.414965057373046875e+01,-1.138963241577148438e+02,9.059648895263671875e+01,-6.767879486083984375e+01,4.612609100341796875e+01,-1.427777862548828125e+01,-1.058467864990234375e+02,-1.203517303466796875e+02,6.374304962158203125e+01,-3.828603363037109375e+01
5.600000023841857910e-01,2.000000000000000000e+00,8.529952049255371094e+00,7.142779827117919922e+00,3.414326095581054688e+01,-1.139511489868164062e+02,9.059832000732421875e+01,-6.770258331298828125e+01,4.605529403686523438e+01,-1.426965713500976562e+01,-1.058604736328125000e+02,-1.204093933105468750e+02,6.373880004882812500e+01,-3.831504821777343750e+01
5.640000104904174805e-01,2.000000000000000000e+00,8.558119773864746094e+00,7.095879077911376953e+00,3.413686752319335938e+01,-1.140059738159179688e+02,9.060015106201171875e+01,-6.772636413574218750e+01,4.598449707031250000e+01,-1.426153659820556641e+01,-1.058741607666015625e+02,-1.204670410156250000e+02,6.373454666137695312e+01,-3.834406280517578125e+01
5.680000185966491699e-01,2.000000000000000000e+00,8.586284637451171875e+00,7.048982143402099609e+00,3.413047790527343750e+01,-1.140607910156250000e+02,9.060197448730468750e+01,-6.775016021728515625e+01,4.591371154785156250e+01,-1.425341606140136719e+01,-1.058878479003906250e+02,-1.205246887207031250e+02,6.373029708862304688e+01,-3.837307357788085938e+01
5.720000267028808594e-01,2.000000000000000000e+00,8.614448547363281250e+00,7.002089500427246094e+00,3.412408828735351562e+01,-1.141156082153320312e+02,9.060380554199218750e+01,-6.777393341064453125e+01,4.584292984008789062e+01,-1.424529647827148438e+01,-1.059015350341796875e+02,-1.205823211669921875e+02,6.372603988647460938e+01,-3.840208053588867188e+01
5.759999752044677734e-01,2.000000000000000000e+00,8.642608642578125000e+00,6.955199718475341797e+00,3.411769866943359375e+01,-1.141704177856445312e+02,9.060563659667968750e+01,-6.779771423339843750e+01,4.577215194702148438e+01,-1.423717784881591797e+01,-1.059152221679687500e+02,-1.206399536132812500e+02,6.372179412841796875e+01,-3.843108367919921875e+01
5.799999833106994629e-01,2.000000000000000000e+00,8.670766830444335938e+00,6.908314228057861328e+00,3.411130905151367188e+01,-1.142252197265625000e+02,9.060746765136718750e+01,-6.782149505615234375e+01,4.570138168334960938e+01,-1.422905921936035156e+01,-1.059289093017578125e+02,-1.206975860595703125e+02,6.371753692626953125e+01,-3.846009063720703125e+01
5.839999914169311523e-01,2.000000000000000000e+00,8.698924064636230469e+00,6.861432552337646484e+00,3.410491943359375000e+01,-1.142800216674804688e+02,9.060929870605468750e+01,-6.784527587890625000e+01,4.563061141967773438e+01,-1.422094154357910156e+01,-1.059425888061523438e+02,-1.207552032470703125e+02,6.371329116821289062e+01,-3.848908996582031250e+01
5.879999995231628418e-01,2.000000000000000000e+00,8.727077484130859375e+00,6.814554691314697266e+00,3.409853363037109375e+01,-1.143348236083984375e+02,9.061112213134765625e+01,-6.786904144287109375e+01,4.555985260009765625e+01,-1.421282482147216797e+01,-1.059562683105468750e+02,-1.208128280639648438e+02,6.370904159545898438e+01,-3.851808547973632812e+01
5.920000076293945312e-01,2.000000000000000000e+00,8.755228996276855469e+00,6.767680168151855469e+00,3.409214782714843750e+01,-1.143896102905273438e+02,9.061295318603515625e+01,-6.789282226562500000e+01,4.548909759521484375e+01,-1.420470905303955078e+01,-1.059699478149414062e+02,-1.208704452514648438e+02,6.370478439331054688e+01,-3.854708099365234375e+01
5.960000157356262207e-01,2.000000000000000000e+00,8.783379554748535156e+00,6.720809936523437500e+00,3.408575820922851562e+01,-1.144444046020507812e+02,9.061478424072265625e+01,-6.791658782958984375e+01,4.541835021972656250e+01,-1.419659233093261719e+01,-1.059836273193359375e+02,-1.209280471801757812e+02,6.370053863525390625e+01,-3.857607650756835938e+01
6.000000238418579102e-01,2.000000000000000000e+00,8.811526298522949219e+00,6.673943042755126953e+00,3.407937240600585938e+01,-1.144991912841796875e+02,9.061660766601562500e+01,-6.794035339355468750e+01,4.534760665893554688e+01,-1.418847751617431641e+01,-1.059973144531250000e+02,-1.209856567382812500e+02,6.369628906250000000e+01,-3.860506820678710938e+01
6.039999723434448242e-01,2.000000000000000000e+00,8.839672088623046875e+00,6.627079963684082031e+00,3.407298660278320312e+01,-1.145539703369140625e+02,9.061843872070312500e+01,-6.796412658691406250e+01,4.527687072753906250e+01,-1.418036365509033203e+01,-1.060109863281250000e+02,-1.210432586669921875e+02,6.369203948974609375e+01,-3.863405609130859375e+01
6.079999804496765137e-01,2.000000000000000000e+00,8.867814064025878906e+00,6.580220222473144531e+00,3.406660461425781250e+01,-1.146087417602539062e+02,9.062026214599609375e+01,-6.798788452148437500e+01,4.520613861083984375e+01,-1.417224979400634766e+01,-1.060246658325195312e+02,-1.211008529663085938e+02,6.368779373168945312e+01,-3.866304397583007812e+01
6.119999885559082031e-01,2.000000000000000000e+00,8.895955085754394531e+00,6.533364772796630859e+00,3.406021881103515625e+01,-1.146635131835937500e+02,9.062209320068359375e+01,-6.801165771484375000e+01,4.513541030883789062e+01,-1.416413688659667969e+01,-1.060383377075195312e+02,-1.211584472656250000e+02,6.368354415893554688e+01,-3.869202804565429688e+01
6.159999966621398926e-01,2.000000000000000000e+00,8.924094200134277344e+00,6.486512660980224609e+00,3.405383300781250000e+01,-1.147182769775390625e+02,9.062392425537109375e+01,-6.803542327880859375e+01,4.506468963623046875e+01,-1.415602397918701172e+01,-1.060520172119140625e+02,-1.212160415649414062e+02,6.367929458618164062e+01,-3.872101211547851562e+01
6.200000047683715820e-01,2.000000000000000000e+00,8.952230453491210938e+00,6.439663887023925781e+00,3.404744720458984375e+01,-1.147730407714843750e+02,9.062574768066406250e+01,-6.805917358398437500e+01,4.499397277832031250e+01,-1.414791202545166016e+01,-1.060656890869140625e+02,-1.212736129760742188e+02,6.367504882812500000e+01,-3.874999237060546875e+01
6.240000128746032715e-01,2.000000000000000000e+00,8.980364799499511719e+00,6.392818927764892578e+00,3.404106521606445312e+01,-1.148278045654296875e+02,9.062757873535156250e+01,-6.808293914794921875e+01,4.492326354980468750e+01,-1.413980102539062500e+01,-1.060793533325195312e+02,-1.213311920166015625e+02,6.367079925537109375e+01,-3.877896881103515625e+01
6.280000209808349609e-01,2.000000000000000000e+00,9.008496284484863281e+00,6.345977306365966797e+00,3.403468322753906250e+01,-1.148825531005859375e+02,9.062940216064453125e+01,-6.810668945312500000e+01,4.485255813598632812e+01,-1.413169097900390625e+01,-1.060930328369140625e+02,-1.213887710571289062e+02,6.366654968261718750e+01,-3.880794525146484375e+01
6.320000290870666504e-01,2.000000000000000000e+00,9.036625862121582031e+00,6.299139976501464844e+00,3.402830123901367188e+01,-1.149373016357421875e+02,9.063122558593750000e+01,-6.813044738769531250e+01,4.478186035156250000e+01,-1.412358093261718750e+01,-1.061066970825195312e+02,-1.214463500976562500e+02,6.366230392456054688e+01,-3.883691787719726562e+01
6.359999775886535645e-01,2.000000000000000000e+00,9.064753532409667969e+00,6.252305507659912109e+00,3.402191543579101562e+01,-1.149920578002929688e+02,9.063304901123046875e+01,-6.815419769287109375e+01,4.471116638183593750e+01,-1.411547088623046875e+01,-1.061203613281250000e+02,-1.215039138793945312e+02,6.365806198120117188e+01,-3.886589050292968750e+01
6.399999856948852539e-01,2.000000000000000000e+00,9.092879295349121094e+00,6.205475330352783203e+00,3.401553726196289062e+01,-1.150467910766601562e+02,9.063488006591796875e+01,-6.817794799804687500e+01,4.464047622680664062e+01,-1.410736274719238281e+01,-1.061340408325195312e+02,-1.215614700317382812e+02,6.365381240844726562e+01,-3.889485931396484375e+01
6.439999938011169434e-01,2.000000000000000000e+00,9.121002197265625000e+00,6.158648490905761719e+00,3.400915527343750000e+01,-1.151015319824218750e+02,9.063670349121093750e+01,-6.820169067382812500e+01,4.456979370117187500e+01,-1.409925365447998047e+01,-1.061476974487304688e+02,-1.216190338134765625e+02,6.364956283569335938e+01,-3.892382431030273438e+01
6.480000019073486328e-01,2.000000000000000000e+00,9.149124145507812500e+00,6.111824989318847656e+00,3.400277709960937500e+01,-1.151562652587890625e+02,9.063852691650390625e+01,-6.822544097900390625e+01,4.449911499023437500e+01,-1.409114646911621094e+01,-1.061613616943359375e+02,-1.216765823364257812e+02,6.364532089233398438e+01,-3.895279312133789062e+01
6.520000100135803223e-01,2.000000000000000000e+00,9.177243232727050781e+00,6.065004825592041016e+00,3.399639511108398438e+01,-1.152109909057617188e+02,9.064035797119140625e+01,-6.824919128417968750e+01,4.442844390869140625e+01,-1.408303928375244141e+01,-1.061750335693359375e+02,-1.217341384887695312e+02,6.364107513427734375e+01,-3.898175048828125000e+01
6.560000181198120117e-01,2.000000000000000000e+00,9.205359458923339844e+00,6.018188476562500000e+00,3.399001693725585938e+01,-1.152657165527343750e+02,9.064218139648437500e+01,-6.827293395996093750e+01,4.435777664184570312e+01,-1.407493305206298828e+01,-1.061886901855468750e+02,-1.217916717529296875e+02,6.363683319091796875e+01,-3.901071166992187500e+01
6.600000262260437012e-01,2.000000000000000000e+00,9.233473777770996094e+00,5.971375942230224609e+00,3.398363876342773438e+01,-1.153204345703125000e+02,9.064400482177734375e+01,-6.829667663574218750e+01,4.428711318969726562e+01,-1.406682777404785156e+01,-1.062023620605468750e+02,-1.218492202758789062e+02,6.363258361816406250e+01,-3.903967285156250000e+01
6.639999747276306152e-01,2.000000000000000000e+00,9.261587142944335938e+00,5.924566268920898438e+00,3.397725677490234375e+01,-1.153751449584960938e+02,9.064583587646484375e+01,-6.832041931152343750e+01,4.421646118164062500e+01,-1.405872249603271484e+01,-1.062160186767578125e+02,-1.219067459106445312e+02,6.362834167480468750e+01,-3.906862640380859375e+01
6.679999828338623047e-01,2.000000000000000000e+00,9.289697647094726562e+00,5.877760410308837891e+00,3.397087860107421875e+01,-1.154298706054687500e+02,9.064765930175781250e+01,-6.834415435791015625e+01,4.414580917358398438e+01,-1.405061817169189453e+01,-1.062296829223632812e+02,-1.219642868041992188e+02,6.362409973144531250e+01,-3.909757995605468750e+01
6.719999909400939941e-01,2.000000000000000000e+00,9.317806243896484375e+00,5.830957889556884766e+00,3.396450424194335938e+01,-1.154845809936523438e+02,9.064948272705078125e+01,-6.836788940429687500e+01,4.407516479492187500e+01,-1.404251384735107422e+01,-1.062433395385742188e+02,-1.220218124389648438e+02,6.361985397338867188e+01,-3.912653350830078125e+01
6.759999990463256836e-01,2.000000000000000000e+00,9.345913887023925781e+00,5.784159183502197266e+00,3.395812606811523438e+01,-1.155392761230468750e+02,9.065130615234375000e+01,-6.839162445068359375e+01,4.400452041625976562e+01,-1.403441047668457031e+01,-1.062570037841796875e+02,-1.220793304443359375e+02,6.361561203002929688e+01,-3.915547943115234375e+01
6.800000071525573730e-01,2.000000000000000000e+00,9.374017715454101562e+00,5.737363338470458984e+00,3.395174789428710938e+01,-1.155939865112304688e+02,9.065313720703125000e+01,-6.841535186767578125e+01,4.393388366699218750e+01,-1.402630805969238281e+01,-1.062706527709960938e+02,-1.221368560791015625e+02,6.361137008666992188e+01,-3.918442916870117188e+01
6.840000152587890625e-01,2.000000000000000000e+00,9.402119636535644531e+00,5.690571308135986328e+00,3.394536972045898438e+01,-1.156486816406250000e+02,9.065496063232421875e+01,-6.843908691406250000e+01,4.386325836181640625e+01,-1.401820659637451172e+01,-1.062843170166015625e+02,-1.221943664550781250e+02,6.360712814331054688e+01,-3.921337509155273438e+01
6.880000233650207520e-01,2.000000000000000000e+00,9.430220603942871094e+00,5.643782615661621094e+00,3.393899536132812500e+01,-1.157033615112304688e+02,9.065678405761718750e+01,-6.846282196044921875e+01,4.379262924194335938e+01,-1.401010513305664062e+01,-1.062979660034179688e+02,-1.222518768310546875e+02,6.360287857055664062e+01,-3.924231719970703125e+01
6.919999718666076660e-01,2.000000000000000000e+00,9.458318710327148438e+00,5.596997261047363281e+00,3.393262100219726562e+01,-1.157580642700195312e+02,9.065861511230468750e+01,-6.848654937744140625e+01,4.372200775146484375e+01,-1.400200366973876953e+01,-1.063116226196289062e+02,-1.223093872070312500e+02,6.359863662719726562e+01,-3.927125930786132812e+01
6.959999799728393555e-01,2.000000000000000000e+00,9.486414909362792969e+00,5.550215244293212891e+00,3.392624664306640625e+01,-1.158127441406250000e+02,9.066043853759765625e+01,-6.851026916503906250e+01,4.365139389038085938e+01,-1.399390316009521484e+01,-1.063252792358398438e+02,-1.223668823242187500e+02,6.359439468383789062e+01,-3.930019760131835938e+01
6.999999880790710449e-01,2.000000000000000000e+00,9.514509201049804688e+00,5.503437042236328125e+00,3.391987228393554688e+01,-1.158674240112304688e+02,9.066226196289062500e+01,-6.853399658203125000e+01,4.358078384399414062e+01,-1.398580360412597656e+01,-1.063389282226562500e+02,-1.224243774414062500e+02,6.359015655517578125e+01,-3.932913589477539062e+01
7.039999961853027344e-01,2.000000000000000000e+00,9.542601585388183594e+00,5.456661701202392578e+00,3.391349792480468750e+01,-1.159220962524414062e+02,9.066408538818359375e+01,-6.855771636962890625e+01,4.351018142700195312e+01,-1.397770404815673828e+01,-1.063525848388671875e+02,-1.224818801879882812e+02,6.358591461181640625e+01,-3.935807037353515625e+01
7.080000042915344238e-01,2.000000000000000000e+00,9.570692062377929688e+00,5.409889698028564453e+00,3.390712738037109375e+01,-1.159767761230468750e+02,9.066591644287109375e+01,-6.858143615722656250e+01,4.343957901000976562e+01,-1.396960639953613281e+01,-1.063662261962890625e+02,-1.225393753051757812e+02,6.358168029785156250e+01,-3.938700485229492188e+01
7.120000123977661133e-01,2.000000000000000000e+00,9.598779678344726562e+00,5.363121509552001953e+00,3.390075302124023438e+01,-1.160314483642578125e+02,9.066773986816406250e+01,-6.860515594482421875e+01,4.336898803710937500e+01,-1.396150779724121094e+01,-1.063798828125000000e+02,-1.225968551635742188e+02,6.357743835449218750e+01,-3.941593170166015625e+01
7.160000205039978027e-01,2.000000000000000000e+00,9.626865386962890625e+00,5.316355705261230469e+00,3.389437866210937500e+01,-1.160860977172851562e+02,9.066956329345703125e+01,-6.862887573242187500e+01,4.329839706420898438e+01,-1.395341014862060547e+01,-1.063935317993164062e+02,-1.226543426513671875e+02,6.357319641113281250e+01,-3.944486236572265625e+01
7.200000286102294922e-01,2.000000000000000000e+00,9.654950141906738281e+00,5.269594192504882812e+00,3.388800811767578125e+01,-1.161407699584960938e+02,9.067138671875000000e+01,-6.865258789062500000e+01,4.322780990600585938e+01,-1.394531345367431641e+01,-1.064071731567382812e+02,-1.227118072509765625e+02,6.356895446777343750e+01,-3.947378921508789062e+01
7.239999771118164062e-01,2.000000000000000000e+00,9.683032989501953125e+00,5.222835540771484375e+00,3.388163375854492188e+01,-1.161954269409179688e+02,9.067321014404296875e+01,-6.867630004882812500e+01,4.315723037719726562e+01,-1.393721675872802734e+01,-1.064208221435546875e+02,-1.227692794799804688e+02,6.356471252441406250e+01,-3.950271224975585938e+01
7.279999852180480957e-01,2.000000000000000000e+00,9.711112976074218750e+00,5.176080703735351562e+00,3.387526321411132812e+01,-1.162500839233398438e+02,9.067503356933593750e+01,-6.870001983642578125e+01,4.308665847778320312e+01,-1.392912197113037109e+01,-1.064344711303710938e+02,-1.228267440795898438e+02,6.356047821044921875e+01,-3.953163528442382812e+01
7.319999933242797852e-01,2.000000000000000000e+00,9.739191055297851562e+00,5.129328250885009766e+00,3.386889266967773438e+01,-1.163047332763671875e+02,9.067685699462890625e+01,-6.872372436523437500e+01,4.301608657836914062e+01,-1.392102622985839844e+01,-1.064481201171875000e+02,-1.228842163085937500e+02,6.355623626708984375e+01,-3.956055450439453125e+01
7.360000014305114746e-01,2.000000000000000000e+00,9.767267227172851562e+00,5.082580089569091797e+00,3.386252593994140625e+01,-1.163593750000000000e+02,9.067868041992187500e+01,-6.874743652343750000e+01,4.294552230834960938e+01,-1.391293144226074219e+01,-1.064617538452148438e+02,-1.229416885375976562e+02,6.355199432373046875e+01,-3.958947372436523438e+01
7.400000095367431641e-01,2.000000000000000000e+00,9.795341491699218750e+00,5.035833835601806641e+00,3.385615158081054688e+01,-1.164140167236328125e+02,9.068050384521484375e+01,-6.877114868164062500e+01,4.287496185302734375e+01,-1.390483760833740234e+01,-1.064754028320312500e+02,-1.229991378784179688e+02,6.354776000976562500e+01,-3.961838912963867188e+01
7.440000176429748535e-01,2.000000000000000000e+00,9.823414802551269531e+00,4.989091873168945312e+00,3.384978103637695312e+01,-1.164686584472656250e+02,9.068232727050781250e+01,-6.879484558105468750e+01,4.280440521240234375e+01,-1.389674377441406250e+01,-1.064890441894531250e+02,-1.230565795898437500e+02,6.354351806640625000e+01,-3.964730453491210938e+01
7.480000257492065430e-01,2.000000000000000000e+00,9.851485252380371094e+00,4.942353248596191406e+00,3.384341430664062500e+01,-1.165232849121093750e+02,9.068415069580078125e+01,-6.881855773925781250e+01,4.273385620117187500e+01,-1.388865089416503906e+01,-1.065026855468750000e+02,-1.231140365600585938e+02,6.353928375244140625e+01,-3.967621612548828125e+01
7.519999742507934570e-01,2.000000000000000000e+00,9.879553794860839844e+00,4.895617008209228516e+00,3.383704757690429688e+01,-1.165779190063476562e+02,9.068597412109375000e+01,-6.884225463867187500e+01,4.266331100463867188e+01,-1.388055896759033203e+01,-1.065163269042968750e+02,-1.231714782714843750e+02,6.353504943847656250e+01,-3.970512771606445312e+01
7.559999823570251465e-01,2.000000000000000000e+00,9.907619476318359375e+00,4.848884582519531250e+00,3.383067703247070312e+01,-1.166325454711914062e+02,9.068778991699218750e+01,-6.886595916748046875e+01,4.259276962280273438e+01,-1.387246704101562500e+01,-1.065299606323242188e+02,-1.232289199829101562e+02,6.353080749511718750e+01,-3.973403549194335938e+01
7.599999904632568359e-01,2.000000000000000000e+00,9.935685157775878906e+00,4.802155017852783203e+00,3.382431030273437500e+01,-1.166871719360351562e+02,9.068961334228515625e+01,-6.888965606689453125e+01,4.252223587036132812e+01,-1.386437606811523438e+01,-1.065436019897460938e+02,-1.232863616943359375e+02,6.352657318115234375e+01,-3.976294326782226562e+01
7.639999985694885254e-01,2.000000000000000000e+00,9.963747978210449219e+00,4.755428791046142578e+00,3.381794357299804688e+01,-1.167417831420898438e+02,9.069143676757812500e+01,-6.891336059570312500e+01,4.245170211791992188e+01,-1.385628509521484375e+01,-1.065572433471679688e+02,-1.233437957763671875e+02,6.352233886718750000e+01,-3.979184722900390625e+01
7.680000066757202148e-01,2.000000000000000000e+00,9.991808891296386719e+00,4.708705425262451172e+00,3.381157302856445312e+01,-1.167964172363281250e+02,9.069326019287109375e+01,-6.893704986572265625e+01,4.238117599487304688e+01,-1.384819507598876953e+01,-1.065708770751953125e+02,-1.234012222290039062e+02,6.351809692382812500e+01,-3.982075119018554688e+01
7.720000147819519043e-01,2.000000000000000000e+00,1.001986789703369141e+01,4.661985874176025391e+00,3.380521011352539062e+01,-1.168510131835937500e+02,9.069508361816406250e+01,-6.896074676513671875e+01,4.231065750122070312e+01,-1.384010601043701172e+01,-1.065845184326171875e+02,-1.234586486816406250e+02,6.351386260986328125e+01,-3.984965133666992188e+01
7.760000228881835938e-01,2.000000000000000000e+00,1.004792499542236328e+01,4.615269184112548828e+00,3.379884338378906250e+01,-1.169056320190429688e+02,9.069690704345703125e+01,-6.898444366455078125e+01,4.224013900756835938e+01,-1.383201599121093750e+01,-1.065981521606445312e+02,-1.235160751342773438e+02,6.350962829589843750e+01,-3.987854766845703125e+01
7.799999713897705078e-01,2.000000000000000000e+00,1.007597923278808594e+01,4.568555355072021484e+00,3.379247665405273438e+01,-1.169602279663085938e+02,9.069872283935546875e+01,-6.900813293457031250e+01,4.216962432861328125e+01,-1.382392692565917969e+01,-1.066117782592773438e+02,-1.235734939575195312e+02,6.350539398193359375e+01,-3.990744781494140625e+01
7.839999794960021973e-01,2.000000000000000000e+00,1.010403347015380859e+01,4.521844387054443359e+00,3.378610992431640625e+01,-1.170148315429687500e+02,9.070054626464843750e+01,-6.903182220458984375e+01,4.209911727905273438e+01,-1.381583976745605469e+01,-1.066254119873046875e+02,-1.236309051513671875e+02,6.350115585327148438e+01,-3.993634033203125000e+01
7.879999876022338867e-01,2.000000000000000000e+00,1.013208580017089844e+01,4.475137233734130859e+00,3.377975082397460938e+01,-1.170694274902343750e+02,9.070236968994140625e+01,-6.905551147460937500e+01,4.202861785888671875e+01,-1.380775165557861328e+01,-1.066390457153320312e+02,-1.236883239746093750e+02,6.349692153930664062e+01,-3.996523284912109375e+01
7.919999957084655762e-01,2.000000000000000000e+00,1.016013431549072266e+01,4.428432464599609375e+00,3.377338409423828125e+01,-1.171240310668945312e+02,9.070419311523437500e+01,-6.907919311523437500e+01,4.195811843872070312e+01,-1.379966449737548828e+01,-1.066526718139648438e+02,-1.237457199096679688e+02,6.349268722534179688e+01,-3.999412536621093750e+01
7.960000038146972656e-01,2.000000000000000000e+00,1.018818283081054688e+01,4.381731033325195312e+00,3.376702117919921875e+01,-1.171786193847656250e+02,9.070601654052734375e+01,-6.910288238525390625e+01,4.188762283325195312e+01,-1.379157829284667969e+01,-1.066663055419921875e+02,-1.238031234741210938e+02,6.348845291137695312e+01,-4.002301406860351562e+01
8.000000119209289551e-01,2.000000000000000000e+00,1.021622848510742188e+01,4.335032939910888672e+00,3.376065444946289062e+01,-1.172332077026367188e+02,9.070783996582031250e+01,-6.912656402587890625e+01,4.181713867187500000e+01,-1.378349304199218750e+01,-1.066799316406250000e+02,-1.238605270385742188e+02,6.348421859741210938e+01,-4.005190277099609375e+01
8.040000200271606445e-01,2.000000000000000000e+00,1.024427318572998047e+01,4.288337707519531250e+00,3.375429153442382812e+01,-1.172877883911132812e+02,9.070966339111328125e+01,-6.915024566650390625e+01,4.174665451049804688e+01,-1.377540779113769531e+01,-1.066935653686523438e+02,-1.239179229736328125e+02,6.347998428344726562e+01,-4.008078765869140625e+01
8.080000281333923340e-01,2.000000000000000000e+00,1.027231502532958984e+01,4.241645336151123047e+00,3.374793243408203125e+01,-1.173423614501953125e+02,9.071147918701171875e+01,-6.917392730712890625e+01,4.167617034912109375e+01,-1.376732349395751953e+01,-1.067071914672851562e+02,-1.239753112792968750e+02,6.347574996948242188e+01,-4.010966873168945312e+01
8.119999766349792480e-01,2.000000000000000000e+00,1.030035591125488281e+01,4.194956302642822266e+00,3.374156951904296875e+01,-1.173969345092773438e+02,9.071330261230468750e+01,-6.919760131835937500e+01,4.160569763183593750e+01,-1.375923824310302734e+01,-1.067208175659179688e+02,-1.240326995849609375e+02,6.347151565551757812e+01,-4.013855361938476562e+01
8.159999847412109375e-01,2.000000000000000000e+00,1.032839488983154297e+01,4.148270130157470703e+00,3.373520660400390625e+01,-1.174515075683593750e+02,9.071511840820312500e+01,-6.922128295898437500e+01,4.153522872924804688e+01,-1.375115489959716797e+01,-1.067344436645507812e+02,-1.240900878906250000e+02,6.346728134155273438e+01,-4.016743087768554688e+01
8.199999928474426270e-01,2.000000000000000000e+00,1.035643196105957031e+01,4.101586818695068359e+00,3.372884750366210938e+01,-1.175060806274414062e+02,9.071694183349609375e+01,-6.924495697021484375e+01,4.146475982666015625e+01,-1.374307155609130859e+01,-1.067480697631835938e+02,-1.241474609375000000e+02,6.346305084228515625e+01,-4.019630813598632812e+01
8.240000009536743164e-01,2.000000000000000000e+00,1.038446712493896484e+01,4.054906845092773438e+00,3.372248458862304688e+01,-1.175606536865234375e+02,9.071876525878906250e+01,-6.926863098144531250e+01,4.139430236816406250e+01,-1.373498916625976562e+01,-1.067616882324218750e+02,-1.242048492431640625e+02,6.345881652832031250e+01,-4.022518539428710938e+01
8.280000090599060059e-01,2.000000000000000000e+00,1.041249942779541016e+01,4.008229732513427734e+00,3.371612167358398438e+01,-1.176152191162109375e+02,9.072058105468750000e+01,-6.929230499267578125e+01,4.132384490966796875e+01,-1.372690582275390625e+01,-1.067753143310546875e+02,-1.242622222900390625e+02,6.345458221435546875e+01,-4.025405883789062500e+01
8.320000171661376953e-01,2.000000000000000000e+00,1.044053173065185547e+01,3.961555004119873047e+00,3.370976257324218750e+01,-1.176697769165039062e+02,9.072240447998046875e+01,-6.931597900390625000e+01,4.125339126586914062e+01,-1.371882438659667969e+01,-1.067889328002929688e+02,-1.243195800781250000e+02,6.345035552978515625e+01,-4.028293228149414062e+01
8.360000252723693848e-01,2.000000000000000000e+00,1.046856212615966797e+01,3.914883375167846680e+00,3.370340347290039062e+01,-1.177243194580078125e+02,9.072422027587890625e+01,-6.933965301513671875e+01,4.118294143676757812e+01,-1.371074390411376953e+01,-1.068025665283203125e+02,-1.243769531250000000e+02,6.344612121582031250e+01,-4.031180191040039062e+01
8.399999737739562988e-01,2.000000000000000000e+00,1.049658966064453125e+01,3.868215322494506836e+00,3.369704437255859375e+01,-1.177788848876953125e+02,9.072604370117187500e+01,-6.936331939697265625e+01,4.111249542236328125e+01,-1.370266246795654297e+01,-1.068161849975585938e+02,-1.244343109130859375e+02,6.344189071655273438e+01,-4.034067153930664062e+01
8.439999818801879883e-01,2.000000000000000000e+00,1.052461624145507812e+01,3.821549892425537109e+00,3.369068527221679688e+01,-1.178334274291992188e+02,9.072785949707031250e+01,-6.938698577880859375e+01,4.104205703735351562e+01,-1.369458198547363281e+01,-1.068298034667968750e+02,-1.244916763305664062e+02,6.343765640258789062e+01,-4.036953735351562500e+01
8.479999899864196777e-01,2.000000000000000000e+00,1.055264091491699219e+01,3.774887323379516602e+00,3.368432998657226562e+01,-1.178879699707031250e+02,9.072968292236328125e+01,-6.941065216064453125e+01,4.097162628173828125e+01,-1.368650341033935547e+01,-1.068434219360351562e+02,-1.245490341186523438e+02,6.343342971801757812e+01,-4.039840316772460938e+01
8.519999980926513672e-01,2.000000000000000000e+00,1.058066368103027344e+01,3.728227138519287109e+00,3.367797088623046875e+01,-1.179425201416015625e+02,9.073150634765625000e+01,-6.943431091308593750e+01,4.090119171142578125e+01,-1.367842388153076172e+01,-1.068570327758789062e+02,-1.246063766479492188e+02,6.342919540405273438e+01,-4.042726516723632812e+01
8.560000061988830566e-01,2.000000000000000000e+00,1.060868453979492188e+01,3.681570529937744141e+00,3.367161178588867188e+01,-1.179970550537109375e+02,9.073332977294921875e+01,-6.945797729492187500e+01,4.083076477050781250e+01,-1.367034530639648438e+01,-1.068706512451171875e+02,-1.246637268066406250e+02,6.342496490478515625e+01,-4.045613098144531250e+01
8.600000143051147461e-01,2.000000000000000000e+00,1.063670444488525391e+01,3.634916543960571289e+00,3.366525650024414062e+01,-1.180515823364257812e+02,9.073514556884765625e+01,-6.948163604736328125e+01,4.076034545898437500e+01,-1.366226673126220703e+01,-1.068842697143554688e+02,-1.247210693359375000e+02,6.342073822021484375e+01,-4.048498535156250000e+01
8.640000224113464355e-01,2.000000000000000000e+00,1.066472148895263672e+01,3.588265180587768555e+00,3.365889739990234375e+01,-1.181061172485351562e+02,9.073696136474609375e+01,-6.950529479980468750e+01,4.068992614746093750e+01,-1.365418910980224609e+01,-1.068978881835937500e+02,-1.247784194946289062e+02,6.341650390625000000e+01,-4.051384353637695312e+01
8.679999709129333496e-01,2.000000000000000000e+00,1.069273757934570312e+01,3.541617155075073242e+00,3.365254211425781250e+01,-1.181606521606445312e+02,9.073878479003906250e+01,-6.952895355224609375e+01,4.061951446533203125e+01,-1.364611148834228516e+01,-1.069114990234375000e+02,-1.248357543945312500e+02,6.341227722167968750e+01,-4.054270172119140625e+01
8.719999790191650391e-01,2.000000000000000000e+00,1.072075176239013672e+01,3.494971513748168945e+00,3.364618682861328125e+01,-1.182151794433593750e+02,9.074060058593750000e+01,-6.955261230468750000e+01,4.054910659790039062e+01,-1.363803482055664062e+01,-1.069251174926757812e+02,-1.248930816650390625e+02,6.340804672241210938e+01,-4.057155609130859375e+01
8.759999871253967285e-01,2.000000000000000000e+00,1.074876403808593750e+01,3.448328733444213867e+00,3.363982772827148438e+01,-1.182696990966796875e+02,9.074242401123046875e+01,-6.957627105712890625e+01,4.047869873046875000e+01,-1.362995910644531250e+01,-1.069387283325195312e+02,-1.249504165649414062e+02,6.340382003784179688e+01,-4.060041046142578125e+01
8.799999952316284180e-01,2.000000000000000000e+00,1.077677536010742188e+01,3.401689052581787109e+00,3.363347244262695312e+01,-1.183242187500000000e+02,9.074423980712890625e+01,-6.959992218017578125e+01,4.040829849243164062e+01,-1.362188339233398438e+01,-1.069523391723632812e+02,-1.250077514648437500e+02,6.339959335327148438e+01,-4.062926101684570312e+01
8.840000033378601074e-01,2.000000000000000000e+00,1.080478477478027344e+01,3.355052471160888672e+00,3.362711715698242188e+01,-1.183787384033203125e+02,9.074605560302734375e+01,-6.962357330322265625e+01,4.033790206909179688e+01,-1.361380767822265625e+01,-1.069659500122070312e+02,-1.250650711059570312e+02,6.339535903930664062e+01,-4.065811157226562500e+01
8.880000114440917969e-01,2.000000000000000000e+00,1.083279228210449219e+01,3.308419466018676758e+00,3.362076187133789062e+01,-1.184332427978515625e+02,9.074787902832031250e+01,-6.964722442626953125e+01,4.026750946044921875e+01,-1.360573387145996094e+01,-1.069795608520507812e+02,-1.251223907470703125e+02,6.339112854003906250e+01,-4.068695831298828125e+01
8.920000195503234863e-01,2.000000000000000000e+00,1.086079788208007812e+01,3.261789798736572266e+00,3.361440658569335938e+01,-1.184877471923828125e+02,9.074970245361328125e+01,-6.967087554931640625e+01,4.019712066650390625e+01,-1.359765815734863281e+01,-1.069931716918945312e+02,-1.251797027587890625e+02,6.338690185546875000e+01,-4.071580123901367188e+01
8.960000276565551758e-01,2.000000000000000000e+00,1.088880252838134766e+01,3.215162515640258789e+00,3.360805130004882812e+01,-1.185422668457031250e+02,9.075151824951171875e+01,-6.969451904296875000e+01,4.012673950195312500e+01,-1.358958530426025391e+01,-1.070067749023437500e+02,-1.252370147705078125e+02,6.338267517089843750e+01,-4.074464797973632812e+01
8.999999761581420898e-01,2.000000000000000000e+00,1.091680526733398438e+01,3.168538570404052734e+00,3.360169982910156250e+01,-1.185967559814453125e+02,9.075333404541015625e+01,-6.971817016601562500e+01,4.005635833740234375e+01,-1.358151245117187500e+01,-1.070203857421875000e+02,-1.252943267822265625e+02,6.337844467163085938e+01,-4.077349090576171875e+01
9.039999842643737793e-01,2.000000000000000000e+00,1.094480514526367188e+01,3.121916532516479492e+00,3.359534454345703125e+01,-1.186512603759765625e+02,9.075515747070312500e+01,-6.974181365966796875e+01,3.998598480224609375e+01,-1.357343864440917969e+01,-1.070339965820312500e+02,-1.253516387939453125e+02,6.337421798706054688e+01,-4.080233001708984375e+01
9.079999923706054688e-01,2.000000000000000000e+00,1.097280597686767578e+01,3.075296878814697266e+00,3.358899307250976562e+01,-1.187057495117187500e+02,9.075697326660156250e+01,-6.976545715332031250e+01,3.991561126708984375e+01,-1.356536674499511719e+01,-1.070475997924804688e+02,-1.254089431762695312e+02,6.336999130249023438e+01,-4.083117294311523438e+01
9.120000004768371582e-01,2.000000000000000000e+00,1.100080394744873047e+01,3.028679132461547852e+00,3.358264160156250000e+01,-1.187602462768554688e+02,9.075878906250000000e+01,-6.978910827636718750e+01,3.984524536132812500e+01,-1.355729484558105469e+01,-1.070612106323242188e+02,-1.254662322998046875e+02,6.336576843261718750e+01,-4.086000823974609375e+01
9.160000085830688477e-01,2.000000000000000000e+00,1.102880096435546875e+01,2.982063531875610352e+00,3.357628631591796875e+01,-1.188147354125976562e+02,9.076060485839843750e+01,-6.981274414062500000e+01,3.977487945556640625e+01,-1.354922294616699219e+01,-1.070748138427734375e+02,-1.255235366821289062e+02,6.336154174804687500e+01,-4.088884353637695312e+01
9.200000166893005371e-01,2.000000000000000000e+00,1.105679607391357422e+01,2.935450553894042969e+00,3.356993484497070312e+01,-1.188692245483398438e+02,9.076242828369140625e+01,-6.983638000488281250e+01,3.970452117919921875e+01,-1.354115200042724609e+01,-1.070884094238281250e+02,-1.255808258056640625e+02,6.335731506347656250e+01,-4.091767883300781250e+01
9.240000247955322266e-01,2.000000000000000000e+00,1.108478927612304688e+01,2.888839721679687500e+00,3.356358337402343750e+01,-1.189237136840820312e+02,9.076424407958984375e+01,-6.986002349853515625e+01,3.963416290283203125e+01,-1.353308200836181641e+01,-1.071020202636718750e+02,-1.256381225585937500e+02,6.335308456420898438e+01,-4.094651031494140625e+01
9.279999732971191406e-01,2.000000000000000000e+00,1.111278152465820312e+01,2.842231035232543945e+00,3.355723190307617188e+01,-1.189781951904296875e+02,9.076606750488281250e+01,-6.988365936279296875e+01,3.956380844116210938e+01,-1.352501201629638672e+01,-1.071156234741210938e+02,-1.256954116821289062e+02,6.334886550903320312e+01,-4.097534179687500000e+01
9.319999814033508301e-01,2.000000000000000000e+00,1.114077281951904297e+01,2.795624732971191406e+00,3.355088043212890625e+01,-1.190326690673828125e+02,9.076788330078125000e+01,-6.990729522705078125e+01,3.949346160888671875e+01,-1.351694202423095703e+01,-1.071292266845703125e+02,-1.257526931762695312e+02,6.334463500976562500e+01,-4.100416946411132812e+01
9.359999895095825195e-01,2.000000000000000000e+00,1.116876220703125000e+01,2.749021291732788086e+00,3.354453277587890625e+01,-1.190871505737304688e+02,9.076969909667968750e+01,-6.993093109130859375e+01,3.942311859130859375e+01,-1.350887298583984375e+01,-1.071428222656250000e+02,-1.258099670410156250e+02,6.334040832519531250e+01,-4.103300094604492188e+01
9.399999976158142090e-01,2.000000000000000000e+00,1.119674968719482422e+01,2.702419996261596680e+00,3.353818130493164062e+01,-1.191416168212890625e+02,9.077151489257812500e+01,-6.995456695556640625e+01,3.935277557373046875e+01,-1.350080394744873047e+01,-1.071564254760742188e+02,-1.258672637939453125e+02,6.333618927001953125e+01,-4.106182861328125000e+01
9.440000057220458984e-01,2.000000000000000000e+00,1.122473621368408203e+01,2.655821561813354492e+00,3.353182983398437500e+01,-1.191960906982421875e+02,9.077333068847656250e+01,-6.997819519042968750e+01,3.928243637084960938e+01,-1.349273490905761719e+01,-1.071700286865234375e+02,-1.259245223999023438e+02,6.333195877075195312e+01,-4.109065246582031250e+01
9.480000138282775879e-01,2.000000000000000000e+00,1.125272178649902344e+01,2.609225511550903320e+00,3.352548217773437500e+01,-1.192505569458007812e+02,9.077514648437500000e+01,-7.000183105468750000e+01,3.921210098266601562e+01,-1.348466682434082031e+01,-1.071836242675781250e+02,-1.259818038940429688e+02,6.332773208618164062e+01,-4.111947631835937500e+01
9.520000219345092773e-01,2.000000000000000000e+00,1.128070449829101562e+01,2.562632083892822266e+00,3.351913452148437500e+01,-1.193050155639648438e+02,9.077696990966796875e+01,-7.002546691894531250e+01,3.914177322387695312e+01,-1.347659969329833984e+01,-1.071972274780273438e+02,-1.260390777587890625e+02,6.332350921630859375e+01,-4.114829635620117188e+01
9.559999704360961914e-01,2.000000000000000000e+00,1.130868625640869141e+01,2.516041278839111328e+00,3.351278305053710938e+01,-1.193594818115234375e+02,9.077878570556640625e+01,-7.004908752441406250e+01,3.907144546508789062e+01,-1.346853256225585938e+01,-1.072108230590820312e+02,-1.260963439941406250e+02,6.331928253173828125e+01,-4.117712020874023438e+01
9.599999785423278809e-01,2.000000000000000000e+00,1.133666706085205078e+01,2.469452619552612305e+00,3.350643539428710938e+01,-1.194139480590820312e+02,9.078060913085937500e+01,-7.007272338867187500e+01,3.900112152099609375e+01,-1.346046447753906250e+01,-1.072244262695312500e+02,-1.261536102294921875e+02,6.331506347656250000e+01,-4.120594024658203125e+01
9.639999866485595703e-01,2.000000000000000000e+00,1.136464595794677734e+01,2.422865867614746094e+00,3.350008773803710938e+01,-1.194683990478515625e+02,9.078242492675781250e+01,-7.009634399414062500e+01,3.893080139160156250e+01,-1.345239830017089844e+01,-1.072380142211914062e+02,-1.262108764648437500e+02,6.331083297729492188e+01,-4.123475646972656250e+01
9.679999947547912598e-01,2.000000000000000000e+00,1.139262390136718750e+01,2.376281023025512695e+00,3.349374008178710938e+01,-1.195228500366210938e+02,9.078424072265625000e+01,-7.011997222900390625e+01,3.886048126220703125e+01,-1.344433212280273438e+01,-1.072516098022460938e+02,-1.262681274414062500e+02,6.330661392211914062e+01,-4.126357269287109375e+01
9.720000028610229492e-01,2.000000000000000000e+00,1.142060089111328125e+01,2.329698562622070312e+00,3.348738861083984375e+01,-1.195773086547851562e+02,9.078605651855468750e+01,-7.014360046386718750e+01,3.879016876220703125e+01,-1.343626594543457031e+01,-1.072652053833007812e+02,-1.263253860473632812e+02,6.330239105224609375e+01,-4.129238891601562500e+01
9.760000109672546387e-01,2.000000000000000000e+00,1.144857597351074219e+01,2.283118486404418945e+00,3.348104095458984375e+01,-1.196317520141601562e+02,9.078787231445312500e+01,-7.016722106933593750e+01,3.871985626220703125e+01,-1.342820072174072266e+01,-1.072788009643554688e+02,-1.263826370239257812e+02,6.329816436767578125e+01,-4.132120513916015625e+01
9.800000190734863281e-01,2.000000000000000000e+00,1.147655010223388672e+01,2.236540079116821289e+00,3.347469711303710938e+01,-1.196861953735351562e+02,9.078968811035156250e+01,-7.019084167480468750e+01,3.864954757690429688e+01,-1.342013549804687500e+01,-1.072923965454101562e+02,-1.264398880004882812e+02,6.329394149780273438e+01,-4.135001754760742188e+01
9.840000271797180176e-01,2.000000000000000000e+00,1.150452327728271484e+01,2.189964294433593750e+00,3.346834564208984375e+01,-1.197406463623046875e+02,9.079150390625000000e+01,-7.021446990966796875e+01,3.857924652099609375e+01,-1.341207122802734375e+01,-1.073059921264648438e+02,-1.264971389770507812e+02,6.328972244262695312e+01,-4.137882995605468750e+01
9.879999756813049316e-01,2.000000000000000000e+00,1.153249454498291016e+01,2.143390417098999023e+00,3.346200180053710938e+01,-1.197950820922851562e+02,9.079331970214843750e+01,-7.023809051513671875e+01,3.850894546508789062e+01,-1.340400695800781250e+01,-1.073195800781250000e+02,-1.265543899536132812e+02,6.328549575805664062e+01,-4.140763854980468750e+01
9.919999837875366211e-01,2.000000000000000000e+00,1.156046390533447266e+01,2.096818685531616211e+00,3.345565795898437500e+01,-1.198495254516601562e+02,9.079514312744140625e+01,-7.026170349121093750e+01,3.843864440917968750e+01,-1.339594268798828125e+01,-1.073331756591796875e+02,-1.266116256713867188e+02,6.328127288818359375e+01,-4.143645095825195312e+01
9.959999918937683105e-01,2.000000000000000000e+00,1.158843326568603516e+01,2.050249099731445312e+00,3.344931030273437500e+01,-1.199039611816406250e+02,9.079695892333984375e+01,-7.028532409667968750e+01,3.836835098266601562e+01,-1.338787841796875000e+01,-1.073467636108398438e+02,-1.266688766479492188e+02,6.327705383300781250e+01,-4.146525573730468750e+01
1.000000000000000000e+00,2.000000000000000000e+00,1.161640071868896484e+01,2.003681421279907227e+00,3.344296264648437500e+01,-1.199583969116210938e+02,9.079877471923828125e+01,-7.030894470214843750e+01,3.829806137084960938e+01,-1.337981605529785156e+01,-1.073603591918945312e+02,-1.267261123657226562e+02,6.327283096313476562e+01,-4.149406051635742188e+01
1.003999948501586914e+00,2.000000000000000000e+00,1.164436721801757812e+01,1.957116246223449707e+00,3.343661880493164062e+01,-1.200128326416015625e+02,9.080058288574218750e+01,-7.033255767822265625e+01,3.822777175903320312e+01,-1.337175273895263672e+01,-1.073739471435546875e+02,-1.267833557128906250e+02,6.326860809326171875e+01,-4.152286911010742188e+01
1.008000016212463379e+00,2.000000000000000000e+00,1.167233276367187500e+01,1.910552859306335449e+00,3.343027114868164062e+01,-1.200672531127929688e+02,9.080239868164062500e+01,-7.035617065429687500e+01,3.815748596191406250e+01,-1.336369037628173828e+01,-1.073875427246093750e+02,-1.268405761718750000e+02,6.326438140869140625e+01,-4.155167007446289062e+01
1.011999964714050293e+00,2.000000000000000000e+00,1.170029640197753906e+01,1.863991737365722656e+00,3.342393112182617188e+01,-1.201216888427734375e+02,9.080421447753906250e+01,-7.037978363037109375e+01,3.808720397949218750e+01,-1.335562801361083984e+01,-1.074011230468750000e+02,-1.268978118896484375e+02,6.326016235351562500e+01,-4.158047485351562500e+01
1.016000032424926758e+00,2.000000000000000000e+00,1.172825908660888672e+01,1.817432522773742676e+00,3.341758728027343750e+01,-1.201761169433593750e+02,9.080603790283203125e+01,-7.040339660644531250e+01,3.801692581176757812e+01,-1.334756565093994141e+01,-1.074147186279296875e+02,-1.269550399780273438e+02,6.325593948364257812e+01,-4.160927581787109375e+01
1.019999980926513672e+00,2.000000000000000000e+00,1.175621986389160156e+01,1.770875453948974609e+00,3.341123962402343750e+01,-1.202305374145507812e+02,9.080785369873046875e+01,-7.042700958251953125e+01,3.794665145874023438e+01,-1.333950519561767578e+01,-1.074283065795898438e+02,-1.270122604370117188e+02,6.325172042846679688e+01,-4.163807678222656250e+01
1.024000048637390137e+00,2.000000000000000000e+00,1.178417968750000000e+01,1.724320292472839355e+00,3.340489578247070312e+01,-1.202849502563476562e+02,9.080966949462890625e+01,-7.045062255859375000e+01,3.787637710571289062e+01,-1.333144378662109375e+01,-1.074418945312500000e+02,-1.270694808959960938e+02,6.324749755859375000e+01,-4.166687774658203125e+01
1.026999950408935547e+00,2.000000000000000000e+00,1.181213855743408203e+01,1.677767395973205566e+00,3.339855194091796875e+01,-1.203393707275390625e+02,9.081148529052734375e+01,-7.047423553466796875e+01,3.780610656738281250e+01,-1.332338333129882812e+01,-1.074554824829101562e+02,-1.271267089843750000e+02,6.324327850341796875e+01,-4.169567108154296875e+01
1.031999945640563965e+00,2.000000000000000000e+00,1.184009647369384766e+01,1.631216406822204590e+00,3.339220809936523438e+01,-1.203937759399414062e+02,9.081330108642578125e+01,-7.049784088134765625e+01,3.773583984375000000e+01,-1.331532287597656250e+01,-1.074690628051757812e+02,-1.271839294433593750e+02,6.323905563354492188e+01,-4.172446823120117188e+01
1.036000013351440430e+00,2.000000000000000000e+00,1.186805343627929688e+01,1.584667444229125977e+00,3.338586425781250000e+01,-1.204482040405273438e+02,9.081510925292968750e+01,-7.052145385742187500e+01,3.766557693481445312e+01,-1.330726242065429688e+01,-1.074826507568359375e+02,-1.272411422729492188e+02,6.323483276367187500e+01,-4.175326538085937500e+01
1.039999961853027344e+00,2.000000000000000000e+00,1.189600849151611328e+01,1.538120508193969727e+00,3.337952423095703125e+01,-1.205026092529296875e+02,9.081692504882812500e+01,-7.054505920410156250e+01,3.759531402587890625e+01,-1.329920196533203125e+01,-1.074962387084960938e+02,-1.272983627319335938e+02,6.323061370849609375e+01,-4.178205871582031250e+01
1.044000029563903809e+00,2.000000000000000000e+00,1.192396163940429688e+01,1.491575598716735840e+00,3.337318420410156250e+01,-1.205570220947265625e+02,9.081874847412109375e+01,-7.056866455078125000e+01,3.752505874633789062e+01,-1.329114341735839844e+01,-1.075098190307617188e+02,-1.273555755615234375e+02,6.322639083862304688e+01,-4.181084823608398438e+01
1.047999978065490723e+00,2.000000000000000000e+00,1.195191478729248047e+01,1.445032477378845215e+00,3.336683654785156250e+01,-1.206114196777343750e+02,9.082056427001953125e+01,-7.059226989746093750e+01,3.745480346679687500e+01,-1.328308486938476562e+01,-1.075234069824218750e+02,-1.274127807617187500e+02,6.322217941284179688e+01,-4.183964157104492188e+01
1.052000045776367188e+00,2.000000000000000000e+00,1.197986698150634766e+01,1.398491501808166504e+00,3.336049652099609375e+01,-1.206658248901367188e+02,9.082238006591796875e+01,-7.061587524414062500e+01,3.738455200195312500e+01,-1.327502632141113281e+01,-1.075369873046875000e+02,-1.274699783325195312e+02,6.321795654296875000e+01,-4.186843109130859375e+01
1.054999947547912598e+00,2.000000000000000000e+00,1.200781631469726562e+01,1.351952552795410156e+00,3.335415267944335938e+01,-1.207202224731445312e+02,9.082418823242187500e+01,-7.063948059082031250e+01,3.731430435180664062e+01,-1.326696681976318359e+01,-1.075505676269531250e+02,-1.275271911621093750e+02,6.321373748779296875e+01,-4.189722061157226562e+01
1.059999942779541016e+00,2.000000000000000000e+00,1.203576564788818359e+01,1.305415391921997070e+00,3.334781265258789062e+01,-1.207746276855468750e+02,9.082600402832031250e+01,-7.066307830810546875e+01,3.724406051635742188e+01,-1.325890922546386719e+01,-1.075641555786132812e+02,-1.275843811035156250e+02,6.320951461791992188e+01,-4.192600631713867188e+01
1.064000010490417480e+00,2.000000000000000000e+00,1.206371402740478516e+01,1.258880138397216797e+00,3.334147262573242188e+01,-1.208290252685546875e+02,9.082781982421875000e+01,-7.068668365478515625e+01,3.717381286621093750e+01,-1.325085163116455078e+01,-1.075777359008789062e+02,-1.276415786743164062e+02,6.320529556274414062e+01,-4.195479202270507812e+01
1.067999958992004395e+00,2.000000000000000000e+00,1.209166145324707031e+01,1.212346911430358887e+00,3.333513259887695312e+01,-1.208834075927734375e+02,9.082963562011718750e+01,-7.071028137207031250e+01,3.710357666015625000e+01,-1.324279403686523438e+01,-1.075913162231445312e+02,-1.276987762451171875e+02,6.320108032226562500e+01,-4.198357772827148438e+01
1.072000026702880859e+00,2.000000000000000000e+00,1.211960697174072266e+01,1.165815711021423340e+00,3.332878875732421875e+01,-1.209378051757812500e+02,9.083145141601562500e+01,-7.073387908935546875e+01,3.703333663940429688e+01,-1.323473739624023438e+01,-1.076048965454101562e+02,-1.277559738159179688e+02,6.319685745239257812e+01,-4.201236343383789062e+01
1.075999975204467773e+00,2.000000000000000000e+00,1.214755249023437500e+01,1.119286298751831055e+00,3.332245254516601562e+01,-1.209922027587890625e+02,9.083326721191406250e+01,-7.075747680664062500e+01,3.696310424804687500e+01,-1.322668075561523438e+01,-1.076184768676757812e+02,-1.278131637573242188e+02,6.319263839721679688e+01,-4.204114532470703125e+01
1.080000042915344238e+00,2.000000000000000000e+00,1.217549514770507812e+01,1.072758793830871582e+00,3.331610870361328125e+01,-1.210465774536132812e+02,9.083508300781250000e+01,-7.078107452392578125e+01,3.689287185668945312e+01,-1.321862411499023438e+01,-1.076320571899414062e+02,-1.278703613281250000e+02,6.318842315673828125e+01,-4.206993103027343750e+01
1.083999991416931152e+00,2.000000000000000000e+00,1.220343780517578125e+01,1.026233196258544922e+00,3.330977249145507812e+01,-1.211009597778320312e+02,9.083689117431640625e+01,-7.080466461181640625e+01,3.682264328002929688e+01,-1.321056842803955078e+01,-1.076456298828125000e+02,-1.279275436401367188e+02,6.318420410156250000e+01,-4.209870910644531250e+01
1.088000059127807617e+00,2.000000000000000000e+00,1.223137950897216797e+01,9.797094464302062988e-01,3.330342864990234375e+01,-1.211553421020507812e+02,9.083870697021484375e+01,-7.082826232910156250e+01,3.675241851806640625e+01,-1.320251274108886719e+01,-1.076592102050781250e+02,-1.279847259521484375e+02,6.317998123168945312e+01,-4.212748718261718750e+01
1.090999960899353027e+00,2.000000000000000000e+00,1.225931930541992188e+01,9.331875443458557129e-01,3.329709243774414062e+01,-1.212097244262695312e+02,9.084053039550781250e+01,-7.085185241699218750e+01,3.668219757080078125e+01,-1.319445705413818359e+01,-1.076727905273437500e+02,-1.280419158935546875e+02,6.317576599121093750e+01,-4.215626525878906250e+01
1.095999956130981445e+00,2.000000000000000000e+00,1.228725814819335938e+01,8.866675496101379395e-01,3.329075241088867188e+01,-1.212641067504882812e+02,9.084233856201171875e+01,-7.087545013427734375e+01,3.661197662353515625e+01,-1.318640232086181641e+01,-1.076863708496093750e+02,-1.280990905761718750e+02,6.317154693603515625e+01,-4.218504333496093750e+01
1.100000023841857910e+00,2.000000000000000000e+00,1.231519603729248047e+01,8.401492834091186523e-01,3.328440856933593750e+01,-1.213184890747070312e+02,9.084415435791015625e+01,-7.089904785156250000e+01,3.654175949096679688e+01,-1.317834758758544922e+01,-1.076999435424804688e+02,-1.281562805175781250e+02,6.316733169555664062e+01,-4.221381759643554688e+01
1.103999972343444824e+00,2.000000000000000000e+00,1.234313297271728516e+01,7.936329841613769531e-01,3.327807235717773438e+01,-1.213728561401367188e+02,9.084597015380859375e+01,-7.092263793945312500e+01,3.647154235839843750e+01,-1.317029380798339844e+01,-1.077135162353515625e+02,-1.282134399414062500e+02,6.316311264038085938e+01,-4.224259185791015625e+01
1.108000040054321289e+00,2.000000000000000000e+00,1.237106800079345703e+01,7.471184134483337402e-01,3.327173233032226562e+01,-1.214272384643554688e+02,9.084777832031250000e+01,-7.094622039794921875e+01,3.640133285522460938e+01,-1.316223907470703125e+01,-1.077270965576171875e+02,-1.282706146240234375e+02,6.315889739990234375e+01,-4.227136993408203125e+01
1.111999988555908203e+00,2.000000000000000000e+00,1.239900302886962891e+01,7.006056904792785645e-01,3.326539611816406250e+01,-1.214816131591796875e+02,9.084959411621093750e+01,-7.096981048583984375e+01,3.633112716674804688e+01,-1.315418529510498047e+01,-1.077406692504882812e+02,-1.283277893066406250e+02,6.315467453002929688e+01,-4.230014038085937500e+01
