rpiRobotics/ARM-21-02-F-19-Robot-Motion-Program/data_performance_abb/curve_2/dual_arm/diffevo_pose6/grad_result/sim/dual_iteration_2.csv
timestamp,cmd_num,J1,J2,J3,J4,J5,J6,J1_2,J2_2,J3_2,J4_2,J5_2,J6_2
0.000000000000000000e+00,-1.000000000000000000e+00,5.446869850158691406e+00,1.127844429016113281e+01,3.571123504638671875e+01,-1.090450897216796875e+02,9.029057312011718750e+01,-6.533702850341796875e+01,5.233368682861328125e+01,-1.256881523132324219e+01,-1.092093811035156250e+02,-1.123023605346679688e+02,6.382703399658203125e+01,-3.781170654296875000e+01
2.000000094994902611e-03,-1.000000000000000000e+00,5.446869850158691406e+00,1.127844429016113281e+01,3.571123504638671875e+01,-1.090450897216796875e+02,9.029057312011718750e+01,-6.533702850341796875e+01,5.233368682861328125e+01,-1.256881523132324219e+01,-1.092093811035156250e+02,-1.123023605346679688e+02,6.382703399658203125e+01,-3.781170654296875000e+01
4.000000189989805222e-03,-1.000000000000000000e+00,5.446869850158691406e+00,1.127844429016113281e+01,3.571123504638671875e+01,-1.090450897216796875e+02,9.029057312011718750e+01,-6.533702850341796875e+01,5.233368682861328125e+01,-1.256881523132324219e+01,-1.092093811035156250e+02,-1.123023605346679688e+02,6.382703399658203125e+01,-3.781170654296875000e+01
9.999999776482582092e-03,-1.000000000000000000e+00,5.446869850158691406e+00,1.127844429016113281e+01,3.571123504638671875e+01,-1.090450897216796875e+02,9.029057312011718750e+01,-6.533702850341796875e+01,5.233368682861328125e+01,-1.256881523132324219e+01,-1.092093811035156250e+02,-1.123023605346679688e+02,6.382703399658203125e+01,-3.781170654296875000e+01
1.200000010430812836e-02,-1.000000000000000000e+00,5.446869850158691406e+00,1.127844429016113281e+01,3.571123504638671875e+01,-1.090450897216796875e+02,9.029057312011718750e+01,-6.533702850341796875e+01,5.233368682861328125e+01,-1.256881523132324219e+01,-1.092093811035156250e+02,-1.123023605346679688e+02,6.382703399658203125e+01,-3.781170654296875000e+01
1.600000075995922089e-02,-1.000000000000000000e+00,5.446869850158691406e+00,1.127844429016113281e+01,3.571123504638671875e+01,-1.090450897216796875e+02,9.029057312011718750e+01,-6.533702850341796875e+01,5.233368682861328125e+01,-1.256881523132324219e+01,-1.092093811035156250e+02,-1.123023605346679688e+02,6.382703399658203125e+01,-3.781170654296875000e+01
1.999999955296516418e-02,-1.000000000000000000e+00,5.446869850158691406e+00,1.127844429016113281e+01,3.571123504638671875e+01,-1.090450897216796875e+02,9.029057312011718750e+01,-6.533702850341796875e+01,5.233368682861328125e+01,-1.256881523132324219e+01,-1.092093811035156250e+02,-1.123023605346679688e+02,6.382703399658203125e+01,-3.781170654296875000e+01
2.400000020861625671e-02,-1.000000000000000000e+00,5.446869850158691406e+00,1.127844429016113281e+01,3.571123504638671875e+01,-1.090450897216796875e+02,9.029057312011718750e+01,-6.533702850341796875e+01,5.233368682861328125e+01,-1.256881523132324219e+01,-1.092093811035156250e+02,-1.123023605346679688e+02,6.382703399658203125e+01,-3.781170654296875000e+01
2.899999916553497314e-02,2.000000000000000000e+00,5.446869850158691406e+00,1.127844429016113281e+01,3.571123504638671875e+01,-1.090450897216796875e+02,9.029057312011718750e+01,-6.533702850341796875e+01,5.233368682861328125e+01,-1.256881523132324219e+01,-1.092093811035156250e+02,-1.123023605346679688e+02,6.382703399658203125e+01,-3.781170654296875000e+01
3.500000014901161194e-02,2.000000000000000000e+00,5.446869850158691406e+00,1.127844429016113281e+01,3.571123504638671875e+01,-1.090450897216796875e+02,9.029057312011718750e+01,-6.533702850341796875e+01,5.233368682861328125e+01,-1.256881523132324219e+01,-1.092093811035156250e+02,-1.123023605346679688e+02,6.382703399658203125e+01,-3.781170654296875000e+01
3.900000080466270447e-02,2.000000000000000000e+00,5.446869850158691406e+00,1.127844429016113281e+01,3.571123504638671875e+01,-1.090450897216796875e+02,9.029057312011718750e+01,-6.533702850341796875e+01,5.233368682861328125e+01,-1.256881523132324219e+01,-1.092093811035156250e+02,-1.123023605346679688e+02,6.382703399658203125e+01,-3.781170654296875000e+01
4.100000113248825073e-02,2.000000000000000000e+00,5.446869850158691406e+00,1.127844429016113281e+01,3.571123504638671875e+01,-1.090450897216796875e+02,9.029057312011718750e+01,-6.533702850341796875e+01,5.233368682861328125e+01,-1.256881523132324219e+01,-1.092093811035156250e+02,-1.123023605346679688e+02,6.382703399658203125e+01,-3.781170654296875000e+01
4.600000008940696716e-02,2.000000000000000000e+00,5.446869850158691406e+00,1.127844429016113281e+01,3.571123504638671875e+01,-1.090450897216796875e+02,9.029057312011718750e+01,-6.533702850341796875e+01,5.233368682861328125e+01,-1.256881523132324219e+01,-1.092093811035156250e+02,-1.123023605346679688e+02,6.382703399658203125e+01,-3.781170654296875000e+01
4.800000041723251343e-02,2.000000000000000000e+00,5.446869850158691406e+00,1.127844429016113281e+01,3.571123504638671875e+01,-1.090450897216796875e+02,9.029057312011718750e+01,-6.533702850341796875e+01,5.233368682861328125e+01,-1.256881523132324219e+01,-1.092093811035156250e+02,-1.123023605346679688e+02,6.382703399658203125e+01,-3.781170654296875000e+01
5.200000107288360596e-02,2.000000000000000000e+00,5.446869850158691406e+00,1.127844429016113281e+01,3.571123504638671875e+01,-1.090450897216796875e+02,9.029057312011718750e+01,-6.533702850341796875e+01,5.233368682861328125e+01,-1.256881523132324219e+01,-1.092093811035156250e+02,-1.123023605346679688e+02,6.382703399658203125e+01,-3.781170654296875000e+01
5.600000172853469849e-02,2.000000000000000000e+00,5.446869850158691406e+00,1.127844429016113281e+01,3.571123504638671875e+01,-1.090450897216796875e+02,9.029057312011718750e+01,-6.533702850341796875e+01,5.233368682861328125e+01,-1.256881523132324219e+01,-1.092093811035156250e+02,-1.123023605346679688e+02,6.382703399658203125e+01,-3.781170654296875000e+01
5.999999865889549255e-02,2.000000000000000000e+00,5.446869850158691406e+00,1.127844429016113281e+01,3.571123504638671875e+01,-1.090450897216796875e+02,9.029057312011718750e+01,-6.533702850341796875e+01,5.233368682861328125e+01,-1.256881523132324219e+01,-1.092093811035156250e+02,-1.123023605346679688e+02,6.382703399658203125e+01,-3.781170654296875000e+01
6.400000303983688354e-02,2.000000000000000000e+00,5.446869850158691406e+00,1.127844429016113281e+01,3.571123504638671875e+01,-1.090450897216796875e+02,9.029057312011718750e+01,-6.533702850341796875e+01,5.233368682861328125e+01,-1.256881523132324219e+01,-1.092093811035156250e+02,-1.123023605346679688e+02,6.382703399658203125e+01,-3.781170654296875000e+01
6.800000369548797607e-02,2.000000000000000000e+00,5.446869850158691406e+00,1.127844429016113281e+01,3.571123504638671875e+01,-1.090450897216796875e+02,9.029057312011718750e+01,-6.533702850341796875e+01,5.233368682861328125e+01,-1.256881523132324219e+01,-1.092093811035156250e+02,-1.123023605346679688e+02,6.382703399658203125e+01,-3.781170654296875000e+01
7.199999690055847168e-02,2.000000000000000000e+00,5.446900367736816406e+00,1.127842044830322266e+01,3.571123504638671875e+01,-1.090450897216796875e+02,9.029057312011718750e+01,-6.533702850341796875e+01,5.233368682861328125e+01,-1.256881523132324219e+01,-1.092093811035156250e+02,-1.123023605346679688e+02,6.382703399658203125e+01,-3.781170654296875000e+01
7.599999755620956421e-02,2.000000000000000000e+00,5.447083473205566406e+00,1.127827358245849609e+01,3.571123504638671875e+01,-1.090450973510742188e+02,9.029057312011718750e+01,-6.533702850341796875e+01,5.233368682861328125e+01,-1.256881523132324219e+01,-1.092093811035156250e+02,-1.123023605346679688e+02,6.382703399658203125e+01,-3.781170654296875000e+01
7.999999821186065674e-02,2.000000000000000000e+00,5.447622776031494141e+00,1.127782154083251953e+01,3.571124267578125000e+01,-1.090451354980468750e+02,9.029059600830078125e+01,-6.533704376220703125e+01,5.233368682861328125e+01,-1.256881523132324219e+01,-1.092093811035156250e+02,-1.123023605346679688e+02,6.382703399658203125e+01,-3.781170654296875000e+01
8.399999886751174927e-02,2.000000000000000000e+00,5.448702335357666016e+00,1.127685546875000000e+01,3.571125030517578125e+01,-1.090452346801757812e+02,9.029062652587890625e+01,-6.533708190917968750e+01,5.233365249633789062e+01,-1.256881904602050781e+01,-1.092093811035156250e+02,-1.123023605346679688e+02,6.382703399658203125e+01,-3.781170654296875000e+01
8.799999952316284180e-02,2.000000000000000000e+00,5.450410842895507812e+00,1.127521133422851562e+01,3.571125411987304688e+01,-1.090454788208007812e+02,9.029069519042968750e+01,-6.533715820312500000e+01,5.233344650268554688e+01,-1.256884098052978516e+01,-1.092093276977539062e+02,-1.123023757934570312e+02,6.382702636718750000e+01,-3.781171035766601562e+01
9.200000017881393433e-02,2.000000000000000000e+00,5.452769756317138672e+00,1.127276420593261719e+01,3.571124267578125000e+01,-1.090459671020507812e+02,9.029079437255859375e+01,-6.533734893798828125e+01,5.233276367187500000e+01,-1.256890869140625000e+01,-1.092091827392578125e+02,-1.123024368286132812e+02,6.382701110839843750e+01,-3.781173324584960938e+01
9.600000083446502686e-02,2.000000000000000000e+00,5.455802440643310547e+00,1.126938152313232422e+01,3.571118927001953125e+01,-1.090468597412109375e+02,9.029092407226562500e+01,-6.533770751953125000e+01,5.233122253417968750e+01,-1.256905174255371094e+01,-1.092088775634765625e+02,-1.123026275634765625e+02,6.382698440551757812e+01,-3.781180572509765625e+01
1.000000014901161194e-01,2.000000000000000000e+00,5.459532260894775391e+00,1.126490974426269531e+01,3.571106719970703125e+01,-1.090483551025390625e+02,9.029109954833984375e+01,-6.533831787109375000e+01,5.232845306396484375e+01,-1.256927585601806641e+01,-1.092083892822265625e+02,-1.123031082153320312e+02,6.382691574096679688e+01,-3.781200408935546875e+01
1.040000021457672119e-01,2.000000000000000000e+00,5.463980674743652344e+00,1.125916481018066406e+01,3.571084976196289062e+01,-1.090506896972656250e+02,9.029132843017578125e+01,-6.533929443359375000e+01,5.232410430908203125e+01,-1.256956768035888672e+01,-1.092077255249023438e+02,-1.123041076660156250e+02,6.382680892944335938e+01,-3.781242752075195312e+01
1.080000028014183044e-01,2.000000000000000000e+00,5.469226360321044922e+00,1.125192546844482422e+01,3.571049118041992188e+01,-1.090541458129882812e+02,9.029161834716796875e+01,-6.534075927734375000e+01,5.231780624389648438e+01,-1.256989192962646484e+01,-1.092069549560546875e+02,-1.123059768676757812e+02,6.382662963867187500e+01,-3.781322860717773438e+01
1.120000034570693970e-01,2.000000000000000000e+00,5.475435256958007812e+00,1.124293041229248047e+01,3.570994949340820312e+01,-1.090590515136718750e+02,9.029197692871093750e+01,-6.534284973144531250e+01,5.230920410156250000e+01,-1.257019138336181641e+01,-1.092061691284179688e+02,-1.123091125488281250e+02,6.382635116577148438e+01,-3.781460189819335938e+01
1.159999966621398926e-01,2.000000000000000000e+00,5.482835769653320312e+00,1.123187351226806641e+01,3.570917510986328125e+01,-1.090657653808593750e+02,9.029243469238281250e+01,-6.534573364257812500e+01,5.229801177978515625e+01,-1.257038497924804688e+01,-1.092055282592773438e+02,-1.123140335083007812e+02,6.382595443725585938e+01,-3.781677246093750000e+01
1.199999973177909851e-01,2.000000000000000000e+00,5.491597652435302734e+00,1.121851348876953125e+01,3.570811462402343750e+01,-1.090746917724609375e+02,9.029297637939453125e+01,-6.534957885742187500e+01,5.228390502929687500e+01,-1.257038116455078125e+01,-1.092051696777343750e+02,-1.123212661743164062e+02,6.382540130615234375e+01,-3.781998825073242188e+01
1.239999979734420776e-01,2.000000000000000000e+00,5.501698017120361328e+00,1.120286846160888672e+01,3.570669555664062500e+01,-1.090862350463867188e+02,9.029362487792968750e+01,-6.535458374023437500e+01,5.226643753051757812e+01,-1.257010078430175781e+01,-1.092052536010742188e+02,-1.123313522338867188e+02,6.382466125488281250e+01,-3.782449340820312500e+01
1.280000060796737671e-01,2.000000000000000000e+00,5.512931346893310547e+00,1.118523216247558594e+01,3.570485305786132812e+01,-1.091008148193359375e+02,9.029436492919921875e+01,-6.536093139648437500e+01,5.224503326416015625e+01,-1.256948280334472656e+01,-1.092058715820312500e+02,-1.123448638916015625e+02,6.382369995117187500e+01,-3.783053970336914062e+01
1.309999972581863403e-01,2.000000000000000000e+00,5.525078296661376953e+00,1.116593360900878906e+01,3.570251846313476562e+01,-1.091187744140625000e+02,9.029518127441406250e+01,-6.536877441406250000e+01,5.221914672851562500e+01,-1.256846618652343750e+01,-1.092071304321289062e+02,-1.123623275756835938e+02,6.382248306274414062e+01,-3.783838272094726562e+01
1.360000073909759521e-01,2.000000000000000000e+00,5.538059234619140625e+00,1.114509773254394531e+01,3.569964218139648438e+01,-1.091404037475585938e+02,9.029608154296875000e+01,-6.537827301025390625e+01,5.218856430053710938e+01,-1.256695747375488281e+01,-1.092091903686523438e+02,-1.123842544555664062e+02,6.382098007202148438e+01,-3.784823608398437500e+01
1.389999985694885254e-01,2.000000000000000000e+00,5.551910877227783203e+00,1.112267684936523438e+01,3.569620513916015625e+01,-1.091658782958984375e+02,9.029705047607421875e+01,-6.538947296142578125e+01,5.215349197387695312e+01,-1.256483554840087891e+01,-1.092123107910156250e+02,-1.124110565185546875e+02,6.381917953491210938e+01,-3.786030578613281250e+01
1.439999938011169434e-01,2.000000000000000000e+00,5.566704273223876953e+00,1.109857273101806641e+01,3.569219589233398438e+01,-1.091952362060546875e+02,9.029811096191406250e+01,-6.540241241455078125e+01,5.211433029174804688e+01,-1.256198501586914062e+01,-1.092166976928710938e+02,-1.124430007934570312e+02,6.381706619262695312e+01,-3.787471771240234375e+01
1.480000019073486328e-01,2.000000000000000000e+00,5.582547664642333984e+00,1.107262897491455078e+01,3.568762969970703125e+01,-1.092284317016601562e+02,9.029924774169921875e+01,-6.541706848144531250e+01,5.207145309448242188e+01,-1.255834579467773438e+01,-1.092224884033203125e+02,-1.124801635742187500e+02,6.381464767456054688e+01,-3.789150619506835938e+01
1.519999951124191284e-01,2.000000000000000000e+00,5.599575996398925781e+00,1.104463768005371094e+01,3.568253707885742188e+01,-1.092652969360351562e+02,9.030048370361328125e+01,-6.543334197998046875e+01,5.202520370483398438e+01,-1.255391979217529297e+01,-1.092296981811523438e+02,-1.125223693847656250e+02,6.381193923950195312e+01,-3.791059494018554688e+01
1.560000032186508179e-01,2.000000000000000000e+00,5.617861747741699219e+00,1.101448059082031250e+01,3.567695999145507812e+01,-1.093055725097656250e+02,9.030182647705078125e+01,-6.545114135742187500e+01,5.197592163085937500e+01,-1.254876708984375000e+01,-1.092382125854492188e+02,-1.125691909790039062e+02,6.380895996093750000e+01,-3.793179321289062500e+01
1.599999964237213135e-01,2.000000000000000000e+00,5.637332916259765625e+00,1.098223876953125000e+01,3.567094802856445312e+01,-1.093489608764648438e+02,9.030325317382812500e+01,-6.547030639648437500e+01,5.192369461059570312e+01,-1.254303264617919922e+01,-1.092477722167968750e+02,-1.126199874877929688e+02,6.380574417114257812e+01,-3.795479965209960938e+01
1.640000045299530029e-01,2.000000000000000000e+00,5.657776355743408203e+00,1.094817352294921875e+01,3.566454696655273438e+01,-1.093950805664062500e+02,9.030475616455078125e+01,-6.549069213867187500e+01,5.186822509765625000e+01,-1.253694343566894531e+01,-1.092579421997070312e+02,-1.126739654541015625e+02,6.380231475830078125e+01,-3.797924423217773438e+01
1.679999977350234985e-01,2.000000000000000000e+00,5.678951740264892578e+00,1.091254901885986328e+01,3.565781402587890625e+01,-1.094435653686523438e+02,9.030634307861328125e+01,-6.551212310791015625e+01,5.180920410156250000e+01,-1.253073120117187500e+01,-1.092682723999023438e+02,-1.127303009033203125e+02,6.379872894287109375e+01,-3.800474548339843750e+01
1.720000058412551880e-01,2.000000000000000000e+00,5.700785636901855469e+00,1.087544441223144531e+01,3.565081787109375000e+01,-1.094939575195312500e+02,9.030799102783203125e+01,-6.553439331054687500e+01,5.174674606323242188e+01,-1.252456378936767578e+01,-1.092784500122070312e+02,-1.127882232666015625e+02,6.379501342773437500e+01,-3.803095626831054688e+01
1.759999990463256836e-01,2.000000000000000000e+00,5.723427295684814453e+00,1.083675003051757812e+01,3.564362335205078125e+01,-1.095458602905273438e+02,9.030970001220703125e+01,-6.555732727050781250e+01,5.168133926391601562e+01,-1.251852893829345703e+01,-1.092883071899414062e+02,-1.128471374511718750e+02,6.379120635986328125e+01,-3.805759048461914062e+01
1.800000071525573730e-01,2.000000000000000000e+00,5.747098922729492188e+00,1.079634571075439453e+01,3.563629913330078125e+01,-1.095988540649414062e+02,9.031147766113281250e+01,-6.558072662353515625e+01,5.161358261108398438e+01,-1.251265525817871094e+01,-1.092977981567382812e+02,-1.129065780639648438e+02,6.378734207153320312e+01,-3.808444976806640625e+01
1.840000003576278687e-01,2.000000000000000000e+00,5.771901607513427734e+00,1.075426864624023438e+01,3.562889480590820312e+01,-1.096525955200195312e+02,9.031333160400390625e+01,-6.560443878173828125e+01,5.154409408569335938e+01,-1.250693607330322266e+01,-1.093069686889648438e+02,-1.129662628173828125e+02,6.378344345092773438e+01,-3.811140060424804688e+01
1.879999935626983643e-01,2.000000000000000000e+00,5.797817230224609375e+00,1.071069335937500000e+01,3.562145614624023438e+01,-1.097068023681640625e+02,9.031523895263671875e+01,-6.562833404541015625e+01,5.147357177734375000e+01,-1.250132083892822266e+01,-1.093158950805664062e+02,-1.130260314941406250e+02,6.377952957153320312e+01,-3.813838577270507812e+01
1.920000016689300537e-01,2.000000000000000000e+00,5.824793815612792969e+00,1.066584873199462891e+01,3.561400604248046875e+01,-1.097612609863281250e+02,9.031719207763671875e+01,-6.565233612060546875e+01,5.140261077880859375e+01,-1.249575519561767578e+01,-1.093247299194335938e+02,-1.130858154296875000e+02,6.377560043334960938e+01,-3.816537475585937500e+01
1.959999948740005493e-01,2.000000000000000000e+00,5.852674961090087891e+00,1.062004661560058594e+01,3.560656356811523438e+01,-1.098158340454101562e+02,9.031918334960937500e+01,-6.567638397216796875e+01,5.133155441284179688e+01,-1.249020099639892578e+01,-1.093335266113281250e+02,-1.131455993652343750e+02,6.377167510986328125e+01,-3.819236755371093750e+01
2.000000029802322388e-01,2.000000000000000000e+00,5.881155014038085938e+00,1.057368087768554688e+01,3.559912872314453125e+01,-1.098704605102539062e+02,9.032119750976562500e+01,-6.570043182373046875e+01,5.126049804687500000e+01,-1.248464870452880859e+01,-1.093423309326171875e+02,-1.132053833007812500e+02,6.376775360107421875e+01,-3.821935272216796875e+01
2.039999961853027344e-01,2.000000000000000000e+00,5.909895420074462891e+00,1.052709197998046875e+01,3.559169387817382812e+01,-1.099250869750976562e+02,9.032321929931640625e+01,-6.572448730468750000e+01,5.118944931030273438e+01,-1.247909641265869141e+01,-1.093511276245117188e+02,-1.132651519775390625e+02,6.376382446289062500e+01,-3.824633407592773438e+01
2.080000042915344238e-01,2.000000000000000000e+00,5.938692092895507812e+00,1.048045921325683594e+01,3.558426284790039062e+01,-1.099797134399414062e+02,9.032524108886718750e+01,-6.574853515625000000e+01,5.111841201782226562e+01,-1.247354602813720703e+01,-1.093599243164062500e+02,-1.133249130249023438e+02,6.375990676879882812e+01,-3.827331161499023438e+01
2.119999974966049194e-01,2.000000000000000000e+00,5.967488765716552734e+00,1.043383026123046875e+01,3.557683181762695312e+01,-1.100343322753906250e+02,9.032727050781250000e+01,-6.577258300781250000e+01,5.104737472534179688e+01,-1.246799468994140625e+01,-1.093687133789062500e+02,-1.133846740722656250e+02,6.375597763061523438e+01,-3.830028533935546875e+01
2.160000056028366089e-01,2.000000000000000000e+00,5.996282577514648438e+00,1.038720607757568359e+01,3.556940078735351562e+01,-1.100889511108398438e+02,9.032929229736328125e+01,-6.579663085937500000e+01,5.097635650634765625e+01,-1.246244525909423828e+01,-1.093775100708007812e+02,-1.134444198608398438e+02,6.375205612182617188e+01,-3.832725906372070312e+01
2.199999988079071045e-01,2.000000000000000000e+00,6.025073051452636719e+00,1.034058666229248047e+01,3.556197357177734375e+01,-1.101435546875000000e+02,9.033131408691406250e+01,-6.582067871093750000e+01,5.090533828735351562e+01,-1.245689678192138672e+01,-1.093862991333007812e+02,-1.135041732788085938e+02,6.374813842773437500e+01,-3.835423278808593750e+01
2.240000069141387939e-01,2.000000000000000000e+00,6.053860187530517578e+00,1.029397296905517578e+01,3.555454635620117188e+01,-1.101981582641601562e+02,9.033334350585937500e+01,-6.584471893310546875e+01,5.083433151245117188e+01,-1.245134830474853516e+01,-1.093950958251953125e+02,-1.135639114379882812e+02,6.374421691894531250e+01,-3.838119506835937500e+01
2.280000001192092896e-01,2.000000000000000000e+00,6.082644462585449219e+00,1.024736404418945312e+01,3.554711914062500000e+01,-1.102527542114257812e+02,9.033536529541015625e+01,-6.586875152587890625e+01,5.076333236694335938e+01,-1.244579982757568359e+01,-1.094038848876953125e+02,-1.136236419677734375e+02,6.374028778076171875e+01,-3.840815734863281250e+01
2.319999933242797852e-01,2.000000000000000000e+00,6.111424922943115234e+00,1.020076179504394531e+01,3.553969573974609375e+01,-1.103073425292968750e+02,9.033738708496093750e+01,-6.589279174804687500e+01,5.069234085083007812e+01,-1.244025230407714844e+01,-1.094126815795898438e+02,-1.136833648681640625e+02,6.373637008666992188e+01,-3.843511962890625000e+01
2.360000014305114746e-01,2.000000000000000000e+00,6.140202522277832031e+00,1.015416431427001953e+01,3.553226852416992188e+01,-1.103619232177734375e+02,9.033940887451171875e+01,-6.591681671142578125e+01,5.062135696411132812e+01,-1.243470573425292969e+01,-1.094214630126953125e+02,-1.137430801391601562e+02,6.373244857788085938e+01,-3.846207809448242188e+01
2.399999946355819702e-01,2.000000000000000000e+00,6.168977260589599609e+00,1.010757064819335938e+01,3.552484130859375000e+01,-1.104165039062500000e+02,9.034143829345703125e+01,-6.594084930419921875e+01,5.055038070678710938e+01,-1.242916011810302734e+01,-1.094302520751953125e+02,-1.138027877807617188e+02,6.372852706909179688e+01,-3.848903274536132812e+01
2.440000027418136597e-01,2.000000000000000000e+00,6.197748661041259766e+00,1.006098270416259766e+01,3.551742172241210938e+01,-1.104710769653320312e+02,9.034346008300781250e+01,-6.596487426757812500e+01,5.047941589355468750e+01,-1.242361450195312500e+01,-1.094390411376953125e+02,-1.138624954223632812e+02,6.372460556030273438e+01,-3.851598358154296875e+01
2.479999959468841553e-01,2.000000000000000000e+00,6.226516723632812500e+00,1.001440048217773438e+01,3.550999832153320312e+01,-1.105256423950195312e+02,9.034548187255859375e+01,-6.598889923095703125e+01,5.040845108032226562e+01,-1.241807079315185547e+01,-1.094478302001953125e+02,-1.139221878051757812e+02,6.372069168090820312e+01,-3.854293060302734375e+01
2.520000040531158447e-01,2.000000000000000000e+00,6.255281448364257812e+00,9.967823028564453125e+00,3.550257492065429688e+01,-1.105802001953125000e+02,9.034750366210937500e+01,-6.601291656494140625e+01,5.033750534057617188e+01,-1.241252613067626953e+01,-1.094566116333007812e+02,-1.139818801879882812e+02,6.371677398681640625e+01,-3.856987762451171875e+01
2.560000121593475342e-01,2.000000000000000000e+00,6.284043312072753906e+00,9.921251296997070312e+00,3.549515533447265625e+01,-1.106347579956054688e+02,9.034952545166015625e+01,-6.603694152832031250e+01,5.026655960083007812e+01,-1.240698242187500000e+01,-1.094653930664062500e+02,-1.140415649414062500e+02,6.371285247802734375e+01,-3.859681701660156250e+01
2.599999904632568359e-01,2.000000000000000000e+00,6.312801837921142578e+00,9.874684333801269531e+00,3.548773193359375000e+01,-1.106893005371093750e+02,9.035154724121093750e+01,-6.606095886230468750e+01,5.019562149047851562e+01,-1.240143871307373047e+01,-1.094741744995117188e+02,-1.141012420654296875e+02,6.370893859863281250e+01,-3.862375640869140625e+01
2.639999985694885254e-01,2.000000000000000000e+00,6.341557502746582031e+00,9.828124046325683594e+00,3.548031234741210938e+01,-1.107438430786132812e+02,9.035356903076171875e+01,-6.608496856689453125e+01,5.012469100952148438e+01,-1.239589691162109375e+01,-1.094829635620117188e+02,-1.141609115600585938e+02,6.370501708984375000e+01,-3.865069580078125000e+01
2.680000066757202148e-01,2.000000000000000000e+00,6.370309829711914062e+00,9.781567573547363281e+00,3.547289657592773438e+01,-1.107983779907226562e+02,9.035559082031250000e+01,-6.610897827148437500e+01,5.005377197265625000e+01,-1.239035511016845703e+01,-1.094917449951171875e+02,-1.142205810546875000e+02,6.370109939575195312e+01,-3.867763137817382812e+01
2.720000147819519043e-01,2.000000000000000000e+00,6.399058818817138672e+00,9.735015869140625000e+00,3.546547317504882812e+01,-1.108529052734375000e+02,9.035761260986328125e+01,-6.613299560546875000e+01,4.998285675048828125e+01,-1.238481426239013672e+01,-1.095005187988281250e+02,-1.142802352905273438e+02,6.369718551635742188e+01,-3.870455932617187500e+01
2.759999930858612061e-01,2.000000000000000000e+00,6.427804946899414062e+00,9.688467979431152344e+00,3.545806121826171875e+01,-1.109074325561523438e+02,9.035962677001953125e+01,-6.615699768066406250e+01,4.991195297241210938e+01,-1.237927341461181641e+01,-1.095093078613281250e+02,-1.143398895263671875e+02,6.369327163696289062e+01,-3.873148727416992188e+01
2.800000011920928955e-01,2.000000000000000000e+00,6.456547737121582031e+00,9.641926765441894531e+00,3.545064163208007812e+01,-1.109619522094726562e+02,9.036164855957031250e+01,-6.618099975585937500e+01,4.984105300903320312e+01,-1.237373352050781250e+01,-1.095180816650390625e+02,-1.143995361328125000e+02,6.368935012817382812e+01,-3.875841522216796875e+01
2.840000092983245850e-01,2.000000000000000000e+00,6.485287666320800781e+00,9.595388412475585938e+00,3.544322586059570312e+01,-1.110164642333984375e+02,9.036367034912109375e+01,-6.620500183105468750e+01,4.977016067504882812e+01,-1.236819362640380859e+01,-1.095268554687500000e+02,-1.144591674804687500e+02,6.368543624877929688e+01,-3.878533554077148438e+01
2.879999876022338867e-01,2.000000000000000000e+00,6.514024257659912109e+00,9.548855781555175781e+00,3.543581008911132812e+01,-1.110709686279296875e+02,9.036569213867187500e+01,-6.622899627685546875e+01,4.969927597045898438e+01,-1.236265468597412109e+01,-1.095356369018554688e+02,-1.145188064575195312e+02,6.368152236938476562e+01,-3.881225204467773438e+01
2.919999957084655762e-01,2.000000000000000000e+00,6.542758464813232422e+00,9.502327919006347656e+00,3.542839813232421875e+01,-1.111254730224609375e+02,9.036771392822265625e+01,-6.625299072265625000e+01,4.962840270996093750e+01,-1.235711574554443359e+01,-1.095444107055664062e+02,-1.145784301757812500e+02,6.367760848999023438e+01,-3.883917236328125000e+01
2.960000038146972656e-01,2.000000000000000000e+00,6.571489334106445312e+00,9.455805778503417969e+00,3.542098617553710938e+01,-1.111799621582031250e+02,9.036972808837890625e+01,-6.627698516845703125e+01,4.955753326416015625e+01,-1.235157871246337891e+01,-1.095531921386718750e+02,-1.146380615234375000e+02,6.367369461059570312e+01,-3.886608505249023438e+01
3.000000119209289551e-01,2.000000000000000000e+00,6.600217342376708984e+00,9.409288406372070312e+00,3.541357040405273438e+01,-1.112344512939453125e+02,9.037174987792968750e+01,-6.630097961425781250e+01,4.948667144775390625e+01,-1.234604167938232422e+01,-1.095619659423828125e+02,-1.146976776123046875e+02,6.366978073120117188e+01,-3.889299774169921875e+01
3.039999902248382568e-01,2.000000000000000000e+00,6.628942489624023438e+00,9.362774848937988281e+00,3.540616226196289062e+01,-1.112889404296875000e+02,9.037377166748046875e+01,-6.632496643066406250e+01,4.941581726074218750e+01,-1.234050464630126953e+01,-1.095707397460937500e+02,-1.147572708129882812e+02,6.366586685180664062e+01,-3.891990280151367188e+01
3.079999983310699463e-01,2.000000000000000000e+00,6.657664299011230469e+00,9.316266059875488281e+00,3.539875030517578125e+01,-1.113434143066406250e+02,9.037578582763671875e+01,-6.634895324707031250e+01,4.934497070312500000e+01,-1.233496952056884766e+01,-1.095795059204101562e+02,-1.148168716430664062e+02,6.366195297241210938e+01,-3.894681167602539062e+01
3.120000064373016357e-01,2.000000000000000000e+00,6.686383247375488281e+00,9.269762992858886719e+00,3.539133834838867188e+01,-1.113978958129882812e+02,9.037780761718750000e+01,-6.637294006347656250e+01,4.927412796020507812e+01,-1.232943344116210938e+01,-1.095882797241210938e+02,-1.148764724731445312e+02,6.365803909301757812e+01,-3.897371292114257812e+01
3.160000145435333252e-01,2.000000000000000000e+00,6.715099334716796875e+00,9.223263740539550781e+00,3.538393020629882812e+01,-1.114523544311523438e+02,9.037982177734375000e+01,-6.639691925048828125e+01,4.920330047607421875e+01,-1.232389831542968750e+01,-1.095970535278320312e+02,-1.149360580444335938e+02,6.365412521362304688e+01,-3.900061416625976562e+01
3.199999928474426270e-01,2.000000000000000000e+00,6.743812561035156250e+00,9.176770210266113281e+00,3.537652206420898438e+01,-1.115068206787109375e+02,9.038184356689453125e+01,-6.642089843750000000e+01,4.913247299194335938e+01,-1.231836414337158203e+01,-1.096058197021484375e+02,-1.149956512451171875e+02,6.365021133422851562e+01,-3.902751159667968750e+01
3.240000009536743164e-01,2.000000000000000000e+00,6.772522926330566406e+00,9.130280494689941406e+00,3.536911392211914062e+01,-1.115612716674804688e+02,9.038385772705078125e+01,-6.644486999511718750e+01,4.906165695190429688e+01,-1.231283092498779297e+01,-1.096145935058593750e+02,-1.150552215576171875e+02,6.364630508422851562e+01,-3.905440521240234375e+01
3.280000090599060059e-01,2.000000000000000000e+00,6.801229476928710938e+00,9.083795547485351562e+00,3.536170578002929688e+01,-1.116157302856445312e+02,9.038587951660156250e+01,-6.646884918212890625e+01,4.899084472656250000e+01,-1.230729770660400391e+01,-1.096233520507812500e+02,-1.151147918701171875e+02,6.364239120483398438e+01,-3.908129882812500000e+01
3.319999873638153076e-01,2.000000000000000000e+00,6.829934120178222656e+00,9.037315368652343750e+00,3.535429763793945312e+01,-1.116701736450195312e+02,9.038789367675781250e+01,-6.649282073974609375e+01,4.892004394531250000e+01,-1.230176544189453125e+01,-1.096321258544921875e+02,-1.151743698120117188e+02,6.363847732543945312e+01,-3.910818481445312500e+01
3.359999954700469971e-01,2.000000000000000000e+00,6.858635902404785156e+00,8.990839958190917969e+00,3.534689712524414062e+01,-1.117246093750000000e+02,9.038991546630859375e+01,-6.651678466796875000e+01,4.884924697875976562e+01,-1.229623222351074219e+01,-1.096408920288085938e+02,-1.152339248657226562e+02,6.363457107543945312e+01,-3.913507080078125000e+01
3.400000035762786865e-01,2.000000000000000000e+00,6.887333869934082031e+00,8.944369316101074219e+00,3.533948898315429688e+01,-1.117790451049804688e+02,9.039193725585937500e+01,-6.654075622558593750e+01,4.877845382690429688e+01,-1.229070091247558594e+01,-1.096496582031250000e+02,-1.152934722900390625e+02,6.363066482543945312e+01,-3.916195678710937500e+01
3.440000116825103760e-01,2.000000000000000000e+00,6.916029930114746094e+00,8.897903442382812500e+00,3.533208465576171875e+01,-1.118334732055664062e+02,9.039395141601562500e+01,-6.656471252441406250e+01,4.870767593383789062e+01,-1.228517055511474609e+01,-1.096584243774414062e+02,-1.153530273437500000e+02,6.362675094604492188e+01,-3.918883514404296875e+01
3.479999899864196777e-01,2.000000000000000000e+00,6.944722652435302734e+00,8.851443290710449219e+00,3.532468032836914062e+01,-1.118879013061523438e+02,9.039597320556640625e+01,-6.658867645263671875e+01,4.863690185546875000e+01,-1.227964019775390625e+01,-1.096671829223632812e+02,-1.154125595092773438e+02,6.362284469604492188e+01,-3.921571731567382812e+01
3.519999980926513672e-01,2.000000000000000000e+00,6.973412513732910156e+00,8.804986953735351562e+00,3.531727981567382812e+01,-1.119423141479492188e+02,9.039798736572265625e+01,-6.661263275146484375e+01,4.856613159179687500e+01,-1.227411079406738281e+01,-1.096759490966796875e+02,-1.154721069335937500e+02,6.361893844604492188e+01,-3.924258804321289062e+01
3.560000061988830566e-01,2.000000000000000000e+00,7.002099037170410156e+00,8.758534431457519531e+00,3.530987548828125000e+01,-1.119967269897460938e+02,9.040000152587890625e+01,-6.663659667968750000e+01,4.849537277221679688e+01,-1.226858043670654297e+01,-1.096847076416015625e+02,-1.155316238403320312e+02,6.361502456665039062e+01,-3.926946258544921875e+01
3.600000143051147461e-01,2.000000000000000000e+00,7.030783176422119141e+00,8.712086677551269531e+00,3.530247497558593750e+01,-1.120511322021484375e+02,9.040201568603515625e+01,-6.666055297851562500e+01,4.842461776733398438e+01,-1.226305198669433594e+01,-1.096934661865234375e+02,-1.155911560058593750e+02,6.361111831665039062e+01,-3.929633331298828125e+01
3.639999926090240479e-01,2.000000000000000000e+00,7.059464454650878906e+00,8.665643692016601562e+00,3.529507446289062500e+01,-1.121055374145507812e+02,9.040402984619140625e+01,-6.668450164794921875e+01,4.835387039184570312e+01,-1.225752449035644531e+01,-1.097022323608398438e+02,-1.156506805419921875e+02,6.360720825195312500e+01,-3.932320022583007812e+01
3.680000007152557373e-01,2.000000000000000000e+00,7.088143348693847656e+00,8.619206428527832031e+00,3.528767776489257812e+01,-1.121599273681640625e+02,9.040605163574218750e+01,-6.670845031738281250e+01,4.828313446044921875e+01,-1.225199699401855469e+01,-1.097109909057617188e+02,-1.157101821899414062e+02,6.360330200195312500e+01,-3.935006713867187500e+01
3.720000088214874268e-01,2.000000000000000000e+00,7.116818428039550781e+00,8.572772979736328125e+00,3.528027725219726562e+01,-1.122143173217773438e+02,9.040806579589843750e+01,-6.673239898681640625e+01,4.821239852905273438e+01,-1.224646949768066406e+01,-1.097197418212890625e+02,-1.157696838378906250e+02,6.359939575195312500e+01,-3.937693023681640625e+01
3.759999871253967285e-01,2.000000000000000000e+00,7.145491600036621094e+00,8.526343345642089844e+00,3.527288055419921875e+01,-1.122686996459960938e+02,9.041007995605468750e+01,-6.675634002685546875e+01,4.814167404174804688e+01,-1.224094295501708984e+01,-1.097285079956054688e+02,-1.158291931152343750e+02,6.359548950195312500e+01,-3.940378570556640625e+01
3.799999952316284180e-01,2.000000000000000000e+00,7.174161911010742188e+00,8.479919433593750000e+00,3.526548385620117188e+01,-1.123230819702148438e+02,9.041209411621093750e+01,-6.678028106689453125e+01,4.807095336914062500e+01,-1.223541641235351562e+01,-1.097372665405273438e+02,-1.158886795043945312e+02,6.359158325195312500e+01,-3.943064498901367188e+01
3.840000033378601074e-01,2.000000000000000000e+00,7.202828884124755859e+00,8.433499336242675781e+00,3.525808715820312500e+01,-1.123774566650390625e+02,9.041410827636718750e+01,-6.680422210693359375e+01,4.800024414062500000e+01,-1.222989177703857422e+01,-1.097460174560546875e+02,-1.159481735229492188e+02,6.358767700195312500e+01,-3.945749664306640625e+01
3.880000114440917969e-01,2.000000000000000000e+00,7.231492519378662109e+00,8.387084007263183594e+00,3.525069046020507812e+01,-1.124318237304687500e+02,9.041612243652343750e+01,-6.682816314697265625e+01,4.792953872680664062e+01,-1.222436618804931641e+01,-1.097547683715820312e+02,-1.160076599121093750e+02,6.358377456665039062e+01,-3.948435211181640625e+01
3.919999897480010986e-01,2.000000000000000000e+00,7.260154724121093750e+00,8.340673446655273438e+00,3.524329376220703125e+01,-1.124861907958984375e+02,9.041814422607421875e+01,-6.685210418701171875e+01,4.785884094238281250e+01,-1.221884250640869141e+01,-1.097635269165039062e+02,-1.160671386718750000e+02,6.357986831665039062e+01,-3.951119995117187500e+01
3.959999978542327881e-01,2.000000000000000000e+00,7.288813591003417969e+00,8.294266700744628906e+00,3.523589706420898438e+01,-1.125405502319335938e+02,9.042015838623046875e+01,-6.687603759765625000e+01,4.778815078735351562e+01,-1.221331882476806641e+01,-1.097722778320312500e+02,-1.161266021728515625e+02,6.357596206665039062e+01,-3.953804779052734375e+01
4.000000059604644775e-01,2.000000000000000000e+00,7.317469596862792969e+00,8.247864723205566406e+00,3.522850418090820312e+01,-1.125949020385742188e+02,9.042217254638671875e+01,-6.689996337890625000e+01,4.771746444702148438e+01,-1.220779514312744141e+01,-1.097810287475585938e+02,-1.161860656738281250e+02,6.357206344604492188e+01,-3.956488800048828125e+01
4.040000140666961670e-01,2.000000000000000000e+00,7.346122741699218750e+00,8.201467514038085938e+00,3.522111129760742188e+01,-1.126492538452148438e+02,9.042418670654296875e+01,-6.692389678955078125e+01,4.764678955078125000e+01,-1.220227241516113281e+01,-1.097897796630859375e+02,-1.162455291748046875e+02,6.356815338134765625e+01,-3.959173202514648438e+01
4.079999923706054688e-01,2.000000000000000000e+00,7.374773025512695312e+00,8.155075073242187500e+00,3.521371841430664062e+01,-1.127035903930664062e+02,9.042620086669921875e+01,-6.694782257080078125e+01,4.757611846923828125e+01,-1.219674968719482422e+01,-1.097985305786132812e+02,-1.163049850463867188e+02,6.356425476074218750e+01,-3.961856842041015625e+01
4.120000004768371582e-01,2.000000000000000000e+00,7.403421401977539062e+00,8.108686447143554688e+00,3.520632553100585938e+01,-1.127579345703125000e+02,9.042820739746093750e+01,-6.697174072265625000e+01,4.750545120239257812e+01,-1.219122791290283203e+01,-1.098072814941406250e+02,-1.163644332885742188e+02,6.356034851074218750e+01,-3.964540481567382812e+01
4.160000085830688477e-01,2.000000000000000000e+00,7.432066440582275391e+00,8.062302589416503906e+00,3.519893646240234375e+01,-1.128122634887695312e+02,9.043022155761718750e+01,-6.699566650390625000e+01,4.743479537963867188e+01,-1.218570709228515625e+01,-1.098160324096679688e+02,-1.164238815307617188e+02,6.355644607543945312e+01,-3.967223739624023438e+01
4.199999868869781494e-01,2.000000000000000000e+00,7.460708618164062500e+00,8.015922546386718750e+00,3.519154739379882812e+01,-1.128665924072265625e+02,9.043223571777343750e+01,-6.701958465576171875e+01,4.736414718627929688e+01,-1.218018627166748047e+01,-1.098247756958007812e+02,-1.164833145141601562e+02,6.355253982543945312e+01,-3.969906616210937500e+01
4.239999949932098389e-01,2.000000000000000000e+00,7.489348411560058594e+00,7.969547748565673828e+00,3.518415451049804688e+01,-1.129209136962890625e+02,9.043424987792968750e+01,-6.704350280761718750e+01,4.729349899291992188e+01,-1.217466640472412109e+01,-1.098335266113281250e+02,-1.165427398681640625e+02,6.354864120483398438e+01,-3.972589874267578125e+01
4.280000030994415283e-01,2.000000000000000000e+00,7.517984867095947266e+00,7.923176765441894531e+00,3.517676925659179688e+01,-1.129752273559570312e+02,9.043627166748046875e+01,-6.706742095947265625e+01,4.722286224365234375e+01,-1.216914653778076172e+01,-1.098422698974609375e+02,-1.166021804809570312e+02,6.354474258422851562e+01,-3.975272369384765625e+01
4.320000112056732178e-01,2.000000000000000000e+00,7.546619892120361328e+00,7.876810073852539062e+00,3.516938018798828125e+01,-1.130295410156250000e+02,9.043827819824218750e+01,-6.709133148193359375e+01,4.715223693847656250e+01,-1.216362762451171875e+01,-1.098510208129882812e+02,-1.166615829467773438e+02,6.354083251953125000e+01,-3.977954864501953125e+01
4.359999895095825195e-01,2.000000000000000000e+00,7.575251102447509766e+00,7.830448150634765625e+00,3.516199111938476562e+01,-1.130838470458984375e+02,9.044029235839843750e+01,-6.711524200439453125e+01,4.708161163330078125e+01,-1.215810871124267578e+01,-1.098597640991210938e+02,-1.167210083007812500e+02,6.353693389892578125e+01,-3.980636596679687500e+01
4.399999976158142090e-01,2.000000000000000000e+00,7.603879928588867188e+00,7.784090042114257812e+00,3.515460586547851562e+01,-1.131381530761718750e+02,9.044230651855468750e+01,-6.713914489746093750e+01,4.701099395751953125e+01,-1.215259075164794922e+01,-1.098685073852539062e+02,-1.167804183959960938e+02,6.353303527832031250e+01,-3.983318710327148438e+01
4.440000057220458984e-01,2.000000000000000000e+00,7.632505893707275391e+00,7.737737178802490234e+00,3.514721679687500000e+01,-1.131924514770507812e+02,9.044431304931640625e+01,-6.716305541992187500e+01,4.694038391113281250e+01,-1.214707279205322266e+01,-1.098772506713867188e+02,-1.168398132324218750e+02,6.352913284301757812e+01,-3.986000061035156250e+01
4.480000138282775879e-01,2.000000000000000000e+00,7.661129474639892578e+00,7.691387176513671875e+00,3.513983535766601562e+01,-1.132467422485351562e+02,9.044632720947265625e+01,-6.718695831298828125e+01,4.686977767944335938e+01,-1.214155578613281250e+01,-1.098859939575195312e+02,-1.168992233276367188e+02,6.352523422241210938e+01,-3.988681793212890625e+01
4.519999921321868896e-01,2.000000000000000000e+00,7.689750671386718750e+00,7.645042896270751953e+00,3.513244628906250000e+01,-1.133010330200195312e+02,9.044833374023437500e+01,-6.721086120605468750e+01,4.679917907714843750e+01,-1.213603973388671875e+01,-1.098947296142578125e+02,-1.169586029052734375e+02,6.352133560180664062e+01,-3.991362380981445312e+01
4.560000002384185791e-01,2.000000000000000000e+00,7.718368053436279297e+00,7.598701477050781250e+00,3.512506484985351562e+01,-1.133553085327148438e+02,9.045035552978515625e+01,-6.723475646972656250e+01,4.672858810424804688e+01,-1.213052368164062500e+01,-1.099034729003906250e+02,-1.170179977416992188e+02,6.351743316650390625e+01,-3.994043350219726562e+01
4.600000083446502686e-01,2.000000000000000000e+00,7.746984004974365234e+00,7.552365779876708984e+00,3.511767959594726562e+01,-1.134095916748046875e+02,9.045236206054687500e+01,-6.725865936279296875e+01,4.665800476074218750e+01,-1.212500858306884766e+01,-1.099122161865234375e+02,-1.170773773193359375e+02,6.351354217529296875e+01,-3.996724319458007812e+01
4.639999866485595703e-01,2.000000000000000000e+00,7.775597572326660156e+00,7.506032943725585938e+00,3.511029815673828125e+01,-1.134638519287109375e+02,9.045437622070312500e+01,-6.728254699707031250e+01,4.658742523193359375e+01,-1.211949253082275391e+01,-1.099209518432617188e+02,-1.171367492675781250e+02,6.350963973999023438e+01,-3.999404525756835938e+01
4.679999947547912598e-01,2.000000000000000000e+00,7.804207324981689453e+00,7.459705829620361328e+00,3.510291671752929688e+01,-1.135181274414062500e+02,9.045638275146484375e+01,-6.730644989013671875e+01,4.651685333251953125e+01,-1.211397838592529297e+01,-1.099296875000000000e+02,-1.171961288452148438e+02,6.350574111938476562e+01,-4.002084350585937500e+01
4.720000028610229492e-01,2.000000000000000000e+00,7.832814693450927734e+00,7.413381576538085938e+00,3.509553527832031250e+01,-1.135723876953125000e+02,9.045839691162109375e+01,-6.733032989501953125e+01,4.644628906250000000e+01,-1.210846519470214844e+01,-1.099384307861328125e+02,-1.172554855346679688e+02,6.350183868408203125e+01,-4.004764175415039062e+01
4.760000109672546387e-01,2.000000000000000000e+00,7.861420631408691406e+00,7.367062568664550781e+00,3.508815383911132812e+01,-1.136266479492187500e+02,9.046040344238281250e+01,-6.735422515869140625e+01,4.637573242187500000e+01,-1.210295104980468750e+01,-1.099471664428710938e+02,-1.173148498535156250e+02,6.349794769287109375e+01,-4.007444000244140625e+01
4.799999892711639404e-01,2.000000000000000000e+00,7.890022754669189453e+00,7.320746898651123047e+00,3.508077239990234375e+01,-1.136809005737304688e+02,9.046241760253906250e+01,-6.737811279296875000e+01,4.630517959594726562e+01,-1.209743785858154297e+01,-1.099559020996093750e+02,-1.173742065429687500e+02,6.349404525756835938e+01,-4.010123443603515625e+01
4.839999973773956299e-01,2.000000000000000000e+00,7.918623447418212891e+00,7.274435997009277344e+00,3.507339477539062500e+01,-1.137351455688476562e+02,9.046443176269531250e+01,-6.740199279785156250e+01,4.623463058471679688e+01,-1.209192562103271484e+01,-1.099646377563476562e+02,-1.174335479736328125e+02,6.349015426635742188e+01,-4.012802505493164062e+01
4.880000054836273193e-01,2.000000000000000000e+00,7.947220802307128906e+00,7.228128910064697266e+00,3.506601333618164062e+01,-1.137893905639648438e+02,9.046643829345703125e+01,-6.742587280273437500e+01,4.616409301757812500e+01,-1.208641338348388672e+01,-1.099733657836914062e+02,-1.174929046630859375e+02,6.348625564575195312e+01,-4.015481185913085938e+01
4.920000135898590088e-01,2.000000000000000000e+00,7.975815296173095703e+00,7.181826114654541016e+00,3.505863571166992188e+01,-1.138436203002929688e+02,9.046845245361328125e+01,-6.744976043701171875e+01,4.609355926513671875e+01,-1.208090209960937500e+01,-1.099821014404296875e+02,-1.175522308349609375e+02,6.348236083984375000e+01,-4.018159866333007812e+01
4.959999918937683105e-01,2.000000000000000000e+00,8.004406929016113281e+00,7.135527133941650391e+00,3.505126190185546875e+01,-1.138978500366210938e+02,9.047045898437500000e+01,-6.747363281250000000e+01,4.602302932739257812e+01,-1.207539081573486328e+01,-1.099908370971679688e+02,-1.176115722656250000e+02,6.347846603393554688e+01,-4.020838546752929688e+01
5.000000000000000000e-01,2.000000000000000000e+00,8.032997131347656250e+00,7.089232921600341797e+00,3.504388427734375000e+01,-1.139520874023437500e+02,9.047246551513671875e+01,-6.749750518798828125e+01,4.595251083374023438e+01,-1.206988048553466797e+01,-1.099995727539062500e+02,-1.176708984375000000e+02,6.347456741333007812e+01,-4.023516464233398438e+01
5.040000081062316895e-01,2.000000000000000000e+00,8.061584472656250000e+00,7.042942523956298828e+00,3.503650665283203125e+01,-1.140063095092773438e+02,9.047447967529296875e+01,-6.752137756347656250e+01,4.588199615478515625e+01,-1.206437110900878906e+01,-1.100083084106445312e+02,-1.177302246093750000e+02,6.347067260742187500e+01,-4.026194763183593750e+01
5.080000162124633789e-01,2.000000000000000000e+00,8.090169906616210938e+00,6.996655941009521484e+00,3.502913284301757812e+01,-1.140605239868164062e+02,9.047649383544921875e+01,-6.754524993896484375e+01,4.581148529052734375e+01,-1.205886077880859375e+01,-1.100170364379882812e+02,-1.177895355224609375e+02,6.346678161621093750e+01,-4.028872299194335938e+01
5.120000243186950684e-01,2.000000000000000000e+00,8.118752479553222656e+00,6.950373649597167969e+00,3.502175903320312500e+01,-1.141147384643554688e+02,9.047850036621093750e+01,-6.756912231445312500e+01,4.574098587036132812e+01,-1.205335235595703125e+01,-1.100257644653320312e+02,-1.178488540649414062e+02,6.346288681030273438e+01,-4.031549453735351562e+01
5.159999728202819824e-01,2.000000000000000000e+00,8.147332191467285156e+00,6.904095172882080078e+00,3.501438140869140625e+01,-1.141689529418945312e+02,9.048050689697265625e+01,-6.759299468994140625e+01,4.567049026489257812e+01,-1.204784297943115234e+01,-1.100344924926757812e+02,-1.179081497192382812e+02,6.345899581909179688e+01,-4.034226989746093750e+01
5.199999809265136719e-01,2.000000000000000000e+00,8.175909996032714844e+00,6.857820987701416016e+00,3.500700759887695312e+01,-1.142231521606445312e+02,9.048251342773437500e+01,-6.761685943603515625e+01,4.559999847412109375e+01,-1.204233455657958984e+01,-1.100432205200195312e+02,-1.179674606323242188e+02,6.345510101318359375e+01,-4.036904144287109375e+01
5.239999890327453613e-01,2.000000000000000000e+00,8.204484939575195312e+00,6.811550140380859375e+00,3.499963378906250000e+01,-1.142773513793945312e+02,9.048451995849609375e+01,-6.764071655273437500e+01,4.552951431274414062e+01,-1.203682708740234375e+01,-1.100519409179687500e+02,-1.180267486572265625e+02,6.345121002197265625e+01,-4.039580917358398438e+01
5.279999971389770508e-01,2.000000000000000000e+00,8.233057975769042969e+00,6.765283584594726562e+00,3.499226379394531250e+01,-1.143315429687500000e+02,9.048653411865234375e+01,-6.766458129882812500e+01,4.545903778076171875e+01,-1.203132057189941406e+01,-1.100606689453125000e+02,-1.180860519409179688e+02,6.344731521606445312e+01,-4.042257308959960938e+01
5.320000052452087402e-01,2.000000000000000000e+00,8.261629104614257812e+00,6.719021320343017578e+00,3.498488998413085938e+01,-1.143857345581054688e+02,9.048854064941406250e+01,-6.768843841552734375e+01,4.538856506347656250e+01,-1.202581310272216797e+01,-1.100694046020507812e+02,-1.181453323364257812e+02,6.344342041015625000e+01,-4.044933700561523438e+01
5.360000133514404297e-01,2.000000000000000000e+00,8.290196418762207031e+00,6.672761917114257812e+00,3.497752380371093750e+01,-1.144399261474609375e+02,9.049054718017578125e+01,-6.771229553222656250e+01,4.531809616088867188e+01,-1.202030754089355469e+01,-1.100781250000000000e+02,-1.182046203613281250e+02,6.343952941894531250e+01,-4.047609710693359375e+01
5.400000214576721191e-01,2.000000000000000000e+00,8.318762779235839844e+00,6.626506805419921875e+00,3.497014999389648438e+01,-1.144941024780273438e+02,9.049255371093750000e+01,-6.773615264892578125e+01,4.524763870239257812e+01,-1.201480102539062500e+01,-1.100868453979492188e+02,-1.182638931274414062e+02,6.343564224243164062e+01,-4.050285339355468750e+01
5.440000295639038086e-01,2.000000000000000000e+00,8.347325325012207031e+00,6.580255985260009766e+00,3.496277999877929688e+01,-1.145482788085937500e+02,9.049456024169921875e+01,-6.776000213623046875e+01,4.517718505859375000e+01,-1.200929641723632812e+01,-1.100955734252929688e+02,-1.183231658935546875e+02,6.343174743652343750e+01,-4.052961349487304688e+01
5.479999780654907227e-01,2.000000000000000000e+00,8.375886917114257812e+00,6.534008502960205078e+00,3.495541000366210938e+01,-1.146024475097656250e+02,9.049657440185546875e+01,-6.778385925292968750e+01,4.510673522949218750e+01,-1.200379085540771484e+01,-1.101042938232421875e+02,-1.183824234008789062e+02,6.342785644531250000e+01,-4.055636596679687500e+01
5.519999861717224121e-01,2.000000000000000000e+00,8.404445648193359375e+00,6.487764358520507812e+00,3.494804382324218750e+01,-1.146566238403320312e+02,9.049858093261718750e+01,-6.780770874023437500e+01,4.503628921508789062e+01,-1.199828720092773438e+01,-1.101130218505859375e+02,-1.184416961669921875e+02,6.342396163940429688e+01,-4.058311843872070312e+01
5.559999942779541016e-01,2.000000000000000000e+00,8.433001518249511719e+00,6.441524505615234375e+00,3.494067382812500000e+01,-1.147107849121093750e+02,9.050058746337890625e+01,-6.783155059814453125e+01,4.496585464477539062e+01,-1.199278354644775391e+01,-1.101217422485351562e+02,-1.185009536743164062e+02,6.342007446289062500e+01,-4.060986709594726562e+01
5.600000023841857910e-01,2.000000000000000000e+00,8.461555480957031250e+00,6.395288467407226562e+00,3.493330764770507812e+01,-1.147649383544921875e+02,9.050259399414062500e+01,-6.785539245605468750e+01,4.489542007446289062e+01,-1.198727893829345703e+01,-1.101304626464843750e+02,-1.185602035522460938e+02,6.341618347167968750e+01,-4.063661575317382812e+01
5.640000104904174805e-01,2.000000000000000000e+00,8.490107536315917969e+00,6.349055767059326172e+00,3.492594146728515625e+01,-1.148190994262695312e+02,9.050460052490234375e+01,-6.787924194335937500e+01,4.482499694824218750e+01,-1.198177623748779297e+01,-1.101391754150390625e+02,-1.186194610595703125e+02,6.341229629516601562e+01,-4.066336059570312500e+01
5.680000185966491699e-01,2.000000000000000000e+00,8.518656730651855469e+00,6.302826881408691406e+00,3.491857528686523438e+01,-1.148732528686523438e+02,9.050661468505859375e+01,-6.790308380126953125e+01,4.475457382202148438e+01,-1.197627353668212891e+01,-1.101479034423828125e+02,-1.186786880493164062e+02,6.340840530395507812e+01,-4.069010543823242188e+01
5.720000267028808594e-01,2.000000000000000000e+00,8.547203063964843750e+00,6.256601810455322266e+00,3.491120910644531250e+01,-1.149273986816406250e+02,9.050861358642578125e+01,-6.792692565917968750e+01,4.468415832519531250e+01,-1.197077178955078125e+01,-1.101566162109375000e+02,-1.187379379272460938e+02,6.340451812744140625e+01,-4.071684646606445312e+01
5.759999752044677734e-01,2.000000000000000000e+00,8.575748443603515625e+00,6.210380077362060547e+00,3.490384292602539062e+01,-1.149815368652343750e+02,9.051062011718750000e+01,-6.795075988769531250e+01,4.461374664306640625e+01,-1.196527004241943359e+01,-1.101653366088867188e+02,-1.187971649169921875e+02,6.340063095092773438e+01,-4.074358749389648438e+01
5.799999833106994629e-01,2.000000000000000000e+00,8.604290962219238281e+00,6.164162158966064453e+00,3.489647674560546875e+01,-1.150356750488281250e+02,9.051262664794921875e+01,-6.797459411621093750e+01,4.454334640502929688e+01,-1.195976829528808594e+01,-1.101740570068359375e+02,-1.188563995361328125e+02,6.339673614501953125e+01,-4.077032470703125000e+01
5.839999914169311523e-01,2.000000000000000000e+00,8.632830619812011719e+00,6.117947578430175781e+00,3.488911056518554688e+01,-1.150898056030273438e+02,9.051464080810546875e+01,-6.799843597412109375e+01,4.447294616699218750e+01,-1.195426750183105469e+01,-1.101827774047851562e+02,-1.189156265258789062e+02,6.339285278320312500e+01,-4.079706192016601562e+01
5.879999995231628418e-01,2.000000000000000000e+00,8.661369323730468750e+00,6.071736335754394531e+00,3.488174819946289062e+01,-1.151439437866210938e+02,9.051663970947265625e+01,-6.802226257324218750e+01,4.440254974365234375e+01,-1.194876670837402344e+01,-1.101914901733398438e+02,-1.189748458862304688e+02,6.338896560668945312e+01,-4.082379531860351562e+01
5.920000076293945312e-01,2.000000000000000000e+00,8.689904212951660156e+00,6.025529384613037109e+00,3.487438583374023438e+01,-1.151980667114257812e+02,9.051864624023437500e+01,-6.804609680175781250e+01,4.433216476440429688e+01,-1.194326591491699219e+01,-1.102002029418945312e+02,-1.190340652465820312e+02,6.338507080078125000e+01,-4.085052490234375000e+01
5.960000157356262207e-01,2.000000000000000000e+00,8.718438148498535156e+00,5.979325294494628906e+00,3.486702728271484375e+01,-1.152521896362304688e+02,9.052065277099609375e+01,-6.806992340087890625e+01,4.426177978515625000e+01,-1.193776607513427734e+01,-1.102089233398437500e+02,-1.190932693481445312e+02,6.338118362426757812e+01,-4.087725448608398438e+01
6.000000238418579102e-01,2.000000000000000000e+00,8.746971130371093750e+00,5.933125019073486328e+00,3.485966491699218750e+01,-1.153062973022460938e+02,9.052265930175781250e+01,-6.809375000000000000e+01,4.419140243530273438e+01,-1.193226718902587891e+01,-1.102176284790039062e+02,-1.191524887084960938e+02,6.337730026245117188e+01,-4.090398025512695312e+01
6.039999723434448242e-01,2.000000000000000000e+00,8.775499343872070312e+00,5.886928081512451172e+00,3.485230255126953125e+01,-1.153604202270507812e+02,9.052466583251953125e+01,-6.811757659912109375e+01,4.412103271484375000e+01,-1.192676830291748047e+01,-1.102263488769531250e+02,-1.192116928100585938e+02,6.337341308593750000e+01,-4.093070983886718750e+01
6.079999804496765137e-01,2.000000000000000000e+00,8.804026603698730469e+00,5.840734958648681641e+00,3.484494018554687500e+01,-1.154145278930664062e+02,9.052667236328125000e+01,-6.814139556884765625e+01,4.405066299438476562e+01,-1.192126941680908203e+01,-1.102350616455078125e+02,-1.192708816528320312e+02,6.336952590942382812e+01,-4.095743179321289062e+01
6.119999885559082031e-01,2.000000000000000000e+00,8.832551956176757812e+00,5.794545173645019531e+00,3.483758163452148438e+01,-1.154686279296875000e+02,9.052867126464843750e+01,-6.816522216796875000e+01,4.398030090332031250e+01,-1.191577148437500000e+01,-1.102437667846679688e+02,-1.193300704956054688e+02,6.336563873291015625e+01,-4.098414993286132812e+01
6.159999966621398926e-01,2.000000000000000000e+00,8.861075401306152344e+00,5.748358726501464844e+00,3.483022308349609375e+01,-1.155227355957031250e+02,9.053068542480468750e+01,-6.818904113769531250e+01,4.390994644165039062e+01,-1.191027355194091797e+01,-1.102524871826171875e+02,-1.193892593383789062e+02,6.336175155639648438e+01,-4.101087188720703125e+01
6.200000047683715820e-01,2.000000000000000000e+00,8.889595985412597656e+00,5.702175617218017578e+00,3.482286453247070312e+01,-1.155768280029296875e+02,9.053268432617187500e+01,-6.821286010742187500e+01,4.383959579467773438e+01,-1.190477657318115234e+01,-1.102611923217773438e+02,-1.194484558105468750e+02,6.335786819458007812e+01,-4.103758621215820312e+01
6.240000128746032715e-01,2.000000000000000000e+00,8.918114662170410156e+00,5.655995845794677734e+00,3.481550216674804688e+01,-1.156309204101562500e+02,9.053469085693359375e+01,-6.823667907714843750e+01,4.376924896240234375e+01,-1.189927959442138672e+01,-1.102699050903320312e+02,-1.195076293945312500e+02,6.335398101806640625e+01,-4.106430435180664062e+01
6.280000209808349609e-01,2.000000000000000000e+00,8.946631431579589844e+00,5.609819889068603516e+00,3.480814743041992188e+01,-1.156850051879882812e+02,9.053668975830078125e+01,-6.826049041748046875e+01,4.369890975952148438e+01,-1.189378356933593750e+01,-1.102786178588867188e+02,-1.195668106079101562e+02,6.335010147094726562e+01,-4.109101486206054688e+01
6.320000290870666504e-01,2.000000000000000000e+00,8.975146293640136719e+00,5.563647747039794922e+00,3.480078887939453125e+01,-1.157390975952148438e+02,9.053870391845703125e+01,-6.828430175781250000e+01,4.362857437133789062e+01,-1.188828754425048828e+01,-1.102873229980468750e+02,-1.196259841918945312e+02,6.334621429443359375e+01,-4.111772918701171875e+01
6.359999775886535645e-01,2.000000000000000000e+00,9.003659248352050781e+00,5.517477989196777344e+00,3.479343032836914062e+01,-1.157931823730468750e+02,9.054070281982421875e+01,-6.830811309814453125e+01,4.355824279785156250e+01,-1.188279151916503906e+01,-1.102960357666015625e+02,-1.196851501464843750e+02,6.334232711791992188e+01,-4.114443588256835938e+01
6.399999856948852539e-01,2.000000000000000000e+00,9.032168388366699219e+00,5.471312522888183594e+00,3.478607559204101562e+01,-1.158472518920898438e+02,9.054270935058593750e+01,-6.833192443847656250e+01,4.348792266845703125e+01,-1.187729644775390625e+01,-1.103047409057617188e+02,-1.197443084716796875e+02,6.333843994140625000e+01,-4.117114639282226562e+01
6.439999938011169434e-01,2.000000000000000000e+00,9.060677528381347656e+00,5.425149917602539062e+00,3.477872085571289062e+01,-1.159013290405273438e+02,9.054470825195312500e+01,-6.835572814941406250e+01,4.341759872436523438e+01,-1.187180137634277344e+01,-1.103134536743164062e+02,-1.198034744262695312e+02,6.333456039428710938e+01,-4.119784927368164062e+01
6.480000019073486328e-01,2.000000000000000000e+00,9.089182853698730469e+00,5.378991127014160156e+00,3.477136611938476562e+01,-1.159553985595703125e+02,9.054671478271484375e+01,-6.837953948974609375e+01,4.334728622436523438e+01,-1.186630725860595703e+01,-1.103221511840820312e+02,-1.198626251220703125e+02,6.333067703247070312e+01,-4.122455215454101562e+01
6.520000100135803223e-01,2.000000000000000000e+00,9.117687225341796875e+00,5.332835197448730469e+00,3.476401138305664062e+01,-1.160094680786132812e+02,9.054872131347656250e+01,-6.840334320068359375e+01,4.327697753906250000e+01,-1.186081314086914062e+01,-1.103308639526367188e+02,-1.199217681884765625e+02,6.332679748535156250e+01,-4.125125503540039062e+01
6.560000181198120117e-01,2.000000000000000000e+00,9.146189689636230469e+00,5.286682605743408203e+00,3.475665664672851562e+01,-1.160635223388671875e+02,9.055072021484375000e+01,-6.842714691162109375e+01,4.320666885375976562e+01,-1.185531902313232422e+01,-1.103395614624023438e+02,-1.199809188842773438e+02,6.332291030883789062e+01,-4.127795410156250000e+01
6.600000262260437012e-01,2.000000000000000000e+00,9.174689292907714844e+00,5.240533351898193359e+00,3.474930191040039062e+01,-1.161175765991210938e+02,9.055272674560546875e+01,-6.845094299316406250e+01,4.313637161254882812e+01,-1.184982585906982422e+01,-1.103482742309570312e+02,-1.200400543212890625e+02,6.331903076171875000e+01,-4.130464935302734375e+01
6.639999747276306152e-01,2.000000000000000000e+00,9.203186988830566406e+00,5.194387912750244141e+00,3.474194717407226562e+01,-1.161716308593750000e+02,9.055473327636718750e+01,-6.847474670410156250e+01,4.306607818603515625e+01,-1.184433364868164062e+01,-1.103569717407226562e+02,-1.200992050170898438e+02,6.331514358520507812e+01,-4.133134841918945312e+01
6.679999828338623047e-01,2.000000000000000000e+00,9.231682777404785156e+00,5.148245334625244141e+00,3.473459625244140625e+01,-1.162256851196289062e+02,9.055673217773437500e+01,-6.849854278564453125e+01,4.299578857421875000e+01,-1.183884143829345703e+01,-1.103656768798828125e+02,-1.201583251953125000e+02,6.331126403808593750e+01,-4.135804367065429688e+01
6.719999909400939941e-01,2.000000000000000000e+00,9.260176658630371094e+00,5.102106094360351562e+00,3.472724533081054688e+01,-1.162797241210937500e+02,9.055873107910156250e+01,-6.852233886718750000e+01,4.292550659179687500e+01,-1.183334922790527344e+01,-1.103743820190429688e+02,-1.202174606323242188e+02,6.330737686157226562e+01,-4.138473129272460938e+01
6.759999990463256836e-01,2.000000000000000000e+00,9.288668632507324219e+00,5.055970191955566406e+00,3.471989440917968750e+01,-1.163337631225585938e+02,9.056074523925781250e+01,-6.854612731933593750e+01,4.285522842407226562e+01,-1.182785797119140625e+01,-1.103830871582031250e+02,-1.202765884399414062e+02,6.330349731445312500e+01,-4.141142272949218750e+01
6.800000071525573730e-01,2.000000000000000000e+00,9.317158699035644531e+00,5.009837627410888672e+00,3.471253967285156250e+01,-1.163878021240234375e+02,9.056274414062500000e+01,-6.856992340087890625e+01,4.278495025634765625e+01,-1.182236576080322266e+01,-1.103917846679687500e+02,-1.203357086181640625e+02,6.329961776733398438e+01,-4.143811035156250000e+01
6.840000152587890625e-01,2.000000000000000000e+00,9.345645904541015625e+00,4.963707923889160156e+00,3.470519256591796875e+01,-1.164418487548828125e+02,9.056474304199218750e+01,-6.859371185302734375e+01,4.271468353271484375e+01,-1.181687545776367188e+01,-1.104004821777343750e+02,-1.203948287963867188e+02,6.329573822021484375e+01,-4.146479797363281250e+01
6.880000233650207520e-01,2.000000000000000000e+00,9.374131202697753906e+00,4.917582035064697266e+00,3.469784164428710938e+01,-1.164958724975585938e+02,9.056674194335937500e+01,-6.861750030517578125e+01,4.264441680908203125e+01,-1.181138515472412109e+01,-1.104091796875000000e+02,-1.204539413452148438e+02,6.329185485839843750e+01,-4.149148178100585938e+01
6.919999718666076660e-01,2.000000000000000000e+00,9.402616500854492188e+00,4.871459007263183594e+00,3.469049453735351562e+01,-1.165498962402343750e+02,9.056874847412109375e+01,-6.864128112792968750e+01,4.257415771484375000e+01,-1.180589389801025391e+01,-1.104178848266601562e+02,-1.205130462646484375e+02,6.328797531127929688e+01,-4.151816177368164062e+01
6.959999799728393555e-01,2.000000000000000000e+00,9.431097030639648438e+00,4.825339794158935547e+00,3.468314361572265625e+01,-1.166039276123046875e+02,9.057074737548828125e+01,-6.866507720947265625e+01,4.250390243530273438e+01,-1.180040454864501953e+01,-1.104265823364257812e+02,-1.205721435546875000e+02,6.328409576416015625e+01,-4.154484558105468750e+01
6.999999880790710449e-01,2.000000000000000000e+00,9.459577560424804688e+00,4.779222965240478516e+00,3.467579650878906250e+01,-1.166579360961914062e+02,9.057275390625000000e+01,-6.868885803222656250e+01,4.243365478515625000e+01,-1.179491519927978516e+01,-1.104352798461914062e+02,-1.206312484741210938e+02,6.328021621704101562e+01,-4.157152175903320312e+01
7.039999961853027344e-01,2.000000000000000000e+00,9.488055229187011719e+00,4.733109951019287109e+00,3.466844558715820312e+01,-1.167119522094726562e+02,9.057476043701171875e+01,-6.871263885498046875e+01,4.236340713500976562e+01,-1.178942680358886719e+01,-1.104439849853515625e+02,-1.206903457641601562e+02,6.327633666992187500e+01,-4.159819793701171875e+01
7.080000042915344238e-01,2.000000000000000000e+00,9.516530990600585938e+00,4.686999797821044922e+00,3.466109848022460938e+01,-1.167659683227539062e+02,9.057675933837890625e+01,-6.873641967773437500e+01,4.229317092895507812e+01,-1.178393745422363281e+01,-1.104526748657226562e+02,-1.207494430541992188e+02,6.327245712280273438e+01,-4.162487411499023438e+01
7.120000123977661133e-01,2.000000000000000000e+00,9.545004844665527344e+00,4.640892505645751953e+00,3.465375518798828125e+01,-1.168199768066406250e+02,9.057875823974609375e+01,-6.876020050048828125e+01,4.222293472290039062e+01,-1.177845001220703125e+01,-1.104613723754882812e+02,-1.208085250854492188e+02,6.326857757568359375e+01,-4.165155029296875000e+01
7.160000205039978027e-01,2.000000000000000000e+00,9.573476791381835938e+00,4.594788551330566406e+00,3.464640808105468750e+01,-1.168739776611328125e+02,9.058075714111328125e+01,-6.878397369384765625e+01,4.215270233154296875e+01,-1.177296161651611328e+01,-1.104700698852539062e+02,-1.208675994873046875e+02,6.326469802856445312e+01,-4.167822265625000000e+01
7.200000286102294922e-01,2.000000000000000000e+00,9.601946830749511719e+00,4.548688411712646484e+00,3.463906097412109375e+01,-1.169279785156250000e+02,9.058276367187500000e+01,-6.880774688720703125e+01,4.208248138427734375e+01,-1.176747417449951172e+01,-1.104787597656250000e+02,-1.209266815185546875e+02,6.326081848144531250e+01,-4.170489120483398438e+01
7.239999771118164062e-01,2.000000000000000000e+00,9.630414962768554688e+00,4.502590656280517578e+00,3.463171768188476562e+01,-1.169819793701171875e+02,9.058476257324218750e+01,-6.883152770996093750e+01,4.201225662231445312e+01,-1.176198673248291016e+01,-1.104874572753906250e+02,-1.209857635498046875e+02,6.325693893432617188e+01,-4.173155975341796875e+01
7.279999852180480957e-01,2.000000000000000000e+00,9.658881187438964844e+00,4.456496238708496094e+00,3.462437057495117188e+01,-1.170359725952148438e+02,9.058676147460937500e+01,-6.885529327392578125e+01,4.194203948974609375e+01,-1.175650024414062500e+01,-1.104961547851562500e+02,-1.210448303222656250e+02,6.325306320190429688e+01,-4.175822448730468750e+01
7.319999933242797852e-01,2.000000000000000000e+00,9.687345504760742188e+00,4.410404682159423828e+00,3.461702346801757812e+01,-1.170899581909179688e+02,9.058876800537109375e+01,-6.887907409667968750e+01,4.187182998657226562e+01,-1.175101375579833984e+01,-1.105048446655273438e+02,-1.211038970947265625e+02,6.324918365478515625e+01,-4.178488922119140625e+01
7.360000014305114746e-01,2.000000000000000000e+00,9.715807914733886719e+00,4.364316940307617188e+00,3.460968399047851562e+01,-1.171439437866210938e+02,9.059076690673828125e+01,-6.890283966064453125e+01,4.180162048339843750e+01,-1.174552822113037109e+01,-1.105135421752929688e+02,-1.211629638671875000e+02,6.324530410766601562e+01,-4.181155014038085938e+01
7.400000095367431641e-01,2.000000000000000000e+00,9.744268417358398438e+00,4.318231105804443359e+00,3.460234069824218750e+01,-1.171979370117187500e+02,9.059276580810546875e+01,-6.892660522460937500e+01,4.173142242431640625e+01,-1.174004268646240234e+01,-1.105222396850585938e+02,-1.212220230102539062e+02,6.324142456054687500e+01,-4.183821105957031250e+01
7.440000176429748535e-01,2.000000000000000000e+00,9.772727012634277344e+00,4.272149562835693359e+00,3.459499740600585938e+01,-1.172519073486328125e+02,9.059476470947265625e+01,-6.895037078857421875e+01,4.166122436523437500e+01,-1.173455715179443359e+01,-1.105309219360351562e+02,-1.212810745239257812e+02,6.323755264282226562e+01,-4.186486816406250000e+01
7.480000257492065430e-01,2.000000000000000000e+00,9.801183700561523438e+00,4.226070404052734375e+00,3.458765411376953125e+01,-1.173058929443359375e+02,9.059676361083984375e+01,-6.897413635253906250e+01,4.159103012084960938e+01,-1.172907257080078125e+01,-1.105396194458007812e+02,-1.213401260375976562e+02,6.323367309570312500e+01,-4.189152908325195312e+01
7.519999742507934570e-01,2.000000000000000000e+00,9.829637527465820312e+00,4.179994106292724609e+00,3.458031082153320312e+01,-1.173598632812500000e+02,9.059876251220703125e+01,-6.899790191650390625e+01,4.152084350585937500e+01,-1.172358798980712891e+01,-1.105483093261718750e+02,-1.213991851806640625e+02,6.322980117797851562e+01,-4.191818237304687500e+01
7.559999823570251465e-01,2.000000000000000000e+00,9.858091354370117188e+00,4.133921146392822266e+00,3.457297134399414062e+01,-1.174138183593750000e+02,9.060076904296875000e+01,-6.902165985107421875e+01,4.145066070556640625e+01,-1.171810340881347656e+01,-1.105569992065429688e+02,-1.214582214355468750e+02,6.322592163085937500e+01,-4.194483566284179688e+01
7.599999904632568359e-01,2.000000000000000000e+00,9.886542320251464844e+00,4.087851524353027344e+00,3.456562805175781250e+01,-1.174677963256835938e+02,9.060276794433593750e+01,-6.904541778564453125e+01,4.138047790527343750e+01,-1.171261978149414062e+01,-1.105656890869140625e+02,-1.215172653198242188e+02,6.322204971313476562e+01,-4.197148513793945312e+01
7.639999985694885254e-01,2.000000000000000000e+00,9.914991378784179688e+00,4.041784763336181641e+00,3.455828857421875000e+01,-1.175217514038085938e+02,9.060476684570312500e+01,-6.906918334960937500e+01,4.131030654907226562e+01,-1.170713615417480469e+01,-1.105743789672851562e+02,-1.215763015747070312e+02,6.321817016601562500e+01,-4.199813842773437500e+01
7.680000066757202148e-01,2.000000000000000000e+00,9.943439483642578125e+00,3.995720386505126953e+00,3.455094909667968750e+01,-1.175757141113281250e+02,9.060676574707031250e+01,-6.909294128417968750e+01,4.124013519287109375e+01,-1.170165252685546875e+01,-1.105830688476562500e+02,-1.216353302001953125e+02,6.321429443359375000e+01,-4.202478408813476562e+01
7.720000147819519043e-01,2.000000000000000000e+00,9.971883773803710938e+00,3.949659347534179688e+00,3.454360961914062500e+01,-1.176296691894531250e+02,9.060876464843750000e+01,-6.911669158935546875e+01,4.116997146606445312e+01,-1.169617080688476562e+01,-1.105917510986328125e+02,-1.216943588256835938e+02,6.321041488647460938e+01,-4.205143356323242188e+01
7.760000228881835938e-01,2.000000000000000000e+00,1.000032806396484375e+01,3.903601169586181641e+00,3.453627014160156250e+01,-1.176836166381835938e+02,9.061076354980468750e+01,-6.914044189453125000e+01,4.109981155395507812e+01,-1.169068813323974609e+01,-1.106004409790039062e+02,-1.217533798217773438e+02,6.320654296875000000e+01,-4.207807922363281250e+01
7.799999713897705078e-01,2.000000000000000000e+00,1.002876949310302734e+01,3.857546091079711914e+00,3.452893066406250000e+01,-1.177375564575195312e+02,9.061277008056640625e+01,-6.916419982910156250e+01,4.102965545654296875e+01,-1.168520545959472656e+01,-1.106091308593750000e+02,-1.218124084472656250e+02,6.320267105102539062e+01,-4.210472106933593750e+01
7.839999794960021973e-01,2.000000000000000000e+00,1.005720901489257812e+01,3.811494112014770508e+00,3.452159500122070312e+01,-1.177915039062500000e+02,9.061476135253906250e+01,-6.918794250488281250e+01,4.095950317382812500e+01,-1.167972469329833984e+01,-1.106178207397460938e+02,-1.218714218139648438e+02,6.319879150390625000e+01,-4.213136291503906250e+01
7.879999876022338867e-01,2.000000000000000000e+00,1.008564758300781250e+01,3.765444993972778320e+00,3.451425552368164062e+01,-1.178454513549804688e+02,9.061676025390625000e+01,-6.921169281005859375e+01,4.088935470581054688e+01,-1.167424297332763672e+01,-1.106264953613281250e+02,-1.219304351806640625e+02,6.319491958618164062e+01,-4.215800094604492188e+01
7.919999957084655762e-01,2.000000000000000000e+00,1.011408424377441406e+01,3.719398736953735352e+00,3.450691986083984375e+01,-1.178993835449218750e+02,9.061876678466796875e+01,-6.923544311523437500e+01,4.081921386718750000e+01,-1.166876220703125000e+01,-1.106351852416992188e+02,-1.219894485473632812e+02,6.319104766845703125e+01,-4.218463897705078125e+01
7.960000038146972656e-01,2.000000000000000000e+00,1.014251899719238281e+01,3.673355102539062500e+00,3.449958038330078125e+01,-1.179533081054687500e+02,9.062075805664062500e+01,-6.925919342041015625e+01,4.074907684326171875e+01,-1.166328048706054688e+01,-1.106438674926757812e+02,-1.220484619140625000e+02,6.318717193603515625e+01,-4.221127700805664062e+01
8.000000119209289551e-01,2.000000000000000000e+00,1.017095184326171875e+01,3.627315044403076172e+00,3.449224472045898438e+01,-1.180072402954101562e+02,9.062275695800781250e+01,-6.928293609619140625e+01,4.067893981933593750e+01,-1.165780162811279297e+01,-1.106525573730468750e+02,-1.221074600219726562e+02,6.318329238891601562e+01,-4.223791122436523438e+01
8.040000200271606445e-01,2.000000000000000000e+00,1.019938373565673828e+01,3.581276893615722656e+00,3.448490905761718750e+01,-1.180611724853515625e+02,9.062476348876953125e+01,-6.930667114257812500e+01,4.060881042480468750e+01,-1.165232086181640625e+01,-1.106612396240234375e+02,-1.221664581298828125e+02,6.317942047119140625e+01,-4.226454544067382812e+01
8.080000281333923340e-01,2.000000000000000000e+00,1.022781181335449219e+01,3.535242319107055664e+00,3.447757339477539062e+01,-1.181150894165039062e+02,9.062675476074218750e+01,-6.933041381835937500e+01,4.053868484497070312e+01,-1.164684104919433594e+01,-1.106699218750000000e+02,-1.222254562377929688e+02,6.317554855346679688e+01,-4.229117584228515625e+01
8.119999766349792480e-01,2.000000000000000000e+00,1.025623989105224609e+01,3.489210605621337891e+00,3.447023773193359375e+01,-1.181690216064453125e+02,9.062875366210937500e+01,-6.935415649414062500e+01,4.046856689453125000e+01,-1.164136219024658203e+01,-1.106786041259765625e+02,-1.222844467163085938e+02,6.317167663574218750e+01,-4.231780624389648438e+01
8.159999847412109375e-01,2.000000000000000000e+00,1.028466606140136719e+01,3.443181514739990234e+00,3.446290588378906250e+01,-1.182229385375976562e+02,9.063075256347656250e+01,-6.937789916992187500e+01,4.039844894409179688e+01,-1.163588333129882812e+01,-1.106872863769531250e+02,-1.223434295654296875e+02,6.316780471801757812e+01,-4.234443283081054688e+01
8.199999928474426270e-01,2.000000000000000000e+00,1.031308937072753906e+01,3.397155046463012695e+00,3.445557022094726562e+01,-1.182768402099609375e+02,9.063275146484375000e+01,-6.940163421630859375e+01,4.032833862304687500e+01,-1.163040447235107422e+01,-1.106959686279296875e+02,-1.224024124145507812e+02,6.316392898559570312e+01,-4.237106323242187500e+01
8.240000009536743164e-01,2.000000000000000000e+00,1.034151172637939453e+01,3.351131916046142578e+00,3.444823837280273438e+01,-1.183307647705078125e+02,9.063475036621093750e+01,-6.942536926269531250e+01,4.025822830200195312e+01,-1.162492561340332031e+01,-1.107046508789062500e+02,-1.224614028930664062e+02,6.316005706787109375e+01,-4.239768600463867188e+01
8.280000090599060059e-01,2.000000000000000000e+00,1.036993217468261719e+01,3.305111169815063477e+00,3.444090652465820312e+01,-1.183846664428710938e+02,9.063674926757812500e+01,-6.944910430908203125e+01,4.018812561035156250e+01,-1.161944770812988281e+01,-1.107133331298828125e+02,-1.225203704833984375e+02,6.315618515014648438e+01,-4.242430877685546875e+01
8.320000171661376953e-01,2.000000000000000000e+00,1.039835166931152344e+01,3.259093284606933594e+00,3.443357086181640625e+01,-1.184385681152343750e+02,9.063874053955078125e+01,-6.947283935546875000e+01,4.011802673339843750e+01,-1.161396980285644531e+01,-1.107220077514648438e+02,-1.225793457031250000e+02,6.315232086181640625e+01,-4.245093154907226562e+01
8.360000252723693848e-01,2.000000000000000000e+00,1.042676925659179688e+01,3.213078022003173828e+00,3.442623519897460938e+01,-1.184924697875976562e+02,9.064074707031250000e+01,-6.949656677246093750e+01,4.004793167114257812e+01,-1.160849285125732422e+01,-1.107306900024414062e+02,-1.226383132934570312e+02,6.314844512939453125e+01,-4.247755050659179688e+01
8.399999737739562988e-01,2.000000000000000000e+00,1.045518398284912109e+01,3.167065858840942383e+00,3.441890716552734375e+01,-1.185463638305664062e+02,9.064273834228515625e+01,-6.952030181884765625e+01,3.997784042358398438e+01,-1.160301589965820312e+01,-1.107393646240234375e+02,-1.226972885131835938e+02,6.314457321166992188e+01,-4.250416946411132812e+01
8.439999818801879883e-01,2.000000000000000000e+00,1.048359775543212891e+01,3.121056318283081055e+00,3.441157531738281250e+01,-1.186002502441406250e+02,9.064473724365234375e+01,-6.954402923583984375e+01,3.990775299072265625e+01,-1.159753894805908203e+01,-1.107480392456054688e+02,-1.227562484741210938e+02,6.314070129394531250e+01,-4.253078460693359375e+01
8.479999899864196777e-01,2.000000000000000000e+00,1.051200962066650391e+01,3.075049638748168945e+00,3.440424346923828125e+01,-1.186541442871093750e+02,9.064673614501953125e+01,-6.956775665283203125e+01,3.983766937255859375e+01,-1.159206295013427734e+01,-1.107567214965820312e+02,-1.228152008056640625e+02,6.313682937622070312e+01,-4.255739974975585938e+01
8.519999980926513672e-01,2.000000000000000000e+00,1.054041957855224609e+01,3.029045581817626953e+00,3.439691543579101562e+01,-1.187080307006835938e+02,9.064873504638671875e+01,-6.959147644042968750e+01,3.976759338378906250e+01,-1.158658695220947266e+01,-1.107653961181640625e+02,-1.228741607666015625e+02,6.313296127319335938e+01,-4.258401489257812500e+01
8.560000061988830566e-01,2.000000000000000000e+00,1.056882953643798828e+01,2.983044147491455078e+00,3.438958358764648438e+01,-1.187619247436523438e+02,9.065072631835937500e+01,-6.961521148681640625e+01,3.969751739501953125e+01,-1.158111190795898438e+01,-1.107740783691406250e+02,-1.229331054687500000e+02,6.312908935546875000e+01,-4.261062622070312500e+01
8.600000143051147461e-01,2.000000000000000000e+00,1.059723567962646484e+01,2.937045335769653320e+00,3.438225555419921875e+01,-1.188158035278320312e+02,9.065272521972656250e+01,-6.963893127441406250e+01,3.962744522094726562e+01,-1.157563686370849609e+01,-1.107827529907226562e+02,-1.229920654296875000e+02,6.312522506713867188e+01,-4.263723754882812500e+01
8.640000224113464355e-01,2.000000000000000000e+00,1.062564086914062500e+01,2.891049385070800781e+00,3.437492370605468750e+01,-1.188696746826171875e+02,9.065472412109375000e+01,-6.966265106201171875e+01,3.955738067626953125e+01,-1.157016086578369141e+01,-1.107914276123046875e+02,-1.230510101318359375e+02,6.312134933471679688e+01,-4.266384887695312500e+01
8.679999709129333496e-01,2.000000000000000000e+00,1.065404510498046875e+01,2.845056295394897461e+00,3.436759567260742188e+01,-1.189235534667968750e+02,9.065672302246093750e+01,-6.968637084960937500e+01,3.948731994628906250e+01,-1.156468582153320312e+01,-1.108001022338867188e+02,-1.231099548339843750e+02,6.311747741699218750e+01,-4.269045639038085938e+01
8.719999790191650391e-01,2.000000000000000000e+00,1.068244647979736328e+01,2.799065589904785156e+00,3.436026763916015625e+01,-1.189774322509765625e+02,9.065871429443359375e+01,-6.971009063720703125e+01,3.941726303100585938e+01,-1.155921268463134766e+01,-1.108087768554687500e+02,-1.231688842773437500e+02,6.311361312866210938e+01,-4.271706008911132812e+01
8.759999871253967285e-01,2.000000000000000000e+00,1.071084690093994141e+01,2.753077745437622070e+00,3.435293960571289062e+01,-1.190312957763671875e+02,9.066071319580078125e+01,-6.973381042480468750e+01,3.934720611572265625e+01,-1.155373764038085938e+01,-1.108174514770507812e+02,-1.232278289794921875e+02,6.310974121093750000e+01,-4.274366760253906250e+01
8.799999952316284180e-01,2.000000000000000000e+00,1.073924541473388672e+01,2.707092285156250000e+00,3.434561157226562500e+01,-1.190851593017578125e+02,9.066271209716796875e+01,-6.975752258300781250e+01,3.927715682983398438e+01,-1.154826450347900391e+01,-1.108261260986328125e+02,-1.232867584228515625e+02,6.310587310791015625e+01,-4.277026748657226562e+01
8.840000033378601074e-01,2.000000000000000000e+00,1.076764297485351562e+01,2.661109685897827148e+00,3.433828353881835938e+01,-1.191390151977539062e+02,9.066470336914062500e+01,-6.978123474121093750e+01,3.920711517333984375e+01,-1.154279136657714844e+01,-1.108348007202148438e+02,-1.233456802368164062e+02,6.310200119018554688e+01,-4.279687118530273438e+01
8.880000114440917969e-01,2.000000000000000000e+00,1.079603862762451172e+01,2.615129709243774414e+00,3.433095932006835938e+01,-1.191928787231445312e+02,9.066669464111328125e+01,-6.980495452880859375e+01,3.913706970214843750e+01,-1.153731727600097656e+01,-1.108434753417968750e+02,-1.234046096801757812e+02,6.309813690185546875e+01,-4.282347106933593750e+01
8.920000195503234863e-01,2.000000000000000000e+00,1.082443237304687500e+01,2.569152116775512695e+00,3.432363510131835938e+01,-1.192467422485351562e+02,9.066870117187500000e+01,-6.982866668701171875e+01,3.906703186035156250e+01,-1.153184509277343750e+01,-1.108521423339843750e+02,-1.234635238647460938e+02,6.309426879882812500e+01,-4.285006713867187500e+01
8.960000276565551758e-01,2.000000000000000000e+00,1.085282516479492188e+01,2.523177385330200195e+00,3.431630325317382812e+01,-1.193005905151367188e+02,9.067069244384765625e+01,-6.985237121582031250e+01,3.899699783325195312e+01,-1.152637195587158203e+01,-1.108608169555664062e+02,-1.235224456787109375e+02,6.309039688110351562e+01,-4.287666320800781250e+01
8.999999761581420898e-01,2.000000000000000000e+00,1.088121509552001953e+01,2.477204799652099609e+00,3.430897903442382812e+01,-1.193544387817382812e+02,9.067269134521484375e+01,-6.987609100341796875e+01,3.892697143554687500e+01,-1.152090072631835938e+01,-1.108694915771484375e+02,-1.235813598632812500e+02,6.308653259277343750e+01,-4.290325927734375000e+01
9.039999842643737793e-01,2.000000000000000000e+00,1.090960502624511719e+01,2.431234836578369141e+00,3.430165481567382812e+01,-1.194082946777343750e+02,9.067468261718750000e+01,-6.989979553222656250e+01,3.885694503784179688e+01,-1.151542854309082031e+01,-1.108781585693359375e+02,-1.236402740478515625e+02,6.308266448974609375e+01,-4.292985153198242188e+01
9.079999923706054688e-01,2.000000000000000000e+00,1.093799304962158203e+01,2.385267496109008789e+00,3.429433059692382812e+01,-1.194621429443359375e+02,9.067667388916015625e+01,-6.992350006103515625e+01,3.878691864013671875e+01,-1.150995635986328125e+01,-1.108868331909179688e+02,-1.236991806030273438e+02,6.307880020141601562e+01,-4.295644760131835938e+01
9.120000004768371582e-01,2.000000000000000000e+00,1.096637916564941406e+01,2.339302539825439453e+00,3.428700637817382812e+01,-1.195159759521484375e+02,9.067868041992187500e+01,-6.994720458984375000e+01,3.871689987182617188e+01,-1.150448608398437500e+01,-1.108955001831054688e+02,-1.237580871582031250e+02,6.307492446899414062e+01,-4.298303604125976562e+01
9.160000085830688477e-01,2.000000000000000000e+00,1.099476432800292969e+01,2.293339729309082031e+00,3.427968215942382812e+01,-1.195698089599609375e+02,9.068067169189453125e+01,-6.997090911865234375e+01,3.864688873291015625e+01,-1.149901485443115234e+01,-1.109041671752929688e+02,-1.238169860839843750e+02,6.307106018066406250e+01,-4.300962829589843750e+01
9.200000166893005371e-01,2.000000000000000000e+00,1.102314758300781250e+01,2.247379541397094727e+00,3.427235794067382812e+01,-1.196236495971679688e+02,9.068267059326171875e+01,-6.999461364746093750e+01,3.857687377929687500e+01,-1.149354362487792969e+01,-1.109128341674804688e+02,-1.238758926391601562e+02,6.306719589233398438e+01,-4.303621292114257812e+01
9.240000247955322266e-01,2.000000000000000000e+00,1.105152988433837891e+01,2.201421976089477539e+00,3.426503753662109375e+01,-1.196774826049804688e+02,9.068466186523437500e+01,-7.001831054687500000e+01,3.850687026977539062e+01,-1.148807334899902344e+01,-1.109215011596679688e+02,-1.239347839355468750e+02,6.306332778930664062e+01,-4.306280136108398438e+01
9.279999732971191406e-01,2.000000000000000000e+00,1.107991123199462891e+01,2.155466318130493164e+00,3.425771331787109375e+01,-1.197313156127929688e+02,9.068665313720703125e+01,-7.004201507568359375e+01,3.843686294555664062e+01,-1.148260307312011719e+01,-1.109301681518554688e+02,-1.239936828613281250e+02,6.305946350097656250e+01,-4.308938598632812500e+01
9.319999814033508301e-01,2.000000000000000000e+00,1.110829067230224609e+01,2.109513282775878906e+00,3.425038909912109375e+01,-1.197851409912109375e+02,9.068865203857421875e+01,-7.006571197509765625e+01,3.836686325073242188e+01,-1.147713279724121094e+01,-1.109388351440429688e+02,-1.240525741577148438e+02,6.305559539794921875e+01,-4.311597061157226562e+01
9.359999895095825195e-01,2.000000000000000000e+00,1.113666820526123047e+01,2.063562631607055664e+00,3.424306869506835938e+01,-1.198389587402343750e+02,9.069064331054687500e+01,-7.008941650390625000e+01,3.829686355590820312e+01,-1.147166442871093750e+01,-1.109475021362304688e+02,-1.241114501953125000e+02,6.305173110961914062e+01,-4.314255142211914062e+01
9.399999976158142090e-01,2.000000000000000000e+00,1.116504383087158203e+01,2.017613887786865234e+00,3.423574829101562500e+01,-1.198927841186523438e+02,9.069264221191406250e+01,-7.011310577392578125e+01,3.822687149047851562e+01,-1.146619510650634766e+01,-1.109561691284179688e+02,-1.241703414916992188e+02,6.304786682128906250e+01,-4.316913604736328125e+01
9.440000057220458984e-01,2.000000000000000000e+00,1.119341945648193359e+01,1.971667528152465820e+00,3.422842788696289062e+01,-1.199466094970703125e+02,9.069463348388671875e+01,-7.013681030273437500e+01,3.815688323974609375e+01,-1.146072578430175781e+01,-1.109648361206054688e+02,-1.242292175292968750e+02,6.304399871826171875e+01,-4.319571685791015625e+01
9.480000138282775879e-01,2.000000000000000000e+00,1.122179222106933594e+01,1.925723195075988770e+00,3.422110748291015625e+01,-1.200004272460937500e+02,9.069662475585937500e+01,-7.016049957275390625e+01,3.808689498901367188e+01,-1.145525741577148438e+01,-1.109735031127929688e+02,-1.242880935668945312e+02,6.304013442993164062e+01,-4.322229003906250000e+01
9.520000219345092773e-01,2.000000000000000000e+00,1.125016498565673828e+01,1.879781246185302734e+00,3.421378326416015625e+01,-1.200542373657226562e+02,9.069862365722656250e+01,-7.018419647216796875e+01,3.801691055297851562e+01,-1.144978904724121094e+01,-1.109821777343750000e+02,-1.243469696044921875e+02,6.303626632690429688e+01,-4.324887084960937500e+01
9.559999704360961914e-01,2.000000000000000000e+00,1.127853584289550781e+01,1.833841323852539062e+00,3.420646667480468750e+01,-1.201080551147460938e+02,9.070061492919921875e+01,-7.020788574218750000e+01,3.794692993164062500e+01,-1.144431972503662109e+01,-1.109908370971679688e+02,-1.244058456420898438e+02,6.303240203857421875e+01,-4.327544784545898438e+01
9.599999785423278809e-01,2.000000000000000000e+00,1.130690574645996094e+01,1.787903666496276855e+00,3.419914245605468750e+01,-1.201618652343750000e+02,9.070261383056640625e+01,-7.023157501220703125e+01,3.787695312500000000e+01,-1.143885135650634766e+01,-1.109995040893554688e+02,-1.244647216796875000e+02,6.302853393554687500e+01,-4.330202484130859375e+01
9.639999866485595703e-01,2.000000000000000000e+00,1.133527374267578125e+01,1.741967916488647461e+00,3.419182586669921875e+01,-1.202156753540039062e+02,9.070460510253906250e+01,-7.025527191162109375e+01,3.780698013305664062e+01,-1.143338394165039062e+01,-1.110081634521484375e+02,-1.245235824584960938e+02,6.302466964721679688e+01,-4.332859802246093750e+01
9.679999947547912598e-01,2.000000000000000000e+00,1.136363983154296875e+01,1.696034312248229980e+00,3.418450546264648438e+01,-1.202694702148437500e+02,9.070660400390625000e+01,-7.027896118164062500e+01,3.773700714111328125e+01,-1.142791652679443359e+01,-1.110168304443359375e+02,-1.245824432373046875e+02,6.302080535888671875e+01,-4.335516738891601562e+01
9.720000028610229492e-01,2.000000000000000000e+00,1.139200592041015625e+01,1.650102734565734863e+00,3.417718887329101562e+01,-1.203232803344726562e+02,9.070859527587890625e+01,-7.030264282226562500e+01,3.766703796386718750e+01,-1.142244911193847656e+01,-1.110254898071289062e+02,-1.246413116455078125e+02,6.301694488525390625e+01,-4.338174057006835938e+01
9.760000109672546387e-01,2.000000000000000000e+00,1.142037105560302734e+01,1.604173183441162109e+00,3.416986846923828125e+01,-1.203770751953125000e+02,9.071058654785156250e+01,-7.032633209228515625e+01,3.759707260131835938e+01,-1.141698169708251953e+01,-1.110341567993164062e+02,-1.247001724243164062e+02,6.301308059692382812e+01,-4.340830993652343750e+01
9.800000190734863281e-01,2.000000000000000000e+00,1.144873332977294922e+01,1.558245658874511719e+00,3.416255187988281250e+01,-1.204308776855468750e+02,9.071258544921875000e+01,-7.035002136230468750e+01,3.752711105346679688e+01,-1.141151523590087891e+01,-1.110428161621093750e+02,-1.247590332031250000e+02,6.300921249389648438e+01,-4.343487930297851562e+01
9.840000271797180176e-01,2.000000000000000000e+00,1.147709560394287109e+01,1.512320160865783691e+00,3.415523147583007812e+01,-1.204846725463867188e+02,9.071457672119140625e+01,-7.037371063232421875e+01,3.745715332031250000e+01,-1.140604782104492188e+01,-1.110514831542968750e+02,-1.248178863525390625e+02,6.300534820556640625e+01,-4.346144866943359375e+01
9.879999756813049316e-01,2.000000000000000000e+00,1.150545597076416016e+01,1.466396570205688477e+00,3.414791488647460938e+01,-1.205384674072265625e+02,9.071657562255859375e+01,-7.039738464355468750e+01,3.738719940185546875e+01,-1.140058231353759766e+01,-1.110601425170898438e+02,-1.248767471313476562e+02,6.300148773193359375e+01,-4.348801803588867188e+01
9.919999837875366211e-01,2.000000000000000000e+00,1.153381538391113281e+01,1.420475006103515625e+00,3.414059829711914062e+01,-1.205922470092773438e+02,9.071856689453125000e+01,-7.042107391357421875e+01,3.731724548339843750e+01,-1.139511585235595703e+01,-1.110688095092773438e+02,-1.249355926513671875e+02,6.299762344360351562e+01,-4.351458358764648438e+01
9.959999918937683105e-01,2.000000000000000000e+00,1.156217384338378906e+01,1.374555468559265137e+00,3.413328170776367188e+01,-1.206460418701171875e+02,9.072055816650390625e+01,-7.044475555419921875e+01,3.724729537963867188e+01,-1.138964939117431641e+01,-1.110774688720703125e+02,-1.249944458007812500e+02,6.299375534057617188e+01,-4.354114913940429688e+01
1.000000000000000000e+00,2.000000000000000000e+00,1.159053039550781250e+01,1.328637719154357910e+00,3.412596511840820312e+01,-1.206998291015625000e+02,9.072254943847656250e+01,-7.046843719482421875e+01,3.717734909057617188e+01,-1.138418388366699219e+01,-1.110861282348632812e+02,-1.250532760620117188e+02,6.298989868164062500e+01,-4.356771087646484375e+01
1.003999948501586914e+00,2.000000000000000000e+00,1.161888694763183594e+01,1.282722234725952148e+00,3.411864471435546875e+01,-1.207536239624023438e+02,9.072454071044921875e+01,-7.049211883544921875e+01,3.710740280151367188e+01,-1.137871837615966797e+01,-1.110947875976562500e+02,-1.251121292114257812e+02,6.298603057861328125e+01,-4.359427261352539062e+01
1.008000016212463379e+00,2.000000000000000000e+00,1.164724063873291016e+01,1.236809015274047852e+00,3.411133193969726562e+01,-1.208074035644531250e+02,9.072653961181640625e+01,-7.051579284667968750e+01,3.703746795654296875e+01,-1.137325382232666016e+01,-1.111034545898437500e+02,-1.251709671020507812e+02,6.298216629028320312e+01,-4.362083816528320312e+01
1.011999964714050293e+00,2.000000000000000000e+00,1.167559432983398438e+01,1.190898299217224121e+00,3.410401535034179688e+01,-1.208611679077148438e+02,9.072853088378906250e+01,-7.053947448730468750e+01,3.696752548217773438e+01,-1.136778831481933594e+01,-1.111121139526367188e+02,-1.252297973632812500e+02,6.297830581665039062e+01,-4.364739608764648438e+01
1.016000032424926758e+00,2.000000000000000000e+00,1.170394706726074219e+01,1.144990086555480957e+00,3.409669876098632812e+01,-1.209149475097656250e+02,9.073052978515625000e+01,-7.056314849853515625e+01,3.689759063720703125e+01,-1.136232376098632812e+01,-1.111207656860351562e+02,-1.252886352539062500e+02,6.297444152832031250e+01,-4.367395401000976562e+01
1.019999980926513672e+00,2.000000000000000000e+00,1.173229694366455078e+01,1.099083900451660156e+00,3.408938217163085938e+01,-1.209687271118164062e+02,9.073251342773437500e+01,-7.058683013916015625e+01,3.682765960693359375e+01,-1.135685920715332031e+01,-1.111294250488281250e+02,-1.253474655151367188e+02,6.297058105468750000e+01,-4.370051574707031250e+01
1.024000048637390137e+00,2.000000000000000000e+00,1.176064682006835938e+01,1.053179502487182617e+00,3.408206558227539062e+01,-1.210224990844726562e+02,9.073450469970703125e+01,-7.061050415039062500e+01,3.675772857666015625e+01,-1.135139465332031250e+01,-1.111380844116210938e+02,-1.254063034057617188e+02,6.296671676635742188e+01,-4.372706985473632812e+01
1.026999950408935547e+00,2.000000000000000000e+00,1.178899574279785156e+01,1.007277011871337891e+00,3.407475280761718750e+01,-1.210762634277343750e+02,9.073650360107421875e+01,-7.063417816162109375e+01,3.668780517578125000e+01,-1.134593009948730469e+01,-1.111467437744140625e+02,-1.254651260375976562e+02,6.296285629272460938e+01,-4.375362396240234375e+01
1.031999945640563965e+00,2.000000000000000000e+00,1.181734371185302734e+01,9.613759517669677734e-01,3.406743621826171875e+01,-1.211300354003906250e+02,9.073849487304687500e+01,-7.065785217285156250e+01,3.661788177490234375e+01,-1.134046649932861328e+01,-1.111554031372070312e+02,-1.255239639282226562e+02,6.295899200439453125e+01,-4.378018188476562500e+01
1.036000013351440430e+00,2.000000000000000000e+00,1.184568977355957031e+01,9.154762029647827148e-01,3.406012344360351562e+01,-1.211837997436523438e+02,9.074049377441406250e+01,-7.068152618408203125e+01,3.654795837402343750e+01,-1.133500289916992188e+01,-1.111640625000000000e+02,-1.255827865600585938e+02,6.295513153076171875e+01,-4.380673599243164062e+01
1.039999961853027344e+00,2.000000000000000000e+00,1.187403488159179688e+01,8.695778846740722656e-01,3.405281066894531250e+01,-1.212375640869140625e+02,9.074247741699218750e+01,-7.070520019531250000e+01,3.647804260253906250e+01,-1.132953929901123047e+01,-1.111727142333984375e+02,-1.256416015625000000e+02,6.295127105712890625e+01,-4.383329010009765625e+01
1.044000029563903809e+00,2.000000000000000000e+00,1.190237808227539062e+01,8.236812353134155273e-01,3.404549407958984375e+01,-1.212913360595703125e+02,9.074447631835937500e+01,-7.072886657714843750e+01,3.640812683105468750e+01,-1.132407665252685547e+01,-1.111813735961914062e+02,-1.257004089355468750e+02,6.294740676879882812e+01,-4.385983657836914062e+01
1.047999978065490723e+00,2.000000000000000000e+00,1.193072223663330078e+01,7.777864336967468262e-01,3.403818511962890625e+01,-1.213450851440429688e+02,9.074646759033203125e+01,-7.075254058837890625e+01,3.633821487426757812e+01,-1.131861305236816406e+01,-1.111900329589843750e+02,-1.257592315673828125e+02,6.294354629516601562e+01,-4.388639068603515625e+01
1.052000045776367188e+00,2.000000000000000000e+00,1.195906352996826172e+01,7.318934798240661621e-01,3.403087234497070312e+01,-1.213988571166992188e+02,9.074845886230468750e+01,-7.077620697021484375e+01,3.626830673217773438e+01,-1.131315040588378906e+01,-1.111986846923828125e+02,-1.258180389404296875e+02,6.293968963623046875e+01,-4.391294097900390625e+01
1.054999947547912598e+00,2.000000000000000000e+00,1.198740386962890625e+01,6.860022544860839844e-01,3.402355575561523438e+01,-1.214526062011718750e+02,9.075045013427734375e+01,-7.079987335205078125e+01,3.619839859008789062e+01,-1.130768775939941406e+01,-1.112073440551757812e+02,-1.258768615722656250e+02,6.293582153320312500e+01,-4.393948745727539062e+01
1.059999942779541016e+00,2.000000000000000000e+00,1.201574325561523438e+01,6.401128768920898438e-01,3.401624298095703125e+01,-1.215063629150390625e+02,9.075244140625000000e+01,-7.082353973388671875e+01,3.612849426269531250e+01,-1.130222606658935547e+01,-1.112159957885742188e+02,-1.259356689453125000e+02,6.293196487426757812e+01,-4.396603775024414062e+01
1.064000010490417480e+00,2.000000000000000000e+00,1.204408264160156250e+01,5.942253470420837402e-01,3.400893402099609375e+01,-1.215601043701171875e+02,9.075443267822265625e+01,-7.084720611572265625e+01,3.605859375000000000e+01,-1.129676342010498047e+01,-1.112246551513671875e+02,-1.259944763183593750e+02,6.292810440063476562e+01,-4.399258422851562500e+01
1.067999958992004395e+00,2.000000000000000000e+00,1.207241916656494141e+01,5.483395457267761230e-01,3.400162124633789062e+01,-1.216138534545898438e+02,9.075642395019531250e+01,-7.087087249755859375e+01,3.598869323730468750e+01,-1.129130172729492188e+01,-1.112333068847656250e+02,-1.260532760620117188e+02,6.292424392700195312e+01,-4.401912689208984375e+01
1.072000026702880859e+00,2.000000000000000000e+00,1.210075569152832031e+01,5.024555325508117676e-01,3.399430847167968750e+01,-1.216676101684570312e+02,9.075842285156250000e+01,-7.089453887939453125e+01,3.591880035400390625e+01,-1.128584003448486328e+01,-1.112419662475585938e+02,-1.261120834350585938e+02,6.292037963867187500e+01,-4.404566955566406250e+01
1.075999975204467773e+00,2.000000000000000000e+00,1.212909126281738281e+01,4.565732777118682861e-01,3.398699951171875000e+01,-1.217213516235351562e+02,9.076040649414062500e+01,-7.091819763183593750e+01,3.584890747070312500e+01,-1.128037834167480469e+01,-1.112506179809570312e+02,-1.261708755493164062e+02,6.291651916503906250e+01,-4.407221603393554688e+01
1.080000042915344238e+00,2.000000000000000000e+00,1.215742492675781250e+01,4.106928110122680664e-01,3.397969055175781250e+01,-1.217750854492187500e+02,9.076240539550781250e+01,-7.094185638427734375e+01,3.577901840209960938e+01,-1.127491664886474609e+01,-1.112592773437500000e+02,-1.262296829223632812e+02,6.291266250610351562e+01,-4.409875869750976562e+01
1.083999991416931152e+00,2.000000000000000000e+00,1.218575859069824219e+01,3.648140132427215576e-01,3.397237777709960938e+01,-1.218288269042968750e+02,9.076439666748046875e+01,-7.096552276611328125e+01,3.570912933349609375e+01,-1.126945590972900391e+01,-1.112679290771484375e+02,-1.262884750366210938e+02,6.290880203247070312e+01,-4.412530136108398438e+01
1.088000059127807617e+00,2.000000000000000000e+00,1.221409034729003906e+01,3.189370036125183105e-01,3.396506500244140625e+01,-1.218825683593750000e+02,9.076638793945312500e+01,-7.098918151855468750e+01,3.563924407958984375e+01,-1.126399421691894531e+01,-1.112765808105468750e+02,-1.263472747802734375e+02,6.290494155883789062e+01,-4.415184020996093750e+01
1.090999960899353027e+00,2.000000000000000000e+00,1.224242115020751953e+01,2.730616629123687744e-01,3.395775604248046875e+01,-1.219363098144531250e+02,9.076837921142578125e+01,-7.101284027099609375e+01,3.556936264038085938e+01,-1.125853347778320312e+01,-1.112852325439453125e+02,-1.264060516357421875e+02,6.290108489990234375e+01,-4.417837905883789062e+01
1.095999956130981445e+00,2.000000000000000000e+00,1.227075099945068359e+01,2.271880507469177246e-01,3.395044708251953125e+01,-1.219900512695312500e+02,9.077037048339843750e+01,-7.103649902343750000e+01,3.549948120117187500e+01,-1.125307369232177734e+01,-1.112938842773437500e+02,-1.264648437500000000e+02,6.289721679687500000e+01,-4.420491790771484375e+01
1.100000023841857910e+00,2.000000000000000000e+00,1.229907989501953125e+01,1.813161373138427734e-01,3.394313812255859375e+01,-1.220437774658203125e+02,9.077236175537109375e+01,-7.106015777587890625e+01,3.542960357666015625e+01,-1.124761295318603516e+01,-1.113025360107421875e+02,-1.265236434936523438e+02,6.289336013793945312e+01,-4.423145675659179688e+01
1.103999972343444824e+00,2.000000000000000000e+00,1.232740783691406250e+01,1.354459077119827271e-01,3.393582916259765625e+01,-1.220975036621093750e+02,9.077434539794921875e+01,-7.108381652832031250e+01,3.535972976684570312e+01,-1.124215316772460938e+01,-1.113111877441406250e+02,-1.265824203491210938e+02,6.288949966430664062e+01,-4.425799179077148438e+01
1.108000040054321289e+00,2.000000000000000000e+00,1.235573482513427734e+01,8.957736194133758545e-02,3.392852020263671875e+01,-1.221512374877929688e+02,9.077634429931640625e+01,-7.110746765136718750e+01,3.528985595703125000e+01,-1.123669338226318359e+01,-1.113198394775390625e+02,-1.266412048339843750e+02,6.288564300537109375e+01,-4.428452682495117188e+01
1.111999988555908203e+00,2.000000000000000000e+00,1.238405990600585938e+01,4.371048510074615479e-02,3.392121124267578125e+01,-1.222049636840820312e+02,9.077832794189453125e+01,-7.113112640380859375e+01,3.521998596191406250e+01,-1.123123359680175781e+01,-1.113284912109375000e+02,-1.266999816894531250e+02,6.288178253173828125e+01,-4.431106185913085938e+01
