rpiRobotics/ARM-21-02-F-19-Robot-Motion-Program/data_performance_abb/curve_2/dual_arm/diffevo_pose6/grad_result/sim/dual_iteration_1.csv
timestamp,cmd_num,J1,J2,J3,J4,J5,J6,J1_2,J2_2,J3_2,J4_2,J5_2,J6_2
0.000000000000000000e+00,-1.000000000000000000e+00,5.413986682891845703e+00,1.110071372985839844e+01,3.589807891845703125e+01,-1.092151641845703125e+02,9.025460815429687500e+01,-6.537828826904296875e+01,5.206952667236328125e+01,-1.204181003570556641e+01,-1.102147903442382812e+02,-1.118343582153320312e+02,6.377708435058593750e+01,-3.836444473266601562e+01
2.000000094994902611e-03,-1.000000000000000000e+00,5.413986682891845703e+00,1.110071372985839844e+01,3.589807891845703125e+01,-1.092151641845703125e+02,9.025460815429687500e+01,-6.537828826904296875e+01,5.206952667236328125e+01,-1.204181003570556641e+01,-1.102147903442382812e+02,-1.118343582153320312e+02,6.377708435058593750e+01,-3.836444473266601562e+01
6.000000052154064178e-03,-1.000000000000000000e+00,5.413986682891845703e+00,1.110071372985839844e+01,3.589807891845703125e+01,-1.092151641845703125e+02,9.025460815429687500e+01,-6.537828826904296875e+01,5.206952667236328125e+01,-1.204181003570556641e+01,-1.102147903442382812e+02,-1.118343582153320312e+02,6.377708435058593750e+01,-3.836444473266601562e+01
8.000000379979610443e-03,-1.000000000000000000e+00,5.413986682891845703e+00,1.110071372985839844e+01,3.589807891845703125e+01,-1.092151641845703125e+02,9.025460815429687500e+01,-6.537828826904296875e+01,5.206952667236328125e+01,-1.204181003570556641e+01,-1.102147903442382812e+02,-1.118343582153320312e+02,6.377708435058593750e+01,-3.836444473266601562e+01
1.099999994039535522e-02,-1.000000000000000000e+00,5.413986682891845703e+00,1.110071372985839844e+01,3.589807891845703125e+01,-1.092151641845703125e+02,9.025460815429687500e+01,-6.537828826904296875e+01,5.206952667236328125e+01,-1.204181003570556641e+01,-1.102147903442382812e+02,-1.118343582153320312e+02,6.377708435058593750e+01,-3.836444473266601562e+01
1.600000075995922089e-02,-1.000000000000000000e+00,5.413986682891845703e+00,1.110071372985839844e+01,3.589807891845703125e+01,-1.092151641845703125e+02,9.025460815429687500e+01,-6.537828826904296875e+01,5.206952667236328125e+01,-1.204181003570556641e+01,-1.102147903442382812e+02,-1.118343582153320312e+02,6.377708435058593750e+01,-3.836444473266601562e+01
1.999999955296516418e-02,-1.000000000000000000e+00,5.413986682891845703e+00,1.110071372985839844e+01,3.589807891845703125e+01,-1.092151641845703125e+02,9.025460815429687500e+01,-6.537828826904296875e+01,5.206952667236328125e+01,-1.204181003570556641e+01,-1.102147903442382812e+02,-1.118343582153320312e+02,6.377708435058593750e+01,-3.836444473266601562e+01
2.400000020861625671e-02,-1.000000000000000000e+00,5.413986682891845703e+00,1.110071372985839844e+01,3.589807891845703125e+01,-1.092151641845703125e+02,9.025460815429687500e+01,-6.537828826904296875e+01,5.206952667236328125e+01,-1.204181003570556641e+01,-1.102147903442382812e+02,-1.118343582153320312e+02,6.377708435058593750e+01,-3.836444473266601562e+01
2.800000086426734924e-02,2.000000000000000000e+00,5.413986682891845703e+00,1.110071372985839844e+01,3.589807891845703125e+01,-1.092151641845703125e+02,9.025460815429687500e+01,-6.537828826904296875e+01,5.206952667236328125e+01,-1.204181003570556641e+01,-1.102147903442382812e+02,-1.118343582153320312e+02,6.377708435058593750e+01,-3.836444473266601562e+01
3.299999982118606567e-02,2.000000000000000000e+00,5.413986682891845703e+00,1.110071372985839844e+01,3.589807891845703125e+01,-1.092151641845703125e+02,9.025460815429687500e+01,-6.537828826904296875e+01,5.206952667236328125e+01,-1.204181003570556641e+01,-1.102147903442382812e+02,-1.118343582153320312e+02,6.377708435058593750e+01,-3.836444473266601562e+01
3.700000047683715820e-02,2.000000000000000000e+00,5.413986682891845703e+00,1.110071372985839844e+01,3.589807891845703125e+01,-1.092151641845703125e+02,9.025460815429687500e+01,-6.537828826904296875e+01,5.206952667236328125e+01,-1.204181003570556641e+01,-1.102147903442382812e+02,-1.118343582153320312e+02,6.377708435058593750e+01,-3.836444473266601562e+01
3.999999910593032837e-02,2.000000000000000000e+00,5.413986682891845703e+00,1.110071372985839844e+01,3.589807891845703125e+01,-1.092151641845703125e+02,9.025460815429687500e+01,-6.537828826904296875e+01,5.206952667236328125e+01,-1.204181003570556641e+01,-1.102147903442382812e+02,-1.118343582153320312e+02,6.377708435058593750e+01,-3.836444473266601562e+01
4.600000008940696716e-02,2.000000000000000000e+00,5.413986682891845703e+00,1.110071372985839844e+01,3.589807891845703125e+01,-1.092151641845703125e+02,9.025460815429687500e+01,-6.537828826904296875e+01,5.206952667236328125e+01,-1.204181003570556641e+01,-1.102147903442382812e+02,-1.118343582153320312e+02,6.377708435058593750e+01,-3.836444473266601562e+01
4.800000041723251343e-02,2.000000000000000000e+00,5.413986682891845703e+00,1.110071372985839844e+01,3.589807891845703125e+01,-1.092151641845703125e+02,9.025460815429687500e+01,-6.537828826904296875e+01,5.206952667236328125e+01,-1.204181003570556641e+01,-1.102147903442382812e+02,-1.118343582153320312e+02,6.377708435058593750e+01,-3.836444473266601562e+01
5.200000107288360596e-02,2.000000000000000000e+00,5.413986682891845703e+00,1.110071372985839844e+01,3.589807891845703125e+01,-1.092151641845703125e+02,9.025460815429687500e+01,-6.537828826904296875e+01,5.206952667236328125e+01,-1.204181003570556641e+01,-1.102147903442382812e+02,-1.118343582153320312e+02,6.377708435058593750e+01,-3.836444473266601562e+01
5.600000172853469849e-02,2.000000000000000000e+00,5.413986682891845703e+00,1.110071372985839844e+01,3.589807891845703125e+01,-1.092151641845703125e+02,9.025460815429687500e+01,-6.537828826904296875e+01,5.206952667236328125e+01,-1.204181003570556641e+01,-1.102147903442382812e+02,-1.118343582153320312e+02,6.377708435058593750e+01,-3.836444473266601562e+01
5.999999865889549255e-02,2.000000000000000000e+00,5.413986682891845703e+00,1.110071372985839844e+01,3.589807891845703125e+01,-1.092151641845703125e+02,9.025460815429687500e+01,-6.537828826904296875e+01,5.206952667236328125e+01,-1.204181003570556641e+01,-1.102147903442382812e+02,-1.118343582153320312e+02,6.377708435058593750e+01,-3.836444473266601562e+01
6.400000303983688354e-02,2.000000000000000000e+00,5.413986682891845703e+00,1.110071372985839844e+01,3.589807891845703125e+01,-1.092151641845703125e+02,9.025460815429687500e+01,-6.537828826904296875e+01,5.206952667236328125e+01,-1.204181003570556641e+01,-1.102147903442382812e+02,-1.118343582153320312e+02,6.377708435058593750e+01,-3.836444473266601562e+01
6.800000369548797607e-02,2.000000000000000000e+00,5.414017200469970703e+00,1.110068988800048828e+01,3.589807891845703125e+01,-1.092151641845703125e+02,9.025461578369140625e+01,-6.537828826904296875e+01,5.206952667236328125e+01,-1.204181003570556641e+01,-1.102147903442382812e+02,-1.118343582153320312e+02,6.377708435058593750e+01,-3.836444473266601562e+01
7.199999690055847168e-02,2.000000000000000000e+00,5.414200305938720703e+00,1.110054397583007812e+01,3.589808273315429688e+01,-1.092151718139648438e+02,9.025461578369140625e+01,-6.537828826904296875e+01,5.206952667236328125e+01,-1.204181003570556641e+01,-1.102147903442382812e+02,-1.118343582153320312e+02,6.377708435058593750e+01,-3.836444473266601562e+01
7.599999755620956421e-02,2.000000000000000000e+00,5.414739131927490234e+00,1.110009098052978516e+01,3.589808654785156250e+01,-1.092152023315429688e+02,9.025463104248046875e+01,-6.537829589843750000e+01,5.206952667236328125e+01,-1.204181003570556641e+01,-1.102147903442382812e+02,-1.118343582153320312e+02,6.377708435058593750e+01,-3.836444473266601562e+01
7.999999821186065674e-02,2.000000000000000000e+00,5.415818691253662109e+00,1.109912681579589844e+01,3.589809417724609375e+01,-1.092153091430664062e+02,9.025466918945312500e+01,-6.537833404541015625e+01,5.206949615478515625e+01,-1.204181289672851562e+01,-1.102147750854492188e+02,-1.118343658447265625e+02,6.377707672119140625e+01,-3.836444473266601562e+01
8.399999886751174927e-02,2.000000000000000000e+00,5.417527198791503906e+00,1.109748363494873047e+01,3.589809417724609375e+01,-1.092155532836914062e+02,9.025473785400390625e+01,-6.537841796875000000e+01,5.206929016113281250e+01,-1.204183673858642578e+01,-1.102147369384765625e+02,-1.118343734741210938e+02,6.377707672119140625e+01,-3.836444854736328125e+01
8.799999952316284180e-02,2.000000000000000000e+00,5.419886112213134766e+00,1.109503746032714844e+01,3.589807891845703125e+01,-1.092160415649414062e+02,9.025482177734375000e+01,-6.537860870361328125e+01,5.206861495971679688e+01,-1.204191017150878906e+01,-1.102145767211914062e+02,-1.118344421386718750e+02,6.377706146240234375e+01,-3.836447143554687500e+01
9.200000017881393433e-02,2.000000000000000000e+00,5.422920227050781250e+00,1.109165763854980469e+01,3.589801788330078125e+01,-1.092169342041015625e+02,9.025495910644531250e+01,-6.537896728515625000e+01,5.206708908081054688e+01,-1.204206466674804688e+01,-1.102142639160156250e+02,-1.118346328735351562e+02,6.377702713012695312e+01,-3.836454391479492188e+01
9.600000083446502686e-02,2.000000000000000000e+00,5.426651000976562500e+00,1.108718967437744141e+01,3.589788818359375000e+01,-1.092184295654296875e+02,9.025514221191406250e+01,-6.537957763671875000e+01,5.206434249877929688e+01,-1.204230880737304688e+01,-1.102137527465820312e+02,-1.118351211547851562e+02,6.377696609497070312e+01,-3.836473083496093750e+01
1.000000014901161194e-01,2.000000000000000000e+00,5.431102275848388672e+00,1.108144950866699219e+01,3.589765548706054688e+01,-1.092207641601562500e+02,9.025536346435546875e+01,-6.538055419921875000e+01,5.206003189086914062e+01,-1.204263496398925781e+01,-1.102130508422851562e+02,-1.118361358642578125e+02,6.377685928344726562e+01,-3.836514663696289062e+01
1.040000021457672119e-01,2.000000000000000000e+00,5.436349391937255859e+00,1.107421970367431641e+01,3.589727401733398438e+01,-1.092242202758789062e+02,9.025566101074218750e+01,-6.538201141357421875e+01,5.205377960205078125e+01,-1.204300880432128906e+01,-1.102122116088867188e+02,-1.118380355834960938e+02,6.377667236328125000e+01,-3.836592864990234375e+01
1.080000028014183044e-01,2.000000000000000000e+00,5.442560195922851562e+00,1.106523895263671875e+01,3.589670562744140625e+01,-1.092291259765625000e+02,9.025601959228515625e+01,-6.538410949707031250e+01,5.204524230957031250e+01,-1.204337692260742188e+01,-1.102113418579101562e+02,-1.118412399291992188e+02,6.377640151977539062e+01,-3.836726760864257812e+01
1.120000034570693970e-01,2.000000000000000000e+00,5.449964046478271484e+00,1.105420017242431641e+01,3.589589309692382812e+01,-1.092358398437500000e+02,9.025646972656250000e+01,-6.538699340820312500e+01,5.203412628173828125e+01,-1.204366302490234375e+01,-1.102105560302734375e+02,-1.118462524414062500e+02,6.377600479125976562e+01,-3.836938095092773438e+01
1.159999966621398926e-01,2.000000000000000000e+00,5.458729743957519531e+00,1.104086494445800781e+01,3.589478302001953125e+01,-1.092447509765625000e+02,9.025702667236328125e+01,-6.539083862304687500e+01,5.202011489868164062e+01,-1.204377937316894531e+01,-1.102100219726562500e+02,-1.118536148071289062e+02,6.377545928955078125e+01,-3.837250900268554688e+01
1.199999973177909851e-01,2.000000000000000000e+00,5.468834400177001953e+00,1.102525234222412109e+01,3.589330291748046875e+01,-1.092562866210937500e+02,9.025767517089843750e+01,-6.539583587646484375e+01,5.200276565551757812e+01,-1.204365253448486328e+01,-1.102098617553710938e+02,-1.118639068603515625e+02,6.377471923828125000e+01,-3.837689208984375000e+01
1.239999979734420776e-01,2.000000000000000000e+00,5.480074405670166016e+00,1.100765323638916016e+01,3.589138412475585938e+01,-1.092708511352539062e+02,9.025841522216796875e+01,-6.540217590332031250e+01,5.198149871826171875e+01,-1.204322624206542969e+01,-1.102101669311523438e+02,-1.118776702880859375e+02,6.377376937866210938e+01,-3.838278198242187500e+01
1.280000060796737671e-01,2.000000000000000000e+00,5.492230415344238281e+00,1.098839664459228516e+01,3.588896179199218750e+01,-1.092887954711914062e+02,9.025923919677734375e+01,-6.541002655029296875e+01,5.195578002929687500e+01,-1.204244422912597656e+01,-1.102110290527343750e+02,-1.118954696655273438e+02,6.377256011962890625e+01,-3.839040756225585938e+01
1.309999972581863403e-01,2.000000000000000000e+00,5.505222320556640625e+00,1.096760654449462891e+01,3.588598632812500000e+01,-1.093103866577148438e+02,9.026013946533203125e+01,-6.541950225830078125e+01,5.192539596557617188e+01,-1.204121685028076172e+01,-1.102126159667968750e+02,-1.119178009033203125e+02,6.377107238769531250e+01,-3.839999389648437500e+01
1.360000073909759521e-01,2.000000000000000000e+00,5.519089221954345703e+00,1.094523429870605469e+01,3.588242721557617188e+01,-1.093358230590820312e+02,9.026111602783203125e+01,-6.543069458007812500e+01,5.189054107666015625e+01,-1.203942298889160156e+01,-1.102151489257812500e+02,-1.119450912475585938e+02,6.376929092407226562e+01,-3.841173171997070312e+01
1.389999985694885254e-01,2.000000000000000000e+00,5.533902168273925781e+00,1.092118263244628906e+01,3.587828063964843750e+01,-1.093651504516601562e+02,9.026218414306640625e+01,-6.544361877441406250e+01,5.185161590576171875e+01,-1.203694629669189453e+01,-1.102188568115234375e+02,-1.119776229858398438e+02,6.376720046997070312e+01,-3.842574310302734375e+01
1.439999938011169434e-01,2.000000000000000000e+00,5.549769878387451172e+00,1.089529514312744141e+01,3.587356567382812500e+01,-1.093982772827148438e+02,9.026332855224609375e+01,-6.545824432373046875e+01,5.180898284912109375e+01,-1.203372764587402344e+01,-1.102238693237304688e+02,-1.120154571533203125e+02,6.376480865478515625e+01,-3.844206237792968750e+01
1.480000019073486328e-01,2.000000000000000000e+00,5.566826820373535156e+00,1.086736679077148438e+01,3.586830520629882812e+01,-1.094350738525390625e+02,9.026457977294921875e+01,-6.547450256347656250e+01,5.176298141479492188e+01,-1.202976512908935547e+01,-1.102302017211914062e+02,-1.120584259033203125e+02,6.376212692260742188e+01,-3.846061706542968750e+01
1.519999951124191284e-01,2.000000000000000000e+00,5.585142612457275391e+00,1.083727550506591797e+01,3.586254882812500000e+01,-1.094752807617187500e+02,9.026592254638671875e+01,-6.549226379394531250e+01,5.171395874023437500e+01,-1.202511692047119141e+01,-1.102377624511718750e+02,-1.121060791015625000e+02,6.375917434692382812e+01,-3.848121261596679688e+01
1.560000032186508179e-01,2.000000000000000000e+00,5.604647159576416016e+00,1.080510520935058594e+01,3.585633850097656250e+01,-1.095185775756835938e+02,9.026736450195312500e+01,-6.551139831542968750e+01,5.166199874877929688e+01,-1.201992511749267578e+01,-1.102462844848632812e+02,-1.121577758789062500e+02,6.375599288940429688e+01,-3.850356674194335938e+01
1.599999964237213135e-01,2.000000000000000000e+00,5.625124454498291016e+00,1.077111721038818359e+01,3.584973526000976562e+01,-1.095646057128906250e+02,9.026889038085937500e+01,-6.553174591064453125e+01,5.160681152343750000e+01,-1.201441192626953125e+01,-1.102553405761718750e+02,-1.122126998901367188e+02,6.375260925292968750e+01,-3.852731323242187500e+01
1.640000045299530029e-01,2.000000000000000000e+00,5.646334648132324219e+00,1.073557376861572266e+01,3.584278869628906250e+01,-1.096129760742187500e+02,9.027047729492187500e+01,-6.555312347412109375e+01,5.154810333251953125e+01,-1.200881099700927734e+01,-1.102645034790039062e+02,-1.122700119018554688e+02,6.374906539916992188e+01,-3.855208587646484375e+01
1.679999977350234985e-01,2.000000000000000000e+00,5.668204784393310547e+00,1.069855308532714844e+01,3.583556747436523438e+01,-1.096632614135742188e+02,9.027214050292968750e+01,-6.557534790039062500e+01,5.148598861694335938e+01,-1.200328254699707031e+01,-1.102734756469726562e+02,-1.123289489746093750e+02,6.374539184570312500e+01,-3.857753753662109375e+01
1.720000058412551880e-01,2.000000000000000000e+00,5.690883636474609375e+00,1.065994834899902344e+01,3.582814407348632812e+01,-1.097150344848632812e+02,9.027386474609375000e+01,-6.559822845458984375e+01,5.142096710205078125e+01,-1.199790573120117188e+01,-1.102820968627929688e+02,-1.123888778686523438e+02,6.374162673950195312e+01,-3.860340499877929688e+01
1.759999990463256836e-01,2.000000000000000000e+00,5.714594364166259766e+00,1.061963844299316406e+01,3.582058334350585938e+01,-1.097679061889648438e+02,9.027565765380859375e+01,-6.562158203125000000e+01,5.135361480712890625e+01,-1.199271106719970703e+01,-1.102903289794921875e+02,-1.124493484497070312e+02,6.373780822753906250e+01,-3.862948989868164062e+01
1.800000071525573730e-01,2.000000000000000000e+00,5.739434719085693359e+00,1.057766342163085938e+01,3.581293869018554688e+01,-1.098215179443359375e+02,9.027751922607421875e+01,-6.564524078369140625e+01,5.128456115722656250e+01,-1.198768043518066406e+01,-1.102982254028320312e+02,-1.125100555419921875e+02,6.373395919799804688e+01,-3.865566635131835938e+01
1.840000003576278687e-01,2.000000000000000000e+00,5.765387058258056641e+00,1.053419589996337891e+01,3.580525970458984375e+01,-1.098755874633789062e+02,9.027944183349609375e+01,-6.566909027099609375e+01,5.121448516845703125e+01,-1.198276233673095703e+01,-1.103058853149414062e+02,-1.125708465576171875e+02,6.373008346557617188e+01,-3.868187713623046875e+01
1.879999935626983643e-01,2.000000000000000000e+00,5.792397022247314453e+00,1.048946380615234375e+01,3.579756546020507812e+01,-1.099299163818359375e+02,9.028141021728515625e+01,-6.569303894042968750e+01,5.114397811889648438e+01,-1.197789573669433594e+01,-1.103134307861328125e+02,-1.126316680908203125e+02,6.372620391845703125e+01,-3.870808792114257812e+01
1.920000016689300537e-01,2.000000000000000000e+00,5.820307731628417969e+00,1.044378089904785156e+01,3.578987503051757812e+01,-1.099843597412109375e+02,9.028341674804687500e+01,-6.571702575683593750e+01,5.107337951660156250e+01,-1.197304153442382812e+01,-1.103209609985351562e+02,-1.126924743652343750e+02,6.372232055664062500e+01,-3.873429870605468750e+01
1.959999948740005493e-01,2.000000000000000000e+00,5.848813533782958984e+00,1.039753627777099609e+01,3.578218841552734375e+01,-1.100388412475585938e+02,9.028544616699218750e+01,-6.574102020263671875e+01,5.100277709960937500e+01,-1.196818923950195312e+01,-1.103284759521484375e+02,-1.127532806396484375e+02,6.371844100952148438e+01,-3.876050567626953125e+01
2.000000029802322388e-01,2.000000000000000000e+00,5.877578258514404297e+00,1.035107040405273438e+01,3.577451324462890625e+01,-1.100933380126953125e+02,9.028747558593750000e+01,-6.576502227783203125e+01,5.093218612670898438e+01,-1.196333694458007812e+01,-1.103359985351562500e+02,-1.128140792846679688e+02,6.371456146240234375e+01,-3.878670883178710938e+01
2.039999961853027344e-01,2.000000000000000000e+00,5.906397819519042969e+00,1.030456352233886719e+01,3.576683425903320312e+01,-1.101478347778320312e+02,9.028951263427734375e+01,-6.578901672363281250e+01,5.086160278320312500e+01,-1.195848464965820312e+01,-1.103435211181640625e+02,-1.128748703002929688e+02,6.371068191528320312e+01,-3.881290817260742188e+01
2.080000042915344238e-01,2.000000000000000000e+00,5.935218334197998047e+00,1.025805759429931641e+01,3.575915527343750000e+01,-1.102023239135742188e+02,9.029154968261718750e+01,-6.581301116943359375e+01,5.079102706909179688e+01,-1.195363426208496094e+01,-1.103510284423828125e+02,-1.129356536865234375e+02,6.370680236816406250e+01,-3.883910751342773438e+01
2.119999974966049194e-01,2.000000000000000000e+00,5.964035511016845703e+00,1.021155834197998047e+01,3.575147628784179688e+01,-1.102567977905273438e+02,9.029358673095703125e+01,-6.583700561523437500e+01,5.072046279907226562e+01,-1.194878387451171875e+01,-1.103585510253906250e+02,-1.129964294433593750e+02,6.370292663574218750e+01,-3.886529922485351562e+01
2.160000056028366089e-01,2.000000000000000000e+00,5.992848873138427734e+00,1.016506290435791016e+01,3.574380493164062500e+01,-1.103112716674804688e+02,9.029562377929687500e+01,-6.586099243164062500e+01,5.064990234375000000e+01,-1.194393444061279297e+01,-1.103660659790039062e+02,-1.130571975708007812e+02,6.369904708862304688e+01,-3.889149475097656250e+01
2.199999988079071045e-01,2.000000000000000000e+00,6.021659851074218750e+00,1.011857414245605469e+01,3.573612976074218750e+01,-1.103657455444335938e+02,9.029766082763671875e+01,-6.588497924804687500e+01,5.057934951782226562e+01,-1.193908500671386719e+01,-1.103735809326171875e+02,-1.131179656982421875e+02,6.369516754150390625e+01,-3.891767883300781250e+01
2.240000069141387939e-01,2.000000000000000000e+00,6.050467014312744141e+00,1.007209110260009766e+01,3.572845840454101562e+01,-1.104202041625976562e+02,9.029969787597656250e+01,-6.590896606445312500e+01,5.050880813598632812e+01,-1.193423557281494141e+01,-1.103810958862304688e+02,-1.131787185668945312e+02,6.369128799438476562e+01,-3.894386672973632812e+01
2.280000001192092896e-01,2.000000000000000000e+00,6.079271316528320312e+00,1.002561092376708984e+01,3.572078323364257812e+01,-1.104746551513671875e+02,9.030173492431640625e+01,-6.593294525146484375e+01,5.043827438354492188e+01,-1.192938804626464844e+01,-1.103886108398437500e+02,-1.132394714355468750e+02,6.368741607666015625e+01,-3.897005081176757812e+01
2.319999933242797852e-01,2.000000000000000000e+00,6.108072757720947266e+00,9.979137420654296875e+00,3.571310806274414062e+01,-1.105291061401367188e+02,9.030377197265625000e+01,-6.595692443847656250e+01,5.036774826049804688e+01,-1.192454051971435547e+01,-1.103961257934570312e+02,-1.133002090454101562e+02,6.368353652954101562e+01,-3.899623107910156250e+01
2.360000014305114746e-01,2.000000000000000000e+00,6.136870384216308594e+00,9.932669639587402344e+00,3.570544052124023438e+01,-1.105835494995117188e+02,9.030580139160156250e+01,-6.598089599609375000e+01,5.029722976684570312e+01,-1.191969394683837891e+01,-1.104036331176757812e+02,-1.133609542846679688e+02,6.367966461181640625e+01,-3.902240753173828125e+01
2.399999946355819702e-01,2.000000000000000000e+00,6.165664672851562500e+00,9.886206626892089844e+00,3.569776916503906250e+01,-1.106379852294921875e+02,9.030783843994140625e+01,-6.600487518310546875e+01,5.022671890258789062e+01,-1.191484737396240234e+01,-1.104111480712890625e+02,-1.134216766357421875e+02,6.367578506469726562e+01,-3.904858016967773438e+01
2.440000027418136597e-01,2.000000000000000000e+00,6.194456577301025391e+00,9.839747428894042969e+00,3.569009780883789062e+01,-1.106924133300781250e+02,9.030987548828125000e+01,-6.602883911132812500e+01,5.015621566772460938e+01,-1.191000175476074219e+01,-1.104186553955078125e+02,-1.134823989868164062e+02,6.367191314697265625e+01,-3.907475280761718750e+01
2.479999959468841553e-01,2.000000000000000000e+00,6.223244667053222656e+00,9.793293952941894531e+00,3.568243026733398438e+01,-1.107468490600585938e+02,9.031190490722656250e+01,-6.605280303955078125e+01,5.008572006225585938e+01,-1.190515613555908203e+01,-1.104261703491210938e+02,-1.135431137084960938e+02,6.366804122924804688e+01,-3.910092163085937500e+01
2.520000040531158447e-01,2.000000000000000000e+00,6.252029895782470703e+00,9.746846199035644531e+00,3.567476272583007812e+01,-1.108012619018554688e+02,9.031394195556640625e+01,-6.607677459716796875e+01,5.001522827148437500e+01,-1.190031147003173828e+01,-1.104336776733398438e+02,-1.136038284301757812e+02,6.366416549682617188e+01,-3.912708663940429688e+01
2.560000121593475342e-01,2.000000000000000000e+00,6.280811786651611328e+00,9.700404167175292969e+00,3.566709518432617188e+01,-1.108556823730468750e+02,9.031597137451171875e+01,-6.610073089599609375e+01,4.994474792480468750e+01,-1.189546680450439453e+01,-1.104411849975585938e+02,-1.136645278930664062e+02,6.366029357910156250e+01,-3.915325164794921875e+01
2.599999904632568359e-01,2.000000000000000000e+00,6.309590339660644531e+00,9.653964996337890625e+00,3.565943145751953125e+01,-1.109100799560546875e+02,9.031800842285156250e+01,-6.612469482421875000e+01,4.987427902221679688e+01,-1.189062309265136719e+01,-1.104486923217773438e+02,-1.137252273559570312e+02,6.365641403198242188e+01,-3.917940902709960938e+01
2.639999985694885254e-01,2.000000000000000000e+00,6.338366031646728516e+00,9.607532501220703125e+00,3.565176391601562500e+01,-1.109644851684570312e+02,9.032004547119140625e+01,-6.614865112304687500e+01,4.980381011962890625e+01,-1.188577938079833984e+01,-1.104561920166015625e+02,-1.137859115600585938e+02,6.365254211425781250e+01,-3.920556640625000000e+01
2.680000066757202148e-01,2.000000000000000000e+00,6.367138862609863281e+00,9.561105728149414062e+00,3.564410018920898438e+01,-1.110188827514648438e+02,9.032207489013671875e+01,-6.617259979248046875e+01,4.973335266113281250e+01,-1.188093662261962891e+01,-1.104636993408203125e+02,-1.138465957641601562e+02,6.364867019653320312e+01,-3.923171997070312500e+01
2.720000147819519043e-01,2.000000000000000000e+00,6.395908355712890625e+00,9.514683723449707031e+00,3.563643264770507812e+01,-1.110732650756835938e+02,9.032411193847656250e+01,-6.619655609130859375e+01,4.966290283203125000e+01,-1.187609481811523438e+01,-1.104712066650390625e+02,-1.139072723388671875e+02,6.364480209350585938e+01,-3.925787353515625000e+01
2.759999930858612061e-01,2.000000000000000000e+00,6.424674510955810547e+00,9.468267440795898438e+00,3.562876892089843750e+01,-1.111276550292968750e+02,9.032614135742187500e+01,-6.622050476074218750e+01,4.959246063232421875e+01,-1.187125205993652344e+01,-1.104787063598632812e+02,-1.139679412841796875e+02,6.364093017578125000e+01,-3.928401947021484375e+01
2.800000011920928955e-01,2.000000000000000000e+00,6.453437805175781250e+00,9.421855926513671875e+00,3.562110900878906250e+01,-1.111820297241210938e+02,9.032817077636718750e+01,-6.624444580078125000e+01,4.952202606201171875e+01,-1.186641120910644531e+01,-1.104862136840820312e+02,-1.140286102294921875e+02,6.363705825805664062e+01,-3.931016540527343750e+01
2.840000092983245850e-01,2.000000000000000000e+00,6.482197761535644531e+00,9.375449180603027344e+00,3.561344528198242188e+01,-1.112364044189453125e+02,9.033020782470703125e+01,-6.626839447021484375e+01,4.945159912109375000e+01,-1.186157035827636719e+01,-1.104937133789062500e+02,-1.140892639160156250e+02,6.363318634033203125e+01,-3.933631134033203125e+01
2.879999876022338867e-01,2.000000000000000000e+00,6.510955333709716797e+00,9.329047203063964844e+00,3.560578536987304688e+01,-1.112907791137695312e+02,9.033224487304687500e+01,-6.629233551025390625e+01,4.938117599487304688e+01,-1.185673046112060547e+01,-1.105012207031250000e+02,-1.141499099731445312e+02,6.362931823730468750e+01,-3.936244964599609375e+01
2.919999957084655762e-01,2.000000000000000000e+00,6.539709568023681641e+00,9.282649993896484375e+00,3.559812545776367188e+01,-1.113451385498046875e+02,9.033427429199218750e+01,-6.631627655029296875e+01,4.931076431274414062e+01,-1.185189056396484375e+01,-1.105087203979492188e+02,-1.142105560302734375e+02,6.362544631958007812e+01,-3.938858795166015625e+01
2.960000038146972656e-01,2.000000000000000000e+00,6.568460464477539062e+00,9.236256599426269531e+00,3.559046554565429688e+01,-1.113994903564453125e+02,9.033631134033203125e+01,-6.634021759033203125e+01,4.924035644531250000e+01,-1.184705162048339844e+01,-1.105162200927734375e+02,-1.142711944580078125e+02,6.362157440185546875e+01,-3.941472244262695312e+01
3.000000119209289551e-01,2.000000000000000000e+00,6.597208976745605469e+00,9.189867973327636719e+00,3.558280944824218750e+01,-1.114538421630859375e+02,9.033834075927734375e+01,-6.636415100097656250e+01,4.916996002197265625e+01,-1.184221172332763672e+01,-1.105237197875976562e+02,-1.143318252563476562e+02,6.361770629882812500e+01,-3.944085693359375000e+01
3.039999902248382568e-01,2.000000000000000000e+00,6.625954151153564453e+00,9.143484115600585938e+00,3.557514953613281250e+01,-1.115081863403320312e+02,9.034037017822265625e+01,-6.638807678222656250e+01,4.909956741333007812e+01,-1.183737468719482422e+01,-1.105312194824218750e+02,-1.143924636840820312e+02,6.361383438110351562e+01,-3.946698379516601562e+01
3.079999983310699463e-01,2.000000000000000000e+00,6.654696464538574219e+00,9.097104072570800781e+00,3.556749343872070312e+01,-1.115625228881835938e+02,9.034239959716796875e+01,-6.641201019287109375e+01,4.902918243408203125e+01,-1.183253574371337891e+01,-1.105387191772460938e+02,-1.144530792236328125e+02,6.360997009277343750e+01,-3.949311065673828125e+01
3.120000064373016357e-01,2.000000000000000000e+00,6.683435916900634766e+00,9.050728797912597656e+00,3.555984115600585938e+01,-1.116168594360351562e+02,9.034442901611328125e+01,-6.643593597412109375e+01,4.895880508422851562e+01,-1.182769870758056641e+01,-1.105462112426757812e+02,-1.145136871337890625e+02,6.360610198974609375e+01,-3.951923751831054688e+01
3.160000145435333252e-01,2.000000000000000000e+00,6.712172031402587891e+00,9.004360198974609375e+00,3.555218505859375000e+01,-1.116711807250976562e+02,9.034646606445312500e+01,-6.645986175537109375e+01,4.888843536376953125e+01,-1.182286167144775391e+01,-1.105537109375000000e+02,-1.145743026733398438e+02,6.360223770141601562e+01,-3.954535675048828125e+01
3.199999928474426270e-01,2.000000000000000000e+00,6.740905761718750000e+00,8.957993507385253906e+00,3.554452896118164062e+01,-1.117255096435546875e+02,9.034849548339843750e+01,-6.648378753662109375e+01,4.881807327270507812e+01,-1.181802654266357422e+01,-1.105612030029296875e+02,-1.146349029541015625e+02,6.359836578369140625e+01,-3.957147598266601562e+01
3.240000009536743164e-01,2.000000000000000000e+00,6.769636154174804688e+00,8.911633491516113281e+00,3.553687667846679688e+01,-1.117798233032226562e+02,9.035052490234375000e+01,-6.650770568847656250e+01,4.874771881103515625e+01,-1.181319046020507812e+01,-1.105686950683593750e+02,-1.146954879760742188e+02,6.359449768066406250e+01,-3.959759140014648438e+01
3.280000090599060059e-01,2.000000000000000000e+00,6.798364162445068359e+00,8.865278244018554688e+00,3.552922439575195312e+01,-1.118341369628906250e+02,9.035255432128906250e+01,-6.653161621093750000e+01,4.867737197875976562e+01,-1.180835437774658203e+01,-1.105761871337890625e+02,-1.147560882568359375e+02,6.359063339233398438e+01,-3.962370681762695312e+01
3.319999873638153076e-01,2.000000000000000000e+00,6.827088832855224609e+00,8.818926811218261719e+00,3.552157211303710938e+01,-1.118884429931640625e+02,9.035458374023437500e+01,-6.655553436279296875e+01,4.860702896118164062e+01,-1.180352020263671875e+01,-1.105836868286132812e+02,-1.148166732788085938e+02,6.358676528930664062e+01,-3.964981460571289062e+01
3.359999954700469971e-01,2.000000000000000000e+00,6.855810642242431641e+00,8.772581100463867188e+00,3.551391983032226562e+01,-1.119427413940429688e+02,9.035661315917968750e+01,-6.657944488525390625e+01,4.853669357299804688e+01,-1.179868602752685547e+01,-1.105911712646484375e+02,-1.148772430419921875e+02,6.358290100097656250e+01,-3.967592239379882812e+01
3.400000035762786865e-01,2.000000000000000000e+00,6.884529590606689453e+00,8.726238250732421875e+00,3.550627136230468750e+01,-1.119970397949218750e+02,9.035864257812500000e+01,-6.660335540771484375e+01,4.846636581420898438e+01,-1.179385185241699219e+01,-1.105986633300781250e+02,-1.149378128051757812e+02,6.357903671264648438e+01,-3.970203399658203125e+01
3.440000116825103760e-01,2.000000000000000000e+00,6.913245677947998047e+00,8.679902076721191406e+00,3.549862289428710938e+01,-1.120513229370117188e+02,9.036067199707031250e+01,-6.662725830078125000e+01,4.839604949951171875e+01,-1.178901863098144531e+01,-1.106061553955078125e+02,-1.149983825683593750e+02,6.357516860961914062e+01,-3.972813415527343750e+01
3.479999899864196777e-01,2.000000000000000000e+00,6.941958904266357422e+00,8.633568763732910156e+00,3.549097061157226562e+01,-1.121056137084960938e+02,9.036270141601562500e+01,-6.665116882324218750e+01,4.832573699951171875e+01,-1.178418540954589844e+01,-1.106136550903320312e+02,-1.150589370727539062e+02,6.357130432128906250e+01,-3.975423431396484375e+01
3.519999980926513672e-01,2.000000000000000000e+00,6.970669269561767578e+00,8.587242126464843750e+00,3.548332595825195312e+01,-1.121598892211914062e+02,9.036473846435546875e+01,-6.667507171630859375e+01,4.825543212890625000e+01,-1.177935314178466797e+01,-1.106211395263671875e+02,-1.151194915771484375e+02,6.356743621826171875e+01,-3.978033447265625000e+01
3.560000061988830566e-01,2.000000000000000000e+00,6.999376296997070312e+00,8.540918350219726562e+00,3.547567749023437500e+01,-1.122141647338867188e+02,9.036676788330078125e+01,-6.669896697998046875e+01,4.818513107299804688e+01,-1.177452182769775391e+01,-1.106286315917968750e+02,-1.151800384521484375e+02,6.356357955932617188e+01,-3.980642700195312500e+01
3.600000143051147461e-01,2.000000000000000000e+00,7.028080940246582031e+00,8.494599342346191406e+00,3.546803283691406250e+01,-1.122684249877929688e+02,9.036878967285156250e+01,-6.672286987304687500e+01,4.811484146118164062e+01,-1.176968955993652344e+01,-1.106361160278320312e+02,-1.152405776977539062e+02,6.355971145629882812e+01,-3.983251953125000000e+01
3.639999926090240479e-01,2.000000000000000000e+00,7.056782722473144531e+00,8.448286056518554688e+00,3.546038436889648438e+01,-1.123226852416992188e+02,9.037081909179687500e+01,-6.674675750732421875e+01,4.804455566406250000e+01,-1.176485919952392578e+01,-1.106436004638671875e+02,-1.153011093139648438e+02,6.355584716796875000e+01,-3.985861206054687500e+01
3.680000007152557373e-01,2.000000000000000000e+00,7.085482120513916016e+00,8.401976585388183594e+00,3.545273971557617188e+01,-1.123769454956054688e+02,9.037284851074218750e+01,-6.677066040039062500e+01,4.797427749633789062e+01,-1.176002883911132812e+01,-1.106510848999023438e+02,-1.153616333007812500e+02,6.355198669433593750e+01,-3.988470077514648438e+01
3.720000088214874268e-01,2.000000000000000000e+00,7.114177703857421875e+00,8.355670928955078125e+00,3.544509506225585938e+01,-1.124311981201171875e+02,9.037487792968750000e+01,-6.679454803466796875e+01,4.790400695800781250e+01,-1.175519847869873047e+01,-1.106585769653320312e+02,-1.154221496582031250e+02,6.354812240600585938e+01,-3.991078186035156250e+01
3.759999871253967285e-01,2.000000000000000000e+00,7.142871379852294922e+00,8.309370994567871094e+00,3.543745422363281250e+01,-1.124854431152343750e+02,9.037689971923828125e+01,-6.681843566894531250e+01,4.783374023437500000e+01,-1.175036907196044922e+01,-1.106660614013671875e+02,-1.154826812744140625e+02,6.354426193237304688e+01,-3.993686294555664062e+01
3.799999952316284180e-01,2.000000000000000000e+00,7.171562194824218750e+00,8.263074874877929688e+00,3.542980957031250000e+01,-1.125396804809570312e+02,9.037892913818359375e+01,-6.684232330322265625e+01,4.776348495483398438e+01,-1.174553966522216797e+01,-1.106735458374023438e+02,-1.155431823730468750e+02,6.354039764404296875e+01,-3.996294403076171875e+01
3.840000033378601074e-01,2.000000000000000000e+00,7.200249671936035156e+00,8.216783523559570312e+00,3.542216873168945312e+01,-1.125939178466796875e+02,9.038095855712890625e+01,-6.686621093750000000e+01,4.769323348999023438e+01,-1.174071121215820312e+01,-1.106810226440429688e+02,-1.156036834716796875e+02,6.353653717041015625e+01,-3.998902130126953125e+01
3.880000114440917969e-01,2.000000000000000000e+00,7.228934764862060547e+00,8.170496940612792969e+00,3.541452789306640625e+01,-1.126481552124023438e+02,9.038298797607421875e+01,-6.689008331298828125e+01,4.762299346923828125e+01,-1.173588275909423828e+01,-1.106885070800781250e+02,-1.156641845703125000e+02,6.353268051147460938e+01,-4.001509857177734375e+01
3.919999897480010986e-01,2.000000000000000000e+00,7.257616519927978516e+00,8.124215126037597656e+00,3.540688705444335938e+01,-1.127023773193359375e+02,9.038501739501953125e+01,-6.691396331787109375e+01,4.755275344848632812e+01,-1.173105621337890625e+01,-1.106959915161132812e+02,-1.157246780395507812e+02,6.352882003784179688e+01,-4.004116821289062500e+01
3.959999978542327881e-01,2.000000000000000000e+00,7.286295413970947266e+00,8.077937126159667969e+00,3.539924621582031250e+01,-1.127565994262695312e+02,9.038704681396484375e+01,-6.693784332275390625e+01,4.748252487182617188e+01,-1.172622871398925781e+01,-1.107034759521484375e+02,-1.157851638793945312e+02,6.352495956420898438e+01,-4.006723785400390625e+01
4.000000059604644775e-01,2.000000000000000000e+00,7.314972400665283203e+00,8.031662940979003906e+00,3.539160919189453125e+01,-1.128108139038085938e+02,9.038906860351562500e+01,-6.696172332763671875e+01,4.741230010986328125e+01,-1.172140121459960938e+01,-1.107109527587890625e+02,-1.158456497192382812e+02,6.352110290527343750e+01,-4.009330749511718750e+01
4.040000140666961670e-01,2.000000000000000000e+00,7.343646049499511719e+00,7.985394477844238281e+00,3.538396835327148438e+01,-1.128650207519531250e+02,9.039109039306640625e+01,-6.698559570312500000e+01,4.734208297729492188e+01,-1.171657562255859375e+01,-1.107184295654296875e+02,-1.159061279296875000e+02,6.351723480224609375e+01,-4.011936950683593750e+01
4.079999923706054688e-01,2.000000000000000000e+00,7.372317790985107422e+00,7.939129352569580078e+00,3.537633514404296875e+01,-1.129192199707031250e+02,9.039311981201171875e+01,-6.700946044921875000e+01,4.727187728881835938e+01,-1.171174907684326172e+01,-1.107259140014648438e+02,-1.159665985107421875e+02,6.351338195800781250e+01,-4.014543533325195312e+01
4.120000004768371582e-01,2.000000000000000000e+00,7.400985717773437500e+00,7.892869472503662109e+00,3.536869430541992188e+01,-1.129734268188476562e+02,9.039514160156250000e+01,-6.703332519531250000e+01,4.720167160034179688e+01,-1.170692443847656250e+01,-1.107333908081054688e+02,-1.160270614624023438e+02,6.350952529907226562e+01,-4.017149353027343750e+01
4.160000085830688477e-01,2.000000000000000000e+00,7.429651737213134766e+00,7.846613407135009766e+00,3.536105728149414062e+01,-1.130276184082031250e+02,9.039717102050781250e+01,-6.705718994140625000e+01,4.713147354125976562e+01,-1.170209884643554688e+01,-1.107408676147460938e+02,-1.160875244140625000e+02,6.350566482543945312e+01,-4.019754791259765625e+01
4.199999868869781494e-01,2.000000000000000000e+00,7.458314895629882812e+00,7.800362110137939453e+00,3.535342407226562500e+01,-1.130818099975585938e+02,9.039920043945312500e+01,-6.708105468750000000e+01,4.706128311157226562e+01,-1.169727516174316406e+01,-1.107483444213867188e+02,-1.161479721069335938e+02,6.350180435180664062e+01,-4.022360610961914062e+01
4.239999949932098389e-01,2.000000000000000000e+00,7.486975193023681641e+00,7.754115104675292969e+00,3.534578704833984375e+01,-1.131359939575195312e+02,9.040122222900390625e+01,-6.710491180419921875e+01,4.699110412597656250e+01,-1.169245052337646484e+01,-1.107558212280273438e+02,-1.162084197998046875e+02,6.349794769287109375e+01,-4.024965667724609375e+01
4.280000030994415283e-01,2.000000000000000000e+00,7.515632152557373047e+00,7.707872867584228516e+00,3.533815765380859375e+01,-1.131901702880859375e+02,9.040325164794921875e+01,-6.712877655029296875e+01,4.692092895507812500e+01,-1.168762779235839844e+01,-1.107632904052734375e+02,-1.162688522338867188e+02,6.349409484863281250e+01,-4.027570724487304688e+01
4.320000112056732178e-01,2.000000000000000000e+00,7.544287204742431641e+00,7.661633968353271484e+00,3.533052444458007812e+01,-1.132443466186523438e+02,9.040527343750000000e+01,-6.715263366699218750e+01,4.685075759887695312e+01,-1.168280506134033203e+01,-1.107707748413085938e+02,-1.163292999267578125e+02,6.349023437500000000e+01,-4.030175399780273438e+01
4.359999895095825195e-01,2.000000000000000000e+00,7.572938919067382812e+00,7.615400791168212891e+00,3.532289123535156250e+01,-1.132985076904296875e+02,9.040730285644531250e+01,-6.717649078369140625e+01,4.678059387207031250e+01,-1.167798137664794922e+01,-1.107782440185546875e+02,-1.163897171020507812e+02,6.348637771606445312e+01,-4.032780075073242188e+01
4.399999976158142090e-01,2.000000000000000000e+00,7.601589202880859375e+00,7.569170475006103516e+00,3.531525802612304688e+01,-1.133526763916015625e+02,9.040932464599609375e+01,-6.720034027099609375e+01,4.671043395996093750e+01,-1.167315959930419922e+01,-1.107857208251953125e+02,-1.164501495361328125e+02,6.348252487182617188e+01,-4.035383987426757812e+01
4.440000057220458984e-01,2.000000000000000000e+00,7.630235671997070312e+00,7.522945404052734375e+00,3.530762863159179688e+01,-1.134068374633789062e+02,9.041134643554687500e+01,-6.722418975830078125e+01,4.664028549194335938e+01,-1.166833782196044922e+01,-1.107931900024414062e+02,-1.165105667114257812e+02,6.347866439819335938e+01,-4.037987899780273438e+01
4.480000138282775879e-01,2.000000000000000000e+00,7.658879756927490234e+00,7.476723670959472656e+00,3.529999542236328125e+01,-1.134609832763671875e+02,9.041337585449218750e+01,-6.724803161621093750e+01,4.657014465332031250e+01,-1.166351604461669922e+01,-1.108006591796875000e+02,-1.165709762573242188e+02,6.347481155395507812e+01,-4.040592193603515625e+01
4.519999921321868896e-01,2.000000000000000000e+00,7.687521457672119141e+00,7.430507183074951172e+00,3.529236602783203125e+01,-1.135151367187500000e+02,9.041539764404296875e+01,-6.727188110351562500e+01,4.650000381469726562e+01,-1.165869617462158203e+01,-1.108081359863281250e+02,-1.166313858032226562e+02,6.347095489501953125e+01,-4.043195343017578125e+01
4.560000002384185791e-01,2.000000000000000000e+00,7.716160297393798828e+00,7.384294509887695312e+00,3.528473663330078125e+01,-1.135692825317382812e+02,9.041742706298828125e+01,-6.729572296142578125e+01,4.642987442016601562e+01,-1.165387535095214844e+01,-1.108156051635742188e+02,-1.166917877197265625e+02,6.346710205078125000e+01,-4.045798873901367188e+01
4.600000083446502686e-01,2.000000000000000000e+00,7.744796752929687500e+00,7.338086605072021484e+00,3.527711105346679688e+01,-1.136234130859375000e+02,9.041944885253906250e+01,-6.731956481933593750e+01,4.635974884033203125e+01,-1.164905643463134766e+01,-1.108230819702148438e+02,-1.167521820068359375e+02,6.346324920654296875e+01,-4.048401641845703125e+01
4.639999866485595703e-01,2.000000000000000000e+00,7.773429870605468750e+00,7.291882038116455078e+00,3.526948165893554688e+01,-1.136775512695312500e+02,9.042147064208984375e+01,-6.734340667724609375e+01,4.628963088989257812e+01,-1.164423656463623047e+01,-1.108305435180664062e+02,-1.168125762939453125e+02,6.345939636230468750e+01,-4.051004791259765625e+01
4.679999947547912598e-01,2.000000000000000000e+00,7.802061080932617188e+00,7.245681762695312500e+00,3.526185607910156250e+01,-1.137316818237304688e+02,9.042349243164062500e+01,-6.736724090576171875e+01,4.621951675415039062e+01,-1.163941669464111328e+01,-1.108380126953125000e+02,-1.168729553222656250e+02,6.345553970336914062e+01,-4.053607177734375000e+01
4.720000028610229492e-01,2.000000000000000000e+00,7.830689907073974609e+00,7.199486255645751953e+00,3.525423049926757812e+01,-1.137858047485351562e+02,9.042551422119140625e+01,-6.739108276367187500e+01,4.614941406250000000e+01,-1.163459777832031250e+01,-1.108454818725585938e+02,-1.169333343505859375e+02,6.345168685913085938e+01,-4.056209564208984375e+01
4.760000109672546387e-01,2.000000000000000000e+00,7.859315395355224609e+00,7.153294563293457031e+00,3.524660491943359375e+01,-1.138399276733398438e+02,9.042753601074218750e+01,-6.741490936279296875e+01,4.607931518554687500e+01,-1.162978076934814453e+01,-1.108529434204101562e+02,-1.169937133789062500e+02,6.344783401489257812e+01,-4.058811569213867188e+01
4.799999892711639404e-01,2.000000000000000000e+00,7.887938976287841797e+00,7.107107162475585938e+00,3.523897933959960938e+01,-1.138940353393554688e+02,9.042955780029296875e+01,-6.743874359130859375e+01,4.600922393798828125e+01,-1.162496280670166016e+01,-1.108604202270507812e+02,-1.170540771484375000e+02,6.344398117065429688e+01,-4.061413574218750000e+01
4.839999973773956299e-01,2.000000000000000000e+00,7.916559696197509766e+00,7.060924053192138672e+00,3.523135757446289062e+01,-1.139481430053710938e+02,9.043157958984375000e+01,-6.746256256103515625e+01,4.593913650512695312e+01,-1.162014579772949219e+01,-1.108678817749023438e+02,-1.171144409179687500e+02,6.344012832641601562e+01,-4.064015197753906250e+01
4.880000054836273193e-01,2.000000000000000000e+00,7.945177555084228516e+00,7.014744758605957031e+00,3.522372817993164062e+01,-1.140022506713867188e+02,9.043360137939453125e+01,-6.748639678955078125e+01,4.586905288696289062e+01,-1.161532878875732422e+01,-1.108753509521484375e+02,-1.171748046875000000e+02,6.343627929687500000e+01,-4.066616439819335938e+01
4.920000135898590088e-01,2.000000000000000000e+00,7.973793506622314453e+00,6.968569755554199219e+00,3.521610641479492188e+01,-1.140563430786132812e+02,9.043563079833984375e+01,-6.751021575927734375e+01,4.579898071289062500e+01,-1.161051177978515625e+01,-1.108828125000000000e+02,-1.172351608276367188e+02,6.343242645263671875e+01,-4.069217681884765625e+01
4.959999918937683105e-01,2.000000000000000000e+00,8.002407073974609375e+00,6.922399044036865234e+00,3.520848464965820312e+01,-1.141104431152343750e+02,9.043765258789062500e+01,-6.753403472900390625e+01,4.572891235351562500e+01,-1.160569572448730469e+01,-1.108902740478515625e+02,-1.172954940795898438e+02,6.342858123779296875e+01,-4.071818542480468750e+01
5.000000000000000000e-01,2.000000000000000000e+00,8.031016349792480469e+00,6.876232147216796875e+00,3.520086669921875000e+01,-1.141645278930664062e+02,9.043967437744140625e+01,-6.755786132812500000e+01,4.565885162353515625e+01,-1.160087966918945312e+01,-1.108977355957031250e+02,-1.173558502197265625e+02,6.342472839355468750e+01,-4.074419784545898438e+01
5.040000081062316895e-01,2.000000000000000000e+00,8.059624671936035156e+00,6.830069065093994141e+00,3.519324493408203125e+01,-1.142186203002929688e+02,9.044169616699218750e+01,-6.758167266845703125e+01,4.558879852294921875e+01,-1.159606456756591797e+01,-1.109052047729492188e+02,-1.174161834716796875e+02,6.342087554931640625e+01,-4.077019882202148438e+01
5.080000162124633789e-01,2.000000000000000000e+00,8.088231086730957031e+00,6.783910274505615234e+00,3.518562316894531250e+01,-1.142726974487304688e+02,9.044371795654296875e+01,-6.760549163818359375e+01,4.551874923706054688e+01,-1.159125041961669922e+01,-1.109126663208007812e+02,-1.174765090942382812e+02,6.341702270507812500e+01,-4.079619979858398438e+01
5.120000243186950684e-01,2.000000000000000000e+00,8.116833686828613281e+00,6.737755298614501953e+00,3.517800521850585938e+01,-1.143267745971679688e+02,9.044573974609375000e+01,-6.762930297851562500e+01,4.544870376586914062e+01,-1.158643627166748047e+01,-1.109201278686523438e+02,-1.175368347167968750e+02,6.341317749023437500e+01,-4.082220458984375000e+01
5.159999728202819824e-01,2.000000000000000000e+00,8.145435333251953125e+00,6.691604614257812500e+00,3.517038726806640625e+01,-1.143808441162109375e+02,9.044776153564453125e+01,-6.765311431884765625e+01,4.537866592407226562e+01,-1.158162212371826172e+01,-1.109275894165039062e+02,-1.175971603393554688e+02,6.340932464599609375e+01,-4.084819793701171875e+01
5.199999809265136719e-01,2.000000000000000000e+00,8.174033164978027344e+00,6.645457744598388672e+00,3.516276550292968750e+01,-1.144349136352539062e+02,9.044978332519531250e+01,-6.767692565917968750e+01,4.530863571166992188e+01,-1.157680892944335938e+01,-1.109350433349609375e+02,-1.176574707031250000e+02,6.340547943115234375e+01,-4.087419509887695312e+01
5.239999890327453613e-01,2.000000000000000000e+00,8.202629089355468750e+00,6.599314689636230469e+00,3.515515136718750000e+01,-1.144889678955078125e+02,9.045179748535156250e+01,-6.770073699951171875e+01,4.523860931396484375e+01,-1.157199478149414062e+01,-1.109425048828125000e+02,-1.177177810668945312e+02,6.340162658691406250e+01,-4.090019226074218750e+01
5.279999971389770508e-01,2.000000000000000000e+00,8.231223106384277344e+00,6.553175449371337891e+00,3.514753341674804688e+01,-1.145430297851562500e+02,9.045381927490234375e+01,-6.772453308105468750e+01,4.516859436035156250e+01,-1.156718349456787109e+01,-1.109499664306640625e+02,-1.177780914306640625e+02,6.339778137207031250e+01,-4.092617797851562500e+01
5.320000052452087402e-01,2.000000000000000000e+00,8.259814262390136719e+00,6.507040023803710938e+00,3.513991546630859375e+01,-1.145970764160156250e+02,9.045584106445312500e+01,-6.774833679199218750e+01,4.509857940673828125e+01,-1.156237030029296875e+01,-1.109574203491210938e+02,-1.178383865356445312e+02,6.339392852783203125e+01,-4.095216751098632812e+01
5.360000133514404297e-01,2.000000000000000000e+00,8.288403511047363281e+00,6.460908889770507812e+00,3.513230133056640625e+01,-1.146511306762695312e+02,9.045786285400390625e+01,-6.777214050292968750e+01,4.502857208251953125e+01,-1.155755901336669922e+01,-1.109648818969726562e+02,-1.178986816406250000e+02,6.339008331298828125e+01,-4.097815704345703125e+01
5.400000214576721191e-01,2.000000000000000000e+00,8.316989898681640625e+00,6.414781093597412109e+00,3.512468719482421875e+01,-1.147051773071289062e+02,9.045988464355468750e+01,-6.779593658447265625e+01,4.495856857299804688e+01,-1.155274772644042969e+01,-1.109723358154296875e+02,-1.179589691162109375e+02,6.338623809814453125e+01,-4.100414276123046875e+01
5.440000295639038086e-01,2.000000000000000000e+00,8.345574378967285156e+00,6.368657112121582031e+00,3.511707305908203125e+01,-1.147592163085937500e+02,9.046190643310546875e+01,-6.781973266601562500e+01,4.488857269287109375e+01,-1.154793643951416016e+01,-1.109797897338867188e+02,-1.180192642211914062e+02,6.338239288330078125e+01,-4.103012466430664062e+01
5.479999780654907227e-01,2.000000000000000000e+00,8.374155998229980469e+00,6.322536945343017578e+00,3.510945892333984375e+01,-1.148132553100585938e+02,9.046392059326171875e+01,-6.784352874755859375e+01,4.481858444213867188e+01,-1.154312610626220703e+01,-1.109872512817382812e+02,-1.180795364379882812e+02,6.337854003906250000e+01,-4.105610656738281250e+01
5.519999861717224121e-01,2.000000000000000000e+00,8.402735710144042969e+00,6.276420593261718750e+00,3.510184478759765625e+01,-1.148672790527343750e+02,9.046594238281250000e+01,-6.786732482910156250e+01,4.474860000610351562e+01,-1.153831577301025391e+01,-1.109946975708007812e+02,-1.181398162841796875e+02,6.337469482421875000e+01,-4.108208465576171875e+01
5.559999942779541016e-01,2.000000000000000000e+00,8.431312561035156250e+00,6.230307579040527344e+00,3.509423446655273438e+01,-1.149213104248046875e+02,9.046796417236328125e+01,-6.789112091064453125e+01,4.467861938476562500e+01,-1.153350543975830078e+01,-1.110021591186523438e+02,-1.182000885009765625e+02,6.337084960937500000e+01,-4.110806274414062500e+01
5.600000023841857910e-01,2.000000000000000000e+00,8.459887504577636719e+00,6.184198379516601562e+00,3.508662033081054688e+01,-1.149753189086914062e+02,9.046997833251953125e+01,-6.791490936279296875e+01,4.460864639282226562e+01,-1.152869606018066406e+01,-1.110096130371093750e+02,-1.182603530883789062e+02,6.336700439453125000e+01,-4.113403701782226562e+01
5.640000104904174805e-01,2.000000000000000000e+00,8.488460540771484375e+00,6.138092994689941406e+00,3.507901000976562500e+01,-1.150293502807617188e+02,9.047200012207031250e+01,-6.793869781494140625e+01,4.453867721557617188e+01,-1.152388668060302734e+01,-1.110170593261718750e+02,-1.183206100463867188e+02,6.336315917968750000e+01,-4.116000747680664062e+01
5.680000185966491699e-01,2.000000000000000000e+00,8.517030715942382812e+00,6.091991424560546875e+00,3.507139968872070312e+01,-1.150833587646484375e+02,9.047402191162109375e+01,-6.796247863769531250e+01,4.446871566772460938e+01,-1.151907730102539062e+01,-1.110245208740234375e+02,-1.183808670043945312e+02,6.335931396484375000e+01,-4.118597793579101562e+01
5.720000267028808594e-01,2.000000000000000000e+00,8.545598983764648438e+00,6.045893192291259766e+00,3.506378936767578125e+01,-1.151373748779296875e+02,9.047604370117187500e+01,-6.798626708984375000e+01,4.439875793457031250e+01,-1.151426887512207031e+01,-1.110319747924804688e+02,-1.184411239624023438e+02,6.335546875000000000e+01,-4.121194839477539062e+01
5.759999752044677734e-01,2.000000000000000000e+00,8.574164390563964844e+00,5.999798297882080078e+00,3.505617904663085938e+01,-1.151913757324218750e+02,9.047806549072265625e+01,-6.801005554199218750e+01,4.432880401611328125e+01,-1.150946140289306641e+01,-1.110394210815429688e+02,-1.185013656616210938e+02,6.335162353515625000e+01,-4.123791122436523438e+01
5.799999833106994629e-01,2.000000000000000000e+00,8.602728843688964844e+00,5.953707218170166016e+00,3.504856872558593750e+01,-1.152453765869140625e+02,9.048007965087890625e+01,-6.803382873535156250e+01,4.425885772705078125e+01,-1.150465393066406250e+01,-1.110468750000000000e+02,-1.185616073608398438e+02,6.334777832031250000e+01,-4.126387786865234375e+01
5.839999914169311523e-01,2.000000000000000000e+00,8.631289482116699219e+00,5.907619953155517578e+00,3.504096603393554688e+01,-1.152993698120117188e+02,9.048210144042968750e+01,-6.805760955810546875e+01,4.418891525268554688e+01,-1.149984645843505859e+01,-1.110543212890625000e+02,-1.186218490600585938e+02,6.334394073486328125e+01,-4.128984069824218750e+01
5.879999995231628418e-01,2.000000000000000000e+00,8.659849166870117188e+00,5.861536026000976562e+00,3.503335571289062500e+01,-1.153533554077148438e+02,9.048412322998046875e+01,-6.808139038085937500e+01,4.411898422241210938e+01,-1.149503898620605469e+01,-1.110617752075195312e+02,-1.186820755004882812e+02,6.334009552001953125e+01,-4.131579971313476562e+01
5.920000076293945312e-01,2.000000000000000000e+00,8.688405990600585938e+00,5.815455436706542969e+00,3.502574539184570312e+01,-1.154073562622070312e+02,9.048613739013671875e+01,-6.810516357421875000e+01,4.404905319213867188e+01,-1.149023246765136719e+01,-1.110692214965820312e+02,-1.187423171997070312e+02,6.333625030517578125e+01,-4.134175872802734375e+01
5.960000157356262207e-01,2.000000000000000000e+00,8.716960906982421875e+00,5.769378662109375000e+00,3.501814270019531250e+01,-1.154613418579101562e+02,9.048815155029296875e+01,-6.812892913818359375e+01,4.397912597656250000e+01,-1.148542594909667969e+01,-1.110766677856445312e+02,-1.188025360107421875e+02,6.333240509033203125e+01,-4.136771774291992188e+01
6.000000238418579102e-01,2.000000000000000000e+00,8.745513916015625000e+00,5.723305225372314453e+00,3.501053619384765625e+01,-1.155153198242187500e+02,9.049017333984375000e+01,-6.815270996093750000e+01,4.390920639038085938e+01,-1.148062038421630859e+01,-1.110841217041015625e+02,-1.188627624511718750e+02,6.332856369018554688e+01,-4.139367294311523438e+01
6.039999723434448242e-01,2.000000000000000000e+00,8.774064064025878906e+00,5.677235126495361328e+00,3.500292968750000000e+01,-1.155692901611328125e+02,9.049218750000000000e+01,-6.817647552490234375e+01,4.383929443359375000e+01,-1.147581481933593750e+01,-1.110915679931640625e+02,-1.189229812622070312e+02,6.332471847534179688e+01,-4.141962432861328125e+01
6.079999804496765137e-01,2.000000000000000000e+00,8.802612304687500000e+00,5.631168842315673828e+00,3.499532318115234375e+01,-1.156232604980468750e+02,9.049420928955078125e+01,-6.820024871826171875e+01,4.376938247680664062e+01,-1.147101020812988281e+01,-1.110990219116210938e+02,-1.189831771850585938e+02,6.332088088989257812e+01,-4.144557571411132812e+01
6.119999885559082031e-01,2.000000000000000000e+00,8.831158638000488281e+00,5.585105419158935547e+00,3.498772048950195312e+01,-1.156772308349609375e+02,9.049622344970703125e+01,-6.822400665283203125e+01,4.369947814941406250e+01,-1.146620464324951172e+01,-1.111064605712890625e+02,-1.190433959960937500e+02,6.331703567504882812e+01,-4.147152328491210938e+01
6.159999966621398926e-01,2.000000000000000000e+00,8.859702110290527344e+00,5.539045810699462891e+00,3.498011779785156250e+01,-1.157312011718750000e+02,9.049824523925781250e+01,-6.824777221679687500e+01,4.362958145141601562e+01,-1.146140098571777344e+01,-1.111139068603515625e+02,-1.191035995483398438e+02,6.331319808959960938e+01,-4.149747085571289062e+01
6.200000047683715820e-01,2.000000000000000000e+00,8.888244628906250000e+00,5.492989540100097656e+00,3.497251510620117188e+01,-1.157851638793945312e+02,9.050025939941406250e+01,-6.827153015136718750e+01,4.355968856811523438e+01,-1.145659637451171875e+01,-1.111213531494140625e+02,-1.191637878417968750e+02,6.330935287475585938e+01,-4.152341461181640625e+01
6.240000128746032715e-01,2.000000000000000000e+00,8.916784286499023438e+00,5.446936607360839844e+00,3.496490859985351562e+01,-1.158391189575195312e+02,9.050227355957031250e+01,-6.829529571533203125e+01,4.348979949951171875e+01,-1.145179271697998047e+01,-1.111287994384765625e+02,-1.192239837646484375e+02,6.330551528930664062e+01,-4.154935455322265625e+01
6.280000209808349609e-01,2.000000000000000000e+00,8.945322036743164062e+00,5.400887489318847656e+00,3.495730972290039062e+01,-1.158930664062500000e+02,9.050428771972656250e+01,-6.831905364990234375e+01,4.341991424560546875e+01,-1.144698905944824219e+01,-1.111362457275390625e+02,-1.192841720581054688e+02,6.330167388916015625e+01,-4.157529830932617188e+01
6.320000290870666504e-01,2.000000000000000000e+00,8.973857879638671875e+00,5.354841709136962891e+00,3.494971084594726562e+01,-1.159470138549804688e+02,9.050630950927734375e+01,-6.834281158447265625e+01,4.335003662109375000e+01,-1.144218635559082031e+01,-1.111436843872070312e+02,-1.193443603515625000e+02,6.329782867431640625e+01,-4.160123825073242188e+01
6.359999775886535645e-01,2.000000000000000000e+00,9.002391815185546875e+00,5.308799266815185547e+00,3.494210815429687500e+01,-1.160009536743164062e+02,9.050832366943359375e+01,-6.836656951904296875e+01,4.328016281127929688e+01,-1.143738365173339844e+01,-1.111511306762695312e+02,-1.194045333862304688e+02,6.329399108886718750e+01,-4.162717437744140625e+01
6.399999856948852539e-01,2.000000000000000000e+00,9.030922889709472656e+00,5.262759685516357422e+00,3.493450546264648438e+01,-1.160549011230468750e+02,9.051033782958984375e+01,-6.839031982421875000e+01,4.321029663085937500e+01,-1.143258190155029297e+01,-1.111585693359375000e+02,-1.194647064208984375e+02,6.329015350341796875e+01,-4.165311050415039062e+01
6.439999938011169434e-01,2.000000000000000000e+00,9.059452056884765625e+00,5.216723918914794922e+00,3.492690658569335938e+01,-1.161088333129882812e+02,9.051235961914062500e+01,-6.841407012939453125e+01,4.314043426513671875e+01,-1.142777919769287109e+01,-1.111660156250000000e+02,-1.195248794555664062e+02,6.328631210327148438e+01,-4.167904281616210938e+01
6.480000019073486328e-01,2.000000000000000000e+00,9.087979316711425781e+00,5.170691490173339844e+00,3.491930770874023438e+01,-1.161627655029296875e+02,9.051438140869140625e+01,-6.843782806396484375e+01,4.307057571411132812e+01,-1.142297744750976562e+01,-1.111734542846679688e+02,-1.195850448608398438e+02,6.328246688842773438e+01,-4.170497512817382812e+01
6.520000100135803223e-01,2.000000000000000000e+00,9.116504669189453125e+00,5.124662399291992188e+00,3.491170883178710938e+01,-1.162166976928710938e+02,9.051639556884765625e+01,-6.846157836914062500e+01,4.300072479248046875e+01,-1.141817665100097656e+01,-1.111809005737304688e+02,-1.196452026367187500e+02,6.327862930297851562e+01,-4.173090362548828125e+01
6.560000181198120117e-01,2.000000000000000000e+00,9.145027160644531250e+00,5.078636646270751953e+00,3.490410995483398438e+01,-1.162706222534179688e+02,9.051840972900390625e+01,-6.848531341552734375e+01,4.293087768554687500e+01,-1.141337585449218750e+01,-1.111883392333984375e+02,-1.197053604125976562e+02,6.327479171752929688e+01,-4.175683212280273438e+01
6.600000262260437012e-01,2.000000000000000000e+00,9.173548698425292969e+00,5.032614231109619141e+00,3.489651107788085938e+01,-1.163245468139648438e+02,9.052042388916015625e+01,-6.850906372070312500e+01,4.286103439331054688e+01,-1.140857505798339844e+01,-1.111957778930664062e+02,-1.197655258178710938e+02,6.327095413208007812e+01,-4.178275680541992188e+01
6.639999747276306152e-01,2.000000000000000000e+00,9.202068328857421875e+00,4.986594676971435547e+00,3.488891601562500000e+01,-1.163784637451171875e+02,9.052243804931640625e+01,-6.853280639648437500e+01,4.279119873046875000e+01,-1.140377521514892578e+01,-1.112032165527343750e+02,-1.198256683349609375e+02,6.326711273193359375e+01,-4.180868148803710938e+01
6.679999828338623047e-01,2.000000000000000000e+00,9.230585098266601562e+00,4.940578937530517578e+00,3.488131713867187500e+01,-1.164323806762695312e+02,9.052445220947265625e+01,-6.855654907226562500e+01,4.272136688232421875e+01,-1.139897537231445312e+01,-1.112106552124023438e+02,-1.198858184814453125e+02,6.326327514648437500e+01,-4.183460617065429688e+01
6.719999909400939941e-01,2.000000000000000000e+00,9.259099960327148438e+00,4.894566059112548828e+00,3.487372207641601562e+01,-1.164862823486328125e+02,9.052646636962890625e+01,-6.858029174804687500e+01,4.265153503417968750e+01,-1.139417552947998047e+01,-1.112180938720703125e+02,-1.199459533691406250e+02,6.325944519042968750e+01,-4.186052703857421875e+01
6.759999990463256836e-01,2.000000000000000000e+00,9.287612915039062500e+00,4.848556518554687500e+00,3.486612701416015625e+01,-1.165401840209960938e+02,9.052848052978515625e+01,-6.860402679443359375e+01,4.258171463012695312e+01,-1.138937664031982422e+01,-1.112255325317382812e+02,-1.200060806274414062e+02,6.325560379028320312e+01,-4.188644409179687500e+01
6.800000071525573730e-01,2.000000000000000000e+00,9.316123962402343750e+00,4.802550792694091797e+00,3.485853195190429688e+01,-1.165940933227539062e+02,9.053049468994140625e+01,-6.862776947021484375e+01,4.251189804077148438e+01,-1.138457775115966797e+01,-1.112329711914062500e+02,-1.200662155151367188e+02,6.325176620483398438e+01,-4.191236114501953125e+01
6.840000152587890625e-01,2.000000000000000000e+00,9.344633102416992188e+00,4.756547451019287109e+00,3.485093688964843750e+01,-1.166479797363281250e+02,9.053250885009765625e+01,-6.865150451660156250e+01,4.244208526611328125e+01,-1.137977886199951172e+01,-1.112404098510742188e+02,-1.201263504028320312e+02,6.324792861938476562e+01,-4.193827438354492188e+01
6.880000233650207520e-01,2.000000000000000000e+00,9.373139381408691406e+00,4.710547924041748047e+00,3.484334564208984375e+01,-1.167018814086914062e+02,9.053453063964843750e+01,-6.867523193359375000e+01,4.237227630615234375e+01,-1.137498092651367188e+01,-1.112478408813476562e+02,-1.201864700317382812e+02,6.324409103393554688e+01,-4.196418762207031250e+01
6.919999718666076660e-01,2.000000000000000000e+00,9.401644706726074219e+00,4.664551258087158203e+00,3.483575057983398438e+01,-1.167557754516601562e+02,9.053654479980468750e+01,-6.869896697998046875e+01,4.230247497558593750e+01,-1.137018299102783203e+01,-1.112552795410156250e+02,-1.202465896606445312e+02,6.324025726318359375e+01,-4.199009704589843750e+01
6.959999799728393555e-01,2.000000000000000000e+00,9.430148124694824219e+00,4.618558406829833984e+00,3.482815933227539062e+01,-1.168096542358398438e+02,9.053855895996093750e+01,-6.872269439697265625e+01,4.223267364501953125e+01,-1.136538505554199219e+01,-1.112627182006835938e+02,-1.203067092895507812e+02,6.323641967773437500e+01,-4.201600646972656250e+01
6.999999880790710449e-01,2.000000000000000000e+00,9.458649635314941406e+00,4.572567939758300781e+00,3.482056808471679688e+01,-1.168635406494140625e+02,9.054057312011718750e+01,-6.874642181396484375e+01,4.216287994384765625e+01,-1.136058807373046875e+01,-1.112701492309570312e+02,-1.203668136596679688e+02,6.323258209228515625e+01,-4.204191589355468750e+01
7.039999961853027344e-01,2.000000000000000000e+00,9.487148284912109375e+00,4.526581287384033203e+00,3.481297683715820312e+01,-1.169174194335937500e+02,9.054258728027343750e+01,-6.877014923095703125e+01,4.209309387207031250e+01,-1.135579109191894531e+01,-1.112775878906250000e+02,-1.204269180297851562e+02,6.322874832153320312e+01,-4.206782150268554688e+01
7.080000042915344238e-01,2.000000000000000000e+00,9.515645027160644531e+00,4.480597496032714844e+00,3.480538558959960938e+01,-1.169712905883789062e+02,9.054460144042968750e+01,-6.879387664794921875e+01,4.202330780029296875e+01,-1.135099506378173828e+01,-1.112850189208984375e+02,-1.204870223999023438e+02,6.322491073608398438e+01,-4.209372711181640625e+01
7.120000123977661133e-01,2.000000000000000000e+00,9.544139862060546875e+00,4.434616565704345703e+00,3.479779434204101562e+01,-1.170251693725585938e+02,9.054661560058593750e+01,-6.881759643554687500e+01,4.195353317260742188e+01,-1.134619808197021484e+01,-1.112924499511718750e+02,-1.205471267700195312e+02,6.322107696533203125e+01,-4.211962890625000000e+01
7.160000205039978027e-01,2.000000000000000000e+00,9.572632789611816406e+00,4.388638973236083984e+00,3.479020309448242188e+01,-1.170790328979492188e+02,9.054862976074218750e+01,-6.884132385253906250e+01,4.188375473022460938e+01,-1.134140300750732422e+01,-1.112998809814453125e+02,-1.206072235107421875e+02,6.321723937988281250e+01,-4.214553070068359375e+01
7.200000286102294922e-01,2.000000000000000000e+00,9.601124763488769531e+00,4.342664718627929688e+00,3.478261566162109375e+01,-1.171328964233398438e+02,9.055063629150390625e+01,-6.886504364013671875e+01,4.181398773193359375e+01,-1.133660697937011719e+01,-1.113073196411132812e+02,-1.206673126220703125e+02,6.321340942382812500e+01,-4.217142486572265625e+01
7.239999771118164062e-01,2.000000000000000000e+00,9.629613876342773438e+00,4.296693325042724609e+00,3.477502441406250000e+01,-1.171867599487304688e+02,9.055265808105468750e+01,-6.888876342773437500e+01,4.174422073364257812e+01,-1.133181190490722656e+01,-1.113147506713867188e+02,-1.207273941040039062e+02,6.320957565307617188e+01,-4.219732284545898438e+01
7.279999852180480957e-01,2.000000000000000000e+00,9.658102035522460938e+00,4.250724792480468750e+00,3.476743698120117188e+01,-1.172406234741210938e+02,9.055467224121093750e+01,-6.891247558593750000e+01,4.167446136474609375e+01,-1.132701683044433594e+01,-1.113221817016601562e+02,-1.207874832153320312e+02,6.320573806762695312e+01,-4.222322082519531250e+01
7.319999933242797852e-01,2.000000000000000000e+00,9.686587333679199219e+00,4.204759597778320312e+00,3.475984573364257812e+01,-1.172944717407226562e+02,9.055668640136718750e+01,-6.893619537353515625e+01,4.160470962524414062e+01,-1.132222270965576172e+01,-1.113296127319335938e+02,-1.208475646972656250e+02,6.320190811157226562e+01,-4.224911117553710938e+01
7.360000014305114746e-01,2.000000000000000000e+00,9.715070724487304688e+00,4.158797740936279297e+00,3.475226211547851562e+01,-1.173483200073242188e+02,9.055870056152343750e+01,-6.895990753173828125e+01,4.153495788574218750e+01,-1.131742763519287109e+01,-1.113370361328125000e+02,-1.209076309204101562e+02,6.319807434082031250e+01,-4.227500534057617188e+01
7.400000095367431641e-01,2.000000000000000000e+00,9.743553161621093750e+00,4.112838745117187500e+00,3.474467468261718750e+01,-1.174021682739257812e+02,9.056070709228515625e+01,-6.898361968994140625e+01,4.146520996093750000e+01,-1.131263446807861328e+01,-1.113444671630859375e+02,-1.209677047729492188e+02,6.319423675537109375e+01,-4.230089569091796875e+01
7.440000176429748535e-01,2.000000000000000000e+00,9.772031784057617188e+00,4.066882610321044922e+00,3.473708724975585938e+01,-1.174560089111328125e+02,9.056272125244140625e+01,-6.900733184814453125e+01,4.139546966552734375e+01,-1.130784130096435547e+01,-1.113518981933593750e+02,-1.210277709960937500e+02,6.319040298461914062e+01,-4.232678222656250000e+01
7.480000257492065430e-01,2.000000000000000000e+00,9.800510406494140625e+00,4.020929813385009766e+00,3.472949981689453125e+01,-1.175098571777343750e+02,9.056473541259765625e+01,-6.903104400634765625e+01,4.132573318481445312e+01,-1.130304718017578125e+01,-1.113593292236328125e+02,-1.210878372192382812e+02,6.318657302856445312e+01,-4.235266876220703125e+01
7.519999742507934570e-01,2.000000000000000000e+00,9.828986167907714844e+00,3.974979639053344727e+00,3.472191619873046875e+01,-1.175636901855468750e+02,9.056674194335937500e+01,-6.905474853515625000e+01,4.125600051879882812e+01,-1.129825401306152344e+01,-1.113667526245117188e+02,-1.211478881835937500e+02,6.318273925781250000e+01,-4.237855529785156250e+01
7.559999823570251465e-01,2.000000000000000000e+00,9.857460975646972656e+00,3.929033041000366211e+00,3.471433258056640625e+01,-1.176175155639648438e+02,9.056876373291015625e+01,-6.907845306396484375e+01,4.118627166748046875e+01,-1.129346179962158203e+01,-1.113741836547851562e+02,-1.212079391479492188e+02,6.317890930175781250e+01,-4.240443801879882812e+01
7.599999904632568359e-01,2.000000000000000000e+00,9.885932922363281250e+00,3.883089065551757812e+00,3.470674514770507812e+01,-1.176713485717773438e+02,9.057077789306640625e+01,-6.910215759277343750e+01,4.111654663085937500e+01,-1.128866958618164062e+01,-1.113816070556640625e+02,-1.212679901123046875e+02,6.317507553100585938e+01,-4.243032073974609375e+01
7.639999985694885254e-01,2.000000000000000000e+00,9.914402961730957031e+00,3.837148189544677734e+00,3.469916152954101562e+01,-1.177251663208007812e+02,9.057278442382812500e+01,-6.912586212158203125e+01,4.104683303833007812e+01,-1.128387737274169922e+01,-1.113890380859375000e+02,-1.213280410766601562e+02,6.317124557495117188e+01,-4.245619964599609375e+01
7.680000066757202148e-01,2.000000000000000000e+00,9.942872047424316406e+00,3.791210174560546875e+00,3.469157791137695312e+01,-1.177789916992187500e+02,9.057479858398437500e+01,-6.914955902099609375e+01,4.097711563110351562e+01,-1.127908515930175781e+01,-1.113964691162109375e+02,-1.213880767822265625e+02,6.316741561889648438e+01,-4.248207473754882812e+01
7.720000147819519043e-01,2.000000000000000000e+00,9.971338272094726562e+00,3.745275020599365234e+00,3.468399429321289062e+01,-1.178328094482421875e+02,9.057680511474609375e+01,-6.917326354980468750e+01,4.090740585327148438e+01,-1.127429389953613281e+01,-1.114038925170898438e+02,-1.214481277465820312e+02,6.316358184814453125e+01,-4.250795745849609375e+01
7.760000228881835938e-01,2.000000000000000000e+00,9.999803543090820312e+00,3.699342727661132812e+00,3.467641448974609375e+01,-1.178866195678710938e+02,9.057881927490234375e+01,-6.919696044921875000e+01,4.083769989013671875e+01,-1.126950359344482422e+01,-1.114113159179687500e+02,-1.215081481933593750e+02,6.315975189208984375e+01,-4.253382873535156250e+01
7.799999713897705078e-01,2.000000000000000000e+00,1.002826786041259766e+01,3.653414011001586914e+00,3.466883087158203125e+01,-1.179404296875000000e+02,9.058082580566406250e+01,-6.922065734863281250e+01,4.076799774169921875e+01,-1.126471138000488281e+01,-1.114187393188476562e+02,-1.215681915283203125e+02,6.315591812133789062e+01,-4.255970001220703125e+01
7.839999794960021973e-01,2.000000000000000000e+00,1.005672836303710938e+01,3.607487916946411133e+00,3.466125106811523438e+01,-1.179942398071289062e+02,9.058284759521484375e+01,-6.924435424804687500e+01,4.069830322265625000e+01,-1.125992107391357422e+01,-1.114261627197265625e+02,-1.216282119750976562e+02,6.315208816528320312e+01,-4.258557510375976562e+01
7.879999876022338867e-01,2.000000000000000000e+00,1.008518791198730469e+01,3.561564445495605469e+00,3.465366744995117188e+01,-1.180480422973632812e+02,9.058485412597656250e+01,-6.926805114746093750e+01,4.062861251831054688e+01,-1.125513172149658203e+01,-1.114335861206054688e+02,-1.216882400512695312e+02,6.314825439453125000e+01,-4.261144256591796875e+01
7.919999957084655762e-01,2.000000000000000000e+00,1.011364555358886719e+01,3.515644073486328125e+00,3.464608764648437500e+01,-1.181018524169921875e+02,9.058686828613281250e+01,-6.929174041748046875e+01,4.055892562866210938e+01,-1.125034141540527344e+01,-1.114410095214843750e+02,-1.217482604980468750e+02,6.314443206787109375e+01,-4.263731384277343750e+01
7.960000038146972656e-01,2.000000000000000000e+00,1.014210224151611328e+01,3.469726324081420898e+00,3.463850402832031250e+01,-1.181556472778320312e+02,9.058887481689453125e+01,-6.931542968750000000e+01,4.048924255371093750e+01,-1.124555110931396484e+01,-1.114484405517578125e+02,-1.218082733154296875e+02,6.314059829711914062e+01,-4.266317749023437500e+01
8.000000119209289551e-01,2.000000000000000000e+00,1.017055606842041016e+01,3.423811674118041992e+00,3.463092803955078125e+01,-1.182094421386718750e+02,9.059088897705078125e+01,-6.933911895751953125e+01,4.041956329345703125e+01,-1.124076271057128906e+01,-1.114558563232421875e+02,-1.218682937622070312e+02,6.313676834106445312e+01,-4.268904495239257812e+01
8.040000200271606445e-01,2.000000000000000000e+00,1.019900894165039062e+01,3.377899885177612305e+00,3.462334442138671875e+01,-1.182632369995117188e+02,9.059289550781250000e+01,-6.936280822753906250e+01,4.034988784790039062e+01,-1.123597335815429688e+01,-1.114632797241210938e+02,-1.219282913208007812e+02,6.313294219970703125e+01,-4.271490859985351562e+01
8.080000281333923340e-01,2.000000000000000000e+00,1.022745895385742188e+01,3.331990957260131836e+00,3.461576843261718750e+01,-1.183170166015625000e+02,9.059490966796875000e+01,-6.938648986816406250e+01,4.028021621704101562e+01,-1.123118495941162109e+01,-1.114707031250000000e+02,-1.219882965087890625e+02,6.312910842895507812e+01,-4.274076843261718750e+01
8.119999766349792480e-01,2.000000000000000000e+00,1.025590801239013672e+01,3.286084651947021484e+00,3.460818862915039062e+01,-1.183707962036132812e+02,9.059692382812500000e+01,-6.941017913818359375e+01,4.021055221557617188e+01,-1.122639656066894531e+01,-1.114781188964843750e+02,-1.220482940673828125e+02,6.312527847290039062e+01,-4.276662826538085938e+01
8.159999847412109375e-01,2.000000000000000000e+00,1.028435516357421875e+01,3.240181684494018555e+00,3.460061264038085938e+01,-1.184245834350585938e+02,9.059893035888671875e+01,-6.943386840820312500e+01,4.014089202880859375e+01,-1.122160816192626953e+01,-1.114855422973632812e+02,-1.221082916259765625e+02,6.312145233154296875e+01,-4.279248809814453125e+01
8.199999928474426270e-01,2.000000000000000000e+00,1.031280040740966797e+01,3.194281101226806641e+00,3.459303283691406250e+01,-1.184783630371093750e+02,9.060094451904296875e+01,-6.945755004882812500e+01,4.007123565673828125e+01,-1.121681976318359375e+01,-1.114929656982421875e+02,-1.221682891845703125e+02,6.311762237548828125e+01,-4.281834793090820312e+01
8.240000009536743164e-01,2.000000000000000000e+00,1.034124469757080078e+01,3.148383378982543945e+00,3.458546066284179688e+01,-1.185321426391601562e+02,9.060295104980468750e+01,-6.948122406005859375e+01,4.000157928466796875e+01,-1.121203327178955078e+01,-1.115003814697265625e+02,-1.222282867431640625e+02,6.311379623413085938e+01,-4.284420394897460938e+01
8.280000090599060059e-01,2.000000000000000000e+00,1.036968612670898438e+01,3.102488279342651367e+00,3.457788085937500000e+01,-1.185859069824218750e+02,9.060495758056640625e+01,-6.950490570068359375e+01,3.993193435668945312e+01,-1.120724487304687500e+01,-1.115078048706054688e+02,-1.222882690429687500e+02,6.310996627807617188e+01,-4.287005615234375000e+01
8.320000171661376953e-01,2.000000000000000000e+00,1.039812660217285156e+01,3.056596279144287109e+00,3.457030487060546875e+01,-1.186396789550781250e+02,9.060697174072265625e+01,-6.952857971191406250e+01,3.986228942871093750e+01,-1.120245933532714844e+01,-1.115152206420898438e+02,-1.223482513427734375e+02,6.310614013671875000e+01,-4.289590835571289062e+01
8.360000252723693848e-01,2.000000000000000000e+00,1.042656517028808594e+01,3.010706901550292969e+00,3.456273269653320312e+01,-1.186934432983398438e+02,9.060898590087890625e+01,-6.955226135253906250e+01,3.979264831542968750e+01,-1.119767189025878906e+01,-1.115226364135742188e+02,-1.224082336425781250e+02,6.310231399536132812e+01,-4.292176055908203125e+01
8.399999737739562988e-01,2.000000000000000000e+00,1.045500183105468750e+01,2.964820146560668945e+00,3.455515289306640625e+01,-1.187472000122070312e+02,9.061099243164062500e+01,-6.957593536376953125e+01,3.972301101684570312e+01,-1.119288539886474609e+01,-1.115300598144531250e+02,-1.224682006835937500e+02,6.309848403930664062e+01,-4.294760894775390625e+01
8.439999818801879883e-01,2.000000000000000000e+00,1.048343753814697266e+01,2.918936491012573242e+00,3.454757690429687500e+01,-1.188009643554687500e+02,9.061299896240234375e+01,-6.959960937500000000e+01,3.965338134765625000e+01,-1.118809890747070312e+01,-1.115374755859375000e+02,-1.225281829833984375e+02,6.309465789794921875e+01,-4.297345733642578125e+01
8.479999899864196777e-01,2.000000000000000000e+00,1.051187038421630859e+01,2.873054981231689453e+00,3.454000854492187500e+01,-1.188547210693359375e+02,9.061501312255859375e+01,-6.962328338623046875e+01,3.958375167846679688e+01,-1.118331432342529297e+01,-1.115448913574218750e+02,-1.225881423950195312e+02,6.309083557128906250e+01,-4.299930191040039062e+01
8.519999980926513672e-01,2.000000000000000000e+00,1.054030227661132812e+01,2.827176809310913086e+00,3.453243255615234375e+01,-1.189084701538085938e+02,9.061701965332031250e+01,-6.964695739746093750e+01,3.951412582397460938e+01,-1.117852783203125000e+01,-1.115523071289062500e+02,-1.226481094360351562e+02,6.308700180053710938e+01,-4.302514648437500000e+01
8.560000061988830566e-01,2.000000000000000000e+00,1.056873226165771484e+01,2.781300783157348633e+00,3.452485656738281250e+01,-1.189622116088867188e+02,9.061903381347656250e+01,-6.967062377929687500e+01,3.944450759887695312e+01,-1.117374324798583984e+01,-1.115597305297851562e+02,-1.227080764770507812e+02,6.308317565917968750e+01,-4.305099105834960938e+01
8.600000143051147461e-01,2.000000000000000000e+00,1.059716033935546875e+01,2.735427856445312500e+00,3.451728820800781250e+01,-1.190159683227539062e+02,9.062104034423828125e+01,-6.969429016113281250e+01,3.937489318847656250e+01,-1.116895771026611328e+01,-1.115671386718750000e+02,-1.227680358886718750e+02,6.307935333251953125e+01,-4.307683181762695312e+01
8.640000224113464355e-01,2.000000000000000000e+00,1.062558746337890625e+01,2.689557552337646484e+00,3.450971221923828125e+01,-1.190697021484375000e+02,9.062304687500000000e+01,-6.971795654296875000e+01,3.930527877807617188e+01,-1.116417312622070312e+01,-1.115745544433593750e+02,-1.228279876708984375e+02,6.307552719116210938e+01,-4.310267257690429688e+01
8.679999709129333496e-01,2.000000000000000000e+00,1.065401268005371094e+01,2.643689632415771484e+00,3.450214004516601562e+01,-1.191234436035156250e+02,9.062505340576171875e+01,-6.974162292480468750e+01,3.923567199707031250e+01,-1.115938854217529297e+01,-1.115819778442382812e+02,-1.228879318237304688e+02,6.307170104980468750e+01,-4.312850952148437500e+01
8.719999790191650391e-01,2.000000000000000000e+00,1.068243598937988281e+01,2.597824811935424805e+00,3.449456787109375000e+01,-1.191771850585937500e+02,9.062706756591796875e+01,-6.976528930664062500e+01,3.916606903076171875e+01,-1.115460395812988281e+01,-1.115893859863281250e+02,-1.229478836059570312e+02,6.306787872314453125e+01,-4.315434646606445312e+01
8.759999871253967285e-01,2.000000000000000000e+00,1.071085739135742188e+01,2.551962137222290039e+00,3.448699951171875000e+01,-1.192309112548828125e+02,9.062907409667968750e+01,-6.978894805908203125e+01,3.909646987915039062e+01,-1.114982032775878906e+01,-1.115968017578125000e+02,-1.230078277587890625e+02,6.306405258178710938e+01,-4.318018341064453125e+01
8.799999952316284180e-01,2.000000000000000000e+00,1.073927783966064453e+01,2.506102323532104492e+00,3.447942733764648438e+01,-1.192846374511718750e+02,9.063108825683593750e+01,-6.981260681152343750e+01,3.902687454223632812e+01,-1.114503669738769531e+01,-1.116042098999023438e+02,-1.230677719116210938e+02,6.306022644042968750e+01,-4.320601654052734375e+01
8.840000033378601074e-01,2.000000000000000000e+00,1.076769733428955078e+01,2.460245370864868164e+00,3.447185897827148438e+01,-1.193383789062500000e+02,9.063309478759765625e+01,-6.983626556396484375e+01,3.895728302001953125e+01,-1.114025402069091797e+01,-1.116116333007812500e+02,-1.231277160644531250e+02,6.305640411376953125e+01,-4.323184967041015625e+01
8.880000114440917969e-01,2.000000000000000000e+00,1.079611396789550781e+01,2.414390563964843750e+00,3.446428680419921875e+01,-1.193920898437500000e+02,9.063510131835937500e+01,-6.985992431640625000e+01,3.888769531250000000e+01,-1.113547134399414062e+01,-1.116190414428710938e+02,-1.231876373291015625e+02,6.305257797241210938e+01,-4.325768280029296875e+01
8.920000195503234863e-01,2.000000000000000000e+00,1.082452964782714844e+01,2.368538379669189453e+00,3.445671844482421875e+01,-1.194458160400390625e+02,9.063710784912109375e+01,-6.988358306884765625e+01,3.881811141967773438e+01,-1.113068771362304688e+01,-1.116264495849609375e+02,-1.232475662231445312e+02,6.304875183105468750e+01,-4.328351211547851562e+01
8.960000276565551758e-01,2.000000000000000000e+00,1.085294246673583984e+01,2.322689056396484375e+00,3.444915008544921875e+01,-1.194995269775390625e+02,9.063911437988281250e+01,-6.990724182128906250e+01,3.874853134155273438e+01,-1.112590503692626953e+01,-1.116338653564453125e+02,-1.233074951171875000e+02,6.304492950439453125e+01,-4.330933761596679688e+01
8.999999761581420898e-01,2.000000000000000000e+00,1.088135528564453125e+01,2.276841878890991211e+00,3.444158172607421875e+01,-1.195532531738281250e+02,9.064112854003906250e+01,-6.993089294433593750e+01,3.867895507812500000e+01,-1.112112331390380859e+01,-1.116412734985351562e+02,-1.233674240112304688e+02,6.304110336303710938e+01,-4.333516693115234375e+01
9.039999842643737793e-01,2.000000000000000000e+00,1.090976619720458984e+01,2.230997323989868164e+00,3.443401336669921875e+01,-1.196069564819335938e+02,9.064313507080078125e+01,-6.995454406738281250e+01,3.860938262939453125e+01,-1.111634159088134766e+01,-1.116486816406250000e+02,-1.234273376464843750e+02,6.303727722167968750e+01,-4.336099243164062500e+01
9.079999923706054688e-01,2.000000000000000000e+00,1.093817615509033203e+01,2.185155153274536133e+00,3.442644500732421875e+01,-1.196606674194335938e+02,9.064514160156250000e+01,-6.997819519042968750e+01,3.853981399536132812e+01,-1.111155891418457031e+01,-1.116560974121093750e+02,-1.234872512817382812e+02,6.303345489501953125e+01,-4.338681793212890625e+01
9.120000004768371582e-01,2.000000000000000000e+00,1.096658420562744141e+01,2.139315366744995117e+00,3.441887664794921875e+01,-1.197143783569335938e+02,9.064714813232421875e+01,-7.000185394287109375e+01,3.847025299072265625e+01,-1.110677814483642578e+01,-1.116635055541992188e+02,-1.235471649169921875e+02,6.302962875366210938e+01,-4.341263961791992188e+01
9.160000085830688477e-01,2.000000000000000000e+00,1.099499034881591797e+01,2.093478202819824219e+00,3.441130828857421875e+01,-1.197680816650390625e+02,9.064915466308593750e+01,-7.002549743652343750e+01,3.840068817138671875e+01,-1.110199737548828125e+01,-1.116709136962890625e+02,-1.236070785522460938e+02,6.302581024169921875e+01,-4.343846130371093750e+01
9.200000166893005371e-01,2.000000000000000000e+00,1.102339649200439453e+01,2.047643184661865234e+00,3.440374374389648438e+01,-1.198217773437500000e+02,9.065116882324218750e+01,-7.004914855957031250e+01,3.833113098144531250e+01,-1.109721565246582031e+01,-1.116783294677734375e+02,-1.236669998168945312e+02,6.302198410034179688e+01,-4.346428298950195312e+01
9.240000247955322266e-01,2.000000000000000000e+00,1.105179977416992188e+01,2.001810550689697266e+00,3.439617919921875000e+01,-1.198754730224609375e+02,9.065317535400390625e+01,-7.007279968261718750e+01,3.826158142089843750e+01,-1.109243583679199219e+01,-1.116857376098632812e+02,-1.237268981933593750e+02,6.301816177368164062e+01,-4.349010086059570312e+01
9.279999732971191406e-01,2.000000000000000000e+00,1.108020210266113281e+01,1.955980300903320312e+00,3.438861465454101562e+01,-1.199291763305664062e+02,9.065517425537109375e+01,-7.009644317626953125e+01,3.819202804565429688e+01,-1.108765411376953125e+01,-1.116931457519531250e+02,-1.237867965698242188e+02,6.301434326171875000e+01,-4.351591491699218750e+01
9.319999814033508301e-01,2.000000000000000000e+00,1.110860252380371094e+01,1.910152316093444824e+00,3.438104629516601562e+01,-1.199828643798828125e+02,9.065718078613281250e+01,-7.012008666992187500e+01,3.812247848510742188e+01,-1.108287525177001953e+01,-1.117005538940429688e+02,-1.238467025756835938e+02,6.301051712036132812e+01,-4.354173278808593750e+01
9.359999895095825195e-01,2.000000000000000000e+00,1.113700199127197266e+01,1.864326357841491699e+00,3.437348175048828125e+01,-1.200365600585937500e+02,9.065919494628906250e+01,-7.014373016357421875e+01,3.805293655395507812e+01,-1.107809448242187500e+01,-1.117079620361328125e+02,-1.239065856933593750e+02,6.300669097900390625e+01,-4.356754684448242188e+01
9.399999976158142090e-01,2.000000000000000000e+00,1.116539955139160156e+01,1.818502902984619141e+00,3.436591720581054688e+01,-1.200902481079101562e+02,9.066120147705078125e+01,-7.016737365722656250e+01,3.798339462280273438e+01,-1.107331562042236328e+01,-1.117153701782226562e+02,-1.239664840698242188e+02,6.300287628173828125e+01,-4.359336090087890625e+01
9.440000057220458984e-01,2.000000000000000000e+00,1.119379615783691406e+01,1.772681593894958496e+00,3.435835266113281250e+01,-1.201439285278320312e+02,9.066320800781250000e+01,-7.019101715087890625e+01,3.791385650634765625e+01,-1.106853485107421875e+01,-1.117227783203125000e+02,-1.240263748168945312e+02,6.299905014038085938e+01,-4.361917495727539062e+01
9.480000138282775879e-01,2.000000000000000000e+00,1.122219181060791016e+01,1.726862311363220215e+00,3.435078811645507812e+01,-1.201976165771484375e+02,9.066521453857421875e+01,-7.021465301513671875e+01,3.784432601928710938e+01,-1.106375598907470703e+01,-1.117301788330078125e+02,-1.240862579345703125e+02,6.299523162841796875e+01,-4.364498519897460938e+01
9.520000219345092773e-01,2.000000000000000000e+00,1.125058650970458984e+01,1.681045293807983398e+00,3.434322738647460938e+01,-1.202512893676757812e+02,9.066722106933593750e+01,-7.023828887939453125e+01,3.777479553222656250e+01,-1.105897712707519531e+01,-1.117375946044921875e+02,-1.241461486816406250e+02,6.299140548706054688e+01,-4.367079544067382812e+01
9.559999704360961914e-01,2.000000000000000000e+00,1.127897834777832031e+01,1.635230422019958496e+00,3.433566284179687500e+01,-1.203049697875976562e+02,9.066922760009765625e+01,-7.026193237304687500e+01,3.770526885986328125e+01,-1.105419731140136719e+01,-1.117449951171875000e+02,-1.242060241699218750e+02,6.298758697509765625e+01,-4.369660186767578125e+01
9.599999785423278809e-01,2.000000000000000000e+00,1.130737018585205078e+01,1.589417576789855957e+00,3.432809829711914062e+01,-1.203586425781250000e+02,9.067123413085937500e+01,-7.028556060791015625e+01,3.763574218750000000e+01,-1.104941940307617188e+01,-1.117524032592773438e+02,-1.242659072875976562e+02,6.298376464843750000e+01,-4.372241210937500000e+01
9.639999866485595703e-01,2.000000000000000000e+00,1.133575916290283203e+01,1.543606758117675781e+00,3.432053756713867188e+01,-1.204123153686523438e+02,9.067324066162109375e+01,-7.030920410156250000e+01,3.756622314453125000e+01,-1.104464054107666016e+01,-1.117598114013671875e+02,-1.243257827758789062e+02,6.297994613647460938e+01,-4.374821472167968750e+01
9.679999947547912598e-01,2.000000000000000000e+00,1.136414813995361328e+01,1.497798085212707520e+00,3.431297302246093750e+01,-1.204659881591796875e+02,9.067524719238281250e+01,-7.033283233642578125e+01,3.749670410156250000e+01,-1.103986263275146484e+01,-1.117672119140625000e+02,-1.243856582641601562e+02,6.297612762451171875e+01,-4.377402496337890625e+01
9.720000028610229492e-01,2.000000000000000000e+00,1.139253520965576172e+01,1.451991319656372070e+00,3.430541229248046875e+01,-1.205196609497070312e+02,9.067725372314453125e+01,-7.035647583007812500e+01,3.742718887329101562e+01,-1.103508472442626953e+01,-1.117746200561523438e+02,-1.244455261230468750e+02,6.297230148315429688e+01,-4.379982757568359375e+01
9.760000109672546387e-01,2.000000000000000000e+00,1.142092132568359375e+01,1.406186699867248535e+00,3.429785156250000000e+01,-1.205733184814453125e+02,9.067926025390625000e+01,-7.038010406494140625e+01,3.735767745971679688e+01,-1.103030681610107422e+01,-1.117820205688476562e+02,-1.245054016113281250e+02,6.296848297119140625e+01,-4.382563018798828125e+01
9.800000190734863281e-01,2.000000000000000000e+00,1.144930648803710938e+01,1.360383987426757812e+00,3.429029083251953125e+01,-1.206269912719726562e+02,9.068126678466796875e+01,-7.040373229980468750e+01,3.728816986083984375e+01,-1.102552890777587891e+01,-1.117894287109375000e+02,-1.245652618408203125e+02,6.296466064453125000e+01,-4.385143280029296875e+01
9.840000271797180176e-01,2.000000000000000000e+00,1.147768974304199219e+01,1.314583182334899902e+00,3.428272628784179688e+01,-1.206806488037109375e+02,9.068327331542968750e+01,-7.042736816406250000e+01,3.721866607666015625e+01,-1.102075099945068359e+01,-1.117968292236328125e+02,-1.246251220703125000e+02,6.296084213256835938e+01,-4.387723541259765625e+01
9.879999756813049316e-01,2.000000000000000000e+00,1.150607299804687500e+01,1.268784523010253906e+00,3.427516555786132812e+01,-1.207343063354492188e+02,9.068527984619140625e+01,-7.045099639892578125e+01,3.714915847778320312e+01,-1.101597404479980469e+01,-1.118042373657226562e+02,-1.246849822998046875e+02,6.295702362060546875e+01,-4.390303421020507812e+01
9.919999837875366211e-01,2.000000000000000000e+00,1.153445434570312500e+01,1.222987651824951172e+00,3.426760482788085938e+01,-1.207879638671875000e+02,9.068728637695312500e+01,-7.047462463378906250e+01,3.707965850830078125e+01,-1.101119709014892578e+01,-1.118116378784179688e+02,-1.247448425292968750e+02,6.295320510864257812e+01,-4.392883300781250000e+01
9.959999918937683105e-01,2.000000000000000000e+00,1.156283378601074219e+01,1.177192807197570801e+00,3.426004791259765625e+01,-1.208416061401367188e+02,9.068929290771484375e+01,-7.049825286865234375e+01,3.701016235351562500e+01,-1.100642013549804688e+01,-1.118190460205078125e+02,-1.248047027587890625e+02,6.294937896728515625e+01,-4.395463180541992188e+01
1.000000000000000000e+00,2.000000000000000000e+00,1.159121322631835938e+01,1.131399989128112793e+00,3.425248718261718750e+01,-1.208952636718750000e+02,9.069129180908203125e+01,-7.052188110351562500e+01,3.694067001342773438e+01,-1.100164413452148438e+01,-1.118264465332031250e+02,-1.248645477294921875e+02,6.294556427001953125e+01,-4.398042678833007812e+01
1.003999948501586914e+00,2.000000000000000000e+00,1.161958980560302734e+01,1.085609078407287598e+00,3.424493026733398438e+01,-1.209489059448242188e+02,9.069329833984375000e+01,-7.054550933837890625e+01,3.687117385864257812e+01,-1.099686717987060547e+01,-1.118338546752929688e+02,-1.249244079589843750e+02,6.294174575805664062e+01,-4.400622177124023438e+01
1.008000016212463379e+00,2.000000000000000000e+00,1.164796638488769531e+01,1.039819955825805664e+00,3.423736953735351562e+01,-1.210025634765625000e+02,9.069530487060546875e+01,-7.056912994384765625e+01,3.680168914794921875e+01,-1.099209117889404297e+01,-1.118412551879882812e+02,-1.249842529296875000e+02,6.293792724609375000e+01,-4.403201675415039062e+01
1.011999964714050293e+00,2.000000000000000000e+00,1.167634201049804688e+01,9.940328598022460938e-01,3.422981262207031250e+01,-1.210562133789062500e+02,9.069731140136718750e+01,-7.059275054931640625e+01,3.673220062255859375e+01,-1.098731517791748047e+01,-1.118486557006835938e+02,-1.250440979003906250e+02,6.293410873413085938e+01,-4.405780792236328125e+01
1.016000032424926758e+00,2.000000000000000000e+00,1.170471572875976562e+01,9.482476711273193359e-01,3.422225189208984375e+01,-1.211098403930664062e+02,9.069931793212890625e+01,-7.061637878417968750e+01,3.666271591186523438e+01,-1.098253917694091797e+01,-1.118560562133789062e+02,-1.251039428710937500e+02,6.293029022216796875e+01,-4.408360290527343750e+01
1.019999980926513672e+00,2.000000000000000000e+00,1.173308849334716797e+01,9.024643898010253906e-01,3.421469116210937500e+01,-1.211634902954101562e+02,9.070131683349609375e+01,-7.063999938964843750e+01,3.659323883056640625e+01,-1.097776317596435547e+01,-1.118634567260742188e+02,-1.251637802124023438e+02,6.292647171020507812e+01,-4.410939407348632812e+01
1.024000048637390137e+00,2.000000000000000000e+00,1.176146030426025391e+01,8.566831350326538086e-01,3.420713424682617188e+01,-1.212171325683593750e+02,9.070333099365234375e+01,-7.066361999511718750e+01,3.652376174926757812e+01,-1.097298812866210938e+01,-1.118708572387695312e+02,-1.252236251831054688e+02,6.292264556884765625e+01,-4.413518524169921875e+01
1.026999950408935547e+00,2.000000000000000000e+00,1.178983020782470703e+01,8.109042048454284668e-01,3.419957733154296875e+01,-1.212707595825195312e+02,9.070532989501953125e+01,-7.068724060058593750e+01,3.645428848266601562e+01,-1.096821308135986328e+01,-1.118782577514648438e+02,-1.252834548950195312e+02,6.291883087158203125e+01,-4.416097259521484375e+01
1.031999945640563965e+00,2.000000000000000000e+00,1.181819915771484375e+01,7.651276588439941406e-01,3.419202041625976562e+01,-1.213243942260742188e+02,9.070733642578125000e+01,-7.071086120605468750e+01,3.638481903076171875e+01,-1.096343803405761719e+01,-1.118856582641601562e+02,-1.253432922363281250e+02,6.291501235961914062e+01,-4.418675994873046875e+01
1.036000013351440430e+00,2.000000000000000000e+00,1.184656810760498047e+01,7.193534970283508301e-01,3.418446350097656250e+01,-1.213780212402343750e+02,9.070934295654296875e+01,-7.073448181152343750e+01,3.631534957885742188e+01,-1.095866298675537109e+01,-1.118930587768554688e+02,-1.254031219482421875e+02,6.291119384765625000e+01,-4.421254730224609375e+01
1.039999961853027344e+00,2.000000000000000000e+00,1.187493419647216797e+01,6.735813617706298828e-01,3.417690658569335938e+01,-1.214316558837890625e+02,9.071134948730468750e+01,-7.075808715820312500e+01,3.624588394165039062e+01,-1.095388889312744141e+01,-1.119004592895507812e+02,-1.254629516601562500e+02,6.290737533569335938e+01,-4.423833465576171875e+01
1.044000029563903809e+00,2.000000000000000000e+00,1.190330028533935547e+01,6.278110146522521973e-01,3.416934967041015625e+01,-1.214852828979492188e+02,9.071335601806640625e+01,-7.078170776367187500e+01,3.617642211914062500e+01,-1.094911384582519531e+01,-1.119078598022460938e+02,-1.255227737426757812e+02,6.290355682373046875e+01,-4.426411819458007812e+01
1.047999978065490723e+00,2.000000000000000000e+00,1.193166542053222656e+01,5.820423960685729980e-01,3.416179275512695312e+01,-1.215389175415039062e+02,9.071535491943359375e+01,-7.080532073974609375e+01,3.610696029663085938e+01,-1.094433879852294922e+01,-1.119152603149414062e+02,-1.255825881958007812e+02,6.289974594116210938e+01,-4.428990173339843750e+01
1.052000045776367188e+00,2.000000000000000000e+00,1.196002864837646484e+01,5.362751483917236328e-01,3.415423965454101562e+01,-1.215925292968750000e+02,9.071736145019531250e+01,-7.082894134521484375e+01,3.603750228881835938e+01,-1.093956565856933594e+01,-1.119226608276367188e+02,-1.256424255371093750e+02,6.289592742919921875e+01,-4.431568527221679688e+01
1.054999947547912598e+00,2.000000000000000000e+00,1.198839092254638672e+01,4.905091822147369385e-01,3.414667892456054688e+01,-1.216461639404296875e+02,9.071936798095703125e+01,-7.085255432128906250e+01,3.596804809570312500e+01,-1.093479156494140625e+01,-1.119300537109375000e+02,-1.257022399902343750e+02,6.289210891723632812e+01,-4.434146499633789062e+01
1.059999942779541016e+00,2.000000000000000000e+00,1.201675224304199219e+01,4.447445571422576904e-01,3.413912582397460938e+01,-1.216997756958007812e+02,9.072137451171875000e+01,-7.087616729736328125e+01,3.589859771728515625e+01,-1.093001842498779297e+01,-1.119374542236328125e+02,-1.257620468139648438e+02,6.288829040527343750e+01,-4.436724472045898438e+01
1.064000010490417480e+00,2.000000000000000000e+00,1.204511260986328125e+01,3.989815413951873779e-01,3.413157272338867188e+01,-1.217533950805664062e+02,9.072337341308593750e+01,-7.089977264404296875e+01,3.582915115356445312e+01,-1.092524433135986328e+01,-1.119448547363281250e+02,-1.258218688964843750e+02,6.288447189331054688e+01,-4.439302825927734375e+01
1.067999958992004395e+00,2.000000000000000000e+00,1.207347202301025391e+01,3.532202839851379395e-01,3.412401962280273438e+01,-1.218069992065429688e+02,9.072537994384765625e+01,-7.092338562011718750e+01,3.575970077514648438e+01,-1.092047119140625000e+01,-1.119522552490234375e+02,-1.258816833496093750e+02,6.288065338134765625e+01,-4.441880416870117188e+01
1.072000026702880859e+00,2.000000000000000000e+00,1.210183048248291016e+01,3.074608147144317627e-01,3.411646270751953125e+01,-1.218606185913085938e+02,9.072738647460937500e+01,-7.094699096679687500e+01,3.569025802612304688e+01,-1.091569805145263672e+01,-1.119596481323242188e+02,-1.259414901733398438e+02,6.287683868408203125e+01,-4.444458389282226562e+01
1.075999975204467773e+00,2.000000000000000000e+00,1.213018703460693359e+01,2.617030441761016846e-01,3.410890960693359375e+01,-1.219142303466796875e+02,9.072938537597656250e+01,-7.097060394287109375e+01,3.562081909179687500e+01,-1.091092491149902344e+01,-1.119670486450195312e+02,-1.260012969970703125e+02,6.287302398681640625e+01,-4.447035980224609375e+01
1.080000042915344238e+00,2.000000000000000000e+00,1.215854358673095703e+01,2.159470468759536743e-01,3.410135650634765625e+01,-1.219678344726562500e+02,9.073139190673828125e+01,-7.099420928955078125e+01,3.555138015747070312e+01,-1.090615272521972656e+01,-1.119744415283203125e+02,-1.260611038208007812e+02,6.286920928955078125e+01,-4.449613571166992188e+01
1.083999991416931152e+00,2.000000000000000000e+00,1.218689823150634766e+01,1.701927632093429565e-01,3.409379959106445312e+01,-1.220214385986328125e+02,9.073339843750000000e+01,-7.101781463623046875e+01,3.548194503784179688e+01,-1.090137958526611328e+01,-1.119818420410156250e+02,-1.261209030151367188e+02,6.286539077758789062e+01,-4.452190780639648438e+01
1.088000059127807617e+00,2.000000000000000000e+00,1.221525192260742188e+01,1.244402080774307251e-01,3.408625030517578125e+01,-1.220750427246093750e+02,9.073540496826171875e+01,-7.104141998291015625e+01,3.541251373291015625e+01,-1.089660739898681641e+01,-1.119892349243164062e+02,-1.261807098388671875e+02,6.286157226562500000e+01,-4.454768371582031250e+01
1.090999960899353027e+00,2.000000000000000000e+00,1.224360561370849609e+01,7.868935167789459229e-02,3.407869720458984375e+01,-1.221286468505859375e+02,9.073740386962890625e+01,-7.106502532958984375e+01,3.534308242797851562e+01,-1.089183425903320312e+01,-1.119966278076171875e+02,-1.262405014038085938e+02,6.285776138305664062e+01,-4.457345581054687500e+01
1.095999956130981445e+00,2.000000000000000000e+00,1.227195739746093750e+01,3.294019401073455811e-02,3.407114410400390625e+01,-1.221822509765625000e+02,9.073940277099609375e+01,-7.108863067626953125e+01,3.527365493774414062e+01,-1.088706302642822266e+01,-1.120040283203125000e+02,-1.263003082275390625e+02,6.285394287109375000e+01,-4.459923171997070312e+01
1.100000023841857910e+00,2.000000000000000000e+00,1.230030727386474609e+01,-1.280727703124284744e-02,3.406359100341796875e+01,-1.222358551025390625e+02,9.074141693115234375e+01,-7.111223602294921875e+01,3.520423126220703125e+01,-1.088229084014892578e+01,-1.120114212036132812e+02,-1.263600997924804688e+02,6.285012435913085938e+01,-4.462500000000000000e+01
1.103999972343444824e+00,2.000000000000000000e+00,1.232865715026855469e+01,-5.855306982994079590e-02,3.405604171752929688e+01,-1.222894439697265625e+02,9.074341583251953125e+01,-7.113584136962890625e+01,3.513480758666992188e+01,-1.087751865386962891e+01,-1.120188217163085938e+02,-1.264198913574218750e+02,6.284631347656250000e+01,-4.465077209472656250e+01
1.108000040054321289e+00,2.000000000000000000e+00,1.235700607299804688e+01,-1.042972058057785034e-01,3.404848480224609375e+01,-1.223430480957031250e+02,9.074541473388671875e+01,-7.115943908691406250e+01,3.506538391113281250e+01,-1.087274742126464844e+01,-1.120262069702148438e+02,-1.264796829223632812e+02,6.284249496459960938e+01,-4.467653656005859375e+01
1.111999988555908203e+00,2.000000000000000000e+00,1.238535404205322266e+01,-1.500396728515625000e-01,3.404093551635742188e+01,-1.223966369628906250e+02,9.074742126464843750e+01,-7.118304443359375000e+01,3.499596786499023438e+01,-1.086797618865966797e+01,-1.120336074829101562e+02,-1.265394592285156250e+02,6.283868408203125000e+01,-4.470230865478515625e+01
