rpiRobotics/ARM-21-02-F-19-Robot-Motion-Program/data_performance_abb/curve_1/curve_pose_opt1/greedy0.02/curve_exe_v46.875_z10.csv
# timestamp,cmd_num,J1,J2,J3,J4,J5,J6
0.000000000000000000e+00,-1.000000000000000000e+00,-3.460039138793945312e+01,4.793004989624023438e+01,2.988655471801757812e+01,1.086466369628906250e+02,9.417933654785156250e+01,-2.775081872940063477e+00,1.166222991943359375e+02,8.770228385925292969e+00,3.480780029296875000e+01,-1.537292938232421875e+02,6.622257232666015625e+01,1.191414108276367188e+02
4.000000189989805222e-03,1.000000000000000000e+00,-3.460039138793945312e+01,4.793004989624023438e+01,2.988655471801757812e+01,1.086466369628906250e+02,9.417933654785156250e+01,-2.775081872940063477e+00,1.166222991943359375e+02,8.770228385925292969e+00,3.480780029296875000e+01,-1.537292938232421875e+02,6.622257232666015625e+01,1.191414108276367188e+02
6.000000052154064178e-03,1.000000000000000000e+00,-3.460039138793945312e+01,4.793004989624023438e+01,2.988655471801757812e+01,1.086466369628906250e+02,9.417933654785156250e+01,-2.775081872940063477e+00,1.166222991943359375e+02,8.770228385925292969e+00,3.480780029296875000e+01,-1.537292938232421875e+02,6.622257232666015625e+01,1.191414108276367188e+02
9.999999776482582092e-03,1.000000000000000000e+00,-3.460039138793945312e+01,4.793004989624023438e+01,2.988655471801757812e+01,1.086466369628906250e+02,9.417933654785156250e+01,-2.775081872940063477e+00,1.166222991943359375e+02,8.770228385925292969e+00,3.480780029296875000e+01,-1.537292938232421875e+02,6.622257232666015625e+01,1.191414108276367188e+02
1.200000010430812836e-02,1.000000000000000000e+00,-3.460039138793945312e+01,4.793004989624023438e+01,2.988655471801757812e+01,1.086466369628906250e+02,9.417933654785156250e+01,-2.775081872940063477e+00,1.166222991943359375e+02,8.770228385925292969e+00,3.480780029296875000e+01,-1.537292938232421875e+02,6.622257232666015625e+01,1.191414108276367188e+02
1.600000075995922089e-02,1.000000000000000000e+00,-3.460039138793945312e+01,4.793004989624023438e+01,2.988655471801757812e+01,1.086466369628906250e+02,9.417933654785156250e+01,-2.775081872940063477e+00,1.166222991943359375e+02,8.770228385925292969e+00,3.480780029296875000e+01,-1.537292938232421875e+02,6.622257232666015625e+01,1.191414108276367188e+02
1.999999955296516418e-02,1.000000000000000000e+00,-3.460039138793945312e+01,4.793004989624023438e+01,2.988655471801757812e+01,1.086466369628906250e+02,9.417933654785156250e+01,-2.775081872940063477e+00,1.166222991943359375e+02,8.770228385925292969e+00,3.480780029296875000e+01,-1.537292938232421875e+02,6.622257232666015625e+01,1.191414108276367188e+02
2.400000020861625671e-02,1.000000000000000000e+00,-3.460039138793945312e+01,4.793004989624023438e+01,2.988655471801757812e+01,1.086466369628906250e+02,9.417933654785156250e+01,-2.775081872940063477e+00,1.166222991943359375e+02,8.770228385925292969e+00,3.480780029296875000e+01,-1.537292938232421875e+02,6.622257232666015625e+01,1.191414108276367188e+02
2.800000086426734924e-02,1.000000000000000000e+00,-3.460039138793945312e+01,4.793004989624023438e+01,2.988655471801757812e+01,1.086466369628906250e+02,9.417933654785156250e+01,-2.775081872940063477e+00,1.166222991943359375e+02,8.770228385925292969e+00,3.480780029296875000e+01,-1.537292938232421875e+02,6.622257232666015625e+01,1.191414108276367188e+02
3.200000151991844177e-02,1.000000000000000000e+00,-3.460039138793945312e+01,4.793004989624023438e+01,2.988655471801757812e+01,1.086466369628906250e+02,9.417933654785156250e+01,-2.775081872940063477e+00,1.166222991943359375e+02,8.770228385925292969e+00,3.480780029296875000e+01,-1.537292938232421875e+02,6.622257232666015625e+01,1.191414108276367188e+02
3.599999845027923584e-02,1.000000000000000000e+00,-3.460039138793945312e+01,4.793004989624023438e+01,2.988655471801757812e+01,1.086466369628906250e+02,9.417933654785156250e+01,-2.775081872940063477e+00,1.166222991943359375e+02,8.770228385925292969e+00,3.480780029296875000e+01,-1.537292938232421875e+02,6.622257232666015625e+01,1.191414108276367188e+02
3.999999910593032837e-02,1.000000000000000000e+00,-3.460039138793945312e+01,4.793004989624023438e+01,2.988655471801757812e+01,1.086466369628906250e+02,9.417933654785156250e+01,-2.775081872940063477e+00,1.166222991943359375e+02,8.770228385925292969e+00,3.480780029296875000e+01,-1.537292938232421875e+02,6.622257232666015625e+01,1.191414108276367188e+02
4.399999976158142090e-02,1.000000000000000000e+00,-3.460042572021484375e+01,4.793002700805664062e+01,2.988655471801757812e+01,1.086466369628906250e+02,9.417933654785156250e+01,-2.775081872940063477e+00,1.166222991943359375e+02,8.770228385925292969e+00,3.480780029296875000e+01,-1.537292938232421875e+02,6.622257232666015625e+01,1.191414108276367188e+02
4.800000041723251343e-02,1.000000000000000000e+00,-3.460062026977539062e+01,4.792988586425781250e+01,2.988655090332031250e+01,1.086466293334960938e+02,9.417934417724609375e+01,-2.775083065032958984e+00,1.166222991943359375e+02,8.770228385925292969e+00,3.480780029296875000e+01,-1.537292938232421875e+02,6.622257232666015625e+01,1.191414108276367188e+02
5.200000107288360596e-02,1.000000000000000000e+00,-3.460114669799804688e+01,4.792943954467773438e+01,2.988654899597167969e+01,1.086466140747070312e+02,9.417936706542968750e+01,-2.775089025497436523e+00,1.166222991943359375e+02,8.770228385925292969e+00,3.480780029296875000e+01,-1.537292938232421875e+02,6.622257232666015625e+01,1.191414108276367188e+02
5.600000172853469849e-02,1.000000000000000000e+00,-3.460211944580078125e+01,4.792845153808593750e+01,2.988654518127441406e+01,1.086465454101562500e+02,9.417942810058593750e+01,-2.775109767913818359e+00,1.166222991943359375e+02,8.770228385925292969e+00,3.480780029296875000e+01,-1.537292938232421875e+02,6.622257232666015625e+01,1.191414108276367188e+02
5.999999865889549255e-02,1.000000000000000000e+00,-3.460358810424804688e+01,4.792668533325195312e+01,2.988655853271484375e+01,1.086463623046875000e+02,9.417955017089843750e+01,-2.775163650512695312e+00,1.166222991943359375e+02,8.770228385925292969e+00,3.480780029296875000e+01,-1.537292938232421875e+02,6.622257232666015625e+01,1.191414108276367188e+02
6.400000303983688354e-02,1.000000000000000000e+00,-3.460552978515625000e+01,4.792388916015625000e+01,2.988661956787109375e+01,1.086459808349609375e+02,9.417974853515625000e+01,-2.775281429290771484e+00,1.166222991943359375e+02,8.770228385925292969e+00,3.480780029296875000e+01,-1.537292938232421875e+02,6.622257232666015625e+01,1.191414108276367188e+02
6.800000369548797607e-02,1.000000000000000000e+00,-3.460796356201171875e+01,4.791979217529296875e+01,2.988676643371582031e+01,1.086452636718750000e+02,9.418007659912109375e+01,-2.775505065917968750e+00,1.166222991943359375e+02,8.770228385925292969e+00,3.480780029296875000e+01,-1.537292938232421875e+02,6.622257232666015625e+01,1.191414108276367188e+02
7.199999690055847168e-02,1.000000000000000000e+00,-3.461087799072265625e+01,4.791417694091796875e+01,2.988705062866210938e+01,1.086440429687500000e+02,9.418058013916015625e+01,-2.775889158248901367e+00,1.166222991943359375e+02,8.770228385925292969e+00,3.480780029296875000e+01,-1.537292938232421875e+02,6.622257232666015625e+01,1.191414108276367188e+02
7.599999755620956421e-02,1.000000000000000000e+00,-3.461428070068359375e+01,4.790691375732421875e+01,2.988753509521484375e+01,1.086421051025390625e+02,9.418131256103515625e+01,-2.776500940322875977e+00,1.166222991943359375e+02,8.770228385925292969e+00,3.480780029296875000e+01,-1.537292938232421875e+02,6.622257232666015625e+01,1.191414108276367188e+02
7.999999821186065674e-02,1.000000000000000000e+00,-3.461825942993164062e+01,4.789789199829101562e+01,2.988829994201660156e+01,1.086391983032226562e+02,9.418235015869140625e+01,-2.777419090270996094e+00,1.166222991943359375e+02,8.770228385925292969e+00,3.480780029296875000e+01,-1.537292938232421875e+02,6.622257232666015625e+01,1.191414108276367188e+02
8.399999886751174927e-02,1.000000000000000000e+00,-3.462300872802734375e+01,4.788697433471679688e+01,2.988943099975585938e+01,1.086350402832031250e+02,9.418378448486328125e+01,-2.778735399246215820e+00,1.166222991943359375e+02,8.770228385925292969e+00,3.480780029296875000e+01,-1.537292938232421875e+02,6.622257232666015625e+01,1.191414108276367188e+02
8.799999952316284180e-02,1.000000000000000000e+00,-3.462877273559570312e+01,4.787397384643554688e+01,2.989102554321289062e+01,1.086292953491210938e+02,9.418569946289062500e+01,-2.780553102493286133e+00,1.166222991943359375e+02,8.770228385925292969e+00,3.480780029296875000e+01,-1.537292938232421875e+02,6.622257232666015625e+01,1.191414108276367188e+02
9.200000017881393433e-02,1.000000000000000000e+00,-3.463577270507812500e+01,4.785867309570312500e+01,2.989320182800292969e+01,1.086216125488281250e+02,9.418820190429687500e+01,-2.782988071441650391e+00,1.166222991943359375e+02,8.770228385925292969e+00,3.480780029296875000e+01,-1.537292938232421875e+02,6.622257232666015625e+01,1.191414108276367188e+02
9.600000083446502686e-02,1.000000000000000000e+00,-3.464414215087890625e+01,4.784093093872070312e+01,2.989608001708984375e+01,1.086115875244140625e+02,9.419139099121093750e+01,-2.786166191101074219e+00,1.166222991943359375e+02,8.770228385925292969e+00,3.480780029296875000e+01,-1.537292938232421875e+02,6.622257232666015625e+01,1.191414108276367188e+02
1.000000014901161194e-01,1.000000000000000000e+00,-3.465393829345703125e+01,4.782067489624023438e+01,2.989980888366699219e+01,1.085988159179687500e+02,9.419536590576171875e+01,-2.790216922760009766e+00,1.166222991943359375e+02,8.770228385925292969e+00,3.480780029296875000e+01,-1.537292938232421875e+02,6.622257232666015625e+01,1.191414108276367188e+02
1.040000021457672119e-01,1.000000000000000000e+00,-3.466519165039062500e+01,4.779781341552734375e+01,2.990451431274414062e+01,1.085829162597656250e+02,9.420021820068359375e+01,-2.795265674591064453e+00,1.166222991943359375e+02,8.770228385925292969e+00,3.480780029296875000e+01,-1.537292938232421875e+02,6.622257232666015625e+01,1.191414108276367188e+02
1.080000028014183044e-01,1.000000000000000000e+00,-3.467798233032226562e+01,4.777214431762695312e+01,2.991031455993652344e+01,1.085635147094726562e+02,9.420602416992187500e+01,-2.801424026489257812e+00,1.166222991943359375e+02,8.770228385925292969e+00,3.480780029296875000e+01,-1.537292938232421875e+02,6.622257232666015625e+01,1.191414108276367188e+02
1.120000034570693970e-01,1.000000000000000000e+00,-3.469245910644531250e+01,4.774338531494140625e+01,2.991729354858398438e+01,1.085403442382812500e+02,9.421287536621093750e+01,-2.808783769607543945e+00,1.166222991943359375e+02,8.770228385925292969e+00,3.480780029296875000e+01,-1.537292938232421875e+02,6.622257232666015625e+01,1.191414108276367188e+02
1.159999966621398926e-01,1.000000000000000000e+00,-3.470872879028320312e+01,4.771130752563476562e+01,2.992552757263183594e+01,1.085131912231445312e+02,9.422082519531250000e+01,-2.817414045333862305e+00,1.166222991943359375e+02,8.770228385925292969e+00,3.480780029296875000e+01,-1.537292938232421875e+02,6.622257232666015625e+01,1.191414108276367188e+02
1.199999973177909851e-01,1.000000000000000000e+00,-3.472686386108398438e+01,4.767578506469726562e+01,2.993505287170410156e+01,1.084818954467773438e+02,9.422992706298828125e+01,-2.827361106872558594e+00,1.166222991943359375e+02,8.770228385925292969e+00,3.480780029296875000e+01,-1.537292938232421875e+02,6.622257232666015625e+01,1.191414108276367188e+02
1.239999979734420776e-01,1.000000000000000000e+00,-3.474687194824218750e+01,4.763679122924804688e+01,2.994589996337890625e+01,1.084463882446289062e+02,9.424018859863281250e+01,-2.838646888732910156e+00,1.166222991943359375e+02,8.770228385925292969e+00,3.480780029296875000e+01,-1.537292938232421875e+02,6.622257232666015625e+01,1.191414108276367188e+02
1.280000060796737671e-01,1.000000000000000000e+00,-3.476874542236328125e+01,4.759437561035156250e+01,2.995805358886718750e+01,1.084066925048828125e+02,9.425160217285156250e+01,-2.851268768310546875e+00,1.166222991943359375e+02,8.770228385925292969e+00,3.480780029296875000e+01,-1.537292938232421875e+02,6.622257232666015625e+01,1.191414108276367188e+02
1.309999972581863403e-01,1.000000000000000000e+00,-3.479241561889648438e+01,4.754866027832031250e+01,2.997149276733398438e+01,1.083628845214843750e+02,9.426416015625000000e+01,-2.865197896957397461e+00,1.166222991943359375e+02,8.770228385925292969e+00,3.480780029296875000e+01,-1.537292938232421875e+02,6.622257232666015625e+01,1.191414108276367188e+02
1.360000073909759521e-01,1.000000000000000000e+00,-3.481779479980468750e+01,4.749982452392578125e+01,2.998616027832031250e+01,1.083151397705078125e+02,9.427778625488281250e+01,-2.880380153656005859e+00,1.166222991943359375e+02,8.770228385925292969e+00,3.480780029296875000e+01,-1.537292938232421875e+02,6.622257232666015625e+01,1.191414108276367188e+02
1.389999985694885254e-01,1.000000000000000000e+00,-3.484476852416992188e+01,4.744809341430664062e+01,3.000197601318359375e+01,1.082637176513671875e+02,9.429241943359375000e+01,-2.896734952926635742e+00,1.166222991943359375e+02,8.770228385925292969e+00,3.480780029296875000e+01,-1.537292938232421875e+02,6.622257232666015625e+01,1.191414108276367188e+02
1.439999938011169434e-01,1.000000000000000000e+00,-3.487325286865234375e+01,4.739358139038085938e+01,3.001883125305175781e+01,1.082089309692382812e+02,9.430799865722656250e+01,-2.914158344268798828e+00,1.166222991943359375e+02,8.770228385925292969e+00,3.480780029296875000e+01,-1.537292938232421875e+02,6.622257232666015625e+01,1.191414108276367188e+02
1.480000019073486328e-01,1.000000000000000000e+00,-3.490322875976562500e+01,4.733631134033203125e+01,3.003659439086914062e+01,1.081511764526367188e+02,9.432440948486328125e+01,-2.932528972625732422e+00,1.166222991943359375e+02,8.770228385925292969e+00,3.480780029296875000e+01,-1.537292938232421875e+02,6.622257232666015625e+01,1.191414108276367188e+02
1.519999951124191284e-01,1.000000000000000000e+00,-3.493466949462890625e+01,4.727637863159179688e+01,3.005513191223144531e+01,1.080908432006835938e+02,9.434157562255859375e+01,-2.951717376708984375e+00,1.166222991943359375e+02,8.770228385925292969e+00,3.480780029296875000e+01,-1.537292938232421875e+02,6.622257232666015625e+01,1.191414108276367188e+02
1.560000032186508179e-01,1.000000000000000000e+00,-3.496743774414062500e+01,4.721403503417968750e+01,3.007431411743164062e+01,1.080283355712890625e+02,9.435938262939453125e+01,-2.971595048904418945e+00,1.166222991943359375e+02,8.770228385925292969e+00,3.480780029296875000e+01,-1.537292938232421875e+02,6.622257232666015625e+01,1.191414108276367188e+02
1.599999964237213135e-01,1.000000000000000000e+00,-3.500129699707031250e+01,4.714960861206054688e+01,3.009401893615722656e+01,1.079640426635742188e+02,9.437773895263671875e+01,-2.992042064666748047e+00,1.166222991943359375e+02,8.770228385925292969e+00,3.480780029296875000e+01,-1.537292938232421875e+02,6.622257232666015625e+01,1.191414108276367188e+02
1.640000045299530029e-01,1.000000000000000000e+00,-3.503598403930664062e+01,4.708332824707031250e+01,3.011413955688476562e+01,1.078983001708984375e+02,9.439653015136718750e+01,-3.012947559356689453e+00,1.166222991943359375e+02,8.770228385925292969e+00,3.480780029296875000e+01,-1.537292938232421875e+02,6.622257232666015625e+01,1.191414108276367188e+02
1.679999977350234985e-01,1.000000000000000000e+00,-3.507129669189453125e+01,4.701533889770507812e+01,3.013458633422851562e+01,1.078314285278320312e+02,9.441567230224609375e+01,-3.034212350845336914e+00,1.166222991943359375e+02,8.770228385925292969e+00,3.480780029296875000e+01,-1.537292938232421875e+02,6.622257232666015625e+01,1.191414108276367188e+02
1.720000058412551880e-01,1.000000000000000000e+00,-3.510714721679687500e+01,4.694571685791015625e+01,3.015527153015136719e+01,1.077637100219726562e+02,9.443509674072265625e+01,-3.055748224258422852e+00,1.166222991943359375e+02,8.770228385925292969e+00,3.480780029296875000e+01,-1.537292938232421875e+02,6.622257232666015625e+01,1.191414108276367188e+02
1.759999990463256836e-01,1.000000000000000000e+00,-3.514355468750000000e+01,4.687450790405273438e+01,3.017612457275390625e+01,1.076953659057617188e+02,9.445472717285156250e+01,-3.077480316162109375e+00,1.166222991943359375e+02,8.770228385925292969e+00,3.480780029296875000e+01,-1.537292938232421875e+02,6.622257232666015625e+01,1.191414108276367188e+02
1.800000071525573730e-01,1.000000000000000000e+00,-3.518051910400390625e+01,4.680180358886718750e+01,3.019708251953125000e+01,1.076265945434570312e+02,9.447451019287109375e+01,-3.099345922470092773e+00,1.166222991943359375e+02,8.770228385925292969e+00,3.480780029296875000e+01,-1.537292938232421875e+02,6.622257232666015625e+01,1.191414108276367188e+02
1.840000003576278687e-01,1.000000000000000000e+00,-3.521804428100585938e+01,4.672777175903320312e+01,3.021810531616210938e+01,1.075575485229492188e+02,9.449440002441406250e+01,-3.121297121047973633e+00,1.166222991943359375e+02,8.770228385925292969e+00,3.480780029296875000e+01,-1.537292938232421875e+02,6.622257232666015625e+01,1.191414108276367188e+02
1.879999935626983643e-01,1.000000000000000000e+00,-3.525613403320312500e+01,4.665269470214843750e+01,3.023916053771972656e+01,1.074883575439453125e+02,9.451436614990234375e+01,-3.143298864364624023e+00,1.166222991943359375e+02,8.770228385925292969e+00,3.480780029296875000e+01,-1.537292938232421875e+02,6.622257232666015625e+01,1.191414108276367188e+02
1.920000016689300537e-01,1.000000000000000000e+00,-3.529476547241210938e+01,4.657688903808593750e+01,3.026023101806640625e+01,1.074190521240234375e+02,9.453437805175781250e+01,-3.165329456329345703e+00,1.166222991943359375e+02,8.770228385925292969e+00,3.480780029296875000e+01,-1.537292938232421875e+02,6.622257232666015625e+01,1.191414108276367188e+02
1.959999948740005493e-01,1.000000000000000000e+00,-3.533378982543945312e+01,4.650065994262695312e+01,3.028130912780761719e+01,1.073497009277343750e+02,9.455443572998046875e+01,-3.187377929687500000e+00,1.166222991943359375e+02,8.770228385925292969e+00,3.480780029296875000e+01,-1.537292938232421875e+02,6.622257232666015625e+01,1.191414108276367188e+02
2.000000029802322388e-01,1.000000000000000000e+00,-3.537301635742187500e+01,4.642424011230468750e+01,3.030239486694335938e+01,1.072803039550781250e+02,9.457450103759765625e+01,-3.209439039230346680e+00,1.166222991943359375e+02,8.770228385925292969e+00,3.480780029296875000e+01,-1.537292938232421875e+02,6.622257232666015625e+01,1.191414108276367188e+02
2.039999961853027344e-01,1.000000000000000000e+00,-3.541230773925781250e+01,4.634774780273437500e+01,3.032349205017089844e+01,1.072108764648437500e+02,9.459458160400390625e+01,-3.231512308120727539e+00,1.166222991943359375e+02,8.770228385925292969e+00,3.480780029296875000e+01,-1.537292938232421875e+02,6.622257232666015625e+01,1.191414108276367188e+02
2.080000042915344238e-01,1.000000000000000000e+00,-3.545162582397460938e+01,4.627121734619140625e+01,3.034460067749023438e+01,1.071414108276367188e+02,9.461466979980468750e+01,-3.253597497940063477e+00,1.166222991943359375e+02,8.770228385925292969e+00,3.480780029296875000e+01,-1.537292938232421875e+02,6.622257232666015625e+01,1.191414108276367188e+02
2.119999974966049194e-01,1.000000000000000000e+00,-3.549096298217773438e+01,4.619464111328125000e+01,3.036572074890136719e+01,1.070718994140625000e+02,9.463477325439453125e+01,-3.275694370269775391e+00,1.166222991943359375e+02,8.770228385925292969e+00,3.480780029296875000e+01,-1.537292938232421875e+02,6.622257232666015625e+01,1.191414108276367188e+02
2.160000056028366089e-01,1.000000000000000000e+00,-3.553032302856445312e+01,4.611802673339843750e+01,3.038685226440429688e+01,1.070023498535156250e+02,9.465488433837890625e+01,-3.297802925109863281e+00,1.166222991943359375e+02,8.770228385925292969e+00,3.480780029296875000e+01,-1.537292938232421875e+02,6.622257232666015625e+01,1.191414108276367188e+02
2.199999988079071045e-01,1.000000000000000000e+00,-3.556970214843750000e+01,4.604137039184570312e+01,3.040799522399902344e+01,1.069327697753906250e+02,9.467501068115234375e+01,-3.319923639297485352e+00,1.166222991943359375e+02,8.770228385925292969e+00,3.480780029296875000e+01,-1.537292938232421875e+02,6.622257232666015625e+01,1.191414108276367188e+02
2.240000069141387939e-01,1.000000000000000000e+00,-3.560910415649414062e+01,4.596467208862304688e+01,3.042914962768554688e+01,1.068631515502929688e+02,9.469514465332031250e+01,-3.342056035995483398e+00,1.166222991943359375e+02,8.770228385925292969e+00,3.480780029296875000e+01,-1.537292938232421875e+02,6.622257232666015625e+01,1.191414108276367188e+02
2.280000001192092896e-01,1.000000000000000000e+00,-3.564852523803710938e+01,4.588793182373046875e+01,3.045031547546386719e+01,1.067935028076171875e+02,9.471528625488281250e+01,-3.364200353622436523e+00,1.166222991943359375e+02,8.770228385925292969e+00,3.480780029296875000e+01,-1.537292938232421875e+02,6.622257232666015625e+01,1.191414108276367188e+02
2.319999933242797852e-01,1.000000000000000000e+00,-3.568796920776367188e+01,4.581115341186523438e+01,3.047149276733398438e+01,1.067238006591796875e+02,9.473544311523437500e+01,-3.386356592178344727e+00,1.166222991943359375e+02,8.770228385925292969e+00,3.480780029296875000e+01,-1.537292938232421875e+02,6.622257232666015625e+01,1.191414108276367188e+02
2.360000014305114746e-01,1.000000000000000000e+00,-3.572743225097656250e+01,4.573432922363281250e+01,3.049267959594726562e+01,1.066540756225585938e+02,9.475561523437500000e+01,-3.408524513244628906e+00,1.166222991943359375e+02,8.770228385925292969e+00,3.480780029296875000e+01,-1.537292938232421875e+02,6.622257232666015625e+01,1.191414108276367188e+02
2.399999946355819702e-01,1.000000000000000000e+00,-3.576692199707031250e+01,4.565746688842773438e+01,3.051387977600097656e+01,1.065843048095703125e+02,9.477578735351562500e+01,-3.430704832077026367e+00,1.166222991943359375e+02,8.770228385925292969e+00,3.480780029296875000e+01,-1.537292938232421875e+02,6.622257232666015625e+01,1.191414108276367188e+02
2.440000027418136597e-01,1.000000000000000000e+00,-3.580642700195312500e+01,4.558055877685546875e+01,3.053509140014648438e+01,1.065144958496093750e+02,9.479597473144531250e+01,-3.452896833419799805e+00,1.166222991943359375e+02,8.770228385925292969e+00,3.480780029296875000e+01,-1.537292938232421875e+02,6.622257232666015625e+01,1.191414108276367188e+02
2.479999959468841553e-01,1.000000000000000000e+00,-3.584595489501953125e+01,4.550361251831054688e+01,3.055631256103515625e+01,1.064446563720703125e+02,9.481617736816406250e+01,-3.475101232528686523e+00,1.166222991943359375e+02,8.770228385925292969e+00,3.480780029296875000e+01,-1.537292938232421875e+02,6.622257232666015625e+01,1.191414108276367188e+02
2.520000040531158447e-01,1.000000000000000000e+00,-3.588550567626953125e+01,4.542662048339843750e+01,3.057754898071289062e+01,1.063747711181640625e+02,9.483638763427734375e+01,-3.497317552566528320e+00,1.166222991943359375e+02,8.770228385925292969e+00,3.480780029296875000e+01,-1.537292938232421875e+02,6.622257232666015625e+01,1.191414108276367188e+02
2.560000121593475342e-01,1.000000000000000000e+00,-3.592507934570312500e+01,4.534959030151367188e+01,3.059879302978515625e+01,1.063048553466796875e+02,9.485661315917968750e+01,-3.519545793533325195e+00,1.166222991943359375e+02,8.770228385925292969e+00,3.480780029296875000e+01,-1.537292938232421875e+02,6.622257232666015625e+01,1.191414108276367188e+02
2.599999904632568359e-01,1.000000000000000000e+00,-3.596466827392578125e+01,4.527251815795898438e+01,3.062005233764648438e+01,1.062348937988281250e+02,9.487683868408203125e+01,-3.541786193847656250e+00,1.166222991943359375e+02,8.770228385925292969e+00,3.480780029296875000e+01,-1.537292938232421875e+02,6.622257232666015625e+01,1.191414108276367188e+02
2.639999985694885254e-01,1.000000000000000000e+00,-3.600428390502929688e+01,4.519540786743164062e+01,3.064132118225097656e+01,1.061648941040039062e+02,9.489708709716796875e+01,-3.564038515090942383e+00,1.166222991943359375e+02,8.770228385925292969e+00,3.480780029296875000e+01,-1.537292938232421875e+02,6.622257232666015625e+01,1.191414108276367188e+02
2.680000066757202148e-01,1.000000000000000000e+00,-3.604391860961914062e+01,4.511824798583984375e+01,3.066260147094726562e+01,1.060948562622070312e+02,9.491733551025390625e+01,-3.586303234100341797e+00,1.166222991943359375e+02,8.770228385925292969e+00,3.480780029296875000e+01,-1.537292938232421875e+02,6.622257232666015625e+01,1.191414108276367188e+02
2.720000147819519043e-01,1.000000000000000000e+00,-3.608357620239257812e+01,4.504104995727539062e+01,3.068389511108398438e+01,1.060247879028320312e+02,9.493759918212890625e+01,-3.608579874038696289e+00,1.166222991943359375e+02,8.770228385925292969e+00,3.480780029296875000e+01,-1.537292938232421875e+02,6.622257232666015625e+01,1.191414108276367188e+02
2.759999930858612061e-01,1.000000000000000000e+00,-3.612325668334960938e+01,4.496381378173828125e+01,3.070519828796386719e+01,1.059546737670898438e+02,9.495787811279296875e+01,-3.630868911743164062e+00,1.166222991943359375e+02,8.770228385925292969e+00,3.480780029296875000e+01,-1.537292938232421875e+02,6.622257232666015625e+01,1.191414108276367188e+02
2.800000011920928955e-01,1.000000000000000000e+00,-3.616295242309570312e+01,4.488652801513671875e+01,3.072651100158691406e+01,1.058845291137695312e+02,9.497816467285156250e+01,-3.653169870376586914e+00,1.166222991943359375e+02,8.770228385925292969e+00,3.480780029296875000e+01,-1.537292938232421875e+02,6.622257232666015625e+01,1.191414108276367188e+02
2.840000092983245850e-01,1.000000000000000000e+00,-3.620267868041992188e+01,4.480920410156250000e+01,3.074783897399902344e+01,1.058143463134765625e+02,9.499846649169921875e+01,-3.675482749938964844e+00,1.166222991943359375e+02,8.770228385925292969e+00,3.480780029296875000e+01,-1.537292938232421875e+02,6.622257232666015625e+01,1.191414108276367188e+02
2.879999876022338867e-01,1.000000000000000000e+00,-3.624242019653320312e+01,4.473183822631835938e+01,3.076918029785156250e+01,1.057441177368164062e+02,9.501876831054687500e+01,-3.697808027267456055e+00,1.166222991943359375e+02,8.770228385925292969e+00,3.480780029296875000e+01,-1.537292938232421875e+02,6.622257232666015625e+01,1.191414108276367188e+02
2.919999957084655762e-01,1.000000000000000000e+00,-3.628218460083007812e+01,4.465442657470703125e+01,3.079052734375000000e+01,1.056738510131835938e+02,9.503909301757812500e+01,-3.720145702362060547e+00,1.166222991943359375e+02,8.770228385925292969e+00,3.480780029296875000e+01,-1.537292938232421875e+02,6.622257232666015625e+01,1.191414108276367188e+02
2.960000038146972656e-01,1.000000000000000000e+00,-3.632197189331054688e+01,4.457697677612304688e+01,3.081188964843750000e+01,1.056035537719726562e+02,9.505942535400390625e+01,-3.742495536804199219e+00,1.166222991943359375e+02,8.770228385925292969e+00,3.480780029296875000e+01,-1.537292938232421875e+02,6.622257232666015625e+01,1.191414108276367188e+02
3.000000119209289551e-01,1.000000000000000000e+00,-3.636177825927734375e+01,4.449948501586914062e+01,3.083326339721679688e+01,1.055332031250000000e+02,9.507976531982421875e+01,-3.764857530593872070e+00,1.166222991943359375e+02,8.770228385925292969e+00,3.480780029296875000e+01,-1.537292938232421875e+02,6.622257232666015625e+01,1.191414108276367188e+02
3.039999902248382568e-01,1.000000000000000000e+00,-3.640161132812500000e+01,4.442194747924804688e+01,3.085464859008789062e+01,1.054628295898437500e+02,9.510012054443359375e+01,-3.787231922149658203e+00,1.166222991943359375e+02,8.770228385925292969e+00,3.480780029296875000e+01,-1.537292938232421875e+02,6.622257232666015625e+01,1.191414108276367188e+02
3.079999983310699463e-01,1.000000000000000000e+00,-3.644146347045898438e+01,4.434436798095703125e+01,3.087604904174804688e+01,1.053924102783203125e+02,9.512048339843750000e+01,-3.809618234634399414e+00,1.166222991943359375e+02,8.770228385925292969e+00,3.480780029296875000e+01,-1.537292938232421875e+02,6.622257232666015625e+01,1.191414108276367188e+02
3.120000064373016357e-01,1.000000000000000000e+00,-3.648133850097656250e+01,4.426674652099609375e+01,3.089745330810546875e+01,1.053219528198242188e+02,9.514086151123046875e+01,-3.832016944885253906e+00,1.166222991943359375e+02,8.770228385925292969e+00,3.480780029296875000e+01,-1.537292938232421875e+02,6.622257232666015625e+01,1.191414108276367188e+02
3.160000145435333252e-01,1.000000000000000000e+00,-3.652123260498046875e+01,4.418908309936523438e+01,3.091887664794921875e+01,1.052514572143554688e+02,9.516124725341796875e+01,-3.854428291320800781e+00,1.166222991943359375e+02,8.770228385925292969e+00,3.480780029296875000e+01,-1.537292938232421875e+02,6.622257232666015625e+01,1.191414108276367188e+02
3.199999928474426270e-01,1.000000000000000000e+00,-3.656115341186523438e+01,4.411137771606445312e+01,3.094030570983886719e+01,1.051809234619140625e+02,9.518164825439453125e+01,-3.876851797103881836e+00,1.166222991943359375e+02,8.770228385925292969e+00,3.480780029296875000e+01,-1.537292938232421875e+02,6.622257232666015625e+01,1.191414108276367188e+02
3.240000009536743164e-01,1.000000000000000000e+00,-3.660109329223632812e+01,4.403363037109375000e+01,3.096175384521484375e+01,1.051103515625000000e+02,9.520205688476562500e+01,-3.899287700653076172e+00,1.166222991943359375e+02,8.770228385925292969e+00,3.480780029296875000e+01,-1.537292938232421875e+02,6.622257232666015625e+01,1.191414108276367188e+02
3.280000090599060059e-01,1.000000000000000000e+00,-3.664105606079101562e+01,4.395583724975585938e+01,3.098320770263671875e+01,1.050397415161132812e+02,9.522248077392578125e+01,-3.921735525131225586e+00,1.166222991943359375e+02,8.770228385925292969e+00,3.480780029296875000e+01,-1.537292938232421875e+02,6.622257232666015625e+01,1.191414108276367188e+02
3.319999873638153076e-01,1.000000000000000000e+00,-3.668103790283203125e+01,4.387800216674804688e+01,3.100467491149902344e+01,1.049690856933593750e+02,9.524291229248046875e+01,-3.944195985794067383e+00,1.166222991943359375e+02,8.770228385925292969e+00,3.480780029296875000e+01,-1.537292938232421875e+02,6.622257232666015625e+01,1.191414108276367188e+02
3.359999954700469971e-01,1.000000000000000000e+00,-3.672104263305664062e+01,4.380012512207031250e+01,3.102615547180175781e+01,1.048983993530273438e+02,9.526335144042968750e+01,-3.966668605804443359e+00,1.166222991943359375e+02,8.770228385925292969e+00,3.480780029296875000e+01,-1.537292938232421875e+02,6.622257232666015625e+01,1.191414108276367188e+02
3.400000035762786865e-01,1.000000000000000000e+00,-3.676107406616210938e+01,4.372220230102539062e+01,3.104764556884765625e+01,1.048276748657226562e+02,9.528381347656250000e+01,-3.989154100418090820e+00,1.166222991943359375e+02,8.770228385925292969e+00,3.480780029296875000e+01,-1.537292938232421875e+02,6.622257232666015625e+01,1.191414108276367188e+02
3.440000116825103760e-01,1.000000000000000000e+00,-3.680112075805664062e+01,4.364424133300781250e+01,3.106915092468261719e+01,1.047569046020507812e+02,9.530428314208984375e+01,-4.011651515960693359e+00,1.166222991943359375e+02,8.770228385925292969e+00,3.480780029296875000e+01,-1.537292938232421875e+02,6.622257232666015625e+01,1.191414108276367188e+02
3.479999899864196777e-01,1.000000000000000000e+00,-3.684119415283203125e+01,4.356623077392578125e+01,3.109066581726074219e+01,1.046860961914062500e+02,9.532476043701171875e+01,-4.034161567687988281e+00,1.166222991943359375e+02,8.770228385925292969e+00,3.480780029296875000e+01,-1.537292938232421875e+02,6.622257232666015625e+01,1.191414108276367188e+02
3.519999980926513672e-01,1.000000000000000000e+00,-3.688128662109375000e+01,4.348818206787109375e+01,3.111219215393066406e+01,1.046152572631835938e+02,9.534523773193359375e+01,-4.056683540344238281e+00,1.166222991943359375e+02,8.770228385925292969e+00,3.480780029296875000e+01,-1.537292938232421875e+02,6.622257232666015625e+01,1.191414108276367188e+02
3.560000061988830566e-01,1.000000000000000000e+00,-3.692140579223632812e+01,4.341009140014648438e+01,3.113372993469238281e+01,1.045443649291992188e+02,9.536574554443359375e+01,-4.079218864440917969e+00,1.166222991943359375e+02,8.770228385925292969e+00,3.480780029296875000e+01,-1.537292938232421875e+02,6.622257232666015625e+01,1.191414108276367188e+02
3.600000143051147461e-01,1.000000000000000000e+00,-3.696154022216796875e+01,4.333195877075195312e+01,3.115527915954589844e+01,1.044734497070312500e+02,9.538625335693359375e+01,-4.101766109466552734e+00,1.166222991943359375e+02,8.770228385925292969e+00,3.480780029296875000e+01,-1.537292938232421875e+02,6.622257232666015625e+01,1.191414108276367188e+02
3.639999926090240479e-01,1.000000000000000000e+00,-3.700170516967773438e+01,4.325378036499023438e+01,3.117684364318847656e+01,1.044024810791015625e+02,9.540678405761718750e+01,-4.124325752258300781e+00,1.166222991943359375e+02,8.770228385925292969e+00,3.480780029296875000e+01,-1.537292938232421875e+02,6.622257232666015625e+01,1.191414108276367188e+02
3.680000007152557373e-01,1.000000000000000000e+00,-3.704188537597656250e+01,4.317555618286132812e+01,3.119841957092285156e+01,1.043314819335937500e+02,9.542731475830078125e+01,-4.146898269653320312e+00,1.166222991943359375e+02,8.770228385925292969e+00,3.480780029296875000e+01,-1.537292938232421875e+02,6.622257232666015625e+01,1.191414108276367188e+02
3.720000088214874268e-01,1.000000000000000000e+00,-3.708209228515625000e+01,4.309729003906250000e+01,3.122000694274902344e+01,1.042604446411132812e+02,9.544786071777343750e+01,-4.169482707977294922e+00,1.166222991943359375e+02,8.770228385925292969e+00,3.480780029296875000e+01,-1.537292938232421875e+02,6.622257232666015625e+01,1.191414108276367188e+02
3.759999871253967285e-01,1.000000000000000000e+00,-3.712232208251953125e+01,4.301898193359375000e+01,3.124160385131835938e+01,1.041893615722656250e+02,9.546841430664062500e+01,-4.192080020904541016e+00,1.166222991943359375e+02,8.770228385925292969e+00,3.480780029296875000e+01,-1.537292938232421875e+02,6.622257232666015625e+01,1.191414108276367188e+02
3.799999952316284180e-01,1.000000000000000000e+00,-3.716256713867187500e+01,4.294062805175781250e+01,3.126321411132812500e+01,1.041182403564453125e+02,9.548898315429687500e+01,-4.214689731597900391e+00,1.166222991943359375e+02,8.770228385925292969e+00,3.480780029296875000e+01,-1.537292938232421875e+02,6.622257232666015625e+01,1.191414108276367188e+02
3.840000033378601074e-01,1.000000000000000000e+00,-3.720284271240234375e+01,4.286223220825195312e+01,3.128483772277832031e+01,1.040470809936523438e+02,9.550955963134765625e+01,-4.237312316894531250e+00,1.166222991943359375e+02,8.770228385925292969e+00,3.480780029296875000e+01,-1.537292938232421875e+02,6.622257232666015625e+01,1.191414108276367188e+02
3.880000114440917969e-01,1.000000000000000000e+00,-3.724313735961914062e+01,4.278379058837890625e+01,3.130646896362304688e+01,1.039758758544921875e+02,9.553015136718750000e+01,-4.259947299957275391e+00,1.166222991943359375e+02,8.770228385925292969e+00,3.480780029296875000e+01,-1.537292938232421875e+02,6.622257232666015625e+01,1.191414108276367188e+02
3.919999897480010986e-01,1.000000000000000000e+00,-3.728345108032226562e+01,4.270530319213867188e+01,3.132811737060546875e+01,1.039046401977539062e+02,9.555075836181640625e+01,-4.282594680786132812e+00,1.166222991943359375e+02,8.770228385925292969e+00,3.480780029296875000e+01,-1.537292938232421875e+02,6.622257232666015625e+01,1.191414108276367188e+02
3.959999978542327881e-01,1.000000000000000000e+00,-3.732379150390625000e+01,4.262677764892578125e+01,3.134977722167968750e+01,1.038333587646484375e+02,9.557136535644531250e+01,-4.305254936218261719e+00,1.166222991943359375e+02,8.770228385925292969e+00,3.480780029296875000e+01,-1.537292938232421875e+02,6.622257232666015625e+01,1.191414108276367188e+02
4.000000059604644775e-01,1.000000000000000000e+00,-3.736415481567382812e+01,4.254820632934570312e+01,3.137144851684570312e+01,1.037620391845703125e+02,9.559199523925781250e+01,-4.327927589416503906e+00,1.166222991943359375e+02,8.770228385925292969e+00,3.480780029296875000e+01,-1.537292938232421875e+02,6.622257232666015625e+01,1.191414108276367188e+02
4.040000140666961670e-01,1.000000000000000000e+00,-3.740453720092773438e+01,4.246958923339843750e+01,3.139313125610351562e+01,1.036906814575195312e+02,9.561263275146484375e+01,-4.350612640380859375e+00,1.166222991943359375e+02,8.770228385925292969e+00,3.480780029296875000e+01,-1.537292938232421875e+02,6.622257232666015625e+01,1.191414108276367188e+02
4.079999923706054688e-01,1.000000000000000000e+00,-3.744494628906250000e+01,4.239093017578125000e+01,3.141482353210449219e+01,1.036192855834960938e+02,9.563328552246093750e+01,-4.373311042785644531e+00,1.166222991943359375e+02,8.770228385925292969e+00,3.480780029296875000e+01,-1.537292938232421875e+02,6.622257232666015625e+01,1.191414108276367188e+02
4.120000004768371582e-01,1.000000000000000000e+00,-3.748537445068359375e+01,4.231222534179687500e+01,3.143652915954589844e+01,1.035478515625000000e+02,9.565393829345703125e+01,-4.396021842956542969e+00,1.166222991943359375e+02,8.770228385925292969e+00,3.480780029296875000e+01,-1.537292938232421875e+02,6.622257232666015625e+01,1.191414108276367188e+02
4.160000085830688477e-01,1.000000000000000000e+00,-3.752582550048828125e+01,4.223347854614257812e+01,3.145825004577636719e+01,1.034763717651367188e+02,9.567461395263671875e+01,-4.418745040893554688e+00,1.166222991943359375e+02,8.770228385925292969e+00,3.480780029296875000e+01,-1.537292938232421875e+02,6.622257232666015625e+01,1.191414108276367188e+02
4.199999868869781494e-01,1.000000000000000000e+00,-3.756629943847656250e+01,4.215468597412109375e+01,3.147998046875000000e+01,1.034048538208007812e+02,9.569529724121093750e+01,-4.441480636596679688e+00,1.166222991943359375e+02,8.770228385925292969e+00,3.480780029296875000e+01,-1.537292938232421875e+02,6.622257232666015625e+01,1.191414108276367188e+02
4.239999949932098389e-01,1.000000000000000000e+00,-3.760679626464843750e+01,4.207585144042968750e+01,3.150172424316406250e+01,1.033332977294921875e+02,9.571598815917968750e+01,-4.464229583740234375e+00,1.166222991943359375e+02,8.770228385925292969e+00,3.480780029296875000e+01,-1.537292938232421875e+02,6.622257232666015625e+01,1.191414108276367188e+02
4.280000030994415283e-01,1.000000000000000000e+00,-3.764731597900390625e+01,4.199697113037109375e+01,3.152347755432128906e+01,1.032616958618164062e+02,9.573670196533203125e+01,-4.486990928649902344e+00,1.166222991943359375e+02,8.770228385925292969e+00,3.480780029296875000e+01,-1.537292938232421875e+02,6.622257232666015625e+01,1.191414108276367188e+02
4.320000112056732178e-01,1.000000000000000000e+00,-3.768785858154296875e+01,4.191804504394531250e+01,3.154524612426757812e+01,1.031900634765625000e+02,9.575741577148437500e+01,-4.509765148162841797e+00,1.166222991943359375e+02,8.770228385925292969e+00,3.480780029296875000e+01,-1.537292938232421875e+02,6.622257232666015625e+01,1.191414108276367188e+02
4.359999895095825195e-01,1.000000000000000000e+00,-3.772842025756835938e+01,4.183908081054687500e+01,3.156702804565429688e+01,1.031183853149414062e+02,9.577814483642578125e+01,-4.532552242279052734e+00,1.166222991943359375e+02,8.770228385925292969e+00,3.480780029296875000e+01,-1.537292938232421875e+02,6.622257232666015625e+01,1.191414108276367188e+02
4.399999976158142090e-01,1.000000000000000000e+00,-3.776900863647460938e+01,4.176006698608398438e+01,3.158881950378417969e+01,1.030466690063476562e+02,9.579888153076171875e+01,-4.555351734161376953e+00,1.166222991943359375e+02,8.770228385925292969e+00,3.480780029296875000e+01,-1.537292938232421875e+02,6.622257232666015625e+01,1.191414108276367188e+02
4.440000057220458984e-01,1.000000000000000000e+00,-3.780961990356445312e+01,4.168100738525390625e+01,3.161062431335449219e+01,1.029749145507812500e+02,9.581964111328125000e+01,-4.578164100646972656e+00,1.166222991943359375e+02,8.770228385925292969e+00,3.480780029296875000e+01,-1.537292938232421875e+02,6.622257232666015625e+01,1.191414108276367188e+02
4.480000138282775879e-01,1.000000000000000000e+00,-3.785025024414062500e+01,4.160190582275390625e+01,3.163244056701660156e+01,1.029031143188476562e+02,9.584040069580078125e+01,-4.600989341735839844e+00,1.166222991943359375e+02,8.770228385925292969e+00,3.480780029296875000e+01,-1.537292938232421875e+02,6.622257232666015625e+01,1.191414108276367188e+02
4.519999921321868896e-01,1.000000000000000000e+00,-3.789090728759765625e+01,4.152276229858398438e+01,3.165427017211914062e+01,1.028312759399414062e+02,9.586118316650390625e+01,-4.623827457427978516e+00,1.166222991943359375e+02,8.770228385925292969e+00,3.480780029296875000e+01,-1.537292938232421875e+02,6.622257232666015625e+01,1.191414108276367188e+02
4.560000002384185791e-01,1.000000000000000000e+00,-3.793158721923828125e+01,4.144357299804687500e+01,3.167610931396484375e+01,1.027593917846679688e+02,9.588196563720703125e+01,-4.646678447723388672e+00,1.166222991943359375e+02,8.770228385925292969e+00,3.480780029296875000e+01,-1.537292938232421875e+02,6.622257232666015625e+01,1.191414108276367188e+02
4.600000083446502686e-01,1.000000000000000000e+00,-3.797229003906250000e+01,4.136433792114257812e+01,3.169796180725097656e+01,1.026874771118164062e+02,9.590276336669921875e+01,-4.669542312622070312e+00,1.166222991943359375e+02,8.770228385925292969e+00,3.480780029296875000e+01,-1.537292938232421875e+02,6.622257232666015625e+01,1.191414108276367188e+02
4.639999866485595703e-01,1.000000000000000000e+00,-3.801301193237304688e+01,4.128505706787109375e+01,3.171982955932617188e+01,1.026155166625976562e+02,9.592357635498046875e+01,-4.692418575286865234e+00,1.166222991943359375e+02,8.770228385925292969e+00,3.480780029296875000e+01,-1.537292938232421875e+02,6.622257232666015625e+01,1.191414108276367188e+02
4.679999947547912598e-01,1.000000000000000000e+00,-3.805376052856445312e+01,4.120573425292968750e+01,3.174170684814453125e+01,1.025435180664062500e+02,9.594439697265625000e+01,-4.715308189392089844e+00,1.166222991943359375e+02,8.770228385925292969e+00,3.480780029296875000e+01,-1.537292938232421875e+02,6.622257232666015625e+01,1.191414108276367188e+02
4.720000028610229492e-01,1.000000000000000000e+00,-3.809453201293945312e+01,4.112636566162109375e+01,3.176359748840332031e+01,1.024714736938476562e+02,9.596523284912109375e+01,-4.738210678100585938e+00,1.166222991943359375e+02,8.770228385925292969e+00,3.480780029296875000e+01,-1.537292938232421875e+02,6.622257232666015625e+01,1.191414108276367188e+02
4.760000109672546387e-01,1.000000000000000000e+00,-3.813532257080078125e+01,4.104695129394531250e+01,3.178549766540527344e+01,1.023993911743164062e+02,9.598607635498046875e+01,-4.761126041412353516e+00,1.166222991943359375e+02,8.770228385925292969e+00,3.480780029296875000e+01,-1.537292938232421875e+02,6.622257232666015625e+01,1.191414108276367188e+02
4.799999892711639404e-01,1.000000000000000000e+00,-3.817613983154296875e+01,4.096749496459960938e+01,3.180741310119628906e+01,1.023272705078125000e+02,9.600693511962890625e+01,-4.784054279327392578e+00,1.166222991943359375e+02,8.770228385925292969e+00,3.480780029296875000e+01,-1.537292938232421875e+02,6.622257232666015625e+01,1.191414108276367188e+02
4.839999973773956299e-01,1.000000000000000000e+00,-3.821697998046875000e+01,4.088799285888671875e+01,3.182934188842773438e+01,1.022551040649414062e+02,9.602780914306640625e+01,-4.806994915008544922e+00,1.166222991943359375e+02,8.770228385925292969e+00,3.480780029296875000e+01,-1.537292938232421875e+02,6.622257232666015625e+01,1.191414108276367188e+02
4.880000054836273193e-01,1.000000000000000000e+00,-3.825784301757812500e+01,4.080844497680664062e+01,3.185128021240234375e+01,1.021828994750976562e+02,9.604869079589843750e+01,-4.829948902130126953e+00,1.166222991943359375e+02,8.770228385925292969e+00,3.480780029296875000e+01,-1.537292938232421875e+02,6.622257232666015625e+01,1.191414108276367188e+02
4.920000135898590088e-01,1.000000000000000000e+00,-3.829872512817382812e+01,4.072885131835937500e+01,3.187323188781738281e+01,1.021106567382812500e+02,9.606958007812500000e+01,-4.852916717529296875e+00,1.166222991943359375e+02,8.770228385925292969e+00,3.480780029296875000e+01,-1.537292938232421875e+02,6.622257232666015625e+01,1.191414108276367188e+02
4.959999918937683105e-01,1.000000000000000000e+00,-3.833963394165039062e+01,4.064921569824218750e+01,3.189519691467285156e+01,1.020383758544921875e+02,9.609048461914062500e+01,-4.875896453857421875e+00,1.166222991943359375e+02,8.770228385925292969e+00,3.480780029296875000e+01,-1.537292938232421875e+02,6.622257232666015625e+01,1.191414108276367188e+02
5.000000000000000000e-01,1.000000000000000000e+00,-3.838056945800781250e+01,4.056953048706054688e+01,3.191717338562011719e+01,1.019660491943359375e+02,9.611140441894531250e+01,-4.898889541625976562e+00,1.166222991943359375e+02,8.770228385925292969e+00,3.480780029296875000e+01,-1.537292938232421875e+02,6.622257232666015625e+01,1.191414108276367188e+02
5.040000081062316895e-01,1.000000000000000000e+00,-3.842152023315429688e+01,4.048979949951171875e+01,3.193916320800781250e+01,1.018936843872070312e+02,9.613233184814453125e+01,-4.921895503997802734e+00,1.166222991943359375e+02,8.770228385925292969e+00,3.480780029296875000e+01,-1.537292938232421875e+02,6.622257232666015625e+01,1.191414108276367188e+02
5.080000162124633789e-01,1.000000000000000000e+00,-3.846250152587890625e+01,4.041002655029296875e+01,3.196116447448730469e+01,1.018212738037109375e+02,9.615327453613281250e+01,-4.944914817810058594e+00,1.166222991943359375e+02,8.770228385925292969e+00,3.480780029296875000e+01,-1.537292938232421875e+02,6.622257232666015625e+01,1.191414108276367188e+02
5.120000243186950684e-01,1.000000000000000000e+00,-3.850350189208984375e+01,4.033020019531250000e+01,3.198317718505859375e+01,1.017488250732421875e+02,9.617422485351562500e+01,-4.967947006225585938e+00,1.166222991943359375e+02,8.770228385925292969e+00,3.480780029296875000e+01,-1.537292938232421875e+02,6.622257232666015625e+01,1.191414108276367188e+02
5.159999728202819824e-01,1.000000000000000000e+00,-3.854452514648437500e+01,4.025033569335937500e+01,3.200520324707031250e+01,1.016763381958007812e+02,9.619519042968750000e+01,-4.990992069244384766e+00,1.166222991943359375e+02,8.770228385925292969e+00,3.480780029296875000e+01,-1.537292938232421875e+02,6.622257232666015625e+01,1.191414108276367188e+02
5.199999809265136719e-01,1.000000000000000000e+00,-3.858557510375976562e+01,4.017042160034179688e+01,3.202724456787109375e+01,1.016038055419921875e+02,9.621616363525390625e+01,-5.014050483703613281e+00,1.166222991943359375e+02,8.770228385925292969e+00,3.480780029296875000e+01,-1.537292938232421875e+02,6.622257232666015625e+01,1.191414108276367188e+02
5.239999890327453613e-01,1.000000000000000000e+00,-3.862664794921875000e+01,4.009046554565429688e+01,3.204929733276367188e+01,1.015312271118164062e+02,9.623715209960937500e+01,-5.037121772766113281e+00,1.166222991943359375e+02,8.770228385925292969e+00,3.480780029296875000e+01,-1.537292938232421875e+02,6.622257232666015625e+01,1.191414108276367188e+02
5.279999971389770508e-01,1.000000000000000000e+00,-3.866774749755859375e+01,4.001045989990234375e+01,3.207136154174804688e+01,1.014586181640625000e+02,9.625815582275390625e+01,-5.060206890106201172e+00,1.166222991943359375e+02,8.770228385925292969e+00,3.480780029296875000e+01,-1.537292938232421875e+02,6.622257232666015625e+01,1.191414108276367188e+02
5.320000052452087402e-01,1.000000000000000000e+00,-3.870886611938476562e+01,3.993040466308593750e+01,3.209343719482421875e+01,1.013859634399414062e+02,9.627916717529296875e+01,-5.083304882049560547e+00,1.166222991943359375e+02,8.770228385925292969e+00,3.480780029296875000e+01,-1.537292938232421875e+02,6.622257232666015625e+01,1.191414108276367188e+02
5.360000133514404297e-01,1.000000000000000000e+00,-3.875001144409179688e+01,3.985030746459960938e+01,3.211552429199218750e+01,1.013132629394531250e+02,9.630019378662109375e+01,-5.106415748596191406e+00,1.166222991943359375e+02,8.770228385925292969e+00,3.480780029296875000e+01,-1.537292938232421875e+02,6.622257232666015625e+01,1.191414108276367188e+02
5.400000214576721191e-01,1.000000000000000000e+00,-3.879117584228515625e+01,3.977016830444335938e+01,3.213762664794921875e+01,1.012405242919921875e+02,9.632122802734375000e+01,-5.129539966583251953e+00,1.166222991943359375e+02,8.770228385925292969e+00,3.480780029296875000e+01,-1.537292938232421875e+02,6.622257232666015625e+01,1.191414108276367188e+02
5.440000295639038086e-01,1.000000000000000000e+00,-3.883236694335937500e+01,3.968997573852539062e+01,3.215974426269531250e+01,1.011677474975585938e+02,9.634227752685546875e+01,-5.152677536010742188e+00,1.166222991943359375e+02,8.770228385925292969e+00,3.480780029296875000e+01,-1.537292938232421875e+02,6.622257232666015625e+01,1.191414108276367188e+02
5.479999780654907227e-01,1.000000000000000000e+00,-3.887358093261718750e+01,3.960974121093750000e+01,3.218186950683593750e+01,1.010949249267578125e+02,9.636333465576171875e+01,-5.175828456878662109e+00,1.166222991943359375e+02,8.770228385925292969e+00,3.480780029296875000e+01,-1.537292938232421875e+02,6.622257232666015625e+01,1.191414108276367188e+02
5.519999861717224121e-01,1.000000000000000000e+00,-3.891481781005859375e+01,3.952946090698242188e+01,3.220401382446289062e+01,1.010220565795898438e+02,9.638440704345703125e+01,-5.198993206024169922e+00,1.166222991943359375e+02,8.770228385925292969e+00,3.480780029296875000e+01,-1.537292938232421875e+02,6.622257232666015625e+01,1.191414108276367188e+02
5.559999942779541016e-01,1.000000000000000000e+00,-3.895608520507812500e+01,3.944913101196289062e+01,3.222616577148437500e+01,1.009491500854492188e+02,9.640549468994140625e+01,-5.222170829772949219e+00,1.166222991943359375e+02,8.770228385925292969e+00,3.480780029296875000e+01,-1.537292938232421875e+02,6.622257232666015625e+01,1.191414108276367188e+02
5.600000023841857910e-01,1.000000000000000000e+00,-3.899736785888671875e+01,3.936875534057617188e+01,3.224833297729492188e+01,1.008761978149414062e+02,9.642658996582031250e+01,-5.245362281799316406e+00,1.166222991943359375e+02,8.770228385925292969e+00,3.480780029296875000e+01,-1.537292938232421875e+02,6.622257232666015625e+01,1.191414108276367188e+02
5.640000104904174805e-01,1.000000000000000000e+00,-3.903867721557617188e+01,3.928833389282226562e+01,3.227051162719726562e+01,1.008032150268554688e+02,9.644770050048828125e+01,-5.268566131591796875e+00,1.166222991943359375e+02,8.770228385925292969e+00,3.480780029296875000e+01,-1.537292938232421875e+02,6.622257232666015625e+01,1.191414108276367188e+02
5.680000185966491699e-01,1.000000000000000000e+00,-3.908000946044921875e+01,3.920786666870117188e+01,3.229270553588867188e+01,1.007301788330078125e+02,9.646881866455078125e+01,-5.291784763336181641e+00,1.166222991943359375e+02,8.770228385925292969e+00,3.480780029296875000e+01,-1.537292938232421875e+02,6.622257232666015625e+01,1.191414108276367188e+02
5.720000267028808594e-01,1.000000000000000000e+00,-3.912136840820312500e+01,3.912735366821289062e+01,3.231490707397460938e+01,1.006570968627929688e+02,9.648995208740234375e+01,-5.315016269683837891e+00,1.166222991943359375e+02,8.770228385925292969e+00,3.480780029296875000e+01,-1.537292938232421875e+02,6.622257232666015625e+01,1.191414108276367188e+02
5.759999752044677734e-01,1.000000000000000000e+00,-3.916274642944335938e+01,3.904678726196289062e+01,3.233712387084960938e+01,1.005839843750000000e+02,9.651110076904296875e+01,-5.338261127471923828e+00,1.166222991943359375e+02,8.770228385925292969e+00,3.480780029296875000e+01,-1.537292938232421875e+02,6.622257232666015625e+01,1.191414108276367188e+02
5.799999833106994629e-01,1.000000000000000000e+00,-3.920415115356445312e+01,3.896617126464843750e+01,3.235935592651367188e+01,1.005108184814453125e+02,9.653225708007812500e+01,-5.361519813537597656e+00,1.166222991943359375e+02,8.770228385925292969e+00,3.480780029296875000e+01,-1.537292938232421875e+02,6.622257232666015625e+01,1.191414108276367188e+02
5.839999914169311523e-01,1.000000000000000000e+00,-3.924558258056640625e+01,3.888550949096679688e+01,3.238159942626953125e+01,1.004376220703125000e+02,9.655343627929687500e+01,-5.384791851043701172e+00,1.166222991943359375e+02,8.770228385925292969e+00,3.480780029296875000e+01,-1.537292938232421875e+02,6.622257232666015625e+01,1.191414108276367188e+02
5.879999995231628418e-01,1.000000000000000000e+00,-3.928703308105468750e+01,3.880480194091796875e+01,3.240385437011718750e+01,1.003643722534179688e+02,9.657461547851562500e+01,-5.408077239990234375e+00,1.166222991943359375e+02,8.770228385925292969e+00,3.480780029296875000e+01,-1.537292938232421875e+02,6.622257232666015625e+01,1.191414108276367188e+02
5.920000076293945312e-01,1.000000000000000000e+00,-3.932851028442382812e+01,3.872404479980468750e+01,3.242612457275390625e+01,1.002910842895507812e+02,9.659580993652343750e+01,-5.431376934051513672e+00,1.166222991943359375e+02,8.770228385925292969e+00,3.480780029296875000e+01,-1.537292938232421875e+02,6.622257232666015625e+01,1.191414108276367188e+02
5.960000157356262207e-01,1.000000000000000000e+00,-3.937001037597656250e+01,3.864324188232421875e+01,3.244841003417968750e+01,1.002177505493164062e+02,9.661701202392578125e+01,-5.454689502716064453e+00,1.166222991943359375e+02,8.770228385925292969e+00,3.480780029296875000e+01,-1.537292938232421875e+02,6.622257232666015625e+01,1.191414108276367188e+02
6.000000238418579102e-01,1.000000000000000000e+00,-3.941153717041015625e+01,3.856238555908203125e+01,3.247070312500000000e+01,1.001443786621093750e+02,9.663823699951171875e+01,-5.478015899658203125e+00,1.166222991943359375e+02,8.770228385925292969e+00,3.480780029296875000e+01,-1.537292938232421875e+02,6.622257232666015625e+01,1.191414108276367188e+02
6.039999723434448242e-01,1.000000000000000000e+00,-3.945308685302734375e+01,3.848147964477539062e+01,3.249301147460937500e+01,1.000709609985351562e+02,9.665946960449218750e+01,-5.501355648040771484e+00,1.166222991943359375e+02,8.770228385925292969e+00,3.480780029296875000e+01,-1.537292938232421875e+02,6.622257232666015625e+01,1.191414108276367188e+02
6.079999804496765137e-01,1.000000000000000000e+00,-3.949465560913085938e+01,3.840052795410156250e+01,3.251533126831054688e+01,9.999750518798828125e+01,9.668071746826171875e+01,-5.524709224700927734e+00,1.166222991943359375e+02,8.770228385925292969e+00,3.480780029296875000e+01,-1.537292938232421875e+02,6.622257232666015625e+01,1.191414108276367188e+02
6.119999885559082031e-01,1.000000000000000000e+00,-3.953625488281250000e+01,3.831952667236328125e+01,3.253766632080078125e+01,9.992399597167968750e+01,9.670197296142578125e+01,-5.548076629638671875e+00,1.166222991943359375e+02,8.770228385925292969e+00,3.480780029296875000e+01,-1.537292938232421875e+02,6.622257232666015625e+01,1.191414108276367188e+02
6.159999966621398926e-01,1.000000000000000000e+00,-3.957788085937500000e+01,3.823848342895507812e+01,3.256001281738281250e+01,9.985044860839843750e+01,9.672324371337890625e+01,-5.571456909179687500e+00,1.166222991943359375e+02,8.770228385925292969e+00,3.480780029296875000e+01,-1.537292938232421875e+02,6.622257232666015625e+01,1.191414108276367188e+02
6.200000047683715820e-01,1.000000000000000000e+00,-3.961952590942382812e+01,3.815739440917968750e+01,3.258237457275390625e+01,9.977686309814453125e+01,9.674452209472656250e+01,-5.594851970672607422e+00,1.166222991943359375e+02,8.770228385925292969e+00,3.480780029296875000e+01,-1.537292938232421875e+02,6.622257232666015625e+01,1.191414108276367188e+02
6.240000128746032715e-01,1.000000000000000000e+00,-3.966119384765625000e+01,3.807627105712890625e+01,3.260474777221679688e+01,9.970323181152343750e+01,9.676581573486328125e+01,-5.618259906768798828e+00,1.166222991943359375e+02,8.770228385925292969e+00,3.480780029296875000e+01,-1.537292938232421875e+02,6.622257232666015625e+01,1.191414108276367188e+02
6.280000209808349609e-01,1.000000000000000000e+00,-3.970289230346679688e+01,3.799510192871093750e+01,3.262713623046875000e+01,9.962956237792968750e+01,9.678713226318359375e+01,-5.641681671142578125e+00,1.166222991943359375e+02,8.770228385925292969e+00,3.480780029296875000e+01,-1.537292938232421875e+02,6.622257232666015625e+01,1.191414108276367188e+02
6.320000290870666504e-01,1.000000000000000000e+00,-3.974460983276367188e+01,3.791388702392578125e+01,3.264953231811523438e+01,9.955583953857421875e+01,9.680844879150390625e+01,-5.665116786956787109e+00,1.166222991943359375e+02,8.770228385925292969e+00,3.480780029296875000e+01,-1.537292938232421875e+02,6.622257232666015625e+01,1.191414108276367188e+02
6.359999775886535645e-01,1.000000000000000000e+00,-3.978635406494140625e+01,3.783263015747070312e+01,3.267194747924804688e+01,9.948207855224609375e+01,9.682977294921875000e+01,-5.688566207885742188e+00,1.166222991943359375e+02,8.770228385925292969e+00,3.480780029296875000e+01,-1.537292938232421875e+02,6.622257232666015625e+01,1.191414108276367188e+02
6.399999856948852539e-01,1.000000000000000000e+00,-3.982812118530273438e+01,3.775132369995117188e+01,3.269437408447265625e+01,9.940827178955078125e+01,9.685111999511718750e+01,-5.712028980255126953e+00,1.166222991943359375e+02,8.770228385925292969e+00,3.480780029296875000e+01,-1.537292938232421875e+02,6.622257232666015625e+01,1.191414108276367188e+02
6.439999938011169434e-01,1.000000000000000000e+00,-3.986991500854492188e+01,3.766996765136718750e+01,3.271681213378906250e+01,9.933442687988281250e+01,9.687248229980468750e+01,-5.735506057739257812e+00,1.166222991943359375e+02,8.770228385925292969e+00,3.480780029296875000e+01,-1.537292938232421875e+02,6.622257232666015625e+01,1.191414108276367188e+02
6.480000019073486328e-01,1.000000000000000000e+00,-3.991173171997070312e+01,3.758856582641601562e+01,3.273926162719726562e+01,9.926053619384765625e+01,9.689385223388671875e+01,-5.758996009826660156e+00,1.166222991943359375e+02,8.770228385925292969e+00,3.480780029296875000e+01,-1.537292938232421875e+02,6.622257232666015625e+01,1.191414108276367188e+02
6.520000100135803223e-01,1.000000000000000000e+00,-3.995357513427734375e+01,3.750711822509765625e+01,3.276173019409179688e+01,9.918659973144531250e+01,9.691522979736328125e+01,-5.782500267028808594e+00,1.166222991943359375e+02,8.770228385925292969e+00,3.480780029296875000e+01,-1.537292938232421875e+02,6.622257232666015625e+01,1.191414108276367188e+02
6.560000181198120117e-01,1.000000000000000000e+00,-3.999544143676757812e+01,3.742562103271484375e+01,3.278421020507812500e+01,9.911263275146484375e+01,9.693662261962890625e+01,-5.806018352508544922e+00,1.166222991943359375e+02,8.770228385925292969e+00,3.480780029296875000e+01,-1.537292938232421875e+02,6.622257232666015625e+01,1.191414108276367188e+02
6.600000262260437012e-01,1.000000000000000000e+00,-4.003733062744140625e+01,3.734407806396484375e+01,3.280670166015625000e+01,9.903860473632812500e+01,9.695803070068359375e+01,-5.829549789428710938e+00,1.166222991943359375e+02,8.770228385925292969e+00,3.480780029296875000e+01,-1.537292938232421875e+02,6.622257232666015625e+01,1.191414108276367188e+02
6.639999747276306152e-01,1.000000000000000000e+00,-4.007924652099609375e+01,3.726248168945312500e+01,3.282920074462890625e+01,9.896454620361328125e+01,9.697945404052734375e+01,-5.853095054626464844e+00,1.166222991943359375e+02,8.770228385925292969e+00,3.480780029296875000e+01,-1.537292938232421875e+02,6.622257232666015625e+01,1.191414108276367188e+02
6.679999828338623047e-01,1.000000000000000000e+00,-4.012118530273437500e+01,3.718084335327148438e+01,3.285172271728515625e+01,9.889043426513671875e+01,9.700087738037109375e+01,-5.876654148101806641e+00,1.166222991943359375e+02,8.770228385925292969e+00,3.480780029296875000e+01,-1.537292938232421875e+02,6.622257232666015625e+01,1.191414108276367188e+02
6.719999909400939941e-01,1.000000000000000000e+00,-4.016314697265625000e+01,3.709915161132812500e+01,3.287425231933593750e+01,9.881629180908203125e+01,9.702232360839843750e+01,-5.900227546691894531e+00,1.166222991943359375e+02,8.770228385925292969e+00,3.480780029296875000e+01,-1.537292938232421875e+02,6.622257232666015625e+01,1.191414108276367188e+02
6.759999990463256836e-01,1.000000000000000000e+00,-4.020513534545898438e+01,3.701741790771484375e+01,3.289679718017578125e+01,9.874209594726562500e+01,9.704378509521484375e+01,-5.923814773559570312e+00,1.166222991943359375e+02,8.770228385925292969e+00,3.480780029296875000e+01,-1.537292938232421875e+02,6.622257232666015625e+01,1.191414108276367188e+02
6.800000071525573730e-01,1.000000000000000000e+00,-4.024715423583984375e+01,3.693563079833984375e+01,3.291935348510742188e+01,9.866785430908203125e+01,9.706525421142578125e+01,-5.947414875030517578e+00,1.166222991943359375e+02,8.770228385925292969e+00,3.480780029296875000e+01,-1.537292938232421875e+02,6.622257232666015625e+01,1.191414108276367188e+02
6.840000152587890625e-01,1.000000000000000000e+00,-4.028918838500976562e+01,3.685379791259765625e+01,3.294192504882812500e+01,9.859357452392578125e+01,9.708673095703125000e+01,-5.971029758453369141e+00,1.166222991943359375e+02,8.770228385925292969e+00,3.480780029296875000e+01,-1.537292938232421875e+02,6.622257232666015625e+01,1.191414108276367188e+02
6.880000233650207520e-01,1.000000000000000000e+00,-4.033125305175781250e+01,3.677191925048828125e+01,3.296451187133789062e+01,9.851924896240234375e+01,9.710823059082031250e+01,-5.994657993316650391e+00,1.166222991943359375e+02,8.770228385925292969e+00,3.480780029296875000e+01,-1.537292938232421875e+02,6.622257232666015625e+01,1.191414108276367188e+02
6.919999718666076660e-01,1.000000000000000000e+00,-4.037334060668945312e+01,3.668999099731445312e+01,3.298710632324218750e+01,9.844488525390625000e+01,9.712973785400390625e+01,-6.018301010131835938e+00,1.166222991943359375e+02,8.770228385925292969e+00,3.480780029296875000e+01,-1.537292938232421875e+02,6.622257232666015625e+01,1.191414108276367188e+02
6.959999799728393555e-01,1.000000000000000000e+00,-4.041545104980468750e+01,3.660801315307617188e+01,3.300971603393554688e+01,9.837046813964843750e+01,9.715126037597656250e+01,-6.041957378387451172e+00,1.166222991943359375e+02,8.770228385925292969e+00,3.480780029296875000e+01,-1.537292938232421875e+02,6.622257232666015625e+01,1.191414108276367188e+02
6.999999880790710449e-01,1.000000000000000000e+00,-4.045758819580078125e+01,3.652598571777343750e+01,3.303234100341796875e+01,9.829601287841796875e+01,9.717279052734375000e+01,-6.065627098083496094e+00,1.166222991943359375e+02,8.770228385925292969e+00,3.480780029296875000e+01,-1.537292938232421875e+02,6.622257232666015625e+01,1.191414108276367188e+02
7.039999961853027344e-01,1.000000000000000000e+00,-4.049975204467773438e+01,3.644391632080078125e+01,3.305498123168945312e+01,9.822151947021484375e+01,9.719433593750000000e+01,-6.089311599731445312e+00,1.166222991943359375e+02,8.770228385925292969e+00,3.480780029296875000e+01,-1.537292938232421875e+02,6.622257232666015625e+01,1.191414108276367188e+02
7.080000042915344238e-01,1.000000000000000000e+00,-4.054193878173828125e+01,3.636179351806640625e+01,3.307762908935546875e+01,9.814697265625000000e+01,9.721589660644531250e+01,-6.113009452819824219e+00,1.166222991943359375e+02,8.770228385925292969e+00,3.480780029296875000e+01,-1.537292938232421875e+02,6.622257232666015625e+01,1.191414108276367188e+02
7.120000123977661133e-01,1.000000000000000000e+00,-4.058414840698242188e+01,3.627962112426757812e+01,3.310029220581054688e+01,9.807238006591796875e+01,9.723746490478515625e+01,-6.136721611022949219e+00,1.166222991943359375e+02,8.770228385925292969e+00,3.480780029296875000e+01,-1.537292938232421875e+02,6.622257232666015625e+01,1.191414108276367188e+02
7.160000205039978027e-01,1.000000000000000000e+00,-4.062638473510742188e+01,3.619740676879882812e+01,3.312297058105468750e+01,9.799774932861328125e+01,9.725904846191406250e+01,-6.160447120666503906e+00,1.166222991943359375e+02,8.770228385925292969e+00,3.480780029296875000e+01,-1.537292938232421875e+02,6.622257232666015625e+01,1.191414108276367188e+02
7.200000286102294922e-01,1.000000000000000000e+00,-4.066864776611328125e+01,3.611514663696289062e+01,3.314566040039062500e+01,9.792308044433593750e+01,9.728064727783203125e+01,-6.184187412261962891e+00,1.166222991943359375e+02,8.770228385925292969e+00,3.480780029296875000e+01,-1.537292938232421875e+02,6.622257232666015625e+01,1.191414108276367188e+02
7.239999771118164062e-01,1.000000000000000000e+00,-4.071093368530273438e+01,3.603283691406250000e+01,3.316836547851562500e+01,9.784835815429687500e+01,9.730225372314453125e+01,-6.207941532135009766e+00,1.166222991943359375e+02,8.770228385925292969e+00,3.480780029296875000e+01,-1.537292938232421875e+02,6.622257232666015625e+01,1.191414108276367188e+02
7.279999852180480957e-01,1.000000000000000000e+00,-4.075324249267578125e+01,3.595048141479492188e+01,3.319108200073242188e+01,9.777359008789062500e+01,9.732387542724609375e+01,-6.231709480285644531e+00,1.166222991943359375e+02,8.770228385925292969e+00,3.480780029296875000e+01,-1.537292938232421875e+02,6.622257232666015625e+01,1.191414108276367188e+02
7.319999933242797852e-01,1.000000000000000000e+00,-4.079557800292968750e+01,3.586808013916015625e+01,3.321381378173828125e+01,9.769879150390625000e+01,9.734551239013671875e+01,-6.255491256713867188e+00,1.166222991943359375e+02,8.770228385925292969e+00,3.480780029296875000e+01,-1.537292938232421875e+02,6.622257232666015625e+01,1.191414108276367188e+02
7.360000014305114746e-01,1.000000000000000000e+00,-4.083794021606445312e+01,3.578562927246093750e+01,3.323655700683593750e+01,9.762393951416015625e+01,9.736716461181640625e+01,-6.279287338256835938e+00,1.166222991943359375e+02,8.770228385925292969e+00,3.480780029296875000e+01,-1.537292938232421875e+02,6.622257232666015625e+01,1.191414108276367188e+02
7.400000095367431641e-01,1.000000000000000000e+00,-4.088032531738281250e+01,3.570313262939453125e+01,3.325931549072265625e+01,9.754903411865234375e+01,9.738881683349609375e+01,-6.303097724914550781e+00,1.166222991943359375e+02,8.770228385925292969e+00,3.480780029296875000e+01,-1.537292938232421875e+02,6.622257232666015625e+01,1.191414108276367188e+02
7.440000176429748535e-01,1.000000000000000000e+00,-4.092273712158203125e+01,3.562059783935546875e+01,3.328208923339843750e+01,9.747409820556640625e+01,9.741049194335937500e+01,-6.326921463012695312e+00,1.166222991943359375e+02,8.770228385925292969e+00,3.480780029296875000e+01,-1.537292938232421875e+02,6.622257232666015625e+01,1.191414108276367188e+02
7.480000257492065430e-01,1.000000000000000000e+00,-4.096517181396484375e+01,3.553801727294921875e+01,3.330487442016601562e+01,9.739911651611328125e+01,9.743217468261718750e+01,-6.350759983062744141e+00,1.166222991943359375e+02,8.770228385925292969e+00,3.480780029296875000e+01,-1.537292938232421875e+02,6.622257232666015625e+01,1.191414108276367188e+02
7.519999742507934570e-01,1.000000000000000000e+00,-4.100763320922851562e+01,3.545539474487304688e+01,3.332767105102539062e+01,9.732408142089843750e+01,9.745388031005859375e+01,-6.374612331390380859e+00,1.166222991943359375e+02,8.770228385925292969e+00,3.480780029296875000e+01,-1.537292938232421875e+02,6.622257232666015625e+01,1.191414108276367188e+02
7.559999823570251465e-01,1.000000000000000000e+00,-4.105011749267578125e+01,3.537271499633789062e+01,3.335048294067382812e+01,9.724901580810546875e+01,9.747558593750000000e+01,-6.398478507995605469e+00,1.166222991943359375e+02,8.770228385925292969e+00,3.480780029296875000e+01,-1.537292938232421875e+02,6.622257232666015625e+01,1.191414108276367188e+02
7.599999904632568359e-01,1.000000000000000000e+00,-4.109262847900390625e+01,3.528999328613281250e+01,3.337331008911132812e+01,9.717389678955078125e+01,9.749731445312500000e+01,-6.422358989715576172e+00,1.166222991943359375e+02,8.770228385925292969e+00,3.480780029296875000e+01,-1.537292938232421875e+02,6.622257232666015625e+01,1.191414108276367188e+02
7.639999985694885254e-01,1.000000000000000000e+00,-4.113516235351562500e+01,3.520721435546875000e+01,3.339614486694335938e+01,9.709873199462890625e+01,9.751905059814453125e+01,-6.446253776550292969e+00,1.166222991943359375e+02,8.770228385925292969e+00,3.480780029296875000e+01,-1.537292938232421875e+02,6.622257232666015625e+01,1.191414108276367188e+02
7.680000066757202148e-01,1.000000000000000000e+00,-4.117772674560546875e+01,3.512438201904296875e+01,3.341899871826171875e+01,9.702352905273437500e+01,9.754080200195312500e+01,-6.470162391662597656e+00,1.166222991943359375e+02,8.770228385925292969e+00,3.480780029296875000e+01,-1.537292938232421875e+02,6.622257232666015625e+01,1.191414108276367188e+02
7.720000147819519043e-01,1.000000000000000000e+00,-4.122031021118164062e+01,3.504148864746093750e+01,3.344186401367187500e+01,9.694827270507812500e+01,9.756256103515625000e+01,-6.494084835052490234e+00,1.166222991943359375e+02,8.770228385925292969e+00,3.480780029296875000e+01,-1.537292938232421875e+02,6.622257232666015625e+01,1.191414108276367188e+02
7.760000228881835938e-01,1.000000000000000000e+00,-4.126292419433593750e+01,3.495854949951171875e+01,3.346474075317382812e+01,9.687297821044921875e+01,9.758433532714843750e+01,-6.518022060394287109e+00,1.166222991943359375e+02,8.770228385925292969e+00,3.480780029296875000e+01,-1.537292938232421875e+02,6.622257232666015625e+01,1.191414108276367188e+02
7.799999713897705078e-01,1.000000000000000000e+00,-4.130556106567382812e+01,3.487556076049804688e+01,3.348763656616210938e+01,9.679763793945312500e+01,9.760612487792968750e+01,-6.541973590850830078e+00,1.166222991943359375e+02,8.770228385925292969e+00,3.480780029296875000e+01,-1.537292938232421875e+02,6.622257232666015625e+01,1.191414108276367188e+02
7.839999794960021973e-01,1.000000000000000000e+00,-4.134822463989257812e+01,3.479252243041992188e+01,3.351054000854492188e+01,9.672225189208984375e+01,9.762792205810546875e+01,-6.565938949584960938e+00,1.166222991943359375e+02,8.770228385925292969e+00,3.480780029296875000e+01,-1.537292938232421875e+02,6.622257232666015625e+01,1.191414108276367188e+02
7.879999876022338867e-01,1.000000000000000000e+00,-4.139091110229492188e+01,3.470943832397460938e+01,3.353345870971679688e+01,9.664682006835937500e+01,9.764974212646484375e+01,-6.589918613433837891e+00,1.166222991943359375e+02,8.770228385925292969e+00,3.480780029296875000e+01,-1.537292938232421875e+02,6.622257232666015625e+01,1.191414108276367188e+02
7.919999957084655762e-01,1.000000000000000000e+00,-4.143362426757812500e+01,3.462630081176757812e+01,3.355639648437500000e+01,9.657135009765625000e+01,9.767156982421875000e+01,-6.613912582397460938e+00,1.166222991943359375e+02,8.770228385925292969e+00,3.480780029296875000e+01,-1.537292938232421875e+02,6.622257232666015625e+01,1.191414108276367188e+02
7.960000038146972656e-01,1.000000000000000000e+00,-4.147636413574218750e+01,3.454311370849609375e+01,3.357934188842773438e+01,9.649583435058593750e+01,9.769341278076171875e+01,-6.637920856475830078e+00,1.166222991943359375e+02,8.770228385925292969e+00,3.480780029296875000e+01,-1.537292938232421875e+02,6.622257232666015625e+01,1.191414108276367188e+02
8.000000119209289551e-01,1.000000000000000000e+00,-4.151913070678710938e+01,3.445988082885742188e+01,3.360230255126953125e+01,9.642027282714843750e+01,9.771526336669921875e+01,-6.661942958831787109e+00,1.166222991943359375e+02,8.770228385925292969e+00,3.480780029296875000e+01,-1.537292938232421875e+02,6.622257232666015625e+01,1.191414108276367188e+02
8.040000200271606445e-01,1.000000000000000000e+00,-4.156191635131835938e+01,3.437659072875976562e+01,3.362527465820312500e+01,9.634466552734375000e+01,9.773712921142578125e+01,-6.685979843139648438e+00,1.166222991943359375e+02,8.770228385925292969e+00,3.480780029296875000e+01,-1.537292938232421875e+02,6.622257232666015625e+01,1.191414108276367188e+02
8.080000281333923340e-01,1.000000000000000000e+00,-4.160473251342773438e+01,3.429325866699218750e+01,3.364826583862304688e+01,9.626900482177734375e+01,9.775901031494140625e+01,-6.710030555725097656e+00,1.166222991943359375e+02,8.770228385925292969e+00,3.480780029296875000e+01,-1.537292938232421875e+02,6.622257232666015625e+01,1.191414108276367188e+02
8.119999766349792480e-01,1.000000000000000000e+00,-4.164757156372070312e+01,3.420987319946289062e+01,3.367126464843750000e+01,9.619331359863281250e+01,9.778089904785156250e+01,-6.734095573425292969e+00,1.166222991943359375e+02,8.770228385925292969e+00,3.480780029296875000e+01,-1.537292938232421875e+02,6.622257232666015625e+01,1.191414108276367188e+02
8.159999847412109375e-01,1.000000000000000000e+00,-4.169043731689453125e+01,3.412643814086914062e+01,3.369427871704101562e+01,9.611756134033203125e+01,9.780280303955078125e+01,-6.758175373077392578e+00,1.166222991943359375e+02,8.770228385925292969e+00,3.480780029296875000e+01,-1.537292938232421875e+02,6.622257232666015625e+01,1.191414108276367188e+02
8.199999928474426270e-01,1.000000000000000000e+00,-4.173332595825195312e+01,3.404295730590820312e+01,3.371730804443359375e+01,9.604177856445312500e+01,9.782472229003906250e+01,-6.782269001007080078e+00,1.166222991943359375e+02,8.770228385925292969e+00,3.480780029296875000e+01,-1.537292938232421875e+02,6.622257232666015625e+01,1.191414108276367188e+02
8.240000009536743164e-01,1.000000000000000000e+00,-4.177624511718750000e+01,3.395942306518554688e+01,3.374035263061523438e+01,9.596594238281250000e+01,9.784665679931640625e+01,-6.806376934051513672e+00,1.166222991943359375e+02,8.770228385925292969e+00,3.480780029296875000e+01,-1.537292938232421875e+02,6.622257232666015625e+01,1.191414108276367188e+02
8.280000090599060059e-01,1.000000000000000000e+00,-4.181918716430664062e+01,3.387584304809570312e+01,3.376340866088867188e+01,9.589006805419921875e+01,9.786859893798828125e+01,-6.830499649047851562e+00,1.166222991943359375e+02,8.770228385925292969e+00,3.480780029296875000e+01,-1.537292938232421875e+02,6.622257232666015625e+01,1.191414108276367188e+02
8.320000171661376953e-01,1.000000000000000000e+00,-4.186215591430664062e+01,3.379220962524414062e+01,3.378647613525390625e+01,9.581414031982421875e+01,9.789055633544921875e+01,-6.854636669158935547e+00,1.166222991943359375e+02,8.770228385925292969e+00,3.480780029296875000e+01,-1.537292938232421875e+02,6.622257232666015625e+01,1.191414108276367188e+02
8.360000252723693848e-01,1.000000000000000000e+00,-4.190514755249023438e+01,3.370852661132812500e+01,3.380956268310546875e+01,9.573817443847656250e+01,9.791252136230468750e+01,-6.878787517547607422e+00,1.166222991943359375e+02,8.770228385925292969e+00,3.480780029296875000e+01,-1.537292938232421875e+02,6.622257232666015625e+01,1.191414108276367188e+02
8.399999737739562988e-01,1.000000000000000000e+00,-4.194816207885742188e+01,3.362479400634765625e+01,3.383266067504882812e+01,9.566215515136718750e+01,9.793450927734375000e+01,-6.902953624725341797e+00,1.166222991943359375e+02,8.770228385925292969e+00,3.480780029296875000e+01,-1.537292938232421875e+02,6.622257232666015625e+01,1.191414108276367188e+02
8.439999818801879883e-01,1.000000000000000000e+00,-4.199121093750000000e+01,3.354100799560546875e+01,3.385577011108398438e+01,9.558609771728515625e+01,9.795650482177734375e+01,-6.927133083343505859e+00,1.166222991943359375e+02,8.770228385925292969e+00,3.480780029296875000e+01,-1.537292938232421875e+02,6.622257232666015625e+01,1.191414108276367188e+02
8.479999899864196777e-01,1.000000000000000000e+00,-4.203427886962890625e+01,3.345716857910156250e+01,3.387889480590820312e+01,9.550999450683593750e+01,9.797851562500000000e+01,-6.951327800750732422e+00,1.166222991943359375e+02,8.770228385925292969e+00,3.480780029296875000e+01,-1.537292938232421875e+02,6.622257232666015625e+01,1.191414108276367188e+02
8.519999980926513672e-01,1.000000000000000000e+00,-4.207737350463867188e+01,3.337328338623046875e+01,3.390203475952148438e+01,9.543384552001953125e+01,9.800054168701171875e+01,-6.975536346435546875e+00,1.166222991943359375e+02,8.770228385925292969e+00,3.480780029296875000e+01,-1.537292938232421875e+02,6.622257232666015625e+01,1.191414108276367188e+02
8.560000061988830566e-01,1.000000000000000000e+00,-4.212049484252929688e+01,3.328934860229492188e+01,3.392518615722656250e+01,9.535765075683593750e+01,9.802257537841796875e+01,-6.999759674072265625e+00,1.166222991943359375e+02,8.770228385925292969e+00,3.480780029296875000e+01,-1.537292938232421875e+02,6.622257232666015625e+01,1.191414108276367188e+02
8.600000143051147461e-01,1.000000000000000000e+00,-4.216364288330078125e+01,3.320536041259765625e+01,3.394835281372070312e+01,9.528141021728515625e+01,9.804462432861328125e+01,-7.023997306823730469e+00,1.166222991943359375e+02,8.770228385925292969e+00,3.480780029296875000e+01,-1.537292938232421875e+02,6.622257232666015625e+01,1.191414108276367188e+02
8.640000224113464355e-01,1.000000000000000000e+00,-4.220681762695312500e+01,3.312132644653320312e+01,3.397153472900390625e+01,9.520511627197265625e+01,9.806668853759765625e+01,-7.048249244689941406e+00,1.166222991943359375e+02,8.770228385925292969e+00,3.480780029296875000e+01,-1.537292938232421875e+02,6.622257232666015625e+01,1.191414108276367188e+02
8.679999709129333496e-01,1.000000000000000000e+00,-4.225001525878906250e+01,3.303723907470703125e+01,3.399472427368164062e+01,9.512879180908203125e+01,9.808876800537109375e+01,-7.072516441345214844e+00,1.166222991943359375e+02,8.770228385925292969e+00,3.480780029296875000e+01,-1.537292938232421875e+02,6.622257232666015625e+01,1.191414108276367188e+02
8.719999790191650391e-01,1.000000000000000000e+00,-4.229323959350585938e+01,3.295310211181640625e+01,3.401793670654296875e+01,9.505241394042968750e+01,9.811085510253906250e+01,-7.096796989440917969e+00,1.166222991943359375e+02,8.770228385925292969e+00,3.480780029296875000e+01,-1.537292938232421875e+02,6.622257232666015625e+01,1.191414108276367188e+02
8.759999871253967285e-01,1.000000000000000000e+00,-4.233648681640625000e+01,3.286891174316406250e+01,3.404115676879882812e+01,9.497599029541015625e+01,9.813295745849609375e+01,-7.121092796325683594e+00,1.166222991943359375e+02,8.770228385925292969e+00,3.480780029296875000e+01,-1.537292938232421875e+02,6.622257232666015625e+01,1.191414108276367188e+02
8.799999952316284180e-01,1.000000000000000000e+00,-4.237976455688476562e+01,3.278467559814453125e+01,3.406439590454101562e+01,9.489951324462890625e+01,9.815506744384765625e+01,-7.145402908325195312e+00,1.166222991943359375e+02,8.770228385925292969e+00,3.480780029296875000e+01,-1.537292938232421875e+02,6.622257232666015625e+01,1.191414108276367188e+02
8.840000033378601074e-01,1.000000000000000000e+00,-4.242306518554687500e+01,3.270038986206054688e+01,3.408764266967773438e+01,9.482300567626953125e+01,9.817719268798828125e+01,-7.169727325439453125e+00,1.166222991943359375e+02,8.770228385925292969e+00,3.480780029296875000e+01,-1.537292938232421875e+02,6.622257232666015625e+01,1.191414108276367188e+02
8.880000114440917969e-01,1.000000000000000000e+00,-4.246639251708984375e+01,3.261605072021484375e+01,3.411090469360351562e+01,9.474644470214843750e+01,9.819934082031250000e+01,-7.194066524505615234e+00,1.166222991943359375e+02,8.770228385925292969e+00,3.480780029296875000e+01,-1.537292938232421875e+02,6.622257232666015625e+01,1.191414108276367188e+02
8.920000195503234863e-01,1.000000000000000000e+00,-4.250974655151367188e+01,3.253166198730468750e+01,3.413418579101562500e+01,9.466983795166015625e+01,9.822149658203125000e+01,-7.218420505523681641e+00,1.166222991943359375e+02,8.770228385925292969e+00,3.480780029296875000e+01,-1.537292938232421875e+02,6.622257232666015625e+01,1.191414108276367188e+02
8.960000276565551758e-01,1.000000000000000000e+00,-4.255312347412109375e+01,3.244722366333007812e+01,3.415747451782226562e+01,9.459319305419921875e+01,9.824365997314453125e+01,-7.242788791656494141e+00,1.166222991943359375e+02,8.770228385925292969e+00,3.480780029296875000e+01,-1.537292938232421875e+02,6.622257232666015625e+01,1.191414108276367188e+02
8.999999761581420898e-01,1.000000000000000000e+00,-4.259652709960937500e+01,3.236273574829101562e+01,3.418078231811523438e+01,9.451648712158203125e+01,9.826584625244140625e+01,-7.267171859741210938e+00,1.166222991943359375e+02,8.770228385925292969e+00,3.480780029296875000e+01,-1.537292938232421875e+02,6.622257232666015625e+01,1.191414108276367188e+02
9.039999842643737793e-01,1.000000000000000000e+00,-4.263995742797851562e+01,3.227819824218750000e+01,3.420409774780273438e+01,9.443974304199218750e+01,9.828803253173828125e+01,-7.291569232940673828e+00,1.166222991943359375e+02,8.770228385925292969e+00,3.480780029296875000e+01,-1.537292938232421875e+02,6.622257232666015625e+01,1.191414108276367188e+02
9.079999923706054688e-01,1.000000000000000000e+00,-4.268341445922851562e+01,3.219360351562500000e+01,3.422743225097656250e+01,9.436296081542968750e+01,9.831024932861328125e+01,-7.315981388092041016e+00,1.166222991943359375e+02,8.770228385925292969e+00,3.480780029296875000e+01,-1.537292938232421875e+02,6.622257232666015625e+01,1.191414108276367188e+02
9.120000004768371582e-01,1.000000000000000000e+00,-4.272689819335937500e+01,3.210896301269531250e+01,3.425077819824218750e+01,9.428611755371093750e+01,9.833246612548828125e+01,-7.340407848358154297e+00,1.166222991943359375e+02,8.770228385925292969e+00,3.480780029296875000e+01,-1.537292938232421875e+02,6.622257232666015625e+01,1.191414108276367188e+02
9.160000085830688477e-01,1.000000000000000000e+00,-4.277040863037109375e+01,3.202426910400390625e+01,3.427414321899414062e+01,9.420923614501953125e+01,9.835469818115234375e+01,-7.364849567413330078e+00,1.166222991943359375e+02,8.770228385925292969e+00,3.480780029296875000e+01,-1.537292938232421875e+02,6.622257232666015625e+01,1.191414108276367188e+02
9.200000166893005371e-01,1.000000000000000000e+00,-4.281394958496093750e+01,3.193951797485351562e+01,3.429751586914062500e+01,9.413230895996093750e+01,9.837695312500000000e+01,-7.389306068420410156e+00,1.166222991943359375e+02,8.770228385925292969e+00,3.480780029296875000e+01,-1.537292938232421875e+02,6.622257232666015625e+01,1.191414108276367188e+02
9.240000247955322266e-01,1.000000000000000000e+00,-4.285750961303710938e+01,3.185472106933593750e+01,3.432090377807617188e+01,9.405533599853515625e+01,9.839920806884765625e+01,-7.413776874542236328e+00,1.166222991943359375e+02,8.770228385925292969e+00,3.480780029296875000e+01,-1.537292938232421875e+02,6.622257232666015625e+01,1.191414108276367188e+02
9.279999732971191406e-01,1.000000000000000000e+00,-4.290110015869140625e+01,3.176987457275390625e+01,3.434431076049804688e+01,9.397831726074218750e+01,9.842148590087890625e+01,-7.438261985778808594e+00,1.166222991943359375e+02,8.770228385925292969e+00,3.480780029296875000e+01,-1.537292938232421875e+02,6.622257232666015625e+01,1.191414108276367188e+02
9.319999814033508301e-01,1.000000000000000000e+00,-4.294471740722656250e+01,3.168497848510742188e+01,3.436772537231445312e+01,9.390125274658203125e+01,9.844377136230468750e+01,-7.462762832641601562e+00,1.166222991943359375e+02,8.770228385925292969e+00,3.480780029296875000e+01,-1.537292938232421875e+02,6.622257232666015625e+01,1.191414108276367188e+02
9.359999895095825195e-01,1.000000000000000000e+00,-4.298836517333984375e+01,3.160002708435058594e+01,3.439115905761718750e+01,9.382412719726562500e+01,9.846607208251953125e+01,-7.487277984619140625e+00,1.166222991943359375e+02,8.770228385925292969e+00,3.480780029296875000e+01,-1.537292938232421875e+02,6.622257232666015625e+01,1.191414108276367188e+02
9.399999976158142090e-01,1.000000000000000000e+00,-4.303203201293945312e+01,3.151502609252929688e+01,3.441460418701171875e+01,9.374697113037109375e+01,9.848839569091796875e+01,-7.511807918548583984e+00,1.166222991943359375e+02,8.770228385925292969e+00,3.480780029296875000e+01,-1.537292938232421875e+02,6.622257232666015625e+01,1.191414108276367188e+02
9.440000057220458984e-01,1.000000000000000000e+00,-4.307572937011718750e+01,3.142997360229492188e+01,3.443806457519531250e+01,9.366976165771484375e+01,9.851071929931640625e+01,-7.536353111267089844e+00,1.166222991943359375e+02,8.770228385925292969e+00,3.480780029296875000e+01,-1.537292938232421875e+02,6.622257232666015625e+01,1.191414108276367188e+02
9.480000138282775879e-01,1.000000000000000000e+00,-4.311945343017578125e+01,3.134486961364746094e+01,3.446154022216796875e+01,9.359251403808593750e+01,9.853305816650390625e+01,-7.560912609100341797e+00,1.166222991943359375e+02,8.770228385925292969e+00,3.480780029296875000e+01,-1.537292938232421875e+02,6.622257232666015625e+01,1.191414108276367188e+02
9.520000219345092773e-01,1.000000000000000000e+00,-4.316320419311523438e+01,3.125971031188964844e+01,3.448502731323242188e+01,9.351520538330078125e+01,9.855541992187500000e+01,-7.585487842559814453e+00,1.166222991943359375e+02,8.770228385925292969e+00,3.480780029296875000e+01,-1.537292938232421875e+02,6.622257232666015625e+01,1.191414108276367188e+02
9.559999704360961914e-01,1.000000000000000000e+00,-4.320697784423828125e+01,3.117450332641601562e+01,3.450852966308593750e+01,9.343785858154296875e+01,9.857778930664062500e+01,-7.610078334808349609e+00,1.166222991943359375e+02,8.770228385925292969e+00,3.480780029296875000e+01,-1.537292938232421875e+02,6.622257232666015625e+01,1.191414108276367188e+02
9.599999785423278809e-01,1.000000000000000000e+00,-4.325077819824218750e+01,3.108924293518066406e+01,3.453204727172851562e+01,9.336046600341796875e+01,9.860016632080078125e+01,-7.634683132171630859e+00,1.166222991943359375e+02,8.770228385925292969e+00,3.480780029296875000e+01,-1.537292938232421875e+02,6.622257232666015625e+01,1.191414108276367188e+02
9.639999866485595703e-01,1.000000000000000000e+00,-4.329460906982421875e+01,3.100392913818359375e+01,3.455558013916015625e+01,9.328301239013671875e+01,9.862256622314453125e+01,-7.659303188323974609e+00,1.166222991943359375e+02,8.770228385925292969e+00,3.480780029296875000e+01,-1.537292938232421875e+02,6.622257232666015625e+01,1.191414108276367188e+02
9.679999947547912598e-01,1.000000000000000000e+00,-4.333846282958984375e+01,3.091856575012207031e+01,3.457912445068359375e+01,9.320552825927734375e+01,9.864497375488281250e+01,-7.683938026428222656e+00,1.166222991943359375e+02,8.770228385925292969e+00,3.480780029296875000e+01,-1.537292938232421875e+02,6.622257232666015625e+01,1.191414108276367188e+02
9.720000028610229492e-01,1.000000000000000000e+00,-4.338234710693359375e+01,3.083314704895019531e+01,3.460268402099609375e+01,9.312799072265625000e+01,9.866739654541015625e+01,-7.708588123321533203e+00,1.166222991943359375e+02,8.770228385925292969e+00,3.480780029296875000e+01,-1.537292938232421875e+02,6.622257232666015625e+01,1.191414108276367188e+02
9.760000109672546387e-01,1.000000000000000000e+00,-4.342625427246093750e+01,3.074767875671386719e+01,3.462626266479492188e+01,9.305039978027343750e+01,9.868984222412109375e+01,-7.733253955841064453e+00,1.166222991943359375e+02,8.770228385925292969e+00,3.480780029296875000e+01,-1.537292938232421875e+02,6.622257232666015625e+01,1.191414108276367188e+02
9.800000190734863281e-01,1.000000000000000000e+00,-4.347018814086914062e+01,3.066215705871582031e+01,3.464984893798828125e+01,9.297277069091796875e+01,9.871229553222656250e+01,-7.757934093475341797e+00,1.166222991943359375e+02,8.770228385925292969e+00,3.480780029296875000e+01,-1.537292938232421875e+02,6.622257232666015625e+01,1.191414108276367188e+02
9.840000271797180176e-01,1.000000000000000000e+00,-4.351415252685546875e+01,3.057658195495605469e+01,3.467345428466796875e+01,9.289508819580078125e+01,9.873475646972656250e+01,-7.782629489898681641e+00,1.166222991943359375e+02,8.770228385925292969e+00,3.480780029296875000e+01,-1.537292938232421875e+02,6.622257232666015625e+01,1.191414108276367188e+02
9.879999756813049316e-01,1.000000000000000000e+00,-4.355814361572265625e+01,3.049095535278320312e+01,3.469707489013671875e+01,9.281735992431640625e+01,9.875723266601562500e+01,-7.807340145111083984e+00,1.166222991943359375e+02,8.770228385925292969e+00,3.480780029296875000e+01,-1.537292938232421875e+02,6.622257232666015625e+01,1.191414108276367188e+02
9.919999837875366211e-01,1.000000000000000000e+00,-4.360215759277343750e+01,3.040527725219726562e+01,3.472070693969726562e+01,9.273958587646484375e+01,9.877972412109375000e+01,-7.832066059112548828e+00,1.166222991943359375e+02,8.770228385925292969e+00,3.480780029296875000e+01,-1.537292938232421875e+02,6.622257232666015625e+01,1.191414108276367188e+02
9.959999918937683105e-01,1.000000000000000000e+00,-4.364620208740234375e+01,3.031954383850097656e+01,3.474435424804687500e+01,9.266176605224609375e+01,9.880223846435546875e+01,-7.856806755065917969e+00,1.166222991943359375e+02,8.770228385925292969e+00,3.480780029296875000e+01,-1.537292938232421875e+02,6.622257232666015625e+01,1.191414108276367188e+02
1.000000000000000000e+00,1.000000000000000000e+00,-4.369026947021484375e+01,3.023376083374023438e+01,3.476801681518554688e+01,9.258389282226562500e+01,9.882476043701171875e+01,-7.881562709808349609e+00,1.166222991943359375e+02,8.770228385925292969e+00,3.480780029296875000e+01,-1.537292938232421875e+02,6.622257232666015625e+01,1.191414108276367188e+02
1.003999948501586914e+00,1.000000000000000000e+00,-4.373436737060546875e+01,3.014792251586914062e+01,3.479169082641601562e+01,9.250597381591796875e+01,9.884729003906250000e+01,-7.906334400177001953e+00,1.166222991943359375e+02,8.770228385925292969e+00,3.480780029296875000e+01,-1.537292938232421875e+02,6.622257232666015625e+01,1.191414108276367188e+02
1.008000016212463379e+00,1.000000000000000000e+00,-4.377849197387695312e+01,3.006203269958496094e+01,3.481538009643554688e+01,9.242800903320312500e+01,9.886983489990234375e+01,-7.931120872497558594e+00,1.166222991943359375e+02,8.770228385925292969e+00,3.480780029296875000e+01,-1.537292938232421875e+02,6.622257232666015625e+01,1.191414108276367188e+02
1.011999964714050293e+00,1.000000000000000000e+00,-4.382263946533203125e+01,2.997609138488769531e+01,3.483908843994140625e+01,9.234998321533203125e+01,9.889240264892578125e+01,-7.955922126770019531e+00,1.166222991943359375e+02,8.770228385925292969e+00,3.480780029296875000e+01,-1.537292938232421875e+02,6.622257232666015625e+01,1.191414108276367188e+02
1.016000032424926758e+00,1.000000000000000000e+00,-4.386681747436523438e+01,2.989009666442871094e+01,3.486280441284179688e+01,9.227191925048828125e+01,9.891497802734375000e+01,-7.980739116668701172e+00,1.166222991943359375e+02,8.770228385925292969e+00,3.480780029296875000e+01,-1.537292938232421875e+02,6.622257232666015625e+01,1.191414108276367188e+02
1.019999980926513672e+00,1.000000000000000000e+00,-4.391102218627929688e+01,2.980405044555664062e+01,3.488653945922851562e+01,9.219380950927734375e+01,9.893756866455078125e+01,-8.005571365356445312e+00,1.166222991943359375e+02,8.770228385925292969e+00,3.480780029296875000e+01,-1.537292938232421875e+02,6.622257232666015625e+01,1.191414108276367188e+02
1.024000048637390137e+00,1.000000000000000000e+00,-4.395525741577148438e+01,2.971794891357421875e+01,3.491028976440429688e+01,9.211565399169921875e+01,9.896017456054687500e+01,-8.030418395996093750e+00,1.166222991943359375e+02,8.770228385925292969e+00,3.480780029296875000e+01,-1.537292938232421875e+02,6.622257232666015625e+01,1.191414108276367188e+02
1.026999950408935547e+00,1.000000000000000000e+00,-4.399951553344726562e+01,2.963179588317871094e+01,3.493405532836914062e+01,9.203745269775390625e+01,9.898278808593750000e+01,-8.055279731750488281e+00,1.166222991943359375e+02,8.770228385925292969e+00,3.480780029296875000e+01,-1.537292938232421875e+02,6.622257232666015625e+01,1.191414108276367188e+02
1.031999945640563965e+00,1.000000000000000000e+00,-4.404380416870117188e+01,2.954559135437011719e+01,3.495783233642578125e+01,9.195919799804687500e+01,9.900541687011718750e+01,-8.080158233642578125e+00,1.166222991943359375e+02,8.770228385925292969e+00,3.480780029296875000e+01,-1.537292938232421875e+02,6.622257232666015625e+01,1.191414108276367188e+02
1.036000013351440430e+00,1.000000000000000000e+00,-4.408811569213867188e+01,2.945933341979980469e+01,3.498162460327148438e+01,9.188089752197265625e+01,9.902806854248046875e+01,-8.105051040649414062e+00,1.166222991943359375e+02,8.770228385925292969e+00,3.480780029296875000e+01,-1.537292938232421875e+02,6.622257232666015625e+01,1.191414108276367188e+02
1.039999961853027344e+00,1.000000000000000000e+00,-4.413245391845703125e+01,2.937302398681640625e+01,3.500543212890625000e+01,9.180254364013671875e+01,9.905072021484375000e+01,-8.129959106445312500e+00,1.166222991943359375e+02,8.770228385925292969e+00,3.480780029296875000e+01,-1.537292938232421875e+02,6.622257232666015625e+01,1.191414108276367188e+02
1.044000029563903809e+00,1.000000000000000000e+00,-4.417682266235351562e+01,2.928665924072265625e+01,3.502925491333007812e+01,9.172415161132812500e+01,9.907339477539062500e+01,-8.154882431030273438e+00,1.166222991943359375e+02,8.770228385925292969e+00,3.480780029296875000e+01,-1.537292938232421875e+02,6.622257232666015625e+01,1.191414108276367188e+02
1.047999978065490723e+00,1.000000000000000000e+00,-4.422122192382812500e+01,2.920024108886718750e+01,3.505308914184570312e+01,9.164570617675781250e+01,9.909607696533203125e+01,-8.179820060729980469e+00,1.166222991943359375e+02,8.770228385925292969e+00,3.480780029296875000e+01,-1.537292938232421875e+02,6.622257232666015625e+01,1.191414108276367188e+02
1.052000045776367188e+00,1.000000000000000000e+00,-4.426564025878906250e+01,2.911377334594726562e+01,3.507693862915039062e+01,9.156720733642578125e+01,9.911878204345703125e+01,-8.204773902893066406e+00,1.166222991943359375e+02,8.770228385925292969e+00,3.480780029296875000e+01,-1.537292938232421875e+02,6.622257232666015625e+01,1.191414108276367188e+02
1.054999947547912598e+00,1.000000000000000000e+00,-4.431009292602539062e+01,2.902724838256835938e+01,3.510080337524414062e+01,9.148867034912109375e+01,9.914149475097656250e+01,-8.229743957519531250e+00,1.166222991943359375e+02,8.770228385925292969e+00,3.480780029296875000e+01,-1.537292938232421875e+02,6.622257232666015625e+01,1.191414108276367188e+02
1.059999942779541016e+00,1.000000000000000000e+00,-4.435456466674804688e+01,2.894067382812500000e+01,3.512468719482421875e+01,9.141007995605468750e+01,9.916422271728515625e+01,-8.254727363586425781e+00,1.166222991943359375e+02,8.770228385925292969e+00,3.480780029296875000e+01,-1.537292938232421875e+02,6.622257232666015625e+01,1.191414108276367188e+02
1.064000010490417480e+00,1.000000000000000000e+00,-4.439906692504882812e+01,2.885404586791992188e+01,3.514858245849609375e+01,9.133143615722656250e+01,9.918697357177734375e+01,-8.279726982116699219e+00,1.166222991943359375e+02,8.770228385925292969e+00,3.480780029296875000e+01,-1.537292938232421875e+02,6.622257232666015625e+01,1.191414108276367188e+02
1.067999958992004395e+00,1.000000000000000000e+00,-4.444359970092773438e+01,2.876736450195312500e+01,3.517248916625976562e+01,9.125275421142578125e+01,9.920972442626953125e+01,-8.304742813110351562e+00,1.166222991943359375e+02,8.770228385925292969e+00,3.480780029296875000e+01,-1.537292938232421875e+02,6.622257232666015625e+01,1.191414108276367188e+02
1.072000026702880859e+00,1.000000000000000000e+00,-4.448815917968750000e+01,2.868062973022460938e+01,3.519641113281250000e+01,9.117402648925781250e+01,9.923249053955078125e+01,-8.329772949218750000e+00,1.166222991943359375e+02,8.770228385925292969e+00,3.480780029296875000e+01,-1.537292938232421875e+02,6.622257232666015625e+01,1.191414108276367188e+02
1.075999975204467773e+00,1.000000000000000000e+00,-4.453274154663085938e+01,2.859384346008300781e+01,3.522035217285156250e+01,9.109523773193359375e+01,9.925527954101562500e+01,-8.354818344116210938e+00,1.166222991943359375e+02,8.770228385925292969e+00,3.480780029296875000e+01,-1.537292938232421875e+02,6.622257232666015625e+01,1.191414108276367188e+02
1.080000042915344238e+00,1.000000000000000000e+00,-4.457735824584960938e+01,2.850700187683105469e+01,3.524430465698242188e+01,9.101641082763671875e+01,9.927807617187500000e+01,-8.379878997802734375e+00,1.166222991943359375e+02,8.770228385925292969e+00,3.480780029296875000e+01,-1.537292938232421875e+02,6.622257232666015625e+01,1.191414108276367188e+02
1.083999991416931152e+00,1.000000000000000000e+00,-4.462199401855468750e+01,2.842010879516601562e+01,3.526827239990234375e+01,9.093753051757812500e+01,9.930088806152343750e+01,-8.404954910278320312e+00,1.166222991943359375e+02,8.770228385925292969e+00,3.480780029296875000e+01,-1.537292938232421875e+02,6.622257232666015625e+01,1.191414108276367188e+02
1.088000059127807617e+00,1.000000000000000000e+00,-4.466666030883789062e+01,2.833316230773925781e+01,3.529225540161132812e+01,9.085860443115234375e+01,9.932370758056640625e+01,-8.430047035217285156e+00,1.166222991943359375e+02,8.770228385925292969e+00,3.480780029296875000e+01,-1.537292938232421875e+02,6.622257232666015625e+01,1.191414108276367188e+02
1.090999960899353027e+00,1.000000000000000000e+00,-4.471135711669921875e+01,2.824616241455078125e+01,3.531624984741210938e+01,9.077962493896484375e+01,9.934654998779296875e+01,-8.455153465270996094e+00,1.166222991943359375e+02,8.770228385925292969e+00,3.480780029296875000e+01,-1.537292938232421875e+02,6.622257232666015625e+01,1.191414108276367188e+02
1.095999956130981445e+00,1.000000000000000000e+00,-4.475607681274414062e+01,2.815910720825195312e+01,3.534026336669921875e+01,9.070059967041015625e+01,9.936940765380859375e+01,-8.480276107788085938e+00,1.166222991943359375e+02,8.770228385925292969e+00,3.480780029296875000e+01,-1.537292938232421875e+02,6.622257232666015625e+01,1.191414108276367188e+02
1.100000023841857910e+00,1.000000000000000000e+00,-4.480082702636718750e+01,2.807200241088867188e+01,3.536428833007812500e+01,9.062153625488281250e+01,9.939227294921875000e+01,-8.505414009094238281e+00,1.166222991943359375e+02,8.770228385925292969e+00,3.480780029296875000e+01,-1.537292938232421875e+02,6.622257232666015625e+01,1.191414108276367188e+02
1.103999972343444824e+00,1.000000000000000000e+00,-4.484560012817382812e+01,2.798484230041503906e+01,3.538833236694335938e+01,9.054241943359375000e+01,9.941516113281250000e+01,-8.530566215515136719e+00,1.166222991943359375e+02,8.770228385925292969e+00,3.480780029296875000e+01,-1.537292938232421875e+02,6.622257232666015625e+01,1.191414108276367188e+02
1.108000040054321289e+00,1.000000000000000000e+00,-4.489040756225585938e+01,2.789762878417968750e+01,3.541238784790039062e+01,9.046324920654296875e+01,9.943805694580078125e+01,-8.555734634399414062e+00,1.166222991943359375e+02,8.770228385925292969e+00,3.480780029296875000e+01,-1.537292938232421875e+02,6.622257232666015625e+01,1.191414108276367188e+02
1.111999988555908203e+00,1.000000000000000000e+00,-4.493523788452148438e+01,2.781036376953125000e+01,3.543645477294921875e+01,9.038403320312500000e+01,9.946096038818359375e+01,-8.580918312072753906e+00,1.166222991943359375e+02,8.770228385925292969e+00,3.480780029296875000e+01,-1.537292938232421875e+02,6.622257232666015625e+01,1.191414108276367188e+02
1.116000056266784668e+00,1.000000000000000000e+00,-4.498009490966796875e+01,2.772304534912109375e+01,3.546054458618164062e+01,9.030476379394531250e+01,9.948388671875000000e+01,-8.606118202209472656e+00,1.166222991943359375e+02,8.770228385925292969e+00,3.480780029296875000e+01,-1.537292938232421875e+02,6.622257232666015625e+01,1.191414108276367188e+02
1.118999958038330078e+00,1.000000000000000000e+00,-4.502498245239257812e+01,2.763567161560058594e+01,3.548464202880859375e+01,9.022544860839843750e+01,9.950682067871093750e+01,-8.631332397460937500e+00,1.166222991943359375e+02,8.770228385925292969e+00,3.480780029296875000e+01,-1.537292938232421875e+02,6.622257232666015625e+01,1.191414108276367188e+02
1.123999953269958496e+00,1.000000000000000000e+00,-4.506989669799804688e+01,2.754824447631835938e+01,3.550875854492187500e+01,9.014608764648437500e+01,9.952977752685546875e+01,-8.656561851501464844e+00,1.166222991943359375e+02,8.770228385925292969e+00,3.480780029296875000e+01,-1.537292938232421875e+02,6.622257232666015625e+01,1.191414108276367188e+02
