rpiRobotics/ARM-21-02-F-19-Robot-Motion-Program/data_performance_abb/curve_1/baseline/0.2/curve_exe_v164.0625_z10.csv
timestamp, cmd_num, J1, J2, J3, J4, J5, J6
0, -1, 11.4337, 14.3794, 16.925, -145.529, -98.824, 142.494
0.002, -1, 11.4337, 14.3794, 16.925, -145.529, -98.824, 142.494
0.006, -1, 11.4337, 14.3794, 16.925, -145.529, -98.824, 142.494
0.008, -1, 11.4337, 14.3794, 16.925, -145.529, -98.824, 142.494
0.011, -1, 11.4337, 14.3794, 16.925, -145.529, -98.824, 142.494
0.016, -1, 11.4337, 14.3794, 16.925, -145.529, -98.824, 142.494
0.02, -1, 11.4337, 14.3794, 16.925, -145.529, -98.824, 142.494
0.024, -1, 11.4337, 14.3794, 16.925, -145.529, -98.824, 142.494
0.028, -1, 11.4337, 14.3794, 16.925, -145.529, -98.824, 142.494
0.032, -1, 11.4337, 14.3794, 16.925, -145.529, -98.824, 142.494
0.036, -1, 11.4336, 14.3794, 16.925, -145.529, -98.824, 142.494
0.04, -1, 11.4333, 14.3793, 16.9249, -145.529, -98.824, 142.494
0.044, -1, 11.4326, 14.3793, 16.9249, -145.529, -98.824, 142.494
0.048, -1, 11.4313, 14.3791, 16.9247, -145.529, -98.824, 142.493
0.052, -1, 11.4292, 14.3788, 16.9245, -145.529, -98.824, 142.493
0.056, -1, 11.4262, 14.3783, 16.9242, -145.529, -98.824, 142.492
0.06, -1, 11.4222, 14.3775, 16.9237, -145.53, -98.824, 142.491
0.064, -1, 11.417, 14.3765, 16.9232, -145.53, -98.8239, 142.489
0.068, -1, 11.4104, 14.3752, 16.9225, -145.531, -98.8237, 142.486
0.072, -1, 11.4023, 14.3734, 16.9218, -145.532, -98.8235, 142.481
0.076, -1, 11.3923, 14.3712, 16.9209, -145.533, -98.8231, 142.474
0.08, -1, 11.38, 14.3683, 16.9201, -145.535, -98.8226, 142.463
0.084, -1, 11.3651, 14.3648, 16.9192, -145.537, -98.8218, 142.449
0.088, -1, 11.3475, 14.3605, 16.9184, -145.541, -98.8208, 142.431
0.092, -1, 11.3269, 14.3554, 16.9178, -145.545, -98.8195, 142.407
0.096, -1, 11.3035, 14.3495, 16.9175, -145.551, -98.8177, 142.377
0.1, -1, 11.2773, 14.3428, 16.9176, -145.558, -98.8156, 142.34
0.104, -1, 11.2483, 14.3353, 16.9182, -145.566, -98.813, 142.295
0.108, -1, 11.2163, 14.3269, 16.9194, -145.575, -98.8099, 142.242
0.112, -1, 11.1812, 14.3176, 16.9212, -145.587, -98.8062, 142.18
0.116, -1, 11.1429, 14.3074, 16.9236, -145.6, -98.802, 142.11
0.12, -1, 11.1014, 14.2962, 16.9265, -145.614, -98.7973, 142.031
0.124, -1, 11.0566, 14.2841, 16.93, -145.63, -98.7921, 141.944
0.128, -1, 11.0086, 14.2712, 16.9339, -145.647, -98.7864, 141.849
0.131, -1, 10.9577, 14.2574, 16.9383, -145.666, -98.7803, 141.747
0.136, -1, 10.904, 14.2428, 16.943, -145.686, -98.7738, 141.638
0.139, -1, 10.8476, 14.2275, 16.948, -145.707, -98.7669, 141.524
0.144, -1, 10.7884, 14.2114, 16.9532, -145.729, -98.7597, 141.404
0.148, -1, 10.7265, 14.1947, 16.9583, -145.752, -98.7523, 141.28
0.152, -1, 10.6621, 14.1773, 16.9635, -145.775, -98.7446, 141.153
0.156, -1, 10.5955, 14.1593, 16.9685, -145.799, -98.7369, 141.023
0.16, -1, 10.527, 14.1408, 16.9735, -145.823, -98.729, 140.891
0.164, -1, 10.4568, 14.122, 16.9783, -145.847, -98.721, 140.757
0.168, -1, 10.3853, 14.1027, 16.9831, -145.872, -98.713, 140.622
0.172, -1, 10.3127, 14.0833, 16.9877, -145.897, -98.7049, 140.487
0.176, -1, 10.2392, 14.0636, 16.9923, -145.922, -98.6967, 140.35
0.18, -1, 10.165, 14.0438, 16.9968, -145.947, -98.6886, 140.214
0.184, -1, 10.0901, 14.0239, 17.0013, -145.972, -98.6804, 140.077
0.188, -1, 10.0147, 14.0039, 17.0058, -145.997, -98.6723, 139.939
0.192, -1, 9.93899, 13.9839, 17.0102, -146.022, -98.6641, 139.802
0.196, -1, 9.86298, 13.9638, 17.0146, -146.047, -98.6559, 139.664
0.2, -1, 9.7868, 13.9436, 17.0189, -146.073, -98.6477, 139.526
0.204, -1, 9.71049, 13.9235, 17.0233, -146.098, -98.6395, 139.389
0.208, -1, 9.63409, 13.9033, 17.0277, -146.123, -98.6313, 139.251
0.212, -1, 9.55764, 13.8831, 17.032, -146.148, -98.6231, 139.113
0.216, -1, 9.48115, 13.8629, 17.0364, -146.174, -98.6149, 138.975
0.22, -1, 9.40462, 13.8428, 17.0407, -146.199, -98.6067, 138.837
0.224, -1, 9.32807, 13.8226, 17.0451, -146.224, -98.5986, 138.699
0.228, -1, 9.2515, 13.8024, 17.0494, -146.249, -98.5904, 138.561
0.232, -1, 9.17492, 13.7822, 17.0538, -146.275, -98.5822, 138.424
0.236, -1, 9.09833, 13.7619, 17.0581, -146.3, -98.574, 138.286
0.24, -1, 9.02172, 13.7417, 17.0625, -146.325, -98.5658, 138.148
0.244, -1, 8.94511, 13.7215, 17.0668, -146.35, -98.5575, 138.01
0.248, -1, 8.86849, 13.7013, 17.0712, -146.376, -98.5493, 137.872
0.252, -1, 8.79186, 13.6811, 17.0755, -146.401, -98.5411, 137.734
0.256, -1, 8.71523, 13.6609, 17.0799, -146.426, -98.5329, 137.596
0.26, -1, 8.63859, 13.6407, 17.0842, -146.451, -98.5247, 137.458
0.264, -1, 8.56194, 13.6205, 17.0886, -146.477, -98.5165, 137.32
0.268, -1, 8.48528, 13.6002, 17.0929, -146.502, -98.5083, 137.182
0.272, -1, 8.40862, 13.58, 17.0973, -146.527, -98.5001, 137.044
0.276, -1, 8.33195, 13.5598, 17.1016, -146.553, -98.4919, 136.906
0.28, -1, 8.25527, 13.5396, 17.106, -146.578, -98.4837, 136.767
0.284, -1, 8.17859, 13.5193, 17.1103, -146.603, -98.4755, 136.629
0.288, -1, 8.1019, 13.4991, 17.1147, -146.628, -98.4673, 136.491
0.292, -1, 8.0252, 13.4789, 17.119, -146.654, -98.4591, 136.353
0.296, -1, 7.9485, 13.4586, 17.1234, -146.679, -98.4509, 136.215
0.3, -1, 7.87179, 13.4384, 17.1277, -146.704, -98.4426, 136.077
0.304, -1, 7.79507, 13.4182, 17.1321, -146.73, -98.4344, 135.939
0.308, -1, 7.71835, 13.3979, 17.1365, -146.755, -98.4262, 135.801
0.312, -1, 7.64162, 13.3777, 17.1408, -146.78, -98.418, 135.662
0.316, -1, 7.56489, 13.3574, 17.1452, -146.806, -98.4098, 135.524
0.32, -1, 7.48814, 13.3372, 17.1495, -146.831, -98.4016, 135.386
0.324, -1, 7.41139, 13.317, 17.1539, -146.856, -98.3934, 135.248
0.328, -1, 7.33464, 13.2967, 17.1582, -146.881, -98.3852, 135.11
0.332, -1, 7.25787, 13.2765, 17.1626, -146.907, -98.3769, 134.971
0.336, -1, 7.1811, 13.2562, 17.167, -146.932, -98.3687, 134.833
0.34, -1, 7.10433, 13.236, 17.1713, -146.957, -98.3605, 134.695
0.344, -1, 7.02754, 13.2157, 17.1757, -146.983, -98.3523, 134.557
0.348, -1, 6.95075, 13.1954, 17.18, -147.008, -98.3441, 134.418
0.352, -1, 6.87396, 13.1752, 17.1844, -147.033, -98.3358, 134.28
0.356, -1, 6.79716, 13.1549, 17.1888, -147.059, -98.3276, 134.142
0.36, -1, 6.72035, 13.1347, 17.1931, -147.084, -98.3194, 134.003
0.364, -1, 6.64353, 13.1144, 17.1975, -147.109, -98.3112, 133.865
0.368, -1, 6.56671, 13.0941, 17.2018, -147.135, -98.3029, 133.727
0.372, -1, 6.48987, 13.0739, 17.2062, -147.16, -98.2947, 133.588
0.376, -1, 6.41304, 13.0536, 17.2106, -147.185, -98.2865, 133.45
0.38, -1, 6.33619, 13.0333, 17.2149, -147.211, -98.2783, 133.312
0.384, -1, 6.25934, 13.0131, 17.2193, -147.236, -98.2701, 133.173
0.388, -1, 6.18249, 12.9928, 17.2236, -147.261, -98.2618, 133.035
0.392, -1, 6.10562, 12.9725, 17.228, -147.287, -98.2536, 132.896
0.396, -1, 6.02875, 12.9522, 17.2324, -147.312, -98.2454, 132.758
0.4, -1, 5.95187, 12.932, 17.2367, -147.337, -98.2371, 132.62
0.404, -1, 5.87499, 12.9117, 17.2411, -147.363, -98.2289, 132.481
0.408, -1, 5.7981, 12.8914, 17.2455, -147.388, -98.2207, 132.343
0.412, -1, 5.7212, 12.8711, 17.2498, -147.413, -98.2124, 132.204
0.416, -1, 5.64429, 12.8508, 17.2542, -147.439, -98.2042, 132.066
0.42, -1, 5.56738, 12.8305, 17.2586, -147.464, -98.196, 131.927
0.424, -1, 5.49046, 12.8102, 17.2629, -147.49, -98.1878, 131.789
0.428, -1, 5.41354, 12.79, 17.2673, -147.515, -98.1795, 131.65
0.432, -1, 5.3366, 12.7697, 17.2717, -147.54, -98.1713, 131.512
0.436, -1, 5.25966, 12.7494, 17.276, -147.566, -98.163, 131.373
0.44, -1, 5.18272, 12.7291, 17.2804, -147.591, -98.1548, 131.235
0.444, -1, 5.10576, 12.7088, 17.2848, -147.616, -98.1466, 131.096
0.448, -1, 5.0288, 12.6885, 17.2891, -147.642, -98.1383, 130.957
0.452, -1, 4.95183, 12.6682, 17.2935, -147.667, -98.1301, 130.819
0.456, -1, 4.87486, 12.6479, 17.2979, -147.693, -98.1218, 130.68
0.46, -1, 4.79788, 12.6276, 17.3023, -147.718, -98.1136, 130.542
0.464, -1, 4.72089, 12.6072, 17.3066, -147.743, -98.1054, 130.403
0.468, -1, 4.64389, 12.5869, 17.311, -147.769, -98.0971, 130.264
0.472, -1, 4.56689, 12.5666, 17.3154, -147.794, -98.0889, 130.126
0.476, -1, 4.48988, 12.5463, 17.3197, -147.82, -98.0806, 129.987
0.48, -1, 4.41286, 12.526, 17.3241, -147.845, -98.0724, 129.848
0.484, -1, 4.33584, 12.5057, 17.3285, -147.87, -98.0641, 129.71
0.488, -1, 4.2588, 12.4854, 17.3329, -147.896, -98.0559, 129.571
0.492, -1, 4.18177, 12.465, 17.3372, -147.921, -98.0477, 129.432
0.496, -1, 4.10472, 12.4447, 17.3416, -147.947, -98.0394, 129.293
0.5, -1, 4.02767, 12.4244, 17.346, -147.972, -98.0312, 129.155
0.504, -1, 3.95061, 12.4041, 17.3504, -147.997, -98.0229, 129.016
0.508, -1, 3.87354, 12.3837, 17.3547, -148.023, -98.0147, 128.877
0.512, -1, 3.79646, 12.3634, 17.3591, -148.048, -98.0064, 128.738
0.516, -1, 3.71938, 12.3431, 17.3635, -148.074, -97.9982, 128.599
0.52, -1, 3.64229, 12.3227, 17.3679, -148.099, -97.9899, 128.461
0.524, -1, 3.5652, 12.3024, 17.3722, -148.124, -97.9817, 128.322
0.528, -1, 3.48809, 12.2821, 17.3766, -148.15, -97.9734, 128.183
0.532, -1, 3.41098, 12.2617, 17.381, -148.175, -97.9651, 128.044
0.536, -1, 3.33387, 12.2414, 17.3854, -148.201, -97.9569, 127.905
0.54, -1, 3.25674, 12.221, 17.3897, -148.226, -97.9486, 127.766
0.544, -1, 3.17961, 12.2007, 17.3941, -148.252, -97.9404, 127.627
0.548, -1, 3.10247, 12.1803, 17.3985, -148.277, -97.9321, 127.489
0.552, -1, 3.02532, 12.16, 17.4029, -148.303, -97.9239, 127.35
0.556, -1, 2.94817, 12.1396, 17.4073, -148.328, -97.9156, 127.211
0.56, -1, 2.87101, 12.1193, 17.4116, -148.353, -97.9073, 127.072
0.564, -1, 2.79384, 12.0989, 17.416, -148.379, -97.8991, 126.933
0.568, -1, 2.71667, 12.0786, 17.4204, -148.404, -97.8908, 126.794
0.572, -1, 2.63948, 12.0582, 17.4248, -148.43, -97.8826, 126.655
0.576, -1, 2.56229, 12.0378, 17.4292, -148.455, -97.8743, 126.516
0.58, -1, 2.4851, 12.0175, 17.4335, -148.481, -97.866, 126.377
0.584, -1, 2.40789, 11.9971, 17.4379, -148.506, -97.8578, 126.238
0.588, -1, 2.33068, 11.9767, 17.4423, -148.532, -97.8495, 126.099
0.592, -1, 2.25346, 11.9564, 17.4467, -148.557, -97.8412, 125.96
0.596, -1, 2.17623, 11.936, 17.4511, -148.583, -97.833, 125.821
0.6, -1, 2.099, 11.9156, 17.4555, -148.608, -97.8247, 125.682
0.604, -1, 2.02176, 11.8953, 17.4599, -148.633, -97.8164, 125.542
0.608, -1, 1.94451, 11.8749, 17.4642, -148.659, -97.8082, 125.403
0.612, -1, 1.86726, 11.8545, 17.4686, -148.684, -97.7999, 125.264
0.616, -1, 1.78999, 11.8341, 17.473, -148.71, -97.7916, 125.125
0.62, -1, 1.71272, 11.8137, 17.4774, -148.735, -97.7834, 124.986
0.624, -1, 1.63545, 11.7934, 17.4818, -148.761, -97.7751, 124.847
0.628, -1, 1.55816, 11.773, 17.4862, -148.786, -97.7668, 124.708
0.632, -1, 1.48087, 11.7526, 17.4906, -148.812, -97.7585, 124.568
0.636, -1, 1.40357, 11.7322, 17.4949, -148.837, -97.7503, 124.429
0.64, -1, 1.32626, 11.7118, 17.4993, -148.863, -97.742, 124.29
0.644, -1, 1.24895, 11.6914, 17.5037, -148.888, -97.7337, 124.151
0.648, -1, 1.17163, 11.671, 17.5081, -148.914, -97.7254, 124.012
0.652, -1, 1.0943, 11.6506, 17.5125, -148.939, -97.7172, 123.872
0.656, -1, 1.01696, 11.6302, 17.5169, -148.965, -97.7089, 123.733
0.66, -1, 0.939618, 11.6098, 17.5213, -148.99, -97.7006, 123.594
0.664, -1, 0.862267, 11.5894, 17.5257, -149.016, -97.6923, 123.455
0.668, -1, 0.784908, 11.569, 17.5301, -149.041, -97.684, 123.315
0.672, -1, 0.707542, 11.5486, 17.5345, -149.067, -97.6758, 123.176
0.676, -1, 0.630169, 11.5282, 17.5389, -149.092, -97.6675, 123.037
0.68, -1, 0.552789, 11.5078, 17.5432, -149.118, -97.6592, 122.897
0.684, -1, 0.475401, 11.4873, 17.5476, -149.143, -97.6509, 122.758
0.688, -1, 0.398005, 11.4669, 17.552, -149.169, -97.6426, 122.618
0.692, -1, 0.320602, 11.4465, 17.5564, -149.194, -97.6343, 122.479
0.696, -1, 0.243192, 11.4261, 17.5608, -149.22, -97.6261, 122.34
0.7, -1, 0.165774, 11.4057, 17.5652, -149.245, -97.6178, 122.2
0.704, -1, 0.0883477, 11.3853, 17.5696, -149.271, -97.6095, 122.061
0.708, -1, 0.0109143, 11.3648, 17.574, -149.297, -97.6012, 121.921
0.712, -1, -0.0665267, 11.3444, 17.5784, -149.322, -97.5929, 121.782
0.716, -1, -0.143975, 11.324, 17.5828, -149.348, -97.5846, 121.643
0.72, -1, -0.221432, 11.3035, 17.5872, -149.373, -97.5763, 121.503
0.724, -1, -0.298896, 11.2831, 17.5916, -149.399, -97.568, 121.364
0.728, -1, -0.376367, 11.2627, 17.596, -149.424, -97.5597, 121.224
0.732, -1, -0.453846, 11.2422, 17.6004, -149.45, -97.5514, 121.085
0.736, -1, -0.531333, 11.2218, 17.6048, -149.475, -97.5432, 120.945
0.74, -1, -0.608828, 11.2013, 17.6092, -149.501, -97.5349, 120.805
0.744, -1, -0.68633, 11.1809, 17.6136, -149.526, -97.5266, 120.666
0.748, -1, -0.76384, 11.1605, 17.618, -149.552, -97.5183, 120.526
0.752, -1, -0.841357, 11.14, 17.6224, -149.578, -97.51, 120.387
0.756, -1, -0.918883, 11.1196, 17.6268, -149.603, -97.5017, 120.247
0.76, -1, -0.996416, 11.0991, 17.6312, -149.629, -97.4934, 120.108
0.764, -1, -1.07396, 11.0787, 17.6356, -149.654, -97.4851, 119.968
0.768, -1, -1.15151, 11.0582, 17.64, -149.68, -97.4768, 119.828
0.772, -1, -1.22906, 11.0377, 17.6444, -149.705, -97.4685, 119.689
0.776, -1, -1.30663, 11.0173, 17.6488, -149.731, -97.4602, 119.549
0.78, -1, -1.3842, 10.9968, 17.6532, -149.757, -97.4519, 119.409
0.784, -1, -1.46178, 10.9764, 17.6576, -149.782, -97.4436, 119.27
0.788, -1, -1.53937, 10.9559, 17.662, -149.808, -97.4352, 119.13
0.792, -1, -1.61696, 10.9354, 17.6664, -149.833, -97.4269, 118.99
0.796, -1, -1.69457, 10.9149, 17.6708, -149.859, -97.4186, 118.85
0.8, -1, -1.77218, 10.8945, 17.6752, -149.885, -97.4103, 118.711
0.804, -1, -1.8498, 10.874, 17.6796, -149.91, -97.402, 118.571
0.808, -1, -1.92743, 10.8535, 17.684, -149.936, -97.3937, 118.431
0.812, -1, -2.00506, 10.833, 17.6885, -149.961, -97.3854, 118.291
0.816, -1, -2.08271, 10.8126, 17.6929, -149.987, -97.3771, 118.151
0.82, -1, -2.16036, 10.7921, 17.6973, -150.013, -97.3688, 118.012
0.824, -1, -2.23802, 10.7716, 17.7017, -150.038, -97.3605, 117.872
0.828, -1, -2.31569, 10.7511, 17.7061, -150.064, -97.3521, 117.732
0.832, -1, -2.39336, 10.7306, 17.7105, -150.089, -97.3438, 117.592
0.836, -1, -2.47105, 10.7101, 17.7149, -150.115, -97.3355, 117.452
0.84, -1, -2.54874, 10.6896, 17.7193, -150.141, -97.3272, 117.312
0.844, -1, -2.62644, 10.6691, 17.7237, -150.166, -97.3189, 117.172
0.848, -1, -2.70415, 10.6486, 17.7281, -150.192, -97.3106, 117.032
0.852, -1, -2.78186, 10.6281, 17.7326, -150.217, -97.3022, 116.892
0.856, -1, -2.85958, 10.6076, 17.737, -150.243, -97.2939, 116.752
0.86, -1, -2.93732, 10.5871, 17.7414, -150.269, -97.2856, 116.612
0.864, -1, -3.01506, 10.5666, 17.7458, -150.294, -97.2773, 116.472
0.868, -1, -3.0928, 10.5461, 17.7502, -150.32, -97.269, 116.332
0.872, -1, -3.17056, 10.5256, 17.7546, -150.346, -97.2606, 116.192
0.876, -1, -3.24832, 10.5051, 17.759, -150.371, -97.2523, 116.052
0.88, -1, -3.3261, 10.4846, 17.7635, -150.397, -97.244, 115.912
0.884, -1, -3.40388, 10.4641, 17.7679, -150.423, -97.2356, 115.772
0.888, -1, -3.48167, 10.4435, 17.7723, -150.448, -97.2273, 115.632
0.892, -1, -3.55946, 10.423, 17.7767, -150.474, -97.219, 115.492
0.896, -1, -3.63727, 10.4025, 17.7811, -150.5, -97.2107, 115.352
0.9, -1, -3.71508, 10.382, 17.7855, -150.525, -97.2023, 115.212
0.904, -1, -3.7929, 10.3614, 17.79, -150.551, -97.194, 115.072
0.908, -1, -3.87073, 10.3409, 17.7944, -150.577, -97.1857, 114.932
0.912, -1, -3.94856, 10.3204, 17.7988, -150.602, -97.1773, 114.791
0.916, -1, -4.02641, 10.2998, 17.8032, -150.628, -97.169, 114.651
0.92, -1, -4.10426, 10.2793, 17.8076, -150.654, -97.1607, 114.511
0.924, -1, -4.18212, 10.2588, 17.812, -150.679, -97.1523, 114.371
0.928, -1, -4.25999, 10.2382, 17.8165, -150.705, -97.144, 114.231
0.932, -1, -4.33787, 10.2177, 17.8209, -150.731, -97.1357, 114.09
0.936, -1, -4.41576, 10.1971, 17.8253, -150.756, -97.1273, 113.95
0.94, -1, -4.49365, 10.1766, 17.8297, -150.782, -97.119, 113.81
0.944, -1, -4.57155, 10.156, 17.8342, -150.808, -97.1107, 113.67
0.948, -1, -4.64946, 10.1355, 17.8386, -150.833, -97.1023, 113.529
0.952, -1, -4.72738, 10.1149, 17.843, -150.859, -97.094, 113.389
0.956, -1, -4.80531, 10.0944, 17.8474, -150.885, -97.0856, 113.249
0.96, -1, -4.88324, 10.0738, 17.8519, -150.91, -97.0773, 113.108
0.964, -1, -4.96119, 10.0533, 17.8563, -150.936, -97.069, 112.968
0.968, -1, -5.03914, 10.0327, 17.8607, -150.962, -97.0606, 112.828
0.972, -1, -5.1171, 10.0121, 17.8651, -150.988, -97.0523, 112.687
0.976, -1, -5.19507, 9.99157, 17.8696, -151.013, -97.0439, 112.547
0.98, -1, -5.27304, 9.971, 17.874, -151.039, -97.0356, 112.406
0.984, -1, -5.35102, 9.95043, 17.8784, -151.065, -97.0272, 112.266
0.988, -1, -5.42902, 9.92986, 17.8828, -151.09, -97.0189, 112.126
0.992, -1, -5.50702, 9.90928, 17.8873, -151.116, -97.0105, 111.985
0.996, -1, -5.58503, 9.8887, 17.8917, -151.142, -97.0022, 111.845
1, -1, -5.66304, 9.86812, 17.8961, -151.168, -96.9938, 111.704
1.004, -1, -5.74107, 9.84754, 17.9005, -151.193, -96.9855, 111.564
1.008, -1, -5.8191, 9.82696, 17.905, -151.219, -96.9771, 111.423
1.012, -1, -5.89714, 9.80637, 17.9094, -151.245, -96.9688, 111.283
1.016, -1, -5.9752, 9.78578, 17.9138, -151.271, -96.9604, 111.142
1.02, -1, -6.05325, 9.76519, 17.9183, -151.296, -96.9521, 111.001
1.024, -1, -6.13132, 9.7446, 17.9227, -151.322, -96.9437, 110.861
1.027, -1, -6.2094, 9.724, 17.9271, -151.348, -96.9353, 110.72
1.032, -1, -6.28748, 9.70341, 17.9316, -151.374, -96.927, 110.58
1.036, -1, -6.36557, 9.68281, 17.936, -151.399, -96.9186, 110.439
1.04, -1, -6.44367, 9.66221, 17.9404, -151.425, -96.9103, 110.298
1.044, -1, -6.52178, 9.6416, 17.9449, -151.451, -96.9019, 110.158
1.048, -1, -6.5999, 9.621, 17.9493, -151.477, -96.8935, 110.017
1.052, -1, -6.67802, 9.60039, 17.9537, -151.502, -96.8852, 109.876
1.055, -1, -6.75616, 9.57978, 17.9582, -151.528, -96.8768, 109.736
1.06, -1, -6.8343, 9.55917, 17.9626, -151.554, -96.8684, 109.595
1.064, -1, -6.91245, 9.53855, 17.967, -151.58, -96.8601, 109.454
1.068, -1, -6.99061, 9.51793, 17.9715, -151.605, -96.8517, 109.313
1.072, -1, -7.06877, 9.49731, 17.9759, -151.631, -96.8433, 109.173
1.076, -1, -7.14695, 9.47669, 17.9804, -151.657, -96.835, 109.032
1.08, -1, -7.22513, 9.45607, 17.9848, -151.683, -96.8266, 108.891
1.084, -1, -7.30333, 9.43544, 17.9892, -151.709, -96.8182, 108.75
1.088, -1, -7.38153, 9.41481, 17.9937, -151.734, -96.8099, 108.61
1.091, -1, -7.45974, 9.39418, 17.9981, -151.76, -96.8015, 108.469
1.096, -1, -7.53796, 9.37355, 18.0026, -151.786, -96.7931, 108.328
1.1, -1, -7.61618, 9.35292, 18.007, -151.812, -96.7848, 108.187
1.104, -1, -7.69442, 9.33228, 18.0114, -151.837, -96.7764, 108.046
1.108, -1, -7.77267, 9.31164, 18.0159, -151.863, -96.768, 107.905
1.112, -1, -7.85092, 9.291, 18.0203, -151.889, -96.7596, 107.764
1.116, -1, -7.92918, 9.27035, 18.0248, -151.915, -96.7512, 107.623
1.119, -1, -8.00745, 9.24971, 18.0292, -151.941, -96.7429, 107.482
1.124, -1, -8.08573, 9.22906, 18.0337, -151.967, -96.7345, 107.341
1.128, -1, -8.16402, 9.20841, 18.0381, -151.992, -96.7261, 107.201
1.132, -1, -8.24232, 9.18775, 18.0425, -152.018, -96.7177, 107.06
1.136, -1, -8.32062, 9.1671, 18.047, -152.044, -96.7093, 106.919
1.14, -1, -8.39894, 9.14644, 18.0514, -152.07, -96.701, 106.777
1.144, -1, -8.47726, 9.12578, 18.0559, -152.096, -96.6926, 106.636
1.147, -1, -8.55559, 9.10512, 18.0603, -152.121, -96.6842, 106.495
1.152, -1, -8.63393, 9.08445, 18.0648, -152.147, -96.6758, 106.354
1.156, -1, -8.71228, 9.06378, 18.0692, -152.173, -96.6674, 106.213
1.16, -1, -8.79064, 9.04311, 18.0737, -152.199, -96.659, 106.072
1.164, -1, -8.86901, 9.02244, 18.0781, -152.225, -96.6506, 105.931
1.168, -1, -8.94739, 9.00177, 18.0826, -152.251, -96.6423, 105.79
1.172, -1, -9.02577, 8.98109, 18.087, -152.277, -96.6339, 105.649
1.175, -1, -9.10417, 8.96041, 18.0915, -152.302, -96.6255, 105.508
1.18, -1, -9.18257, 8.93973, 18.0959, -152.328, -96.6171, 105.366
1.184, -1, -9.26098, 8.91905, 18.1004, -152.354, -96.6087, 105.225
1.188, -1, -9.33941, 8.89836, 18.1048, -152.38, -96.6003, 105.084
1.192, -1, -9.41784, 8.87767, 18.1093, -152.406, -96.5919, 104.943
1.196, -1, -9.49628, 8.85698, 18.1137, -152.432, -96.5835, 104.801
1.2, -1, -9.57473, 8.83629, 18.1182, -152.458, -96.5751, 104.66
1.204, -1, -9.65318, 8.81559, 18.1226, -152.483, -96.5667, 104.519
1.208, -1, -9.73165, 8.79489, 18.1271, -152.509, -96.5583, 104.378
1.212, -1, -9.81013, 8.77419, 18.1315, -152.535, -96.5499, 104.236
1.216, -1, -9.88861, 8.75349, 18.136, -152.561, -96.5415, 104.095
1.22, -1, -9.9671, 8.73278, 18.1405, -152.587, -96.5331, 103.954
1.224, -1, -10.0456, 8.71207, 18.1449, -152.613, -96.5247, 103.812
1.228, -1, -10.1241, 8.69136, 18.1494, -152.639, -96.5163, 103.671
1.232, -1, -10.2026, 8.67065, 18.1538, -152.665, -96.5079, 103.529
1.236, -1, -10.2812, 8.64994, 18.1583, -152.69, -96.4995, 103.388
1.24, -1, -10.3597, 8.62922, 18.1627, -152.716, -96.4911, 103.247
1.244, -1, -10.4383, 8.6085, 18.1672, -152.742, -96.4827, 103.105
1.248, -1, -10.5168, 8.58778, 18.1717, -152.768, -96.4743, 102.964
1.252, -1, -10.5954, 8.56705, 18.1761, -152.794, -96.4658, 102.822
1.256, -1, -10.674, 8.54632, 18.1806, -152.82, -96.4574, 102.681
1.26, -1, -10.7525, 8.5256, 18.185, -152.846, -96.449, 102.539
1.264, -1, -10.8311, 8.50486, 18.1895, -152.872, -96.4406, 102.398
1.267, -1, -10.9097, 8.48413, 18.194, -152.898, -96.4322, 102.256
1.272, -1, -10.9884, 8.46339, 18.1984, -152.924, -96.4238, 102.115
1.276, -1, -11.067, 8.44265, 18.2029, -152.95, -96.4154, 101.973
1.28, -1, -11.1456, 8.42191, 18.2074, -152.976, -96.4069, 101.831
1.284, -1, -11.2242, 8.40117, 18.2118, -153.001, -96.3985, 101.69
1.288, -1, -11.3029, 8.38042, 18.2163, -153.027, -96.3901, 101.548
1.292, -1, -11.3815, 8.35967, 18.2208, -153.053, -96.3817, 101.407
1.295, -1, -11.4602, 8.33892, 18.2252, -153.079, -96.3733, 101.265
1.3, -1, -11.5389, 8.31817, 18.2297, -153.105, -96.3648, 101.123
1.304, -1, -11.6176, 8.29741, 18.2342, -153.131, -96.3564, 100.982
1.308, -1, -11.6963, 8.27665, 18.2386, -153.157, -96.348, 100.84
1.312, -1, -11.775, 8.25589, 18.2431, -153.183, -96.3396, 100.698
1.316, -1, -11.8537, 8.23513, 18.2476, -153.209, -96.3312, 100.556
1.32, -1, -11.9324, 8.21437, 18.252, -153.235, -96.3227, 100.415
1.324, -1, -12.0111, 8.1936, 18.2565, -153.261, -96.3143, 100.273
1.328, -1, -12.0899, 8.17283, 18.261, -153.287, -96.3059, 100.131
1.332, -1, -12.1686, 8.15205, 18.2654, -153.313, -96.2974, 99.9892
1.336, -1, -12.2474, 8.13128, 18.2699, -153.339, -96.289, 99.8474
1.34, -1, -12.3262, 8.1105, 18.2744, -153.365, -96.2806, 99.7056
1.344, -1, -12.4049, 8.08972, 18.2789, -153.391, -96.2721, 99.5637
1.348, -1, -12.4837, 8.06894, 18.2833, -153.417, -96.2637, 99.4218
1.352, -1, -12.5625, 8.04815, 18.2878, -153.443, -96.2553, 99.2799
1.356, -1, -12.6413, 8.02736, 18.2923, -153.469, -96.2468, 99.138
1.36, -1, -12.7201, 8.00658, 18.2968, -153.495, -96.2384, 98.9961
1.364, -1, -12.799, 7.98578, 18.3012, -153.521, -96.23, 98.8542
1.368, -1, -12.8778, 7.96499, 18.3057, -153.547, -96.2215, 98.7122
1.372, -1, -12.9566, 7.94419, 18.3102, -153.573, -96.2131, 98.5702
1.376, -1, -13.0355, 7.92339, 18.3147, -153.599, -96.2046, 98.4282
1.38, -1, -13.1143, 7.90259, 18.3191, -153.625, -96.1962, 98.2862
1.384, -1, -13.1932, 7.88178, 18.3236, -153.651, -96.1878, 98.1442
1.388, -1, -13.2721, 7.86098, 18.3281, -153.677, -96.1793, 98.0022
1.392, -1, -13.351, 7.84017, 18.3326, -153.703, -96.1709, 97.8601
1.396, -1, -13.4299, 7.81936, 18.337, -153.729, -96.1624, 97.718
1.4, -1, -13.5088, 7.79854, 18.3415, -153.755, -96.154, 97.5759
1.404, -1, -13.5877, 7.77772, 18.346, -153.781, -96.1455, 97.4338
1.408, -1, -13.6666, 7.7569, 18.3505, -153.807, -96.1371, 97.2917
1.412, -1, -13.7456, 7.73608, 18.355, -153.833, -96.1286, 97.1496
1.416, -1, -13.8245, 7.71526, 18.3594, -153.859, -96.1202, 97.0074
1.42, -1, -13.9035, 7.69443, 18.3639, -153.885, -96.1117, 96.8652
1.424, -1, -13.9824, 7.6736, 18.3684, -153.911, -96.1033, 96.723
1.428, -1, -14.0614, 7.65277, 18.3729, -153.937, -96.0948, 96.5808
1.432, -1, -14.1404, 7.63194, 18.3774, -153.963, -96.0864, 96.4386
1.436, -1, -14.2194, 7.6111, 18.3819, -153.989, -96.0779, 96.2964
1.44, -1, -14.2984, 7.59026, 18.3863, -154.015, -96.0695, 96.1541
1.444, -1, -14.3774, 7.56942, 18.3908, -154.041, -96.061, 96.0118
1.448, -1, -14.4564, 7.54857, 18.3953, -154.067, -96.0525, 95.8695
1.452, -1, -14.5354, 7.52773, 18.3998, -154.093, -96.0441, 95.7272
1.456, -1, -14.6145, 7.50688, 18.4043, -154.119, -96.0356, 95.5849
1.46, -1, -14.6935, 7.48603, 18.4088, -154.146, -96.0272, 95.4425
1.464, -1, -14.7726, 7.46517, 18.4133, -154.172, -96.0187, 95.3002
1.468, -1, -14.8516, 7.44432, 18.4178, -154.198, -96.0102, 95.1578
1.472, -1, -14.9307, 7.42346, 18.4222, -154.224, -96.0018, 95.0154
1.476, -1, -15.0098, 7.40259, 18.4267, -154.25, -95.9933, 94.873
1.48, -1, -15.0889, 7.38173, 18.4312, -154.276, -95.9848, 94.7306
1.484, -1, -15.168, 7.36086, 18.4357, -154.302, -95.9764, 94.5881
1.488, -1, -15.2471, 7.33999, 18.4402, -154.328, -95.9679, 94.4456
1.492, -1, -15.3263, 7.31912, 18.4447, -154.354, -95.9594, 94.3032
1.496, -1, -15.4054, 7.29825, 18.4492, -154.38, -95.951, 94.1607
1.5, -1, -15.4845, 7.27737, 18.4537, -154.406, -95.9425, 94.0181
1.504, -1, -15.5637, 7.25649, 18.4582, -154.432, -95.934, 93.8756
1.508, -1, -15.6429, 7.23561, 18.4627, -154.459, -95.9255, 93.733
1.512, -1, -15.722, 7.21472, 18.4672, -154.485, -95.9171, 93.5905
1.516, -1, -15.8012, 7.19384, 18.4717, -154.511, -95.9086, 93.4479
1.52, -1, -15.8804, 7.17294, 18.4762, -154.537, -95.9001, 93.3053
1.524, -1, -15.9596, 7.15205, 18.4807, -154.563, -95.8916, 93.1626
1.528, -1, -16.0388, 7.13116, 18.4852, -154.589, -95.8832, 93.02
1.532, -1, -16.1181, 7.11026, 18.4896, -154.615, -95.8747, 92.8773
1.536, -1, -16.1973, 7.08936, 18.4941, -154.641, -95.8662, 92.7346
1.54, -1, -16.2765, 7.06845, 18.4986, -154.668, -95.8577, 92.592
1.544, -1, -16.3558, 7.04755, 18.5031, -154.694, -95.8492, 92.4492
1.548, -1, -16.435, 7.02664, 18.5076, -154.72, -95.8407, 92.3065
1.552, -1, -16.5143, 7.00573, 18.5121, -154.746, -95.8323, 92.1637
1.556, -1, -16.5936, 6.98481, 18.5166, -154.772, -95.8238, 92.021
1.56, -1, -16.6729, 6.9639, 18.5211, -154.798, -95.8153, 91.8782
1.564, -1, -16.7522, 6.94298, 18.5257, -154.824, -95.8068, 91.7354
1.568, -1, -16.8315, 6.92206, 18.5302, -154.851, -95.7983, 91.5926
1.572, -1, -16.9108, 6.90113, 18.5347, -154.877, -95.7898, 91.4497
1.576, -1, -16.9902, 6.8802, 18.5392, -154.903, -95.7813, 91.3069
1.58, -1, -17.0695, 6.85927, 18.5437, -154.929, -95.7728, 91.164
1.584, -1, -17.1489, 6.83834, 18.5482, -154.955, -95.7643, 91.0211
1.588, -1, -17.2282, 6.81741, 18.5527, -154.981, -95.7558, 90.8782
1.592, -1, -17.3076, 6.79647, 18.5572, -155.008, -95.7473, 90.7352
1.596, -1, -17.387, 6.77553, 18.5617, -155.034, -95.7388, 90.5923
1.6, -1, -17.4664, 6.75459, 18.5662, -155.06, -95.7303, 90.4493
1.604, -1, -17.5458, 6.73364, 18.5707, -155.086, -95.7218, 90.3063
1.608, -1, -17.6252, 6.71269, 18.5752, -155.112, -95.7133, 90.1633
1.612, -1, -17.7046, 6.69174, 18.5797, -155.138, -95.7048, 90.0203
1.616, -1, -17.7841, 6.67079, 18.5842, -155.165, -95.6963, 89.8773
1.62, -1, -17.8635, 6.64983, 18.5887, -155.191, -95.6878, 89.7342
1.624, -1, -17.943, 6.62887, 18.5933, -155.217, -95.6793, 89.5911
1.628, -1, -18.0224, 6.60791, 18.5978, -155.243, -95.6708, 89.448
1.632, -1, -18.1019, 6.58695, 18.6023, -155.269, -95.6623, 89.3049
1.636, -1, -18.1814, 6.56598, 18.6068, -155.296, -95.6538, 89.1618
1.64, -1, -18.2609, 6.54501, 18.6113, -155.322, -95.6453, 89.0186
1.644, -1, -18.3404, 6.52404, 18.6158, -155.348, -95.6368, 88.8754
1.648, -1, -18.4199, 6.50306, 18.6203, -155.374, -95.6283, 88.7323
1.652, -1, -18.4994, 6.48208, 18.6248, -155.401, -95.6198, 88.5891
1.656, -1, -18.579, 6.4611, 18.6294, -155.427, -95.6112, 88.4458
1.66, -1, -18.6585, 6.44012, 18.6339, -155.453, -95.6027, 88.3026
1.664, -1, -18.7381, 6.41914, 18.6384, -155.479, -95.5942, 88.1593
1.668, -1, -18.8176, 6.39815, 18.6429, -155.506, -95.5857, 88.016
1.672, -1, -18.8972, 6.37716, 18.6474, -155.532, -95.5772, 87.8727
1.676, -1, -18.9768, 6.35616, 18.6519, -155.558, -95.5687, 87.7294
1.68, -1, -19.0564, 6.33517, 18.6565, -155.584, -95.5601, 87.5861
1.684, -1, -19.136, 6.31417, 18.661, -155.611, -95.5516, 87.4427
1.688, -1, -19.2156, 6.29317, 18.6655, -155.637, -95.5431, 87.2994
1.692, -1, -19.2953, 6.27216, 18.67, -155.663, -95.5346, 87.156
1.696, -1, -19.3749, 6.25115, 18.6745, -155.689, -95.526, 87.0126
1.7, -1, -19.4545, 6.23014, 18.6791, -155.716, -95.5175, 86.8692
1.704, -1, -19.5342, 6.20913, 18.6836, -155.742, -95.509, 86.7257
1.708, -1, -19.6139, 6.18812, 18.6881, -155.768, -95.5005, 86.5823
1.712, -1, -19.6935, 6.1671, 18.6926, -155.794, -95.4919, 86.4388
1.716, -1, -19.7732, 6.14608, 18.6972, -155.821, -95.4834, 86.2953
1.72, -1, -19.8529, 6.12506, 18.7017, -155.847, -95.4749, 86.1518
1.724, -1, -19.9326, 6.10403, 18.7062, -155.873, -95.4663, 86.0082
1.728, -1, -20.0124, 6.083, 18.7107, -155.899, -95.4578, 85.8647
1.732, -1, -20.0921, 6.06197, 18.7153, -155.926, -95.4493, 85.7211
1.736, -1, -20.1718, 6.04094, 18.7198, -155.952, -95.4407, 85.5775
1.74, -1, -20.2516, 6.0199, 18.7243, -155.978, -95.4322, 85.4339
1.744, -1, -20.3313, 5.99886, 18.7288, -156.005, -95.4237, 85.2903
1.748, -1, -20.4111, 5.97782, 18.7334, -156.031, -95.4151, 85.1466
1.752, -1, -20.4909, 5.95677, 18.7379, -156.057, -95.4066, 85.003
1.756, -1, -20.5707, 5.93573, 18.7424, -156.084, -95.398, 84.8593
1.76, -1, -20.6505, 5.91468, 18.747, -156.11, -95.3895, 84.7156
1.764, -1, -20.7303, 5.89362, 18.7515, -156.136, -95.381, 84.5719
1.768, -1, -20.8101, 5.87257, 18.756, -156.163, -95.3724, 84.4281
1.772, -1, -20.8899, 5.85151, 18.7605, -156.189, -95.3639, 84.2844
1.776, -1, -20.9698, 5.83045, 18.7651, -156.215, -95.3553, 84.1406
1.78, -1, -21.0496, 5.80938, 18.7696, -156.242, -95.3468, 83.9968
1.784, -1, -21.1295, 5.78832, 18.7742, -156.268, -95.3382, 83.853
1.788, -1, -21.2094, 5.76725, 18.7787, -156.294, -95.3297, 83.7092
1.792, -1, -21.2892, 5.74618, 18.7832, -156.321, -95.3211, 83.5653
1.796, -1, -21.3691, 5.7251, 18.7878, -156.347, -95.3126, 83.4214
1.8, -1, -21.449, 5.70402, 18.7923, -156.373, -95.304, 83.2776
1.804, -1, -21.529, 5.68294, 18.7968, -156.4, -95.2955, 83.1337
1.808, -1, -21.6089, 5.66186, 18.8014, -156.426, -95.2869, 82.9897
1.812, -1, -21.6888, 5.64078, 18.8059, -156.452, -95.2783, 82.8458
1.816, -1, -21.7688, 5.61969, 18.8104, -156.479, -95.2698, 82.7018
1.82, -1, -21.8487, 5.5986, 18.815, -156.505, -95.2612, 82.5579
1.824, -1, -21.9287, 5.57751, 18.8195, -156.531, -95.2527, 82.4139
1.828, -1, -22.0087, 5.55641, 18.8241, -156.558, -95.2441, 82.2698
1.832, -1, -22.0886, 5.53531, 18.8286, -156.584, -95.2355, 82.1258
1.836, -1, -22.1686, 5.51421, 18.8331, -156.611, -95.227, 81.9818
1.84, -1, -22.2486, 5.4931, 18.8377, -156.637, -95.2184, 81.8377
1.844, -1, -22.3287, 5.472, 18.8422, -156.663, -95.2099, 81.6936
1.848, -1, -22.4087, 5.45089, 18.8468, -156.69, -95.2013, 81.5495
1.852, -1, -22.4887, 5.42977, 18.8513, -156.716, -95.1927, 81.4053
1.856, -1, -22.5688, 5.40866, 18.8559, -156.743, -95.1842, 81.2612
1.86, -1, -22.6488, 5.38754, 18.8604, -156.769, -95.1756, 81.117
1.864, -1, -22.7289, 5.36642, 18.8649, -156.795, -95.167, 80.9729
1.868, -1, -22.809, 5.34529, 18.8695, -156.822, -95.1584, 80.8286
1.872, -1, -22.8891, 5.32417, 18.874, -156.848, -95.1499, 80.6844
1.876, -1, -22.9692, 5.30304, 18.8786, -156.875, -95.1413, 80.5402
1.88, -1, -23.0493, 5.2819, 18.8831, -156.901, -95.1327, 80.3959
1.884, -1, -23.1294, 5.26077, 18.8877, -156.927, -95.1241, 80.2516
1.888, -1, -23.2096, 5.23963, 18.8922, -156.954, -95.1156, 80.1073
1.892, -1, -23.2897, 5.21849, 18.8968, -156.98, -95.107, 79.963
1.896, -1, -23.3699, 5.19734, 18.9013, -157.007, -95.0984, 79.8187
1.9, -1, -23.45, 5.1762, 18.9059, -157.033, -95.0898, 79.6743
1.904, -1, -23.5302, 5.15505, 18.9104, -157.06, -95.0812, 79.5299
1.908, -1, -23.6104, 5.13389, 18.915, -157.086, -95.0727, 79.3855
1.912, -1, -23.6906, 5.11274, 18.9195, -157.112, -95.0641, 79.2411
1.916, -1, -23.7708, 5.09158, 18.9241, -157.139, -95.0555, 79.0966
1.92, -1, -23.851, 5.07042, 18.9287, -157.165, -95.0469, 78.9522
1.924, -1, -23.9313, 5.04925, 18.9332, -157.192, -95.0383, 78.8077
1.928, -1, -24.0115, 5.02809, 18.9378, -157.218, -95.0297, 78.6632
1.932, -1, -24.0918, 5.00692, 18.9423, -157.245, -95.0211, 78.5187
1.936, -1, -24.172, 4.98574, 18.9469, -157.271, -95.0125, 78.3742
1.94, -1, -24.2523, 4.96457, 18.9514, -157.298, -95.0039, 78.2296
1.944, -1, -24.3326, 4.94339, 18.956, -157.324, -94.9953, 78.085
1.948, -1, -24.4129, 4.92221, 18.9605, -157.351, -94.9867, 77.9404
1.952, -1, -24.4932, 4.90102, 18.9651, -157.377, -94.9782, 77.7958
1.956, -1, -24.5735, 4.87984, 18.9697, -157.404, -94.9696, 77.6512
1.96, -1, -24.6539, 4.85865, 18.9742, -157.43, -94.961, 77.5065
1.964, -1, -24.7342, 4.83745, 18.9788, -157.457, -94.9524, 77.3618
1.968, -1, -24.8146, 4.81626, 18.9834, -157.483, -94.9438, 77.2171
1.972, -1, -24.8949, 4.79506, 18.9879, -157.51, -94.9352, 77.0724
1.976, -1, -24.9753, 4.77386, 18.9925, -157.536, -94.9265, 76.9277
1.98, -1, -25.0557, 4.75265, 18.997, -157.563, -94.9179, 76.7829
1.984, -1, -25.1361, 4.73145, 19.0016, -157.589, -94.9093, 76.6382
1.988, -1, -25.2165, 4.71024, 19.0062, -157.616, -94.9007, 76.4934
1.992, -1, -25.2969, 4.68902, 19.0107, -157.642, -94.8921, 76.3485
1.996, -1, -25.3773, 4.66781, 19.0153, -157.669, -94.8835, 76.2037
1.999, -1, -25.4578, 4.64659, 19.0199, -157.695, -94.8749, 76.0589
2.004, -1, -25.5382, 4.62537, 19.0244, -157.722, -94.8663, 75.914
2.008, -1, -25.6187, 4.60414, 19.029, -157.748, -94.8577, 75.7691
2.012, -1, -25.6992, 4.58291, 19.0336, -157.775, -94.8491, 75.6242
2.015, -1, -25.7796, 4.56168, 19.0381, -157.801, -94.8405, 75.4793
2.019, -1, -25.8601, 4.54045, 19.0427, -157.828, -94.8318, 75.3343
2.024, -1, -25.9406, 4.51921, 19.0473, -157.854, -94.8232, 75.1893
2.028, -1, -26.0212, 4.49797, 19.0518, -157.881, -94.8146, 75.0443
2.031, -1, -26.1017, 4.47673, 19.0564, -157.908, -94.806, 74.8993
2.036, -1, -26.1822, 4.45549, 19.061, -157.934, -94.7974, 74.7543
2.04, -1, -26.2628, 4.43424, 19.0656, -157.961, -94.7887, 74.6093
2.044, -1, -26.3433, 4.41299, 19.0701, -157.987, -94.7801, 74.4642
2.048, -1, -26.4239, 4.39174, 19.0747, -158.014, -94.7715, 74.3191
2.051, -1, -26.5045, 4.37048, 19.0793, -158.04, -94.7628, 74.174
2.055, -1, -26.5851, 4.34922, 19.0839, -158.067, -94.7542, 74.0289
2.06, -1, -26.6657, 4.32796, 19.0884, -158.094, -94.7456, 73.8837
2.064, -1, -26.7463, 4.30669, 19.093, -158.12, -94.737, 73.7385
2.068, -1, -26.8269, 4.28543, 19.0976, -158.147, -94.7283, 73.5934
2.071, -1, -26.9076, 4.26416, 19.1022, -158.173, -94.7197, 73.4482
2.076, -1, -26.9882, 4.24288, 19.1068, -158.2, -94.7111, 73.3029
2.08, -1, -27.0689, 4.22161, 19.1113, -158.226, -94.7024, 73.1577
2.084, -1, -27.1495, 4.20033, 19.1159, -158.253, -94.6938, 73.0124
2.087, -1, -27.2302, 4.17904, 19.1205, -158.28, -94.6852, 72.8671
2.092, -1, -27.3109, 4.15776, 19.1251, -158.306, -94.6765, 72.7218
2.096, -1, -27.3916, 4.13647, 19.1297, -158.333, -94.6679, 72.5765
2.1, -1, -27.4723, 4.11518, 19.1342, -158.36, -94.6592, 72.4312
2.104, -1, -27.553, 4.09389, 19.1388, -158.386, -94.6506, 72.2858
2.107, -1, -27.6338, 4.07259, 19.1434, -158.413, -94.642, 72.1404
2.111, -1, -27.7145, 4.05129, 19.148, -158.439, -94.6333, 71.995
2.116, -1, -27.7953, 4.02999, 19.1526, -158.466, -94.6247, 71.8496
2.12, -1, -27.8761, 4.00868, 19.1572, -158.493, -94.616, 71.7041
2.124, -1, -27.9568, 3.98737, 19.1617, -158.519, -94.6074, 71.5587
2.127, -1, -28.0376, 3.96606, 19.1663, -158.546, -94.5987, 71.4132
2.132, -1, -28.1184, 3.94475, 19.1709, -158.573, -94.5901, 71.2677
2.136, -1, -28.1992, 3.92343, 19.1755, -158.599, -94.5814, 71.1222
2.14, -1, -28.2801, 3.90211, 19.1801, -158.626, -94.5728, 70.9766
2.143, -1, -28.3609, 3.88079, 19.1847, -158.653, -94.5641, 70.8311
2.148, -1, -28.4417, 3.85946, 19.1893, -158.679, -94.5555, 70.6855
2.152, -1, -28.5226, 3.83814, 19.1939, -158.706, -94.5468, 70.5399
2.156, -1, -28.6035, 3.8168, 19.1985, -158.733, -94.5382, 70.3943
2.16, -1, -28.6843, 3.79547, 19.203, -158.759, -94.5295, 70.2486
2.163, -1, -28.7652, 3.77413, 19.2076, -158.786, -94.5209, 70.103
2.168, -1, -28.8461, 3.75279, 19.2122, -158.813, -94.5122, 69.9573
2.172, -1, -28.927, 3.73145, 19.2168, -158.839, -94.5035, 69.8116
2.176, -1, -29.008, 3.71011, 19.2214, -158.866, -94.4949, 69.6659
2.179, -1, -29.0889, 3.68876, 19.226, -158.893, -94.4862, 69.5201
2.184, -1, -29.1698, 3.6674, 19.2306, -158.919, -94.4775, 69.3744
2.188, -1, -29.2508, 3.64605, 19.2352, -158.946, -94.4689, 69.2286
2.192, -1, -29.3317, 3.62469, 19.2398, -158.973, -94.4602, 69.0828
2.196, -1, -29.4127, 3.60333, 19.2444, -158.999, -94.4515, 68.937
2.199, -1, -29.4937, 3.58197, 19.249, -159.026, -94.4429, 68.7911
2.204, -1, -29.5747, 3.5606, 19.2536, -159.053, -94.4342, 68.6453
2.208, -1, -29.6557, 3.53923, 19.2582, -159.08, -94.4255, 68.4994
2.212, -1, -29.7367, 3.51786, 19.2628, -159.106, -94.4169, 68.3535
2.216, -1, -29.8178, 3.49649, 19.2674, -159.133, -94.4082, 68.2076
2.219, -1, -29.8988, 3.47511, 19.272, -159.16, -94.3995, 68.0617
2.224, -1, -29.9799, 3.45373, 19.2766, -159.186, -94.3908, 67.9157
2.228, -1, -30.0609, 3.43234, 19.2812, -159.213, -94.3821, 67.7697
2.232, -1, -30.142, 3.41096, 19.2858, -159.24, -94.3735, 67.6237
2.235, -1, -30.2231, 3.38957, 19.2904, -159.267, -94.3648, 67.4777
2.24, -1, -30.3042, 3.36817, 19.295, -159.293, -94.3561, 67.3317
2.244, -1, -30.3853, 3.34678, 19.2996, -159.32, -94.3474, 67.1856
2.248, -1, -30.4664, 3.32538, 19.3042, -159.347, -94.3387, 67.0395
2.252, -1, -30.5476, 3.30398, 19.3088, -159.374, -94.3301, 66.8934
2.255, -1, -30.6287, 3.28257, 19.3134, -159.4, -94.3214, 66.7473
2.259, -1, -30.7099, 3.26117, 19.318, -159.427, -94.3127, 66.6012
2.264, -1, -30.791, 3.23976, 19.3226, -159.454, -94.304, 66.455
2.268, -1, -30.8722, 3.21834, 19.3272, -159.481, -94.2953, 66.3088
2.272, -1, -30.9534, 3.19692, 19.3319, -159.507, -94.2866, 66.1626
2.275, -1, -31.0346, 3.1755, 19.3365, -159.534, -94.2779, 66.0164
2.28, -1, -31.1158, 3.15408, 19.3411, -159.561, -94.2692, 65.8701
2.284, -1, -31.1971, 3.13266, 19.3457, -159.588, -94.2605, 65.7239
2.288, -1, -31.2783, 3.11123, 19.3503, -159.615, -94.2518, 65.5776
2.291, -1, -31.3595, 3.0898, 19.3549, -159.641, -94.2431, 65.4313
2.296, -1, -31.4408, 3.06836, 19.3595, -159.668, -94.2344, 65.2849
2.3, -1, -31.5221, 3.04692, 19.3641, -159.695, -94.2257, 65.1386
2.304, -1, -31.6033, 3.02548, 19.3688, -159.722, -94.217, 64.9922
2.308, -1, -31.6846, 3.00404, 19.3734, -159.749, -94.2083, 64.8458
2.311, -1, -31.7659, 2.98259, 19.378, -159.775, -94.1996, 64.6994
2.316, -1, -31.8473, 2.96114, 19.3826, -159.802, -94.1909, 64.553
2.32, -1, -31.9286, 2.93969, 19.3872, -159.829, -94.1822, 64.4065
2.324, -1, -32.0099, 2.91823, 19.3918, -159.856, -94.1735, 64.2601
2.328, -1, -32.0913, 2.89677, 19.3965, -159.883, -94.1648, 64.1136
2.331, -1, -32.1726, 2.87531, 19.4011, -159.91, -94.1561, 63.9671
2.336, -1, -32.254, 2.85385, 19.4057, -159.936, -94.1474, 63.8205
2.34, -1, -32.3354, 2.83238, 19.4103, -159.963, -94.1387, 63.674
2.344, -1, -32.4168, 2.81091, 19.4149, -159.99, -94.13, 63.5274
2.347, -1, -32.4982, 2.78944, 19.4196, -160.017, -94.1213, 63.3808
2.352, -1, -32.5796, 2.76796, 19.4242, -160.044, -94.1125, 63.2342
2.356, -1, -32.661, 2.74648, 19.4288, -160.071, -94.1038, 63.0876
2.36, -1, -32.7425, 2.725, 19.4334, -160.097, -94.0951, 62.9409
2.364, -1, -32.8239, 2.70351, 19.438, -160.124, -94.0864, 62.7943
2.367, -1, -32.9054, 2.68202, 19.4427, -160.151, -94.0777, 62.6476
2.372, -1, -32.9869, 2.66053, 19.4473, -160.178, -94.069, 62.5008
2.376, -1, -33.0684, 2.63904, 19.4519, -160.205, -94.0602, 62.3541
2.38, -1, -33.1499, 2.61754, 19.4566, -160.232, -94.0515, 62.2074
2.383, -1, -33.2314, 2.59604, 19.4612, -160.259, -94.0428, 62.0606
2.388, -1, -33.3129, 2.57453, 19.4658, -160.286, -94.0341, 61.9138
2.392, -1, -33.3944, 2.55303, 19.4704, -160.312, -94.0253, 61.767
2.396, -1, -33.476, 2.53152, 19.4751, -160.339, -94.0166, 61.6201
2.4, -1, -33.5575, 2.51001, 19.4797, -160.366, -94.0079, 61.4733
2.403, -1, -33.6391, 2.48849, 19.4843, -160.393, -93.9991, 61.3264
2.408, -1, -33.7206, 2.46697, 19.489, -160.42, -93.9904, 61.1795
2.412, -1, -33.8022, 2.44545, 19.4936, -160.447, -93.9817, 61.0326
2.416, -1, -33.8838, 2.42393, 19.4982, -160.474, -93.9729, 60.8856
2.42, -1, -33.9654, 2.4024, 19.5029, -160.501, -93.9642, 60.7387
2.423, -1, -34.0471, 2.38087, 19.5075, -160.528, -93.9555, 60.5917
2.428, -1, -34.1287, 2.35934, 19.5121, -160.555, -93.9467, 60.4447
2.432, -1, -34.2103, 2.3378, 19.5168, -160.581, -93.938, 60.2977
2.436, -1, -34.292, 2.31626, 19.5214, -160.608, -93.9292, 60.1506
2.439, -1, -34.3737, 2.29472, 19.526, -160.635, -93.9205, 60.0036
2.444, -1, -34.4553, 2.27317, 19.5307, -160.662, -93.9118, 59.8565
2.448, -1, -34.537, 2.25162, 19.5353, -160.689, -93.903, 59.7094
2.452, -1, -34.6187, 2.23007, 19.5399, -160.716, -93.8943, 59.5623
2.456, -1, -34.7005, 2.20852, 19.5446, -160.743, -93.8855, 59.4151
2.459, -1, -34.7822, 2.18696, 19.5492, -160.77, -93.8768, 59.268
2.464, -1, -34.8639, 2.1654, 19.5539, -160.797, -93.868, 59.1208
2.468, -1, -34.9456, 2.14384, 19.5585, -160.824, -93.8593, 58.9736
2.472, -1, -35.0273, 2.12229, 19.5632, -160.851, -93.8505, 58.8263
2.476, -1, -35.1087, 2.10078, 19.5678, -160.878, -93.8418, 58.6791
2.479, -1, -35.1896, 2.07936, 19.5726, -160.905, -93.833, 58.5319
2.484, -1, -35.2699, 2.05808, 19.5774, -160.932, -93.8243, 58.3848
2.488, -1, -35.3492, 2.03701, 19.5823, -160.959, -93.8155, 58.238
2.492, -1, -35.4274, 2.01623, 19.5874, -160.985, -93.8068, 58.0917
2.495, -1, -35.5041, 1.99582, 19.5925, -161.012, -93.7981, 57.9462
2.5, -1, -35.5792, 1.97587, 19.5979, -161.038, -93.7895, 57.802
2.504, -1, -35.6525, 1.95643, 19.6033, -161.064, -93.781, 57.6597
2.508, -1, -35.7238, 1.93757, 19.6087, -161.09, -93.7726, 57.52
2.512, -1, -35.793, 1.91933, 19.6142, -161.115, -93.7645, 57.3837
2.515, -1, -35.8597, 1.90177, 19.6195, -161.139, -93.7566, 57.2518
2.52, -1, -35.9238, 1.88494, 19.6246, -161.162, -93.749, 57.1251
2.524, -1, -35.9849, 1.8689, 19.6295, -161.184, -93.7417, 57.0044
2.528, -1, -36.0428, 1.85371, 19.634, -161.205, -93.7349, 56.8907
2.531, -1, -36.0974, 1.83943, 19.6381, -161.224, -93.7286, 56.7846
2.536, -1, -36.1483, 1.82609, 19.6418, -161.242, -93.7227, 56.6868
2.54, -1, -36.1956, 1.81369, 19.645, -161.258, -93.7174, 56.5977
2.544, -1, -36.2394, 1.80221, 19.6477, -161.273, -93.7126, 56.5177
2.548, -1, -36.2796, 1.79164, 19.6497, -161.286, -93.7084, 56.4468
2.551, -1, -36.3164, 1.78197, 19.6512, -161.297, -93.7048, 56.385
2.556, -1, -36.3497, 1.77321, 19.6521, -161.307, -93.7016, 56.3319
2.56, -1, -36.3794, 1.76538, 19.6527, -161.315, -93.699, 56.2869
2.564, -1, -36.4055, 1.75848, 19.6529, -161.322, -93.6968, 56.2494
2.568, -1, -36.4282, 1.75249, 19.6528, -161.328, -93.695, 56.2188
2.571, -1, -36.4476, 1.74738, 19.6525, -161.333, -93.6936, 56.194
2.576, -1, -36.4641, 1.74306, 19.6521, -161.336, -93.6925, 56.1745
2.58, -1, -36.4781, 1.73946, 19.6516, -161.339, -93.6917, 56.1594
2.584, -1, -36.4899, 1.73647, 19.6511, -161.341, -93.691, 56.1479
2.587, -1, -36.4998, 1.73403, 19.6505, -161.343, -93.6906, 56.1394
2.592, -1, -36.508, 1.73208, 19.65, -161.344, -93.6902, 56.1333
2.596, -1, -36.5146, 1.73056, 19.6495, -161.345, -93.69, 56.129
2.6, 2, -36.5197, 1.72941, 19.6491, -161.345, -93.6898, 56.126
2.604, 2, -36.5235, 1.72857, 19.6488, -161.346, -93.6897, 56.1239
2.607, 2, -36.5262, 1.72798, 19.6486, -161.346, -93.6897, 56.1225
2.612, 2, -36.5281, 1.72758, 19.6484, -161.346, -93.6896, 56.1216
2.616, 2, -36.5294, 1.7273, 19.6483, -161.346, -93.6896, 56.1209
2.62, 2, -36.5302, 1.72712, 19.6482, -161.346, -93.6896, 56.1205
2.624, 2, -36.5308, 1.72699, 19.6482, -161.346, -93.6896, 56.1202
2.627, 2, -36.5312, 1.72691, 19.6482, -161.346, -93.6895, 56.12
2.632, 2, -36.5315, 1.72685, 19.6481, -161.347, -93.6895, 56.1198
2.636, 2, -36.5317, 1.72681, 19.6481, -161.347, -93.6895, 56.1198
2.64, 2, -36.5318, 1.72679, 19.6481, -161.347, -93.6895, 56.1197
2.643, 2, -36.5319, 1.72677, 19.6481, -161.347, -93.6895, 56.1196
2.648, 2, -36.5319, 1.72676, 19.6481, -161.347, -93.6895, 56.1196
2.652, 2, -36.532, 1.72675, 19.6481, -161.347, -93.6895, 56.1196
2.656, 2, -36.532, 1.72674, 19.6481, -161.347, -93.6895, 56.1196
2.66, 2, -36.532, 1.72674, 19.6481, -161.347, -93.6895, 56.1196
2.663, 2, -36.532, 1.72674, 19.6481, -161.347, -93.6895, 56.1196
2.668, 2, -36.532, 1.72673, 19.6481, -161.347, -93.6895, 56.1196
2.672, 2, -36.532, 1.72673, 19.6481, -161.347, -93.6895, 56.1196
2.676, 2, -36.532, 1.72673, 19.6481, -161.347, -93.6895, 56.1196
2.679, 2, -36.532, 1.72673, 19.6481, -161.347, -93.6895, 56.1196
2.684, 2, -36.532, 1.72673, 19.6481, -161.347, -93.6895, 56.1196
2.688, 2, -36.532, 1.72673, 19.6481, -161.347, -93.6895, 56.1196
2.692, 2, -36.532, 1.72673, 19.6481, -161.347, -93.6895, 56.1196
2.696, 2, -36.532, 1.72673, 19.6481, -161.347, -93.6895, 56.1196
2.699, 2, -36.532, 1.72673, 19.6481, -161.347, -93.6895, 56.1196
2.704, 2, -36.532, 1.72673, 19.6481, -161.347, -93.6895, 56.1196
2.708, 2, -36.532, 1.72673, 19.6481, -161.347, -93.6895, 56.1196
2.712, 2, -36.532, 1.72673, 19.6481, -161.347, -93.6895, 56.1196
2.716, 2, -36.532, 1.72673, 19.6481, -161.347, -93.6895, 56.1196
2.719, 2, -36.532, 1.72673, 19.6481, -161.347, -93.6895, 56.1196
2.724, 2, -36.532, 1.72673, 19.6481, -161.347, -93.6895, 56.1196
2.728, 2, -36.532, 1.72673, 19.6481, -161.347, -93.6895, 56.1196
2.732, 2, -36.532, 1.72673, 19.6481, -161.347, -93.6895, 56.1196
2.735, 2, -36.532, 1.72673, 19.6481, -161.347, -93.6895, 56.1196
2.74, 2, -36.532, 1.72673, 19.6481, -161.347, -93.6895, 56.1196
2.744, 2, -36.532, 1.72673, 19.6481, -161.347, -93.6895, 56.1196
2.748, 2, -36.532, 1.72673, 19.6481, -161.347, -93.6895, 56.1196
2.752, 2, -36.532, 1.72673, 19.6481, -161.347, -93.6895, 56.1196
2.755, 2, -36.532, 1.72673, 19.6481, -161.347, -93.6895, 56.1196
2.76, 2, -36.532, 1.72673, 19.6481, -161.347, -93.6895, 56.1196
2.764, 2, -36.532, 1.72673, 19.6481, -161.347, -93.6895, 56.1196
2.768, 2, -36.532, 1.72673, 19.6481, -161.347, -93.6895, 56.1196
2.772, 2, -36.532, 1.72673, 19.6481, -161.347, -93.6895, 56.1196
2.775, 2, -36.532, 1.72673, 19.6481, -161.347, -93.6895, 56.1196
2.78, 2, -36.532, 1.72673, 19.6481, -161.347, -93.6895, 56.1196
2.784, 2, -36.532, 1.72673, 19.6481, -161.347, -93.6895, 56.1196
2.788, 2, -36.532, 1.72673, 19.6481, -161.347, -93.6895, 56.1196
2.791, 2, -36.532, 1.72673, 19.6481, -161.347, -93.6895, 56.1196
2.796, 2, -36.532, 1.72673, 19.6481, -161.347, -93.6895, 56.1196
2.8, 2, -36.532, 1.72673, 19.6481, -161.347, -93.6895, 56.1196
2.804, 2, -36.532, 1.72673, 19.6481, -161.347, -93.6895, 56.1196
2.808, 2, -36.532, 1.72673, 19.6481, -161.347, -93.6895, 56.1196
2.811, 2, -36.532, 1.72673, 19.6481, -161.347, -93.6895, 56.1196
2.816, 2, -36.532, 1.72673, 19.6481, -161.347, -93.6895, 56.1196
2.82, 2, -36.532, 1.72673, 19.6481, -161.347, -93.6895, 56.1196
2.824, 2, -36.532, 1.72673, 19.6481, -161.347, -93.6895, 56.1196
2.828, 2, -36.532, 1.72673, 19.6481, -161.347, -93.6895, 56.1196
2.831, 2, -36.532, 1.72673, 19.6481, -161.347, -93.6895, 56.1196
2.836, 2, -36.532, 1.72673, 19.6481, -161.347, -93.6895, 56.1196
2.84, 2, -36.532, 1.72673, 19.6481, -161.347, -93.6895, 56.1196
2.844, 2, -36.532, 1.72673, 19.6481, -161.347, -93.6895, 56.1196
2.847, 2, -36.532, 1.72673, 19.6481, -161.347, -93.6895, 56.1196
2.852, 2, -36.532, 1.72673, 19.6481, -161.347, -93.6895, 56.1196
2.856, 2, -36.532, 1.72673, 19.6481, -161.347, -93.6895, 56.1196
2.86, 2, -36.532, 1.72673, 19.6481, -161.347, -93.6895, 56.1196
2.864, 2, -36.532, 1.72673, 19.6481, -161.347, -93.6895, 56.1196
2.867, 2, -36.532, 1.72673, 19.6481, -161.347, -93.6895, 56.1196
2.872, 2, -36.532, 1.72673, 19.6481, -161.347, -93.6895, 56.1196
2.876, 2, -36.532, 1.72673, 19.6481, -161.347, -93.6895, 56.1196
2.88, 2, -36.532, 1.72673, 19.6481, -161.347, -93.6895, 56.1196
2.883, 2, -36.532, 1.72673, 19.6481, -161.347, -93.6895, 56.1196
2.888, 2, -36.532, 1.72673, 19.6481, -161.347, -93.6895, 56.1196
2.892, 2, -36.532, 1.72673, 19.6481, -161.347, -93.6895, 56.1196
2.896, 2, -36.532, 1.72673, 19.6481, -161.347, -93.6895, 56.1196
2.9, 2, -36.532, 1.72673, 19.6481, -161.347, -93.6895, 56.1196
2.903, 2, -36.532, 1.72673, 19.6481, -161.347, -93.6895, 56.1196
2.908, 2, -36.532, 1.72673, 19.6481, -161.347, -93.6895, 56.1196
2.912, 2, -36.532, 1.72673, 19.6481, -161.347, -93.6895, 56.1196
2.916, 2, -36.532, 1.72673, 19.6481, -161.347, -93.6895, 56.1196
2.92, 2, -36.532, 1.72673, 19.6481, -161.347, -93.6895, 56.1196
2.923, 2, -36.532, 1.72673, 19.6481, -161.347, -93.6895, 56.1196
2.928, 2, -36.532, 1.72673, 19.6481, -161.347, -93.6895, 56.1196
2.932, 2, -36.532, 1.72673, 19.6481, -161.347, -93.6895, 56.1196
2.936, 2, -36.532, 1.72673, 19.6481, -161.347, -93.6895, 56.1196
2.939, 2, -36.532, 1.72673, 19.6481, -161.347, -93.6895, 56.1196
2.944, 2, -36.532, 1.72673, 19.6481, -161.347, -93.6895, 56.1196
2.948, 2, -36.532, 1.72673, 19.6481, -161.347, -93.6895, 56.1196
2.952, 2, -36.532, 1.72673, 19.6481, -161.347, -93.6895, 56.1196
2.956, 2, -36.532, 1.72673, 19.6481, -161.347, -93.6895, 56.1196
2.959, 2, -36.532, 1.72673, 19.6481, -161.347, -93.6895, 56.1196
2.964, 2, -36.532, 1.72673, 19.6481, -161.347, -93.6895, 56.1196
2.968, 2, -36.532, 1.72673, 19.6481, -161.347, -93.6895, 56.1196
2.972, 2, -36.532, 1.72673, 19.6481, -161.347, -93.6895, 56.1196
2.976, 2, -36.532, 1.72673, 19.6481, -161.347, -93.6895, 56.1196
2.98, 2, -36.532, 1.72673, 19.6481, -161.347, -93.6895, 56.1196
2.984, 2, -36.532, 1.72673, 19.6481, -161.347, -93.6895, 56.1196
2.988, 2, -36.532, 1.72673, 19.6481, -161.347, -93.6895, 56.1196
2.992, 2, -36.532, 1.72673, 19.6481, -161.347, -93.6895, 56.1196
2.995, 2, -36.532, 1.72673, 19.6481, -161.347, -93.6895, 56.1196
3, 2, -36.532, 1.72673, 19.6481, -161.347, -93.6895, 56.1196
3.004, 2, -36.532, 1.72673, 19.6481, -161.347, -93.6895, 56.1196
3.008, 2, -36.532, 1.72673, 19.6481, -161.347, -93.6895, 56.1196
3.012, 2, -36.532, 1.72673, 19.6481, -161.347, -93.6895, 56.1196
3.015, 2, -36.532, 1.72673, 19.6481, -161.347, -93.6895, 56.1196
3.02, 2, -36.532, 1.72673, 19.6481, -161.347, -93.6895, 56.1196
3.024, 2, -36.532, 1.72673, 19.6481, -161.347, -93.6895, 56.1196
3.028, 2, -36.532, 1.72673, 19.6481, -161.347, -93.6895, 56.1196
3.031, 2, -36.532, 1.72673, 19.6481, -161.347, -93.6895, 56.1196
3.036, 2, -36.532, 1.72673, 19.6481, -161.347, -93.6895, 56.1196
3.04, 2, -36.532, 1.72673, 19.6481, -161.347, -93.6895, 56.1196
3.044, 2, -36.532, 1.72673, 19.6481, -161.347, -93.6895, 56.1196
3.048, 2, -36.532, 1.72673, 19.6481, -161.347, -93.6895, 56.1196
3.051, 2, -36.532, 1.72673, 19.6481, -161.347, -93.6895, 56.1196
3.056, 2, -36.532, 1.72673, 19.6481, -161.347, -93.6895, 56.1196
3.06, 2, -36.532, 1.72673, 19.6481, -161.347, -93.6895, 56.1196
3.064, 2, -36.532, 1.72673, 19.6481, -161.347, -93.6895, 56.1196
3.068, 2, -36.532, 1.72673, 19.6481, -161.347, -93.6895, 56.1196
3.071, 2, -36.532, 1.72673, 19.6481, -161.347, -93.6895, 56.1196
3.076, 2, -36.532, 1.72673, 19.6481, -161.347, -93.6895, 56.1196
3.08, 2, -36.532, 1.72673, 19.6481, -161.347, -93.6895, 56.1196
3.084, 2, -36.532, 1.72673, 19.6481, -161.347, -93.6895, 56.1196
3.087, 2, -36.532, 1.72673, 19.6481, -161.347, -93.6895, 56.1196
3.092, 2, -36.532, 1.72673, 19.6481, -161.347, -93.6895, 56.1196
3.096, 2, -36.532, 1.72673, 19.6481, -161.347, -93.6895, 56.1196
3.1, 2, -36.532, 1.72673, 19.6481, -161.347, -93.6895, 56.1196
3.104, 2, -36.532, 1.72673, 19.6481, -161.347, -93.6895, 56.1196
3.107, 2, -36.532, 1.72673, 19.6481, -161.347, -93.6895, 56.1196
3.112, 2, -36.532, 1.72673, 19.6481, -161.347, -93.6895, 56.1196
3.116, 2, -36.532, 1.72673, 19.6481, -161.347, -93.6895, 56.1196
3.12, 2, -36.532, 1.72673, 19.6481, -161.347, -93.6895, 56.1196
3.124, 2, -36.532, 1.72673, 19.6481, -161.347, -93.6895, 56.1196
3.128, 2, -36.532, 1.72673, 19.6481, -161.347, -93.6895, 56.1196
3.132, 2, -36.532, 1.72673, 19.6481, -161.347, -93.6895, 56.1196
3.136, 2, -36.532, 1.72673, 19.6481, -161.347, -93.6895, 56.1196
3.14, 2, -36.532, 1.72673, 19.6481, -161.347, -93.6895, 56.1196
3.143, 2, -36.532, 1.72673, 19.6481, -161.347, -93.6895, 56.1196
3.148, 2, -36.532, 1.72673, 19.6481, -161.347, -93.6895, 56.1196
3.152, 2, -36.532, 1.72673, 19.6481, -161.347, -93.6895, 56.1196
3.156, 2, -36.532, 1.72673, 19.6481, -161.347, -93.6895, 56.1196
3.16, 2, -36.532, 1.72673, 19.6481, -161.347, -93.6895, 56.1196
3.163, 2, -36.532, 1.72673, 19.6481, -161.347, -93.6895, 56.1196
3.168, 2, -36.532, 1.72673, 19.6481, -161.347, -93.6895, 56.1196
3.172, 2, -36.532, 1.72673, 19.6481, -161.347, -93.6895, 56.1196
3.176, 2, -36.532, 1.72673, 19.6481, -161.347, -93.6895, 56.1196
3.179, 2, -36.532, 1.72673, 19.6481, -161.347, -93.6895, 56.1196
3.184, 2, -36.532, 1.72673, 19.6481, -161.347, -93.6895, 56.1196
3.188, 2, -36.532, 1.72673, 19.6481, -161.347, -93.6895, 56.1196
3.192, 2, -36.532, 1.72673, 19.6481, -161.347, -93.6895, 56.1196
3.196, 2, -36.532, 1.72673, 19.6481, -161.347, -93.6895, 56.1196
3.199, 2, -36.532, 1.72673, 19.6481, -161.347, -93.6895, 56.1196
3.204, 2, -36.532, 1.72673, 19.6481, -161.347, -93.6895, 56.1196
3.208, 2, -36.532, 1.72673, 19.6481, -161.347, -93.6895, 56.1196
3.212, 2, -36.532, 1.72673, 19.6481, -161.347, -93.6895, 56.1196
3.216, 2, -36.532, 1.72673, 19.6481, -161.347, -93.6895, 56.1196
3.22, 2, -36.532, 1.72673, 19.6481, -161.347, -93.6895, 56.1196
3.224, 2, -36.532, 1.72673, 19.6481, -161.347, -93.6895, 56.1196
3.228, 2, -36.532, 1.72673, 19.6481, -161.347, -93.6895, 56.1196
3.232, 2, -36.532, 1.72673, 19.6481, -161.347, -93.6895, 56.1196
3.235, 2, -36.532, 1.72673, 19.6481, -161.347, -93.6895, 56.1196
3.24, 2, -36.532, 1.72673, 19.6481, -161.347, -93.6895, 56.1196
3.244, 2, -36.532, 1.72673, 19.6481, -161.347, -93.6895, 56.1196
3.248, 2, -36.532, 1.72673, 19.6481, -161.347, -93.6895, 56.1196
3.252, 2, -36.532, 1.72673, 19.6481, -161.347, -93.6895, 56.1196
3.255, 2, -36.532, 1.72673, 19.6481, -161.347, -93.6895, 56.1196
3.26, 2, -36.532, 1.72673, 19.6481, -161.347, -93.6895, 56.1196
3.264, 2, -36.532, 1.72673, 19.6481, -161.347, -93.6895, 56.1196
3.268, 2, -36.532, 1.72673, 19.6481, -161.347, -93.6895, 56.1196
3.272, 2, -36.532, 1.72673, 19.6481, -161.347, -93.6895, 56.1196
3.276, 2, -36.532, 1.72673, 19.6481, -161.347, -93.6895, 56.1196
3.28, 2, -36.532, 1.72673, 19.6481, -161.347, -93.6895, 56.1196
3.284, 2, -36.532, 1.72673, 19.6481, -161.347, -93.6895, 56.1196
3.288, 2, -36.532, 1.72673, 19.6481, -161.347, -93.6895, 56.1196
3.291, 2, -36.532, 1.72673, 19.6481, -161.347, -93.6895, 56.1196
3.296, 2, -36.532, 1.72673, 19.6481, -161.347, -93.6895, 56.1196
3.3, 2, -36.532, 1.72673, 19.6481, -161.347, -93.6895, 56.1196
3.304, 2, -36.532, 1.72673, 19.6481, -161.347, -93.6895, 56.1196
3.308, 2, -36.532, 1.72673, 19.6481, -161.347, -93.6895, 56.1196
3.312, 2, -36.532, 1.72673, 19.6481, -161.347, -93.6895, 56.1196
3.316, 2, -36.532, 1.72673, 19.6481, -161.347, -93.6895, 56.1196
3.32, 2, -36.532, 1.72673, 19.6481, -161.347, -93.6895, 56.1196
3.324, 2, -36.532, 1.72673, 19.6481, -161.347, -93.6895, 56.1196
3.328, 2, -36.532, 1.72673, 19.6481, -161.347, -93.6895, 56.1196
3.332, 2, -36.532, 1.72673, 19.6481, -161.347, -93.6895, 56.1196
3.336, 2, -36.532, 1.72673, 19.6481, -161.347, -93.6895, 56.1196
3.34, 2, -36.532, 1.72673, 19.6481, -161.347, -93.6895, 56.1196
3.344, 2, -36.532, 1.72673, 19.6481, -161.347, -93.6895, 56.1196
3.347, 2, -36.532, 1.72673, 19.6481, -161.347, -93.6895, 56.1196
3.352, 2, -36.532, 1.72673, 19.6481, -161.347, -93.6895, 56.1196
3.356, 2, -36.532, 1.72673, 19.6481, -161.347, -93.6895, 56.1196
3.36, 2, -36.532, 1.72673, 19.6481, -161.347, -93.6895, 56.1196
3.364, 2, -36.532, 1.72673, 19.6481, -161.347, -93.6895, 56.1196
3.368, 2, -36.532, 1.72673, 19.6481, -161.347, -93.6895, 56.1196
3.372, 2, -36.532, 1.72673, 19.6481, -161.347, -93.6895, 56.1196
3.376, 2, -36.532, 1.72673, 19.6481, -161.347, -93.6895, 56.1196
3.38, 2, -36.532, 1.72673, 19.6481, -161.347, -93.6895, 56.1196
3.383, 2, -36.532, 1.72673, 19.6481, -161.347, -93.6895, 56.1196
3.388, 2, -36.532, 1.72673, 19.6481, -161.347, -93.6895, 56.1196
3.392, 2, -36.532, 1.72673, 19.6481, -161.347, -93.6895, 56.1196
3.396, 2, -36.532, 1.72673, 19.6481, -161.347, -93.6895, 56.1196
3.4, 2, -36.532, 1.72673, 19.6481, -161.347, -93.6895, 56.1196
3.403, 2, -36.532, 1.72673, 19.6481, -161.347, -93.6895, 56.1196
3.408, 2, -36.532, 1.72673, 19.6481, -161.347, -93.6895, 56.1196
3.412, 2, -36.532, 1.72673, 19.6481, -161.347, -93.6895, 56.1196
3.416, 2, -36.532, 1.72673, 19.6481, -161.347, -93.6895, 56.1196
3.42, 2, -36.532, 1.72673, 19.6481, -161.347, -93.6895, 56.1196
3.424, 2, -36.532, 1.72673, 19.6481, -161.347, -93.6895, 56.1196
3.428, 2, -36.532, 1.72673, 19.6481, -161.347, -93.6895, 56.1196
3.432, 2, -36.532, 1.72673, 19.6481, -161.347, -93.6895, 56.1196
3.436, 2, -36.532, 1.72673, 19.6481, -161.347, -93.6895, 56.1196
3.439, 2, -36.532, 1.72673, 19.6481, -161.347, -93.6895, 56.1196
3.444, 2, -36.532, 1.72673, 19.6481, -161.347, -93.6895, 56.1196
3.448, 2, -36.532, 1.72673, 19.6481, -161.347, -93.6895, 56.1196
3.452, 2, -36.532, 1.72673, 19.6481, -161.347, -93.6895, 56.1196
3.456, 2, -36.532, 1.72673, 19.6481, -161.347, -93.6895, 56.1196
3.46, 2, -36.532, 1.72673, 19.6481, -161.347, -93.6895, 56.1196
3.464, 2, -36.532, 1.72673, 19.6481, -161.347, -93.6895, 56.1196
3.468, 2, -36.532, 1.72673, 19.6481, -161.347, -93.6895, 56.1196
3.472, 2, -36.532, 1.72673, 19.6481, -161.347, -93.6895, 56.1196
3.476, 2, -36.532, 1.72673, 19.6481, -161.347, -93.6895, 56.1196
3.48, 2, -36.532, 1.72673, 19.6481, -161.347, -93.6895, 56.1196
3.484, 2, -36.532, 1.72673, 19.6481, -161.347, -93.6895, 56.1196
3.488, 2, -36.532, 1.72673, 19.6481, -161.347, -93.6895, 56.1196
3.492, 2, -36.532, 1.72673, 19.6481, -161.347, -93.6895, 56.1196
3.495, 2, -36.532, 1.72673, 19.6481, -161.347, -93.6895, 56.1196
3.5, 2, -36.532, 1.72673, 19.6481, -161.347, -93.6895, 56.1196
3.504, 2, -36.532, 1.72673, 19.6481, -161.347, -93.6895, 56.1196
3.508, 2, -36.532, 1.72673, 19.6481, -161.347, -93.6895, 56.1196
3.512, 2, -36.532, 1.72673, 19.6481, -161.347, -93.6895, 56.1196
3.516, 2, -36.532, 1.72673, 19.6481, -161.347, -93.6895, 56.1196
3.52, 2, -36.532, 1.72673, 19.6481, -161.347, -93.6895, 56.1196
3.524, 2, -36.532, 1.72673, 19.6481, -161.347, -93.6895, 56.1196
3.528, 2, -36.532, 1.72673, 19.6481, -161.347, -93.6895, 56.1196
3.531, 2, -36.532, 1.72673, 19.6481, -161.347, -93.6895, 56.1196
3.536, 2, -36.532, 1.72673, 19.6481, -161.347, -93.6895, 56.1196
3.54, 2, -36.532, 1.72673, 19.6481, -161.347, -93.6895, 56.1196
3.544, 2, -36.532, 1.72673, 19.6481, -161.347, -93.6895, 56.1196
3.548, 2, -36.532, 1.72673, 19.6481, -161.347, -93.6895, 56.1196
3.552, 2, -36.532, 1.72673, 19.6481, -161.347, -93.6895, 56.1196
3.556, 2, -36.532, 1.72673, 19.6481, -161.347, -93.6895, 56.1196
3.56, 2, -36.532, 1.72673, 19.6481, -161.347, -93.6895, 56.1196
3.564, 2, -36.532, 1.72673, 19.6481, -161.347, -93.6895, 56.1196
3.568, 2, -36.532, 1.72673, 19.6481, -161.347, -93.6895, 56.1196
3.572, 2, -36.532, 1.72673, 19.6481, -161.347, -93.6895, 56.1196
3.576, 2, -36.532, 1.72673, 19.6481, -161.347, -93.6895, 56.1196
3.58, 2, -36.532, 1.72673, 19.6481, -161.347, -93.6895, 56.1196
3.584, 2, -36.532, 1.72673, 19.6481, -161.347, -93.6895, 56.1196
3.587, 2, -36.532, 1.72673, 19.6481, -161.347, -93.6895, 56.1196
3.592, 2, -36.532, 1.72673, 19.6481, -161.347, -93.6895, 56.1196
3.596, 2, -36.532, 1.72673, 19.6481, -161.347, -93.6895, 56.1196
3.6, 2, -36.532, 1.72673, 19.6481, -161.347, -93.6895, 56.1196
3.604, 2, -36.532, 1.72673, 19.6481, -161.347, -93.6895, 56.1196
3.608, 2, -36.532, 1.72673, 19.6481, -161.347, -93.6895, 56.1196
3.612, 2, -36.532, 1.72673, 19.6481, -161.347, -93.6895, 56.1196
3.616, 2, -36.532, 1.72673, 19.6481, -161.347, -93.6895, 56.1196
3.62, 2, -36.532, 1.72673, 19.6481, -161.347, -93.6895, 56.1196
3.624, 2, -36.532, 1.72673, 19.6481, -161.347, -93.6895, 56.1196
3.628, 2, -36.532, 1.72673, 19.6481, -161.347, -93.6895, 56.1196
3.632, 2, -36.532, 1.72673, 19.6481, -161.347, -93.6895, 56.1196
3.636, 2, -36.532, 1.72673, 19.6481, -161.347, -93.6895, 56.1196
3.64, 2, -36.532, 1.72673, 19.6481, -161.347, -93.6895, 56.1196
3.644, 2, -36.532, 1.72673, 19.6481, -161.347, -93.6895, 56.1196
3.648, 2, -36.532, 1.72673, 19.6481, -161.347, -93.6895, 56.1196
3.652, 2, -36.532, 1.72673, 19.6481, -161.347, -93.6895, 56.1196
3.656, 2, -36.532, 1.72673, 19.6481, -161.347, -93.6895, 56.1196
3.66, 2, -36.532, 1.72673, 19.6481, -161.347, -93.6895, 56.1196
3.664, 2, -36.532, 1.72673, 19.6481, -161.347, -93.6895, 56.1196
3.668, 2, -36.532, 1.72673, 19.6481, -161.347, -93.6895, 56.1196
3.672, 2, -36.532, 1.72673, 19.6481, -161.347, -93.6895, 56.1196
3.676, 4, -36.532, 1.72673, 19.6481, -161.347, -93.6895, 56.1196
3.679, 4, -36.532, 1.72673, 19.6481, -161.347, -93.6895, 56.1196
3.684, 4, -36.532, 1.72673, 19.6481, -161.347, -93.6895, 56.1196
3.688, 4, -36.532, 1.72673, 19.6481, -161.347, -93.6895, 56.1196
3.692, 4, -36.532, 1.72673, 19.6481, -161.347, -93.6895, 56.1196
3.696, 4, -36.532, 1.72673, 19.6481, -161.347, -93.6895, 56.1196
3.7, 4, -36.532, 1.72673, 19.6481, -161.347, -93.6895, 56.1196
3.704, 4, -36.532, 1.72673, 19.6481, -161.347, -93.6895, 56.1196
3.708, 4, -36.532, 1.72673, 19.6481, -161.347, -93.6895, 56.1196
3.712, 4, -36.532, 1.72673, 19.6481, -161.347, -93.6895, 56.1196
3.716, 4, -36.532, 1.72673, 19.6481, -161.347, -93.6895, 56.1196
3.72, 4, -36.532, 1.72673, 19.6481, -161.347, -93.6895, 56.1196
3.724, 4, -36.532, 1.72673, 19.6481, -161.347, -93.6895, 56.1196
3.728, 4, -36.532, 1.72673, 19.6481, -161.347, -93.6895, 56.1196
3.732, 4, -36.532, 1.72673, 19.6481, -161.347, -93.6895, 56.1196
3.735, 4, -36.532, 1.72673, 19.6481, -161.347, -93.6895, 56.1196
3.74, 4, -36.532, 1.72673, 19.6481, -161.347, -93.6895, 56.1196
3.744, 4, -36.532, 1.72673, 19.6481, -161.347, -93.6895, 56.1196
3.748, 4, -36.532, 1.72673, 19.6481, -161.347, -93.6895, 56.1196
3.752, 4, -36.532, 1.72673, 19.6481, -161.347, -93.6895, 56.1196
3.756, 4, -36.532, 1.72673, 19.6481, -161.347, -93.6895, 56.1196
3.76, 4, -36.532, 1.72673, 19.6481, -161.347, -93.6895, 56.1196
3.764, 4, -36.532, 1.72673, 19.6481, -161.347, -93.6895, 56.1196
3.768, 4, -36.532, 1.72673, 19.6481, -161.347, -93.6895, 56.1196
3.772, 4, -36.532, 1.72673, 19.6481, -161.347, -93.6895, 56.1196
3.776, 4, -36.532, 1.72673, 19.6481, -161.347, -93.6895, 56.1196
3.78, 4, -36.532, 1.72673, 19.6481, -161.347, -93.6895, 56.1196
3.784, 4, -36.532, 1.72673, 19.6481, -161.347, -93.6895, 56.1196
3.788, 4, -36.532, 1.72673, 19.6481, -161.347, -93.6895, 56.1196
3.792, 4, -36.532, 1.72673, 19.6481, -161.347, -93.6895, 56.1196
3.796, 4, -36.532, 1.72673, 19.6481, -161.347, -93.6895, 56.1196
3.8, 4, -36.532, 1.72673, 19.6481, -161.347, -93.6895, 56.1196
3.804, 4, -36.532, 1.72673, 19.6481, -161.347, -93.6895, 56.1196
3.808, 4, -36.532, 1.7267, 19.6481, -161.347, -93.6895, 56.1196
3.812, 4, -36.5318, 1.72659, 19.6481, -161.347, -93.6895, 56.1196
3.816, 4, -36.5314, 1.72632, 19.6482, -161.347, -93.6895, 56.1196
3.82, 4, -36.5305, 1.72575, 19.6484, -161.347, -93.6895, 56.1195
3.824, 4, -36.5292, 1.72476, 19.6488, -161.346, -93.6895, 56.1195
3.828, 4, -36.5272, 1.72322, 19.6494, -161.346, -93.6895, 56.1194
3.832, 4, -36.5245, 1.72104, 19.6503, -161.346, -93.6894, 56.1192
3.836, 4, -36.5211, 1.71814, 19.6517, -161.346, -93.6892, 56.1189
3.84, 4, -36.5171, 1.71449, 19.6537, -161.345, -93.6889, 56.1184
3.844, 4, -36.5125, 1.71007, 19.6564, -161.345, -93.6884, 56.1177
3.848, 5, -36.5074, 1.70483, 19.6599, -161.344, -93.6877, 56.1167
3.852, 5, -36.5017, 1.69869, 19.6645, -161.342, -93.6866, 56.1153
3.856, 5, -36.4953, 1.69159, 19.6701, -161.34, -93.6852, 56.1135
3.86, 5, -36.4882, 1.68347, 19.677, -161.338, -93.6834, 56.1112
3.864, 5, -36.4804, 1.6743, 19.6853, -161.335, -93.6811, 56.1084
3.868, 5, -36.472, 1.66408, 19.695, -161.332, -93.6784, 56.105
3.872, 5, -36.4629, 1.65284, 19.7062, -161.328, -93.6751, 56.1011
3.876, 5, -36.4531, 1.64061, 19.7188, -161.323, -93.6714, 56.0966
3.88, 5, -36.4428, 1.62742, 19.7328, -161.318, -93.6672, 56.0916
3.884, 5, -36.4318, 1.61325, 19.7483, -161.313, -93.6625, 56.086
3.888, 5, -36.4201, 1.59808, 19.765, -161.307, -93.6574, 56.0799
3.892, 5, -36.4077, 1.58184, 19.7829, -161.3, -93.6519, 56.0734
3.896, 5, -36.3945, 1.56455, 19.8019, -161.293, -93.6461, 56.0665
3.9, 5, -36.3805, 1.54625, 19.8219, -161.286, -93.64, 56.0592
3.904, 5, -36.3658, 1.527, 19.8427, -161.278, -93.6337, 56.0517
3.908, 5, -36.3504, 1.50691, 19.8642, -161.27, -93.6272, 56.044
3.912, 5, -36.3343, 1.48609, 19.8862, -161.262, -93.6206, 56.0361
3.916, 5, -36.3177, 1.46464, 19.9087, -161.254, -93.6138, 56.0281
3.92, 5, -36.3006, 1.44267, 19.9315, -161.246, -93.607, 56.0199
3.924, 5, -36.283, 1.42025, 19.9546, -161.238, -93.6002, 56.0117
3.928, 5, -36.2649, 1.39748, 19.9779, -161.229, -93.5933, 56.0035
3.932, 5, -36.2465, 1.37443, 20.0014, -161.221, -93.5863, 55.9953
3.936, 5, -36.2278, 1.35117, 20.0249, -161.212, -93.5794, 55.987
3.94, 5, -36.2089, 1.32776, 20.0485, -161.204, -93.5725, 55.9787
3.944, 5, -36.1899, 1.30426, 20.0722, -161.195, -93.5655, 55.9704
3.948, 5, -36.1707, 1.28069, 20.0958, -161.187, -93.5586, 55.9621
3.952, 5, -36.1515, 1.25708, 20.1195, -161.178, -93.5516, 55.9538
3.956, 5, -36.1322, 1.23345, 20.1432, -161.17, -93.5447, 55.9456
3.96, 5, -36.1129, 1.20981, 20.1669, -161.161, -93.5377, 55.9373
3.964, 5, -36.0935, 1.18615, 20.1905, -161.152, -93.5307, 55.929
3.968, 5, -36.0742, 1.1625, 20.2142, -161.144, -93.5238, 55.9208
3.972, 5, -36.0548, 1.13884, 20.2378, -161.135, -93.5169, 55.9126
3.976, 5, -36.0354, 1.11519, 20.2614, -161.127, -93.5099, 55.9043
3.98, 5, -36.0159, 1.09154, 20.285, -161.118, -93.503, 55.8961
3.984, 5, -35.9965, 1.0679, 20.3086, -161.11, -93.496, 55.8879
3.988, 5, -35.9771, 1.04427, 20.3322, -161.101, -93.4891, 55.8797
3.992, 5, -35.9576, 1.02064, 20.3557, -161.092, -93.4822, 55.8716
3.996, 5, -35.9381, 0.997014, 20.3793, -161.084, -93.4752, 55.8634
3.999, 5, -35.9186, 0.9734, 20.4028, -161.075, -93.4683, 55.8553
4.004, 5, -35.8991, 0.949793, 20.4263, -161.067, -93.4614, 55.8471
4.008, 5, -35.8796, 0.926193, 20.4498, -161.058, -93.4545, 55.839
4.012, 5, -35.8601, 0.902601, 20.4733, -161.049, -93.4475, 55.8309
4.016, 5, -35.8406, 0.879017, 20.4967, -161.041, -93.4406, 55.8228
4.02, 5, -35.821, 0.85544, 20.5202, -161.032, -93.4337, 55.8147
4.024, 5, -35.8015, 0.831871, 20.5436, -161.024, -93.4268, 55.8066
4.028, 5, -35.7819, 0.80831, 20.567, -161.015, -93.4199, 55.7985
4.032, 5, -35.7623, 0.784756, 20.5904, -161.006, -93.413, 55.7904
4.036, 5, -35.7428, 0.76121, 20.6138, -160.998, -93.4061, 55.7824
4.04, 5, -35.7232, 0.737672, 20.6371, -160.989, -93.3992, 55.7743
4.044, 5, -35.7036, 0.714142, 20.6605, -160.981, -93.3923, 55.7663
4.048, 5, -35.6839, 0.69062, 20.6838, -160.972, -93.3854, 55.7583
4.052, 5, -35.6643, 0.667105, 20.7071, -160.963, -93.3785, 55.7503
4.056, 5, -35.6447, 0.643599, 20.7304, -160.955, -93.3716, 55.7423
4.06, 5, -35.625, 0.6201, 20.7537, -160.946, -93.3647, 55.7343
4.064, 5, -35.6054, 0.596609, 20.777, -160.937, -93.3578, 55.7264
4.068, 5, -35.5857, 0.573125, 20.8002, -160.929, -93.3509, 55.7184
4.072, 5, -35.566, 0.54965, 20.8234, -160.92, -93.344, 55.7105
4.076, 5, -35.5463, 0.526182, 20.8466, -160.912, -93.3371, 55.7025
4.08, 5, -35.5266, 0.502723, 20.8698, -160.903, -93.3302, 55.6946
4.084, 5, -35.5069, 0.479271, 20.893, -160.894, -93.3233, 55.6867
4.088, 5, -35.4871, 0.455827, 20.9162, -160.886, -93.3165, 55.6788
4.092, 5, -35.4674, 0.432391, 20.9393, -160.877, -93.3096, 55.6709
4.096, 5, -35.4476, 0.408963, 20.9625, -160.868, -93.3027, 55.663
4.1, 5, -35.4279, 0.385543, 20.9856, -160.86, -93.2958, 55.6552
4.104, 5, -35.4081, 0.362131, 21.0087, -160.851, -93.289, 55.6473
4.108, 5, -35.3883, 0.338727, 21.0317, -160.842, -93.2821, 55.6395
4.112, 5, -35.3685, 0.315331, 21.0548, -160.834, -93.2752, 55.6316
4.116, 5, -35.3487, 0.291942, 21.0779, -160.825, -93.2684, 55.6238
4.12, 5, -35.3289, 0.268562, 21.1009, -160.816, -93.2615, 55.616
4.124, 5, -35.3091, 0.245189, 21.1239, -160.808, -93.2547, 55.6082
4.128, 5, -35.2892, 0.221825, 21.1469, -160.799, -93.2478, 55.6004
4.132, 5, -35.2694, 0.198469, 21.1699, -160.79, -93.2409, 55.5927
4.136, 5, -35.2495, 0.17512, 21.1928, -160.782, -93.2341, 55.5849
4.14, 5, -35.2296, 0.15178, 21.2158, -160.773, -93.2272, 55.5772
4.144, 5, -35.2097, 0.128447, 21.2387, -160.764, -93.2204, 55.5694
4.148, 5, -35.1898, 0.105123, 21.2616, -160.756, -93.2135, 55.5617
4.152, 5, -35.1699, 0.0818064, 21.2845, -160.747, -93.2067, 55.554
4.156, 5, -35.15, 0.0584981, 21.3074, -160.738, -93.1999, 55.5463
4.16, 5, -35.1301, 0.0351977, 21.3303, -160.73, -93.193, 55.5386
4.164, 5, -35.1101, 0.0119054, 21.3531, -160.721, -93.1862, 55.5309
4.168, 5, -35.0902, -0.0113789, 21.376, -160.712, -93.1793, 55.5233
4.172, 5, -35.0702, -0.0346551, 21.3988, -160.703, -93.1725, 55.5156
4.176, 5, -35.0502, -0.0579233, 21.4216, -160.695, -93.1656, 55.508
4.18, 5, -35.0302, -0.0811835, 21.4444, -160.686, -93.1588, 55.5003
4.184, 5, -35.0102, -0.104436, 21.4671, -160.677, -93.152, 55.4927
4.188, 5, -34.9902, -0.12768, 21.4899, -160.669, -93.1452, 55.4851
4.192, 5, -34.9702, -0.150916, 21.5126, -160.66, -93.1383, 55.4775
4.196, 5, -34.9502, -0.174144, 21.5353, -160.651, -93.1315, 55.4699
4.2, 5, -34.9301, -0.197363, 21.558, -160.642, -93.1247, 55.4624
4.204, 5, -34.9101, -0.220575, 21.5807, -160.634, -93.1179, 55.4548
4.208, 5, -34.89, -0.243779, 21.6034, -160.625, -93.111, 55.4473
4.212, 5, -34.8699, -0.266975, 21.626, -160.616, -93.1042, 55.4397
4.216, 5, -34.8498, -0.290162, 21.6487, -160.607, -93.0974, 55.4322
4.22, 5, -34.8297, -0.313342, 21.6713, -160.599, -93.0906, 55.4247
4.224, 5, -34.8096, -0.336514, 21.6939, -160.59, -93.0838, 55.4172
4.228, 5, -34.7895, -0.359677, 21.7165, -160.581, -93.077, 55.4097
4.232, 5, -34.7693, -0.382832, 21.7391, -160.573, -93.0701, 55.4022
4.236, 5, -34.7492, -0.40598, 21.7616, -160.564, -93.0633, 55.3948
4.24, 5, -34.729, -0.429119, 21.7841, -160.555, -93.0565, 55.3873
4.244, 5, -34.7089, -0.45225, 21.8067, -160.546, -93.0497, 55.3799
4.248, 5, -34.6887, -0.475373, 21.8292, -160.538, -93.0429, 55.3725
4.252, 5, -34.6685, -0.498487, 21.8517, -160.529, -93.0361, 55.365
4.256, 5, -34.6483, -0.521594, 21.8741, -160.52, -93.0293, 55.3576
4.26, 5, -34.6281, -0.544693, 21.8966, -160.511, -93.0225, 55.3502
4.264, 5, -34.6078, -0.567783, 21.919, -160.502, -93.0157, 55.3429
4.268, 5, -34.5876, -0.590865, 21.9414, -160.494, -93.0089, 55.3355
4.272, 5, -34.5674, -0.613939, 21.9639, -160.485, -93.0021, 55.3281
4.276, 5, -34.5471, -0.637005, 21.9862, -160.476, -92.9953, 55.3208
4.28, 5, -34.5268, -0.660063, 22.0086, -160.467, -92.9885, 55.3134
4.284, 5, -34.5065, -0.683112, 22.031, -160.459, -92.9817, 55.3061
4.288, 5, -34.4862, -0.706153, 22.0533, -160.45, -92.9749, 55.2988
4.292, 5, -34.4659, -0.729186, 22.0756, -160.441, -92.9682, 55.2915
4.296, 5, -34.4456, -0.752211, 22.098, -160.432, -92.9614, 55.2842
4.3, 5, -34.4253, -0.775228, 22.1202, -160.423, -92.9546, 55.277
4.304, 5, -34.4049, -0.798236, 22.1425, -160.415, -92.9478, 55.2697
4.308, 5, -34.3846, -0.821237, 22.1648, -160.406, -92.941, 55.2624
4.312, 5, -34.3642, -0.844229, 22.187, -160.397, -92.9342, 55.2552
4.316, 5, -34.3438, -0.867212, 22.2092, -160.388, -92.9274, 55.248
4.32, 5, -34.3235, -0.890188, 22.2315, -160.38, -92.9207, 55.2408
4.324, 5, -34.3031, -0.913155, 22.2537, -160.371, -92.9139, 55.2336
4.328, 5, -34.2826, -0.936114, 22.2758, -160.362, -92.9071, 55.2264
4.332, 5, -34.2622, -0.959064, 22.298, -160.353, -92.9003, 55.2192
4.336, 5, -34.2418, -0.982006, 22.3201, -160.344, -92.8936, 55.212
4.34, 5, -34.2213, -1.00494, 22.3423, -160.335, -92.8868, 55.2048
4.344, 5, -34.2009, -1.02787, 22.3644, -160.327, -92.88, 55.1977
4.348, 5, -34.1804, -1.05078, 22.3865, -160.318, -92.8732, 55.1906
4.352, 5, -34.1599, -1.07369, 22.4086, -160.309, -92.8665, 55.1834
4.356, 5, -34.1395, -1.09659, 22.4306, -160.3, -92.8597, 55.1763
4.36, 5, -34.1189, -1.11949, 22.4527, -160.291, -92.8529, 55.1692
4.364, 5, -34.0984, -1.14237, 22.4747, -160.283, -92.8462, 55.1622
4.368, 5, -34.0779, -1.16525, 22.4967, -160.274, -92.8394, 55.1551
4.372, 5, -34.0574, -1.18811, 22.5187, -160.265, -92.8326, 55.148
4.376, 5, -34.0368, -1.21097, 22.5407, -160.256, -92.8259, 55.141
4.38, 5, -34.0163, -1.23382, 22.5627, -160.247, -92.8191, 55.1339
4.384, 5, -33.9957, -1.25666, 22.5846, -160.238, -92.8123, 55.1269
4.388, 5, -33.9751, -1.2795, 22.6066, -160.23, -92.8056, 55.1199
4.392, 5, -33.9545, -1.30232, 22.6285, -160.221, -92.7988, 55.1129
4.396, 5, -33.9339, -1.32514, 22.6504, -160.212, -92.792, 55.1059
4.4, 5, -33.9133, -1.34795, 22.6723, -160.203, -92.7853, 55.0989
4.404, 5, -33.8927, -1.37075, 22.6941, -160.194, -92.7785, 55.0919
4.408, 5, -33.872, -1.39354, 22.716, -160.185, -92.7718, 55.085
4.412, 5, -33.8514, -1.41632, 22.7378, -160.176, -92.765, 55.078
4.416, 5, -33.8307, -1.4391, 22.7596, -160.168, -92.7583, 55.0711
4.42, 5, -33.81, -1.46186, 22.7814, -160.159, -92.7515, 55.0642
4.424, 5, -33.7893, -1.48462, 22.8032, -160.15, -92.7448, 55.0573
4.428, 5, -33.7686, -1.50737, 22.825, -160.141, -92.738, 55.0504
4.432, 5, -33.7479, -1.53011, 22.8468, -160.132, -92.7312, 55.0435
4.436, 5, -33.7272, -1.55284, 22.8685, -160.123, -92.7245, 55.0366
4.44, 5, -33.7065, -1.57557, 22.8902, -160.114, -92.7178, 55.0298
4.444, 5, -33.6857, -1.59828, 22.9119, -160.105, -92.711, 55.0229
4.448, 5, -33.665, -1.62099, 22.9336, -160.097, -92.7042, 55.0161
4.452, 5, -33.6442, -1.64369, 22.9553, -160.088, -92.6975, 55.0093
4.456, 5, -33.6234, -1.66638, 22.9769, -160.079, -92.6907, 55.0025
4.46, 5, -33.6026, -1.68906, 22.9986, -160.07, -92.684, 54.9956
4.464, 5, -33.5818, -1.71173, 23.0202, -160.061, -92.6773, 54.9889
4.468, 5, -33.561, -1.7344, 23.0418, -160.052, -92.6705, 54.9821
4.472, 5, -33.5402, -1.75705, 23.0634, -160.043, -92.6638, 54.9753
4.476, 5, -33.5194, -1.7797, 23.085, -160.034, -92.657, 54.9686
4.48, 5, -33.4985, -1.80234, 23.1066, -160.025, -92.6503, 54.9618
4.484, 5, -33.4776, -1.82497, 23.1281, -160.017, -92.6435, 54.9551
4.488, 5, -33.4568, -1.84759, 23.1496, -160.008, -92.6368, 54.9484
4.492, 5, -33.4359, -1.8702, 23.1711, -159.999, -92.63, 54.9417
4.496, 5, -33.415, -1.89281, 23.1926, -159.99, -92.6233, 54.935
4.5, 5, -33.3941, -1.9154, 23.2141, -159.981, -92.6166, 54.9283
4.504, 5, -33.3732, -1.93799, 23.2356, -159.972, -92.6098, 54.9216
4.508, 5, -33.3522, -1.96057, 23.257, -159.963, -92.6031, 54.915
4.512, 5, -33.3313, -1.98314, 23.2785, -159.954, -92.5963, 54.9083
4.516, 5, -33.3103, -2.0057, 23.2999, -159.945, -92.5896, 54.9017
4.52, 5, -33.2894, -2.02825, 23.3213, -159.936, -92.5828, 54.8951
4.524, 5, -33.2684, -2.05079, 23.3427, -159.927, -92.5761, 54.8885
4.528, 5, -33.2474, -2.07333, 23.364, -159.919, -92.5694, 54.8819
4.532, 5, -33.2264, -2.09585, 23.3854, -159.91, -92.5626, 54.8753
4.536, 5, -33.2054, -2.11837, 23.4067, -159.901, -92.5559, 54.8687
4.54, 5, -33.1844, -2.14088, 23.428, -159.892, -92.5492, 54.8621
4.544, 5, -33.1633, -2.16338, 23.4493, -159.883, -92.5424, 54.8556
4.548, 5, -33.1423, -2.18587, 23.4706, -159.874, -92.5357, 54.849
4.552, 5, -33.1212, -2.20835, 23.4919, -159.865, -92.5289, 54.8425
4.556, 5, -33.1002, -2.23083, 23.5131, -159.856, -92.5222, 54.836
4.56, 5, -33.0791, -2.25329, 23.5344, -159.847, -92.5155, 54.8295
4.564, 5, -33.058, -2.27575, 23.5556, -159.838, -92.5087, 54.823
4.568, 5, -33.0369, -2.2982, 23.5768, -159.829, -92.502, 54.8165
4.572, 5, -33.0158, -2.32064, 23.598, -159.82, -92.4953, 54.8101
4.576, 5, -32.9946, -2.34307, 23.6192, -159.811, -92.4885, 54.8036
4.58, 5, -32.9735, -2.36549, 23.6403, -159.802, -92.4818, 54.7972
4.584, 5, -32.9523, -2.3879, 23.6615, -159.793, -92.4751, 54.7907
4.588, 5, -32.9312, -2.41031, 23.6826, -159.784, -92.4683, 54.7843
4.592, 5, -32.91, -2.4327, 23.7037, -159.775, -92.4616, 54.7779
4.596, 5, -32.8888, -2.45509, 23.7248, -159.766, -92.4548, 54.7715
4.6, 5, -32.8676, -2.47746, 23.7459, -159.757, -92.4481, 54.7651
4.604, 5, -32.8464, -2.49983, 23.7669, -159.749, -92.4414, 54.7588
4.608, 5, -32.8252, -2.52219, 23.788, -159.74, -92.4346, 54.7524
4.612, 5, -32.8039, -2.54454, 23.809, -159.731, -92.4279, 54.7461
4.616, 5, -32.7827, -2.56689, 23.83, -159.722, -92.4212, 54.7397
4.62, 5, -32.7614, -2.58922, 23.851, -159.713, -92.4144, 54.7334
4.624, 5, -32.7401, -2.61154, 23.872, -159.704, -92.4077, 54.7271
4.628, 5, -32.7189, -2.63386, 23.8929, -159.695, -92.401, 54.7208
4.632, 5, -32.6976, -2.65617, 23.9139, -159.686, -92.3942, 54.7145
4.636, 5, -32.6763, -2.67846, 23.9348, -159.677, -92.3875, 54.7082
4.64, 5, -32.6549, -2.70075, 23.9557, -159.668, -92.3808, 54.702
4.644, 5, -32.6336, -2.72303, 23.9766, -159.659, -92.374, 54.6957
4.648, 5, -32.6123, -2.7453, 23.9975, -159.65, -92.3673, 54.6895
4.652, 5, -32.5909, -2.76757, 24.0184, -159.641, -92.3606, 54.6832
4.656, 5, -32.5695, -2.78982, 24.0392, -159.632, -92.3538, 54.677
4.66, 5, -32.5482, -2.81206, 24.0601, -159.623, -92.3471, 54.6708
4.664, 5, -32.5268, -2.8343, 24.0809, -159.614, -92.3404, 54.6646
4.668, 5, -32.5054, -2.85653, 24.1017, -159.605, -92.3336, 54.6585
4.672, 5, -32.484, -2.87874, 24.1225, -159.596, -92.3269, 54.6523
4.676, 5, -32.4625, -2.90095, 24.1432, -159.587, -92.3201, 54.6461
4.68, 5, -32.4411, -2.92315, 24.164, -159.578, -92.3134, 54.64
4.684, 5, -32.4197, -2.94534, 24.1847, -159.569, -92.3067, 54.6339
4.688, 5, -32.3982, -2.96753, 24.2055, -159.56, -92.2999, 54.6277
4.692, 5, -32.3767, -2.9897, 24.2262, -159.551, -92.2932, 54.6216
4.696, 5, -32.3552, -3.01186, 24.2468, -159.542, -92.2865, 54.6155
4.7, 5, -32.3337, -3.03402, 24.2675, -159.533, -92.2797, 54.6095
4.704, 5, -32.3122, -3.05616, 24.2882, -159.524, -92.273, 54.6034
4.708, 5, -32.2907, -3.0783, 24.3088, -159.515, -92.2662, 54.5973
4.712, 5, -32.2692, -3.10043, 24.3294, -159.506, -92.2595, 54.5913
4.716, 5, -32.2476, -3.12255, 24.3501, -159.497, -92.2528, 54.5853
4.72, 5, -32.2261, -3.14466, 24.3706, -159.488, -92.246, 54.5792
4.724, 5, -32.2045, -3.16676, 24.3912, -159.478, -92.2393, 54.5732
4.728, 5, -32.1829, -3.18885, 24.4118, -159.469, -92.2325, 54.5672
4.732, 5, -32.1613, -3.21093, 24.4323, -159.46, -92.2258, 54.5612
4.736, 5, -32.1397, -3.23301, 24.4529, -159.451, -92.2191, 54.5553
4.74, 5, -32.1181, -3.25509, 24.4734, -159.442, -92.2123, 54.5493
4.744, 5, -32.0965, -3.27719, 24.4939, -159.433, -92.2056, 54.5433
4.748, 5, -32.0749, -3.29932, 24.5144, -159.424, -92.1988, 54.5374
4.752, 5, -32.0534, -3.32149, 24.5348, -159.415, -92.1921, 54.5314
4.756, 5, -32.0318, -3.34372, 24.5553, -159.406, -92.1853, 54.5255
4.76, 5, -32.0103, -3.36601, 24.5758, -159.397, -92.1785, 54.5195
4.764, 5, -31.9888, -3.38839, 24.5963, -159.388, -92.1716, 54.5135
4.768, 5, -31.9674, -3.41086, 24.6169, -159.379, -92.1647, 54.5074
4.772, 5, -31.946, -3.43342, 24.6375, -159.369, -92.1577, 54.5012
4.776, 5, -31.9246, -3.45611, 24.6582, -159.36, -92.1506, 54.4949
4.78, 5, -31.9033, -3.47893, 24.6789, -159.351, -92.1433, 54.4885
4.784, 5, -31.8821, -3.50191, 24.6998, -159.341, -92.1358, 54.4818
4.788, 5, -31.8609, -3.52506, 24.7208, -159.332, -92.1282, 54.475
4.792, 5, -31.8398, -3.5484, 24.742, -159.322, -92.1204, 54.468
4.796, 5, -31.8188, -3.57193, 24.7633, -159.312, -92.1123, 54.4607
4.8, 5, -31.7978, -3.59568, 24.7848, -159.302, -92.104, 54.4531
4.804, 5, -31.7769, -3.61965, 24.8065, -159.291, -92.0954, 54.4452
4.808, 5, -31.7561, -3.64387, 24.8284, -159.281, -92.0865, 54.437
4.812, 5, -31.7354, -3.66834, 24.8505, -159.27, -92.0773, 54.4285
4.816, 5, -31.7148, -3.6931, 24.8729, -159.259, -92.0678, 54.4196
4.82, 5, -31.6944, -3.71815, 24.8955, -159.248, -92.058, 54.4103
4.824, 5, -31.674, -3.74351, 24.9183, -159.237, -92.0479, 54.4007
4.828, 5, -31.6538, -3.7692, 24.9414, -159.226, -92.0375, 54.3908
4.832, 5, -31.6337, -3.79521, 24.9647, -159.214, -92.0267, 54.3805
4.836, 5, -31.6137, -3.82155, 24.9883, -159.202, -92.0157, 54.3698
4.84, 5, -31.5939, -3.84823, 25.0121, -159.19, -92.0043, 54.3587
4.844, 6, -31.5742, -3.87525, 25.0362, -159.178, -91.9926, 54.3472
4.848, 6, -31.5546, -3.90262, 25.0606, -159.165, -91.9806, 54.3354
4.852, 6, -31.5352, -3.93034, 25.0853, -159.152, -91.9682, 54.3232
4.856, 6, -31.516, -3.95841, 25.1102, -159.139, -91.9556, 54.3105
4.86, 6, -31.4968, -3.98684, 25.1353, -159.126, -91.9426, 54.2975
4.864, 6, -31.4779, -4.01562, 25.1608, -159.113, -91.9292, 54.2841
4.868, 6, -31.4591, -4.04476, 25.1865, -159.099, -91.9156, 54.2704
4.872, 6, -31.4404, -4.07426, 25.2125, -159.085, -91.9016, 54.2562
4.876, 6, -31.4219, -4.10411, 25.2388, -159.071, -91.8872, 54.2416
4.88, 6, -31.4035, -4.13432, 25.2653, -159.057, -91.8726, 54.2266
4.884, 6, -31.3852, -4.16489, 25.2921, -159.042, -91.8576, 54.2113
4.888, 6, -31.3672, -4.19582, 25.3192, -159.027, -91.8422, 54.1955
4.892, 6, -31.3492, -4.2271, 25.3466, -159.012, -91.8266, 54.1793
4.896, 6, -31.3314, -4.25874, 25.3742, -158.997, -91.8106, 54.1628
4.9, 6, -31.3138, -4.29073, 25.4021, -158.982, -91.7943, 54.1458
4.904, 6, -31.2963, -4.32307, 25.4303, -158.966, -91.7776, 54.1285
4.908, 6, -31.2789, -4.35577, 25.4587, -158.95, -91.7607, 54.1108
4.912, 6, -31.2617, -4.3888, 25.4874, -158.934, -91.7434, 54.0927
4.916, 6, -31.2446, -4.42219, 25.5164, -158.918, -91.7258, 54.0742
4.92, 6, -31.2276, -4.4559, 25.5456, -158.902, -91.7079, 54.0554
4.924, 6, -31.2108, -4.48994, 25.5751, -158.885, -91.6897, 54.0361
4.928, 6, -31.1941, -4.52428, 25.6048, -158.868, -91.6712, 54.0166
4.932, 6, -31.1775, -4.55892, 25.6347, -158.851, -91.6524, 53.9966
4.936, 6, -31.161, -4.59382, 25.6649, -158.833, -91.6332, 53.9763
4.94, 6, -31.1446, -4.62899, 25.6953, -158.816, -91.6138, 53.9557
4.944, 6, -31.1283, -4.6644, 25.7259, -158.798, -91.5941, 53.9347
4.948, 6, -31.1121, -4.70005, 25.7567, -158.78, -91.5742, 53.9135
4.952, 6, -31.096, -4.73592, 25.7877, -158.762, -91.554, 53.892
4.956, 6, -31.0799, -4.77199, 25.8188, -158.744, -91.5335, 53.8702
4.96, 6, -31.064, -4.80825, 25.8501, -158.726, -91.5129, 53.8482
4.964, 6, -31.048, -4.84467, 25.8815, -158.707, -91.4922, 53.826
4.968, 6, -31.0322, -4.88125, 25.913, -158.689, -91.4712, 53.8036
4.972, 6, -31.0164, -4.91795, 25.9446, -158.67, -91.4502, 53.7811
4.976, 6, -31.0006, -4.95479, 25.9762, -158.651, -91.429, 53.7585
4.98, 6, -30.9849, -4.99173, 26.0079, -158.632, -91.4078, 53.7358
4.984, 6, -30.9692, -5.02877, 26.0397, -158.614, -91.3866, 53.7131
4.988, 6, -30.9536, -5.0659, 26.0714, -158.595, -91.3653, 53.6903
4.992, 6, -30.938, -5.1031, 26.1032, -158.576, -91.344, 53.6675
4.996, 6, -30.9224, -5.14035, 26.1349, -158.557, -91.3226, 53.6446
5, 6, -30.9068, -5.17763, 26.1667, -158.538, -91.3013, 53.6218
5.004, 6, -30.8913, -5.21494, 26.1985, -158.519, -91.2799, 53.599
5.008, 6, -30.8757, -5.25227, 26.2302, -158.5, -91.2586, 53.5761
5.012, 6, -30.8602, -5.28961, 26.262, -158.481, -91.2372, 53.5533
5.016, 6, -30.8446, -5.32695, 26.2937, -158.462, -91.2159, 53.5304
5.02, 6, -30.829, -5.36429, 26.3254, -158.443, -91.1945, 53.5076
5.024, 6, -30.8134, -5.40163, 26.3571, -158.424, -91.1732, 53.4848
5.028, 6, -30.7978, -5.43897, 26.3888, -158.405, -91.1519, 53.462
5.032, 6, -30.7823, -5.47631, 26.4205, -158.386, -91.1305, 53.4391
5.036, 6, -30.7666, -5.51365, 26.4521, -158.367, -91.1092, 53.4163
5.04, 6, -30.751, -5.55099, 26.4838, -158.348, -91.0879, 53.3935
5.044, 6, -30.7354, -5.58832, 26.5154, -158.329, -91.0666, 53.3708
5.048, 6, -30.7198, -5.62565, 26.547, -158.31, -91.0453, 53.348
5.052, 6, -30.7041, -5.66297, 26.5787, -158.291, -91.024, 53.3252
5.056, 6, -30.6885, -5.70029, 26.6103, -158.272, -91.0027, 53.3024
5.06, 6, -30.6728, -5.73761, 26.6418, -158.253, -90.9814, 53.2797
5.064, 6, -30.6571, -5.77492, 26.6734, -158.234, -90.9601, 53.2569
5.068, 6, -30.6414, -5.81224, 26.705, -158.215, -90.9388, 53.2342
5.072, 6, -30.6257, -5.84954, 26.7365, -158.196, -90.9175, 53.2115
5.076, 6, -30.61, -5.88685, 26.768, -158.177, -90.8963, 53.1887
5.08, 6, -30.5943, -5.92414, 26.7996, -158.158, -90.875, 53.166
5.084, 6, -30.5786, -5.96144, 26.8311, -158.139, -90.8537, 53.1433
5.088, 6, -30.5629, -5.99873, 26.8625, -158.12, -90.8325, 53.1206
5.092, 6, -30.5471, -6.03602, 26.894, -158.101, -90.8112, 53.0979
5.096, 6, -30.5313, -6.07331, 26.9255, -158.082, -90.79, 53.0752
5.1, 6, -30.5156, -6.11059, 26.9569, -158.063, -90.7687, 53.0526
5.104, 6, -30.4998, -6.14786, 26.9884, -158.043, -90.7475, 53.0299
5.108, 6, -30.484, -6.18514, 27.0198, -158.024, -90.7263, 53.0073
5.112, 6, -30.4682, -6.22241, 27.0512, -158.005, -90.705, 52.9846
5.116, 6, -30.4524, -6.25967, 27.0826, -157.986, -90.6838, 52.962
5.12, 6, -30.4366, -6.29694, 27.114, -157.967, -90.6626, 52.9393
5.124, 6, -30.4207, -6.33419, 27.1453, -157.948, -90.6414, 52.9167
5.128, 6, -30.4049, -6.37145, 27.1767, -157.929, -90.6202, 52.8941
5.132, 6, -30.3891, -6.40871, 27.208, -157.91, -90.599, 52.8715
5.136, 6, -30.3732, -6.44597, 27.2394, -157.891, -90.5778, 52.8489
5.14, 6, -30.3573, -6.48325, 27.2707, -157.872, -90.5566, 52.8263
5.144, 6, -30.3415, -6.52057, 27.302, -157.852, -90.5354, 52.8037
5.148, 6, -30.3256, -6.55792, 27.3333, -157.833, -90.5142, 52.7811
5.152, 6, -30.3098, -6.59534, 27.3646, -157.814, -90.493, 52.7585
5.156, 6, -30.2939, -6.63282, 27.396, -157.795, -90.4718, 52.7359
5.16, 6, -30.2781, -6.67038, 27.4273, -157.776, -90.4505, 52.7133
5.164, 6, -30.2624, -6.70803, 27.4587, -157.756, -90.4292, 52.6906
5.168, 6, -30.2466, -6.74578, 27.4901, -157.737, -90.4078, 52.6678
5.172, 6, -30.2309, -6.78365, 27.5216, -157.718, -90.3863, 52.6449
5.176, 6, -30.2153, -6.82165, 27.5532, -157.698, -90.3647, 52.622
5.18, 6, -30.1997, -6.85981, 27.5848, -157.679, -90.343, 52.5989
5.184, 6, -30.1842, -6.89814, 27.6166, -157.659, -90.3211, 52.5757
5.188, 6, -30.1687, -6.93665, 27.6486, -157.639, -90.299, 52.5522
5.192, 6, -30.1533, -6.97536, 27.6807, -157.619, -90.2766, 52.5286
5.196, 6, -30.1379, -7.01429, 27.7129, -157.599, -90.2541, 52.5048
5.2, 6, -30.1227, -7.05343, 27.7454, -157.579, -90.2313, 52.4807
5.204, 6, -30.1075, -7.09283, 27.7781, -157.559, -90.2082, 52.4564
5.208, 6, -30.0924, -7.13248, 27.8109, -157.538, -90.1848, 52.4318
5.212, 6, -30.0774, -7.17241, 27.844, -157.518, -90.1611, 52.4069
5.216, 6, -30.0625, -7.21264, 27.8774, -157.497, -90.1372, 52.3817
5.22, 6, -30.0476, -7.25317, 27.9109, -157.476, -90.1129, 52.3562
5.224, 6, -30.0329, -7.29403, 27.9448, -157.454, -90.0884, 52.3304
5.228, 6, -30.0184, -7.33522, 27.9788, -157.433, -90.0635, 52.3043
5.232, 6, -30.0039, -7.37674, 28.0132, -157.411, -90.0383, 52.2779
5.236, 6, -29.9896, -7.4186, 28.0478, -157.389, -90.0128, 52.2512
5.24, 7, -29.9754, -7.4608, 28.0826, -157.367, -89.9869, 52.2242
5.244, 7, -29.9613, -7.50336, 28.1178, -157.345, -89.9608, 52.1968
5.248, 7, -29.9474, -7.54627, 28.1532, -157.322, -89.9343, 52.1691
5.252, 7, -29.9335, -7.58954, 28.1889, -157.3, -89.9075, 52.1411
5.256, 7, -29.9199, -7.63316, 28.2248, -157.277, -89.8804, 52.1128
5.26, 7, -29.9063, -7.67715, 28.261, -157.254, -89.853, 52.0841
5.264, 7, -29.8929, -7.7215, 28.2975, -157.23, -89.8252, 52.0551
5.268, 7, -29.8797, -7.76621, 28.3343, -157.207, -89.7971, 52.0257
5.272, 7, -29.8665, -7.81128, 28.3714, -157.183, -89.7687, 51.9961
5.276, 7, -29.8535, -7.85672, 28.4087, -157.159, -89.74, 51.9661
5.28, 7, -29.8407, -7.90252, 28.4464, -157.135, -89.7109, 51.9357
5.284, 7, -29.828, -7.94868, 28.4843, -157.111, -89.6815, 51.905
5.288, 7, -29.8154, -7.99521, 28.5224, -157.086, -89.6518, 51.874
5.292, 7, -29.8029, -8.04209, 28.5609, -157.062, -89.6218, 51.8427
5.296, 7, -29.7906, -8.08934, 28.5996, -157.037, -89.5915, 51.811
5.3, 7, -29.7784, -8.13694, 28.6386, -157.011, -89.5608, 51.779
5.304, 7, -29.7663, -8.1849, 28.6779, -156.986, -89.5299, 51.7467
5.308, 7, -29.7544, -8.23321, 28.7174, -156.961, -89.4986, 51.714
5.312, 7, -29.7426, -8.28187, 28.7572, -156.935, -89.467, 51.681
5.316, 7, -29.7309, -8.33087, 28.7973, -156.909, -89.4351, 51.6477
5.32, 7, -29.7194, -8.38018, 28.8376, -156.883, -89.4029, 51.6141
5.324, 7, -29.7079, -8.4298, 28.8782, -156.856, -89.3704, 51.5802
5.328, 7, -29.6965, -8.47971, 28.919, -156.83, -89.3376, 51.5459
5.332, 7, -29.6853, -8.52989, 28.9601, -156.803, -89.3046, 51.5114
5.336, 7, -29.6741, -8.58033, 29.0014, -156.776, -89.2712, 51.4765
5.34, 7, -29.663, -8.63102, 29.0429, -156.749, -89.2376, 51.4414
5.344, 7, -29.652, -8.68195, 29.0845, -156.721, -89.2038, 51.4061
5.348, 7, -29.6411, -8.73309, 29.1264, -156.694, -89.1697, 51.3705
5.352, 7, -29.6302, -8.78444, 29.1684, -156.666, -89.1354, 51.3347
5.356, 7, -29.6195, -8.83597, 29.2105, -156.638, -89.101, 51.2988
5.36, 7, -29.6087, -8.88766, 29.2528, -156.61, -89.0665, 51.2627
5.364, 7, -29.598, -8.9395, 29.2952, -156.582, -89.0318, 51.2264
5.368, 7, -29.5874, -8.99148, 29.3376, -156.554, -88.997, 51.1901
5.372, 7, -29.5768, -9.04357, 29.3801, -156.526, -88.9622, 51.1536
5.376, 7, -29.5663, -9.09578, 29.4226, -156.498, -88.9273, 51.1171
5.38, 7, -29.5558, -9.14808, 29.4652, -156.47, -88.8924, 51.0806
5.384, 7, -29.5453, -9.20046, 29.5078, -156.442, -88.8574, 51.044
5.388, 7, -29.5348, -9.25291, 29.5504, -156.413, -88.8225, 51.0074
5.392, 7, -29.5244, -9.3054, 29.593, -156.385, -88.7875, 50.9708
5.396, 7, -29.5139, -9.35793, 29.6356, -156.357, -88.7526, 50.9341
5.4, 7, -29.5035, -9.41048, 29.6782, -156.328, -88.7177, 50.8975
5.404, 7, -29.4931, -9.46305, 29.7208, -156.3, -88.6827, 50.8608
5.408, 7, -29.4826, -9.51563, 29.7634, -156.271, -88.6478, 50.8241
5.412, 7, -29.4722, -9.56822, 29.806, -156.243, -88.6129, 50.7875
5.416, 7, -29.4618, -9.62081, 29.8486, -156.214, -88.578, 50.7508
5.42, 7, -29.4513, -9.67341, 29.8912, -156.186, -88.5432, 50.7141
5.424, 7, -29.4409, -9.72602, 29.9338, -156.157, -88.5083, 50.6774
5.428, 7, -29.4304, -9.77862, 29.9764, -156.129, -88.4735, 50.6407
5.432, 7, -29.4199, -9.83123, 30.0189, -156.1, -88.4386, 50.604
5.436, 7, -29.4095, -9.88385, 30.0615, -156.072, -88.4038, 50.5673
5.44, 7, -29.399, -9.93646, 30.1041, -156.043, -88.369, 50.5306
5.444, 7, -29.3885, -9.98908, 30.1466, -156.015, -88.3343, 50.4939
5.448, 7, -29.378, -10.0417, 30.1892, -155.986, -88.2995, 50.4571
5.452, 7, -29.3675, -10.0943, 30.2317, -155.957, -88.2647, 50.4204
5.456, 7, -29.357, -10.1469, 30.2743, -155.929, -88.23, 50.3837
5.46, 7, -29.3465, -10.1996, 30.3168, -155.9, -88.1953, 50.347
5.464, 7, -29.336, -10.2522, 30.3593, -155.871, -88.1605, 50.3102
5.468, 7, -29.3255, -10.3048, 30.4018, -155.843, -88.1259, 50.2735
5.472, 7, -29.315, -10.3575, 30.4443, -155.814, -88.0912, 50.2367
5.476, 7, -29.3045, -10.4101, 30.4868, -155.785, -88.0565, 50.2
5.48, 7, -29.2939, -10.4627, 30.5293, -155.756, -88.0219, 50.1632
5.484, 7, -29.2834, -10.5154, 30.5718, -155.728, -87.9872, 50.1265
5.488, 7, -29.2728, -10.568, 30.6143, -155.699, -87.9526, 50.0897
5.492, 7, -29.2623, -10.6207, 30.6568, -155.67, -87.918, 50.053
5.496, 7, -29.2517, -10.6733, 30.6993, -155.641, -87.8834, 50.0162
5.5, 7, -29.2411, -10.7259, 30.7417, -155.612, -87.8488, 49.9794
5.504, 7, -29.2306, -10.7786, 30.7842, -155.584, -87.8143, 49.9427
5.508, 7, -29.22, -10.8312, 30.8266, -155.555, -87.7797, 49.9059
5.512, 7, -29.2094, -10.8839, 30.8691, -155.526, -87.7452, 49.8691
5.516, 7, -29.1988, -10.9366, 30.9115, -155.497, -87.7106, 49.8323
5.52, 7, -29.1882, -10.9892, 30.954, -155.468, -87.6761, 49.7955
5.524, 7, -29.1776, -11.0419, 30.9964, -155.439, -87.6416, 49.7587
5.528, 7, -29.167, -11.0945, 31.0388, -155.41, -87.6072, 49.7219
5.532, 7, -29.1563, -11.1472, 31.0812, -155.381, -87.5727, 49.6851
5.536, 7, -29.1457, -11.1999, 31.1236, -155.352, -87.5383, 49.6483
5.54, 7, -29.1351, -11.2525, 31.166, -155.323, -87.5038, 49.6115
5.544, 7, -29.1244, -11.3052, 31.2084, -155.294, -87.4694, 49.5747
5.548, 7, -29.1138, -11.3579, 31.2508, -155.265, -87.435, 49.5379
5.552, 7, -29.1031, -11.4105, 31.2932, -155.236, -87.4006, 49.5011
5.556, 7, -29.0925, -11.4632, 31.3356, -155.207, -87.3662, 49.4643
5.56, 7, -29.0818, -11.5159, 31.378, -155.178, -87.3319, 49.4274
5.564, 7, -29.0711, -11.5686, 31.4203, -155.148, -87.2975, 49.3906
5.568, 7, -29.0604, -11.6213, 31.4627, -155.119, -87.2632, 49.3538
5.572, 7, -29.0498, -11.6741, 31.5051, -155.09, -87.2289, 49.3169
5.576, 7, -29.0391, -11.7269, 31.5474, -155.061, -87.1945, 49.2801
5.58, 7, -29.0285, -11.7798, 31.5898, -155.032, -87.1602, 49.2432
5.584, 7, -29.0179, -11.8327, 31.6322, -155.002, -87.1258, 49.2064
5.588, 7, -29.0073, -11.8858, 31.6747, -154.973, -87.0915, 49.1695
5.592, 7, -28.9968, -11.9389, 31.7172, -154.944, -87.057, 49.1326
5.596, 7, -28.9863, -11.9922, 31.7597, -154.914, -87.0225, 49.0957
5.6, 7, -28.9758, -12.0455, 31.8023, -154.885, -86.9879, 49.0587
5.604, 7, -28.9654, -12.099, 31.8451, -154.855, -86.9532, 49.0218
5.608, 7, -28.955, -12.1527, 31.8879, -154.825, -86.9183, 48.9848
5.612, 7, -28.9446, -12.2065, 31.9309, -154.795, -86.8833, 48.9477
5.616, 7, -28.9344, -12.2605, 31.974, -154.765, -86.8481, 48.9106
5.62, 7, -28.9242, -12.3147, 32.0173, -154.735, -86.8127, 48.8735
5.624, 7, -28.914, -12.3691, 32.0608, -154.705, -86.7771, 48.8363
5.628, 7, -28.904, -12.4237, 32.1045, -154.674, -86.7413, 48.7991
5.632, 7, -28.894, -12.4785, 32.1483, -154.644, -86.7052, 48.7617
5.636, 7, -28.884, -12.5336, 32.1924, -154.613, -86.6689, 48.7244
5.64, 7, -28.8742, -12.5889, 32.2367, -154.582, -86.6323, 48.6869
5.644, 7, -28.8645, -12.6445, 32.2813, -154.55, -86.5955, 48.6494
5.648, 8, -28.8549, -12.7004, 32.3261, -154.519, -86.5583, 48.6118
5.652, 8, -28.8453, -12.7566, 32.3711, -154.487, -86.521, 48.5741
5.656, 8, -28.8359, -12.8131, 32.4163, -154.455, -86.4833, 48.5364
5.66, 8, -28.8266, -12.8698, 32.4618, -154.423, -86.4454, 48.4985
5.664, 8, -28.8174, -12.9269, 32.5076, -154.391, -86.4073, 48.4606
5.668, 8, -28.8083, -12.9843, 32.5535, -154.359, -86.3688, 48.4227
5.672, 8, -28.7993, -13.0419, 32.5998, -154.326, -86.3301, 48.3846
5.676, 8, -28.7904, -13.0999, 32.6462, -154.293, -86.2911, 48.3465
5.68, 8, -28.7816, -13.1582, 32.6929, -154.26, -86.2519, 48.3083
5.684, 8, -28.7729, -13.2168, 32.7399, -154.227, -86.2123, 48.27
5.688, 8, -28.7644, -13.2757, 32.7871, -154.193, -86.1726, 48.2316
5.692, 8, -28.7559, -13.3349, 32.8346, -154.16, -86.1325, 48.1932
5.696, 8, -28.7476, -13.3944, 32.8823, -154.126, -86.0922, 48.1546
5.7, 8, -28.7393, -13.4542, 32.9302, -154.092, -86.0516, 48.116
5.704, 8, -28.7312, -13.5143, 32.9784, -154.057, -86.0108, 48.0773
5.708, 8, -28.7232, -13.5747, 33.0268, -154.023, -85.9696, 48.0385
5.712, 8, -28.7153, -13.6354, 33.0755, -153.988, -85.9283, 47.9997
5.716, 8, -28.7074, -13.6963, 33.1244, -153.953, -85.8866, 47.9607
5.72, 8, -28.6997, -13.7576, 33.1735, -153.918, -85.8447, 47.9217
5.724, 8, -28.6921, -13.8191, 33.2229, -153.883, -85.8026, 47.8826
5.728, 8, -28.6845, -13.8808, 33.2725, -153.847, -85.7602, 47.8435
5.732, 8, -28.677, -13.9428, 33.3223, -153.812, -85.7176, 47.8042
5.736, 8, -28.6696, -14.005, 33.3723, -153.776, -85.6747, 47.7649
5.74, 8, -28.6623, -14.0675, 33.4225, -153.74, -85.6317, 47.7256
5.744, 8, -28.655, -14.1301, 33.4729, -153.704, -85.5884, 47.6861
5.748, 8, -28.6478, -14.1929, 33.5234, -153.667, -85.545, 47.6466
5.752, 8, -28.6407, -14.2559, 33.574, -153.631, -85.5015, 47.6071
5.756, 8, -28.6336, -14.319, 33.6248, -153.594, -85.4578, 47.5675
5.76, 8, -28.6265, -14.3823, 33.6757, -153.557, -85.4141, 47.5279
5.764, 8, -28.6195, -14.4457, 33.7266, -153.521, -85.3702, 47.4883
5.768, 8, -28.6125, -14.5092, 33.7776, -153.484, -85.3264, 47.4486
5.772, 8, -28.6055, -14.5729, 33.8287, -153.447, -85.2824, 47.4089
5.776, 8, -28.5986, -14.6366, 33.8797, -153.41, -85.2385, 47.3692
5.78, 8, -28.5917, -14.7004, 33.9309, -153.373, -85.1945, 47.3294
5.784, 8, -28.5848, -14.7642, 33.982, -153.335, -85.1506, 47.2896
5.788, 8, -28.5779, -14.8282, 34.0332, -153.298, -85.1066, 47.2499
5.792, 8, -28.571, -14.8921, 34.0844, -153.261, -85.0627, 47.2101
5.796, 8, -28.5642, -14.9561, 34.1355, -153.224, -85.0188, 47.1703
5.8, 8, -28.5573, -15.0201, 34.1867, -153.187, -84.9748, 47.1304
5.804, 8, -28.5504, -15.0842, 34.2379, -153.149, -84.931, 47.0906
5.808, 8, -28.5435, -15.1482, 34.2891, -153.112, -84.8871, 47.0507
5.812, 8, -28.5366, -15.2123, 34.3403, -153.075, -84.8432, 47.0109
5.816, 8, -28.5297, -15.2764, 34.3915, -153.037, -84.7994, 46.971
5.82, 8, -28.5228, -15.3405, 34.4427, -153, -84.7556, 46.9311
5.824, 8, -28.5159, -15.4046, 34.4939, -152.962, -84.7118, 46.8912
5.828, 8, -28.509, -15.4687, 34.5451, -152.925, -84.6681, 46.8513
5.832, 8, -28.502, -15.5328, 34.5963, -152.887, -84.6243, 46.8113
5.836, 8, -28.4951, -15.5969, 34.6475, -152.85, -84.5806, 46.7714
5.84, 8, -28.4881, -15.6611, 34.6987, -152.812, -84.5369, 46.7314
5.844, 8, -28.4812, -15.7252, 34.7499, -152.775, -84.4933, 46.6914
5.848, 8, -28.4742, -15.7894, 34.8011, -152.737, -84.4496, 46.6515
5.852, 8, -28.4672, -15.8536, 34.8523, -152.699, -84.406, 46.6115
5.856, 8, -28.4602, -15.9178, 34.9035, -152.662, -84.3624, 46.5714
5.86, 8, -28.4533, -15.982, 34.9547, -152.624, -84.3188, 46.5314
5.864, 8, -28.4463, -16.0462, 35.0059, -152.586, -84.2753, 46.4914
5.868, 8, -28.4392, -16.1104, 35.0571, -152.548, -84.2317, 46.4513
5.872, 8, -28.4322, -16.1746, 35.1083, -152.511, -84.1882, 46.4113
5.876, 8, -28.4252, -16.2389, 35.1595, -152.473, -84.1447, 46.3712
5.88, 8, -28.4182, -16.3031, 35.2107, -152.435, -84.1012, 46.3311
5.884, 8, -28.4111, -16.3674, 35.2619, -152.397, -84.0578, 46.291
5.888, 8, -28.4041, -16.4316, 35.3131, -152.359, -84.0144, 46.2509
5.892, 8, -28.397, -16.4959, 35.3643, -152.321, -83.971, 46.2108
