rpiRobotics/ARM-21-02-F-19-Robot-Motion-Program/data_performance_abb/curve_1/curve_pose_opt1/greedy0.02/grad_result/real/run_4.csv
timestamp,cmd_num,J1,J2,J3,J4,J5,J6
1.130999997258186340e-03,-1.000000000000000000e+00,-3.467599487304687500e+01,4.892511749267578125e+01,2.986686325073242188e+01,1.091832580566406250e+02,9.491092681884765625e+01,-3.052842855453491211e+00,4.031498432159423828e-01,-6.667343902587890625e+01,-1.826883239746093750e+02,-2.342603921890258789e+00,7.562291717529296875e+01,3.135653114318847656e+01
6.250000093132257462e-03,1.000000000000000000e+00,-3.467599487304687500e+01,4.892502975463867188e+01,2.986690521240234375e+01,1.091832580566406250e+02,9.491103363037109375e+01,-3.052978754043579102e+00,4.031498432159423828e-01,-6.667353820800781250e+01,-1.826884307861328125e+02,-2.342747688293457031e+00,7.562291717529296875e+01,3.135619926452636719e+01
9.972999803721904755e-03,1.000000000000000000e+00,-3.467599487304687500e+01,4.892502975463867188e+01,2.986690521240234375e+01,1.091832580566406250e+02,9.491103363037109375e+01,-3.052978754043579102e+00,4.031498432159423828e-01,-6.667353820800781250e+01,-1.826883239746093750e+02,-2.342819452285766602e+00,7.562291717529296875e+01,3.135642242431640625e+01
1.384999975562095642e-02,1.000000000000000000e+00,-3.467605590820312500e+01,4.892502975463867188e+01,2.986686325073242188e+01,1.091832580566406250e+02,9.491103363037109375e+01,-3.053114175796508789e+00,4.031498432159423828e-01,-6.667353820800781250e+01,-1.826883239746093750e+02,-2.342819452285766602e+00,7.562291717529296875e+01,3.135642242431640625e+01
3.630400076508522034e-02,1.000000000000000000e+00,-3.467605590820312500e+01,4.892502975463867188e+01,2.986686325073242188e+01,1.091831512451171875e+02,9.491098022460937500e+01,-3.052978754043579102e+00,4.031498432159423828e-01,-6.667353820800781250e+01,-1.826881713867187500e+02,-2.342747688293457031e+00,7.562291717529296875e+01,3.135642242431640625e+01
3.900500014424324036e-02,1.000000000000000000e+00,-3.467605590820312500e+01,4.892502975463867188e+01,2.986686325073242188e+01,1.091832580566406250e+02,9.491103363037109375e+01,-3.052842855453491211e+00,4.031498432159423828e-01,-6.667353820800781250e+01,-1.826883239746093750e+02,-2.342747688293457031e+00,7.562291717529296875e+01,3.135653114318847656e+01
4.025499895215034485e-02,1.000000000000000000e+00,-3.467605590820312500e+01,4.892502975463867188e+01,2.986686325073242188e+01,1.091832580566406250e+02,9.491103363037109375e+01,-3.052842855453491211e+00,4.031498432159423828e-01,-6.667353820800781250e+01,-1.826883239746093750e+02,-2.342747688293457031e+00,7.562291717529296875e+01,3.135653114318847656e+01
4.744999855756759644e-02,1.000000000000000000e+00,-3.467605590820312500e+01,4.892502975463867188e+01,2.986686325073242188e+01,1.091832580566406250e+02,9.491098022460937500e+01,-3.052978754043579102e+00,4.031498432159423828e-01,-6.667353820800781250e+01,-1.826883239746093750e+02,-2.342747688293457031e+00,7.562291717529296875e+01,3.135653114318847656e+01
4.978900030255317688e-02,1.000000000000000000e+00,-3.467605590820312500e+01,4.892502975463867188e+01,2.986686325073242188e+01,1.091832580566406250e+02,9.491098022460937500e+01,-3.052978754043579102e+00,4.031498432159423828e-01,-6.667343902587890625e+01,-1.826884307861328125e+02,-2.342747688293457031e+00,7.562291717529296875e+01,3.135653114318847656e+01
5.116900056600570679e-02,1.000000000000000000e+00,-3.467605590820312500e+01,4.892507171630859375e+01,2.986686325073242188e+01,1.091834182739257812e+02,9.491098022460937500e+01,-3.052842855453491211e+00,4.031498432159423828e-01,-6.667343902587890625e+01,-1.826884307861328125e+02,-2.342747688293457031e+00,7.562291717529296875e+01,3.135653114318847656e+01
5.243200063705444336e-02,1.000000000000000000e+00,-3.467605590820312500e+01,4.892507171630859375e+01,2.986686325073242188e+01,1.091834182739257812e+02,9.491098022460937500e+01,-3.052842855453491211e+00,4.031498432159423828e-01,-6.667343902587890625e+01,-1.826884307861328125e+02,-2.342747688293457031e+00,7.562291717529296875e+01,3.135653114318847656e+01
5.826700106263160706e-02,1.000000000000000000e+00,-3.467639923095703125e+01,4.892486572265625000e+01,2.986686325073242188e+01,1.091834182739257812e+02,9.491098022460937500e+01,-3.052842855453491211e+00,4.031498432159423828e-01,-6.667353820800781250e+01,-1.826884307861328125e+02,-2.342819452285766602e+00,7.562291717529296875e+01,3.135642242431640625e+01
6.046099960803985596e-02,1.000000000000000000e+00,-3.467639923095703125e+01,4.892486572265625000e+01,2.986686325073242188e+01,1.091834182739257812e+02,9.491098022460937500e+01,-3.052842855453491211e+00,4.031498432159423828e-01,-6.667353820800781250e+01,-1.826884307861328125e+02,-2.342819452285766602e+00,7.562291717529296875e+01,3.135642242431640625e+01
6.298600137233734131e-02,1.000000000000000000e+00,-3.467705917358398438e+01,4.892450714111328125e+01,2.986686325073242188e+01,1.091832580566406250e+02,9.491092681884765625e+01,-3.052978754043579102e+00,4.031498432159423828e-01,-6.667353820800781250e+01,-1.826883239746093750e+02,-2.342747688293457031e+00,7.562291717529296875e+01,3.135653114318847656e+01
6.426399946212768555e-02,1.000000000000000000e+00,-3.467705917358398438e+01,4.892450714111328125e+01,2.986686325073242188e+01,1.091832580566406250e+02,9.491092681884765625e+01,-3.052978754043579102e+00,4.031498432159423828e-01,-6.667353820800781250e+01,-1.826883239746093750e+02,-2.342747688293457031e+00,7.562291717529296875e+01,3.135653114318847656e+01
6.980799883604049683e-02,1.000000000000000000e+00,-3.467834854125976562e+01,4.892364883422851562e+01,2.986680221557617188e+01,1.091832580566406250e+02,9.491103363037109375e+01,-3.052978754043579102e+00,4.031498432159423828e-01,-6.667353820800781250e+01,-1.826883239746093750e+02,-2.342747688293457031e+00,7.562291717529296875e+01,3.135642242431640625e+01
7.118199765682220459e-02,1.000000000000000000e+00,-3.468021774291992188e+01,4.892179107666015625e+01,2.986686325073242188e+01,1.091831512451171875e+02,9.491098022460937500e+01,-3.052978754043579102e+00,4.031498432159423828e-01,-6.667353820800781250e+01,-1.826883239746093750e+02,-2.342747688293457031e+00,7.562291717529296875e+01,3.135653114318847656e+01
7.255200296640396118e-02,1.000000000000000000e+00,-3.468021774291992188e+01,4.892179107666015625e+01,2.986686325073242188e+01,1.091831512451171875e+02,9.491098022460937500e+01,-3.052978754043579102e+00,4.031498432159423828e-01,-6.667353820800781250e+01,-1.826883239746093750e+02,-2.342747688293457031e+00,7.562291717529296875e+01,3.135653114318847656e+01
7.566399872303009033e-02,1.000000000000000000e+00,-3.468271255493164062e+01,4.891873931884765625e+01,2.986686325073242188e+01,1.091831512451171875e+02,9.491098022460937500e+01,-3.052978754043579102e+00,4.031498432159423828e-01,-6.667353820800781250e+01,-1.826883239746093750e+02,-2.342603921890258789e+00,7.562291717529296875e+01,3.135642242431640625e+01
7.818000018596649170e-02,1.000000000000000000e+00,-3.468271255493164062e+01,4.891873931884765625e+01,2.986686325073242188e+01,1.091831512451171875e+02,9.491098022460937500e+01,-3.052978754043579102e+00,4.031498432159423828e-01,-6.667353820800781250e+01,-1.826883239746093750e+02,-2.342819452285766602e+00,7.562291717529296875e+01,3.135619926452636719e+01
8.068700134754180908e-02,1.000000000000000000e+00,-3.468584060668945312e+01,4.891395950317382812e+01,2.986686325073242188e+01,1.091829910278320312e+02,9.491103363037109375e+01,-3.052842855453491211e+00,4.031498432159423828e-01,-6.667353820800781250e+01,-1.826883239746093750e+02,-2.342819452285766602e+00,7.562291717529296875e+01,3.135619926452636719e+01
8.327099680900573730e-02,1.000000000000000000e+00,-3.468957519531250000e+01,4.890730667114257812e+01,2.986706924438476562e+01,1.091818313598632812e+02,9.491124725341796875e+01,-3.052978754043579102e+00,4.031498432159423828e-01,-6.667353820800781250e+01,-1.826883239746093750e+02,-2.342819452285766602e+00,7.562277984619140625e+01,3.135653114318847656e+01
8.721800148487091064e-02,1.000000000000000000e+00,-3.469385147094726562e+01,4.889879989624023438e+01,2.986747550964355469e+01,1.091789321899414062e+02,9.491140747070312500e+01,-3.053250074386596680e+00,4.031498432159423828e-01,-6.667353820800781250e+01,-1.826883239746093750e+02,-2.342603921890258789e+00,7.562291717529296875e+01,3.135642242431640625e+01
8.866199851036071777e-02,1.000000000000000000e+00,-3.469385147094726562e+01,4.889879989624023438e+01,2.986747550964355469e+01,1.091789321899414062e+02,9.491140747070312500e+01,-3.053250074386596680e+00,4.031498432159423828e-01,-6.667353820800781250e+01,-1.826883239746093750e+02,-2.342603921890258789e+00,7.562291717529296875e+01,3.135642242431640625e+01
9.237899631261825562e-02,1.000000000000000000e+00,-3.469884872436523438e+01,4.888843536376953125e+01,2.986820602416992188e+01,1.091747207641601562e+02,9.491177368164062500e+01,-3.053928136825561523e+00,4.031498432159423828e-01,-6.667353820800781250e+01,-1.826883239746093750e+02,-2.342747688293457031e+00,7.562291717529296875e+01,3.135619926452636719e+01
9.552100300788879395e-02,1.000000000000000000e+00,-3.470487594604492188e+01,4.887619400024414062e+01,2.986934280395507812e+01,1.091693496704101562e+02,9.491279602050781250e+01,-3.055012941360473633e+00,4.031498432159423828e-01,-6.667353820800781250e+01,-1.826881713867187500e+02,-2.342747688293457031e+00,7.562291717529296875e+01,3.135642242431640625e+01
9.962999820709228516e-02,1.000000000000000000e+00,-3.470487594604492188e+01,4.887619400024414062e+01,2.986934280395507812e+01,1.091693496704101562e+02,9.491279602050781250e+01,-3.055012941360473633e+00,4.031498432159423828e-01,-6.667353820800781250e+01,-1.826881713867187500e+02,-2.342747688293457031e+00,7.562291717529296875e+01,3.135642242431640625e+01
1.035469993948936462e-01,1.000000000000000000e+00,-3.471213912963867188e+01,4.886137008666992188e+01,2.987099266052246094e+01,1.091619186401367188e+02,9.491433715820312500e+01,-3.057522296905517578e+00,4.031498432159423828e-01,-6.667353820800781250e+01,-1.826883239746093750e+02,-2.342747688293457031e+00,7.562291717529296875e+01,3.135619926452636719e+01
1.075510010123252869e-01,1.000000000000000000e+00,-3.472063446044921875e+01,4.884412384033203125e+01,2.987332916259765625e+01,1.091521301269531250e+02,9.491668701171875000e+01,-3.060777425765991211e+00,4.030399620532989502e-01,-6.667353820800781250e+01,-1.826883239746093750e+02,-2.342747688293457031e+00,7.562291717529296875e+01,3.135653114318847656e+01
1.115109995007514954e-01,1.000000000000000000e+00,-3.474156188964843750e+01,4.880210113525390625e+01,2.988052749633789062e+01,1.091236801147460938e+02,9.492409515380859375e+01,-3.068576574325561523e+00,4.031498432159423828e-01,-6.667353820800781250e+01,-1.826883239746093750e+02,-2.342603921890258789e+00,7.562291717529296875e+01,3.135653114318847656e+01
1.157319992780685425e-01,1.000000000000000000e+00,-3.474156188964843750e+01,4.880210113525390625e+01,2.988052749633789062e+01,1.091236801147460938e+02,9.492409515380859375e+01,-3.068576574325561523e+00,4.031498432159423828e-01,-6.667353820800781250e+01,-1.826883239746093750e+02,-2.342603921890258789e+00,7.562291717529296875e+01,3.135653114318847656e+01
1.195390000939369202e-01,1.000000000000000000e+00,-3.475404739379882812e+01,4.877698516845703125e+01,2.988585472106933594e+01,1.091053009033203125e+02,9.492905426025390625e+01,-3.074273109436035156e+00,4.031498432159423828e-01,-6.667362213134765625e+01,-1.826883239746093750e+02,-2.342747688293457031e+00,7.562299346923828125e+01,3.135642242431640625e+01
1.235650032758712769e-01,1.000000000000000000e+00,-3.476837539672851562e+01,4.874896621704101562e+01,2.989233970642089844e+01,1.090838623046875000e+02,9.493502807617187500e+01,-3.081190347671508789e+00,4.031498432159423828e-01,-6.667353820800781250e+01,-1.826883239746093750e+02,-2.342603921890258789e+00,7.562291717529296875e+01,3.135642242431640625e+01
1.275559961795806885e-01,1.000000000000000000e+00,-3.478430557250976562e+01,4.871742248535156250e+01,2.989990425109863281e+01,1.090582046508789062e+02,9.494216918945312500e+01,-3.089396238327026367e+00,4.031498432159423828e-01,-6.667353820800781250e+01,-1.826883239746093750e+02,-2.342603921890258789e+00,7.562291717529296875e+01,3.135653114318847656e+01
1.315589994192123413e-01,1.000000000000000000e+00,-3.480170440673828125e+01,4.868270492553710938e+01,2.990880775451660156e+01,1.090280761718750000e+02,9.495032501220703125e+01,-3.098619222640991211e+00,4.031498432159423828e-01,-6.667343902587890625e+01,-1.826883239746093750e+02,-2.342819452285766602e+00,7.562291717529296875e+01,3.135653114318847656e+01
1.356250047683715820e-01,1.000000000000000000e+00,-3.482038879394531250e+01,4.864450454711914062e+01,2.991936111450195312e+01,1.089924163818359375e+02,9.495960235595703125e+01,-3.109470129013061523e+00,4.031498432159423828e-01,-6.667353820800781250e+01,-1.826883239746093750e+02,-2.342747688293457031e+00,7.562299346923828125e+01,3.135653114318847656e+01
1.395509988069534302e-01,1.000000000000000000e+00,-3.484054183959960938e+01,4.860293579101562500e+01,2.993109130859375000e+01,1.089524383544921875e+02,9.496994781494140625e+01,-3.121880531311035156e+00,4.031498432159423828e-01,-6.667353820800781250e+01,-1.826883239746093750e+02,-2.342747688293457031e+00,7.562299346923828125e+01,3.135653114318847656e+01
1.435649991035461426e-01,1.000000000000000000e+00,-3.486279296875000000e+01,4.855792617797851562e+01,2.994406509399414062e+01,1.089102478027343750e+02,9.498167419433593750e+01,-3.135443925857543945e+00,4.031498432159423828e-01,-6.667362213134765625e+01,-1.826883239746093750e+02,-2.342603921890258789e+00,7.562291717529296875e+01,3.135653114318847656e+01
1.476279944181442261e-01,1.000000000000000000e+00,-3.488687515258789062e+01,4.850983428955078125e+01,2.995827484130859375e+01,1.088649444580078125e+02,9.499442291259765625e+01,-3.150295972824096680e+00,4.031498432159423828e-01,-6.667353820800781250e+01,-1.826881713867187500e+02,-2.342819452285766602e+00,7.562299346923828125e+01,3.135653114318847656e+01
1.515640020370483398e-01,1.000000000000000000e+00,-3.491182327270507812e+01,4.845896148681640625e+01,2.997377014160156250e+01,1.088133316040039062e+02,9.500892639160156250e+01,-3.166029214859008789e+00,4.031498432159423828e-01,-6.667353820800781250e+01,-1.826883239746093750e+02,-2.342747688293457031e+00,7.562291717529296875e+01,3.135653114318847656e+01
1.555510014295578003e-01,1.000000000000000000e+00,-3.493834686279296875e+01,4.840510559082031250e+01,2.999046325683593750e+01,1.087587051391601562e+02,9.502406311035156250e+01,-3.182644605636596680e+00,4.031498432159423828e-01,-6.667353820800781250e+01,-1.826883239746093750e+02,-2.342603921890258789e+00,7.562299346923828125e+01,3.135653114318847656e+01
1.595589965581893921e-01,1.000000000000000000e+00,-3.496625137329101562e+01,4.834848403930664062e+01,3.000819015502929688e+01,1.087026596069335938e+02,9.503963470458984375e+01,-3.199802160263061523e+00,4.031498432159423828e-01,-6.667353820800781250e+01,-1.826883239746093750e+02,-2.342747688293457031e+00,7.562299346923828125e+01,3.135653114318847656e+01
1.636449992656707764e-01,1.000000000000000000e+00,-3.499547576904296875e+01,4.828903579711914062e+01,3.002644729614257812e+01,1.086430358886718750e+02,9.505583953857421875e+01,-3.217977046966552734e+00,4.031498432159423828e-01,-6.667353820800781250e+01,-1.826883239746093750e+02,-2.342603921890258789e+00,7.562291717529296875e+01,3.135642242431640625e+01
1.676830053329467773e-01,1.000000000000000000e+00,-3.502639389038085938e+01,4.822741317749023438e+01,3.004503250122070312e+01,1.085817184448242188e+02,9.507236480712890625e+01,-3.237372636795043945e+00,4.031498432159423828e-01,-6.667353820800781250e+01,-1.826883239746093750e+02,-2.342747688293457031e+00,7.562277984619140625e+01,3.135653114318847656e+01
1.716269999742507935e-01,1.000000000000000000e+00,-3.505883026123046875e+01,4.816350555419921875e+01,3.006424522399902344e+01,1.085173492431640625e+02,9.508943176269531250e+01,-3.256835937500000000e+00,4.031498432159423828e-01,-6.667353820800781250e+01,-1.826883239746093750e+02,-2.342747688293457031e+00,7.562291717529296875e+01,3.135675048828125000e+01
1.756229996681213379e-01,1.000000000000000000e+00,-3.509230422973632812e+01,4.809778976440429688e+01,3.008396720886230469e+01,1.084520339965820312e+02,9.510713195800781250e+01,-3.276909828186035156e+00,4.031498432159423828e-01,-6.667353820800781250e+01,-1.826883239746093750e+02,-2.342747688293457031e+00,7.562291717529296875e+01,3.135653114318847656e+01
1.795479953289031982e-01,1.000000000000000000e+00,-3.512651824951171875e+01,4.802989959716796875e+01,3.010429763793945312e+01,1.083860855102539062e+02,9.512536621093750000e+01,-3.297594070434570312e+00,4.031498432159423828e-01,-6.667353820800781250e+01,-1.826883239746093750e+02,-2.342747688293457031e+00,7.562291717529296875e+01,3.135653114318847656e+01
1.837439984083175659e-01,1.000000000000000000e+00,-3.516125869750976562e+01,4.796042633056640625e+01,3.012493515014648438e+01,1.083189239501953125e+02,9.514408111572265625e+01,-3.319227695465087891e+00,4.031498432159423828e-01,-6.667362213134765625e+01,-1.826883239746093750e+02,-2.342747688293457031e+00,7.562291717529296875e+01,3.135653114318847656e+01
1.876239925622940063e-01,1.000000000000000000e+00,-3.519699478149414062e+01,4.788927841186523438e+01,3.014551162719726562e+01,1.082510375976562500e+02,9.516397094726562500e+01,-3.340725421905517578e+00,4.031498432159423828e-01,-6.667353820800781250e+01,-1.826883239746093750e+02,-2.342819452285766602e+00,7.562299346923828125e+01,3.135653114318847656e+01
1.915590018033981323e-01,1.000000000000000000e+00,-3.523382949829101562e+01,4.781647872924804688e+01,3.016623115539550781e+01,1.081825561523437500e+02,9.518358612060546875e+01,-3.361884355545043945e+00,4.031498432159423828e-01,-6.667362213134765625e+01,-1.826883239746093750e+02,-2.342747688293457031e+00,7.562277984619140625e+01,3.135642242431640625e+01
1.955669969320297241e-01,1.000000000000000000e+00,-3.527148818969726562e+01,4.774177551269531250e+01,3.018686485290527344e+01,1.081142883300781250e+02,9.520272827148437500e+01,-3.382704257965087891e+00,4.031498432159423828e-01,-6.667353820800781250e+01,-1.826883239746093750e+02,-2.342747688293457031e+00,7.562291717529296875e+01,3.135653114318847656e+01
1.996250003576278687e-01,1.000000000000000000e+00,-3.530973052978515625e+01,4.766616821289062500e+01,3.020762443542480469e+01,1.080454483032226562e+02,9.522096252441406250e+01,-3.403659343719482422e+00,4.031498432159423828e-01,-6.667353820800781250e+01,-1.826883239746093750e+02,-2.342747688293457031e+00,7.562291717529296875e+01,3.135653114318847656e+01
2.035519927740097046e-01,1.000000000000000000e+00,-3.534813690185546875e+01,4.758990859985351562e+01,3.022850608825683594e+01,1.079768066406250000e+02,9.523946380615234375e+01,-3.424614906311035156e+00,4.031498432159423828e-01,-6.667353820800781250e+01,-1.826883239746093750e+02,-2.342747688293457031e+00,7.562291717529296875e+01,3.135653114318847656e+01
2.082500010728836060e-01,1.000000000000000000e+00,-3.538709259033203125e+01,4.751332855224609375e+01,3.024942588806152344e+01,1.079078140258789062e+02,9.525827789306640625e+01,-3.445909500122070312e+00,4.031498432159423828e-01,-6.667362213134765625e+01,-1.826883239746093750e+02,-2.342747688293457031e+00,7.562291717529296875e+01,3.135653114318847656e+01
2.116370052099227905e-01,1.000000000000000000e+00,-3.542636489868164062e+01,4.743658828735351562e+01,3.027008438110351562e+01,1.078390197753906250e+02,9.527784729003906250e+01,-3.467339515686035156e+00,4.031498432159423828e-01,-6.667353820800781250e+01,-1.826883239746093750e+02,-2.342603921890258789e+00,7.562291717529296875e+01,3.135653114318847656e+01
2.155530005693435669e-01,1.000000000000000000e+00,-3.546575164794921875e+01,4.736005401611328125e+01,3.029084396362304688e+01,1.077699584960937500e+02,9.529763031005859375e+01,-3.488973140716552734e+00,4.031498432159423828e-01,-6.667362213134765625e+01,-1.826883239746093750e+02,-2.342747688293457031e+00,7.562291717529296875e+01,3.135642242431640625e+01
2.196950018405914307e-01,1.000000000000000000e+00,-3.550507736206054688e+01,4.728370285034179688e+01,3.031158065795898438e+01,1.077011718750000000e+02,9.531778717041015625e+01,-3.510945558547973633e+00,4.031498432159423828e-01,-6.667362213134765625e+01,-1.826884307861328125e+02,-2.342747688293457031e+00,7.562277984619140625e+01,3.135675048828125000e+01
2.236299961805343628e-01,1.000000000000000000e+00,-3.554498291015625000e+01,4.720732498168945312e+01,3.033246421813964844e+01,1.076315841674804688e+02,9.533745574951171875e+01,-3.532443761825561523e+00,4.031498432159423828e-01,-6.667343902587890625e+01,-1.826883239746093750e+02,-2.342747688293457031e+00,7.562291717529296875e+01,3.135675048828125000e+01
2.275449931621551514e-01,1.000000000000000000e+00,-3.558451080322265625e+01,4.713088226318359375e+01,3.035346603393554688e+01,1.075628433227539062e+02,9.535627746582031250e+01,-3.553670406341552734e+00,4.030399620532989502e-01,-6.667353820800781250e+01,-1.826883239746093750e+02,-2.342747688293457031e+00,7.562277984619140625e+01,3.135675048828125000e+01
2.322790026664733887e-01,1.000000000000000000e+00,-3.562380981445312500e+01,4.705425643920898438e+01,3.037424468994140625e+01,1.074931564331054688e+02,9.537477874755859375e+01,-3.574422121047973633e+00,4.031498432159423828e-01,-6.667353820800781250e+01,-1.826883239746093750e+02,-2.342747688293457031e+00,7.562291717529296875e+01,3.135653114318847656e+01
2.356179952621459961e-01,1.000000000000000000e+00,-3.566319274902343750e+01,4.697783660888671875e+01,3.039506340026855469e+01,1.074242019653320312e+02,9.539397430419921875e+01,-3.595377922058105469e+00,4.031498432159423828e-01,-6.667353820800781250e+01,-1.826883239746093750e+02,-2.342819452285766602e+00,7.562277984619140625e+01,3.135653114318847656e+01
2.395509928464889526e-01,1.000000000000000000e+00,-3.570254898071289062e+01,4.690116500854492188e+01,3.041602516174316406e+01,1.073547821044921875e+02,9.541311645507812500e+01,-3.616536617279052734e+00,4.031498432159423828e-01,-6.667362213134765625e+01,-1.826883239746093750e+02,-2.342603921890258789e+00,7.562291717529296875e+01,3.135642242431640625e+01
2.439350038766860962e-01,1.000000000000000000e+00,-3.574208068847656250e+01,4.682442855834960938e+01,3.043725204467773438e+01,1.072858886718750000e+02,9.543257141113281250e+01,-3.637424230575561523e+00,4.031498432159423828e-01,-6.667353820800781250e+01,-1.826883239746093750e+02,-2.342819452285766602e+00,7.562299346923828125e+01,3.135653114318847656e+01
2.476190030574798584e-01,1.000000000000000000e+00,-3.578135299682617188e+01,4.674800872802734375e+01,3.045853996276855469e+01,1.072160873413085938e+02,9.545256042480468750e+01,-3.658650636672973633e+00,4.031498432159423828e-01,-6.667353820800781250e+01,-1.826884307861328125e+02,-2.342747688293457031e+00,7.562291717529296875e+01,3.135653114318847656e+01
2.515940070152282715e-01,1.000000000000000000e+00,-3.582068252563476562e+01,4.667144775390625000e+01,3.047966575622558594e+01,1.071470947265625000e+02,9.547287750244140625e+01,-3.680488109588623047e+00,4.031498432159423828e-01,-6.667343902587890625e+01,-1.826884307861328125e+02,-2.342819452285766602e+00,7.562291717529296875e+01,3.135653114318847656e+01
2.563099861145019531e-01,1.000000000000000000e+00,-3.585972213745117188e+01,4.659498596191406250e+01,3.050062751770019531e+01,1.070774002075195312e+02,9.549228668212890625e+01,-3.702528238296508789e+00,4.031498432159423828e-01,-6.667353820800781250e+01,-1.826881713867187500e+02,-2.342819452285766602e+00,7.562291717529296875e+01,3.135675048828125000e+01
2.596470117568969727e-01,1.000000000000000000e+00,-3.589896392822265625e+01,4.651847076416015625e+01,3.052130508422851562e+01,1.070083999633789062e+02,9.551094818115234375e+01,-3.724297761917114258e+00,4.031498432159423828e-01,-6.667353820800781250e+01,-1.826883239746093750e+02,-2.342747688293457031e+00,7.562291717529296875e+01,3.135653114318847656e+01
2.635779976844787598e-01,1.000000000000000000e+00,-3.593817901611328125e+01,4.644202423095703125e+01,3.054234886169433594e+01,1.069386596679687500e+02,9.552960968017578125e+01,-3.745252847671508789e+00,4.031498432159423828e-01,-6.667343902587890625e+01,-1.826883239746093750e+02,-2.342747688293457031e+00,7.562291717529296875e+01,3.135653114318847656e+01
2.682639956474304199e-01,1.000000000000000000e+00,-3.597716140747070312e+01,4.636547088623046875e+01,3.056361389160156250e+01,1.068689727783203125e+02,9.554837799072265625e+01,-3.766072750091552734e+00,4.031498432159423828e-01,-6.667353820800781250e+01,-1.826881713867187500e+02,-2.342603921890258789e+00,7.562291717529296875e+01,3.135653114318847656e+01
2.717300057411193848e-01,1.000000000000000000e+00,-3.601580047607421875e+01,4.628848266601562500e+01,3.058483886718750000e+01,1.067992324829101562e+02,9.556751251220703125e+01,-3.786892652511596680e+00,4.031498432159423828e-01,-6.667353820800781250e+01,-1.826883239746093750e+02,-2.342819452285766602e+00,7.562291717529296875e+01,3.135653114318847656e+01
2.756609916687011719e-01,1.000000000000000000e+00,-3.605443954467773438e+01,4.621142959594726562e+01,3.060590362548828125e+01,1.067297515869140625e+02,9.558766937255859375e+01,-3.808187007904052734e+00,4.031498432159423828e-01,-6.667353820800781250e+01,-1.826883239746093750e+02,-2.342747688293457031e+00,7.562291717529296875e+01,3.135642242431640625e+01
2.806400060653686523e-01,1.000000000000000000e+00,-3.609313964843750000e+01,4.613403701782226562e+01,3.062694740295410156e+01,1.066604309082031250e+02,9.560787200927734375e+01,-3.829549312591552734e+00,4.031498432159423828e-01,-6.667353820800781250e+01,-1.826883239746093750e+02,-2.342819452285766602e+00,7.562291717529296875e+01,3.135653114318847656e+01
2.839779853820800781e-01,1.000000000000000000e+00,-3.613197708129882812e+01,4.605654907226562500e+01,3.064790916442871094e+01,1.065904312133789062e+02,9.562765502929687500e+01,-3.850843667984008789e+00,4.031498432159423828e-01,-6.667362213134765625e+01,-1.826883239746093750e+02,-2.342747688293457031e+00,7.562291717529296875e+01,3.135653114318847656e+01
2.877439856529235840e-01,1.000000000000000000e+00,-3.617087554931640625e+01,4.597924423217773438e+01,3.066921997070312500e+01,1.065204315185546875e+02,9.564658355712890625e+01,-3.872613191604614258e+00,4.031498432159423828e-01,-6.667353820800781250e+01,-1.826883239746093750e+02,-2.342819452285766602e+00,7.562291717529296875e+01,3.135653114318847656e+01
2.923319935798645020e-01,1.000000000000000000e+00,-3.620954132080078125e+01,4.590214157104492188e+01,3.069056701660156250e+01,1.064506835937500000e+02,9.566535186767578125e+01,-3.894856929779052734e+00,4.031498432159423828e-01,-6.667353820800781250e+01,-1.826883239746093750e+02,-2.342747688293457031e+00,7.562291717529296875e+01,3.135653114318847656e+01
2.958610057830810547e-01,1.000000000000000000e+00,-3.624818420410156250e+01,4.582502365112304688e+01,3.071165275573730469e+01,1.063813629150390625e+02,9.568443298339843750e+01,-3.916354894638061523e+00,4.031498432159423828e-01,-6.667353820800781250e+01,-1.826884307861328125e+02,-2.342747688293457031e+00,7.562291717529296875e+01,3.135653114318847656e+01
2.998000085353851318e-01,1.000000000000000000e+00,-3.628684997558593750e+01,4.574758148193359375e+01,3.073263549804687500e+01,1.063114166259765625e+02,9.570363616943359375e+01,-3.937242507934570312e+00,4.031498432159423828e-01,-6.667353820800781250e+01,-1.826883239746093750e+02,-2.342603921890258789e+00,7.562291717529296875e+01,3.135653114318847656e+01
3.045470118522644043e-01,1.000000000000000000e+00,-3.632571792602539062e+01,4.566991806030273438e+01,3.075361633300781250e+01,1.062412033081054688e+02,9.572367858886718750e+01,-3.957994461059570312e+00,4.031498432159423828e-01,-6.667353820800781250e+01,-1.826881713867187500e+02,-2.342747688293457031e+00,7.562291717529296875e+01,3.135653114318847656e+01
3.079409897327423096e-01,1.000000000000000000e+00,-3.636458587646484375e+01,4.559197616577148438e+01,3.077488327026367188e+01,1.061713027954101562e+02,9.574382781982421875e+01,-3.979220867156982422e+00,4.031498432159423828e-01,-6.667353820800781250e+01,-1.826883239746093750e+02,-2.342747688293457031e+00,7.562291717529296875e+01,3.135653114318847656e+01
3.118300139904022217e-01,1.000000000000000000e+00,-3.640351486206054688e+01,4.551417922973632812e+01,3.079635429382324219e+01,1.061017684936523438e+02,9.576425170898437500e+01,-3.999701738357543945e+00,4.031498432159423828e-01,-6.667362213134765625e+01,-1.826884307861328125e+02,-2.342603921890258789e+00,7.562291717529296875e+01,3.135642242431640625e+01
3.165509998798370361e-01,1.000000000000000000e+00,-3.644247055053710938e+01,4.543642044067382812e+01,3.081764030456542969e+01,1.060316696166992188e+02,9.578382110595703125e+01,-4.021267414093017578e+00,4.031498432159423828e-01,-6.667353820800781250e+01,-1.826884307861328125e+02,-2.342747688293457031e+00,7.562299346923828125e+01,3.135653114318847656e+01
3.200339972972869873e-01,1.000000000000000000e+00,-3.648168182373046875e+01,4.535834884643554688e+01,3.083880615234375000e+01,1.059615554809570312e+02,9.580274963378906250e+01,-4.043036460876464844e+00,4.031498432159423828e-01,-6.667353820800781250e+01,-1.826883239746093750e+02,-2.342819452285766602e+00,7.562277984619140625e+01,3.135653114318847656e+01
3.225170075893402100e-01,1.000000000000000000e+00,-3.652103805541992188e+01,4.528013992309570312e+01,3.085976791381835938e+01,1.058911285400390625e+02,9.582151794433593750e+01,-4.065348148345947266e+00,4.031498432159423828e-01,-6.667353820800781250e+01,-1.826883239746093750e+02,-2.342747688293457031e+00,7.562277984619140625e+01,3.135653114318847656e+01
3.289870023727416992e-01,1.000000000000000000e+00,-3.656028366088867188e+01,4.520224761962890625e+01,3.088085365295410156e+01,1.058213348388671875e+02,9.584071350097656250e+01,-4.087524414062500000e+00,4.031498432159423828e-01,-6.667353820800781250e+01,-1.826883239746093750e+02,-2.342747688293457031e+00,7.562291717529296875e+01,3.135653114318847656e+01
3.321399986743927002e-01,1.000000000000000000e+00,-3.659975433349609375e+01,4.512458038330078125e+01,3.090216064453125000e+01,1.057512817382812500e+02,9.586027526855468750e+01,-4.109158039093017578e+00,4.031498432159423828e-01,-6.667353820800781250e+01,-1.826883239746093750e+02,-2.342747688293457031e+00,7.562291717529296875e+01,3.135642242431640625e+01
3.360179960727691650e-01,1.000000000000000000e+00,-3.663933944702148438e+01,4.504652786254882812e+01,3.092354774475097656e+01,1.056812744140625000e+02,9.588042449951171875e+01,-4.129638671875000000e+00,4.031498432159423828e-01,-6.667353820800781250e+01,-1.826883239746093750e+02,-2.342747688293457031e+00,7.562291717529296875e+01,3.135642242431640625e+01
3.385120034217834473e-01,1.000000000000000000e+00,-3.667913055419921875e+01,4.496866226196289062e+01,3.094481468200683594e+01,1.056105346679687500e+02,9.590090179443359375e+01,-4.150797843933105469e+00,4.031498432159423828e-01,-6.667353820800781250e+01,-1.826883239746093750e+02,-2.342819452285766602e+00,7.562277984619140625e+01,3.135642242431640625e+01
3.443279862403869629e-01,1.000000000000000000e+00,-3.671874618530273438e+01,4.489063262939453125e+01,3.096606254577636719e+01,1.055410079956054688e+02,9.592084503173828125e+01,-4.172499179840087891e+00,4.031498432159423828e-01,-6.667362213134765625e+01,-1.826883239746093750e+02,-2.342603921890258789e+00,7.562277984619140625e+01,3.135642242431640625e+01
3.482509851455688477e-01,1.000000000000000000e+00,-3.675856399536132812e+01,4.481242370605468750e+01,3.098734855651855469e+01,1.054703140258789062e+02,9.594003295898437500e+01,-4.193996906280517578e+00,4.031498432159423828e-01,-6.667343902587890625e+01,-1.826883239746093750e+02,-2.342747688293457031e+00,7.562291717529296875e+01,3.135653114318847656e+01
3.522329926490783691e-01,1.000000000000000000e+00,-3.679829025268554688e+01,4.473416900634765625e+01,3.100877952575683594e+01,1.054003677368164062e+02,9.595901489257812500e+01,-4.215359210968017578e+00,4.031498432159423828e-01,-6.667353820800781250e+01,-1.826883239746093750e+02,-2.342747688293457031e+00,7.562291717529296875e+01,3.135653114318847656e+01
3.564240038394927979e-01,1.000000000000000000e+00,-3.683819198608398438e+01,4.465582656860351562e+01,3.103022956848144531e+01,1.053295135498046875e+02,9.597815704345703125e+01,-4.237196445465087891e+00,4.031498432159423828e-01,-6.667362213134765625e+01,-1.826883239746093750e+02,-2.342819452285766602e+00,7.562291717529296875e+01,3.135653114318847656e+01
3.601990044116973877e-01,1.000000000000000000e+00,-3.687821197509765625e+01,4.457775115966796875e+01,3.105153656005859375e+01,1.052599334716796875e+02,9.599771881103515625e+01,-4.259372234344482422e+00,4.031498432159423828e-01,-6.667343902587890625e+01,-1.826883239746093750e+02,-2.342747688293457031e+00,7.562291717529296875e+01,3.135653114318847656e+01
3.649969995021820068e-01,1.000000000000000000e+00,-3.691808319091796875e+01,4.449945068359375000e+01,3.107280540466308594e+01,1.051889877319335938e+02,9.601771545410156250e+01,-4.281412601470947266e+00,4.031498432159423828e-01,-6.667353820800781250e+01,-1.826883239746093750e+02,-2.342747688293457031e+00,7.562299346923828125e+01,3.135653114318847656e+01
3.686279952526092529e-01,1.000000000000000000e+00,-3.695812988281250000e+01,4.442140197753906250e+01,3.109415245056152344e+01,1.051190872192382812e+02,9.603845977783203125e+01,-4.302707195281982422e+00,4.031498432159423828e-01,-6.667353820800781250e+01,-1.826883239746093750e+02,-2.342747688293457031e+00,7.562299346923828125e+01,3.135653114318847656e+01
3.724749982357025146e-01,1.000000000000000000e+00,-3.699820709228515625e+01,4.434353256225585938e+01,3.111550140380859375e+01,1.050479736328125000e+02,9.605888366699218750e+01,-4.323730468750000000e+00,4.031498432159423828e-01,-6.667353820800781250e+01,-1.826883239746093750e+02,-2.342747688293457031e+00,7.562291717529296875e+01,3.135653114318847656e+01
3.772209882736206055e-01,1.000000000000000000e+00,-3.703821945190429688e+01,4.426559448242187500e+01,3.113695144653320312e+01,1.049777603149414062e+02,9.607839202880859375e+01,-4.345296382904052734e+00,4.031498432159423828e-01,-6.667353820800781250e+01,-1.826883239746093750e+02,-2.342747688293457031e+00,7.562291717529296875e+01,3.135653114318847656e+01
3.805519938468933105e-01,1.000000000000000000e+00,-3.707809448242187500e+01,4.418747711181640625e+01,3.115834045410156250e+01,1.049071807861328125e+02,9.609705352783203125e+01,-4.367065429687500000e+00,4.031498432159423828e-01,-6.667353820800781250e+01,-1.826881713867187500e+02,-2.342603921890258789e+00,7.562291717529296875e+01,3.135653114318847656e+01
3.845129907131195068e-01,1.000000000000000000e+00,-3.711828613281250000e+01,4.410903930664062500e+01,3.117958831787109375e+01,1.048368072509765625e+02,9.611624908447265625e+01,-4.388631343841552734e+00,4.031498432159423828e-01,-6.667353820800781250e+01,-1.826883239746093750e+02,-2.342819452285766602e+00,7.562291717529296875e+01,3.135653114318847656e+01
3.891780078411102295e-01,1.000000000000000000e+00,-3.715830230712890625e+01,4.403051376342773438e+01,3.120091629028320312e+01,1.047661132812500000e+02,9.613559722900390625e+01,-4.410196781158447266e+00,4.031498432159423828e-01,-6.667353820800781250e+01,-1.826883239746093750e+02,-2.342747688293457031e+00,7.562291717529296875e+01,3.135653114318847656e+01
3.926500082015991211e-01,1.000000000000000000e+00,-3.719815063476562500e+01,4.395192337036132812e+01,3.122244834899902344e+01,1.046954269409179688e+02,9.615548706054687500e+01,-4.432508945465087891e+00,4.031498432159423828e-01,-6.667353820800781250e+01,-1.826883239746093750e+02,-2.342747688293457031e+00,7.562291717529296875e+01,3.135653114318847656e+01
3.966200053691864014e-01,1.000000000000000000e+00,-3.723810577392578125e+01,4.387307739257812500e+01,3.124395561218261719e+01,1.046245803833007812e+02,9.617542266845703125e+01,-4.455295085906982422e+00,4.031498432159423828e-01,-6.667362213134765625e+01,-1.826883239746093750e+02,-2.342747688293457031e+00,7.562291717529296875e+01,3.135653114318847656e+01
4.012619853019714355e-01,1.000000000000000000e+00,-3.727820968627929688e+01,4.379412078857421875e+01,3.126548767089843750e+01,1.045541076660156250e+02,9.619606018066406250e+01,-4.476996421813964844e+00,4.031498432159423828e-01,-6.667353820800781250e+01,-1.826883239746093750e+02,-2.342747688293457031e+00,7.562277984619140625e+01,3.135653114318847656e+01
4.047929942607879639e-01,1.000000000000000000e+00,-3.731834411621093750e+01,4.371546173095703125e+01,3.128706169128417969e+01,1.044829940795898438e+02,9.621583557128906250e+01,-4.498223304748535156e+00,4.031498432159423828e-01,-6.667343902587890625e+01,-1.826883239746093750e+02,-2.342747688293457031e+00,7.562291717529296875e+01,3.135653114318847656e+01
4.087010025978088379e-01,1.000000000000000000e+00,-3.735841751098632812e+01,4.363707351684570312e+01,3.130847167968750000e+01,1.044126281738281250e+02,9.623487091064453125e+01,-4.519517898559570312e+00,4.031498432159423828e-01,-6.667353820800781250e+01,-1.826883239746093750e+02,-2.342747688293457031e+00,7.562291717529296875e+01,3.135653114318847656e+01
4.133130013942718506e-01,1.000000000000000000e+00,-3.739832305908203125e+01,4.355843353271484375e+01,3.132996177673339844e+01,1.043416748046875000e+02,9.625396728515625000e+01,-4.541219234466552734e+00,4.030399620532989502e-01,-6.667343902587890625e+01,-1.826881713867187500e+02,-2.342747688293457031e+00,7.562291717529296875e+01,3.135653114318847656e+01
4.167830049991607666e-01,1.000000000000000000e+00,-3.743842697143554688e+01,4.347994995117187500e+01,3.135145378112792969e+01,1.042710876464843750e+02,9.627358245849609375e+01,-4.562852859497070312e+00,4.031498432159423828e-01,-6.667362213134765625e+01,-1.826883239746093750e+02,-2.342819452285766602e+00,7.562291717529296875e+01,3.135653114318847656e+01
4.208340048789978027e-01,1.000000000000000000e+00,-3.747846984863281250e+01,4.340131378173828125e+01,3.137276077270507812e+01,1.041996612548828125e+02,9.629283142089843750e+01,-4.584689617156982422e+00,4.031498432159423828e-01,-6.667353820800781250e+01,-1.826883239746093750e+02,-2.342747688293457031e+00,7.562291717529296875e+01,3.135642242431640625e+01
4.259299933910369873e-01,1.000000000000000000e+00,-3.751871871948242188e+01,4.332221984863281250e+01,3.139414787292480469e+01,1.041290283203125000e+02,9.631304168701171875e+01,-4.606933593750000000e+00,4.031498432159423828e-01,-6.667353820800781250e+01,-1.826883239746093750e+02,-2.342819452285766602e+00,7.562291717529296875e+01,3.135653114318847656e+01
4.274980127811431885e-01,1.000000000000000000e+00,-3.755884933471679688e+01,4.324281311035156250e+01,3.141566085815429688e+01,1.040576019287109375e+02,9.633351135253906250e+01,-4.629448890686035156e+00,4.031498432159423828e-01,-6.667353820800781250e+01,-1.826883239746093750e+02,-2.342819452285766602e+00,7.562291717529296875e+01,3.135653114318847656e+01
4.325630068778991699e-01,1.000000000000000000e+00,-3.759898376464843750e+01,4.316315460205078125e+01,3.143739318847656250e+01,1.039866485595703125e+02,9.635372161865234375e+01,-4.651828289031982422e+00,4.031498432159423828e-01,-6.667353820800781250e+01,-1.826883239746093750e+02,-2.342747688293457031e+00,7.562291717529296875e+01,3.135653114318847656e+01
4.355449974536895752e-01,1.000000000000000000e+00,-3.763917160034179688e+01,4.308401870727539062e+01,3.145925140380859375e+01,1.039155883789062500e+02,9.637317657470703125e+01,-4.673190593719482422e+00,4.031498432159423828e-01,-6.667362213134765625e+01,-1.826883239746093750e+02,-2.342819452285766602e+00,7.562291717529296875e+01,3.135653114318847656e+01
4.395070075988769531e-01,1.000000000000000000e+00,-3.767907333374023438e+01,4.300488281250000000e+01,3.148072052001953125e+01,1.038447418212890625e+02,9.639199829101562500e+01,-4.694078445434570312e+00,4.031498432159423828e-01,-6.667353820800781250e+01,-1.826883239746093750e+02,-2.342747688293457031e+00,7.562291717529296875e+01,3.135653114318847656e+01
4.435240030288696289e-01,1.000000000000000000e+00,-3.771903228759765625e+01,4.292574691772460938e+01,3.150223350524902344e+01,1.037730026245117188e+02,9.641114044189453125e+01,-4.715508460998535156e+00,4.031498432159423828e-01,-6.667353820800781250e+01,-1.826883239746093750e+02,-2.342747688293457031e+00,7.562277984619140625e+01,3.135653114318847656e+01
4.475249946117401123e-01,1.000000000000000000e+00,-3.775913619995117188e+01,4.284696960449218750e+01,3.152362251281738281e+01,1.037021560668945312e+02,9.643065643310546875e+01,-4.737481117248535156e+00,4.031498432159423828e-01,-6.667353820800781250e+01,-1.826883239746093750e+02,-2.342747688293457031e+00,7.562277984619140625e+01,3.135642242431640625e+01
4.514969885349273682e-01,1.000000000000000000e+00,-3.779929733276367188e+01,4.276803588867187500e+01,3.154517364501953125e+01,1.036307296752929688e+02,9.645043182373046875e+01,-4.759386062622070312e+00,4.030399620532989502e-01,-6.667353820800781250e+01,-1.826883239746093750e+02,-2.342747688293457031e+00,7.562299346923828125e+01,3.135653114318847656e+01
4.555230140686035156e-01,1.000000000000000000e+00,-3.783948898315429688e+01,4.268896865844726562e+01,3.156701087951660156e+01,1.035597839355468750e+02,9.647106170654296875e+01,-4.781087398529052734e+00,4.031498432159423828e-01,-6.667353820800781250e+01,-1.826883239746093750e+02,-2.342819452285766602e+00,7.562277984619140625e+01,3.135642242431640625e+01
4.595359861850738525e-01,1.000000000000000000e+00,-3.787967681884765625e+01,4.260962677001953125e+01,3.158870315551757812e+01,1.034880371093750000e+02,9.649143218994140625e+01,-4.803602695465087891e+00,4.031498432159423828e-01,-6.667353820800781250e+01,-1.826883239746093750e+02,-2.342747688293457031e+00,7.562299346923828125e+01,3.135653114318847656e+01
4.635519981384277344e-01,1.000000000000000000e+00,-3.791975402832031250e+01,4.253033065795898438e+01,3.161033821105957031e+01,1.034168701171875000e+02,9.651099395751953125e+01,-4.825914382934570312e+00,4.031498432159423828e-01,-6.667343902587890625e+01,-1.826883239746093750e+02,-2.342819452285766602e+00,7.562291717529296875e+01,3.135653114318847656e+01
4.674940109252929688e-01,1.000000000000000000e+00,-3.795988464355468750e+01,4.245074462890625000e+01,3.163205146789550781e+01,1.033451843261718750e+02,9.653024291992187500e+01,-4.847615718841552734e+00,4.031498432159423828e-01,-6.667353820800781250e+01,-1.826881713867187500e+02,-2.342747688293457031e+00,7.562291717529296875e+01,3.135653114318847656e+01
4.715510010719299316e-01,1.000000000000000000e+00,-3.799998855590820312e+01,4.237094879150390625e+01,3.165368270874023438e+01,1.032738037109375000e+02,9.654965209960937500e+01,-4.869113445281982422e+00,4.031498432159423828e-01,-6.667353820800781250e+01,-1.826883239746093750e+02,-2.342819452285766602e+00,7.562291717529296875e+01,3.135653114318847656e+01
4.755150079727172852e-01,1.000000000000000000e+00,-3.804017639160156250e+01,4.229138565063476562e+01,3.167555999755859375e+01,1.032023849487304688e+02,9.656916046142578125e+01,-4.890679359436035156e+00,4.031498432159423828e-01,-6.667362213134765625e+01,-1.826883239746093750e+02,-2.342747688293457031e+00,7.562299346923828125e+01,3.135653114318847656e+01
4.794879853725433350e-01,1.000000000000000000e+00,-3.808033752441406250e+01,4.221197128295898438e+01,3.169727516174316406e+01,1.031306381225585938e+02,9.658899688720703125e+01,-4.912041664123535156e+00,4.031498432159423828e-01,-6.667353820800781250e+01,-1.826883239746093750e+02,-2.342603921890258789e+00,7.562291717529296875e+01,3.135653114318847656e+01
4.836420118808746338e-01,1.000000000000000000e+00,-3.812061309814453125e+01,4.213285827636718750e+01,3.171864318847656250e+01,1.030588989257812500e+02,9.660926055908203125e+01,-4.933946609497070312e+00,4.031498432159423828e-01,-6.667343902587890625e+01,-1.826883239746093750e+02,-2.342747688293457031e+00,7.562291717529296875e+01,3.135653114318847656e+01
4.875870048999786377e-01,1.000000000000000000e+00,-3.816088867187500000e+01,4.205343246459960938e+01,3.174019622802734375e+01,1.029872589111328125e+02,9.663021087646484375e+01,-4.956190109252929688e+00,4.031498432159423828e-01,-6.667353820800781250e+01,-1.826883239746093750e+02,-2.342747688293457031e+00,7.562291717529296875e+01,3.135653114318847656e+01
4.915179908275604248e-01,1.000000000000000000e+00,-3.820101928710937500e+01,4.197408676147460938e+01,3.176193046569824219e+01,1.029159393310546875e+02,9.665047454833984375e+01,-4.978095054626464844e+00,4.031498432159423828e-01,-6.667362213134765625e+01,-1.826881713867187500e+02,-2.342819452285766602e+00,7.562291717529296875e+01,3.135653114318847656e+01
4.956080019474029541e-01,1.000000000000000000e+00,-3.824138259887695312e+01,4.189447402954101562e+01,3.178382873535156250e+01,1.028440933227539062e+02,9.667003631591796875e+01,-5.001017093658447266e+00,4.031498432159423828e-01,-6.667353820800781250e+01,-1.826883239746093750e+02,-2.342819452285766602e+00,7.562291717529296875e+01,3.135653114318847656e+01
4.995009899139404297e-01,1.000000000000000000e+00,-3.828162765502929688e+01,4.181436920166015625e+01,3.180576705932617188e+01,1.027720336914062500e+02,9.668907165527343750e+01,-5.023532390594482422e+00,4.031498432159423828e-01,-6.667353820800781250e+01,-1.826883239746093750e+02,-2.342747688293457031e+00,7.562291717529296875e+01,3.135653114318847656e+01
5.035240054130554199e-01,1.000000000000000000e+00,-3.832184982299804688e+01,4.173423385620117188e+01,3.182752037048339844e+01,1.027006072998046875e+02,9.670837402343750000e+01,-5.044894695281982422e+00,4.031498432159423828e-01,-6.667353820800781250e+01,-1.826883239746093750e+02,-2.342747688293457031e+00,7.562277984619140625e+01,3.135653114318847656e+01
5.075510144233703613e-01,1.000000000000000000e+00,-3.836218261718750000e+01,4.165369415283203125e+01,3.184901237487792969e+01,1.026289215087890625e+02,9.672825622558593750e+01,-5.065782546997070312e+00,4.031498432159423828e-01,-6.667353820800781250e+01,-1.826883239746093750e+02,-2.342747688293457031e+00,7.562299346923828125e+01,3.135653114318847656e+01
5.115000009536743164e-01,1.000000000000000000e+00,-3.840254211425781250e+01,4.157342529296875000e+01,3.187072563171386719e+01,1.025571289062500000e+02,9.674858093261718750e+01,-5.087755203247070312e+00,4.031498432159423828e-01,-6.667362213134765625e+01,-1.826883239746093750e+02,-2.342747688293457031e+00,7.562291717529296875e+01,3.135653114318847656e+01
5.155029892921447754e-01,1.000000000000000000e+00,-3.844264602661132812e+01,4.149327087402343750e+01,3.189264297485351562e+01,1.024847030639648438e+02,9.676926422119140625e+01,-5.109931468963623047e+00,4.031498432159423828e-01,-6.667343902587890625e+01,-1.826884307861328125e+02,-2.342747688293457031e+00,7.562277984619140625e+01,3.135653114318847656e+01
5.195149779319763184e-01,1.000000000000000000e+00,-3.848306655883789062e+01,4.141343307495117188e+01,3.191460227966308594e+01,1.024127426147460938e+02,9.678979492187500000e+01,-5.131700515747070312e+00,4.031498432159423828e-01,-6.667353820800781250e+01,-1.826883239746093750e+02,-2.342747688293457031e+00,7.562291717529296875e+01,3.135653114318847656e+01
5.235700011253356934e-01,1.000000000000000000e+00,-3.852351379394531250e+01,4.133393478393554688e+01,3.193637657165527344e+01,1.023410110473632812e+02,9.680951690673828125e+01,-5.154012203216552734e+00,4.031498432159423828e-01,-6.667353820800781250e+01,-1.826883239746093750e+02,-2.342747688293457031e+00,7.562291717529296875e+01,3.135653114318847656e+01
5.275459885597229004e-01,1.000000000000000000e+00,-3.856407546997070312e+01,4.125411605834960938e+01,3.195806884765625000e+01,1.022694778442382812e+02,9.682886505126953125e+01,-5.176255702972412109e+00,4.033146500587463379e-01,-6.667353820800781250e+01,-1.826883239746093750e+02,-2.342747688293457031e+00,7.562291717529296875e+01,3.135653114318847656e+01
5.315750241279602051e-01,1.000000000000000000e+00,-3.860435104370117188e+01,4.117385101318359375e+01,3.197976493835449219e+01,1.021966781616210938e+02,9.684854888916015625e+01,-5.199517250061035156e+00,4.031498432159423828e-01,-6.667353820800781250e+01,-1.826883239746093750e+02,-2.342747688293457031e+00,7.562277984619140625e+01,3.135653114318847656e+01
5.355049967765808105e-01,1.000000000000000000e+00,-3.864477157592773438e+01,4.109337615966796875e+01,3.200168228149414062e+01,1.021247787475585938e+02,9.686832427978515625e+01,-5.221557617187500000e+00,4.031498432159423828e-01,-6.667353820800781250e+01,-1.826883239746093750e+02,-2.342747688293457031e+00,7.562291717529296875e+01,3.135642242431640625e+01
5.394960045814514160e-01,1.000000000000000000e+00,-3.868519210815429688e+01,4.101286315917968750e+01,3.202371978759765625e+01,1.020524597167968750e+02,9.688847351074218750e+01,-5.243191242218017578e+00,4.031498432159423828e-01,-6.667353820800781250e+01,-1.826883239746093750e+02,-2.342747688293457031e+00,7.562291717529296875e+01,3.135653114318847656e+01
5.435379743576049805e-01,1.000000000000000000e+00,-3.872592544555664062e+01,4.093204879760742188e+01,3.204553604125976562e+01,1.019807128906250000e+02,9.690921783447265625e+01,-5.264757156372070312e+00,4.031498432159423828e-01,-6.667353820800781250e+01,-1.826884307861328125e+02,-2.342747688293457031e+00,7.562291717529296875e+01,3.135653114318847656e+01
5.475670099258422852e-01,1.000000000000000000e+00,-3.876660537719726562e+01,4.085110092163085938e+01,3.206747436523437500e+01,1.019081344604492188e+02,9.693017578125000000e+01,-5.286932945251464844e+00,4.031498432159423828e-01,-6.667353820800781250e+01,-1.826883239746093750e+02,-2.342747688293457031e+00,7.562291717529296875e+01,3.135653114318847656e+01
5.514960289001464844e-01,1.000000000000000000e+00,-3.880725097656250000e+01,4.077065277099609375e+01,3.208927154541015625e+01,1.018362808227539062e+02,9.695026397705078125e+01,-5.309041500091552734e+00,4.031498432159423828e-01,-6.667353820800781250e+01,-1.826883239746093750e+02,-2.342747688293457031e+00,7.562299346923828125e+01,3.135653114318847656e+01
5.555469989776611328e-01,1.000000000000000000e+00,-3.884804534912109375e+01,4.069038391113281250e+01,3.211128997802734375e+01,1.017638015747070312e+02,9.696968078613281250e+01,-5.331285476684570312e+00,4.031498432159423828e-01,-6.667362213134765625e+01,-1.826883239746093750e+02,-2.342747688293457031e+00,7.562291717529296875e+01,3.135653114318847656e+01
5.625259876251220703e-01,1.000000000000000000e+00,-3.888898086547851562e+01,4.061011505126953125e+01,3.213341522216796875e+01,1.016917419433593750e+02,9.698876190185546875e+01,-5.353936195373535156e+00,4.031498432159423828e-01,-6.667362213134765625e+01,-1.826883239746093750e+02,-2.342747688293457031e+00,7.562291717529296875e+01,3.135653114318847656e+01
5.639479756355285645e-01,1.000000000000000000e+00,-3.892977523803710938e+01,4.052998352050781250e+01,3.215534973144531250e+01,1.016190567016601562e+02,9.700875854492187500e+01,-5.376994132995605469e+00,4.031498432159423828e-01,-6.667362213134765625e+01,-1.826883239746093750e+02,-2.342747688293457031e+00,7.562277984619140625e+01,3.135653114318847656e+01
5.675510168075561523e-01,1.000000000000000000e+00,-3.897056198120117188e+01,4.044973754882812500e+01,3.217720413208007812e+01,1.015466842651367188e+02,9.702875518798828125e+01,-5.399169921875000000e+00,4.031498432159423828e-01,-6.667353820800781250e+01,-1.826883239746093750e+02,-2.342747688293457031e+00,7.562277984619140625e+01,3.135653114318847656e+01
5.725449919700622559e-01,1.000000000000000000e+00,-3.901170349121093750e+01,4.036915206909179688e+01,3.219902420043945312e+01,1.014743576049804688e+02,9.704949188232421875e+01,-5.420803546905517578e+00,4.031498432159423828e-01,-6.667343902587890625e+01,-1.826883239746093750e+02,-2.342747688293457031e+00,7.562291717529296875e+01,3.135653114318847656e+01
5.755100250244140625e-01,1.000000000000000000e+00,-3.905274963378906250e+01,4.028818130493164062e+01,3.222101974487304688e+01,1.014017181396484375e+02,9.707038879394531250e+01,-5.442640781402587891e+00,4.031498432159423828e-01,-6.667353820800781250e+01,-1.826883239746093750e+02,-2.342747688293457031e+00,7.562291717529296875e+01,3.135653114318847656e+01
5.794950127601623535e-01,1.000000000000000000e+00,-3.909377288818359375e+01,4.020692062377929688e+01,3.224320220947265625e+01,1.013292465209960938e+02,9.709075927734375000e+01,-5.464748859405517578e+00,4.031498432159423828e-01,-6.667353820800781250e+01,-1.826883239746093750e+02,-2.342747688293457031e+00,7.562291717529296875e+01,3.135653114318847656e+01
5.845119953155517578e-01,1.000000000000000000e+00,-3.909377288818359375e+01,4.020692062377929688e+01,3.224320220947265625e+01,1.013292465209960938e+02,9.709075927734375000e+01,-5.464748859405517578e+00,4.031498432159423828e-01,-6.667353820800781250e+01,-1.826883239746093750e+02,-2.342747688293457031e+00,7.562291717529296875e+01,3.135653114318847656e+01
5.880860090255737305e-01,1.000000000000000000e+00,-3.917601776123046875e+01,4.004475021362304688e+01,3.228748703002929688e+01,1.011840744018554688e+02,9.712951660156250000e+01,-5.510118484497070312e+00,4.031498432159423828e-01,-6.667353820800781250e+01,-1.826883239746093750e+02,-2.342747688293457031e+00,7.562291717529296875e+01,3.135653114318847656e+01
5.915349721908569336e-01,1.000000000000000000e+00,-3.921724319458007812e+01,3.996414566040039062e+01,3.230946731567382812e+01,1.011114349365234375e+02,9.714940643310546875e+01,-5.532362461090087891e+00,4.031498432159423828e-01,-6.667353820800781250e+01,-1.826883239746093750e+02,-2.342603921890258789e+00,7.562291717529296875e+01,3.135653114318847656e+01
5.965390205383300781e-01,1.000000000000000000e+00,-3.921724319458007812e+01,3.996414566040039062e+01,3.230946731567382812e+01,1.011114349365234375e+02,9.714940643310546875e+01,-5.532362461090087891e+00,4.031498432159423828e-01,-6.667353820800781250e+01,-1.826883239746093750e+02,-2.342603921890258789e+00,7.562291717529296875e+01,3.135653114318847656e+01
5.994979739189147949e-01,1.000000000000000000e+00,-3.929968643188476562e+01,3.980335998535156250e+01,3.235360717773437500e+01,1.009660568237304688e+02,9.719013977050781250e+01,-5.578681468963623047e+00,4.031498432159423828e-01,-6.667353820800781250e+01,-1.826883239746093750e+02,-2.342603921890258789e+00,7.562291717529296875e+01,3.135675048828125000e+01
6.035320162773132324e-01,1.000000000000000000e+00,-3.929968643188476562e+01,3.980335998535156250e+01,3.235360717773437500e+01,1.009660568237304688e+02,9.719013977050781250e+01,-5.578681468963623047e+00,4.031498432159423828e-01,-6.667353820800781250e+01,-1.826883239746093750e+02,-2.342603921890258789e+00,7.562291717529296875e+01,3.135675048828125000e+01
6.076149940490722656e-01,1.000000000000000000e+00,-3.934114074707031250e+01,3.972270584106445312e+01,3.237558364868164062e+01,1.008930511474609375e+02,9.721120452880859375e+01,-5.600721836090087891e+00,4.031498432159423828e-01,-6.667353820800781250e+01,-1.826883239746093750e+02,-2.342747688293457031e+00,7.562277984619140625e+01,3.135653114318847656e+01
6.115490198135375977e-01,1.000000000000000000e+00,-3.938233566284179688e+01,3.964155578613281250e+01,3.239752578735351562e+01,1.008206253051757812e+02,9.723172760009765625e+01,-5.622490882873535156e+00,4.031498432159423828e-01,-6.667353820800781250e+01,-1.826883239746093750e+02,-2.342747688293457031e+00,7.562291717529296875e+01,3.135653114318847656e+01
6.155350208282470703e-01,1.000000000000000000e+00,-3.942364501953125000e+01,3.956033706665039062e+01,3.241962432861328125e+01,1.007474060058593750e+02,9.725156402587890625e+01,-5.644328117370605469e+00,4.031498432159423828e-01,-6.667343902587890625e+01,-1.826883239746093750e+02,-2.342747688293457031e+00,7.562291717529296875e+01,3.135653114318847656e+01
6.196110248565673828e-01,1.000000000000000000e+00,-3.946483612060546875e+01,3.947895812988281250e+01,3.244180297851562500e+01,1.006746597290039062e+02,9.727096557617187500e+01,-5.666775226593017578e+00,4.031498432159423828e-01,-6.667353820800781250e+01,-1.826883239746093750e+02,-2.342819452285766602e+00,7.562291717529296875e+01,3.135653114318847656e+01
6.235359907150268555e-01,1.000000000000000000e+00,-3.950623321533203125e+01,3.939733505249023438e+01,3.246408843994140625e+01,1.006012878417968750e+02,9.729048156738281250e+01,-5.689425945281982422e+00,4.031498432159423828e-01,-6.667353820800781250e+01,-1.826883239746093750e+02,-2.342747688293457031e+00,7.562291717529296875e+01,3.135653114318847656e+01
6.275460124015808105e-01,1.000000000000000000e+00,-3.954751205444335938e+01,3.931597900390625000e+01,3.248635482788085938e+01,1.005283813476562500e+02,9.731047058105468750e+01,-5.712212562561035156e+00,4.031498432159423828e-01,-6.667353820800781250e+01,-1.826883239746093750e+02,-2.342819452285766602e+00,7.562291717529296875e+01,3.135653114318847656e+01
6.316030025482177734e-01,1.000000000000000000e+00,-3.958879470825195312e+01,3.923473739624023438e+01,3.250835037231445312e+01,1.004553756713867188e+02,9.733094787597656250e+01,-5.735270023345947266e+00,4.031498432159423828e-01,-6.667353820800781250e+01,-1.826883239746093750e+02,-2.342747688293457031e+00,7.562291717529296875e+01,3.135653114318847656e+01
6.355429887771606445e-01,1.000000000000000000e+00,-3.963010406494140625e+01,3.915385818481445312e+01,3.253028869628906250e+01,1.003825912475585938e+02,9.735217285156250000e+01,-5.758124351501464844e+00,4.031498432159423828e-01,-6.667353820800781250e+01,-1.826883239746093750e+02,-2.342747688293457031e+00,7.562291717529296875e+01,3.135653114318847656e+01
6.395660042762756348e-01,1.000000000000000000e+00,-3.967141342163085938e+01,3.907266235351562500e+01,3.255242919921875000e+01,1.003087844848632812e+02,9.737311553955078125e+01,-5.780775547027587891e+00,4.031498432159423828e-01,-6.667353820800781250e+01,-1.826883239746093750e+02,-2.342747688293457031e+00,7.562291717529296875e+01,3.135653114318847656e+01
6.440010070800781250e-01,1.000000000000000000e+00,-3.971272277832031250e+01,3.899144363403320312e+01,3.257459259033203125e+01,1.002362594604492188e+02,9.739300537109375000e+01,-5.802748203277587891e+00,4.031498432159423828e-01,-6.667353820800781250e+01,-1.826883239746093750e+02,-2.342747688293457031e+00,7.562291717529296875e+01,3.135653114318847656e+01
6.485319733619689941e-01,1.000000000000000000e+00,-3.975417327880859375e+01,3.891015625000000000e+01,3.259669113159179688e+01,1.001626663208007812e+02,9.741252136230468750e+01,-5.824449539184570312e+00,4.031498432159423828e-01,-6.667353820800781250e+01,-1.826883239746093750e+02,-2.342747688293457031e+00,7.562291717529296875e+01,3.135653114318847656e+01
6.514880061149597168e-01,1.000000000000000000e+00,-3.983684921264648438e+01,3.874611282348632812e+01,3.264122009277343750e+01,1.000158691406250000e+02,9.745240020751953125e+01,-5.869615554809570312e+00,4.031498432159423828e-01,-6.667362213134765625e+01,-1.826883239746093750e+02,-2.342747688293457031e+00,7.562291717529296875e+01,3.135653114318847656e+01
6.556289792060852051e-01,1.000000000000000000e+00,-3.983684921264648438e+01,3.874611282348632812e+01,3.264122009277343750e+01,1.000158691406250000e+02,9.745240020751953125e+01,-5.869615554809570312e+00,4.031498432159423828e-01,-6.667362213134765625e+01,-1.826883239746093750e+02,-2.342747688293457031e+00,7.562291717529296875e+01,3.135653114318847656e+01
6.595619916915893555e-01,1.000000000000000000e+00,-3.987804412841796875e+01,3.866391754150390625e+01,3.266356277465820312e+01,9.994291687011718750e+01,9.747309112548828125e+01,-5.892198562622070312e+00,4.031498432159423828e-01,-6.667353820800781250e+01,-1.826883239746093750e+02,-2.342747688293457031e+00,7.562299346923828125e+01,3.135653114318847656e+01
6.635389924049377441e-01,1.000000000000000000e+00,-3.991946792602539062e+01,3.858182144165039062e+01,3.268584823608398438e+01,9.986895751953125000e+01,9.749409484863281250e+01,-5.914849281311035156e+00,4.031498432159423828e-01,-6.667343902587890625e+01,-1.826883239746093750e+02,-2.342603921890258789e+00,7.562291717529296875e+01,3.135653114318847656e+01
6.682879924774169922e-01,1.000000000000000000e+00,-3.996089172363281250e+01,3.850003433227539062e+01,3.270801162719726562e+01,9.979584503173828125e+01,9.751552581787109375e+01,-5.938110828399658203e+00,4.031498432159423828e-01,-6.667343902587890625e+01,-1.826884307861328125e+02,-2.342603921890258789e+00,7.562291717529296875e+01,3.135653114318847656e+01
6.725270152091979980e-01,1.000000000000000000e+00,-4.000214385986328125e+01,3.841879272460937500e+01,3.273019027709960938e+01,9.972221374511718750e+01,9.753557586669921875e+01,-5.960829257965087891e+00,4.031498432159423828e-01,-6.667353820800781250e+01,-1.826883239746093750e+02,-2.342747688293457031e+00,7.562277984619140625e+01,3.135653114318847656e+01
6.755290031433105469e-01,1.000000000000000000e+00,-4.008496475219726562e+01,3.825592422485351562e+01,3.277479934692382812e+01,9.957466888427734375e+01,9.757476806640625000e+01,-6.004706859588623047e+00,4.031498432159423828e-01,-6.667343902587890625e+01,-1.826883239746093750e+02,-2.342747688293457031e+00,7.562291717529296875e+01,3.135653114318847656e+01
6.795690059661865234e-01,1.000000000000000000e+00,-4.008496475219726562e+01,3.825592422485351562e+01,3.277479934692382812e+01,9.957466888427734375e+01,9.757476806640625000e+01,-6.004706859588623047e+00,4.031498432159423828e-01,-6.667343902587890625e+01,-1.826883239746093750e+02,-2.342747688293457031e+00,7.562291717529296875e+01,3.135653114318847656e+01
6.835799813270568848e-01,1.000000000000000000e+00,-4.012641525268554688e+01,3.817391586303710938e+01,3.279730606079101562e+01,9.950135040283203125e+01,9.759491729736328125e+01,-6.027086257934570312e+00,4.031498432159423828e-01,-6.667353820800781250e+01,-1.826883239746093750e+02,-2.342819452285766602e+00,7.562277984619140625e+01,3.135653114318847656e+01
6.875630021095275879e-01,1.000000000000000000e+00,-4.016792678833007812e+01,3.809188079833984375e+01,3.281961059570312500e+01,9.942765808105468750e+01,9.761554718017578125e+01,-6.049940586090087891e+00,4.031498432159423828e-01,-6.667353820800781250e+01,-1.826883239746093750e+02,-2.342603921890258789e+00,7.562291717529296875e+01,3.135675048828125000e+01
6.922609806060791016e-01,1.000000000000000000e+00,-4.020946502685546875e+01,3.800946426391601562e+01,3.284181594848632812e+01,9.935385894775390625e+01,9.763665771484375000e+01,-6.072726726531982422e+00,4.031498432159423828e-01,-6.667353820800781250e+01,-1.826883239746093750e+02,-2.342819452285766602e+00,7.562291717529296875e+01,3.135675048828125000e+01
6.955369710922241211e-01,1.000000000000000000e+00,-4.025106048583984375e+01,3.792695617675781250e+01,3.286407852172851562e+01,9.927985382080078125e+01,9.765825653076171875e+01,-6.095513343811035156e+00,4.031498432159423828e-01,-6.667353820800781250e+01,-1.826883239746093750e+02,-2.342603921890258789e+00,7.562277984619140625e+01,3.135675048828125000e+01
6.995609998703002930e-01,1.000000000000000000e+00,-4.029273986816406250e+01,3.784464645385742188e+01,3.288652038574218750e+01,9.920653533935546875e+01,9.767867279052734375e+01,-6.118638992309570312e+00,4.031498432159423828e-01,-6.667353820800781250e+01,-1.826883239746093750e+02,-2.342747688293457031e+00,7.562291717529296875e+01,3.135653114318847656e+01
7.035660147666931152e-01,1.000000000000000000e+00,-4.033428192138671875e+01,3.776270675659179688e+01,3.290907287597656250e+01,9.913257598876953125e+01,9.769845581054687500e+01,-6.141696929931640625e+00,4.031498432159423828e-01,-6.667362213134765625e+01,-1.826883239746093750e+02,-2.342819452285766602e+00,7.562291717529296875e+01,3.135653114318847656e+01
7.077749967575073242e-01,1.000000000000000000e+00,-4.037599182128906250e+01,3.768101501464843750e+01,3.293141555786132812e+01,9.905841064453125000e+01,9.771849822998046875e+01,-6.163601398468017578e+00,4.031498432159423828e-01,-6.667353820800781250e+01,-1.826883239746093750e+02,-2.342603921890258789e+00,7.562277984619140625e+01,3.135653114318847656e+01
7.115690112113952637e-01,1.000000000000000000e+00,-4.041793060302734375e+01,3.759899902343750000e+01,3.295376205444335938e+01,9.898403930664062500e+01,9.773860168457031250e+01,-6.185574531555175781e+00,4.031498432159423828e-01,-6.667353820800781250e+01,-1.826883239746093750e+02,-2.342747688293457031e+00,7.562291717529296875e+01,3.135653114318847656e+01
7.162479758262634277e-01,1.000000000000000000e+00,-4.045964431762695312e+01,3.751708221435546875e+01,3.297610473632812500e+01,9.891056060791015625e+01,9.775934600830078125e+01,-6.208157062530517578e+00,4.031498432159423828e-01,-6.667353820800781250e+01,-1.826883239746093750e+02,-2.342747688293457031e+00,7.562299346923828125e+01,3.135675048828125000e+01
7.195770144462585449e-01,1.000000000000000000e+00,-4.050135421752929688e+01,3.743495559692382812e+01,3.299852752685546875e+01,9.883665466308593750e+01,9.778034973144531250e+01,-6.230672359466552734e+00,4.031498432159423828e-01,-6.667343902587890625e+01,-1.826884307861328125e+02,-2.342819452285766602e+00,7.562291717529296875e+01,3.135675048828125000e+01
7.235699892044067383e-01,1.000000000000000000e+00,-4.054312133789062500e+01,3.735235977172851562e+01,3.302114105224609375e+01,9.876243591308593750e+01,9.780200195312500000e+01,-6.253187656402587891e+00,4.031498432159423828e-01,-6.667362213134765625e+01,-1.826883239746093750e+02,-2.342747688293457031e+00,7.562277984619140625e+01,3.135653114318847656e+01
7.275379896163940430e-01,1.000000000000000000e+00,-4.058509445190429688e+01,3.726950836181640625e+01,3.304352188110351562e+01,9.868805694580078125e+01,9.782257843017578125e+01,-6.276584625244140625e+00,4.031498432159423828e-01,-6.667343902587890625e+01,-1.826883239746093750e+02,-2.342747688293457031e+00,7.562291717529296875e+01,3.135653114318847656e+01
7.320759892463684082e-01,1.000000000000000000e+00,-4.062714767456054688e+01,3.718643569946289062e+01,3.306582641601562500e+01,9.861399841308593750e+01,9.784256744384765625e+01,-6.300116539001464844e+00,4.031498432159423828e-01,-6.667353820800781250e+01,-1.826883239746093750e+02,-2.342747688293457031e+00,7.562291717529296875e+01,3.135653114318847656e+01
7.355589866638183594e-01,1.000000000000000000e+00,-4.066903305053710938e+01,3.710349655151367188e+01,3.308827590942382812e+01,9.853999328613281250e+01,9.786203002929687500e+01,-6.323174476623535156e+00,4.031498432159423828e-01,-6.667353820800781250e+01,-1.826883239746093750e+02,-2.342747688293457031e+00,7.562291717529296875e+01,3.135642242431640625e+01
7.402930259704589844e-01,1.000000000000000000e+00,-4.071097183227539062e+01,3.702098846435546875e+01,3.311084365844726562e+01,9.846583557128906250e+01,9.788218688964843750e+01,-6.345892906188964844e+00,4.031498432159423828e-01,-6.667353820800781250e+01,-1.826883239746093750e+02,-2.342747688293457031e+00,7.562291717529296875e+01,3.135653114318847656e+01
7.436950206756591797e-01,1.000000000000000000e+00,-4.075308609008789062e+01,3.693879699707031250e+01,3.313355636596679688e+01,9.839144897460937500e+01,9.790281677246093750e+01,-6.367933750152587891e+00,4.031498432159423828e-01,-6.667353820800781250e+01,-1.826883239746093750e+02,-2.342747688293457031e+00,7.562291717529296875e+01,3.135653114318847656e+01
7.475640177726745605e-01,1.000000000000000000e+00,-4.079513931274414062e+01,3.685669326782226562e+01,3.315602111816406250e+01,9.831734466552734375e+01,9.792398834228515625e+01,-6.390380859375000000e+00,4.031498432159423828e-01,-6.667353820800781250e+01,-1.826883239746093750e+02,-2.342747688293457031e+00,7.562277984619140625e+01,3.135653114318847656e+01
7.516000270843505859e-01,1.000000000000000000e+00,-4.083702468872070312e+01,3.677423095703125000e+01,3.317828369140625000e+01,9.824307250976562500e+01,9.794541931152343750e+01,-6.413438796997070312e+00,4.031498432159423828e-01,-6.667353820800781250e+01,-1.826883239746093750e+02,-2.342819452285766602e+00,7.562291717529296875e+01,3.135653114318847656e+01
7.561730146408081055e-01,1.000000000000000000e+00,-4.087916564941406250e+01,3.669133758544921875e+01,3.320064926147460938e+01,9.816853332519531250e+01,9.796615600585937500e+01,-6.436563968658447266e+00,4.031498432159423828e-01,-6.667343902587890625e+01,-1.826883239746093750e+02,-2.342603921890258789e+00,7.562291717529296875e+01,3.135642242431640625e+01
7.595649957656860352e-01,1.000000000000000000e+00,-4.092136383056640625e+01,3.660858154296875000e+01,3.322319793701171875e+01,9.809378814697265625e+01,9.798583221435546875e+01,-6.459554195404052734e+00,4.031498432159423828e-01,-6.667353820800781250e+01,-1.826883239746093750e+02,-2.342819452285766602e+00,7.562299346923828125e+01,3.135642242431640625e+01
7.643020153045654297e-01,1.000000000000000000e+00,-4.096344757080078125e+01,3.652532577514648438e+01,3.324597167968750000e+01,9.801914978027343750e+01,9.800592803955078125e+01,-6.483154773712158203e+00,4.031498432159423828e-01,-6.667353820800781250e+01,-1.826883239746093750e+02,-2.342747688293457031e+00,7.562299346923828125e+01,3.135642242431640625e+01
7.677000164985656738e-01,1.000000000000000000e+00,-4.100527191162109375e+01,3.644177627563476562e+01,3.326869964599609375e+01,9.794488525390625000e+01,9.802645874023437500e+01,-6.506483554840087891e+00,4.031498432159423828e-01,-6.667353820800781250e+01,-1.826883239746093750e+02,-2.342747688293457031e+00,7.562277984619140625e+01,3.135642242431640625e+01
7.716479897499084473e-01,1.000000000000000000e+00,-4.104738998413085938e+01,3.635851669311523438e+01,3.329129028320312500e+01,9.787050628662109375e+01,9.804714202880859375e+01,-6.528998851776123047e+00,4.031498432159423828e-01,-6.667353820800781250e+01,-1.826883239746093750e+02,-2.342819452285766602e+00,7.562291717529296875e+01,3.135653114318847656e+01
7.756010293960571289e-01,1.000000000000000000e+00,-4.108935546875000000e+01,3.627557754516601562e+01,3.331383514404296875e+01,9.779576110839843750e+01,9.806842041015625000e+01,-6.551445960998535156e+00,4.030399620532989502e-01,-6.667353820800781250e+01,-1.826883239746093750e+02,-2.342747688293457031e+00,7.562291717529296875e+01,3.135642242431640625e+01
7.803779840469360352e-01,1.000000000000000000e+00,-4.113146972656250000e+01,3.619295883178710938e+01,3.333644485473632812e+01,9.772112274169921875e+01,9.808985137939453125e+01,-6.574232578277587891e+00,4.031498432159423828e-01,-6.667353820800781250e+01,-1.826881713867187500e+02,-2.342603921890258789e+00,7.562291717529296875e+01,3.135642242431640625e+01
7.837319970130920410e-01,1.000000000000000000e+00,-4.117355728149414062e+01,3.611019897460937500e+01,3.335907363891601562e+01,9.764659118652343750e+01,9.811106872558593750e+01,-6.596951007843017578e+00,4.031498432159423828e-01,-6.667353820800781250e+01,-1.826883239746093750e+02,-2.342747688293457031e+00,7.562291717529296875e+01,3.135642242431640625e+01
7.883620262145996094e-01,1.000000000000000000e+00,-4.121569442749023438e+01,3.602732849121093750e+01,3.338166046142578125e+01,9.757152557373046875e+01,9.813101196289062500e+01,-6.620415687561035156e+00,4.031498432159423828e-01,-6.667353820800781250e+01,-1.826883239746093750e+02,-2.342819452285766602e+00,7.562291717529296875e+01,3.135653114318847656e+01
7.919020056724548340e-01,1.000000000000000000e+00,-4.125763702392578125e+01,3.594425582885742188e+01,3.340425109863281250e+01,9.749699401855468750e+01,9.815084075927734375e+01,-6.643812656402587891e+00,4.031498432159423828e-01,-6.667353820800781250e+01,-1.826883239746093750e+02,-2.342603921890258789e+00,7.562291717529296875e+01,3.135653114318847656e+01
7.957370281219482422e-01,1.000000000000000000e+00,-4.129949188232421875e+01,3.586082077026367188e+01,3.342687988281250000e+01,9.742209625244140625e+01,9.817115783691406250e+01,-6.667480468750000000e+00,4.031498432159423828e-01,-6.667353820800781250e+01,-1.826883239746093750e+02,-2.342819452285766602e+00,7.562277984619140625e+01,3.135653114318847656e+01
7.997720241546630859e-01,1.000000000000000000e+00,-4.134140396118164062e+01,3.577701950073242188e+01,3.344983291625976562e+01,9.734735107421875000e+01,9.819178771972656250e+01,-6.691284179687500000e+00,4.031498432159423828e-01,-6.667353820800781250e+01,-1.826883239746093750e+02,-2.342747688293457031e+00,7.562277984619140625e+01,3.135653114318847656e+01
8.045499920845031738e-01,1.000000000000000000e+00,-4.138345718383789062e+01,3.569324493408203125e+01,3.347260665893554688e+01,9.727191925048828125e+01,9.821327972412109375e+01,-6.714138984680175781e+00,4.031498432159423828e-01,-6.667353820800781250e+01,-1.826883239746093750e+02,-2.342747688293457031e+00,7.562291717529296875e+01,3.135675048828125000e+01
8.079289793968200684e-01,1.000000000000000000e+00,-4.142554092407226562e+01,3.560951232910156250e+01,3.349535751342773438e+01,9.719738006591796875e+01,9.823492431640625000e+01,-6.736518383026123047e+00,4.031498432159423828e-01,-6.667362213134765625e+01,-1.826883239746093750e+02,-2.342819452285766602e+00,7.562277984619140625e+01,3.135675048828125000e+01
8.127650022506713867e-01,1.000000000000000000e+00,-4.146751403808593750e+01,3.552610015869140625e+01,3.351796722412109375e+01,9.712195587158203125e+01,9.825588226318359375e+01,-6.759100914001464844e+00,4.031498432159423828e-01,-6.667343902587890625e+01,-1.826883239746093750e+02,-2.342747688293457031e+00,7.562291717529296875e+01,3.135653114318847656e+01
8.160430192947387695e-01,1.000000000000000000e+00,-4.150942230224609375e+01,3.544304656982421875e+01,3.354055786132812500e+01,9.704700469970703125e+01,9.827608489990234375e+01,-6.782227039337158203e+00,4.031498432159423828e-01,-6.667353820800781250e+01,-1.826883239746093750e+02,-2.342747688293457031e+00,7.562299346923828125e+01,3.135653114318847656e+01
8.199449777603149414e-01,1.000000000000000000e+00,-4.155139541625976562e+01,3.536006546020507812e+01,3.356341171264648438e+01,9.697189331054687500e+01,9.829607391357421875e+01,-6.805826663970947266e+00,4.031498432159423828e-01,-6.667343902587890625e+01,-1.826883239746093750e+02,-2.342819452285766602e+00,7.562291717529296875e+01,3.135653114318847656e+01
8.238919973373413086e-01,1.000000000000000000e+00,-4.159344863891601562e+01,3.527678680419921875e+01,3.358620071411132812e+01,9.689677429199218750e+01,9.831660461425781250e+01,-6.829020500183105469e+00,4.031498432159423828e-01,-6.667353820800781250e+01,-1.826883239746093750e+02,-2.342747688293457031e+00,7.562277984619140625e+01,3.135653114318847656e+01
8.285940289497375488e-01,1.000000000000000000e+00,-4.163561630249023438e+01,3.519308090209960938e+01,3.360907363891601562e+01,9.682144927978515625e+01,9.833755493164062500e+01,-6.852959632873535156e+00,4.031498432159423828e-01,-6.667353820800781250e+01,-1.826883239746093750e+02,-2.342819452285766602e+00,7.562291717529296875e+01,3.135653114318847656e+01
8.321620225906372070e-01,1.000000000000000000e+00,-4.167787551879882812e+01,3.510934829711914062e+01,3.363186645507812500e+01,9.674649810791015625e+01,9.835920715332031250e+01,-6.876627922058105469e+00,4.031498432159423828e-01,-6.667353820800781250e+01,-1.826883239746093750e+02,-2.342819452285766602e+00,7.562291717529296875e+01,3.135642242431640625e+01
8.358830213546752930e-01,1.000000000000000000e+00,-4.172007369995117188e+01,3.502498626708984375e+01,3.365461730957031250e+01,9.667106628417968750e+01,9.838111877441406250e+01,-6.899685382843017578e+00,4.031498432159423828e-01,-6.667353820800781250e+01,-1.826883239746093750e+02,-2.342747688293457031e+00,7.562291717529296875e+01,3.135642242431640625e+01
8.401539921760559082e-01,1.000000000000000000e+00,-4.176218795776367188e+01,3.494064331054687500e+01,3.367761230468750000e+01,9.659584808349609375e+01,9.840233612060546875e+01,-6.921997070312500000e+00,4.031498432159423828e-01,-6.667343902587890625e+01,-1.826883239746093750e+02,-2.342747688293457031e+00,7.562291717529296875e+01,3.135642242431640625e+01
8.441069722175598145e-01,1.000000000000000000e+00,-4.180472946166992188e+01,3.485647964477539062e+01,3.370046615600585938e+01,9.652005767822265625e+01,9.842270660400390625e+01,-6.944512367248535156e+00,4.031498432159423828e-01,-6.667353820800781250e+01,-1.826883239746093750e+02,-2.342747688293457031e+00,7.562291717529296875e+01,3.135642242431640625e+01
8.480849862098693848e-01,1.000000000000000000e+00,-4.184707260131835938e+01,3.477275085449218750e+01,3.372311782836914062e+01,9.644461822509765625e+01,9.844285583496093750e+01,-6.967977046966552734e+00,4.031498432159423828e-01,-6.667353820800781250e+01,-1.826883239746093750e+02,-2.342747688293457031e+00,7.562291717529296875e+01,3.135642242431640625e+01
8.531230092048645020e-01,1.000000000000000000e+00,-4.188970565795898438e+01,3.468915557861328125e+01,3.374588394165039062e+01,9.636919403076171875e+01,9.846343231201171875e+01,-6.991441249847412109e+00,4.031498432159423828e-01,-6.667353820800781250e+01,-1.826883239746093750e+02,-2.342747688293457031e+00,7.562291717529296875e+01,3.135653114318847656e+01
8.563119769096374512e-01,1.000000000000000000e+00,-4.193207550048828125e+01,3.460547256469726562e+01,3.376871871948242188e+01,9.629376220703125000e+01,9.848492431640625000e+01,-7.014838218688964844e+00,4.031498432159423828e-01,-6.667353820800781250e+01,-1.826881713867187500e+02,-2.342747688293457031e+00,7.562299346923828125e+01,3.135653114318847656e+01
8.611329793930053711e-01,1.000000000000000000e+00,-4.197484588623046875e+01,3.452171707153320312e+01,3.379159164428710938e+01,9.621780395507812500e+01,9.850652313232421875e+01,-7.038777828216552734e+00,4.031498432159423828e-01,-6.667353820800781250e+01,-1.826883239746093750e+02,-2.342747688293457031e+00,7.562291717529296875e+01,3.135653114318847656e+01
8.652319908142089844e-01,1.000000000000000000e+00,-4.201747512817382812e+01,3.443762207031250000e+01,3.381458663940429688e+01,9.614206695556640625e+01,9.852842712402343750e+01,-7.062174320220947266e+00,4.031498432159423828e-01,-6.667353820800781250e+01,-1.826883239746093750e+02,-2.342819452285766602e+00,7.562291717529296875e+01,3.135642242431640625e+01
8.685359954833984375e-01,1.000000000000000000e+00,-4.206036376953125000e+01,3.435314559936523438e+01,3.383739852905273438e+01,9.606663513183593750e+01,9.854959869384765625e+01,-7.085096836090087891e+00,4.031498432159423828e-01,-6.667353820800781250e+01,-1.826883239746093750e+02,-2.342747688293457031e+00,7.562291717529296875e+01,3.135653114318847656e+01
8.728229999542236328e-01,1.000000000000000000e+00,-4.214617156982421875e+01,3.418355560302734375e+01,3.388314819335937500e+01,9.591487884521484375e+01,9.859059906005859375e+01,-7.130737781524658203e+00,4.030399620532989502e-01,-6.667353820800781250e+01,-1.826883239746093750e+02,-2.342819452285766602e+00,7.562291717529296875e+01,3.135653114318847656e+01
8.764770030975341797e-01,1.000000000000000000e+00,-4.214617156982421875e+01,3.418355560302734375e+01,3.388314819335937500e+01,9.591487884521484375e+01,9.859059906005859375e+01,-7.130737781524658203e+00,4.030399620532989502e-01,-6.667353820800781250e+01,-1.826883239746093750e+02,-2.342819452285766602e+00,7.562291717529296875e+01,3.135653114318847656e+01
8.804950118064880371e-01,1.000000000000000000e+00,-4.218894195556640625e+01,3.409905624389648438e+01,3.390604019165039062e+01,9.583892059326171875e+01,9.861138916015625000e+01,-7.153998851776123047e+00,4.031498432159423828e-01,-6.667362213134765625e+01,-1.826883239746093750e+02,-2.342747688293457031e+00,7.562291717529296875e+01,3.135642242431640625e+01
8.842930197715759277e-01,1.000000000000000000e+00,-4.223191833496093750e+01,3.401480865478515625e+01,3.392897415161132812e+01,9.576333618164062500e+01,9.863288116455078125e+01,-7.177056312561035156e+00,4.031498432159423828e-01,-6.667353820800781250e+01,-1.826883239746093750e+02,-2.342819452285766602e+00,7.562277984619140625e+01,3.135653114318847656e+01
8.892639875411987305e-01,1.000000000000000000e+00,-4.227511978149414062e+01,3.393109893798828125e+01,3.395207214355468750e+01,9.568743133544921875e+01,9.865462493896484375e+01,-7.201131820678710938e+00,4.031498432159423828e-01,-6.667353820800781250e+01,-1.826883239746093750e+02,-2.342747688293457031e+00,7.562277984619140625e+01,3.135653114318847656e+01
8.925539851188659668e-01,1.000000000000000000e+00,-4.231826782226562500e+01,3.384723281860351562e+01,3.397504806518554688e+01,9.561141967773437500e+01,9.867675781250000000e+01,-7.224935054779052734e+00,4.031498432159423828e-01,-6.667353820800781250e+01,-1.826883239746093750e+02,-2.342747688293457031e+00,7.562291717529296875e+01,3.135653114318847656e+01
8.963819742202758789e-01,1.000000000000000000e+00,-4.236129760742187500e+01,3.376300048828125000e+01,3.399816513061523438e+01,9.553498840332031250e+01,9.869786834716796875e+01,-7.248128414154052734e+00,4.031498432159423828e-01,-6.667343902587890625e+01,-1.826883239746093750e+02,-2.342747688293457031e+00,7.562291717529296875e+01,3.135653114318847656e+01
9.006659984588623047e-01,1.000000000000000000e+00,-4.240435791015625000e+01,3.367834472656250000e+01,3.402107620239257812e+01,9.545925140380859375e+01,9.871829223632812500e+01,-7.271457195281982422e+00,4.031498432159423828e-01,-6.667343902587890625e+01,-1.826883239746093750e+02,-2.342819452285766602e+00,7.562291717529296875e+01,3.135653114318847656e+01
9.046540260314941406e-01,1.000000000000000000e+00,-4.244741821289062500e+01,3.359359741210937500e+01,3.404399108886718750e+01,9.538307952880859375e+01,9.873854827880859375e+01,-7.293904304504394531e+00,4.031498432159423828e-01,-6.667353820800781250e+01,-1.826883239746093750e+02,-2.342747688293457031e+00,7.562291717529296875e+01,3.135653114318847656e+01
9.095960259437561035e-01,1.000000000000000000e+00,-4.249056625366210938e+01,3.350862121582031250e+01,3.406707000732421875e+01,9.530680847167968750e+01,9.875939178466796875e+01,-7.316826343536376953e+00,4.031498432159423828e-01,-6.667353820800781250e+01,-1.826883239746093750e+02,-2.342603921890258789e+00,7.562291717529296875e+01,3.135653114318847656e+01
9.134749770164489746e-01,1.000000000000000000e+00,-4.253368377685546875e+01,3.342358016967773438e+01,3.409020614624023438e+01,9.523059082031250000e+01,9.878076934814453125e+01,-7.340020179748535156e+00,4.031498432159423828e-01,-6.667353820800781250e+01,-1.826883239746093750e+02,-2.342747688293457031e+00,7.562291717529296875e+01,3.135675048828125000e+01
9.166550040245056152e-01,1.000000000000000000e+00,-4.257685852050781250e+01,3.333887481689453125e+01,3.411350631713867188e+01,9.515437316894531250e+01,9.880290222167968750e+01,-7.363824367523193359e+00,4.031498432159423828e-01,-6.667353820800781250e+01,-1.826883239746093750e+02,-2.342747688293457031e+00,7.562291717529296875e+01,3.135653114318847656e+01
9.204649925231933594e-01,1.000000000000000000e+00,-4.261997604370117188e+01,3.325453186035156250e+01,3.413670349121093750e+01,9.507836914062500000e+01,9.882476043701171875e+01,-7.387355804443359375e+00,4.031498432159423828e-01,-6.667343902587890625e+01,-1.826883239746093750e+02,-2.342747688293457031e+00,7.562291717529296875e+01,3.135653114318847656e+01
9.247289896011352539e-01,1.000000000000000000e+00,-4.266309356689453125e+01,3.317007827758789062e+01,3.415967941284179688e+01,9.500193786621093750e+01,9.884582519531250000e+01,-7.411567211151123047e+00,4.031498432159423828e-01,-6.667353820800781250e+01,-1.826883239746093750e+02,-2.342819452285766602e+00,7.562291717529296875e+01,3.135642242431640625e+01
9.287229776382446289e-01,1.000000000000000000e+00,-4.270589447021484375e+01,3.308564376831054688e+01,3.418257522583007812e+01,9.492571258544921875e+01,9.886618041992187500e+01,-7.435234546661376953e+00,4.031498432159423828e-01,-6.667353820800781250e+01,-1.826883239746093750e+02,-2.342819452285766602e+00,7.562291717529296875e+01,3.135642242431640625e+01
9.335449934005737305e-01,1.000000000000000000e+00,-4.274904251098632812e+01,3.300078201293945312e+01,3.420565032958984375e+01,9.484907531738281250e+01,9.888703918457031250e+01,-7.458496570587158203e+00,4.031498432159423828e-01,-6.667353820800781250e+01,-1.826883239746093750e+02,-2.342747688293457031e+00,7.562299346923828125e+01,3.135653114318847656e+01
9.374279975891113281e-01,1.000000000000000000e+00,-4.279224395751953125e+01,3.291551208496093750e+01,3.422886657714843750e+01,9.477311706542968750e+01,9.890793609619140625e+01,-7.481147289276123047e+00,4.031498432159423828e-01,-6.667353820800781250e+01,-1.826883239746093750e+02,-2.342747688293457031e+00,7.562277984619140625e+01,3.135653114318847656e+01
9.395189881324768066e-01,1.000000000000000000e+00,-4.283527755737304688e+01,3.282997131347656250e+01,3.425218963623046875e+01,9.469626617431640625e+01,9.892963409423828125e+01,-7.504272460937500000e+00,4.031498432159423828e-01,-6.667343902587890625e+01,-1.826883239746093750e+02,-2.342603921890258789e+00,7.562291717529296875e+01,3.135653114318847656e+01
9.447510242462158203e-01,1.000000000000000000e+00,-4.287842178344726562e+01,3.274409103393554688e+01,3.427536773681640625e+01,9.461972808837890625e+01,9.895186614990234375e+01,-7.527940750122070312e+00,4.031498432159423828e-01,-6.667353820800781250e+01,-1.826883239746093750e+02,-2.342747688293457031e+00,7.562291717529296875e+01,3.135653114318847656e+01
9.475730061531066895e-01,1.000000000000000000e+00,-4.292142486572265625e+01,3.265836715698242188e+01,3.429852676391601562e+01,9.454298400878906250e+01,9.897377777099609375e+01,-7.551540851593017578e+00,4.031498432159423828e-01,-6.667353820800781250e+01,-1.826883239746093750e+02,-2.342819452285766602e+00,7.562291717529296875e+01,3.135653114318847656e+01
9.514740109443664551e-01,1.000000000000000000e+00,-4.296442794799804688e+01,3.257294082641601562e+01,3.432174682617187500e+01,9.446665954589843750e+01,9.899494934082031250e+01,-7.575751304626464844e+00,4.031498432159423828e-01,-6.667353820800781250e+01,-1.826883239746093750e+02,-2.342747688293457031e+00,7.562291717529296875e+01,3.135653114318847656e+01
9.555500149726867676e-01,1.000000000000000000e+00,-4.300757598876953125e+01,3.248789596557617188e+01,3.434506225585937500e+01,9.438964843750000000e+01,9.901520538330078125e+01,-7.599894523620605469e+00,4.030399620532989502e-01,-6.667353820800781250e+01,-1.826883239746093750e+02,-2.342747688293457031e+00,7.562291717529296875e+01,3.135653114318847656e+01
9.594870209693908691e-01,1.000000000000000000e+00,-4.305063629150390625e+01,3.240314865112304688e+01,3.436824035644531250e+01,9.431337738037109375e+01,9.903562927246093750e+01,-7.623698234558105469e+00,4.031498432159423828e-01,-6.667353820800781250e+01,-1.826883239746093750e+02,-2.342747688293457031e+00,7.562291717529296875e+01,3.135675048828125000e+01
9.634810090065002441e-01,1.000000000000000000e+00,-4.309392547607421875e+01,3.231803894042968750e+01,3.439122009277343750e+01,9.423647308349609375e+01,9.905657958984375000e+01,-7.646552085876464844e+00,4.030399620532989502e-01,-6.667353820800781250e+01,-1.826883239746093750e+02,-2.342747688293457031e+00,7.562291717529296875e+01,3.135653114318847656e+01
9.675379991531372070e-01,1.000000000000000000e+00,-4.313701248168945312e+01,3.223256301879882812e+01,3.441431427001953125e+01,9.415956878662109375e+01,9.907859802246093750e+01,-7.669745922088623047e+00,4.031498432159423828e-01,-6.667362213134765625e+01,-1.826883239746093750e+02,-2.342747688293457031e+00,7.562291717529296875e+01,3.135653114318847656e+01
9.715399742126464844e-01,1.000000000000000000e+00,-4.318021774291992188e+01,3.214698028564453125e+01,3.443761444091796875e+01,9.408266448974609375e+01,9.910088348388671875e+01,-7.692871093750000000e+00,4.031498432159423828e-01,-6.667353820800781250e+01,-1.826883239746093750e+02,-2.342819452285766602e+00,7.562291717529296875e+01,3.135653114318847656e+01
9.754719734191894531e-01,1.000000000000000000e+00,-4.322339630126953125e+01,3.206093978881835938e+01,3.446112060546875000e+01,9.400586700439453125e+01,9.912284851074218750e+01,-7.716675281524658203e+00,4.031498432159423828e-01,-6.667353820800781250e+01,-1.826883239746093750e+02,-2.342747688293457031e+00,7.562291717529296875e+01,3.135653114318847656e+01
9.795389771461486816e-01,1.000000000000000000e+00,-4.326673889160156250e+01,3.197456169128417969e+01,3.448460006713867188e+01,9.392901611328125000e+01,9.914353942871093750e+01,-7.740817546844482422e+00,4.031498432159423828e-01,-6.667353820800781250e+01,-1.826884307861328125e+02,-2.342747688293457031e+00,7.562277984619140625e+01,3.135653114318847656e+01
9.834899902343750000e-01,1.000000000000000000e+00,-4.331002807617187500e+01,3.188865852355957031e+01,3.450780105590820312e+01,9.385163879394531250e+01,9.916406250000000000e+01,-7.764893054962158203e+00,4.031498432159423828e-01,-6.667353820800781250e+01,-1.826883239746093750e+02,-2.342747688293457031e+00,7.562291717529296875e+01,3.135675048828125000e+01
9.875109791755676270e-01,1.000000000000000000e+00,-4.335329055786132812e+01,3.180309295654296875e+01,3.453089904785156250e+01,9.377494812011718750e+01,9.918507385253906250e+01,-7.789306640625000000e+00,4.031498432159423828e-01,-6.667353820800781250e+01,-1.826883239746093750e+02,-2.342747688293457031e+00,7.562291717529296875e+01,3.135653114318847656e+01
9.915689826011657715e-01,1.000000000000000000e+00,-4.339692687988281250e+01,3.171771240234375000e+01,3.455417633056640625e+01,9.369757080078125000e+01,9.920645141601562500e+01,-7.813313961029052734e+00,4.031498432159423828e-01,-6.667353820800781250e+01,-1.826883239746093750e+02,-2.342747688293457031e+00,7.562277984619140625e+01,3.135653114318847656e+01
9.955009818077087402e-01,1.000000000000000000e+00,-4.344055938720703125e+01,3.163232803344726562e+01,3.457762145996093750e+01,9.362029266357421875e+01,9.922846984863281250e+01,-7.836779117584228516e+00,4.031498432159423828e-01,-6.667353820800781250e+01,-1.826883239746093750e+02,-2.342603921890258789e+00,7.562277984619140625e+01,3.135653114318847656e+01
9.994739890098571777e-01,1.000000000000000000e+00,-4.348407745361328125e+01,3.154699134826660156e+01,3.460106277465820312e+01,9.354307556152343750e+01,9.925096893310546875e+01,-7.859768390655517578e+00,4.031498432159423828e-01,-6.667353820800781250e+01,-1.826883239746093750e+02,-2.342819452285766602e+00,7.562291717529296875e+01,3.135653114318847656e+01
1.003541946411132812e+00,1.000000000000000000e+00,-4.352782821655273438e+01,3.146113204956054688e+01,3.462446594238281250e+01,9.346622467041015625e+01,9.927325439453125000e+01,-7.882962226867675781e+00,4.031498432159423828e-01,-6.667353820800781250e+01,-1.826883239746093750e+02,-2.342747688293457031e+00,7.562291717529296875e+01,3.135653114318847656e+01
1.007568001747131348e+00,1.000000000000000000e+00,-4.357143402099609375e+01,3.137502670288085938e+01,3.464772415161132812e+01,9.338837432861328125e+01,9.929383850097656250e+01,-7.906901359558105469e+00,4.031498432159423828e-01,-6.667353820800781250e+01,-1.826883239746093750e+02,-2.342819452285766602e+00,7.562299346923828125e+01,3.135653114318847656e+01
1.011508941650390625e+00,1.000000000000000000e+00,-4.361524200439453125e+01,3.128842163085937500e+01,3.467124938964843750e+01,9.331140899658203125e+01,9.931452178955078125e+01,-7.931111812591552734e+00,4.031498432159423828e-01,-6.667353820800781250e+01,-1.826883239746093750e+02,-2.342819452285766602e+00,7.562277984619140625e+01,3.135653114318847656e+01
1.015609025955200195e+00,1.000000000000000000e+00,-4.365890502929687500e+01,3.120188522338867188e+01,3.469483566284179688e+01,9.323377227783203125e+01,9.933537292480468750e+01,-7.955525875091552734e+00,4.031498432159423828e-01,-6.667353820800781250e+01,-1.826883239746093750e+02,-2.342603921890258789e+00,7.562291717529296875e+01,3.135653114318847656e+01
1.019526958465576172e+00,1.000000000000000000e+00,-4.370276641845703125e+01,3.111541557312011719e+01,3.471819305419921875e+01,9.315665435791015625e+01,9.935701751708984375e+01,-7.979600906372070312e+00,4.031498432159423828e-01,-6.667353820800781250e+01,-1.826883239746093750e+02,-2.342819452285766602e+00,7.562291717529296875e+01,3.135653114318847656e+01
1.023476958274841309e+00,1.000000000000000000e+00,-4.374668884277343750e+01,3.102944374084472656e+01,3.474155426025390625e+01,9.307880401611328125e+01,9.937924957275390625e+01,-8.003472328186035156e+00,4.031498432159423828e-01,-6.667353820800781250e+01,-1.826884307861328125e+02,-2.342747688293457031e+00,7.562277984619140625e+01,3.135653114318847656e+01
1.027503013610839844e+00,1.000000000000000000e+00,-4.379063796997070312e+01,3.094385910034179688e+01,3.476493453979492188e+01,9.300121307373046875e+01,9.940158843994140625e+01,-8.026802062988281250e+00,4.031498432159423828e-01,-6.667353820800781250e+01,-1.826883239746093750e+02,-2.342603921890258789e+00,7.562291717529296875e+01,3.135653114318847656e+01
1.031571984291076660e+00,1.000000000000000000e+00,-4.383450698852539062e+01,3.085804748535156250e+01,3.478856277465820312e+01,9.292352294921875000e+01,9.942333984375000000e+01,-8.049926757812500000e+00,4.031498432159423828e-01,-6.667353820800781250e+01,-1.826884307861328125e+02,-2.342747688293457031e+00,7.562291717529296875e+01,3.135653114318847656e+01
1.035493016242980957e+00,1.000000000000000000e+00,-4.387854003906250000e+01,3.077184677124023438e+01,3.481216812133789062e+01,9.284624481201171875e+01,9.944445800781250000e+01,-8.073459625244140625e+00,4.031498432159423828e-01,-6.667343902587890625e+01,-1.826883239746093750e+02,-2.342603921890258789e+00,7.562291717529296875e+01,3.135642242431640625e+01
1.039471030235290527e+00,1.000000000000000000e+00,-4.392254638671875000e+01,3.068537902832031250e+01,3.483569335937500000e+01,9.276829528808593750e+01,9.946503448486328125e+01,-8.097737312316894531e+00,4.031498432159423828e-01,-6.667353820800781250e+01,-1.826883239746093750e+02,-2.342747688293457031e+00,7.562291717529296875e+01,3.135642242431640625e+01
1.043545007705688477e+00,1.000000000000000000e+00,-4.396652603149414062e+01,3.059859275817871094e+01,3.485915374755859375e+01,9.269027709960937500e+01,9.948635864257812500e+01,-8.121812820434570312e+00,4.031498432159423828e-01,-6.667353820800781250e+01,-1.826881713867187500e+02,-2.342747688293457031e+00,7.562291717529296875e+01,3.135653114318847656e+01
1.047476053237915039e+00,1.000000000000000000e+00,-4.401053237915039062e+01,3.051144599914550781e+01,3.488249588012695312e+01,9.261237335205078125e+01,9.950837707519531250e+01,-8.146226882934570312e+00,4.031498432159423828e-01,-6.667353820800781250e+01,-1.826883239746093750e+02,-2.342747688293457031e+00,7.562291717529296875e+01,3.135653114318847656e+01
1.053851008415222168e+00,1.000000000000000000e+00,-4.405442810058593750e+01,3.042436790466308594e+01,3.490620040893554688e+01,9.253473663330078125e+01,9.953087615966796875e+01,-8.170640945434570312e+00,4.031498432159423828e-01,-6.667353820800781250e+01,-1.826884307861328125e+02,-2.342747688293457031e+00,7.562291717529296875e+01,3.135653114318847656e+01
1.056161999702453613e+00,1.000000000000000000e+00,-4.409823226928710938e+01,3.033753585815429688e+01,3.492996978759765625e+01,9.245683288574218750e+01,9.955337524414062500e+01,-8.194308280944824219e+00,4.031498432159423828e-01,-6.667353820800781250e+01,-1.826883239746093750e+02,-2.342747688293457031e+00,7.562291717529296875e+01,3.135675048828125000e+01
1.059525012969970703e+00,1.000000000000000000e+00,-4.414209747314453125e+01,3.025120162963867188e+01,3.495361709594726562e+01,9.237865447998046875e+01,9.957476043701171875e+01,-8.217299461364746094e+00,4.031498432159423828e-01,-6.667353820800781250e+01,-1.826883239746093750e+02,-2.342747688293457031e+00,7.562299346923828125e+01,3.135642242431640625e+01
1.064548969268798828e+00,1.000000000000000000e+00,-4.414209747314453125e+01,3.025120162963867188e+01,3.495361709594726562e+01,9.237865447998046875e+01,9.957476043701171875e+01,-8.217299461364746094e+00,4.031498432159423828e-01,-6.667353820800781250e+01,-1.826883239746093750e+02,-2.342747688293457031e+00,7.562291717529296875e+01,3.135653114318847656e+01
1.067546010017395020e+00,1.000000000000000000e+00,-4.423008346557617188e+01,3.007858276367187500e+01,3.500062179565429688e+01,9.222301483154296875e+01,9.961624145507812500e+01,-8.264973640441894531e+00,4.031498432159423828e-01,-6.667362213134765625e+01,-1.826883239746093750e+02,-2.342747688293457031e+00,7.562277984619140625e+01,3.135653114318847656e+01
1.072528004646301270e+00,1.000000000000000000e+00,-4.423008346557617188e+01,3.007858276367187500e+01,3.500062179565429688e+01,9.222301483154296875e+01,9.961624145507812500e+01,-8.264973640441894531e+00,4.031498432159423828e-01,-6.667353820800781250e+01,-1.826883239746093750e+02,-2.342819452285766602e+00,7.562291717529296875e+01,3.135653114318847656e+01
1.075482964515686035e+00,1.000000000000000000e+00,-4.431758117675781250e+01,2.990471649169921875e+01,3.504789352416992188e+01,9.206625366210937500e+01,9.965990447998046875e+01,-8.313463211059570312e+00,4.031498432159423828e-01,-6.667362213134765625e+01,-1.826883239746093750e+02,-2.342747688293457031e+00,7.562291717529296875e+01,3.135675048828125000e+01
1.080577015876770020e+00,1.000000000000000000e+00,-4.431758117675781250e+01,2.990471649169921875e+01,3.504789352416992188e+01,9.206625366210937500e+01,9.965990447998046875e+01,-8.313463211059570312e+00,4.031498432159423828e-01,-6.667353820800781250e+01,-1.826883239746093750e+02,-2.342819452285766602e+00,7.562291717529296875e+01,3.135675048828125000e+01
1.083961963653564453e+00,1.000000000000000000e+00,-4.440525436401367188e+01,2.972967338562011719e+01,3.509518432617187500e+01,9.191028594970703125e+01,9.970442199707031250e+01,-8.362223625183105469e+00,4.031498432159423828e-01,-6.667353820800781250e+01,-1.826883239746093750e+02,-2.342747688293457031e+00,7.562291717529296875e+01,3.135653114318847656e+01
1.087548971176147461e+00,1.000000000000000000e+00,-4.444914627075195312e+01,2.964227676391601562e+01,3.511893463134765625e+01,9.183195495605468750e+01,9.972586059570312500e+01,-8.385824203491210938e+00,4.031498432159423828e-01,-6.667362213134765625e+01,-1.826883239746093750e+02,-2.342819452285766602e+00,7.562299346923828125e+01,3.135653114318847656e+01
1.091580033302307129e+00,1.000000000000000000e+00,-4.449289321899414062e+01,2.955540084838867188e+01,3.514272308349609375e+01,9.175362396240234375e+01,9.974659729003906250e+01,-8.409356117248535156e+00,4.031498432159423828e-01,-6.667353820800781250e+01,-1.826883239746093750e+02,-2.342819452285766602e+00,7.562277984619140625e+01,3.135653114318847656e+01
1.096503019332885742e+00,1.000000000000000000e+00,-4.449289321899414062e+01,2.955540084838867188e+01,3.514272308349609375e+01,9.175362396240234375e+01,9.974659729003906250e+01,-8.409356117248535156e+00,4.031498432159423828e-01,-6.667353820800781250e+01,-1.826883239746093750e+02,-2.342819452285766602e+00,7.562277984619140625e+01,3.135653114318847656e+01
1.099475026130676270e+00,1.000000000000000000e+00,-4.458047866821289062e+01,2.938234710693359375e+01,3.518997192382812500e+01,9.159687805175781250e+01,9.978967285156250000e+01,-8.456488609313964844e+00,4.031498432159423828e-01,-6.667353820800781250e+01,-1.826883239746093750e+02,-2.342747688293457031e+00,7.562277984619140625e+01,3.135675048828125000e+01
1.103952050209045410e+00,1.000000000000000000e+00,-4.458047866821289062e+01,2.938234710693359375e+01,3.518997192382812500e+01,9.159687805175781250e+01,9.978967285156250000e+01,-8.456488609313964844e+00,4.031498432159423828e-01,-6.667353820800781250e+01,-1.826883239746093750e+02,-2.342747688293457031e+00,7.562277984619140625e+01,3.135675048828125000e+01
1.107493996620178223e+00,1.000000000000000000e+00,-4.466835021972656250e+01,2.920828056335449219e+01,3.523740768432617188e+01,9.144017028808593750e+01,9.983456420898437500e+01,-8.505384445190429688e+00,4.031498432159423828e-01,-6.667353820800781250e+01,-1.826883239746093750e+02,-2.342603921890258789e+00,7.562291717529296875e+01,3.135675048828125000e+01
1.111521959304809570e+00,1.000000000000000000e+00,-4.466835021972656250e+01,2.920828056335449219e+01,3.523740768432617188e+01,9.144017028808593750e+01,9.983456420898437500e+01,-8.505384445190429688e+00,4.031498432159423828e-01,-6.667353820800781250e+01,-1.826883239746093750e+02,-2.342603921890258789e+00,7.562291717529296875e+01,3.135675048828125000e+01
1.115589022636413574e+00,1.000000000000000000e+00,-4.471232604980468750e+01,2.912086105346679688e+01,3.526119613647460938e+01,9.136121368408203125e+01,9.985685729980468750e+01,-8.530341148376464844e+00,4.031498432159423828e-01,-6.667343902587890625e+01,-1.826883239746093750e+02,-2.342819452285766602e+00,7.562291717529296875e+01,3.135653114318847656e+01
