rpiRobotics/ARM-21-02-F-19-Robot-Motion-Program/data_performance_abb/curve_1/curve_pose_opt1/greedy0.02/grad_result/real/run_1.csv
timestamp,cmd_num,J1,J2,J3,J4,J5,J6
1.579999952809885144e-04,-1.000000000000000000e+00,-3.467605590820312500e+01,4.892507171630859375e+01,2.986680221557617188e+01,1.091832580566406250e+02,9.491092681884765625e+01,-3.052842855453491211e+00,4.031498432159423828e-01,-6.667353820800781250e+01,-1.826883239746093750e+02,-2.342819452285766602e+00,7.562277984619140625e+01,3.135653114318847656e+01
5.305999889969825745e-03,1.000000000000000000e+00,-3.467605590820312500e+01,4.892507171630859375e+01,2.986680221557617188e+01,1.091832580566406250e+02,9.491092681884765625e+01,-3.052842855453491211e+00,4.031498432159423828e-01,-6.667353820800781250e+01,-1.826883239746093750e+02,-2.342819452285766602e+00,7.562277984619140625e+01,3.135642242431640625e+01
9.031999856233596802e-03,1.000000000000000000e+00,-3.467608261108398438e+01,4.892507171630859375e+01,2.986680221557617188e+01,1.091832580566406250e+02,9.491098022460937500e+01,-3.052842855453491211e+00,4.031498432159423828e-01,-6.667353820800781250e+01,-1.826883239746093750e+02,-2.342891216278076172e+00,7.562270355224609375e+01,3.135653114318847656e+01
1.406900025904178619e-02,1.000000000000000000e+00,-3.467608261108398438e+01,4.892507171630859375e+01,2.986686325073242188e+01,1.091834182739257812e+02,9.491092681884765625e+01,-3.052978754043579102e+00,4.031498432159423828e-01,-6.667353820800781250e+01,-1.826883239746093750e+02,-2.342819452285766602e+00,7.562277984619140625e+01,3.135653114318847656e+01
3.821200132369995117e-02,1.000000000000000000e+00,-3.467608261108398438e+01,4.892507171630859375e+01,2.986686325073242188e+01,1.091834182739257812e+02,9.491098022460937500e+01,-3.052978754043579102e+00,4.031498432159423828e-01,-6.667343902587890625e+01,-1.826883239746093750e+02,-2.342819452285766602e+00,7.562277984619140625e+01,3.135653114318847656e+01
4.066000133752822876e-02,1.000000000000000000e+00,-3.467608261108398438e+01,4.892507171630859375e+01,2.986686325073242188e+01,1.091832580566406250e+02,9.491092681884765625e+01,-3.052842855453491211e+00,4.031498432159423828e-01,-6.667353820800781250e+01,-1.826883239746093750e+02,-2.342747688293457031e+00,7.562270355224609375e+01,3.135653114318847656e+01
4.446399956941604614e-02,1.000000000000000000e+00,-3.467608261108398438e+01,4.892507171630859375e+01,2.986686325073242188e+01,1.091832580566406250e+02,9.491092681884765625e+01,-3.052842855453491211e+00,4.031498432159423828e-01,-6.667353820800781250e+01,-1.826883239746093750e+02,-2.342747688293457031e+00,7.562270355224609375e+01,3.135653114318847656e+01
4.970199987292289734e-02,1.000000000000000000e+00,-3.467605590820312500e+01,4.892507171630859375e+01,2.986686325073242188e+01,1.091832580566406250e+02,9.491098022460937500e+01,-3.052842855453491211e+00,4.031498432159423828e-01,-6.667343902587890625e+01,-1.826883239746093750e+02,-2.342891216278076172e+00,7.562277984619140625e+01,3.135653114318847656e+01
5.102900043129920959e-02,1.000000000000000000e+00,-3.467605590820312500e+01,4.892507171630859375e+01,2.986686325073242188e+01,1.091832580566406250e+02,9.491098022460937500e+01,-3.052842855453491211e+00,4.031498432159423828e-01,-6.667343902587890625e+01,-1.826883239746093750e+02,-2.342891216278076172e+00,7.562277984619140625e+01,3.135653114318847656e+01
5.414399877190589905e-02,1.000000000000000000e+00,-3.467613983154296875e+01,4.892498016357421875e+01,2.986680221557617188e+01,1.091832580566406250e+02,9.491103363037109375e+01,-3.052842855453491211e+00,4.033146500587463379e-01,-6.667353820800781250e+01,-1.826883239746093750e+02,-2.342891216278076172e+00,7.562277984619140625e+01,3.135653114318847656e+01
5.677799880504608154e-02,1.000000000000000000e+00,-3.467613983154296875e+01,4.892498016357421875e+01,2.986680221557617188e+01,1.091832580566406250e+02,9.491103363037109375e+01,-3.052842855453491211e+00,4.031498432159423828e-01,-6.667353820800781250e+01,-1.826883239746093750e+02,-2.342819452285766602e+00,7.562291717529296875e+01,3.135653114318847656e+01
6.045399978756904602e-02,1.000000000000000000e+00,-3.467642593383789062e+01,4.892486572265625000e+01,2.986680221557617188e+01,1.091832580566406250e+02,9.491098022460937500e+01,-3.052842855453491211e+00,4.031498432159423828e-01,-6.667353820800781250e+01,-1.826883239746093750e+02,-2.342819452285766602e+00,7.562291717529296875e+01,3.135653114318847656e+01
6.261699646711349487e-02,1.000000000000000000e+00,-3.467711639404296875e+01,4.892450714111328125e+01,2.986680221557617188e+01,1.091832580566406250e+02,9.491092681884765625e+01,-3.052978754043579102e+00,4.031498432159423828e-01,-6.667353820800781250e+01,-1.826883239746093750e+02,-2.342819452285766602e+00,7.562270355224609375e+01,3.135653114318847656e+01
6.506100296974182129e-02,1.000000000000000000e+00,-3.467834854125976562e+01,4.892358016967773438e+01,2.986680221557617188e+01,1.091832580566406250e+02,9.491103363037109375e+01,-3.052978754043579102e+00,4.031498432159423828e-01,-6.667353820800781250e+01,-1.826883239746093750e+02,-2.342819452285766602e+00,7.562277984619140625e+01,3.135653114318847656e+01
6.643000245094299316e-02,1.000000000000000000e+00,-3.467834854125976562e+01,4.892358016967773438e+01,2.986680221557617188e+01,1.091832580566406250e+02,9.491103363037109375e+01,-3.052978754043579102e+00,4.031498432159423828e-01,-6.667353820800781250e+01,-1.826883239746093750e+02,-2.342819452285766602e+00,7.562277984619140625e+01,3.135653114318847656e+01
6.930699944496154785e-02,1.000000000000000000e+00,-3.468030166625976562e+01,4.892183685302734375e+01,2.986680221557617188e+01,1.091832580566406250e+02,9.491098022460937500e+01,-3.052978754043579102e+00,4.031498432159423828e-01,-6.667353820800781250e+01,-1.826883239746093750e+02,-2.342747688293457031e+00,7.562277984619140625e+01,3.135653114318847656e+01
7.060000300407409668e-02,1.000000000000000000e+00,-3.468030166625976562e+01,4.892183685302734375e+01,2.986680221557617188e+01,1.091832580566406250e+02,9.491098022460937500e+01,-3.052978754043579102e+00,4.031498432159423828e-01,-6.667353820800781250e+01,-1.826883239746093750e+02,-2.342747688293457031e+00,7.562277984619140625e+01,3.135653114318847656e+01
7.383599877357482910e-02,1.000000000000000000e+00,-3.468282699584960938e+01,4.891867065429687500e+01,2.986686325073242188e+01,1.091831512451171875e+02,9.491098022460937500e+01,-3.052842855453491211e+00,4.031498432159423828e-01,-6.667353820800781250e+01,-1.826883239746093750e+02,-2.342819452285766602e+00,7.562277984619140625e+01,3.135653114318847656e+01
7.513099908828735352e-02,1.000000000000000000e+00,-3.468282699584960938e+01,4.891867065429687500e+01,2.986686325073242188e+01,1.091831512451171875e+02,9.491098022460937500e+01,-3.052842855453491211e+00,4.031498432159423828e-01,-6.667353820800781250e+01,-1.826883239746093750e+02,-2.342819452285766602e+00,7.562277984619140625e+01,3.135653114318847656e+01
8.095999807119369507e-02,1.000000000000000000e+00,-3.468951797485351562e+01,4.890730667114257812e+01,2.986700630187988281e+01,1.091818313598632812e+02,9.491119384765625000e+01,-3.052978754043579102e+00,4.031498432159423828e-01,-6.667353820800781250e+01,-1.826883239746093750e+02,-2.342819452285766602e+00,7.562277984619140625e+01,3.135653114318847656e+01
8.231200277805328369e-02,1.000000000000000000e+00,-3.468951797485351562e+01,4.890730667114257812e+01,2.986700630187988281e+01,1.091818313598632812e+02,9.491119384765625000e+01,-3.052978754043579102e+00,4.031498432159423828e-01,-6.667353820800781250e+01,-1.826883239746093750e+02,-2.342819452285766602e+00,7.562277984619140625e+01,3.135653114318847656e+01
8.490300178527832031e-02,1.000000000000000000e+00,-3.468951797485351562e+01,4.890730667114257812e+01,2.986700630187988281e+01,1.091818313598632812e+02,9.491119384765625000e+01,-3.052978754043579102e+00,4.031498432159423828e-01,-6.667362213134765625e+01,-1.826883239746093750e+02,-2.342747688293457031e+00,7.562277984619140625e+01,3.135653114318847656e+01
8.855299651622772217e-02,1.000000000000000000e+00,-3.469385147094726562e+01,4.889875411987304688e+01,2.986743354797363281e+01,1.091790924072265625e+02,9.491140747070312500e+01,-3.053114175796508789e+00,4.031498432159423828e-01,-6.667362213134765625e+01,-1.826883239746093750e+02,-2.342747688293457031e+00,7.562277984619140625e+01,3.135653114318847656e+01
9.137099981307983398e-02,1.000000000000000000e+00,-3.469896316528320312e+01,4.888843536376953125e+01,2.986814498901367188e+01,1.091748809814453125e+02,9.491188812255859375e+01,-3.053724765777587891e+00,4.031498432159423828e-01,-6.667353820800781250e+01,-1.826883239746093750e+02,-2.342819452285766602e+00,7.562277984619140625e+01,3.135653114318847656e+01
9.394600242376327515e-02,1.000000000000000000e+00,-3.470501708984375000e+01,4.887619400024414062e+01,2.986924362182617188e+01,1.091694564819335938e+02,9.491289520263671875e+01,-3.055148839950561523e+00,4.031498432159423828e-01,-6.667343902587890625e+01,-1.826883239746093750e+02,-2.342819452285766602e+00,7.562291717529296875e+01,3.135642242431640625e+01
9.550300240516662598e-02,1.000000000000000000e+00,-3.470501708984375000e+01,4.887619400024414062e+01,2.986924362182617188e+01,1.091694564819335938e+02,9.491289520263671875e+01,-3.055148839950561523e+00,4.031498432159423828e-01,-6.667343902587890625e+01,-1.826883239746093750e+02,-2.342819452285766602e+00,7.562291717529296875e+01,3.135642242431640625e+01
9.949299693107604980e-02,1.000000000000000000e+00,-3.471222305297851562e+01,4.886132431030273438e+01,2.987105369567871094e+01,1.091619186401367188e+02,9.491450500488281250e+01,-3.057183265686035156e+00,4.031498432159423828e-01,-6.667353820800781250e+01,-1.826883239746093750e+02,-2.342819452285766602e+00,7.562277984619140625e+01,3.135675048828125000e+01
1.035849973559379578e-01,1.000000000000000000e+00,-3.472072219848632812e+01,4.884405517578125000e+01,2.987336921691894531e+01,1.091521301269531250e+02,9.491690063476562500e+01,-3.060506105422973633e+00,4.031498432159423828e-01,-6.667353820800781250e+01,-1.826883239746093750e+02,-2.342819452285766602e+00,7.562277984619140625e+01,3.135653114318847656e+01
1.075059995055198669e-01,1.000000000000000000e+00,-3.473048019409179688e+01,4.882434844970703125e+01,2.987652206420898438e+01,1.091393280029296875e+02,9.492020416259765625e+01,-3.064032793045043945e+00,4.031498432159423828e-01,-6.667362213134765625e+01,-1.826883239746093750e+02,-2.342819452285766602e+00,7.562277984619140625e+01,3.135653114318847656e+01
1.115679964423179626e-01,1.000000000000000000e+00,-3.474161911010742188e+01,4.880205917358398438e+01,2.988052749633789062e+01,1.091238403320312500e+02,9.492430877685546875e+01,-3.068576574325561523e+00,4.031498432159423828e-01,-6.667353820800781250e+01,-1.826883239746093750e+02,-2.342819452285766602e+00,7.562277984619140625e+01,3.135653114318847656e+01
1.156039983034133911e-01,1.000000000000000000e+00,-3.475410842895507812e+01,4.877686691284179688e+01,2.988595771789550781e+01,1.091051940917968750e+02,9.492932128906250000e+01,-3.073933839797973633e+00,4.031498432159423828e-01,-6.667353820800781250e+01,-1.826883239746093750e+02,-2.342819452285766602e+00,7.562277984619140625e+01,3.135653114318847656e+01
1.195719987154006958e-01,1.000000000000000000e+00,-3.476843261718750000e+01,4.874880981445312500e+01,2.989250373840332031e+01,1.090840148925781250e+02,9.493534851074218750e+01,-3.081054925918579102e+00,4.031498432159423828e-01,-6.667353820800781250e+01,-1.826883239746093750e+02,-2.342819452285766602e+00,7.562291717529296875e+01,3.135653114318847656e+01
1.235779970884323120e-01,1.000000000000000000e+00,-3.478424835205078125e+01,4.871730804443359375e+01,2.989994621276855469e+01,1.090583114624023438e+02,9.494248962402343750e+01,-3.089260578155517578e+00,4.031498432159423828e-01,-6.667353820800781250e+01,-1.826883239746093750e+02,-2.342819452285766602e+00,7.562291717529296875e+01,3.135653114318847656e+01
1.275710016489028931e-01,1.000000000000000000e+00,-3.480155944824218750e+01,4.868264007568359375e+01,2.990891075134277344e+01,1.090281906127929688e+02,9.495059204101562500e+01,-3.098415851593017578e+00,4.031498432159423828e-01,-6.667353820800781250e+01,-1.826883239746093750e+02,-2.342819452285766602e+00,7.562270355224609375e+01,3.135653114318847656e+01
1.342490017414093018e-01,1.000000000000000000e+00,-3.484045791625976562e+01,4.860277557373046875e+01,2.993115234375000000e+01,1.089525451660156250e+02,9.497032165527343750e+01,-3.121541500091552734e+00,4.031498432159423828e-01,-6.667353820800781250e+01,-1.826883239746093750e+02,-2.342819452285766602e+00,7.562277984619140625e+01,3.135653114318847656e+01
1.375429928302764893e-01,1.000000000000000000e+00,-3.486287689208984375e+01,4.855772018432617188e+01,2.994410705566406250e+01,1.089104080200195312e+02,9.498194122314453125e+01,-3.135308265686035156e+00,4.031498432159423828e-01,-6.667353820800781250e+01,-1.826883239746093750e+02,-2.342819452285766602e+00,7.562277984619140625e+01,3.135653114318847656e+01
1.395400017499923706e-01,1.000000000000000000e+00,-3.486287689208984375e+01,4.855772018432617188e+01,2.994410705566406250e+01,1.089104080200195312e+02,9.498194122314453125e+01,-3.135308265686035156e+00,4.031498432159423828e-01,-6.667353820800781250e+01,-1.826883239746093750e+02,-2.342819452285766602e+00,7.562277984619140625e+01,3.135653114318847656e+01
1.435559988021850586e-01,1.000000000000000000e+00,-3.488693237304687500e+01,4.850972366333007812e+01,2.995831680297851562e+01,1.088649444580078125e+02,9.499484252929687500e+01,-3.150160074234008789e+00,4.031498432159423828e-01,-6.667353820800781250e+01,-1.826883239746093750e+02,-2.342819452285766602e+00,7.562277984619140625e+01,3.135653114318847656e+01
1.475400030612945557e-01,1.000000000000000000e+00,-3.491188049316406250e+01,4.845885086059570312e+01,2.997377014160156250e+01,1.088134307861328125e+02,9.500918579101562500e+01,-3.165622472763061523e+00,4.031498432159423828e-01,-6.667353820800781250e+01,-1.826883239746093750e+02,-2.342891216278076172e+00,7.562277984619140625e+01,3.135653114318847656e+01
1.515280008316040039e-01,1.000000000000000000e+00,-3.493849182128906250e+01,4.840494537353515625e+01,2.999062347412109375e+01,1.087589111328125000e+02,9.502449035644531250e+01,-3.182101964950561523e+00,4.031498432159423828e-01,-6.667353820800781250e+01,-1.826883239746093750e+02,-2.342891216278076172e+00,7.562277984619140625e+01,3.135653114318847656e+01
1.556189954280853271e-01,1.000000000000000000e+00,-3.496633911132812500e+01,4.834823608398437500e+01,3.000833320617675781e+01,1.087027130126953125e+02,9.504010772705078125e+01,-3.199395179748535156e+00,4.031498432159423828e-01,-6.667353820800781250e+01,-1.826883239746093750e+02,-2.342819452285766602e+00,7.562277984619140625e+01,3.135653114318847656e+01
1.595270037651062012e-01,1.000000000000000000e+00,-3.499561691284179688e+01,4.828876495361328125e+01,3.002655029296875000e+01,1.086432418823242188e+02,9.505594635009765625e+01,-3.217841386795043945e+00,4.031498432159423828e-01,-6.667353820800781250e+01,-1.826883239746093750e+02,-2.342819452285766602e+00,7.562299346923828125e+01,3.135653114318847656e+01
1.635850071907043457e-01,1.000000000000000000e+00,-3.502645111083984375e+01,4.822711944580078125e+01,3.004515266418457031e+01,1.085818252563476562e+02,9.507257843017578125e+01,-3.237101316452026367e+00,4.031498432159423828e-01,-6.667353820800781250e+01,-1.826883239746093750e+02,-2.342819452285766602e+00,7.562277984619140625e+01,3.135653114318847656e+01
1.675329953432083130e-01,1.000000000000000000e+00,-3.505897140502929688e+01,4.816334915161132812e+01,3.006436920166015625e+01,1.085175628662109375e+02,9.508985137939453125e+01,-3.256564855575561523e+00,4.031498432159423828e-01,-6.667353820800781250e+01,-1.826883239746093750e+02,-2.342747688293457031e+00,7.562270355224609375e+01,3.135653114318847656e+01
1.715469956398010254e-01,1.000000000000000000e+00,-3.509227371215820312e+01,4.809763336181640625e+01,3.008408737182617188e+01,1.084521408081054688e+02,9.510750579833984375e+01,-3.276367187500000000e+00,4.031498432159423828e-01,-6.667353820800781250e+01,-1.826883239746093750e+02,-2.342747688293457031e+00,7.562277984619140625e+01,3.135653114318847656e+01
1.755470037460327148e-01,1.000000000000000000e+00,-3.512663650512695312e+01,4.802976608276367188e+01,3.010444068908691406e+01,1.083862991333007812e+02,9.512568664550781250e+01,-3.297322750091552734e+00,4.031498432159423828e-01,-6.667353820800781250e+01,-1.826883239746093750e+02,-2.342747688293457031e+00,7.562291717529296875e+01,3.135653114318847656e+01
1.795540004968643188e-01,1.000000000000000000e+00,-3.516145706176757812e+01,4.796026611328125000e+01,3.012507820129394531e+01,1.083190841674804688e+02,9.514445495605468750e+01,-3.318888425827026367e+00,4.031498432159423828e-01,-6.667353820800781250e+01,-1.826883239746093750e+02,-2.342891216278076172e+00,7.562277984619140625e+01,3.135653114318847656e+01
1.835850030183792114e-01,1.000000000000000000e+00,-3.519713973999023438e+01,4.788907623291015625e+01,3.014565467834472656e+01,1.082512969970703125e+02,9.516417694091796875e+01,-3.340522050857543945e+00,4.031498432159423828e-01,-6.667353820800781250e+01,-1.826883239746093750e+02,-2.342819452285766602e+00,7.562277984619140625e+01,3.135653114318847656e+01
1.874810010194778442e-01,1.000000000000000000e+00,-3.523388290405273438e+01,4.781627273559570312e+01,3.016633033752441406e+01,1.081826629638671875e+02,9.518385314941406250e+01,-3.361409664154052734e+00,4.031498432159423828e-01,-6.667353820800781250e+01,-1.826883239746093750e+02,-2.342819452285766602e+00,7.562291717529296875e+01,3.135653114318847656e+01
1.915609985589981079e-01,1.000000000000000000e+00,-3.527160644531250000e+01,4.774166488647460938e+01,3.018696784973144531e+01,1.081142883300781250e+02,9.520299530029296875e+01,-3.382432937622070312e+00,4.031498432159423828e-01,-6.667353820800781250e+01,-1.826883239746093750e+02,-2.342819452285766602e+00,7.562291717529296875e+01,3.135642242431640625e+01
1.955399960279464722e-01,1.000000000000000000e+00,-3.530973052978515625e+01,4.766605758666992188e+01,3.020772743225097656e+01,1.080456008911132812e+02,9.522122192382812500e+01,-3.403455972671508789e+00,4.031498432159423828e-01,-6.667362213134765625e+01,-1.826883239746093750e+02,-2.342819452285766602e+00,7.562277984619140625e+01,3.135653114318847656e+01
1.995549947023391724e-01,1.000000000000000000e+00,-3.534822463989257812e+01,4.758974838256835938e+01,3.022864913940429688e+01,1.079770202636718750e+02,9.523988342285156250e+01,-3.424411535263061523e+00,4.031498432159423828e-01,-6.667353820800781250e+01,-1.826883239746093750e+02,-2.342819452285766602e+00,7.562277984619140625e+01,3.135653114318847656e+01
2.036080062389373779e-01,1.000000000000000000e+00,-3.538709259033203125e+01,4.751319122314453125e+01,3.024952888488769531e+01,1.079080734252929688e+02,9.525881195068359375e+01,-3.445638179779052734e+00,4.031498432159423828e-01,-6.667353820800781250e+01,-1.826883239746093750e+02,-2.342819452285766602e+00,7.562291717529296875e+01,3.135653114318847656e+01
2.075249999761581421e-01,1.000000000000000000e+00,-3.542641830444335938e+01,4.743658828735351562e+01,3.027018547058105469e+01,1.078391723632812500e+02,9.527822113037109375e+01,-3.467000484466552734e+00,4.031498432159423828e-01,-6.667343902587890625e+01,-1.826883239746093750e+02,-2.342819452285766602e+00,7.562270355224609375e+01,3.135653114318847656e+01
2.114869952201843262e-01,1.000000000000000000e+00,-3.546586227416992188e+01,4.735993957519531250e+01,3.029088592529296875e+01,1.077700653076171875e+02,9.529789733886718750e+01,-3.488634109497070312e+00,4.031498432159423828e-01,-6.667353820800781250e+01,-1.826883239746093750e+02,-2.342819452285766602e+00,7.562277984619140625e+01,3.135642242431640625e+01
2.155690044164657593e-01,1.000000000000000000e+00,-3.550516510009765625e+01,4.728365325927734375e+01,3.031162261962890625e+01,1.077013778686523438e+02,9.531820678710937500e+01,-3.510878086090087891e+00,4.031498432159423828e-01,-6.667353820800781250e+01,-1.826883239746093750e+02,-2.342819452285766602e+00,7.562277984619140625e+01,3.135642242431640625e+01
2.195429950952529907e-01,1.000000000000000000e+00,-3.554504013061523438e+01,4.720716857910156250e+01,3.033258438110351562e+01,1.076318511962890625e+02,9.533782958984375000e+01,-3.532511472702026367e+00,4.031498432159423828e-01,-6.667353820800781250e+01,-1.826883239746093750e+02,-2.342819452285766602e+00,7.562277984619140625e+01,3.135642242431640625e+01
2.235430032014846802e-01,1.000000000000000000e+00,-3.558468246459960938e+01,4.713076782226562500e+01,3.035360717773437500e+01,1.075629577636718750e+02,9.535654449462890625e+01,-3.553263425827026367e+00,4.031498432159423828e-01,-6.667353820800781250e+01,-1.826881713867187500e+02,-2.342819452285766602e+00,7.562277984619140625e+01,3.135653114318847656e+01
2.275560051202774048e-01,1.000000000000000000e+00,-3.562403869628906250e+01,4.705410003662109375e+01,3.037436676025390625e+01,1.074931564331054688e+02,9.537488555908203125e+01,-3.573879718780517578e+00,4.031498432159423828e-01,-6.667353820800781250e+01,-1.826883239746093750e+02,-2.342819452285766602e+00,7.562270355224609375e+01,3.135653114318847656e+01
2.325229942798614502e-01,1.000000000000000000e+00,-3.562403869628906250e+01,4.705410003662109375e+01,3.037436676025390625e+01,1.074931564331054688e+02,9.537488555908203125e+01,-3.573879718780517578e+00,4.031498432159423828e-01,-6.667353820800781250e+01,-1.826883239746093750e+02,-2.342819452285766602e+00,7.562291717529296875e+01,3.135653114318847656e+01
2.354899942874908447e-01,1.000000000000000000e+00,-3.570266723632812500e+01,4.690103149414062500e+01,3.041612625122070312e+01,1.073548889160156250e+02,9.541326904296875000e+01,-3.616265535354614258e+00,4.031498432159423828e-01,-6.667343902587890625e+01,-1.826883239746093750e+02,-2.342819452285766602e+00,7.562291717529296875e+01,3.135653114318847656e+01
2.404969930648803711e-01,1.000000000000000000e+00,-3.570266723632812500e+01,4.690103149414062500e+01,3.041612625122070312e+01,1.073548889160156250e+02,9.541326904296875000e+01,-3.616265535354614258e+00,4.031498432159423828e-01,-6.667343902587890625e+01,-1.826883239746093750e+02,-2.342819452285766602e+00,7.562291717529296875e+01,3.135653114318847656e+01
2.438949942588806152e-01,1.000000000000000000e+00,-3.578140640258789062e+01,4.674780273437500000e+01,3.045866203308105469e+01,1.072162017822265625e+02,9.545299530029296875e+01,-3.658650636672973633e+00,4.031498432159423828e-01,-6.667362213134765625e+01,-1.826883239746093750e+02,-2.342819452285766602e+00,7.562277984619140625e+01,3.135653114318847656e+01
2.464739978313446045e-01,1.000000000000000000e+00,-3.582082366943359375e+01,4.667129135131835938e+01,3.047976684570312500e+01,1.071469802856445312e+02,9.547314453125000000e+01,-3.680488109588623047e+00,4.031498432159423828e-01,-6.667353820800781250e+01,-1.826883239746093750e+02,-2.342891216278076172e+00,7.562277984619140625e+01,3.135653114318847656e+01
2.517330050468444824e-01,1.000000000000000000e+00,-3.582082366943359375e+01,4.667129135131835938e+01,3.047976684570312500e+01,1.071469802856445312e+02,9.547314453125000000e+01,-3.680488109588623047e+00,4.031498432159423828e-01,-6.667353820800781250e+01,-1.826883239746093750e+02,-2.342891216278076172e+00,7.562277984619140625e+01,3.135653114318847656e+01
2.565180063247680664e-01,1.000000000000000000e+00,-3.589905166625976562e+01,4.651817703247070312e+01,3.052140808105468750e+01,1.070087127685546875e+02,9.551104736328125000e+01,-3.724161863327026367e+00,4.031498432159423828e-01,-6.667353820800781250e+01,-1.826883239746093750e+02,-2.342747688293457031e+00,7.562277984619140625e+01,3.135653114318847656e+01
2.595210075378417969e-01,1.000000000000000000e+00,-3.593823623657226562e+01,4.644179916381835938e+01,3.054240608215332031e+01,1.069388656616210938e+02,9.552987670898437500e+01,-3.745252847671508789e+00,4.031498432159423828e-01,-6.667353820800781250e+01,-1.826883239746093750e+02,-2.342819452285766602e+00,7.562277984619140625e+01,3.135653114318847656e+01
2.645039856433868408e-01,1.000000000000000000e+00,-3.593823623657226562e+01,4.644179916381835938e+01,3.054240608215332031e+01,1.069388656616210938e+02,9.552987670898437500e+01,-3.745252847671508789e+00,4.031498432159423828e-01,-6.667353820800781250e+01,-1.826883239746093750e+02,-2.342819452285766602e+00,7.562277984619140625e+01,3.135653114318847656e+01
2.678529918193817139e-01,1.000000000000000000e+00,-3.601594161987304688e+01,4.628825759887695312e+01,3.058488082885742188e+01,1.067992324829101562e+02,9.556809997558593750e+01,-3.786756753921508789e+00,4.031498432159423828e-01,-6.667353820800781250e+01,-1.826883239746093750e+02,-2.342819452285766602e+00,7.562277984619140625e+01,3.135653114318847656e+01
2.741740047931671143e-01,1.000000000000000000e+00,-3.601594161987304688e+01,4.628825759887695312e+01,3.058488082885742188e+01,1.067992324829101562e+02,9.556809997558593750e+01,-3.786756753921508789e+00,4.031498432159423828e-01,-6.667353820800781250e+01,-1.826883239746093750e+02,-2.342819452285766602e+00,7.562277984619140625e+01,3.135653114318847656e+01
2.758620083332061768e-01,1.000000000000000000e+00,-3.609325027465820312e+01,4.613380813598632812e+01,3.062702941894531250e+01,1.066606445312500000e+02,9.560820007324218750e+01,-3.829210281372070312e+00,4.031498432159423828e-01,-6.667353820800781250e+01,-1.826883239746093750e+02,-2.342819452285766602e+00,7.562277984619140625e+01,3.135642242431640625e+01
2.805170118808746338e-01,1.000000000000000000e+00,-3.609325027465820312e+01,4.613380813598632812e+01,3.062702941894531250e+01,1.066606445312500000e+02,9.560820007324218750e+01,-3.829210281372070312e+00,4.031498432159423828e-01,-6.667353820800781250e+01,-1.826883239746093750e+02,-2.342819452285766602e+00,7.562277984619140625e+01,3.135642242431640625e+01
2.835299968719482422e-01,1.000000000000000000e+00,-3.617081832885742188e+01,4.597906494140625000e+01,3.066925811767578125e+01,1.065201644897460938e+02,9.564685058593750000e+01,-3.872409582138061523e+00,4.031498432159423828e-01,-6.667353820800781250e+01,-1.826883239746093750e+02,-2.342819452285766602e+00,7.562291717529296875e+01,3.135653114318847656e+01
2.876569926738739014e-01,1.000000000000000000e+00,-3.617081832885742188e+01,4.597906494140625000e+01,3.066925811767578125e+01,1.065201644897460938e+02,9.564685058593750000e+01,-3.872409582138061523e+00,4.031498432159423828e-01,-6.667353820800781250e+01,-1.826883239746093750e+02,-2.342819452285766602e+00,7.562291717529296875e+01,3.135653114318847656e+01
2.915430068969726562e-01,1.000000000000000000e+00,-3.620954132080078125e+01,4.590198516845703125e+01,3.069058799743652344e+01,1.064506835937500000e+02,9.566561889648437500e+01,-3.895060062408447266e+00,4.031498432159423828e-01,-6.667353820800781250e+01,-1.826883239746093750e+02,-2.342819452285766602e+00,7.562291717529296875e+01,3.135653114318847656e+01
2.955240011215209961e-01,1.000000000000000000e+00,-3.624818420410156250e+01,4.582479476928710938e+01,3.071177101135253906e+01,1.063813629150390625e+02,9.568470001220703125e+01,-3.916354894638061523e+00,4.031498432159423828e-01,-6.667353820800781250e+01,-1.826883239746093750e+02,-2.342819452285766602e+00,7.562277984619140625e+01,3.135653114318847656e+01
2.996009886264801025e-01,1.000000000000000000e+00,-3.628690719604492188e+01,4.574748992919921875e+01,3.073275375366210938e+01,1.063116760253906250e+02,9.570411682128906250e+01,-3.937106847763061523e+00,4.031498432159423828e-01,-6.667343902587890625e+01,-1.826883239746093750e+02,-2.342891216278076172e+00,7.562277984619140625e+01,3.135653114318847656e+01
3.035880029201507568e-01,1.000000000000000000e+00,-3.632563400268554688e+01,4.566982650756835938e+01,3.075371551513671875e+01,1.062410964965820312e+02,9.572383880615234375e+01,-3.957655429840087891e+00,4.031498432159423828e-01,-6.667353820800781250e+01,-1.826883239746093750e+02,-2.342819452285766602e+00,7.562277984619140625e+01,3.135675048828125000e+01
3.075209856033325195e-01,1.000000000000000000e+00,-3.636458587646484375e+01,4.559186553955078125e+01,3.077496528625488281e+01,1.061712036132812500e+02,9.574409484863281250e+01,-3.979017734527587891e+00,4.031498432159423828e-01,-6.667353820800781250e+01,-1.826883239746093750e+02,-2.342819452285766602e+00,7.562277984619140625e+01,3.135653114318847656e+01
3.116089999675750732e-01,1.000000000000000000e+00,-3.640351486206054688e+01,4.551406478881835938e+01,3.079649353027343750e+01,1.061016693115234375e+02,9.576446533203125000e+01,-3.999837398529052734e+00,4.031498432159423828e-01,-6.667353820800781250e+01,-1.826883239746093750e+02,-2.342819452285766602e+00,7.562291717529296875e+01,3.135653114318847656e+01
3.155669867992401123e-01,1.000000000000000000e+00,-3.644247055053710938e+01,4.543614959716796875e+01,3.081774139404296875e+01,1.060318222045898438e+02,9.578403472900390625e+01,-4.021267414093017578e+00,4.031498432159423828e-01,-6.667353820800781250e+01,-1.826883239746093750e+02,-2.342819452285766602e+00,7.562277984619140625e+01,3.135653114318847656e+01
3.195610046386718750e-01,1.000000000000000000e+00,-3.648174285888671875e+01,4.535821151733398438e+01,3.083884811401367188e+01,1.059616088867187500e+02,9.580301666259765625e+01,-4.043036460876464844e+00,4.031498432159423828e-01,-6.667362213134765625e+01,-1.826883239746093750e+02,-2.342819452285766602e+00,7.562291717529296875e+01,3.135653114318847656e+01
3.236460089683532715e-01,1.000000000000000000e+00,-3.652103805541992188e+01,4.528009414672851562e+01,3.085987091064453125e+01,1.058911285400390625e+02,9.582161712646484375e+01,-4.065009117126464844e+00,4.031498432159423828e-01,-6.667353820800781250e+01,-1.826883239746093750e+02,-2.342747688293457031e+00,7.562277984619140625e+01,3.135653114318847656e+01
3.275989890098571777e-01,1.000000000000000000e+00,-3.656036758422851562e+01,4.520213317871093750e+01,3.088085365295410156e+01,1.058213348388671875e+02,9.584091949462890625e+01,-4.087185382843017578e+00,4.031498432159423828e-01,-6.667353820800781250e+01,-1.826883239746093750e+02,-2.342819452285766602e+00,7.562291717529296875e+01,3.135653114318847656e+01
3.315370082855224609e-01,1.000000000000000000e+00,-3.659984207153320312e+01,4.512440109252929688e+01,3.090230369567871094e+01,1.057511749267578125e+02,9.586043548583984375e+01,-4.109022617340087891e+00,4.031498432159423828e-01,-6.667353820800781250e+01,-1.826883239746093750e+02,-2.342819452285766602e+00,7.562277984619140625e+01,3.135653114318847656e+01
3.355529904365539551e-01,1.000000000000000000e+00,-3.663940048217773438e+01,4.504644012451171875e+01,3.092361068725585938e+01,1.056811218261718750e+02,9.588048553466796875e+01,-4.129638671875000000e+00,4.031498432159423828e-01,-6.667353820800781250e+01,-1.826881713867187500e+02,-2.342747688293457031e+00,7.562277984619140625e+01,3.135642242431640625e+01
3.396109938621520996e-01,1.000000000000000000e+00,-3.667918395996093750e+01,4.496857070922851562e+01,3.094485473632812500e+01,1.056107940673828125e+02,9.590090179443359375e+01,-4.150797843933105469e+00,4.031498432159423828e-01,-6.667362213134765625e+01,-1.826881713867187500e+02,-2.342819452285766602e+00,7.562291717529296875e+01,3.135653114318847656e+01
3.435670137405395508e-01,1.000000000000000000e+00,-3.671879959106445312e+01,4.489059066772460938e+01,3.096620368957519531e+01,1.055408935546875000e+02,9.592084503173828125e+01,-4.172363281250000000e+00,4.031498432159423828e-01,-6.667362213134765625e+01,-1.826883239746093750e+02,-2.342747688293457031e+00,7.562291717529296875e+01,3.135653114318847656e+01
3.475449979305267334e-01,1.000000000000000000e+00,-3.675856399536132812e+01,4.481231307983398438e+01,3.098741149902343750e+01,1.054703140258789062e+02,9.594014739990234375e+01,-4.193657875061035156e+00,4.031498432159423828e-01,-6.667353820800781250e+01,-1.826883239746093750e+02,-2.342819452285766602e+00,7.562270355224609375e+01,3.135653114318847656e+01
3.516150116920471191e-01,1.000000000000000000e+00,-3.679829025268554688e+01,4.473410415649414062e+01,3.100881958007812500e+01,1.054002609252929688e+02,9.595922851562500000e+01,-4.215087890625000000e+00,4.031498432159423828e-01,-6.667353820800781250e+01,-1.826883239746093750e+02,-2.342891216278076172e+00,7.562291717529296875e+01,3.135653114318847656e+01
3.555260002613067627e-01,1.000000000000000000e+00,-3.683824920654296875e+01,4.465578079223632812e+01,3.103029060363769531e+01,1.053296813964843750e+02,9.597815704345703125e+01,-4.237060546875000000e+00,4.031498432159423828e-01,-6.667353820800781250e+01,-1.826883239746093750e+02,-2.342819452285766602e+00,7.562277984619140625e+01,3.135653114318847656e+01
3.595319986343383789e-01,1.000000000000000000e+00,-3.687832641601562500e+01,4.457752227783203125e+01,3.105161857604980469e+01,1.052599945068359375e+02,9.599788665771484375e+01,-4.259372234344482422e+00,4.031498432159423828e-01,-6.667353820800781250e+01,-1.826883239746093750e+02,-2.342891216278076172e+00,7.562277984619140625e+01,3.135642242431640625e+01
3.637380003929138184e-01,1.000000000000000000e+00,-3.691814422607421875e+01,4.449940872192382812e+01,3.107290458679199219e+01,1.051891403198242188e+02,9.601771545410156250e+01,-4.281412601470947266e+00,4.031498432159423828e-01,-6.667343902587890625e+01,-1.826883239746093750e+02,-2.342819452285766602e+00,7.562277984619140625e+01,3.135653114318847656e+01
3.675290048122406006e-01,1.000000000000000000e+00,-3.695818710327148438e+01,4.442124176025390625e+01,3.109421539306640625e+01,1.051188735961914062e+02,9.603856658935546875e+01,-4.302435874938964844e+00,4.031498432159423828e-01,-6.667353820800781250e+01,-1.826883239746093750e+02,-2.342747688293457031e+00,7.562291717529296875e+01,3.135642242431640625e+01
3.716909885406494141e-01,1.000000000000000000e+00,-3.699814987182617188e+01,4.434326171875000000e+01,3.111564445495605469e+01,1.050478744506835938e+02,9.605888366699218750e+01,-4.323594570159912109e+00,4.031498432159423828e-01,-6.667353820800781250e+01,-1.826883239746093750e+02,-2.342747688293457031e+00,7.562277984619140625e+01,3.135653114318847656e+01
3.757779896259307861e-01,1.000000000000000000e+00,-3.703813552856445312e+01,4.426541519165039062e+01,3.113709449768066406e+01,1.049779739379882812e+02,9.607828521728515625e+01,-4.345296382904052734e+00,4.031498432159423828e-01,-6.667362213134765625e+01,-1.826884307861328125e+02,-2.342819452285766602e+00,7.562270355224609375e+01,3.135653114318847656e+01
3.796249926090240479e-01,1.000000000000000000e+00,-3.707809448242187500e+01,4.418733978271484375e+01,3.115844154357910156e+01,1.049072799682617188e+02,9.609705352783203125e+01,-4.366862297058105469e+00,4.031498432159423828e-01,-6.667353820800781250e+01,-1.826883239746093750e+02,-2.342891216278076172e+00,7.562277984619140625e+01,3.135642242431640625e+01
3.835819959640502930e-01,1.000000000000000000e+00,-3.711822891235351562e+01,4.410890579223632812e+01,3.117968750000000000e+01,1.048368072509765625e+02,9.611640167236328125e+01,-4.388495445251464844e+00,4.031498432159423828e-01,-6.667353820800781250e+01,-1.826883239746093750e+02,-2.342819452285766602e+00,7.562277984619140625e+01,3.135642242431640625e+01
3.879950046539306641e-01,1.000000000000000000e+00,-3.715815734863281250e+01,4.403047180175781250e+01,3.120103454589843750e+01,1.047661132812500000e+02,9.613559722900390625e+01,-4.409857749938964844e+00,4.030399620532989502e-01,-6.667353820800781250e+01,-1.826883239746093750e+02,-2.342819452285766602e+00,7.562291717529296875e+01,3.135653114318847656e+01
3.915260136127471924e-01,1.000000000000000000e+00,-3.719820404052734375e+01,4.395171737670898438e+01,3.122254753112792969e+01,1.046954269409179688e+02,9.615548706054687500e+01,-4.432508945465087891e+00,4.031498432159423828e-01,-6.667353820800781250e+01,-1.826883239746093750e+02,-2.342819452285766602e+00,7.562291717529296875e+01,3.135642242431640625e+01
3.957189917564392090e-01,1.000000000000000000e+00,-3.723802185058593750e+01,4.387289810180664062e+01,3.124399757385253906e+01,1.046247406005859375e+02,9.617559051513671875e+01,-4.455159664154052734e+00,4.031498432159423828e-01,-6.667362213134765625e+01,-1.826884307861328125e+02,-2.342747688293457031e+00,7.562277984619140625e+01,3.135642242431640625e+01
4.003449976444244385e-01,1.000000000000000000e+00,-3.727806472778320312e+01,4.379407882690429688e+01,3.126555061340332031e+01,1.045542068481445312e+02,9.619606018066406250e+01,-4.477132320404052734e+00,4.031498432159423828e-01,-6.667353820800781250e+01,-1.826883239746093750e+02,-2.342819452285766602e+00,7.562291717529296875e+01,3.135653114318847656e+01
4.035820066928863525e-01,1.000000000000000000e+00,-3.731819915771484375e+01,4.371537017822265625e+01,3.128714370727539062e+01,1.044830474853515625e+02,9.621583557128906250e+01,-4.498019695281982422e+00,4.031498432159423828e-01,-6.667353820800781250e+01,-1.826883239746093750e+02,-2.342819452285766602e+00,7.562277984619140625e+01,3.135653114318847656e+01
4.075370132923126221e-01,1.000000000000000000e+00,-3.735830307006835938e+01,4.363695907592773438e+01,3.130847167968750000e+01,1.044126281738281250e+02,9.623498535156250000e+01,-4.519246578216552734e+00,4.031498432159423828e-01,-6.667353820800781250e+01,-1.826883239746093750e+02,-2.342819452285766602e+00,7.562277984619140625e+01,3.135653114318847656e+01
4.121640026569366455e-01,1.000000000000000000e+00,-3.739826583862304688e+01,4.355829620361328125e+01,3.133002281188964844e+01,1.043415603637695312e+02,9.625422668457031250e+01,-4.540947914123535156e+00,4.031498432159423828e-01,-6.667353820800781250e+01,-1.826883239746093750e+02,-2.342819452285766602e+00,7.562291717529296875e+01,3.135653114318847656e+01
4.155800044536590576e-01,1.000000000000000000e+00,-3.743833541870117188e+01,4.347986221313476562e+01,3.135155296325683594e+01,1.042710876464843750e+02,9.627331542968750000e+01,-4.562649250030517578e+00,4.031498432159423828e-01,-6.667353820800781250e+01,-1.826883239746093750e+02,-2.342747688293457031e+00,7.562277984619140625e+01,3.135653114318847656e+01
4.197260141372680664e-01,1.000000000000000000e+00,-3.747841262817382812e+01,4.340113449096679688e+01,3.137282180786132812e+01,1.041996612548828125e+02,9.629283142089843750e+01,-4.584689617156982422e+00,4.031498432159423828e-01,-6.667353820800781250e+01,-1.826883239746093750e+02,-2.342819452285766602e+00,7.562277984619140625e+01,3.135642242431640625e+01
4.243009984493255615e-01,1.000000000000000000e+00,-3.751851654052734375e+01,4.332210922241210938e+01,3.139429283142089844e+01,1.041288681030273438e+02,9.631314086914062500e+01,-4.607069492340087891e+00,4.031498432159423828e-01,-6.667353820800781250e+01,-1.826883239746093750e+02,-2.342819452285766602e+00,7.562277984619140625e+01,3.135642242431640625e+01
4.276390075683593750e-01,1.000000000000000000e+00,-3.755862045288085938e+01,4.324265670776367188e+01,3.141584205627441406e+01,1.040574951171875000e+02,9.633377838134765625e+01,-4.629448890686035156e+00,4.031498432159423828e-01,-6.667353820800781250e+01,-1.826881713867187500e+02,-2.342819452285766602e+00,7.562277984619140625e+01,3.135675048828125000e+01
4.316340088844299316e-01,1.000000000000000000e+00,-3.759886550903320312e+01,4.316299819946289062e+01,3.143755722045898438e+01,1.039866485595703125e+02,9.635392761230468750e+01,-4.651624679565429688e+00,4.031498432159423828e-01,-6.667353820800781250e+01,-1.826883239746093750e+02,-2.342819452285766602e+00,7.562277984619140625e+01,3.135675048828125000e+01
4.362179934978485107e-01,1.000000000000000000e+00,-3.763891220092773438e+01,4.308388519287109375e+01,3.145929145812988281e+01,1.039154357910156250e+02,9.637306976318359375e+01,-4.672919750213623047e+00,4.031498432159423828e-01,-6.667362213134765625e+01,-1.826883239746093750e+02,-2.342747688293457031e+00,7.562277984619140625e+01,3.135675048828125000e+01
4.396280050277709961e-01,1.000000000000000000e+00,-3.767898941040039062e+01,4.300463485717773438e+01,3.148082351684570312e+01,1.038445892333984375e+02,9.639220428466796875e+01,-4.693807125091552734e+00,4.031498432159423828e-01,-6.667353820800781250e+01,-1.826883239746093750e+02,-2.342891216278076172e+00,7.562291717529296875e+01,3.135653114318847656e+01
4.438099861145019531e-01,1.000000000000000000e+00,-3.771889114379882812e+01,4.292574691772460938e+01,3.150223350524902344e+01,1.037731094360351562e+02,9.641135406494140625e+01,-4.715372562408447266e+00,4.031498432159423828e-01,-6.667353820800781250e+01,-1.826883239746093750e+02,-2.342819452285766602e+00,7.562277984619140625e+01,3.135653114318847656e+01
4.484150111675262451e-01,1.000000000000000000e+00,-3.775905227661132812e+01,4.284676742553710938e+01,3.152372360229492188e+01,1.037021560668945312e+02,9.643092346191406250e+01,-4.737345218658447266e+00,4.031498432159423828e-01,-6.667353820800781250e+01,-1.826883239746093750e+02,-2.342819452285766602e+00,7.562277984619140625e+01,3.135653114318847656e+01
4.516800045967102051e-01,1.000000000000000000e+00,-3.779929733276367188e+01,4.276781082153320312e+01,3.154521179199218750e+01,1.036307296752929688e+02,9.645064544677734375e+01,-4.759114742279052734e+00,4.031498432159423828e-01,-6.667353820800781250e+01,-1.826883239746093750e+02,-2.342819452285766602e+00,7.562291717529296875e+01,3.135653114318847656e+01
4.557250142097473145e-01,1.000000000000000000e+00,-3.783948898315429688e+01,4.268880844116210938e+01,3.156707191467285156e+01,1.035597839355468750e+02,9.647106170654296875e+01,-4.780883789062500000e+00,4.031498432159423828e-01,-6.667353820800781250e+01,-1.826883239746093750e+02,-2.342819452285766602e+00,7.562291717529296875e+01,3.135653114318847656e+01
4.598090052604675293e-01,1.000000000000000000e+00,-3.787953186035156250e+01,4.260955810546875000e+01,3.158870315551757812e+01,1.034882965087890625e+02,9.649153900146484375e+01,-4.803331375122070312e+00,4.031498432159423828e-01,-6.667353820800781250e+01,-1.826883239746093750e+02,-2.342819452285766602e+00,7.562277984619140625e+01,3.135675048828125000e+01
4.646340012550354004e-01,1.000000000000000000e+00,-3.791975402832031250e+01,4.253028869628906250e+01,3.161037445068359375e+01,1.034169235229492188e+02,9.651132202148437500e+01,-4.825914382934570312e+00,4.031498432159423828e-01,-6.667353820800781250e+01,-1.826883239746093750e+02,-2.342819452285766602e+00,7.562277984619140625e+01,3.135675048828125000e+01
4.678899943828582764e-01,1.000000000000000000e+00,-3.795994186401367188e+01,4.245056152343750000e+01,3.163209152221679688e+01,1.033450775146484375e+02,9.653045654296875000e+01,-4.847615718841552734e+00,4.031498432159423828e-01,-6.667353820800781250e+01,-1.826883239746093750e+02,-2.342819452285766602e+00,7.562277984619140625e+01,3.135697174072265625e+01
4.724720120429992676e-01,1.000000000000000000e+00,-3.800001525878906250e+01,4.237065505981445312e+01,3.165376472473144531e+01,1.032737045288085938e+02,9.654959869384765625e+01,-4.868978023529052734e+00,4.031498432159423828e-01,-6.667353820800781250e+01,-1.826883239746093750e+02,-2.342819452285766602e+00,7.562291717529296875e+01,3.135653114318847656e+01
4.757130146026611328e-01,1.000000000000000000e+00,-3.804017639160156250e+01,4.229120254516601562e+01,3.167560005187988281e+01,1.032023849487304688e+02,9.656916046142578125e+01,-4.890476226806640625e+00,4.031498432159423828e-01,-6.667353820800781250e+01,-1.826883239746093750e+02,-2.342819452285766602e+00,7.562291717529296875e+01,3.135653114318847656e+01
4.799860119819641113e-01,1.000000000000000000e+00,-3.808042144775390625e+01,4.221186065673828125e+01,3.169727516174316406e+01,1.031306381225585938e+02,9.658921051025390625e+01,-4.912177562713623047e+00,4.031498432159423828e-01,-6.667353820800781250e+01,-1.826883239746093750e+02,-2.342819452285766602e+00,7.562277984619140625e+01,3.135653114318847656e+01
4.825330078601837158e-01,1.000000000000000000e+00,-3.812075805664062500e+01,4.213270187377929688e+01,3.171874618530273438e+01,1.030587463378906250e+02,9.660958099365234375e+01,-4.934150218963623047e+00,4.031498432159423828e-01,-6.667353820800781250e+01,-1.826883239746093750e+02,-2.342747688293457031e+00,7.562291717529296875e+01,3.135653114318847656e+01
4.885489940643310547e-01,1.000000000000000000e+00,-3.816094589233398438e+01,4.205324935913085938e+01,3.174025917053222656e+01,1.029873657226562500e+02,9.663031768798828125e+01,-4.955986976623535156e+00,4.031498432159423828e-01,-6.667353820800781250e+01,-1.826883239746093750e+02,-2.342819452285766602e+00,7.562277984619140625e+01,3.135653114318847656e+01
4.920740127563476562e-01,1.000000000000000000e+00,-3.820116424560546875e+01,4.197393035888671875e+01,3.176197052001953125e+01,1.029159393310546875e+02,9.665063476562500000e+01,-4.978230953216552734e+00,4.031498432159423828e-01,-6.667353820800781250e+01,-1.826883239746093750e+02,-2.342819452285766602e+00,7.562277984619140625e+01,3.135653114318847656e+01
4.971080124378204346e-01,1.000000000000000000e+00,-3.824146652221679688e+01,4.189438629150390625e+01,3.178386878967285156e+01,1.028444137573242188e+02,9.667015075683593750e+01,-5.000813961029052734e+00,4.031498432159423828e-01,-6.667353820800781250e+01,-1.826883239746093750e+02,-2.342819452285766602e+00,7.562291717529296875e+01,3.135653114318847656e+01
5.000380277633666992e-01,1.000000000000000000e+00,-3.828174591064453125e+01,4.181425476074218750e+01,3.180576705932617188e+01,1.027720336914062500e+02,9.668918609619140625e+01,-5.023532390594482422e+00,4.031498432159423828e-01,-6.667353820800781250e+01,-1.826883239746093750e+02,-2.342819452285766602e+00,7.562291717529296875e+01,3.135653114318847656e+01
5.041760206222534180e-01,1.000000000000000000e+00,-3.832196044921875000e+01,4.173407363891601562e+01,3.182752037048339844e+01,1.027005538940429688e+02,9.670848083496093750e+01,-5.044894695281982422e+00,4.031498432159423828e-01,-6.667353820800781250e+01,-1.826883239746093750e+02,-2.342747688293457031e+00,7.562277984619140625e+01,3.135642242431640625e+01
5.081059932708740234e-01,1.000000000000000000e+00,-3.836226654052734375e+01,4.165362548828125000e+01,3.184907341003417969e+01,1.026289215087890625e+02,9.672831726074218750e+01,-5.065782546997070312e+00,4.031498432159423828e-01,-6.667353820800781250e+01,-1.826883239746093750e+02,-2.342819452285766602e+00,7.562277984619140625e+01,3.135653114318847656e+01
5.130770206451416016e-01,1.000000000000000000e+00,-3.840265655517578125e+01,4.157317733764648438e+01,3.187082672119140625e+01,1.025570220947265625e+02,9.674868011474609375e+01,-5.087755203247070312e+00,4.031498432159423828e-01,-6.667362213134765625e+01,-1.826883239746093750e+02,-2.342747688293457031e+00,7.562291717529296875e+01,3.135642242431640625e+01
5.163400173187255859e-01,1.000000000000000000e+00,-3.844278717041015625e+01,4.149311447143554688e+01,3.189274597167968750e+01,1.024845886230468750e+02,9.676942443847656250e+01,-5.109727859497070312e+00,4.031498432159423828e-01,-6.667353820800781250e+01,-1.826884307861328125e+02,-2.342819452285766602e+00,7.562277984619140625e+01,3.135653114318847656e+01
5.202260017395019531e-01,1.000000000000000000e+00,-3.848312377929687500e+01,4.141331863403320312e+01,3.191456222534179688e+01,1.024127426147460938e+02,9.678989410400390625e+01,-5.131836414337158203e+00,4.031498432159423828e-01,-6.667353820800781250e+01,-1.826883239746093750e+02,-2.342819452285766602e+00,7.562277984619140625e+01,3.135642242431640625e+01
5.242450237274169922e-01,1.000000000000000000e+00,-3.852351379394531250e+01,4.133386611938476562e+01,3.193641853332519531e+01,1.023410110473632812e+02,9.680973052978515625e+01,-5.154012203216552734e+00,4.031498432159423828e-01,-6.667343902587890625e+01,-1.826881713867187500e+02,-2.342891216278076172e+00,7.562277984619140625e+01,3.135653114318847656e+01
5.284360051155090332e-01,1.000000000000000000e+00,-3.856393051147460938e+01,4.125405120849609375e+01,3.195806884765625000e+01,1.022693176269531250e+02,9.682897949218750000e+01,-5.176459789276123047e+00,4.031498432159423828e-01,-6.667353820800781250e+01,-1.826883239746093750e+02,-2.342819452285766602e+00,7.562277984619140625e+01,3.135653114318847656e+01
5.329310297966003418e-01,1.000000000000000000e+00,-3.864477157592773438e+01,4.109328842163085938e+01,3.200176620483398438e+01,1.021248855590820312e+02,9.686832427978515625e+01,-5.221557617187500000e+00,4.031498432159423828e-01,-6.667353820800781250e+01,-1.826883239746093750e+02,-2.342819452285766602e+00,7.562291717529296875e+01,3.135675048828125000e+01
5.369489789009094238e-01,1.000000000000000000e+00,-3.864477157592773438e+01,4.109328842163085938e+01,3.200176620483398438e+01,1.021248855590820312e+02,9.686832427978515625e+01,-5.221557617187500000e+00,4.031498432159423828e-01,-6.667353820800781250e+01,-1.826883239746093750e+02,-2.342819452285766602e+00,7.562291717529296875e+01,3.135675048828125000e+01
5.405570268630981445e-01,1.000000000000000000e+00,-3.868524551391601562e+01,4.101268005371093750e+01,3.202365875244140625e+01,1.020525588989257812e+02,9.688858032226562500e+01,-5.243055820465087891e+00,4.031498432159423828e-01,-6.667353820800781250e+01,-1.826883239746093750e+02,-2.342891216278076172e+00,7.562291717529296875e+01,3.135653114318847656e+01
5.451959967613220215e-01,1.000000000000000000e+00,-3.872598266601562500e+01,4.093191528320312500e+01,3.204555892944335938e+01,1.019806137084960938e+02,9.690931701660156250e+01,-5.264485836029052734e+00,4.031498432159423828e-01,-6.667343902587890625e+01,-1.826883239746093750e+02,-2.342891216278076172e+00,7.562291717529296875e+01,3.135653114318847656e+01
5.482869744300842285e-01,1.000000000000000000e+00,-3.876654434204101562e+01,4.085110092163085938e+01,3.206737518310546875e+01,1.019082870483398438e+02,9.693027496337890625e+01,-5.287068843841552734e+00,4.031498432159423828e-01,-6.667353820800781250e+01,-1.826883239746093750e+02,-2.342819452285766602e+00,7.562277984619140625e+01,3.135653114318847656e+01
5.525779724121093750e-01,1.000000000000000000e+00,-3.880719375610351562e+01,4.077072143554687500e+01,3.208923339843750000e+01,1.018362808227539062e+02,9.695026397705078125e+01,-5.309176921844482422e+00,4.031498432159423828e-01,-6.667353820800781250e+01,-1.826883239746093750e+02,-2.342819452285766602e+00,7.562291717529296875e+01,3.135642242431640625e+01
5.565609931945800781e-01,1.000000000000000000e+00,-3.884795761108398438e+01,4.069038391113281250e+01,3.211133193969726562e+01,1.017637481689453125e+02,9.696968078613281250e+01,-5.331285476684570312e+00,4.031498432159423828e-01,-6.667343902587890625e+01,-1.826883239746093750e+02,-2.342819452285766602e+00,7.562277984619140625e+01,3.135642242431640625e+01
5.614380240440368652e-01,1.000000000000000000e+00,-3.888872146606445312e+01,4.061018371582031250e+01,3.213337326049804688e+01,1.016918563842773438e+02,9.698913574218750000e+01,-5.353936195373535156e+00,4.031498432159423828e-01,-6.667353820800781250e+01,-1.826883239746093750e+02,-2.342819452285766602e+00,7.562277984619140625e+01,3.135642242431640625e+01
5.647069811820983887e-01,1.000000000000000000e+00,-3.892957305908203125e+01,4.053002929687500000e+01,3.215530776977539062e+01,1.016190567016601562e+02,9.700865173339843750e+01,-5.376994132995605469e+00,4.031498432159423828e-01,-6.667353820800781250e+01,-1.826884307861328125e+02,-2.342819452285766602e+00,7.562277984619140625e+01,3.135642242431640625e+01
5.693799853324890137e-01,1.000000000000000000e+00,-3.897062301635742188e+01,4.044969177246093750e+01,3.217720413208007812e+01,1.015466842651367188e+02,9.702875518798828125e+01,-5.399305820465087891e+00,4.031498432159423828e-01,-6.667353820800781250e+01,-1.826883239746093750e+02,-2.342819452285766602e+00,7.562277984619140625e+01,3.135653114318847656e+01
5.725629925727844238e-01,1.000000000000000000e+00,-3.901176071166992188e+01,4.036899185180664062e+01,3.219902420043945312e+01,1.014740905761718750e+02,9.704938507080078125e+01,-5.420803546905517578e+00,4.031498432159423828e-01,-6.667353820800781250e+01,-1.826883239746093750e+02,-2.342819452285766602e+00,7.562277984619140625e+01,3.135653114318847656e+01
5.766590237617492676e-01,1.000000000000000000e+00,-3.905266571044921875e+01,4.028807067871093750e+01,3.222095870971679688e+01,1.014018325805664062e+02,9.707038879394531250e+01,-5.442640781402587891e+00,4.031498432159423828e-01,-6.667353820800781250e+01,-1.826883239746093750e+02,-2.342819452285766602e+00,7.562291717529296875e+01,3.135653114318847656e+01
5.807030200958251953e-01,1.000000000000000000e+00,-3.909377288818359375e+01,4.020673751831054688e+01,3.224320220947265625e+01,1.013292465209960938e+02,9.709075927734375000e+01,-5.464817047119140625e+00,4.031498432159423828e-01,-6.667353820800781250e+01,-1.826883239746093750e+02,-2.342747688293457031e+00,7.562277984619140625e+01,3.135653114318847656e+01
5.852460265159606934e-01,1.000000000000000000e+00,-3.913476943969726562e+01,4.012558746337890625e+01,3.226532745361328125e+01,1.012566070556640625e+02,9.711000823974609375e+01,-5.487535476684570312e+00,4.031498432159423828e-01,-6.667362213134765625e+01,-1.826883239746093750e+02,-2.342747688293457031e+00,7.562277984619140625e+01,3.135653114318847656e+01
5.887410044670104980e-01,1.000000000000000000e+00,-3.917593383789062500e+01,4.004461669921875000e+01,3.228744506835937500e+01,1.011839675903320312e+02,9.712951660156250000e+01,-5.509982585906982422e+00,4.031498432159423828e-01,-6.667343902587890625e+01,-1.826883239746093750e+02,-2.342891216278076172e+00,7.562291717529296875e+01,3.135653114318847656e+01
5.933989882469177246e-01,1.000000000000000000e+00,-3.921718597412109375e+01,3.996403121948242188e+01,3.230938339233398438e+01,1.011115417480468750e+02,9.714940643310546875e+01,-5.532362461090087891e+00,4.031498432159423828e-01,-6.667362213134765625e+01,-1.826883239746093750e+02,-2.342819452285766602e+00,7.562277984619140625e+01,3.135653114318847656e+01
5.965399742126464844e-01,1.000000000000000000e+00,-3.925843429565429688e+01,3.988360595703125000e+01,3.233146667480468750e+01,1.010384826660156250e+02,9.716945648193359375e+01,-5.555487632751464844e+00,4.031498432159423828e-01,-6.667353820800781250e+01,-1.826883239746093750e+02,-2.342819452285766602e+00,7.562270355224609375e+01,3.135675048828125000e+01
5.995380282402038574e-01,1.000000000000000000e+00,-3.929971694946289062e+01,3.980308914184570312e+01,3.235360717773437500e+01,1.009661560058593750e+02,9.718997955322265625e+01,-5.578545570373535156e+00,4.031498432159423828e-01,-6.667353820800781250e+01,-1.826881713867187500e+02,-2.342819452285766602e+00,7.562291717529296875e+01,3.135653114318847656e+01
6.034629940986633301e-01,1.000000000000000000e+00,-3.934114074707031250e+01,3.972243499755859375e+01,3.237558364868164062e+01,1.008932037353515625e+02,9.721109008789062500e+01,-5.600789546966552734e+00,4.031498432159423828e-01,-6.667353820800781250e+01,-1.826883239746093750e+02,-2.342819452285766602e+00,7.562277984619140625e+01,3.135675048828125000e+01
6.075400114059448242e-01,1.000000000000000000e+00,-3.938241958618164062e+01,3.964128494262695312e+01,3.239746093750000000e+01,1.008205184936523438e+02,9.723188018798828125e+01,-5.622423171997070312e+00,4.031498432159423828e-01,-6.667362213134765625e+01,-1.826883239746093750e+02,-2.342747688293457031e+00,7.562277984619140625e+01,3.135653114318847656e+01
6.114900112152099609e-01,1.000000000000000000e+00,-3.942367172241210938e+01,3.956022262573242188e+01,3.241956329345703125e+01,1.007474060058593750e+02,9.725156402587890625e+01,-5.644395828247070312e+00,4.031498432159423828e-01,-6.667353820800781250e+01,-1.826883239746093750e+02,-2.342747688293457031e+00,7.562277984619140625e+01,3.135653114318847656e+01
6.154620051383972168e-01,1.000000000000000000e+00,-3.946483612060546875e+01,3.947887039184570312e+01,3.244176483154296875e+01,1.006746597290039062e+02,9.727096557617187500e+01,-5.666775226593017578e+00,4.031498432159423828e-01,-6.667353820800781250e+01,-1.826883239746093750e+02,-2.342819452285766602e+00,7.562277984619140625e+01,3.135653114318847656e+01
6.194739937782287598e-01,1.000000000000000000e+00,-3.950623321533203125e+01,3.939717483520507812e+01,3.246400833129882812e+01,1.006012878417968750e+02,9.729048156738281250e+01,-5.689155101776123047e+00,4.031498432159423828e-01,-6.667353820800781250e+01,-1.826883239746093750e+02,-2.342819452285766602e+00,7.562277984619140625e+01,3.135642242431640625e+01
6.235280036926269531e-01,1.000000000000000000e+00,-3.954756927490234375e+01,3.931575012207031250e+01,3.248635482788085938e+01,1.005283813476562500e+02,9.731047058105468750e+01,-5.712212562561035156e+00,4.031498432159423828e-01,-6.667353820800781250e+01,-1.826883239746093750e+02,-2.342747688293457031e+00,7.562291717529296875e+01,3.135653114318847656e+01
6.274840235710144043e-01,1.000000000000000000e+00,-3.958887863159179688e+01,3.923462677001953125e+01,3.250830841064453125e+01,1.004553756713867188e+02,9.733094787597656250e+01,-5.735134601593017578e+00,4.030399620532989502e-01,-6.667353820800781250e+01,-1.826883239746093750e+02,-2.342747688293457031e+00,7.562291717529296875e+01,3.135653114318847656e+01
6.314759850502014160e-01,1.000000000000000000e+00,-3.963010406494140625e+01,3.915365219116210938e+01,3.253028869628906250e+01,1.003824768066406250e+02,9.735217285156250000e+01,-5.758260250091552734e+00,4.031498432159423828e-01,-6.667353820800781250e+01,-1.826883239746093750e+02,-2.342819452285766602e+00,7.562277984619140625e+01,3.135653114318847656e+01
6.354640126228332520e-01,1.000000000000000000e+00,-3.967135620117187500e+01,3.907257080078125000e+01,3.255233001708984375e+01,1.003089447021484375e+02,9.737290954589843750e+01,-5.780504226684570312e+00,4.031498432159423828e-01,-6.667353820800781250e+01,-1.826883239746093750e+02,-2.342819452285766602e+00,7.562291717529296875e+01,3.135653114318847656e+01
6.395260095596313477e-01,1.000000000000000000e+00,-3.971280670166015625e+01,3.899142074584960938e+01,3.257459259033203125e+01,1.002362594604492188e+02,9.739300537109375000e+01,-5.802612304687500000e+00,4.030399620532989502e-01,-6.667353820800781250e+01,-1.826883239746093750e+02,-2.342819452285766602e+00,7.562291717529296875e+01,3.135653114318847656e+01
6.436640024185180664e-01,1.000000000000000000e+00,-3.975423049926757812e+01,3.891011047363281250e+01,3.259675216674804688e+01,1.001626663208007812e+02,9.741252136230468750e+01,-5.824313640594482422e+00,4.031498432159423828e-01,-6.667353820800781250e+01,-1.826883239746093750e+02,-2.342891216278076172e+00,7.562277984619140625e+01,3.135653114318847656e+01
6.474720239639282227e-01,1.000000000000000000e+00,-3.979553985595703125e+01,3.882835006713867188e+01,3.261905670166015625e+01,1.000898742675781250e+02,9.743230438232421875e+01,-5.846625328063964844e+00,4.031498432159423828e-01,-6.667343902587890625e+01,-1.826883239746093750e+02,-2.342819452285766602e+00,7.562291717529296875e+01,3.135642242431640625e+01
6.516860127449035645e-01,1.000000000000000000e+00,-3.983687591552734375e+01,3.874620056152343750e+01,3.264113998413085938e+01,1.000159683227539062e+02,9.745251464843750000e+01,-5.869208335876464844e+00,4.031498432159423828e-01,-6.667362213134765625e+01,-1.826883239746093750e+02,-2.342747688293457031e+00,7.562277984619140625e+01,3.135653114318847656e+01
6.555370092391967773e-01,1.000000000000000000e+00,-3.987810134887695312e+01,3.866391754150390625e+01,3.266352081298828125e+01,9.994291687011718750e+01,9.747293090820312500e+01,-5.891994953155517578e+00,4.031498432159423828e-01,-6.667353820800781250e+01,-1.826883239746093750e+02,-2.342819452285766602e+00,7.562291717529296875e+01,3.135653114318847656e+01
6.594989895820617676e-01,1.000000000000000000e+00,-3.991946792602539062e+01,3.858184051513671875e+01,3.268584823608398438e+01,9.986875152587890625e+01,9.749420166015625000e+01,-5.914577960968017578e+00,4.031498432159423828e-01,-6.667353820800781250e+01,-1.826883239746093750e+02,-2.342819452285766602e+00,7.562291717529296875e+01,3.135653114318847656e+01
6.635450124740600586e-01,1.000000000000000000e+00,-3.996089172363281250e+01,3.850010299682617188e+01,3.270798873901367188e+01,9.979600524902343750e+01,9.751537322998046875e+01,-5.937974929809570312e+00,4.031498432159423828e-01,-6.667353820800781250e+01,-1.826883239746093750e+02,-2.342747688293457031e+00,7.562277984619140625e+01,3.135642242431640625e+01
6.675819754600524902e-01,1.000000000000000000e+00,-4.000222778320312500e+01,3.841870117187500000e+01,3.273023223876953125e+01,9.972194671630859375e+01,9.753578186035156250e+01,-5.960625648498535156e+00,4.031498432159423828e-01,-6.667353820800781250e+01,-1.826883239746093750e+02,-2.342747688293457031e+00,7.562277984619140625e+01,3.135653114318847656e+01
6.714649796485900879e-01,1.000000000000000000e+00,-4.004365539550781250e+01,3.833739089965820312e+01,3.275253677368164062e+01,9.964846801757812500e+01,9.755519866943359375e+01,-5.982462882995605469e+00,4.031498432159423828e-01,-6.667362213134765625e+01,-1.826883239746093750e+02,-2.342819452285766602e+00,7.562291717529296875e+01,3.135653114318847656e+01
6.754580140113830566e-01,1.000000000000000000e+00,-4.008496475219726562e+01,3.825592422485351562e+01,3.277484130859375000e+01,9.957492828369140625e+01,9.757481384277343750e+01,-6.004231929779052734e+00,4.031498432159423828e-01,-6.667362213134765625e+01,-1.826883239746093750e+02,-2.342819452285766602e+00,7.562291717529296875e+01,3.135653114318847656e+01
6.795120239257812500e-01,1.000000000000000000e+00,-4.012641525268554688e+01,3.817400741577148438e+01,3.279724884033203125e+01,9.950151062011718750e+01,9.759485626220703125e+01,-6.026611328125000000e+00,4.031498432159423828e-01,-6.667353820800781250e+01,-1.826883239746093750e+02,-2.342891216278076172e+00,7.562277984619140625e+01,3.135653114318847656e+01
6.835060119628906250e-01,1.000000000000000000e+00,-4.016792678833007812e+01,3.809199142456054688e+01,3.281951141357421875e+01,9.942776489257812500e+01,9.761565399169921875e+01,-6.049601554870605469e+00,4.031498432159423828e-01,-6.667353820800781250e+01,-1.826883239746093750e+02,-2.342747688293457031e+00,7.562277984619140625e+01,3.135653114318847656e+01
6.875799894332885742e-01,1.000000000000000000e+00,-4.020952224731445312e+01,3.800941467285156250e+01,3.284187698364257812e+01,9.935364532470703125e+01,9.763692474365234375e+01,-6.072387695312500000e+00,4.031498432159423828e-01,-6.667353820800781250e+01,-1.826883239746093750e+02,-2.342819452285766602e+00,7.562291717529296875e+01,3.135675048828125000e+01
6.916390061378479004e-01,1.000000000000000000e+00,-4.025111770629882812e+01,3.792692947387695312e+01,3.286407852172851562e+01,9.927980041503906250e+01,9.765814971923828125e+01,-6.095310211181640625e+00,4.030399620532989502e-01,-6.667353820800781250e+01,-1.826883239746093750e+02,-2.342819452285766602e+00,7.562277984619140625e+01,3.135653114318847656e+01
6.954690217971801758e-01,1.000000000000000000e+00,-4.029273986816406250e+01,3.784460449218750000e+01,3.288648223876953125e+01,9.920658874511718750e+01,9.767867279052734375e+01,-6.118096351623535156e+00,4.031498432159423828e-01,-6.667362213134765625e+01,-1.826883239746093750e+02,-2.342819452285766602e+00,7.562277984619140625e+01,3.135675048828125000e+01
6.994600296020507812e-01,1.000000000000000000e+00,-4.033428192138671875e+01,3.776263809204101562e+01,3.290903091430664062e+01,9.913257598876953125e+01,9.769845581054687500e+01,-6.141154289245605469e+00,4.031498432159423828e-01,-6.667353820800781250e+01,-1.826883239746093750e+02,-2.342819452285766602e+00,7.562291717529296875e+01,3.135653114318847656e+01
7.035520076751708984e-01,1.000000000000000000e+00,-4.037604904174804688e+01,3.768083190917968750e+01,3.293137359619140625e+01,9.905831146240234375e+01,9.771849822998046875e+01,-6.163601398468017578e+00,4.031498432159423828e-01,-6.667353820800781250e+01,-1.826883239746093750e+02,-2.342747688293457031e+00,7.562277984619140625e+01,3.135642242431640625e+01
7.075390219688415527e-01,1.000000000000000000e+00,-4.041793060302734375e+01,3.759895706176757812e+01,3.295367813110351562e+01,9.898403930664062500e+01,9.773886871337890625e+01,-6.185370922088623047e+00,4.031498432159423828e-01,-6.667353820800781250e+01,-1.826883239746093750e+02,-2.342819452285766602e+00,7.562277984619140625e+01,3.135653114318847656e+01
7.114639878273010254e-01,1.000000000000000000e+00,-4.045972824096679688e+01,3.751701354980468750e+01,3.297598266601562500e+01,9.891071319580078125e+01,9.775934600830078125e+01,-6.207818031311035156e+00,4.031498432159423828e-01,-6.667353820800781250e+01,-1.826883239746093750e+02,-2.342819452285766602e+00,7.562277984619140625e+01,3.135653114318847656e+01
7.155629992485046387e-01,1.000000000000000000e+00,-4.050135421752929688e+01,3.743490982055664062e+01,3.299845123291015625e+01,9.883654785156250000e+01,9.778045654296875000e+01,-6.230129718780517578e+00,4.031498432159423828e-01,-6.667362213134765625e+01,-1.826883239746093750e+02,-2.342819452285766602e+00,7.562277984619140625e+01,3.135642242431640625e+01
7.195029854774475098e-01,1.000000000000000000e+00,-4.054298019409179688e+01,3.735224533081054688e+01,3.302105712890625000e+01,9.876232910156250000e+01,9.780200195312500000e+01,-6.253187656402587891e+00,4.031498432159423828e-01,-6.667353820800781250e+01,-1.826883239746093750e+02,-2.342819452285766602e+00,7.562277984619140625e+01,3.135642242431640625e+01
7.244970202445983887e-01,1.000000000000000000e+00,-4.058517837524414062e+01,3.726930618286132812e+01,3.304350662231445312e+01,9.868805694580078125e+01,9.782284545898437500e+01,-6.276584625244140625e+00,4.031498432159423828e-01,-6.667353820800781250e+01,-1.826883239746093750e+02,-2.342747688293457031e+00,7.562291717529296875e+01,3.135653114318847656e+01
7.275189757347106934e-01,1.000000000000000000e+00,-4.062720489501953125e+01,3.718622970581054688e+01,3.306576919555664062e+01,9.861389923095703125e+01,9.784268188476562500e+01,-6.299981117248535156e+00,4.031498432159423828e-01,-6.667353820800781250e+01,-1.826881713867187500e+02,-2.342747688293457031e+00,7.562291717529296875e+01,3.135653114318847656e+01
7.315490245819091797e-01,1.000000000000000000e+00,-4.066908645629882812e+01,3.710340499877929688e+01,3.308821487426757812e+01,9.854010009765625000e+01,9.786229705810546875e+01,-6.322970867156982422e+00,4.031498432159423828e-01,-6.667353820800781250e+01,-1.826883239746093750e+02,-2.342819452285766602e+00,7.562291717529296875e+01,3.135653114318847656e+01
7.365450263023376465e-01,1.000000000000000000e+00,-4.066908645629882812e+01,3.710340499877929688e+01,3.308821487426757812e+01,9.854010009765625000e+01,9.786229705810546875e+01,-6.322970867156982422e+00,4.031498432159423828e-01,-6.667362213134765625e+01,-1.826883239746093750e+02,-2.342747688293457031e+00,7.562277984619140625e+01,3.135653114318847656e+01
7.399200201034545898e-01,1.000000000000000000e+00,-4.075314331054687500e+01,3.693863677978515625e+01,3.313345336914062500e+01,9.839144897460937500e+01,9.790270996093750000e+01,-6.367594718933105469e+00,4.031498432159423828e-01,-6.667353820800781250e+01,-1.826883239746093750e+02,-2.342747688293457031e+00,7.562291717529296875e+01,3.135653114318847656e+01
7.425050139427185059e-01,1.000000000000000000e+00,-4.079505538940429688e+01,3.685651397705078125e+01,3.315597915649414062e+01,9.831739044189453125e+01,9.792382049560546875e+01,-6.390041828155517578e+00,4.031498432159423828e-01,-6.667362213134765625e+01,-1.826883239746093750e+02,-2.342891216278076172e+00,7.562291717529296875e+01,3.135653114318847656e+01
7.474780082702636719e-01,1.000000000000000000e+00,-4.083705139160156250e+01,3.677402496337890625e+01,3.317818450927734375e+01,9.824317169189453125e+01,9.794541931152343750e+01,-6.412964344024658203e+00,4.031498432159423828e-01,-6.667353820800781250e+01,-1.826883239746093750e+02,-2.342819452285766602e+00,7.562277984619140625e+01,3.135653114318847656e+01
7.525240182876586914e-01,1.000000000000000000e+00,-4.083705139160156250e+01,3.677402496337890625e+01,3.317818450927734375e+01,9.824317169189453125e+01,9.794541931152343750e+01,-6.412964344024658203e+00,4.031498432159423828e-01,-6.667353820800781250e+01,-1.826883239746093750e+02,-2.342819452285766602e+00,7.562277984619140625e+01,3.135653114318847656e+01
7.559670209884643555e-01,1.000000000000000000e+00,-4.092142105102539062e+01,3.660840225219726562e+01,3.322315597534179688e+01,9.809378814697265625e+01,9.798599243164062500e+01,-6.459690093994140625e+00,4.031498432159423828e-01,-6.667353820800781250e+01,-1.826883239746093750e+02,-2.342819452285766602e+00,7.562277984619140625e+01,3.135675048828125000e+01
7.594839930534362793e-01,1.000000000000000000e+00,-4.096353530883789062e+01,3.652521133422851562e+01,3.324582672119140625e+01,9.801905059814453125e+01,9.800592803955078125e+01,-6.483154773712158203e+00,4.031498432159423828e-01,-6.667353820800781250e+01,-1.826883239746093750e+02,-2.342891216278076172e+00,7.562291717529296875e+01,3.135675048828125000e+01
7.636550068855285645e-01,1.000000000000000000e+00,-4.096353530883789062e+01,3.652521133422851562e+01,3.324582672119140625e+01,9.801905059814453125e+01,9.800592803955078125e+01,-6.483154773712158203e+00,4.031498432159423828e-01,-6.667353820800781250e+01,-1.826883239746093750e+02,-2.342891216278076172e+00,7.562291717529296875e+01,3.135675048828125000e+01
7.684910297393798828e-01,1.000000000000000000e+00,-4.100536346435546875e+01,3.644170761108398438e+01,3.326859664916992188e+01,9.794488525390625000e+01,9.802645874023437500e+01,-6.506076812744140625e+00,4.031498432159423828e-01,-6.667353820800781250e+01,-1.826883239746093750e+02,-2.342747688293457031e+00,7.562291717529296875e+01,3.135653114318847656e+01
7.714639902114868164e-01,1.000000000000000000e+00,-4.108950042724609375e+01,3.627553558349609375e+01,3.331367492675781250e+01,9.779592132568359375e+01,9.806842041015625000e+01,-6.551174640655517578e+00,4.031498432159423828e-01,-6.667353820800781250e+01,-1.826883239746093750e+02,-2.342747688293457031e+00,7.562277984619140625e+01,3.135653114318847656e+01
7.755410075187683105e-01,1.000000000000000000e+00,-4.108950042724609375e+01,3.627553558349609375e+01,3.331367492675781250e+01,9.779592132568359375e+01,9.806842041015625000e+01,-6.551174640655517578e+00,4.031498432159423828e-01,-6.667353820800781250e+01,-1.826883239746093750e+02,-2.342747688293457031e+00,7.562277984619140625e+01,3.135653114318847656e+01
7.795569896697998047e-01,1.000000000000000000e+00,-4.113164138793945312e+01,3.619286727905273438e+01,3.333638381958007812e+01,9.772086334228515625e+01,9.808985137939453125e+01,-6.574164867401123047e+00,4.031498432159423828e-01,-6.667353820800781250e+01,-1.826883239746093750e+02,-2.342819452285766602e+00,7.562277984619140625e+01,3.135653114318847656e+01
7.835140228271484375e-01,1.000000000000000000e+00,-4.117366790771484375e+01,3.611011123657226562e+01,3.335893249511718750e+01,9.764648437500000000e+01,9.811106872558593750e+01,-6.596951007843017578e+00,4.031498432159423828e-01,-6.667343902587890625e+01,-1.826883239746093750e+02,-2.342819452285766602e+00,7.562291717529296875e+01,3.135653114318847656e+01
7.875779867172241211e-01,1.000000000000000000e+00,-4.121572494506835938e+01,3.602732849121093750e+01,3.338150024414062500e+01,9.757164001464843750e+01,9.813101196289062500e+01,-6.620076656341552734e+00,4.031498432159423828e-01,-6.667343902587890625e+01,-1.826883239746093750e+02,-2.342819452285766602e+00,7.562277984619140625e+01,3.135653114318847656e+01
7.915359735488891602e-01,1.000000000000000000e+00,-4.125766754150390625e+01,3.594437026977539062e+01,3.340412902832031250e+01,9.749705505371093750e+01,9.815105438232421875e+01,-6.643609046936035156e+00,4.031498432159423828e-01,-6.667343902587890625e+01,-1.826883239746093750e+02,-2.342819452285766602e+00,7.562291717529296875e+01,3.135653114318847656e+01
7.955129742622375488e-01,1.000000000000000000e+00,-4.129949188232421875e+01,3.586082077026367188e+01,3.342675781250000000e+01,9.742198944091796875e+01,9.817126464843750000e+01,-6.667345046997070312e+00,4.031498432159423828e-01,-6.667353820800781250e+01,-1.826883239746093750e+02,-2.342819452285766602e+00,7.562291717529296875e+01,3.135653114318847656e+01
7.996119856834411621e-01,1.000000000000000000e+00,-4.134140396118164062e+01,3.577706909179687500e+01,3.344965362548828125e+01,9.734745788574218750e+01,9.819178771972656250e+01,-6.691081047058105469e+00,4.031498432159423828e-01,-6.667353820800781250e+01,-1.826883239746093750e+02,-2.342747688293457031e+00,7.562291717529296875e+01,3.135653114318847656e+01
8.035550117492675781e-01,1.000000000000000000e+00,-4.138360214233398438e+01,3.569315338134765625e+01,3.347250747680664062e+01,9.727191925048828125e+01,9.821317291259765625e+01,-6.714070796966552734e+00,4.031498432159423828e-01,-6.667353820800781250e+01,-1.826883239746093750e+02,-2.342891216278076172e+00,7.562277984619140625e+01,3.135653114318847656e+01
8.075510263442993164e-01,1.000000000000000000e+00,-4.142554092407226562e+01,3.560942459106445312e+01,3.349531555175781250e+01,9.719749450683593750e+01,9.823492431640625000e+01,-6.736450672149658203e+00,4.031498432159423828e-01,-6.667353820800781250e+01,-1.826883239746093750e+02,-2.342747688293457031e+00,7.562291717529296875e+01,3.135653114318847656e+01
8.115069866180419922e-01,1.000000000000000000e+00,-4.146756744384765625e+01,3.552614593505859375e+01,3.351786804199218750e+01,9.712195587158203125e+01,9.825588226318359375e+01,-6.758694171905517578e+00,4.031498432159423828e-01,-6.667353820800781250e+01,-1.826881713867187500e+02,-2.342819452285766602e+00,7.562291717529296875e+01,3.135675048828125000e+01
8.155769705772399902e-01,1.000000000000000000e+00,-4.150942230224609375e+01,3.544311523437500000e+01,3.354045486450195312e+01,9.704700469970703125e+01,9.827587127685546875e+01,-6.782022953033447266e+00,4.031498432159423828e-01,-6.667353820800781250e+01,-1.826883239746093750e+02,-2.342819452285766602e+00,7.562277984619140625e+01,3.135675048828125000e+01
8.195289969444274902e-01,1.000000000000000000e+00,-4.155144882202148438e+01,3.536013412475585938e+01,3.356324768066406250e+01,9.697177886962890625e+01,9.829607391357421875e+01,-6.805691719055175781e+00,4.031498432159423828e-01,-6.667353820800781250e+01,-1.826881713867187500e+02,-2.342819452285766602e+00,7.562277984619140625e+01,3.135653114318847656e+01
8.235080242156982422e-01,1.000000000000000000e+00,-4.159356307983398438e+01,3.527674102783203125e+01,3.358612060546875000e+01,9.689677429199218750e+01,9.831671142578125000e+01,-6.828952789306640625e+00,4.031498432159423828e-01,-6.667353820800781250e+01,-1.826883239746093750e+02,-2.342819452285766602e+00,7.562277984619140625e+01,3.135675048828125000e+01
8.275290131568908691e-01,1.000000000000000000e+00,-4.163561630249023438e+01,3.519303131103515625e+01,3.360899353027343750e+01,9.682135009765625000e+01,9.833766174316406250e+01,-6.852756023406982422e+00,4.031498432159423828e-01,-6.667353820800781250e+01,-1.826881713867187500e+02,-2.342819452285766602e+00,7.562291717529296875e+01,3.135653114318847656e+01
8.315520286560058594e-01,1.000000000000000000e+00,-4.167784500122070312e+01,3.510923385620117188e+01,3.363182449340820312e+01,9.674644470214843750e+01,9.835920715332031250e+01,-6.876356601715087891e+00,4.031498432159423828e-01,-6.667353820800781250e+01,-1.826883239746093750e+02,-2.342819452285766602e+00,7.562291717529296875e+01,3.135653114318847656e+01
8.355360031127929688e-01,1.000000000000000000e+00,-4.171990203857421875e+01,3.502507400512695312e+01,3.365455627441406250e+01,9.667117309570312500e+01,9.838122558593750000e+01,-6.899549961090087891e+00,4.031498432159423828e-01,-6.667353820800781250e+01,-1.826883239746093750e+02,-2.342819452285766602e+00,7.562291717529296875e+01,3.135653114318847656e+01
8.395209908485412598e-01,1.000000000000000000e+00,-4.176218795776367188e+01,3.494071197509765625e+01,3.367741012573242188e+01,9.659584808349609375e+01,9.840233612060546875e+01,-6.922132968902587891e+00,4.031498432159423828e-01,-6.667362213134765625e+01,-1.826883239746093750e+02,-2.342819452285766602e+00,7.562277984619140625e+01,3.135642242431640625e+01
8.435559868812561035e-01,1.000000000000000000e+00,-4.180464553833007812e+01,3.485657119750976562e+01,3.370026397705078125e+01,9.652005767822265625e+01,9.842292022705078125e+01,-6.944376945495605469e+00,4.031498432159423828e-01,-6.667353820800781250e+01,-1.826883239746093750e+02,-2.342891216278076172e+00,7.562277984619140625e+01,3.135653114318847656e+01
8.475469946861267090e-01,1.000000000000000000e+00,-4.184701538085937500e+01,3.477279281616210938e+01,3.372305679321289062e+01,9.644451904296875000e+01,9.844285583496093750e+01,-6.967638015747070312e+00,4.031498432159423828e-01,-6.667353820800781250e+01,-1.826883239746093750e+02,-2.342819452285766602e+00,7.562277984619140625e+01,3.135653114318847656e+01
8.516409993171691895e-01,1.000000000000000000e+00,-4.188975906372070312e+01,3.468915557861328125e+01,3.374578475952148438e+01,9.636919403076171875e+01,9.846348571777343750e+01,-6.991306304931640625e+00,4.031498432159423828e-01,-6.667362213134765625e+01,-1.826883239746093750e+02,-2.342819452285766602e+00,7.562291717529296875e+01,3.135653114318847656e+01
8.555470108985900879e-01,1.000000000000000000e+00,-4.193207550048828125e+01,3.460535430908203125e+01,3.376860046386718750e+01,9.629366302490234375e+01,9.848476409912109375e+01,-7.014838218688964844e+00,4.031498432159423828e-01,-6.667343902587890625e+01,-1.826883239746093750e+02,-2.342819452285766602e+00,7.562291717529296875e+01,3.135653114318847656e+01
8.595929741859436035e-01,1.000000000000000000e+00,-4.197476196289062500e+01,3.452156066894531250e+01,3.379151153564453125e+01,9.621797180175781250e+01,9.850662231445312500e+01,-7.038438796997070312e+00,4.031498432159423828e-01,-6.667353820800781250e+01,-1.826883239746093750e+02,-2.342747688293457031e+00,7.562277984619140625e+01,3.135653114318847656e+01
8.636360168457031250e-01,1.000000000000000000e+00,-4.201747512817382812e+01,3.443758010864257812e+01,3.381444549560546875e+01,9.614206695556640625e+01,9.852842712402343750e+01,-7.061835765838623047e+00,4.031498432159423828e-01,-6.667353820800781250e+01,-1.826883239746093750e+02,-2.342819452285766602e+00,7.562277984619140625e+01,3.135653114318847656e+01
8.675349950790405273e-01,1.000000000000000000e+00,-4.206031036376953125e+01,3.435314559936523438e+01,3.383723831176757812e+01,9.606647491455078125e+01,9.854981231689453125e+01,-7.085096836090087891e+00,4.031498432159423828e-01,-6.667353820800781250e+01,-1.826883239746093750e+02,-2.342819452285766602e+00,7.562291717529296875e+01,3.135653114318847656e+01
8.715339899063110352e-01,1.000000000000000000e+00,-4.210305404663085938e+01,3.426835250854492188e+01,3.385997009277343750e+01,9.599078369140625000e+01,9.857012176513671875e+01,-7.107679843902587891e+00,4.031498432159423828e-01,-6.667353820800781250e+01,-1.826883239746093750e+02,-2.342819452285766602e+00,7.562277984619140625e+01,3.135653114318847656e+01
8.755800127983093262e-01,1.000000000000000000e+00,-4.214608383178710938e+01,3.418362426757812500e+01,3.388292312622070312e+01,9.591487884521484375e+01,9.859069824218750000e+01,-7.130465984344482422e+00,4.030399620532989502e-01,-6.667353820800781250e+01,-1.826881713867187500e+02,-2.342819452285766602e+00,7.562299346923828125e+01,3.135653114318847656e+01
8.795260190963745117e-01,1.000000000000000000e+00,-4.218894195556640625e+01,3.409901428222656250e+01,3.390599822998046875e+01,9.583882141113281250e+01,9.861160278320312500e+01,-7.153659343719482422e+00,4.031498432159423828e-01,-6.667353820800781250e+01,-1.826883239746093750e+02,-2.342819452285766602e+00,7.562277984619140625e+01,3.135653114318847656e+01
8.842149972915649414e-01,1.000000000000000000e+00,-4.223191833496093750e+01,3.401476287841796875e+01,3.392901611328125000e+01,9.576333618164062500e+01,9.863298034667968750e+01,-7.177191734313964844e+00,4.031498432159423828e-01,-6.667353820800781250e+01,-1.826883239746093750e+02,-2.342819452285766602e+00,7.562277984619140625e+01,3.135653114318847656e+01
8.878399729728698730e-01,1.000000000000000000e+00,-4.227497863769531250e+01,3.393096160888671875e+01,3.395203018188476562e+01,9.568732452392578125e+01,9.865473175048828125e+01,-7.201131820678710938e+00,4.031498432159423828e-01,-6.667362213134765625e+01,-1.826883239746093750e+02,-2.342819452285766602e+00,7.562277984619140625e+01,3.135653114318847656e+01
8.915169835090637207e-01,1.000000000000000000e+00,-4.231812286376953125e+01,3.384718704223632812e+01,3.397492599487304688e+01,9.561141967773437500e+01,9.867675781250000000e+01,-7.224935054779052734e+00,4.031498432159423828e-01,-6.667353820800781250e+01,-1.826883239746093750e+02,-2.342819452285766602e+00,7.562291717529296875e+01,3.135653114318847656e+01
8.955140113830566406e-01,1.000000000000000000e+00,-4.236115646362304688e+01,3.376313781738281250e+01,3.399798202514648438e+01,9.553510284423828125e+01,9.869797515869140625e+01,-7.247992992401123047e+00,4.031498432159423828e-01,-6.667353820800781250e+01,-1.826883239746093750e+02,-2.342819452285766602e+00,7.562277984619140625e+01,3.135653114318847656e+01
8.995950222015380859e-01,1.000000000000000000e+00,-4.240430068969726562e+01,3.367845916748046875e+01,3.402101516723632812e+01,9.545925140380859375e+01,9.871829223632812500e+01,-7.271457195281982422e+00,4.031498432159423828e-01,-6.667353820800781250e+01,-1.826881713867187500e+02,-2.342747688293457031e+00,7.562291717529296875e+01,3.135653114318847656e+01
9.035149812698364258e-01,1.000000000000000000e+00,-4.244727706909179688e+01,3.359370803833007812e+01,3.404393005371093750e+01,9.538307952880859375e+01,9.873854827880859375e+01,-7.293701171875000000e+00,4.031498432159423828e-01,-6.667353820800781250e+01,-1.826883239746093750e+02,-2.342819452285766602e+00,7.562277984619140625e+01,3.135653114318847656e+01
9.082580208778381348e-01,1.000000000000000000e+00,-4.249062347412109375e+01,3.350868988037109375e+01,3.406696701049804688e+01,9.530691528320312500e+01,9.875939178466796875e+01,-7.316826343536376953e+00,4.031498432159423828e-01,-6.667362213134765625e+01,-1.826883239746093750e+02,-2.342819452285766602e+00,7.562277984619140625e+01,3.135653114318847656e+01
9.119420051574707031e-01,1.000000000000000000e+00,-4.253356933593750000e+01,3.342364501953125000e+01,3.409008407592773438e+01,9.523074340820312500e+01,9.878088378906250000e+01,-7.339884281158447266e+00,4.031498432159423828e-01,-6.667353820800781250e+01,-1.826883239746093750e+02,-2.342747688293457031e+00,7.562277984619140625e+01,3.135653114318847656e+01
9.155169725418090820e-01,1.000000000000000000e+00,-4.257665634155273438e+01,3.333892059326171875e+01,3.411338424682617188e+01,9.515437316894531250e+01,9.880300140380859375e+01,-7.363620281219482422e+00,4.030399620532989502e-01,-6.667343902587890625e+01,-1.826883239746093750e+02,-2.342819452285766602e+00,7.562277984619140625e+01,3.135642242431640625e+01
9.195290207862854004e-01,1.000000000000000000e+00,-4.261971664428710938e+01,3.325453186035156250e+01,3.413656234741210938e+01,9.507836914062500000e+01,9.882508087158203125e+01,-7.387220859527587891e+00,4.030399620532989502e-01,-6.667343902587890625e+01,-1.826884307861328125e+02,-2.342819452285766602e+00,7.562291717529296875e+01,3.135653114318847656e+01
9.235799908638000488e-01,1.000000000000000000e+00,-4.266300964355468750e+01,3.316989517211914062e+01,3.415958023071289062e+01,9.500193786621093750e+01,9.884592437744140625e+01,-7.411228179931640625e+00,4.031498432159423828e-01,-6.667353820800781250e+01,-1.826881713867187500e+02,-2.342747688293457031e+00,7.562277984619140625e+01,3.135642242431640625e+01
9.276689887046813965e-01,1.000000000000000000e+00,-4.270601272583007812e+01,3.308535003662109375e+01,3.418251037597656250e+01,9.492581939697265625e+01,9.886618041992187500e+01,-7.435099601745605469e+00,4.031498432159423828e-01,-6.667353820800781250e+01,-1.826883239746093750e+02,-2.342891216278076172e+00,7.562277984619140625e+01,3.135642242431640625e+01
9.322050213813781738e-01,1.000000000000000000e+00,-4.274892425537109375e+01,3.300073623657226562e+01,3.420554733276367188e+01,9.484928131103515625e+01,9.888703918457031250e+01,-7.458292484283447266e+00,4.033146500587463379e-01,-6.667343902587890625e+01,-1.826883239746093750e+02,-2.342819452285766602e+00,7.562291717529296875e+01,3.135642242431640625e+01
9.360780119895935059e-01,1.000000000000000000e+00,-4.279204559326171875e+01,3.291558074951171875e+01,3.422876739501953125e+01,9.477317047119140625e+01,9.890820312500000000e+01,-7.481147289276123047e+00,4.031498432159423828e-01,-6.667343902587890625e+01,-1.826884307861328125e+02,-2.342819452285766602e+00,7.562291717529296875e+01,3.135653114318847656e+01
9.396880269050598145e-01,1.000000000000000000e+00,-4.283541870117187500e+01,3.283001708984375000e+01,3.425204849243164062e+01,9.469605255126953125e+01,9.892974090576171875e+01,-7.504272460937500000e+00,4.031498432159423828e-01,-6.667353820800781250e+01,-1.826883239746093750e+02,-2.342819452285766602e+00,7.562277984619140625e+01,3.135653114318847656e+01
9.436929821968078613e-01,1.000000000000000000e+00,-4.287842178344726562e+01,3.274413681030273438e+01,3.427530670166015625e+01,9.461957550048828125e+01,9.895186614990234375e+01,-7.527736663818359375e+00,4.031498432159423828e-01,-6.667362213134765625e+01,-1.826883239746093750e+02,-2.342819452285766602e+00,7.562277984619140625e+01,3.135653114318847656e+01
9.478840231895446777e-01,1.000000000000000000e+00,-4.292142486572265625e+01,3.265830230712890625e+01,3.429848480224609375e+01,9.454272460937500000e+01,9.897377777099609375e+01,-7.551676750183105469e+00,4.031498432159423828e-01,-6.667343902587890625e+01,-1.826883239746093750e+02,-2.342819452285766602e+00,7.562277984619140625e+01,3.135653114318847656e+01
9.517379999160766602e-01,1.000000000000000000e+00,-4.296437072753906250e+01,3.257289505004882812e+01,3.432166290283203125e+01,9.446665954589843750e+01,9.899494934082031250e+01,-7.575615406036376953e+00,4.031498432159423828e-01,-6.667353820800781250e+01,-1.826883239746093750e+02,-2.342819452285766602e+00,7.562277984619140625e+01,3.135653114318847656e+01
9.556559920310974121e-01,1.000000000000000000e+00,-4.300763320922851562e+01,3.248789596557617188e+01,3.434504318237304688e+01,9.438980865478515625e+01,9.901531219482421875e+01,-7.599894523620605469e+00,4.031498432159423828e-01,-6.667353820800781250e+01,-1.826881713867187500e+02,-2.342747688293457031e+00,7.562291717529296875e+01,3.135653114318847656e+01
9.603300094604492188e-01,1.000000000000000000e+00,-4.305077743530273438e+01,3.240296936035156250e+01,3.436818313598632812e+01,9.431327819824218750e+01,9.903572845458984375e+01,-7.623426914215087891e+00,4.031498432159423828e-01,-6.667353820800781250e+01,-1.826883239746093750e+02,-2.342747688293457031e+00,7.562291717529296875e+01,3.135653114318847656e+01
9.638080000877380371e-01,1.000000000000000000e+00,-4.309392547607421875e+01,3.231797027587890625e+01,3.439119720458984375e+01,9.423657989501953125e+01,9.905657958984375000e+01,-7.646552085876464844e+00,4.031498432159423828e-01,-6.667353820800781250e+01,-1.826883239746093750e+02,-2.342819452285766602e+00,7.562291717529296875e+01,3.135653114318847656e+01
9.678030014038085938e-01,1.000000000000000000e+00,-4.313701248168945312e+01,3.223256301879882812e+01,3.441423416137695312e+01,9.415967559814453125e+01,9.907859802246093750e+01,-7.669474601745605469e+00,4.031498432159423828e-01,-6.667353820800781250e+01,-1.826883239746093750e+02,-2.342891216278076172e+00,7.562291717529296875e+01,3.135653114318847656e+01
9.717469811439514160e-01,1.000000000000000000e+00,-4.318030166625976562e+01,3.214686584472656250e+01,3.443761444091796875e+01,9.408266448974609375e+01,9.910099029541015625e+01,-7.693006992340087891e+00,4.031498432159423828e-01,-6.667353820800781250e+01,-1.826883239746093750e+02,-2.342747688293457031e+00,7.562277984619140625e+01,3.135653114318847656e+01
9.758639931678771973e-01,1.000000000000000000e+00,-4.322344970703125000e+01,3.206078338623046875e+01,3.446107864379882812e+01,9.400576019287109375e+01,9.912284851074218750e+01,-7.716675281524658203e+00,4.031498432159423828e-01,-6.667353820800781250e+01,-1.826883239746093750e+02,-2.342819452285766602e+00,7.562291717529296875e+01,3.135653114318847656e+01
9.809949994087219238e-01,1.000000000000000000e+00,-4.326679611206054688e+01,3.197451591491699219e+01,3.448450088500976562e+01,9.392911529541015625e+01,9.914353942871093750e+01,-7.740682601928710938e+00,4.031498432159423828e-01,-6.667353820800781250e+01,-1.826881713867187500e+02,-2.342819452285766602e+00,7.562277984619140625e+01,3.135642242431640625e+01
9.845529794692993164e-01,1.000000000000000000e+00,-4.331002807617187500e+01,3.188861274719238281e+01,3.450770187377929688e+01,9.385184478759765625e+01,9.916406250000000000e+01,-7.765096187591552734e+00,4.031498432159423828e-01,-6.667353820800781250e+01,-1.826883239746093750e+02,-2.342819452285766602e+00,7.562277984619140625e+01,3.135642242431640625e+01
9.880939722061157227e-01,1.000000000000000000e+00,-4.335337448120117188e+01,3.180298042297363281e+01,3.453083801269531250e+01,9.377483367919921875e+01,9.918527984619140625e+01,-7.789374828338623047e+00,4.031498432159423828e-01,-6.667353820800781250e+01,-1.826883239746093750e+02,-2.342747688293457031e+00,7.562291717529296875e+01,3.135653114318847656e+01
9.919390082359313965e-01,1.000000000000000000e+00,-4.339692687988281250e+01,3.171750640869140625e+01,3.455421829223632812e+01,9.369730377197265625e+01,9.920666503906250000e+01,-7.813246250152587891e+00,4.031498432159423828e-01,-6.667353820800781250e+01,-1.826883239746093750e+02,-2.342819452285766602e+00,7.562291717529296875e+01,3.135642242431640625e+01
9.960929751396179199e-01,1.000000000000000000e+00,-4.344055938720703125e+01,3.163237571716308594e+01,3.457762145996093750e+01,9.362044525146484375e+01,9.922846984863281250e+01,-7.836575031280517578e+00,4.031498432159423828e-01,-6.667353820800781250e+01,-1.826883239746093750e+02,-2.342819452285766602e+00,7.562291717529296875e+01,3.135653114318847656e+01
1.000102043151855469e+00,1.000000000000000000e+00,-4.348419570922851562e+01,3.154696655273437500e+01,3.460102081298828125e+01,9.354307556152343750e+01,9.925102233886718750e+01,-7.859836101531982422e+00,4.031498432159423828e-01,-6.667353820800781250e+01,-1.826883239746093750e+02,-2.342747688293457031e+00,7.562291717529296875e+01,3.135653114318847656e+01
1.004016995429992676e+00,1.000000000000000000e+00,-4.352777099609375000e+01,3.146108818054199219e+01,3.462446594238281250e+01,9.346622467041015625e+01,9.927336883544921875e+01,-7.883301258087158203e+00,4.031498432159423828e-01,-6.667353820800781250e+01,-1.826883239746093750e+02,-2.342891216278076172e+00,7.562277984619140625e+01,3.135653114318847656e+01
1.008779048919677734e+00,1.000000000000000000e+00,-4.357151794433593750e+01,3.137491416931152344e+01,3.464780426025390625e+01,9.338837432861328125e+01,9.929399108886718750e+01,-7.907104492187500000e+00,4.031498432159423828e-01,-6.667353820800781250e+01,-1.826883239746093750e+02,-2.342819452285766602e+00,7.562277984619140625e+01,3.135653114318847656e+01
1.012253999710083008e+00,1.000000000000000000e+00,-4.361506652832031250e+01,3.128826332092285156e+01,3.467126846313476562e+01,9.331140899658203125e+01,9.931462860107421875e+01,-7.931315422058105469e+00,4.031498432159423828e-01,-6.667362213134765625e+01,-1.826883239746093750e+02,-2.342819452285766602e+00,7.562291717529296875e+01,3.135642242431640625e+01
1.016198039054870605e+00,1.000000000000000000e+00,-4.365890502929687500e+01,3.120179367065429688e+01,3.469485473632812500e+01,9.323387908935546875e+01,9.933542633056640625e+01,-7.955661773681640625e+00,4.031498432159423828e-01,-6.667353820800781250e+01,-1.826884307861328125e+02,-2.342819452285766602e+00,7.562277984619140625e+01,3.135653114318847656e+01
1.020151019096374512e+00,1.000000000000000000e+00,-4.370282745361328125e+01,3.111537170410156250e+01,3.471827697753906250e+01,9.315681457519531250e+01,9.935691070556640625e+01,-7.979872226715087891e+00,4.031498432159423828e-01,-6.667353820800781250e+01,-1.826881713867187500e+02,-2.342819452285766602e+00,7.562277984619140625e+01,3.135653114318847656e+01
1.024356007575988770e+00,1.000000000000000000e+00,-4.374668884277343750e+01,3.102933120727539062e+01,3.474161911010742188e+01,9.307869720458984375e+01,9.937924957275390625e+01,-8.003744125366210938e+00,4.031498432159423828e-01,-6.667353820800781250e+01,-1.826883239746093750e+02,-2.342819452285766602e+00,7.562291717529296875e+01,3.135653114318847656e+01
1.028162002563476562e+00,1.000000000000000000e+00,-4.379058456420898438e+01,3.094381332397460938e+01,3.476501846313476562e+01,9.300137329101562500e+01,9.940158843994140625e+01,-8.027071952819824219e+00,4.031498432159423828e-01,-6.667353820800781250e+01,-1.826883239746093750e+02,-2.342819452285766602e+00,7.562277984619140625e+01,3.135653114318847656e+01
1.032953023910522461e+00,1.000000000000000000e+00,-4.383444595336914062e+01,3.085802268981933594e+01,3.478856277465820312e+01,9.292362213134765625e+01,9.942333984375000000e+01,-8.050198554992675781e+00,4.031498432159423828e-01,-6.667353820800781250e+01,-1.826883239746093750e+02,-2.342891216278076172e+00,7.562277984619140625e+01,3.135642242431640625e+01
1.036419034004211426e+00,1.000000000000000000e+00,-4.387842559814453125e+01,3.077191543579101562e+01,3.481216812133789062e+01,9.284614562988281250e+01,9.944424438476562500e+01,-8.073865890502929688e+00,4.031498432159423828e-01,-6.667362213134765625e+01,-1.826883239746093750e+02,-2.342747688293457031e+00,7.562291717529296875e+01,3.135642242431640625e+01
1.040382027626037598e+00,1.000000000000000000e+00,-4.392240142822265625e+01,3.068544769287109375e+01,3.483573150634765625e+01,9.276813507080078125e+01,9.946503448486328125e+01,-8.097737312316894531e+00,4.031498432159423828e-01,-6.667353820800781250e+01,-1.826884307861328125e+02,-2.342891216278076172e+00,7.562277984619140625e+01,3.135653114318847656e+01
1.044579029083251953e+00,1.000000000000000000e+00,-4.396641159057617188e+01,3.059854698181152344e+01,3.485905075073242188e+01,9.269027709960937500e+01,9.948646545410156250e+01,-8.122083663940429688e+00,4.031498432159423828e-01,-6.667353820800781250e+01,-1.826883239746093750e+02,-2.342819452285766602e+00,7.562291717529296875e+01,3.135675048828125000e+01
1.048557043075561523e+00,1.000000000000000000e+00,-4.401044845581054688e+01,3.051137733459472656e+01,3.488259506225585938e+01,9.261258697509765625e+01,9.950816345214843750e+01,-8.146226882934570312e+00,4.031498432159423828e-01,-6.667362213134765625e+01,-1.826883239746093750e+02,-2.342819452285766602e+00,7.562291717529296875e+01,3.135675048828125000e+01
1.053115963935852051e+00,1.000000000000000000e+00,-4.405439758300781250e+01,3.042423057556152344e+01,3.490636444091796875e+01,9.253473663330078125e+01,9.953087615966796875e+01,-8.170911788940429688e+00,4.031498432159423828e-01,-6.667353820800781250e+01,-1.826881713867187500e+02,-2.342819452285766602e+00,7.562277984619140625e+01,3.135653114318847656e+01
1.057085990905761719e+00,1.000000000000000000e+00,-4.409814834594726562e+01,3.033749198913574219e+01,3.493001174926757812e+01,9.245693206787109375e+01,9.955337524414062500e+01,-8.194444656372070312e+00,4.031498432159423828e-01,-6.667353820800781250e+01,-1.826883239746093750e+02,-2.342819452285766602e+00,7.562291717529296875e+01,3.135653114318847656e+01
1.060616970062255859e+00,1.000000000000000000e+00,-4.414192581176757812e+01,3.025115776062011719e+01,3.495367813110351562e+01,9.237871551513671875e+01,9.957476043701171875e+01,-8.217502593994140625e+00,4.031498432159423828e-01,-6.667353820800781250e+01,-1.826883239746093750e+02,-2.342819452285766602e+00,7.562291717529296875e+01,3.135642242431640625e+01
1.064609050750732422e+00,1.000000000000000000e+00,-4.418604660034179688e+01,3.016480064392089844e+01,3.497724151611328125e+01,9.230107116699218750e+01,9.959566497802734375e+01,-8.240899085998535156e+00,4.031498432159423828e-01,-6.667353820800781250e+01,-1.826883239746093750e+02,-2.342819452285766602e+00,7.562291717529296875e+01,3.135653114318847656e+01
1.068585991859436035e+00,1.000000000000000000e+00,-4.422996902465820312e+01,3.007851409912109375e+01,3.500072479248046875e+01,9.222301483154296875e+01,9.961650848388671875e+01,-8.264770507812500000e+00,4.031498432159423828e-01,-6.667353820800781250e+01,-1.826883239746093750e+02,-2.342891216278076172e+00,7.562277984619140625e+01,3.135653114318847656e+01
1.072638988494873047e+00,1.000000000000000000e+00,-4.427374649047851562e+01,2.999195098876953125e+01,3.502443313598632812e+01,9.214452362060546875e+01,9.963793945312500000e+01,-8.289185523986816406e+00,4.031498432159423828e-01,-6.667343902587890625e+01,-1.826883239746093750e+02,-2.342819452285766602e+00,7.562291717529296875e+01,3.135653114318847656e+01
1.077350020408630371e+00,1.000000000000000000e+00,-4.431752395629882812e+01,2.990471649169921875e+01,3.504795455932617188e+01,9.206625366210937500e+01,9.965990447998046875e+01,-8.313463211059570312e+00,4.031498432159423828e-01,-6.667343902587890625e+01,-1.826883239746093750e+02,-2.342819452285766602e+00,7.562291717529296875e+01,3.135653114318847656e+01
1.081205964088439941e+00,1.000000000000000000e+00,-4.436150360107421875e+01,2.981713676452636719e+01,3.507160186767578125e+01,9.198823547363281250e+01,9.968251037597656250e+01,-8.338283538818359375e+00,4.031498432159423828e-01,-6.667353820800781250e+01,-1.826883239746093750e+02,-2.342819452285766602e+00,7.562277984619140625e+01,3.135653114318847656e+01
1.084823012351989746e+00,1.000000000000000000e+00,-4.440519332885742188e+01,2.972969627380371094e+01,3.509524536132812500e+01,9.191054534912109375e+01,9.970468902587890625e+01,-8.362359046936035156e+00,4.030399620532989502e-01,-6.667353820800781250e+01,-1.826884307861328125e+02,-2.342819452285766602e+00,7.562291717529296875e+01,3.135642242431640625e+01
1.088767051696777344e+00,1.000000000000000000e+00,-4.444908905029296875e+01,2.964222908020019531e+01,3.511897659301757812e+01,9.183169555664062500e+01,9.972586059570312500e+01,-8.385824203491210938e+00,4.031498432159423828e-01,-6.667353820800781250e+01,-1.826883239746093750e+02,-2.342747688293457031e+00,7.562277984619140625e+01,3.135653114318847656e+01
1.092800021171569824e+00,1.000000000000000000e+00,-4.449312210083007812e+01,2.955528831481933594e+01,3.514282226562500000e+01,9.175362396240234375e+01,9.974686431884765625e+01,-8.409152984619140625e+00,4.031498432159423828e-01,-6.667353820800781250e+01,-1.826881713867187500e+02,-2.342891216278076172e+00,7.562277984619140625e+01,3.135653114318847656e+01
1.096801042556762695e+00,1.000000000000000000e+00,-4.453678894042968750e+01,2.946892929077148438e+01,3.516651153564453125e+01,9.167488098144531250e+01,9.976813507080078125e+01,-8.432956695556640625e+00,4.031498432159423828e-01,-6.667362213134765625e+01,-1.826883239746093750e+02,-2.342819452285766602e+00,7.562277984619140625e+01,3.135653114318847656e+01
1.099478960037231445e+00,1.000000000000000000e+00,-4.458068084716796875e+01,2.938234710693359375e+01,3.519001388549804688e+01,9.159708404541015625e+01,9.978967285156250000e+01,-8.456828117370605469e+00,4.031498432159423828e-01,-6.667362213134765625e+01,-1.826883239746093750e+02,-2.342891216278076172e+00,7.562277984619140625e+01,3.135653114318847656e+01
1.103477001190185547e+00,1.000000000000000000e+00,-4.462437057495117188e+01,2.929542541503906250e+01,3.521358108520507812e+01,9.151811981201171875e+01,9.981191253662109375e+01,-8.480902671813964844e+00,4.031498432159423828e-01,-6.667353820800781250e+01,-1.826883239746093750e+02,-2.342819452285766602e+00,7.562291717529296875e+01,3.135653114318847656e+01
1.107516050338745117e+00,1.000000000000000000e+00,-4.466829299926757812e+01,2.920828056335449219e+01,3.523740768432617188e+01,9.144017028808593750e+01,9.983467864990234375e+01,-8.505384445190429688e+00,4.031498432159423828e-01,-6.667343902587890625e+01,-1.826883239746093750e+02,-2.342819452285766602e+00,7.562277984619140625e+01,3.135653114318847656e+01
1.111479997634887695e+00,1.000000000000000000e+00,-4.471218490600585938e+01,2.912081527709960938e+01,3.526119613647460938e+01,9.136136627197265625e+01,9.985685729980468750e+01,-8.530476570129394531e+00,4.031498432159423828e-01,-6.667353820800781250e+01,-1.826883239746093750e+02,-2.342747688293457031e+00,7.562291717529296875e+01,3.135653114318847656e+01
1.115450978279113770e+00,1.000000000000000000e+00,-4.475624847412109375e+01,2.903278541564941406e+01,3.528516769409179688e+01,9.128304290771484375e+01,9.987807464599609375e+01,-8.554891586303710938e+00,4.031498432159423828e-01,-6.667353820800781250e+01,-1.826883239746093750e+02,-2.342747688293457031e+00,7.562277984619140625e+01,3.135653114318847656e+01
