rpiRobotics/ARM-21-02-F-19-Robot-Motion-Program/data_performance_abb/curve_1/curve_pose_opt1/greedy0.02/grad_result/real/run_3.csv
timestamp,cmd_num,J1,J2,J3,J4,J5,J6
1.519999932497739792e-04,-1.000000000000000000e+00,-3.467605590820312500e+01,4.892507171630859375e+01,2.986680221557617188e+01,1.091834182739257812e+02,9.491098022460937500e+01,-3.052978754043579102e+00,4.031498432159423828e-01,-6.667343902587890625e+01,-1.826883239746093750e+02,-2.342819452285766602e+00,7.562291717529296875e+01,3.135653114318847656e+01
5.026999861001968384e-03,1.000000000000000000e+00,-3.467608261108398438e+01,4.892502975463867188e+01,2.986686325073242188e+01,1.091834182739257812e+02,9.491103363037109375e+01,-3.052842855453491211e+00,4.031498432159423828e-01,-6.667353820800781250e+01,-1.826881713867187500e+02,-2.342747688293457031e+00,7.562291717529296875e+01,3.135653114318847656e+01
8.693999610841274261e-03,1.000000000000000000e+00,-3.467608261108398438e+01,4.892507171630859375e+01,2.986680221557617188e+01,1.091834182739257812e+02,9.491098022460937500e+01,-3.052842855453491211e+00,4.031498432159423828e-01,-6.667343902587890625e+01,-1.826883239746093750e+02,-2.342603921890258789e+00,7.562291717529296875e+01,3.135642242431640625e+01
1.283800043165683746e-02,1.000000000000000000e+00,-3.467605590820312500e+01,4.892507171630859375e+01,2.986680221557617188e+01,1.091834182739257812e+02,9.491092681884765625e+01,-3.052842855453491211e+00,4.031498432159423828e-01,-6.667353820800781250e+01,-1.826883239746093750e+02,-2.342819452285766602e+00,7.562299346923828125e+01,3.135653114318847656e+01
3.647400066256523132e-02,1.000000000000000000e+00,-3.467605590820312500e+01,4.892507171630859375e+01,2.986680221557617188e+01,1.091832580566406250e+02,9.491092681884765625e+01,-3.052978754043579102e+00,4.031498432159423828e-01,-6.667362213134765625e+01,-1.826883239746093750e+02,-2.342747688293457031e+00,7.562299346923828125e+01,3.135653114318847656e+01
3.822899982333183289e-02,1.000000000000000000e+00,-3.467605590820312500e+01,4.892507171630859375e+01,2.986680221557617188e+01,1.091832580566406250e+02,9.491092681884765625e+01,-3.052978754043579102e+00,4.031498432159423828e-01,-6.667362213134765625e+01,-1.826883239746093750e+02,-2.342747688293457031e+00,7.562299346923828125e+01,3.135653114318847656e+01
4.262699931859970093e-02,1.000000000000000000e+00,-3.467605590820312500e+01,4.892507171630859375e+01,2.986686325073242188e+01,1.091832580566406250e+02,9.491092681884765625e+01,-3.052842855453491211e+00,4.031498432159423828e-01,-6.667353820800781250e+01,-1.826881713867187500e+02,-2.342819452285766602e+00,7.562291717529296875e+01,3.135653114318847656e+01
4.920199885964393616e-02,1.000000000000000000e+00,-3.467608261108398438e+01,4.892502975463867188e+01,2.986686325073242188e+01,1.091832580566406250e+02,9.491092681884765625e+01,-3.052842855453491211e+00,4.031498432159423828e-01,-6.667353820800781250e+01,-1.826883239746093750e+02,-2.342747688293457031e+00,7.562291717529296875e+01,3.135653114318847656e+01
5.057200044393539429e-02,1.000000000000000000e+00,-3.467608261108398438e+01,4.892502975463867188e+01,2.986686325073242188e+01,1.091832580566406250e+02,9.491092681884765625e+01,-3.052842855453491211e+00,4.031498432159423828e-01,-6.667353820800781250e+01,-1.826883239746093750e+02,-2.342747688293457031e+00,7.562291717529296875e+01,3.135653114318847656e+01
5.380500108003616333e-02,1.000000000000000000e+00,-3.467616653442382812e+01,4.892502975463867188e+01,2.986680221557617188e+01,1.091832580566406250e+02,9.491114044189453125e+01,-3.052978754043579102e+00,4.031498432159423828e-01,-6.667353820800781250e+01,-1.826883239746093750e+02,-2.342747688293457031e+00,7.562299346923828125e+01,3.135653114318847656e+01
5.511600151658058167e-02,1.000000000000000000e+00,-3.467616653442382812e+01,4.892502975463867188e+01,2.986680221557617188e+01,1.091832580566406250e+02,9.491114044189453125e+01,-3.052978754043579102e+00,4.031498432159423828e-01,-6.667353820800781250e+01,-1.826883239746093750e+02,-2.342747688293457031e+00,7.562299346923828125e+01,3.135653114318847656e+01
6.028699874877929688e-02,1.000000000000000000e+00,-3.467639923095703125e+01,4.892486572265625000e+01,2.986686325073242188e+01,1.091832580566406250e+02,9.491098022460937500e+01,-3.052978754043579102e+00,4.031498432159423828e-01,-6.667353820800781250e+01,-1.826883239746093750e+02,-2.342747688293457031e+00,7.562291717529296875e+01,3.135653114318847656e+01
6.197100132703781128e-02,1.000000000000000000e+00,-3.467711639404296875e+01,4.892450714111328125e+01,2.986686325073242188e+01,1.091832580566406250e+02,9.491098022460937500e+01,-3.052978754043579102e+00,4.031498432159423828e-01,-6.667353820800781250e+01,-1.826883239746093750e+02,-2.342747688293457031e+00,7.562291717529296875e+01,3.135675048828125000e+01
6.447699666023254395e-02,1.000000000000000000e+00,-3.467711639404296875e+01,4.892450714111328125e+01,2.986686325073242188e+01,1.091832580566406250e+02,9.491098022460937500e+01,-3.052978754043579102e+00,4.031498432159423828e-01,-6.667353820800781250e+01,-1.826883239746093750e+02,-2.342747688293457031e+00,7.562291717529296875e+01,3.135675048828125000e+01
6.591600179672241211e-02,1.000000000000000000e+00,-3.467834854125976562e+01,4.892364883422851562e+01,2.986686325073242188e+01,1.091832580566406250e+02,9.491098022460937500e+01,-3.052978754043579102e+00,4.031498432159423828e-01,-6.667353820800781250e+01,-1.826883239746093750e+02,-2.342603921890258789e+00,7.562299346923828125e+01,3.135653114318847656e+01
6.916999816894531250e-02,1.000000000000000000e+00,-3.468030166625976562e+01,4.892172241210937500e+01,2.986686325073242188e+01,1.091832580566406250e+02,9.491103363037109375e+01,-3.052842855453491211e+00,4.031498432159423828e-01,-6.667353820800781250e+01,-1.826883239746093750e+02,-2.342747688293457031e+00,7.562291717529296875e+01,3.135653114318847656e+01
7.044800370931625366e-02,1.000000000000000000e+00,-3.468030166625976562e+01,4.892172241210937500e+01,2.986686325073242188e+01,1.091832580566406250e+02,9.491103363037109375e+01,-3.052842855453491211e+00,4.031498432159423828e-01,-6.667353820800781250e+01,-1.826883239746093750e+02,-2.342747688293457031e+00,7.562291717529296875e+01,3.135653114318847656e+01
7.364799827337265015e-02,1.000000000000000000e+00,-3.468282699584960938e+01,4.891867065429687500e+01,2.986686325073242188e+01,1.091832580566406250e+02,9.491103363037109375e+01,-3.052978754043579102e+00,4.031498432159423828e-01,-6.667353820800781250e+01,-1.826883239746093750e+02,-2.342819452285766602e+00,7.562291717529296875e+01,3.135653114318847656e+01
7.496800273656845093e-02,1.000000000000000000e+00,-3.468282699584960938e+01,4.891867065429687500e+01,2.986686325073242188e+01,1.091832580566406250e+02,9.491103363037109375e+01,-3.052978754043579102e+00,4.031498432159423828e-01,-6.667353820800781250e+01,-1.826883239746093750e+02,-2.342819452285766602e+00,7.562291717529296875e+01,3.135653114318847656e+01
7.903199642896652222e-02,1.000000000000000000e+00,-3.468590164184570312e+01,4.891395950317382812e+01,2.986686325073242188e+01,1.091829910278320312e+02,9.491114044189453125e+01,-3.052842855453491211e+00,4.031498432159423828e-01,-6.667353820800781250e+01,-1.826883239746093750e+02,-2.342747688293457031e+00,7.562291717529296875e+01,3.135675048828125000e+01
8.179499953985214233e-02,1.000000000000000000e+00,-3.468951797485351562e+01,4.890730667114257812e+01,2.986700630187988281e+01,1.091819381713867188e+02,9.491114044189453125e+01,-3.052842855453491211e+00,4.031498432159423828e-01,-6.667353820800781250e+01,-1.826883239746093750e+02,-2.342747688293457031e+00,7.562299346923828125e+01,3.135653114318847656e+01
8.306200057268142700e-02,1.000000000000000000e+00,-3.468951797485351562e+01,4.890730667114257812e+01,2.986700630187988281e+01,1.091819381713867188e+02,9.491114044189453125e+01,-3.052842855453491211e+00,4.031498432159423828e-01,-6.667353820800781250e+01,-1.826883239746093750e+02,-2.342747688293457031e+00,7.562299346923828125e+01,3.135653114318847656e+01
8.692999929189682007e-02,1.000000000000000000e+00,-3.469390869140625000e+01,4.889879989624023438e+01,2.986743354797363281e+01,1.091791992187500000e+02,9.491135406494140625e+01,-3.053114175796508789e+00,4.031498432159423828e-01,-6.667353820800781250e+01,-1.826881713867187500e+02,-2.342603921890258789e+00,7.562291717529296875e+01,3.135653114318847656e+01
9.064599871635437012e-02,1.000000000000000000e+00,-3.469890594482421875e+01,4.888843536376953125e+01,2.986820602416992188e+01,1.091748809814453125e+02,9.491177368164062500e+01,-3.053724765777587891e+00,4.031498432159423828e-01,-6.667362213134765625e+01,-1.826883239746093750e+02,-2.342747688293457031e+00,7.562291717529296875e+01,3.135653114318847656e+01
9.304799884557723999e-02,1.000000000000000000e+00,-3.470495986938476562e+01,4.887625885009765625e+01,2.986934280395507812e+01,1.091694564819335938e+02,9.491289520263671875e+01,-3.055012941360473633e+00,4.031498432159423828e-01,-6.667353820800781250e+01,-1.826883239746093750e+02,-2.342747688293457031e+00,7.562277984619140625e+01,3.135653114318847656e+01
9.481599926948547363e-02,1.000000000000000000e+00,-3.470495986938476562e+01,4.887625885009765625e+01,2.986934280395507812e+01,1.091694564819335938e+02,9.491289520263671875e+01,-3.055012941360473633e+00,4.031498432159423828e-01,-6.667353820800781250e+01,-1.826883239746093750e+02,-2.342747688293457031e+00,7.562277984619140625e+01,3.135653114318847656e+01
1.009330004453659058e-01,1.000000000000000000e+00,-3.471216583251953125e+01,4.886143493652343750e+01,2.987095069885253906e+01,1.091619186401367188e+02,9.491433715820312500e+01,-3.057386636734008789e+00,4.031498432159423828e-01,-6.667353820800781250e+01,-1.826883239746093750e+02,-2.342747688293457031e+00,7.562291717529296875e+01,3.135653114318847656e+01
1.049610003829002380e-01,1.000000000000000000e+00,-3.472066116333007812e+01,4.884412384033203125e+01,2.987332916259765625e+01,1.091522293090820312e+02,9.491684722900390625e+01,-3.060642004013061523e+00,4.031498432159423828e-01,-6.667353820800781250e+01,-1.826883239746093750e+02,-2.342747688293457031e+00,7.562291717529296875e+01,3.135653114318847656e+01
1.091810017824172974e-01,1.000000000000000000e+00,-3.473042297363281250e+01,4.882439041137695312e+01,2.987648010253906250e+01,1.091393280029296875e+02,9.492004394531250000e+01,-3.063897132873535156e+00,4.031498432159423828e-01,-6.667362213134765625e+01,-1.826883239746093750e+02,-2.342747688293457031e+00,7.562291717529296875e+01,3.135653114318847656e+01
1.128889992833137512e-01,1.000000000000000000e+00,-3.474161911010742188e+01,4.880205917358398438e+01,2.988056755065917969e+01,1.091239471435546875e+02,9.492420196533203125e+01,-3.068373203277587891e+00,4.031498432159423828e-01,-6.667353820800781250e+01,-1.826883239746093750e+02,-2.342747688293457031e+00,7.562299346923828125e+01,3.135653114318847656e+01
1.168140023946762085e-01,1.000000000000000000e+00,-3.475416564941406250e+01,4.877686691284179688e+01,2.988599586486816406e+01,1.091054534912109375e+02,9.492921447753906250e+01,-3.073798418045043945e+00,4.031498432159423828e-01,-6.667353820800781250e+01,-1.826883239746093750e+02,-2.342819452285766602e+00,7.562291717529296875e+01,3.135642242431640625e+01
1.216849982738494873e-01,1.000000000000000000e+00,-3.476843261718750000e+01,4.874885177612304688e+01,2.989240264892578125e+01,1.090840148925781250e+02,9.493518066406250000e+01,-3.080851316452026367e+00,4.031498432159423828e-01,-6.667343902587890625e+01,-1.826884307861328125e+02,-2.342747688293457031e+00,7.562291717529296875e+01,3.135642242431640625e+01
1.250810027122497559e-01,1.000000000000000000e+00,-3.478430557250976562e+01,4.871737670898437500e+01,2.989984321594238281e+01,1.090584716796875000e+02,9.494216918945312500e+01,-3.089260578155517578e+00,4.031498432159423828e-01,-6.667353820800781250e+01,-1.826883239746093750e+02,-2.342819452285766602e+00,7.562277984619140625e+01,3.135653114318847656e+01
1.267530024051666260e-01,1.000000000000000000e+00,-3.480170440673828125e+01,4.868266296386718750e+01,2.990884971618652344e+01,1.090281906127929688e+02,9.495037841796875000e+01,-3.098415851593017578e+00,4.031498432159423828e-01,-6.667343902587890625e+01,-1.826883239746093750e+02,-2.342747688293457031e+00,7.562299346923828125e+01,3.135653114318847656e+01
1.308279931545257568e-01,1.000000000000000000e+00,-3.482038879394531250e+01,4.864448547363281250e+01,2.991925811767578125e+01,1.089926834106445312e+02,9.495965576171875000e+01,-3.109334468841552734e+00,4.031498432159423828e-01,-6.667353820800781250e+01,-1.826883239746093750e+02,-2.342747688293457031e+00,7.562291717529296875e+01,3.135653114318847656e+01
1.357949972152709961e-01,1.000000000000000000e+00,-3.484054183959960938e+01,4.860286712646484375e+01,2.993095207214355469e+01,1.089526519775390625e+02,9.497010803222656250e+01,-3.121541500091552734e+00,4.031498432159423828e-01,-6.667353820800781250e+01,-1.826883239746093750e+02,-2.342819452285766602e+00,7.562291717529296875e+01,3.135675048828125000e+01
1.398109942674636841e-01,1.000000000000000000e+00,-3.486287689208984375e+01,4.855792617797851562e+01,2.994388008117675781e+01,1.089104080200195312e+02,9.498178863525390625e+01,-3.135172605514526367e+00,4.031498432159423828e-01,-6.667343902587890625e+01,-1.826883239746093750e+02,-2.342819452285766602e+00,7.562299346923828125e+01,3.135653114318847656e+01
1.438180059194564819e-01,1.000000000000000000e+00,-3.488679122924804688e+01,4.850983428955078125e+01,2.995813179016113281e+01,1.088649444580078125e+02,9.499468994140625000e+01,-3.150160074234008789e+00,4.031498432159423828e-01,-6.667353820800781250e+01,-1.826883239746093750e+02,-2.342747688293457031e+00,7.562291717529296875e+01,3.135653114318847656e+01
1.477520018815994263e-01,1.000000000000000000e+00,-3.491188049316406250e+01,4.845885086059570312e+01,2.997368812561035156e+01,1.088135375976562500e+02,9.500897979736328125e+01,-3.165622472763061523e+00,4.031498432159423828e-01,-6.667353820800781250e+01,-1.826883239746093750e+02,-2.342603921890258789e+00,7.562291717529296875e+01,3.135653114318847656e+01
1.507409960031509399e-01,1.000000000000000000e+00,-3.493840408325195312e+01,4.840494537353515625e+01,2.999049949645996094e+01,1.087589645385742188e+02,9.502422332763671875e+01,-3.182101964950561523e+00,4.031498432159423828e-01,-6.667343902587890625e+01,-1.826883239746093750e+02,-2.342747688293457031e+00,7.562291717529296875e+01,3.135653114318847656e+01
1.573020070791244507e-01,1.000000000000000000e+00,-3.493840408325195312e+01,4.840494537353515625e+01,2.999049949645996094e+01,1.087589645385742188e+02,9.502422332763671875e+01,-3.182101964950561523e+00,4.031498432159423828e-01,-6.667343902587890625e+01,-1.826883239746093750e+02,-2.342747688293457031e+00,7.562291717529296875e+01,3.135653114318847656e+01
1.595560014247894287e-01,1.000000000000000000e+00,-3.499561691284179688e+01,4.828892135620117188e+01,3.002642631530761719e+01,1.086434020996093750e+02,9.505594635009765625e+01,-3.217841386795043945e+00,4.031498432159423828e-01,-6.667353820800781250e+01,-1.826883239746093750e+02,-2.342819452285766602e+00,7.562291717529296875e+01,3.135653114318847656e+01
1.638790071010589600e-01,1.000000000000000000e+00,-3.502650451660156250e+01,4.822732543945312500e+01,3.004503250122070312e+01,1.085819854736328125e+02,9.507247924804687500e+01,-3.236897945404052734e+00,4.031498432159423828e-01,-6.667353820800781250e+01,-1.826883239746093750e+02,-2.342747688293457031e+00,7.562291717529296875e+01,3.135653114318847656e+01
1.677699983119964600e-01,1.000000000000000000e+00,-3.505883026123046875e+01,4.816346359252929688e+01,3.006424522399902344e+01,1.085174560546875000e+02,9.508953857421875000e+01,-3.256429195404052734e+00,4.031498432159423828e-01,-6.667353820800781250e+01,-1.826883239746093750e+02,-2.342819452285766602e+00,7.562291717529296875e+01,3.135653114318847656e+01
1.717610061168670654e-01,1.000000000000000000e+00,-3.509230422973632812e+01,4.809767532348632812e+01,3.008404922485351562e+01,1.084521408081054688e+02,9.510729217529296875e+01,-3.276706457138061523e+00,4.031498432159423828e-01,-6.667353820800781250e+01,-1.826883239746093750e+02,-2.342747688293457031e+00,7.562291717529296875e+01,3.135653114318847656e+01
1.758050024509429932e-01,1.000000000000000000e+00,-3.512663650512695312e+01,4.802985763549804688e+01,3.010436058044433594e+01,1.083862991333007812e+02,9.512547302246093750e+01,-3.297254800796508789e+00,4.031498432159423828e-01,-6.667353820800781250e+01,-1.826883239746093750e+02,-2.342747688293457031e+00,7.562277984619140625e+01,3.135653114318847656e+01
1.788190007209777832e-01,1.000000000000000000e+00,-3.516139984130859375e+01,4.796040344238281250e+01,3.012503814697265625e+01,1.083191909790039062e+02,9.514418792724609375e+01,-3.318685054779052734e+00,4.030399620532989502e-01,-6.667353820800781250e+01,-1.826883239746093750e+02,-2.342747688293457031e+00,7.562291717529296875e+01,3.135642242431640625e+01
1.838849931955337524e-01,1.000000000000000000e+00,-3.516139984130859375e+01,4.796040344238281250e+01,3.012503814697265625e+01,1.083191909790039062e+02,9.514418792724609375e+01,-3.318685054779052734e+00,4.030399620532989502e-01,-6.667353820800781250e+01,-1.826883239746093750e+02,-2.342747688293457031e+00,7.562291717529296875e+01,3.135642242431640625e+01
1.868380010128021240e-01,1.000000000000000000e+00,-3.523388290405273438e+01,4.781638717651367188e+01,3.016618919372558594e+01,1.081828231811523438e+02,9.518358612060546875e+01,-3.361545324325561523e+00,4.031498432159423828e-01,-6.667353820800781250e+01,-1.826883239746093750e+02,-2.342603921890258789e+00,7.562291717529296875e+01,3.135653114318847656e+01
1.918089985847473145e-01,1.000000000000000000e+00,-3.523388290405273438e+01,4.781638717651367188e+01,3.016618919372558594e+01,1.081828231811523438e+02,9.518358612060546875e+01,-3.361545324325561523e+00,4.031498432159423828e-01,-6.667353820800781250e+01,-1.826883239746093750e+02,-2.342603921890258789e+00,7.562291717529296875e+01,3.135653114318847656e+01
1.957470029592514038e-01,1.000000000000000000e+00,-3.530958557128906250e+01,4.766616821289062500e+01,3.020758438110351562e+01,1.080456008911132812e+02,9.522096252441406250e+01,-3.403388261795043945e+00,4.031498432159423828e-01,-6.667343902587890625e+01,-1.826883239746093750e+02,-2.342819452285766602e+00,7.562291717529296875e+01,3.135675048828125000e+01
1.998089998960494995e-01,1.000000000000000000e+00,-3.534822463989257812e+01,4.758974838256835938e+01,3.022854614257812500e+01,1.079768066406250000e+02,9.523946380615234375e+01,-3.424343585968017578e+00,4.030399620532989502e-01,-6.667353820800781250e+01,-1.826883239746093750e+02,-2.342747688293457031e+00,7.562291717529296875e+01,3.135653114318847656e+01
2.038179934024810791e-01,1.000000000000000000e+00,-3.538709259033203125e+01,4.751314544677734375e+01,3.024946784973144531e+01,1.079079666137695312e+02,9.525865173339843750e+01,-3.445231199264526367e+00,4.031498432159423828e-01,-6.667353820800781250e+01,-1.826883239746093750e+02,-2.342747688293457031e+00,7.562291717529296875e+01,3.135653114318847656e+01
2.078139930963516235e-01,1.000000000000000000e+00,-3.542627716064453125e+01,4.743647766113281250e+01,3.027012443542480469e+01,1.078392257690429688e+02,9.527768707275390625e+01,-3.466932535171508789e+00,4.031498432159423828e-01,-6.667353820800781250e+01,-1.826883239746093750e+02,-2.342747688293457031e+00,7.562299346923828125e+01,3.135653114318847656e+01
2.107390016317367554e-01,1.000000000000000000e+00,-3.546575164794921875e+01,4.735993957519531250e+01,3.029076194763183594e+01,1.077701187133789062e+02,9.529763031005859375e+01,-3.488634109497070312e+00,4.031498432159423828e-01,-6.667362213134765625e+01,-1.826883239746093750e+02,-2.342819452285766602e+00,7.562291717529296875e+01,3.135653114318847656e+01
2.157920002937316895e-01,1.000000000000000000e+00,-3.546575164794921875e+01,4.735993957519531250e+01,3.029076194763183594e+01,1.077701187133789062e+02,9.529763031005859375e+01,-3.488634109497070312e+00,4.031498432159423828e-01,-6.667362213134765625e+01,-1.826883239746093750e+02,-2.342819452285766602e+00,7.562291717529296875e+01,3.135653114318847656e+01
2.197529971599578857e-01,1.000000000000000000e+00,-3.554489135742187500e+01,4.720723724365234375e+01,3.033244323730468750e+01,1.076318511962890625e+02,9.533756256103515625e+01,-3.532172441482543945e+00,4.031498432159423828e-01,-6.667353820800781250e+01,-1.826883239746093750e+02,-2.342747688293457031e+00,7.562291717529296875e+01,3.135653114318847656e+01
2.238329946994781494e-01,1.000000000000000000e+00,-3.558456420898437500e+01,4.713083648681640625e+01,3.035344696044921875e+01,1.075629577636718750e+02,9.535617065429687500e+01,-3.553399085998535156e+00,4.031498432159423828e-01,-6.667353820800781250e+01,-1.826883239746093750e+02,-2.342747688293457031e+00,7.562299346923828125e+01,3.135653114318847656e+01
2.267740070819854736e-01,1.000000000000000000e+00,-3.562374877929687500e+01,4.705421066284179688e+01,3.037426567077636719e+01,1.074933700561523438e+02,9.537477874755859375e+01,-3.573879718780517578e+00,4.031498432159423828e-01,-6.667353820800781250e+01,-1.826883239746093750e+02,-2.342603921890258789e+00,7.562277984619140625e+01,3.135653114318847656e+01
2.318000048398971558e-01,1.000000000000000000e+00,-3.562374877929687500e+01,4.705421066284179688e+01,3.037426567077636719e+01,1.074933700561523438e+02,9.537477874755859375e+01,-3.573879718780517578e+00,4.031498432159423828e-01,-6.667353820800781250e+01,-1.826883239746093750e+02,-2.342603921890258789e+00,7.562277984619140625e+01,3.135653114318847656e+01
2.357860058546066284e-01,1.000000000000000000e+00,-3.570261001586914062e+01,4.690103149414062500e+01,3.041606521606445312e+01,1.073548889160156250e+02,9.541311645507812500e+01,-3.616400718688964844e+00,4.031498432159423828e-01,-6.667353820800781250e+01,-1.826883239746093750e+02,-2.342603921890258789e+00,7.562291717529296875e+01,3.135653114318847656e+01
2.397679984569549561e-01,1.000000000000000000e+00,-3.574222183227539062e+01,4.682429122924804688e+01,3.043729400634765625e+01,1.072857818603515625e+02,9.543267822265625000e+01,-3.637288331985473633e+00,4.031498432159423828e-01,-6.667353820800781250e+01,-1.826883239746093750e+02,-2.342819452285766602e+00,7.562299346923828125e+01,3.135653114318847656e+01
2.438379973173141479e-01,1.000000000000000000e+00,-3.578135299682617188e+01,4.674787139892578125e+01,3.045858001708984375e+01,1.072162017822265625e+02,9.545282745361328125e+01,-3.658379554748535156e+00,4.031498432159423828e-01,-6.667362213134765625e+01,-1.826884307861328125e+02,-2.342747688293457031e+00,7.562291717529296875e+01,3.135653114318847656e+01
2.467519938945770264e-01,1.000000000000000000e+00,-3.582068252563476562e+01,4.667133712768554688e+01,3.047966575622558594e+01,1.071471939086914062e+02,9.547303771972656250e+01,-3.680216550827026367e+00,4.031498432159423828e-01,-6.667343902587890625e+01,-1.826884307861328125e+02,-2.342747688293457031e+00,7.562291717529296875e+01,3.135653114318847656e+01
2.518289983272552490e-01,1.000000000000000000e+00,-3.582068252563476562e+01,4.667133712768554688e+01,3.047966575622558594e+01,1.071471939086914062e+02,9.547303771972656250e+01,-3.680216550827026367e+00,4.031498432159423828e-01,-6.667343902587890625e+01,-1.826884307861328125e+02,-2.342747688293457031e+00,7.562291717529296875e+01,3.135653114318847656e+01
2.557690143585205078e-01,1.000000000000000000e+00,-3.589881896972656250e+01,4.651837921142578125e+01,3.052130508422851562e+01,1.070084533691406250e+02,9.551094818115234375e+01,-3.724161863327026367e+00,4.031498432159423828e-01,-6.667343902587890625e+01,-1.826883239746093750e+02,-2.342819452285766602e+00,7.562291717529296875e+01,3.135653114318847656e+01
2.618100047111511230e-01,1.000000000000000000e+00,-3.593817901611328125e+01,4.644195938110351562e+01,3.054234886169433594e+01,1.069386596679687500e+02,9.552950286865234375e+01,-3.745049476623535156e+00,4.031498432159423828e-01,-6.667353820800781250e+01,-1.826883239746093750e+02,-2.342819452285766602e+00,7.562291717529296875e+01,3.135642242431640625e+01
2.638820111751556396e-01,1.000000000000000000e+00,-3.597716140747070312e+01,4.636524200439453125e+01,3.056361389160156250e+01,1.068691329956054688e+02,9.554847717285156250e+01,-3.765733480453491211e+00,4.031498432159423828e-01,-6.667353820800781250e+01,-1.826883239746093750e+02,-2.342603921890258789e+00,7.562277984619140625e+01,3.135642242431640625e+01
2.702760100364685059e-01,1.000000000000000000e+00,-3.601580047607421875e+01,4.628825759887695312e+01,3.058473968505859375e+01,1.067993316650390625e+02,9.556777954101562500e+01,-3.786756753921508789e+00,4.031498432159423828e-01,-6.667353820800781250e+01,-1.826883239746093750e+02,-2.342747688293457031e+00,7.562291717529296875e+01,3.135653114318847656e+01
2.717620134353637695e-01,1.000000000000000000e+00,-3.605443954467773438e+01,4.621120452880859375e+01,3.060590362548828125e+01,1.067297515869140625e+02,9.558766937255859375e+01,-3.808051109313964844e+00,4.031498432159423828e-01,-6.667353820800781250e+01,-1.826883239746093750e+02,-2.342819452285766602e+00,7.562291717529296875e+01,3.135653114318847656e+01
2.767559885978698730e-01,1.000000000000000000e+00,-3.605443954467773438e+01,4.621120452880859375e+01,3.060590362548828125e+01,1.067297515869140625e+02,9.558766937255859375e+01,-3.808051109313964844e+00,4.031498432159423828e-01,-6.667343902587890625e+01,-1.826883239746093750e+02,-2.342819452285766602e+00,7.562291717529296875e+01,3.135653114318847656e+01
2.802129983901977539e-01,1.000000000000000000e+00,-3.613194656372070312e+01,4.605652618408203125e+01,3.064790916442871094e+01,1.065905914306640625e+02,9.562776184082031250e+01,-3.850640535354614258e+00,4.031498432159423828e-01,-6.667353820800781250e+01,-1.826883239746093750e+02,-2.342747688293457031e+00,7.562291717529296875e+01,3.135653114318847656e+01
2.838039994239807129e-01,1.000000000000000000e+00,-3.617081832885742188e+01,4.597901916503906250e+01,3.066925811767578125e+01,1.065203170776367188e+02,9.564669036865234375e+01,-3.872613191604614258e+00,4.031498432159423828e-01,-6.667353820800781250e+01,-1.826883239746093750e+02,-2.342747688293457031e+00,7.562277984619140625e+01,3.135653114318847656e+01
2.887580096721649170e-01,1.000000000000000000e+00,-3.617081832885742188e+01,4.597901916503906250e+01,3.066925811767578125e+01,1.065203170776367188e+02,9.564669036865234375e+01,-3.872613191604614258e+00,4.031498432159423828e-01,-6.667353820800781250e+01,-1.826883239746093750e+02,-2.342747688293457031e+00,7.562277984619140625e+01,3.135653114318847656e+01
2.922030091285705566e-01,1.000000000000000000e+00,-3.624818420410156250e+01,4.582490921020507812e+01,3.071166992187500000e+01,1.063815231323242188e+02,9.568448638916015625e+01,-3.916219234466552734e+00,4.031498432159423828e-01,-6.667353820800781250e+01,-1.826883239746093750e+02,-2.342819452285766602e+00,7.562291717529296875e+01,3.135653114318847656e+01
2.957819998264312744e-01,1.000000000000000000e+00,-3.628699111938476562e+01,4.574748992919921875e+01,3.073265075683593750e+01,1.063115234375000000e+02,9.570384979248046875e+01,-3.936903238296508789e+00,4.031498432159423828e-01,-6.667362213134765625e+01,-1.826883239746093750e+02,-2.342747688293457031e+00,7.562277984619140625e+01,3.135653114318847656e+01
2.998610138893127441e-01,1.000000000000000000e+00,-3.628699111938476562e+01,4.574748992919921875e+01,3.073265075683593750e+01,1.063115234375000000e+02,9.570384979248046875e+01,-3.936903238296508789e+00,4.031498432159423828e-01,-6.667362213134765625e+01,-1.826883239746093750e+02,-2.342747688293457031e+00,7.562277984619140625e+01,3.135653114318847656e+01
3.038739860057830811e-01,1.000000000000000000e+00,-3.632563400268554688e+01,4.566984939575195312e+01,3.075357627868652344e+01,1.062412033081054688e+02,9.572351837158203125e+01,-3.957655429840087891e+00,4.031498432159423828e-01,-6.667353820800781250e+01,-1.826883239746093750e+02,-2.342747688293457031e+00,7.562291717529296875e+01,3.135653114318847656e+01
3.078059852123260498e-01,1.000000000000000000e+00,-3.636458587646484375e+01,4.559197616577148438e+01,3.077488327026367188e+01,1.061713562011718750e+02,9.574382781982421875e+01,-3.978881835937500000e+00,4.031498432159423828e-01,-6.667362213134765625e+01,-1.826883239746093750e+02,-2.342747688293457031e+00,7.562291717529296875e+01,3.135642242431640625e+01
3.118579983711242676e-01,1.000000000000000000e+00,-3.640357208251953125e+01,4.551417922973632812e+01,3.079631233215332031e+01,1.061018295288085938e+02,9.576430511474609375e+01,-3.999701738357543945e+00,4.031498432159423828e-01,-6.667353820800781250e+01,-1.826883239746093750e+02,-2.342747688293457031e+00,7.562291717529296875e+01,3.135642242431640625e+01
3.158040046691894531e-01,1.000000000000000000e+00,-3.644264221191406250e+01,4.543626403808593750e+01,3.081757736206054688e+01,1.060317687988281250e+02,9.578387451171875000e+01,-4.021403312683105469e+00,4.031498432159423828e-01,-6.667353820800781250e+01,-1.826883239746093750e+02,-2.342603921890258789e+00,7.562291717529296875e+01,3.135653114318847656e+01
3.198080062866210938e-01,1.000000000000000000e+00,-3.648176956176757812e+01,4.535816574096679688e+01,3.083880615234375000e+01,1.059616088867187500e+02,9.580258178710937500e+01,-4.043036460876464844e+00,4.031498432159423828e-01,-6.667353820800781250e+01,-1.826883239746093750e+02,-2.342747688293457031e+00,7.562291717529296875e+01,3.135653114318847656e+01
3.239389955997467041e-01,1.000000000000000000e+00,-3.652112960815429688e+01,4.528013992309570312e+01,3.085976791381835938e+01,1.058912353515625000e+02,9.582141113281250000e+01,-4.064805507659912109e+00,4.031498432159423828e-01,-6.667353820800781250e+01,-1.826883239746093750e+02,-2.342747688293457031e+00,7.562291717529296875e+01,3.135675048828125000e+01
3.278410136699676514e-01,1.000000000000000000e+00,-3.656034088134765625e+01,4.520224761962890625e+01,3.088075065612792969e+01,1.058215942382812500e+02,9.584086608886718750e+01,-4.086914062500000000e+00,4.031498432159423828e-01,-6.667353820800781250e+01,-1.826883239746093750e+02,-2.342747688293457031e+00,7.562291717529296875e+01,3.135653114318847656e+01
3.318749964237213135e-01,1.000000000000000000e+00,-3.659981155395507812e+01,4.512458038330078125e+01,3.090216064453125000e+01,1.057511749267578125e+02,9.586000823974609375e+01,-4.109022617340087891e+00,4.031498432159423828e-01,-6.667362213134765625e+01,-1.826883239746093750e+02,-2.342747688293457031e+00,7.562291717529296875e+01,3.135653114318847656e+01
3.360039889812469482e-01,1.000000000000000000e+00,-3.667918395996093750e+01,4.496845626831054688e+01,3.094475364685058594e+01,1.056106948852539062e+02,9.590090179443359375e+01,-4.150661945343017578e+00,4.031498432159423828e-01,-6.667353820800781250e+01,-1.826883239746093750e+02,-2.342819452285766602e+00,7.562277984619140625e+01,3.135653114318847656e+01
3.398079872131347656e-01,1.000000000000000000e+00,-3.667918395996093750e+01,4.496845626831054688e+01,3.094475364685058594e+01,1.056106948852539062e+02,9.590090179443359375e+01,-4.150661945343017578e+00,4.031498432159423828e-01,-6.667353820800781250e+01,-1.826883239746093750e+02,-2.342819452285766602e+00,7.562277984619140625e+01,3.135653114318847656e+01
3.438859879970550537e-01,1.000000000000000000e+00,-3.671888732910156250e+01,4.489049530029296875e+01,3.096606254577636719e+01,1.055408935546875000e+02,9.592099761962890625e+01,-4.172363281250000000e+00,4.031498432159423828e-01,-6.667343902587890625e+01,-1.826883239746093750e+02,-2.342747688293457031e+00,7.562299346923828125e+01,3.135653114318847656e+01
3.477900028228759766e-01,1.000000000000000000e+00,-3.675847244262695312e+01,4.481242370605468750e+01,3.098730850219726562e+01,1.054703140258789062e+02,9.593993377685546875e+01,-4.193657875061035156e+00,4.031498432159423828e-01,-6.667353820800781250e+01,-1.826883239746093750e+02,-2.342819452285766602e+00,7.562291717529296875e+01,3.135653114318847656e+01
3.518719971179962158e-01,1.000000000000000000e+00,-3.679837417602539062e+01,4.473410415649414062e+01,3.100873756408691406e+01,1.054003677368164062e+02,9.595901489257812500e+01,-4.215223312377929688e+00,4.031498432159423828e-01,-6.667353820800781250e+01,-1.826883239746093750e+02,-2.342819452285766602e+00,7.562291717529296875e+01,3.135653114318847656e+01
3.557859957218170166e-01,1.000000000000000000e+00,-3.683833694458007812e+01,4.465578079223632812e+01,3.103016853332519531e+01,1.053296279907226562e+02,9.597805023193359375e+01,-4.236925125122070312e+00,4.031498432159423828e-01,-6.667353820800781250e+01,-1.826883239746093750e+02,-2.342747688293457031e+00,7.562291717529296875e+01,3.135653114318847656e+01
3.597899973392486572e-01,1.000000000000000000e+00,-3.687826919555664062e+01,4.457761764526367188e+01,3.105147552490234375e+01,1.052599945068359375e+02,9.599798583984375000e+01,-4.259100914001464844e+00,4.031498432159423828e-01,-6.667362213134765625e+01,-1.826883239746093750e+02,-2.342819452285766602e+00,7.562291717529296875e+01,3.135653114318847656e+01
3.639450073242187500e-01,1.000000000000000000e+00,-3.691820144653320312e+01,4.449936294555664062e+01,3.107274436950683594e+01,1.051890869140625000e+02,9.601771545410156250e+01,-4.281141757965087891e+00,4.031498432159423828e-01,-6.667353820800781250e+01,-1.826883239746093750e+02,-2.342747688293457031e+00,7.562299346923828125e+01,3.135653114318847656e+01
3.677890002727508545e-01,1.000000000000000000e+00,-3.695821380615234375e+01,4.442117309570312500e+01,3.109415245056152344e+01,1.051189804077148438e+02,9.603829956054687500e+01,-4.302435874938964844e+00,4.031498432159423828e-01,-6.667353820800781250e+01,-1.826883239746093750e+02,-2.342747688293457031e+00,7.562291717529296875e+01,3.135653114318847656e+01
3.718079924583435059e-01,1.000000000000000000e+00,-3.699820709228515625e+01,4.434337615966796875e+01,3.111554145812988281e+01,1.050479736328125000e+02,9.605850219726562500e+01,-4.323459625244140625e+00,4.031498432159423828e-01,-6.667353820800781250e+01,-1.826883239746093750e+02,-2.342819452285766602e+00,7.562277984619140625e+01,3.135653114318847656e+01
3.759210109710693359e-01,1.000000000000000000e+00,-3.703819274902343750e+01,4.426554870605468750e+01,3.113690948486328125e+01,1.049779739379882812e+02,9.607812500000000000e+01,-4.344889640808105469e+00,4.031498432159423828e-01,-6.667353820800781250e+01,-1.826883239746093750e+02,-2.342747688293457031e+00,7.562291717529296875e+01,3.135653114318847656e+01
3.797880113124847412e-01,1.000000000000000000e+00,-3.707809448242187500e+01,4.418747711181640625e+01,3.115834045410156250e+01,1.049071807861328125e+02,9.609715270996093750e+01,-4.366862297058105469e+00,4.031498432159423828e-01,-6.667353820800781250e+01,-1.826883239746093750e+02,-2.342747688293457031e+00,7.562291717529296875e+01,3.135653114318847656e+01
3.838610053062438965e-01,1.000000000000000000e+00,-3.711828613281250000e+01,4.410894775390625000e+01,3.117958831787109375e+01,1.048366470336914062e+02,9.611640167236328125e+01,-4.388495445251464844e+00,4.031498432159423828e-01,-6.667353820800781250e+01,-1.826883239746093750e+02,-2.342819452285766602e+00,7.562277984619140625e+01,3.135653114318847656e+01
3.879260122776031494e-01,1.000000000000000000e+00,-3.715821838378906250e+01,4.403040313720703125e+01,3.120091629028320312e+01,1.047658538818359375e+02,9.613559722900390625e+01,-4.410129547119140625e+00,4.031498432159423828e-01,-6.667362213134765625e+01,-1.826883239746093750e+02,-2.342747688293457031e+00,7.562291717529296875e+01,3.135653114318847656e+01
3.918269872665405273e-01,1.000000000000000000e+00,-3.719829177856445312e+01,4.395183181762695312e+01,3.122244834899902344e+01,1.046955337524414062e+02,9.615538024902343750e+01,-4.432305335998535156e+00,4.031498432159423828e-01,-6.667353820800781250e+01,-1.826883239746093750e+02,-2.342747688293457031e+00,7.562277984619140625e+01,3.135653114318847656e+01
3.958010077476501465e-01,1.000000000000000000e+00,-3.723802185058593750e+01,4.387296676635742188e+01,3.124395561218261719e+01,1.046247406005859375e+02,9.617542266845703125e+01,-4.455091476440429688e+00,4.031498432159423828e-01,-6.667353820800781250e+01,-1.826883239746093750e+02,-2.342747688293457031e+00,7.562277984619140625e+01,3.135653114318847656e+01
4.000439941883087158e-01,1.000000000000000000e+00,-3.727801132202148438e+01,4.379417037963867188e+01,3.126544761657714844e+01,1.045542068481445312e+02,9.619595336914062500e+01,-4.477132320404052734e+00,4.031498432159423828e-01,-6.667353820800781250e+01,-1.826883239746093750e+02,-2.342747688293457031e+00,7.562291717529296875e+01,3.135653114318847656e+01
4.032169878482818604e-01,1.000000000000000000e+00,-3.731826019287109375e+01,4.371546173095703125e+01,3.128706169128417969e+01,1.044829940795898438e+02,9.621556854248046875e+01,-4.498155593872070312e+00,4.031498432159423828e-01,-6.667353820800781250e+01,-1.826883239746093750e+02,-2.342747688293457031e+00,7.562299346923828125e+01,3.135653114318847656e+01
4.071060121059417725e-01,1.000000000000000000e+00,-3.735847473144531250e+01,4.363695907592773438e+01,3.130847167968750000e+01,1.044126281738281250e+02,9.623471832275390625e+01,-4.519381999969482422e+00,4.031498432159423828e-01,-6.667353820800781250e+01,-1.826883239746093750e+02,-2.342819452285766602e+00,7.562291717529296875e+01,3.135653114318847656e+01
4.121370017528533936e-01,1.000000000000000000e+00,-3.739837646484375000e+01,4.355847549438476562e+01,3.132992172241210938e+01,1.043416748046875000e+02,9.625385284423828125e+01,-4.540947914123535156e+00,4.031498432159423828e-01,-6.667353820800781250e+01,-1.826883239746093750e+02,-2.342819452285766602e+00,7.562291717529296875e+01,3.135653114318847656e+01
4.154259860515594482e-01,1.000000000000000000e+00,-3.743836593627929688e+01,4.347993087768554688e+01,3.135145378112792969e+01,1.042710876464843750e+02,9.627347564697265625e+01,-4.562852859497070312e+00,4.031498432159423828e-01,-6.667353820800781250e+01,-1.826883239746093750e+02,-2.342819452285766602e+00,7.562291717529296875e+01,3.135642242431640625e+01
4.198270142078399658e-01,1.000000000000000000e+00,-3.747846984863281250e+01,4.340122222900390625e+01,3.137282180786132812e+01,1.041995544433593750e+02,9.629299163818359375e+01,-4.584689617156982422e+00,4.031498432159423828e-01,-6.667353820800781250e+01,-1.826883239746093750e+02,-2.342747688293457031e+00,7.562277984619140625e+01,3.135653114318847656e+01
4.246560037136077881e-01,1.000000000000000000e+00,-3.751857376098632812e+01,4.332215118408203125e+01,3.139421081542968750e+01,1.041288681030273438e+02,9.631304168701171875e+01,-4.606730461120605469e+00,4.031498432159423828e-01,-6.667353820800781250e+01,-1.826883239746093750e+02,-2.342603921890258789e+00,7.562291717529296875e+01,3.135653114318847656e+01
4.277920126914978027e-01,1.000000000000000000e+00,-3.755879211425781250e+01,4.324276733398437500e+01,3.141576004028320312e+01,1.040576019287109375e+02,9.633351135253906250e+01,-4.629381179809570312e+00,4.031498432159423828e-01,-6.667353820800781250e+01,-1.826883239746093750e+02,-2.342747688293457031e+00,7.562277984619140625e+01,3.135653114318847656e+01
4.317950010299682617e-01,1.000000000000000000e+00,-3.759898376464843750e+01,4.316315460205078125e+01,3.143739318847656250e+01,1.039867553710937500e+02,9.635382080078125000e+01,-4.651624679565429688e+00,4.031498432159423828e-01,-6.667353820800781250e+01,-1.826881713867187500e+02,-2.342747688293457031e+00,7.562291717529296875e+01,3.135653114318847656e+01
4.362379908561706543e-01,1.000000000000000000e+00,-3.763905715942382812e+01,4.308392715454101562e+01,3.145920944213867188e+01,1.039154357910156250e+02,9.637306976318359375e+01,-4.673190593719482422e+00,4.031498432159423828e-01,-6.667353820800781250e+01,-1.826883239746093750e+02,-2.342747688293457031e+00,7.562299346923828125e+01,3.135642242431640625e+01
4.396870136260986328e-01,1.000000000000000000e+00,-3.767907333374023438e+01,4.300481414794921875e+01,3.148076248168945312e+01,1.038445892333984375e+02,9.639199829101562500e+01,-4.694213867187500000e+00,4.031498432159423828e-01,-6.667353820800781250e+01,-1.826883239746093750e+02,-2.342747688293457031e+00,7.562291717529296875e+01,3.135653114318847656e+01
4.438590109348297119e-01,1.000000000000000000e+00,-3.771909332275390625e+01,4.292581176757812500e+01,3.150223350524902344e+01,1.037731094360351562e+02,9.641114044189453125e+01,-4.715508460998535156e+00,4.031498432159423828e-01,-6.667353820800781250e+01,-1.826883239746093750e+02,-2.342747688293457031e+00,7.562277984619140625e+01,3.135653114318847656e+01
4.486039876937866211e-01,1.000000000000000000e+00,-3.775913619995117188e+01,4.284692382812500000e+01,3.152358055114746094e+01,1.037021560668945312e+02,9.643075561523437500e+01,-4.736870765686035156e+00,4.031498432159423828e-01,-6.667353820800781250e+01,-1.826883239746093750e+02,-2.342819452285766602e+00,7.562291717529296875e+01,3.135653114318847656e+01
4.517929852008819580e-01,1.000000000000000000e+00,-3.779938507080078125e+01,4.276792144775390625e+01,3.154517364501953125e+01,1.036308364868164062e+02,9.645053863525390625e+01,-4.759114742279052734e+00,4.031498432159423828e-01,-6.667353820800781250e+01,-1.826883239746093750e+02,-2.342819452285766602e+00,7.562299346923828125e+01,3.135653114318847656e+01
4.557929933071136475e-01,1.000000000000000000e+00,-3.783954620361328125e+01,4.268889999389648438e+01,3.156701087951660156e+01,1.035599365234375000e+02,9.647090148925781250e+01,-4.780748367309570312e+00,4.031498432159423828e-01,-6.667353820800781250e+01,-1.826883239746093750e+02,-2.342819452285766602e+00,7.562291717529296875e+01,3.135653114318847656e+01
4.599989950656890869e-01,1.000000000000000000e+00,-3.787961959838867188e+01,4.260955810546875000e+01,3.158870315551757812e+01,1.034881362915039062e+02,9.649143218994140625e+01,-4.803466796875000000e+00,4.031498432159423828e-01,-6.667353820800781250e+01,-1.826883239746093750e+02,-2.342747688293457031e+00,7.562291717529296875e+01,3.135653114318847656e+01
4.645369946956634521e-01,1.000000000000000000e+00,-3.791986465454101562e+01,4.253022003173828125e+01,3.161029624938964844e+01,1.034167709350585938e+02,9.651120758056640625e+01,-4.825778961181640625e+00,4.031498432159423828e-01,-6.667353820800781250e+01,-1.826883239746093750e+02,-2.342747688293457031e+00,7.562291717529296875e+01,3.135653114318847656e+01
4.679149985313415527e-01,1.000000000000000000e+00,-3.796005630493164062e+01,4.245060729980468750e+01,3.163205146789550781e+01,1.033452911376953125e+02,9.653024291992187500e+01,-4.847615718841552734e+00,4.031498432159423828e-01,-6.667353820800781250e+01,-1.826883239746093750e+02,-2.342747688293457031e+00,7.562291717529296875e+01,3.135653114318847656e+01
4.726749956607818604e-01,1.000000000000000000e+00,-3.800007247924804688e+01,4.237072372436523438e+01,3.165364456176757812e+01,1.032738037109375000e+02,9.654949188232421875e+01,-4.869113445281982422e+00,4.031498432159423828e-01,-6.667353820800781250e+01,-1.826883239746093750e+02,-2.342747688293457031e+00,7.562291717529296875e+01,3.135653114318847656e+01
4.758569896221160889e-01,1.000000000000000000e+00,-3.804023361206054688e+01,4.229129028320312500e+01,3.167550086975097656e+01,1.032023849487304688e+02,9.656916046142578125e+01,-4.890476226806640625e+00,4.031498432159423828e-01,-6.667353820800781250e+01,-1.826883239746093750e+02,-2.342747688293457031e+00,7.562291717529296875e+01,3.135653114318847656e+01
4.799300134181976318e-01,1.000000000000000000e+00,-3.808047866821289062e+01,4.221181488037109375e+01,3.169727516174316406e+01,1.031306381225585938e+02,9.658899688720703125e+01,-4.912177562713623047e+00,4.031498432159423828e-01,-6.667362213134765625e+01,-1.826883239746093750e+02,-2.342747688293457031e+00,7.562291717529296875e+01,3.135653114318847656e+01
4.840250015258789062e-01,1.000000000000000000e+00,-3.812081146240234375e+01,4.213270187377929688e+01,3.171866416931152344e+01,1.030588989257812500e+02,9.660931396484375000e+01,-4.934150218963623047e+00,4.031498432159423828e-01,-6.667353820800781250e+01,-1.826883239746093750e+02,-2.342747688293457031e+00,7.562291717529296875e+01,3.135642242431640625e+01
4.886960089206695557e-01,1.000000000000000000e+00,-3.816103363037109375e+01,4.205324935913085938e+01,3.174015617370605469e+01,1.029873657226562500e+02,9.663021087646484375e+01,-4.955851078033447266e+00,4.031498432159423828e-01,-6.667353820800781250e+01,-1.826883239746093750e+02,-2.342603921890258789e+00,7.562291717529296875e+01,3.135653114318847656e+01
4.918819963932037354e-01,1.000000000000000000e+00,-3.820125198364257812e+01,4.197399902343750000e+01,3.176186943054199219e+01,1.029159393310546875e+02,9.665042114257812500e+01,-4.978230953216552734e+00,4.031498432159423828e-01,-6.667353820800781250e+01,-1.826883239746093750e+02,-2.342819452285766602e+00,7.562277984619140625e+01,3.135642242431640625e+01
4.972319900989532471e-01,1.000000000000000000e+00,-3.824152755737304688e+01,4.189431762695312500e+01,3.178378677368164062e+01,1.028440933227539062e+02,9.666999053955078125e+01,-5.001017093658447266e+00,4.031498432159423828e-01,-6.667353820800781250e+01,-1.826883239746093750e+02,-2.342819452285766602e+00,7.562291717529296875e+01,3.135653114318847656e+01
4.998950064182281494e-01,1.000000000000000000e+00,-3.828179931640625000e+01,4.181436920166015625e+01,3.180572509765625000e+01,1.027720336914062500e+02,9.668901824951171875e+01,-5.023329257965087891e+00,4.031498432159423828e-01,-6.667353820800781250e+01,-1.826884307861328125e+02,-2.342747688293457031e+00,7.562291717529296875e+01,3.135653114318847656e+01
5.040050148963928223e-01,1.000000000000000000e+00,-3.832207870483398438e+01,4.173411941528320312e+01,3.182745933532714844e+01,1.027007141113281250e+02,9.670837402343750000e+01,-5.044894695281982422e+00,4.031498432159423828e-01,-6.667343902587890625e+01,-1.826883239746093750e+02,-2.342747688293457031e+00,7.562291717529296875e+01,3.135653114318847656e+01
5.081030130386352539e-01,1.000000000000000000e+00,-3.836238098144531250e+01,4.165369415283203125e+01,3.184901237487792969e+01,1.026289749145507812e+02,9.672815704345703125e+01,-5.065782546997070312e+00,4.031498432159423828e-01,-6.667353820800781250e+01,-1.826883239746093750e+02,-2.342747688293457031e+00,7.562299346923828125e+01,3.135653114318847656e+01
5.107229948043823242e-01,1.000000000000000000e+00,-3.840277481079101562e+01,4.157326889038085938e+01,3.187066459655761719e+01,1.025569686889648438e+02,9.674846649169921875e+01,-5.087890625000000000e+00,4.031498432159423828e-01,-6.667353820800781250e+01,-1.826883239746093750e+02,-2.342819452285766602e+00,7.562291717529296875e+01,3.135653114318847656e+01
5.169810056686401367e-01,1.000000000000000000e+00,-3.844287490844726562e+01,4.149315643310546875e+01,3.189264297485351562e+01,1.024845886230468750e+02,9.676937103271484375e+01,-5.109591960906982422e+00,4.031498432159423828e-01,-6.667353820800781250e+01,-1.826883239746093750e+02,-2.342747688293457031e+00,7.562291717529296875e+01,3.135653114318847656e+01
5.201950073242187500e-01,1.000000000000000000e+00,-3.848318099975585938e+01,4.141343307495117188e+01,3.191449928283691406e+01,1.024129028320312500e+02,9.678979492187500000e+01,-5.131700515747070312e+00,4.031498432159423828e-01,-6.667353820800781250e+01,-1.826883239746093750e+02,-2.342819452285766602e+00,7.562291717529296875e+01,3.135653114318847656e+01
5.228099822998046875e-01,1.000000000000000000e+00,-3.852362823486328125e+01,4.133386611938476562e+01,3.193637657165527344e+01,1.023410110473632812e+02,9.680946350097656250e+01,-5.154012203216552734e+00,4.031498432159423828e-01,-6.667362213134765625e+01,-1.826883239746093750e+02,-2.342747688293457031e+00,7.562299346923828125e+01,3.135653114318847656e+01
5.268149971961975098e-01,1.000000000000000000e+00,-3.856407546997070312e+01,4.125411605834960938e+01,3.195811080932617188e+01,1.022692108154296875e+02,9.682886505126953125e+01,-5.176459789276123047e+00,4.031498432159423828e-01,-6.667343902587890625e+01,-1.826883239746093750e+02,-2.342747688293457031e+00,7.562291717529296875e+01,3.135653114318847656e+01
5.334540009498596191e-01,1.000000000000000000e+00,-3.864485549926757812e+01,4.109355545043945312e+01,3.200164413452148438e+01,1.021247787475585938e+02,9.686811065673828125e+01,-5.221557617187500000e+00,4.031498432159423828e-01,-6.667353820800781250e+01,-1.826883239746093750e+02,-2.342747688293457031e+00,7.562291717529296875e+01,3.135642242431640625e+01
5.370280146598815918e-01,1.000000000000000000e+00,-3.864485549926757812e+01,4.109355545043945312e+01,3.200164413452148438e+01,1.021247787475585938e+02,9.686811065673828125e+01,-5.221557617187500000e+00,4.031498432159423828e-01,-6.667353820800781250e+01,-1.826883239746093750e+02,-2.342747688293457031e+00,7.562291717529296875e+01,3.135642242431640625e+01
5.387319922447204590e-01,1.000000000000000000e+00,-3.868533325195312500e+01,4.101286315917968750e+01,3.202365875244140625e+01,1.020525588989257812e+02,9.688837432861328125e+01,-5.243191242218017578e+00,4.031498432159423828e-01,-6.667353820800781250e+01,-1.826883239746093750e+02,-2.342747688293457031e+00,7.562291717529296875e+01,3.135653114318847656e+01
5.443540215492248535e-01,1.000000000000000000e+00,-3.872607040405273438e+01,4.093209457397460938e+01,3.204547882080078125e+01,1.019808197021484375e+02,9.690931701660156250e+01,-5.264146804809570312e+00,4.031498432159423828e-01,-6.667343902587890625e+01,-1.826883239746093750e+02,-2.342819452285766602e+00,7.562291717529296875e+01,3.135653114318847656e+01
5.483599901199340820e-01,1.000000000000000000e+00,-3.876665878295898438e+01,4.085116958618164062e+01,3.206731414794921875e+01,1.019082336425781250e+02,9.693017578125000000e+01,-5.286729335784912109e+00,4.031498432159423828e-01,-6.667353820800781250e+01,-1.826881713867187500e+02,-2.342747688293457031e+00,7.562291717529296875e+01,3.135653114318847656e+01
5.524179935455322266e-01,1.000000000000000000e+00,-3.880713653564453125e+01,4.077065277099609375e+01,3.208923339843750000e+01,1.018360748291015625e+02,9.695016479492187500e+01,-5.309312820434570312e+00,4.031498432159423828e-01,-6.667343902587890625e+01,-1.826883239746093750e+02,-2.342747688293457031e+00,7.562277984619140625e+01,3.135653114318847656e+01
5.564640164375305176e-01,1.000000000000000000e+00,-3.884792709350585938e+01,4.069042968750000000e+01,3.211125183105468750e+01,1.017638015747070312e+02,9.696951293945312500e+01,-5.331556320190429688e+00,4.031498432159423828e-01,-6.667343902587890625e+01,-1.826883239746093750e+02,-2.342747688293457031e+00,7.562277984619140625e+01,3.135653114318847656e+01
5.612210035324096680e-01,1.000000000000000000e+00,-3.888889312744140625e+01,4.061018371582031250e+01,3.213337326049804688e+01,1.016918563842773438e+02,9.698902893066406250e+01,-5.353936195373535156e+00,4.031498432159423828e-01,-6.667362213134765625e+01,-1.826883239746093750e+02,-2.342819452285766602e+00,7.562277984619140625e+01,3.135653114318847656e+01
5.627210140228271484e-01,1.000000000000000000e+00,-3.892963027954101562e+01,4.053002929687500000e+01,3.215526962280273438e+01,1.016191558837890625e+02,9.700865173339843750e+01,-5.376858234405517578e+00,4.031498432159423828e-01,-6.667353820800781250e+01,-1.826883239746093750e+02,-2.342747688293457031e+00,7.562291717529296875e+01,3.135653114318847656e+01
5.668119788169860840e-01,1.000000000000000000e+00,-3.897042083740234375e+01,4.044982910156250000e+01,3.217710876464843750e+01,1.015466842651367188e+02,9.702875518798828125e+01,-5.399305820465087891e+00,4.031498432159423828e-01,-6.667353820800781250e+01,-1.826883239746093750e+02,-2.342603921890258789e+00,7.562277984619140625e+01,3.135653114318847656e+01
5.725520253181457520e-01,1.000000000000000000e+00,-3.901170349121093750e+01,4.036915206909179688e+01,3.219902420043945312e+01,1.014740905761718750e+02,9.704938507080078125e+01,-5.420803546905517578e+00,4.031498432159423828e-01,-6.667353820800781250e+01,-1.826883239746093750e+02,-2.342603921890258789e+00,7.562299346923828125e+01,3.135653114318847656e+01
5.765519738197326660e-01,1.000000000000000000e+00,-3.905274963378906250e+01,4.028811264038085938e+01,3.222095870971679688e+01,1.014017181396484375e+02,9.707028961181640625e+01,-5.442640781402587891e+00,4.031498432159423828e-01,-6.667343902587890625e+01,-1.826883239746093750e+02,-2.342747688293457031e+00,7.562291717529296875e+01,3.135653114318847656e+01
5.807170271873474121e-01,1.000000000000000000e+00,-3.909377288818359375e+01,4.020678329467773438e+01,3.224320220947265625e+01,1.013292465209960938e+02,9.709075927734375000e+01,-5.464952468872070312e+00,4.031498432159423828e-01,-6.667353820800781250e+01,-1.826883239746093750e+02,-2.342747688293457031e+00,7.562291717529296875e+01,3.135653114318847656e+01
5.854349732398986816e-01,1.000000000000000000e+00,-3.913468170166015625e+01,4.012572097778320312e+01,3.226528549194335938e+01,1.012567596435546875e+02,9.710974121093750000e+01,-5.487535476684570312e+00,4.031498432159423828e-01,-6.667353820800781250e+01,-1.826883239746093750e+02,-2.342603921890258789e+00,7.562291717529296875e+01,3.135642242431640625e+01
5.887129902839660645e-01,1.000000000000000000e+00,-3.917587661743164062e+01,4.004475021362304688e+01,3.228738403320312500e+01,1.011840744018554688e+02,9.712940979003906250e+01,-5.509847164154052734e+00,4.031498432159423828e-01,-6.667353820800781250e+01,-1.826883239746093750e+02,-2.342747688293457031e+00,7.562291717529296875e+01,3.135653114318847656e+01
5.937989950180053711e-01,1.000000000000000000e+00,-3.921718597412109375e+01,3.996403121948242188e+01,3.230934143066406250e+01,1.011114349365234375e+02,9.714940643310546875e+01,-5.532362461090087891e+00,4.031498432159423828e-01,-6.667353820800781250e+01,-1.826883239746093750e+02,-2.342819452285766602e+00,7.562277984619140625e+01,3.135653114318847656e+01
5.967860221862792969e-01,1.000000000000000000e+00,-3.925849533081054688e+01,3.988372039794921875e+01,3.233134460449218750e+01,1.010385894775390625e+02,9.716945648193359375e+01,-5.555352210998535156e+00,4.031498432159423828e-01,-6.667353820800781250e+01,-1.826883239746093750e+02,-2.342819452285766602e+00,7.562291717529296875e+01,3.135653114318847656e+01
6.007980108261108398e-01,1.000000000000000000e+00,-3.929968643188476562e+01,3.980333709716796875e+01,3.235348129272460938e+01,1.009662170410156250e+02,9.719013977050781250e+01,-5.578545570373535156e+00,4.031498432159423828e-01,-6.667343902587890625e+01,-1.826883239746093750e+02,-2.342747688293457031e+00,7.562277984619140625e+01,3.135653114318847656e+01
6.049690246582031250e-01,1.000000000000000000e+00,-3.934117126464843750e+01,3.972254562377929688e+01,3.237550354003906250e+01,1.008931045532226562e+02,9.721093750000000000e+01,-5.600721836090087891e+00,4.031498432159423828e-01,-6.667362213134765625e+01,-1.826883239746093750e+02,-2.342747688293457031e+00,7.562291717529296875e+01,3.135653114318847656e+01
6.067860126495361328e-01,1.000000000000000000e+00,-3.938241958618164062e+01,3.964151000976562500e+01,3.239742279052734375e+01,1.008205184936523438e+02,9.723172760009765625e+01,-5.622559070587158203e+00,4.031498432159423828e-01,-6.667353820800781250e+01,-1.826883239746093750e+02,-2.342747688293457031e+00,7.562291717529296875e+01,3.135642242431640625e+01
6.130790114402770996e-01,1.000000000000000000e+00,-3.942367172241210938e+01,3.956033706665039062e+01,3.241952133178710938e+01,1.007474060058593750e+02,9.725139617919921875e+01,-5.644328117370605469e+00,4.031498432159423828e-01,-6.667353820800781250e+01,-1.826883239746093750e+02,-2.342747688293457031e+00,7.562299346923828125e+01,3.135653114318847656e+01
6.147469878196716309e-01,1.000000000000000000e+00,-3.946492385864257812e+01,3.947887039184570312e+01,3.244172668457031250e+01,1.006746597290039062e+02,9.727086639404296875e+01,-5.666571617126464844e+00,4.031498432159423828e-01,-6.667353820800781250e+01,-1.826883239746093750e+02,-2.342747688293457031e+00,7.562277984619140625e+01,3.135642242431640625e+01
6.207950115203857422e-01,1.000000000000000000e+00,-3.950629043579101562e+01,3.939715194702148438e+01,3.246400833129882812e+01,1.006012878417968750e+02,9.729058837890625000e+01,-5.689358234405517578e+00,4.031498432159423828e-01,-6.667353820800781250e+01,-1.826883239746093750e+02,-2.342747688293457031e+00,7.562291717529296875e+01,3.135642242431640625e+01
6.248419880867004395e-01,1.000000000000000000e+00,-3.954765701293945312e+01,3.931588745117187500e+01,3.248625183105468750e+01,1.005284957885742188e+02,9.731047058105468750e+01,-5.712077140808105469e+00,4.031498432159423828e-01,-6.667353820800781250e+01,-1.826883239746093750e+02,-2.342747688293457031e+00,7.562291717529296875e+01,3.135642242431640625e+01
6.290280222892761230e-01,1.000000000000000000e+00,-3.958896636962890625e+01,3.923462677001953125e+01,3.250820922851562500e+01,1.004553756713867188e+02,9.733073425292968750e+01,-5.735270023345947266e+00,4.031498432159423828e-01,-6.667353820800781250e+01,-1.826883239746093750e+02,-2.342747688293457031e+00,7.562291717529296875e+01,3.135642242431640625e+01
6.308040022850036621e-01,1.000000000000000000e+00,-3.963016128540039062e+01,3.915385818481445312e+01,3.253018569946289062e+01,1.003825912475585938e+02,9.735205841064453125e+01,-5.758124351501464844e+00,4.031498432159423828e-01,-6.667343902587890625e+01,-1.826883239746093750e+02,-2.342747688293457031e+00,7.562277984619140625e+01,3.135653114318847656e+01
6.357340216636657715e-01,1.000000000000000000e+00,-3.967149734497070312e+01,3.907252502441406250e+01,3.255226898193359375e+01,1.003090515136718750e+02,9.737290954589843750e+01,-5.780639648437500000e+00,4.031498432159423828e-01,-6.667353820800781250e+01,-1.826883239746093750e+02,-2.342819452285766602e+00,7.562277984619140625e+01,3.135653114318847656e+01
6.398050189018249512e-01,1.000000000000000000e+00,-3.971286392211914062e+01,3.899132919311523438e+01,3.257448959350585938e+01,1.002361450195312500e+02,9.739300537109375000e+01,-5.802476882934570312e+00,4.031498432159423828e-01,-6.667362213134765625e+01,-1.826883239746093750e+02,-2.342819452285766602e+00,7.562291717529296875e+01,3.135653114318847656e+01
6.438009738922119141e-01,1.000000000000000000e+00,-3.975429153442382812e+01,3.891011047363281250e+01,3.259665298461914062e+01,1.001627807617187500e+02,9.741230773925781250e+01,-5.824313640594482422e+00,4.031498432159423828e-01,-6.667362213134765625e+01,-1.826883239746093750e+02,-2.342747688293457031e+00,7.562291717529296875e+01,3.135653114318847656e+01
6.467229723930358887e-01,1.000000000000000000e+00,-3.979562759399414062e+01,3.882835006713867188e+01,3.261897659301757812e+01,1.000898284912109375e+02,9.743224334716796875e+01,-5.846761226654052734e+00,4.031498432159423828e-01,-6.667362213134765625e+01,-1.826883239746093750e+02,-2.342819452285766602e+00,7.562291717529296875e+01,3.135653114318847656e+01
6.532790064811706543e-01,1.000000000000000000e+00,-3.979562759399414062e+01,3.882835006713867188e+01,3.261897659301757812e+01,1.000898284912109375e+02,9.743224334716796875e+01,-5.846761226654052734e+00,4.031498432159423828e-01,-6.667362213134765625e+01,-1.826883239746093750e+02,-2.342819452285766602e+00,7.562291717529296875e+01,3.135653114318847656e+01
6.557989716529846191e-01,1.000000000000000000e+00,-3.987818527221679688e+01,3.866394424438476562e+01,3.266352081298828125e+01,9.994281005859375000e+01,9.747303771972656250e+01,-5.891859531402587891e+00,4.031498432159423828e-01,-6.667362213134765625e+01,-1.826883239746093750e+02,-2.342603921890258789e+00,7.562291717529296875e+01,3.135653114318847656e+01
6.598190069198608398e-01,1.000000000000000000e+00,-3.991958236694335938e+01,3.858177185058593750e+01,3.268582534790039062e+01,9.986895751953125000e+01,9.749409484863281250e+01,-5.914577960968017578e+00,4.031498432159423828e-01,-6.667362213134765625e+01,-1.826883239746093750e+02,-2.342747688293457031e+00,7.562291717529296875e+01,3.135653114318847656e+01
6.627290248870849609e-01,1.000000000000000000e+00,-3.996095275878906250e+01,3.850019073486328125e+01,3.270790863037109375e+01,9.979600524902343750e+01,9.751537322998046875e+01,-5.937839031219482422e+00,4.031498432159423828e-01,-6.667353820800781250e+01,-1.826883239746093750e+02,-2.342819452285766602e+00,7.562291717529296875e+01,3.135653114318847656e+01
6.677880287170410156e-01,1.000000000000000000e+00,-3.996095275878906250e+01,3.850019073486328125e+01,3.270790863037109375e+01,9.979600524902343750e+01,9.751537322998046875e+01,-5.937839031219482422e+00,4.031498432159423828e-01,-6.667353820800781250e+01,-1.826883239746093750e+02,-2.342819452285766602e+00,7.562291717529296875e+01,3.135653114318847656e+01
6.707260012626647949e-01,1.000000000000000000e+00,-4.004373931884765625e+01,3.833744049072265625e+01,3.275241470336914062e+01,9.964862060546875000e+01,9.755529785156250000e+01,-5.982462882995605469e+00,4.031498432159423828e-01,-6.667353820800781250e+01,-1.826883239746093750e+02,-2.342747688293457031e+00,7.562291717529296875e+01,3.135653114318847656e+01
6.758289933204650879e-01,1.000000000000000000e+00,-4.004373931884765625e+01,3.833744049072265625e+01,3.275241470336914062e+01,9.964862060546875000e+01,9.755529785156250000e+01,-5.982462882995605469e+00,4.031498432159423828e-01,-6.667353820800781250e+01,-1.826883239746093750e+02,-2.342747688293457031e+00,7.562291717529296875e+01,3.135653114318847656e+01
6.787980198860168457e-01,1.000000000000000000e+00,-4.012647247314453125e+01,3.817400741577148438e+01,3.279724884033203125e+01,9.950151062011718750e+01,9.759470367431640625e+01,-6.026950359344482422e+00,4.031498432159423828e-01,-6.667362213134765625e+01,-1.826883239746093750e+02,-2.342747688293457031e+00,7.562291717529296875e+01,3.135653114318847656e+01
6.837790012359619141e-01,1.000000000000000000e+00,-4.012647247314453125e+01,3.817400741577148438e+01,3.279724884033203125e+01,9.950151062011718750e+01,9.759470367431640625e+01,-6.026950359344482422e+00,4.031498432159423828e-01,-6.667362213134765625e+01,-1.826883239746093750e+02,-2.342747688293457031e+00,7.562291717529296875e+01,3.135653114318847656e+01
6.877940297126770020e-01,1.000000000000000000e+00,-4.020957946777343750e+01,3.800950622558593750e+01,3.284177398681640625e+01,9.935375976562500000e+01,9.763692474365234375e+01,-6.072726726531982422e+00,4.031498432159423828e-01,-6.667353820800781250e+01,-1.826883239746093750e+02,-2.342747688293457031e+00,7.562277984619140625e+01,3.135653114318847656e+01
6.917300224304199219e-01,1.000000000000000000e+00,-4.025111770629882812e+01,3.792702484130859375e+01,3.286407852172851562e+01,9.927980041503906250e+01,9.765814971923828125e+01,-6.095310211181640625e+00,4.031498432159423828e-01,-6.667353820800781250e+01,-1.826883239746093750e+02,-2.342747688293457031e+00,7.562277984619140625e+01,3.135675048828125000e+01
6.957179903984069824e-01,1.000000000000000000e+00,-4.029277038574218750e+01,3.784469604492187500e+01,3.288648223876953125e+01,9.920642852783203125e+01,9.767857360839843750e+01,-6.118638992309570312e+00,4.031498432159423828e-01,-6.667353820800781250e+01,-1.826883239746093750e+02,-2.342819452285766602e+00,7.562299346923828125e+01,3.135653114318847656e+01
6.998170018196105957e-01,1.000000000000000000e+00,-4.033436965942382812e+01,3.776259231567382812e+01,3.290903091430664062e+01,9.913257598876953125e+01,9.769856262207031250e+01,-6.141561031341552734e+00,4.031498432159423828e-01,-6.667343902587890625e+01,-1.826881713867187500e+02,-2.342747688293457031e+00,7.562291717529296875e+01,3.135653114318847656e+01
7.027980089187622070e-01,1.000000000000000000e+00,-4.037610626220703125e+01,3.768094635009765625e+01,3.293137359619140625e+01,9.905846405029296875e+01,9.771839904785156250e+01,-6.163601398468017578e+00,4.031498432159423828e-01,-6.667353820800781250e+01,-1.826881713867187500e+02,-2.342819452285766602e+00,7.562291717529296875e+01,3.135653114318847656e+01
7.077819705009460449e-01,1.000000000000000000e+00,-4.037610626220703125e+01,3.768094635009765625e+01,3.293137359619140625e+01,9.905846405029296875e+01,9.771839904785156250e+01,-6.163601398468017578e+00,4.031498432159423828e-01,-6.667353820800781250e+01,-1.826881713867187500e+02,-2.342819452285766602e+00,7.562291717529296875e+01,3.135653114318847656e+01
7.107390165328979492e-01,1.000000000000000000e+00,-4.045978546142578125e+01,3.751708221435546875e+01,3.297598266601562500e+01,9.891056060791015625e+01,9.775923156738281250e+01,-6.207953929901123047e+00,4.031498432159423828e-01,-6.667353820800781250e+01,-1.826883239746093750e+02,-2.342603921890258789e+00,7.562291717529296875e+01,3.135653114318847656e+01
7.158619761466979980e-01,1.000000000000000000e+00,-4.045978546142578125e+01,3.751708221435546875e+01,3.297598266601562500e+01,9.891056060791015625e+01,9.775923156738281250e+01,-6.207953929901123047e+00,4.031498432159423828e-01,-6.667353820800781250e+01,-1.826883239746093750e+02,-2.342603921890258789e+00,7.562291717529296875e+01,3.135653114318847656e+01
7.197290062904357910e-01,1.000000000000000000e+00,-4.054321289062500000e+01,3.735224533081054688e+01,3.302114105224609375e+01,9.876232910156250000e+01,9.780200195312500000e+01,-6.253051757812500000e+00,4.031498432159423828e-01,-6.667353820800781250e+01,-1.826883239746093750e+02,-2.342603921890258789e+00,7.562291717529296875e+01,3.135653114318847656e+01
7.237150073051452637e-01,1.000000000000000000e+00,-4.058517837524414062e+01,3.726946258544921875e+01,3.304350662231445312e+01,9.868805694580078125e+01,9.782284545898437500e+01,-6.276448726654052734e+00,4.031498432159423828e-01,-6.667353820800781250e+01,-1.826883239746093750e+02,-2.342747688293457031e+00,7.562291717529296875e+01,3.135653114318847656e+01
7.277349829673767090e-01,1.000000000000000000e+00,-4.062714767456054688e+01,3.718634414672851562e+01,3.306581115722656250e+01,9.861399841308593750e+01,9.784241485595703125e+01,-6.299981117248535156e+00,4.031498432159423828e-01,-6.667353820800781250e+01,-1.826883239746093750e+02,-2.342747688293457031e+00,7.562291717529296875e+01,3.135653114318847656e+01
7.318130135536193848e-01,1.000000000000000000e+00,-4.066903305053710938e+01,3.710345077514648438e+01,3.308827590942382812e+01,9.853989410400390625e+01,9.786229705810546875e+01,-6.323174476623535156e+00,4.031498432159423828e-01,-6.667353820800781250e+01,-1.826883239746093750e+02,-2.342747688293457031e+00,7.562277984619140625e+01,3.135653114318847656e+01
7.347589731216430664e-01,1.000000000000000000e+00,-4.071111679077148438e+01,3.702082824707031250e+01,3.311084365844726562e+01,9.846583557128906250e+01,9.788228607177734375e+01,-6.345757484436035156e+00,4.031498432159423828e-01,-6.667353820800781250e+01,-1.826883239746093750e+02,-2.342819452285766602e+00,7.562291717529296875e+01,3.135653114318847656e+01
7.398430109024047852e-01,1.000000000000000000e+00,-4.071111679077148438e+01,3.702082824707031250e+01,3.311084365844726562e+01,9.846583557128906250e+01,9.788228607177734375e+01,-6.345757484436035156e+00,4.031498432159423828e-01,-6.667353820800781250e+01,-1.826883239746093750e+02,-2.342819452285766602e+00,7.562291717529296875e+01,3.135653114318847656e+01
7.437790036201477051e-01,1.000000000000000000e+00,-4.079505538940429688e+01,3.685655975341796875e+01,3.315602111816406250e+01,9.831739044189453125e+01,9.792398834228515625e+01,-6.390041828155517578e+00,4.031498432159423828e-01,-6.667353820800781250e+01,-1.826883239746093750e+02,-2.342747688293457031e+00,7.562291717529296875e+01,3.135653114318847656e+01
7.477170228958129883e-01,1.000000000000000000e+00,-4.083705139160156250e+01,3.677414321899414062e+01,3.317828369140625000e+01,9.824317169189453125e+01,9.794531250000000000e+01,-6.413438796997070312e+00,4.031498432159423828e-01,-6.667353820800781250e+01,-1.826881713867187500e+02,-2.342747688293457031e+00,7.562277984619140625e+01,3.135653114318847656e+01
7.517210245132446289e-01,1.000000000000000000e+00,-4.087922286987304688e+01,3.669140625000000000e+01,3.320064926147460938e+01,9.816874694824218750e+01,9.796615600585937500e+01,-6.436563968658447266e+00,4.031498432159423828e-01,-6.667353820800781250e+01,-1.826883239746093750e+02,-2.342819452285766602e+00,7.562291717529296875e+01,3.135653114318847656e+01
7.558400034904479980e-01,1.000000000000000000e+00,-4.092136383056640625e+01,3.660858154296875000e+01,3.322319793701171875e+01,9.809368896484375000e+01,9.798599243164062500e+01,-6.459418296813964844e+00,4.031498432159423828e-01,-6.667362213134765625e+01,-1.826883239746093750e+02,-2.342747688293457031e+00,7.562291717529296875e+01,3.135653114318847656e+01
7.588070034980773926e-01,1.000000000000000000e+00,-4.096353530883789062e+01,3.652511978149414062e+01,3.324590682983398438e+01,9.801914978027343750e+01,9.800603485107421875e+01,-6.482882976531982422e+00,4.031498432159423828e-01,-6.667362213134765625e+01,-1.826883239746093750e+02,-2.342603921890258789e+00,7.562291717529296875e+01,3.135653114318847656e+01
7.637839913368225098e-01,1.000000000000000000e+00,-4.096353530883789062e+01,3.652511978149414062e+01,3.324590682983398438e+01,9.801914978027343750e+01,9.800603485107421875e+01,-6.482882976531982422e+00,4.031498432159423828e-01,-6.667362213134765625e+01,-1.826883239746093750e+02,-2.342603921890258789e+00,7.562291717529296875e+01,3.135653114318847656e+01
7.687829732894897461e-01,1.000000000000000000e+00,-4.104747390747070312e+01,3.635856628417968750e+01,3.329124832153320312e+01,9.787077331542968750e+01,9.804687500000000000e+01,-6.528795242309570312e+00,4.031498432159423828e-01,-6.667353820800781250e+01,-1.826883239746093750e+02,-2.342819452285766602e+00,7.562291717529296875e+01,3.135653114318847656e+01
7.718020081520080566e-01,1.000000000000000000e+00,-4.108950042724609375e+01,3.627564620971679688e+01,3.331375503540039062e+01,9.779576110839843750e+01,9.806830596923828125e+01,-6.551310539245605469e+00,4.031498432159423828e-01,-6.667353820800781250e+01,-1.826883239746093750e+02,-2.342747688293457031e+00,7.562277984619140625e+01,3.135653114318847656e+01
7.767500281333923340e-01,1.000000000000000000e+00,-4.108950042724609375e+01,3.627564620971679688e+01,3.331375503540039062e+01,9.779576110839843750e+01,9.806830596923828125e+01,-6.551310539245605469e+00,4.031498432159423828e-01,-6.667343902587890625e+01,-1.826883239746093750e+02,-2.342747688293457031e+00,7.562291717529296875e+01,3.135653114318847656e+01
7.800639867782592773e-01,1.000000000000000000e+00,-4.117361068725585938e+01,3.611022186279296875e+01,3.335911560058593750e+01,9.764648437500000000e+01,9.811106872558593750e+01,-6.596951007843017578e+00,4.031498432159423828e-01,-6.667353820800781250e+01,-1.826883239746093750e+02,-2.342819452285766602e+00,7.562277984619140625e+01,3.135653114318847656e+01
7.827259898185729980e-01,1.000000000000000000e+00,-4.121572494506835938e+01,3.602737808227539062e+01,3.338168334960937500e+01,9.757152557373046875e+01,9.813101196289062500e+01,-6.620212078094482422e+00,4.031498432159423828e-01,-6.667362213134765625e+01,-1.826883239746093750e+02,-2.342747688293457031e+00,7.562291717529296875e+01,3.135653114318847656e+01
7.878620028495788574e-01,1.000000000000000000e+00,-4.121572494506835938e+01,3.602737808227539062e+01,3.338168334960937500e+01,9.757152557373046875e+01,9.813101196289062500e+01,-6.620212078094482422e+00,4.031498432159423828e-01,-6.667362213134765625e+01,-1.826883239746093750e+02,-2.342747688293457031e+00,7.562291717529296875e+01,3.135653114318847656e+01
7.927449941635131836e-01,1.000000000000000000e+00,-4.125766754150390625e+01,3.594437026977539062e+01,3.340429306030273438e+01,9.749705505371093750e+01,9.815084075927734375e+01,-6.643744945526123047e+00,4.031498432159423828e-01,-6.667353820800781250e+01,-1.826883239746093750e+02,-2.342747688293457031e+00,7.562291717529296875e+01,3.135653114318847656e+01
7.957599759101867676e-01,1.000000000000000000e+00,-4.134140396118164062e+01,3.577722549438476562e+01,3.344973373413085938e+01,9.734735107421875000e+01,9.819190216064453125e+01,-6.690877437591552734e+00,4.031498432159423828e-01,-6.667353820800781250e+01,-1.826883239746093750e+02,-2.342747688293457031e+00,7.562291717529296875e+01,3.135642242431640625e+01
8.007599711418151855e-01,1.000000000000000000e+00,-4.134140396118164062e+01,3.577722549438476562e+01,3.344973373413085938e+01,9.734735107421875000e+01,9.819190216064453125e+01,-6.690877437591552734e+00,4.031498432159423828e-01,-6.667353820800781250e+01,-1.826883239746093750e+02,-2.342747688293457031e+00,7.562291717529296875e+01,3.135642242431640625e+01
8.040829896926879883e-01,1.000000000000000000e+00,-4.142554092407226562e+01,3.560951232910156250e+01,3.349541854858398438e+01,9.719728088378906250e+01,9.823481750488281250e+01,-6.736585617065429688e+00,4.031498432159423828e-01,-6.667353820800781250e+01,-1.826883239746093750e+02,-2.342747688293457031e+00,7.562291717529296875e+01,3.135653114318847656e+01
8.087909817695617676e-01,1.000000000000000000e+00,-4.142554092407226562e+01,3.560951232910156250e+01,3.349541854858398438e+01,9.719728088378906250e+01,9.823481750488281250e+01,-6.736585617065429688e+00,4.031498432159423828e-01,-6.667343902587890625e+01,-1.826883239746093750e+02,-2.342747688293457031e+00,7.562291717529296875e+01,3.135653114318847656e+01
8.123850226402282715e-01,1.000000000000000000e+00,-4.150942230224609375e+01,3.544316482543945312e+01,3.354059600830078125e+01,9.704715728759765625e+01,9.827597808837890625e+01,-6.782361984252929688e+00,4.031498432159423828e-01,-6.667353820800781250e+01,-1.826883239746093750e+02,-2.342819452285766602e+00,7.562291717529296875e+01,3.135653114318847656e+01
8.157879710197448730e-01,1.000000000000000000e+00,-4.155139541625976562e+01,3.536017608642578125e+01,3.356334686279296875e+01,9.697177886962890625e+01,9.829607391357421875e+01,-6.805623531341552734e+00,4.031498432159423828e-01,-6.667353820800781250e+01,-1.826883239746093750e+02,-2.342747688293457031e+00,7.562277984619140625e+01,3.135642242431640625e+01
8.198019862174987793e-01,1.000000000000000000e+00,-4.155139541625976562e+01,3.536017608642578125e+01,3.356334686279296875e+01,9.697177886962890625e+01,9.829607391357421875e+01,-6.805623531341552734e+00,4.031498432159423828e-01,-6.667353820800781250e+01,-1.826883239746093750e+02,-2.342747688293457031e+00,7.562277984619140625e+01,3.135642242431640625e+01
8.238459825515747070e-01,1.000000000000000000e+00,-4.159356307983398438e+01,3.527678680419921875e+01,3.358626174926757812e+01,9.689677429199218750e+01,9.831660461425781250e+01,-6.829020500183105469e+00,4.031498432159423828e-01,-6.667362213134765625e+01,-1.826883239746093750e+02,-2.342747688293457031e+00,7.562291717529296875e+01,3.135653114318847656e+01
8.277860283851623535e-01,1.000000000000000000e+00,-4.163573455810546875e+01,3.519312286376953125e+01,3.360907363891601562e+01,9.682160949707031250e+01,9.833755493164062500e+01,-6.853230953216552734e+00,4.031498432159423828e-01,-6.667353820800781250e+01,-1.826883239746093750e+02,-2.342747688293457031e+00,7.562291717529296875e+01,3.135653114318847656e+01
8.317859768867492676e-01,1.000000000000000000e+00,-4.167779159545898438e+01,3.510923385620117188e+01,3.363194656372070312e+01,9.674644470214843750e+01,9.835920715332031250e+01,-6.876763343811035156e+00,4.031498432159423828e-01,-6.667353820800781250e+01,-1.826883239746093750e+02,-2.342747688293457031e+00,7.562291717529296875e+01,3.135653114318847656e+01
8.358500003814697266e-01,1.000000000000000000e+00,-4.171995925903320312e+01,3.502507400512695312e+01,3.365465927124023438e+01,9.667106628417968750e+01,9.838111877441406250e+01,-6.899549961090087891e+00,4.031498432159423828e-01,-6.667353820800781250e+01,-1.826883239746093750e+02,-2.342747688293457031e+00,7.562291717529296875e+01,3.135653114318847656e+01
8.397859930992126465e-01,1.000000000000000000e+00,-4.176218795776367188e+01,3.494073104858398438e+01,3.367751312255859375e+01,9.659579467773437500e+01,9.840228271484375000e+01,-6.921861648559570312e+00,4.031498432159423828e-01,-6.667353820800781250e+01,-1.826883239746093750e+02,-2.342819452285766602e+00,7.562291717529296875e+01,3.135653114318847656e+01
8.437759876251220703e-01,1.000000000000000000e+00,-4.180472946166992188e+01,3.485666275024414062e+01,3.370046615600585938e+01,9.652015686035156250e+01,9.842270660400390625e+01,-6.944647789001464844e+00,4.031498432159423828e-01,-6.667353820800781250e+01,-1.826883239746093750e+02,-2.342747688293457031e+00,7.562277984619140625e+01,3.135653114318847656e+01
8.478490114212036133e-01,1.000000000000000000e+00,-4.184721755981445312e+01,3.477286148071289062e+01,3.372317504882812500e+01,9.644451904296875000e+01,9.844285583496093750e+01,-6.967841625213623047e+00,4.031498432159423828e-01,-6.667362213134765625e+01,-1.826883239746093750e+02,-2.342747688293457031e+00,7.562277984619140625e+01,3.135653114318847656e+01
8.518030047416687012e-01,1.000000000000000000e+00,-4.188961410522460938e+01,3.468910980224609375e+01,3.374596786499023438e+01,9.636919403076171875e+01,9.846348571777343750e+01,-6.991306304931640625e+00,4.031498432159423828e-01,-6.667353820800781250e+01,-1.826883239746093750e+02,-2.342603921890258789e+00,7.562291717529296875e+01,3.135653114318847656e+01
8.557810187339782715e-01,1.000000000000000000e+00,-4.193212890625000000e+01,3.460547256469726562e+01,3.376876068115234375e+01,9.629376220703125000e+01,9.848465728759765625e+01,-7.014567375183105469e+00,4.031498432159423828e-01,-6.667353820800781250e+01,-1.826883239746093750e+02,-2.342747688293457031e+00,7.562291717529296875e+01,3.135653114318847656e+01
8.598369956016540527e-01,1.000000000000000000e+00,-4.197476196289062500e+01,3.452175903320312500e+01,3.379163360595703125e+01,9.621807098388671875e+01,9.850652313232421875e+01,-7.038302898406982422e+00,4.031498432159423828e-01,-6.667353820800781250e+01,-1.826883239746093750e+02,-2.342747688293457031e+00,7.562299346923828125e+01,3.135653114318847656e+01
8.638589978218078613e-01,1.000000000000000000e+00,-4.201747512817382812e+01,3.443762207031250000e+01,3.381452941894531250e+01,9.614206695556640625e+01,9.852837371826171875e+01,-7.062039375305175781e+00,4.031498432159423828e-01,-6.667353820800781250e+01,-1.826883239746093750e+02,-2.342603921890258789e+00,7.562291717529296875e+01,3.135653114318847656e+01
8.677729964256286621e-01,1.000000000000000000e+00,-4.206036376953125000e+01,3.435314559936523438e+01,3.383739852905273438e+01,9.606637573242187500e+01,9.854959869384765625e+01,-7.084961414337158203e+00,4.031498432159423828e-01,-6.667353820800781250e+01,-1.826883239746093750e+02,-2.342747688293457031e+00,7.562277984619140625e+01,3.135653114318847656e+01
8.717839717864990234e-01,1.000000000000000000e+00,-4.210316848754882812e+01,3.426830673217773438e+01,3.386013031005859375e+01,9.599094390869140625e+01,9.857001495361328125e+01,-7.107476234436035156e+00,4.031498432159423828e-01,-6.667353820800781250e+01,-1.826883239746093750e+02,-2.342603921890258789e+00,7.562291717529296875e+01,3.135653114318847656e+01
8.758749961853027344e-01,1.000000000000000000e+00,-4.214608383178710938e+01,3.418367004394531250e+01,3.388302612304687500e+01,9.591503906250000000e+01,9.859059906005859375e+01,-7.130465984344482422e+00,4.031498432159423828e-01,-6.667353820800781250e+01,-1.826883239746093750e+02,-2.342819452285766602e+00,7.562277984619140625e+01,3.135653114318847656e+01
8.798649907112121582e-01,1.000000000000000000e+00,-4.218894195556640625e+01,3.409914779663085938e+01,3.390610122680664062e+01,9.583892059326171875e+01,9.861149597167968750e+01,-7.153659343719482422e+00,4.031498432159423828e-01,-6.667353820800781250e+01,-1.826883239746093750e+02,-2.342747688293457031e+00,7.562299346923828125e+01,3.135653114318847656e+01
8.837820291519165039e-01,1.000000000000000000e+00,-4.223191833496093750e+01,3.401494216918945312e+01,3.392901611328125000e+01,9.576349639892578125e+01,9.863288116455078125e+01,-7.177056312561035156e+00,4.031498432159423828e-01,-6.667353820800781250e+01,-1.826883239746093750e+02,-2.342819452285766602e+00,7.562291717529296875e+01,3.135653114318847656e+01
8.878570199012756348e-01,1.000000000000000000e+00,-4.227506256103515625e+01,3.393105316162109375e+01,3.395221328735351562e+01,9.568743133544921875e+01,9.865462493896484375e+01,-7.200995922088623047e+00,4.031498432159423828e-01,-6.667353820800781250e+01,-1.826883239746093750e+02,-2.342747688293457031e+00,7.562291717529296875e+01,3.135653114318847656e+01
8.917859792709350586e-01,1.000000000000000000e+00,-4.231821060180664062e+01,3.384709548950195312e+01,3.397512817382812500e+01,9.561121368408203125e+01,9.867675781250000000e+01,-7.224799156188964844e+00,4.031498432159423828e-01,-6.667353820800781250e+01,-1.826883239746093750e+02,-2.342747688293457031e+00,7.562291717529296875e+01,3.135653114318847656e+01
8.957790136337280273e-01,1.000000000000000000e+00,-4.236124038696289062e+01,3.376300048828125000e+01,3.399812316894531250e+01,9.553498840332031250e+01,9.869786834716796875e+01,-7.248331546783447266e+00,4.031498432159423828e-01,-6.667353820800781250e+01,-1.826883239746093750e+02,-2.342603921890258789e+00,7.562291717529296875e+01,3.135653114318847656e+01
8.998439908027648926e-01,1.000000000000000000e+00,-4.240430068969726562e+01,3.367841339111328125e+01,3.402113723754882812e+01,9.545941162109375000e+01,9.871829223632812500e+01,-7.271118164062500000e+00,4.031498432159423828e-01,-6.667353820800781250e+01,-1.826883239746093750e+02,-2.342747688293457031e+00,7.562299346923828125e+01,3.135653114318847656e+01
9.037770032882690430e-01,1.000000000000000000e+00,-4.244733047485351562e+01,3.359377670288085938e+01,3.404405212402343750e+01,9.538318634033203125e+01,9.873854827880859375e+01,-7.293701171875000000e+00,4.031498432159423828e-01,-6.667343902587890625e+01,-1.826883239746093750e+02,-2.342747688293457031e+00,7.562291717529296875e+01,3.135653114318847656e+01
9.080529808998107910e-01,1.000000000000000000e+00,-4.249056625366210938e+01,3.350882339477539062e+01,3.406713104248046875e+01,9.530680847167968750e+01,9.875939178466796875e+01,-7.316826343536376953e+00,4.031498432159423828e-01,-6.667353820800781250e+01,-1.826883239746093750e+02,-2.342819452285766602e+00,7.562291717529296875e+01,3.135642242431640625e+01
9.119380116462707520e-01,1.000000000000000000e+00,-4.253356933593750000e+01,3.342371368408203125e+01,3.409022521972656250e+01,9.523059082031250000e+01,9.878076934814453125e+01,-7.340020179748535156e+00,4.031498432159423828e-01,-6.667353820800781250e+01,-1.826883239746093750e+02,-2.342747688293457031e+00,7.562291717529296875e+01,3.135653114318847656e+01
9.157800078392028809e-01,1.000000000000000000e+00,-4.257680130004882812e+01,3.333887481689453125e+01,3.411350631713867188e+01,9.515437316894531250e+01,9.880290222167968750e+01,-7.363620281219482422e+00,4.031498432159423828e-01,-6.667343902587890625e+01,-1.826883239746093750e+02,-2.342603921890258789e+00,7.562291717529296875e+01,3.135653114318847656e+01
9.199360013008117676e-01,1.000000000000000000e+00,-4.261997604370117188e+01,3.325446319580078125e+01,3.413674545288085938e+01,9.507825469970703125e+01,9.882492065429687500e+01,-7.387355804443359375e+00,4.031498432159423828e-01,-6.667353820800781250e+01,-1.826883239746093750e+02,-2.342819452285766602e+00,7.562277984619140625e+01,3.135653114318847656e+01
9.238939881324768066e-01,1.000000000000000000e+00,-4.266300964355468750e+01,3.316989517211914062e+01,3.415972137451171875e+01,9.500193786621093750e+01,9.884582519531250000e+01,-7.411363124847412109e+00,4.030399620532989502e-01,-6.667362213134765625e+01,-1.826883239746093750e+02,-2.342747688293457031e+00,7.562291717529296875e+01,3.135653114318847656e+01
9.278150200843811035e-01,1.000000000000000000e+00,-4.270581054687500000e+01,3.308553314208984375e+01,3.418267440795898438e+01,9.492607879638671875e+01,9.886602783203125000e+01,-7.435099601745605469e+00,4.031498432159423828e-01,-6.667353820800781250e+01,-1.826883239746093750e+02,-2.342747688293457031e+00,7.562291717529296875e+01,3.135642242431640625e+01
9.324499964714050293e-01,1.000000000000000000e+00,-4.274892425537109375e+01,3.300091552734375000e+01,3.420568847656250000e+01,9.484933471679687500e+01,9.888687133789062500e+01,-7.458292484283447266e+00,4.031498432159423828e-01,-6.667353820800781250e+01,-1.826883239746093750e+02,-2.342819452285766602e+00,7.562291717529296875e+01,3.135653114318847656e+01
9.361699819564819336e-01,1.000000000000000000e+00,-4.279224395751953125e+01,3.291558074951171875e+01,3.422893142700195312e+01,9.477311706542968750e+01,9.890809631347656250e+01,-7.481147289276123047e+00,4.031498432159423828e-01,-6.667343902587890625e+01,-1.826883239746093750e+02,-2.342747688293457031e+00,7.562291717529296875e+01,3.135653114318847656e+01
9.394760131835937500e-01,1.000000000000000000e+00,-4.283541870117187500e+01,3.283001708984375000e+01,3.425218963623046875e+01,9.469595336914062500e+01,9.892963409423828125e+01,-7.504475593566894531e+00,4.031498432159423828e-01,-6.667353820800781250e+01,-1.826883239746093750e+02,-2.342747688293457031e+00,7.562291717529296875e+01,3.135653114318847656e+01
9.439780116081237793e-01,1.000000000000000000e+00,-4.287827682495117188e+01,3.274418258666992188e+01,3.427540969848632812e+01,9.461972808837890625e+01,9.895170593261718750e+01,-7.527940750122070312e+00,4.031498432159423828e-01,-6.667353820800781250e+01,-1.826883239746093750e+02,-2.342747688293457031e+00,7.562291717529296875e+01,3.135653114318847656e+01
9.477149844169616699e-01,1.000000000000000000e+00,-4.292142486572265625e+01,3.265834426879882812e+01,3.429856872558593750e+01,9.454282379150390625e+01,9.897377777099609375e+01,-7.551540851593017578e+00,4.031498432159423828e-01,-6.667353820800781250e+01,-1.826883239746093750e+02,-2.342747688293457031e+00,7.562291717529296875e+01,3.135653114318847656e+01
9.529200196266174316e-01,1.000000000000000000e+00,-4.300763320922851562e+01,3.248789596557617188e+01,3.434512329101562500e+01,9.438991546630859375e+01,9.901504516601562500e+01,-7.599894523620605469e+00,4.031498432159423828e-01,-6.667353820800781250e+01,-1.826883239746093750e+02,-2.342747688293457031e+00,7.562291717529296875e+01,3.135653114318847656e+01
9.558290243148803711e-01,1.000000000000000000e+00,-4.300763320922851562e+01,3.248789596557617188e+01,3.434512329101562500e+01,9.438991546630859375e+01,9.901504516601562500e+01,-7.599894523620605469e+00,4.031498432159423828e-01,-6.667353820800781250e+01,-1.826883239746093750e+02,-2.342747688293457031e+00,7.562291717529296875e+01,3.135653114318847656e+01
9.603220224380493164e-01,1.000000000000000000e+00,-4.305072021484375000e+01,3.240301132202148438e+01,3.436834335327148438e+01,9.431327819824218750e+01,9.903583526611328125e+01,-7.623698234558105469e+00,4.031498432159423828e-01,-6.667362213134765625e+01,-1.826883239746093750e+02,-2.342747688293457031e+00,7.562299346923828125e+01,3.135653114318847656e+01
9.638130068778991699e-01,1.000000000000000000e+00,-4.309392547607421875e+01,3.231803894042968750e+01,3.439128112792968750e+01,9.423647308349609375e+01,9.905657958984375000e+01,-7.646552085876464844e+00,4.031498432159423828e-01,-6.667353820800781250e+01,-1.826883239746093750e+02,-2.342747688293457031e+00,7.562291717529296875e+01,3.135653114318847656e+01
9.679639935493469238e-01,1.000000000000000000e+00,-4.313701248168945312e+01,3.223263168334960938e+01,3.441433715820312500e+01,9.415956878662109375e+01,9.907849121093750000e+01,-7.669406890869140625e+00,4.031498432159423828e-01,-6.667353820800781250e+01,-1.826883239746093750e+02,-2.342603921890258789e+00,7.562291717529296875e+01,3.135653114318847656e+01
9.718379974365234375e-01,1.000000000000000000e+00,-4.318024826049804688e+01,3.214704895019531250e+01,3.443769836425781250e+01,9.408282470703125000e+01,9.910077667236328125e+01,-7.693006992340087891e+00,4.031498432159423828e-01,-6.667353820800781250e+01,-1.826883239746093750e+02,-2.342747688293457031e+00,7.562299346923828125e+01,3.135653114318847656e+01
9.758329987525939941e-01,1.000000000000000000e+00,-4.322344970703125000e+01,3.206093978881835938e+01,3.446118164062500000e+01,9.400591278076171875e+01,9.912274932861328125e+01,-7.716811180114746094e+00,4.031498432159423828e-01,-6.667353820800781250e+01,-1.826883239746093750e+02,-2.342747688293457031e+00,7.562299346923828125e+01,3.135653114318847656e+01
9.810410141944885254e-01,1.000000000000000000e+00,-4.326673889160156250e+01,3.197462844848632812e+01,3.448460006713867188e+01,9.392911529541015625e+01,9.914353942871093750e+01,-7.740682601928710938e+00,4.031498432159423828e-01,-6.667343902587890625e+01,-1.826883239746093750e+02,-2.342747688293457031e+00,7.562291717529296875e+01,3.135642242431640625e+01
9.844689965248107910e-01,1.000000000000000000e+00,-4.331002807617187500e+01,3.188865852355957031e+01,3.450780105590820312e+01,9.385184478759765625e+01,9.916395568847656250e+01,-7.765028476715087891e+00,4.031498432159423828e-01,-6.667353820800781250e+01,-1.826883239746093750e+02,-2.342819452285766602e+00,7.562291717529296875e+01,3.135653114318847656e+01
9.879119992256164551e-01,1.000000000000000000e+00,-4.335343551635742188e+01,3.180298042297363281e+01,3.453099822998046875e+01,9.377494812011718750e+01,9.918495941162109375e+01,-7.789170742034912109e+00,4.031498432159423828e-01,-6.667362213134765625e+01,-1.826883239746093750e+02,-2.342603921890258789e+00,7.562299346923828125e+01,3.135653114318847656e+01
9.920129776000976562e-01,1.000000000000000000e+00,-4.339683914184570312e+01,3.171761894226074219e+01,3.455427932739257812e+01,9.369741058349609375e+01,9.920639801025390625e+01,-7.813246250152587891e+00,4.031498432159423828e-01,-6.667353820800781250e+01,-1.826883239746093750e+02,-2.342891216278076172e+00,7.562291717529296875e+01,3.135653114318847656e+01
9.959679841995239258e-01,1.000000000000000000e+00,-4.344050216674804688e+01,3.163230705261230469e+01,3.457768249511718750e+01,9.362044525146484375e+01,9.922836303710937500e+01,-7.836779117584228516e+00,4.031498432159423828e-01,-6.667353820800781250e+01,-1.826881713867187500e+02,-2.342603921890258789e+00,7.562291717529296875e+01,3.135653114318847656e+01
1.000005960464477539e+00,1.000000000000000000e+00,-4.348407745361328125e+01,3.154707908630371094e+01,3.460112380981445312e+01,9.354307556152343750e+01,9.925102233886718750e+01,-7.859768390655517578e+00,4.031498432159423828e-01,-6.667353820800781250e+01,-1.826883239746093750e+02,-2.342747688293457031e+00,7.562291717529296875e+01,3.135653114318847656e+01
1.004053950309753418e+00,1.000000000000000000e+00,-4.352777099609375000e+01,3.146131324768066406e+01,3.462442398071289062e+01,9.346637725830078125e+01,9.927304077148437500e+01,-7.883165359497070312e+00,4.031498432159423828e-01,-6.667353820800781250e+01,-1.826883239746093750e+02,-2.342747688293457031e+00,7.562291717529296875e+01,3.135653114318847656e+01
1.008715033531188965e+00,1.000000000000000000e+00,-4.357131958007812500e+01,3.137502670288085938e+01,3.464776229858398438e+01,9.338837432861328125e+01,9.929394531250000000e+01,-7.907104492187500000e+00,4.031498432159423828e-01,-6.667353820800781250e+01,-1.826883239746093750e+02,-2.342747688293457031e+00,7.562291717529296875e+01,3.135653114318847656e+01
1.012102007865905762e+00,1.000000000000000000e+00,-4.361509704589843750e+01,3.128842163085937500e+01,3.467134857177734375e+01,9.331140899658203125e+01,9.931446838378906250e+01,-7.931111812591552734e+00,4.031498432159423828e-01,-6.667353820800781250e+01,-1.826883239746093750e+02,-2.342747688293457031e+00,7.562299346923828125e+01,3.135653114318847656e+01
1.016064047813415527e+00,1.000000000000000000e+00,-4.365884780883789062e+01,3.120179367065429688e+01,3.469485473632812500e+01,9.323377227783203125e+01,9.933537292480468750e+01,-7.955525875091552734e+00,4.031498432159423828e-01,-6.667353820800781250e+01,-1.826883239746093750e+02,-2.342747688293457031e+00,7.562291717529296875e+01,3.135653114318847656e+01
1.018766045570373535e+00,1.000000000000000000e+00,-4.370282745361328125e+01,3.111541557312011719e+01,3.471825408935546875e+01,9.315676116943359375e+01,9.935691070556640625e+01,-7.980008125305175781e+00,4.031498432159423828e-01,-6.667362213134765625e+01,-1.826883239746093750e+02,-2.342747688293457031e+00,7.562291717529296875e+01,3.135653114318847656e+01
1.024108052253723145e+00,1.000000000000000000e+00,-4.374663162231445312e+01,3.102939987182617188e+01,3.474155426025390625e+01,9.307869720458984375e+01,9.937924957275390625e+01,-8.003744125366210938e+00,4.031498432159423828e-01,-6.667353820800781250e+01,-1.826883239746093750e+02,-2.342747688293457031e+00,7.562291717529296875e+01,3.135642242431640625e+01
1.026870012283325195e+00,1.000000000000000000e+00,-4.379058456420898438e+01,3.094385910034179688e+01,3.476493453979492188e+01,9.300131988525390625e+01,9.940169525146484375e+01,-8.026802062988281250e+00,4.031498432159423828e-01,-6.667353820800781250e+01,-1.826883239746093750e+02,-2.342747688293457031e+00,7.562291717529296875e+01,3.135653114318847656e+01
1.032904028892517090e+00,1.000000000000000000e+00,-4.383436203002929688e+01,3.085804748535156250e+01,3.478866577148437500e+01,9.292341613769531250e+01,9.942333984375000000e+01,-8.049926757812500000e+00,4.031498432159423828e-01,-6.667353820800781250e+01,-1.826883239746093750e+02,-2.342819452285766602e+00,7.562299346923828125e+01,3.135653114318847656e+01
1.036265015602111816e+00,1.000000000000000000e+00,-4.387842559814453125e+01,3.077196311950683594e+01,3.481216812133789062e+01,9.284614562988281250e+01,9.944424438476562500e+01,-8.073595046997070312e+00,4.031498432159423828e-01,-6.667353820800781250e+01,-1.826883239746093750e+02,-2.342603921890258789e+00,7.562291717529296875e+01,3.135653114318847656e+01
1.038771033287048340e+00,1.000000000000000000e+00,-4.392240142822265625e+01,3.068556022644042969e+01,3.483573150634765625e+01,9.276839447021484375e+01,9.946514129638671875e+01,-8.097601890563964844e+00,4.031498432159423828e-01,-6.667353820800781250e+01,-1.826883239746093750e+02,-2.342747688293457031e+00,7.562291717529296875e+01,3.135653114318847656e+01
1.044316053390502930e+00,1.000000000000000000e+00,-4.396641159057617188e+01,3.059875297546386719e+01,3.485901260375976562e+01,9.269039154052734375e+01,9.948604583740234375e+01,-8.121949195861816406e+00,4.031498432159423828e-01,-6.667362213134765625e+01,-1.826883239746093750e+02,-2.342747688293457031e+00,7.562291717529296875e+01,3.135653114318847656e+01
1.048647046089172363e+00,1.000000000000000000e+00,-4.401044845581054688e+01,3.051144599914550781e+01,3.488259506225585938e+01,9.261237335205078125e+01,9.950827789306640625e+01,-8.146362304687500000e+00,4.031498432159423828e-01,-6.667353820800781250e+01,-1.826883239746093750e+02,-2.342747688293457031e+00,7.562291717529296875e+01,3.135675048828125000e+01
1.052515029907226562e+00,1.000000000000000000e+00,-4.405430984497070312e+01,3.042436790466308594e+01,3.490636444091796875e+01,9.253473663330078125e+01,9.953077697753906250e+01,-8.170640945434570312e+00,4.031498432159423828e-01,-6.667353820800781250e+01,-1.826883239746093750e+02,-2.342747688293457031e+00,7.562291717529296875e+01,3.135653114318847656e+01
1.057163953781127930e+00,1.000000000000000000e+00,-4.409814834594726562e+01,3.033764839172363281e+01,3.493001174926757812e+01,9.245693206787109375e+01,9.955337524414062500e+01,-8.194172859191894531e+00,4.031498432159423828e-01,-6.667362213134765625e+01,-1.826883239746093750e+02,-2.342747688293457031e+00,7.562299346923828125e+01,3.135675048828125000e+01
1.058706998825073242e+00,1.000000000000000000e+00,-4.414192581176757812e+01,3.025131416320800781e+01,3.495367813110351562e+01,9.237882232666015625e+01,9.957465362548828125e+01,-8.217502593994140625e+00,4.031498432159423828e-01,-6.667343902587890625e+01,-1.826883239746093750e+02,-2.342819452285766602e+00,7.562291717529296875e+01,3.135653114318847656e+01
1.064331054687500000e+00,1.000000000000000000e+00,-4.418598937988281250e+01,3.016491317749023438e+01,3.497716140747070312e+01,9.230107116699218750e+01,9.959566497802734375e+01,-8.240899085998535156e+00,4.031498432159423828e-01,-6.667353820800781250e+01,-1.826883239746093750e+02,-2.342603921890258789e+00,7.562291717529296875e+01,3.135653114318847656e+01
1.068495988845825195e+00,1.000000000000000000e+00,-4.422988510131835938e+01,3.007862663269042969e+01,3.500068283081054688e+01,9.222295379638671875e+01,9.961650848388671875e+01,-8.264770507812500000e+00,4.031498432159423828e-01,-6.667362213134765625e+01,-1.826883239746093750e+02,-2.342747688293457031e+00,7.562299346923828125e+01,3.135653114318847656e+01
1.072618007659912109e+00,1.000000000000000000e+00,-4.427380371093750000e+01,2.999199867248535156e+01,3.502439117431640625e+01,9.214463043212890625e+01,9.963783264160156250e+01,-8.288981437683105469e+00,4.031498432159423828e-01,-6.667343902587890625e+01,-1.826883239746093750e+02,-2.342603921890258789e+00,7.562277984619140625e+01,3.135653114318847656e+01
1.077409029006958008e+00,1.000000000000000000e+00,-4.431743621826171875e+01,2.990482902526855469e+01,3.504793548583984375e+01,9.206651306152343750e+01,9.965979766845703125e+01,-8.313463211059570312e+00,4.031498432159423828e-01,-6.667353820800781250e+01,-1.826883239746093750e+02,-2.342603921890258789e+00,7.562291717529296875e+01,3.135653114318847656e+01
1.081285953521728516e+00,1.000000000000000000e+00,-4.436135864257812500e+01,2.981731796264648438e+01,3.507151794433593750e+01,9.198834991455078125e+01,9.968235015869140625e+01,-8.338080406188964844e+00,4.031498432159423828e-01,-6.667353820800781250e+01,-1.826883239746093750e+02,-2.342747688293457031e+00,7.562299346923828125e+01,3.135653114318847656e+01
1.082716941833496094e+00,1.000000000000000000e+00,-4.440536880493164062e+01,2.972969627380371094e+01,3.509524536132812500e+01,9.191028594970703125e+01,9.970452880859375000e+01,-8.362359046936035156e+00,4.031498432159423828e-01,-6.667353820800781250e+01,-1.826883239746093750e+02,-2.342747688293457031e+00,7.562291717529296875e+01,3.135653114318847656e+01
1.088510990142822266e+00,1.000000000000000000e+00,-4.444914627075195312e+01,2.964222908020019531e+01,3.511897659301757812e+01,9.183169555664062500e+01,9.972586059570312500e+01,-8.386027336120605469e+00,4.031498432159423828e-01,-6.667353820800781250e+01,-1.826883239746093750e+02,-2.342747688293457031e+00,7.562277984619140625e+01,3.135653114318847656e+01
1.092797994613647461e+00,1.000000000000000000e+00,-4.449312210083007812e+01,2.955521965026855469e+01,3.514278030395507812e+01,9.175362396240234375e+01,9.974659729003906250e+01,-8.409152984619140625e+00,4.031498432159423828e-01,-6.667353820800781250e+01,-1.826881713867187500e+02,-2.342819452285766602e+00,7.562299346923828125e+01,3.135653114318847656e+01
1.096943974494934082e+00,1.000000000000000000e+00,-4.453681564331054688e+01,2.946884155273437500e+01,3.516651153564453125e+01,9.167514801025390625e+01,9.976797485351562500e+01,-8.432753562927246094e+00,4.031498432159423828e-01,-6.667353820800781250e+01,-1.826883239746093750e+02,-2.342747688293457031e+00,7.562299346923828125e+01,3.135653114318847656e+01
1.102151036262512207e+00,1.000000000000000000e+00,-4.458047866821289062e+01,2.938239479064941406e+01,3.518997192382812500e+01,9.159719085693359375e+01,9.978977966308593750e+01,-8.456624984741210938e+00,4.031498432159423828e-01,-6.667362213134765625e+01,-1.826881713867187500e+02,-2.342819452285766602e+00,7.562291717529296875e+01,3.135653114318847656e+01
1.105396986007690430e+00,1.000000000000000000e+00,-4.462431335449218750e+01,2.929551887512207031e+01,3.521363830566406250e+01,9.151811981201171875e+01,9.981191253662109375e+01,-8.480902671813964844e+00,4.031498432159423828e-01,-6.667362213134765625e+01,-1.826883239746093750e+02,-2.342747688293457031e+00,7.562277984619140625e+01,3.135653114318847656e+01
1.108821988105773926e+00,1.000000000000000000e+00,-4.466840744018554688e+01,2.920823478698730469e+01,3.523740768432617188e+01,9.144006347656250000e+01,9.983467864990234375e+01,-8.505723953247070312e+00,4.031498432159423828e-01,-6.667353820800781250e+01,-1.826883239746093750e+02,-2.342819452285766602e+00,7.562299346923828125e+01,3.135653114318847656e+01
1.112964987754821777e+00,1.000000000000000000e+00,-4.471238708496093750e+01,2.912070274353027344e+01,3.526123809814453125e+01,9.136125946044921875e+01,9.985685729980468750e+01,-8.530138015747070312e+00,4.031498432159423828e-01,-6.667362213134765625e+01,-1.826883239746093750e+02,-2.342747688293457031e+00,7.562291717529296875e+01,3.135653114318847656e+01
1.114724040031433105e+00,1.000000000000000000e+00,-4.475624847412109375e+01,2.903269195556640625e+01,3.528520965576171875e+01,9.128304290771484375e+01,9.987807464599609375e+01,-8.554619789123535156e+00,4.031498432159423828e-01,-6.667362213134765625e+01,-1.826883239746093750e+02,-2.342603921890258789e+00,7.562277984619140625e+01,3.135653114318847656e+01
