rpiRobotics/ARM-21-02-F-19-Robot-Motion-Program/data_performance_abb/curve_1/curve_pose_opt1/greedy0.02/grad_result/real/run_2.csv
timestamp,cmd_num,J1,J2,J3,J4,J5,J6
2.019999956246465445e-04,-1.000000000000000000e+00,-3.467596435546875000e+01,4.892502975463867188e+01,2.986686325073242188e+01,1.091835174560546875e+02,9.491098022460937500e+01,-3.052842855453491211e+00,4.031498432159423828e-01,-6.667353820800781250e+01,-1.826883239746093750e+02,-2.342819452285766602e+00,7.562299346923828125e+01,3.135653114318847656e+01
4.982999991625547409e-03,1.000000000000000000e+00,-3.467599487304687500e+01,4.892507171630859375e+01,2.986686325073242188e+01,1.091834182739257812e+02,9.491098022460937500e+01,-3.052842855453491211e+00,4.031498432159423828e-01,-6.667353820800781250e+01,-1.826883239746093750e+02,-2.342819452285766602e+00,7.562291717529296875e+01,3.135653114318847656e+01
8.564000017940998077e-03,1.000000000000000000e+00,-3.467599487304687500e+01,4.892507171630859375e+01,2.986686325073242188e+01,1.091834182739257812e+02,9.491098022460937500e+01,-3.052842855453491211e+00,4.031498432159423828e-01,-6.667353820800781250e+01,-1.826883239746093750e+02,-2.342819452285766602e+00,7.562291717529296875e+01,3.135653114318847656e+01
1.289500016719102859e-02,1.000000000000000000e+00,-3.467596435546875000e+01,4.892507171630859375e+01,2.986686325073242188e+01,1.091832580566406250e+02,9.491098022460937500e+01,-3.052842855453491211e+00,4.031498432159423828e-01,-6.667343902587890625e+01,-1.826883239746093750e+02,-2.342891216278076172e+00,7.562291717529296875e+01,3.135642242431640625e+01
3.656699880957603455e-02,1.000000000000000000e+00,-3.467599487304687500e+01,4.892511749267578125e+01,2.986686325073242188e+01,1.091835174560546875e+02,9.491092681884765625e+01,-3.052842855453491211e+00,4.031498432159423828e-01,-6.667353820800781250e+01,-1.826883239746093750e+02,-2.342819452285766602e+00,7.562291717529296875e+01,3.135653114318847656e+01
3.814100101590156555e-02,1.000000000000000000e+00,-3.467599487304687500e+01,4.892511749267578125e+01,2.986686325073242188e+01,1.091835174560546875e+02,9.491092681884765625e+01,-3.052842855453491211e+00,4.031498432159423828e-01,-6.667353820800781250e+01,-1.826883239746093750e+02,-2.342819452285766602e+00,7.562291717529296875e+01,3.135653114318847656e+01
4.082800075411796570e-02,1.000000000000000000e+00,-3.467596435546875000e+01,4.892502975463867188e+01,2.986686325073242188e+01,1.091834182739257812e+02,9.491098022460937500e+01,-3.052842855453491211e+00,4.031498432159423828e-01,-6.667362213134765625e+01,-1.826883239746093750e+02,-2.342747688293457031e+00,7.562291717529296875e+01,3.135653114318847656e+01
4.702299833297729492e-02,1.000000000000000000e+00,-3.467605590820312500e+01,4.892507171630859375e+01,2.986686325073242188e+01,1.091835174560546875e+02,9.491098022460937500e+01,-3.052842855453491211e+00,4.031498432159423828e-01,-6.667353820800781250e+01,-1.826883239746093750e+02,-2.342819452285766602e+00,7.562277984619140625e+01,3.135653114318847656e+01
5.049199983477592468e-02,1.000000000000000000e+00,-3.467605590820312500e+01,4.892507171630859375e+01,2.986686325073242188e+01,1.091834182739257812e+02,9.491092681884765625e+01,-3.052978754043579102e+00,4.031498432159423828e-01,-6.667353820800781250e+01,-1.826883239746093750e+02,-2.342819452285766602e+00,7.562291717529296875e+01,3.135653114318847656e+01
5.298500135540962219e-02,1.000000000000000000e+00,-3.467613983154296875e+01,4.892502975463867188e+01,2.986686325073242188e+01,1.091834182739257812e+02,9.491098022460937500e+01,-3.052842855453491211e+00,4.031498432159423828e-01,-6.667353820800781250e+01,-1.826883239746093750e+02,-2.342819452285766602e+00,7.562291717529296875e+01,3.135653114318847656e+01
5.424699932336807251e-02,1.000000000000000000e+00,-3.467613983154296875e+01,4.892502975463867188e+01,2.986686325073242188e+01,1.091834182739257812e+02,9.491098022460937500e+01,-3.052842855453491211e+00,4.031498432159423828e-01,-6.667353820800781250e+01,-1.826883239746093750e+02,-2.342819452285766602e+00,7.562291717529296875e+01,3.135653114318847656e+01
5.752399936318397522e-02,1.000000000000000000e+00,-3.467639923095703125e+01,4.892491531372070312e+01,2.986686325073242188e+01,1.091834182739257812e+02,9.491092681884765625e+01,-3.052842855453491211e+00,4.031498432159423828e-01,-6.667353820800781250e+01,-1.826883239746093750e+02,-2.342747688293457031e+00,7.562291717529296875e+01,3.135653114318847656e+01
6.070600077509880066e-02,1.000000000000000000e+00,-3.467639923095703125e+01,4.892491531372070312e+01,2.986686325073242188e+01,1.091834182739257812e+02,9.491092681884765625e+01,-3.052842855453491211e+00,4.031498432159423828e-01,-6.667353820800781250e+01,-1.826883239746093750e+02,-2.342747688293457031e+00,7.562291717529296875e+01,3.135653114318847656e+01
6.204700097441673279e-02,1.000000000000000000e+00,-3.467711639404296875e+01,4.892450714111328125e+01,2.986686325073242188e+01,1.091832580566406250e+02,9.491098022460937500e+01,-3.052842855453491211e+00,4.031498432159423828e-01,-6.667353820800781250e+01,-1.826883239746093750e+02,-2.342819452285766602e+00,7.562291717529296875e+01,3.135653114318847656e+01
6.478799879550933838e-02,1.000000000000000000e+00,-3.467711639404296875e+01,4.892450714111328125e+01,2.986686325073242188e+01,1.091832580566406250e+02,9.491098022460937500e+01,-3.052842855453491211e+00,4.031498432159423828e-01,-6.667353820800781250e+01,-1.826883239746093750e+02,-2.342819452285766602e+00,7.562291717529296875e+01,3.135653114318847656e+01
6.737799942493438721e-02,1.000000000000000000e+00,-3.467834854125976562e+01,4.892364883422851562e+01,2.986686325073242188e+01,1.091832580566406250e+02,9.491103363037109375e+01,-3.052842855453491211e+00,4.031498432159423828e-01,-6.667353820800781250e+01,-1.826883239746093750e+02,-2.342819452285766602e+00,7.562291717529296875e+01,3.135653114318847656e+01
7.004199922084808350e-02,1.000000000000000000e+00,-3.468030166625976562e+01,4.892183685302734375e+01,2.986686325073242188e+01,1.091832580566406250e+02,9.491103363037109375e+01,-3.052978754043579102e+00,4.031498432159423828e-01,-6.667353820800781250e+01,-1.826883239746093750e+02,-2.342819452285766602e+00,7.562291717529296875e+01,3.135653114318847656e+01
7.130400091409683228e-02,1.000000000000000000e+00,-3.468030166625976562e+01,4.892183685302734375e+01,2.986686325073242188e+01,1.091832580566406250e+02,9.491103363037109375e+01,-3.052978754043579102e+00,4.031498432159423828e-01,-6.667353820800781250e+01,-1.826883239746093750e+02,-2.342819452285766602e+00,7.562291717529296875e+01,3.135653114318847656e+01
7.452200353145599365e-02,1.000000000000000000e+00,-3.468274307250976562e+01,4.891873931884765625e+01,2.986690521240234375e+01,1.091831512451171875e+02,9.491103363037109375e+01,-3.052978754043579102e+00,4.031498432159423828e-01,-6.667362213134765625e+01,-1.826883239746093750e+02,-2.342819452285766602e+00,7.562299346923828125e+01,3.135653114318847656e+01
7.910499721765518188e-02,1.000000000000000000e+00,-3.468584060668945312e+01,4.891389465332031250e+01,2.986696624755859375e+01,1.091829910278320312e+02,9.491103363037109375e+01,-3.052978754043579102e+00,4.031498432159423828e-01,-6.667353820800781250e+01,-1.826883239746093750e+02,-2.342747688293457031e+00,7.562291717529296875e+01,3.135653114318847656e+01
8.150299638509750366e-02,1.000000000000000000e+00,-3.468951797485351562e+01,4.890723800659179688e+01,2.986700630187988281e+01,1.091820983886718750e+02,9.491119384765625000e+01,-3.052978754043579102e+00,4.031498432159423828e-01,-6.667353820800781250e+01,-1.826883239746093750e+02,-2.342819452285766602e+00,7.562291717529296875e+01,3.135653114318847656e+01
8.544199913740158081e-02,1.000000000000000000e+00,-3.468951797485351562e+01,4.890723800659179688e+01,2.986700630187988281e+01,1.091820983886718750e+02,9.491119384765625000e+01,-3.052978754043579102e+00,4.031498432159423828e-01,-6.667353820800781250e+01,-1.826883239746093750e+02,-2.342819452285766602e+00,7.562291717529296875e+01,3.135653114318847656e+01
8.675400167703628540e-02,1.000000000000000000e+00,-3.469379425048828125e+01,4.889879989624023438e+01,2.986743354797363281e+01,1.091793594360351562e+02,9.491135406494140625e+01,-3.053114175796508789e+00,4.031498432159423828e-01,-6.667353820800781250e+01,-1.826883239746093750e+02,-2.342819452285766602e+00,7.562291717529296875e+01,3.135653114318847656e+01
8.923800289630889893e-02,1.000000000000000000e+00,-3.469881820678710938e+01,4.888850402832031250e+01,2.986814498901367188e+01,1.091749877929687500e+02,9.491177368164062500e+01,-3.053588867187500000e+00,4.031498432159423828e-01,-6.667353820800781250e+01,-1.826883239746093750e+02,-2.342747688293457031e+00,7.562291717529296875e+01,3.135653114318847656e+01
9.306000173091888428e-02,1.000000000000000000e+00,-3.470487594604492188e+01,4.887619400024414062e+01,2.986934280395507812e+01,1.091694564819335938e+02,9.491279602050781250e+01,-3.055012941360473633e+00,4.031498432159423828e-01,-6.667362213134765625e+01,-1.826883239746093750e+02,-2.342819452285766602e+00,7.562277984619140625e+01,3.135653114318847656e+01
9.485100209712982178e-02,1.000000000000000000e+00,-3.470487594604492188e+01,4.887619400024414062e+01,2.986934280395507812e+01,1.091694564819335938e+02,9.491279602050781250e+01,-3.055012941360473633e+00,4.031498432159423828e-01,-6.667362213134765625e+01,-1.826883239746093750e+02,-2.342819452285766602e+00,7.562277984619140625e+01,3.135653114318847656e+01
1.009719967842102051e-01,1.000000000000000000e+00,-3.471208190917968750e+01,4.886137008666992188e+01,2.987099266052246094e+01,1.091620788574218750e+02,9.491433715820312500e+01,-3.057386636734008789e+00,4.031498432159423828e-01,-6.667353820800781250e+01,-1.826883239746093750e+02,-2.342819452285766602e+00,7.562291717529296875e+01,3.135675048828125000e+01
1.028589978814125061e-01,1.000000000000000000e+00,-3.472052001953125000e+01,4.884412384033203125e+01,2.987336921691894531e+01,1.091523895263671875e+02,9.491684722900390625e+01,-3.060302734375000000e+00,4.031498432159423828e-01,-6.667353820800781250e+01,-1.826883239746093750e+02,-2.342819452285766602e+00,7.562291717529296875e+01,3.135653114318847656e+01
1.070709973573684692e-01,1.000000000000000000e+00,-3.473036956787109375e+01,4.882439041137695312e+01,2.987652206420898438e+01,1.091394271850585938e+02,9.492004394531250000e+01,-3.064032793045043945e+00,4.031498432159423828e-01,-6.667353820800781250e+01,-1.826883239746093750e+02,-2.342819452285766602e+00,7.562299346923828125e+01,3.135653114318847656e+01
1.108189970254898071e-01,1.000000000000000000e+00,-3.474144744873046875e+01,4.880205917358398438e+01,2.988052749633789062e+01,1.091239471435546875e+02,9.492404174804687500e+01,-3.068237304687500000e+00,4.031498432159423828e-01,-6.667353820800781250e+01,-1.826883239746093750e+02,-2.342747688293457031e+00,7.562291717529296875e+01,3.135653114318847656e+01
1.172289997339248657e-01,1.000000000000000000e+00,-3.475404739379882812e+01,4.877693557739257812e+01,2.988595771789550781e+01,1.091054534912109375e+02,9.492900085449218750e+01,-3.073933839797973633e+00,4.031498432159423828e-01,-6.667343902587890625e+01,-1.826883239746093750e+02,-2.342819452285766602e+00,7.562291717529296875e+01,3.135653114318847656e+01
1.189209967851638794e-01,1.000000000000000000e+00,-3.476817321777343750e+01,4.874880981445312500e+01,2.989244270324707031e+01,1.090841293334960938e+02,9.493497467041015625e+01,-3.081054925918579102e+00,4.031498432159423828e-01,-6.667353820800781250e+01,-1.826883239746093750e+02,-2.342891216278076172e+00,7.562291717529296875e+01,3.135653114318847656e+01
1.238249987363815308e-01,1.000000000000000000e+00,-3.478410339355468750e+01,4.871737670898437500e+01,2.989990425109863281e+01,1.090584716796875000e+02,9.494216918945312500e+01,-3.089124917984008789e+00,4.031498432159423828e-01,-6.667353820800781250e+01,-1.826883239746093750e+02,-2.342819452285766602e+00,7.562291717529296875e+01,3.135653114318847656e+01
1.268199980258941650e-01,1.000000000000000000e+00,-3.480155944824218750e+01,4.868266296386718750e+01,2.990880775451660156e+01,1.090283432006835938e+02,9.495037841796875000e+01,-3.098280429840087891e+00,4.031498432159423828e-01,-6.667353820800781250e+01,-1.826883239746093750e+02,-2.342819452285766602e+00,7.562291717529296875e+01,3.135653114318847656e+01
1.339659988880157471e-01,1.000000000000000000e+00,-3.480155944824218750e+01,4.868266296386718750e+01,2.990880775451660156e+01,1.090283432006835938e+02,9.495037841796875000e+01,-3.098280429840087891e+00,4.031498432159423828e-01,-6.667353820800781250e+01,-1.826883239746093750e+02,-2.342747688293457031e+00,7.562291717529296875e+01,3.135653114318847656e+01
1.354389935731887817e-01,1.000000000000000000e+00,-3.484040069580078125e+01,4.860277557373046875e+01,2.993115234375000000e+01,1.089528121948242188e+02,9.497000122070312500e+01,-3.121541500091552734e+00,4.031498432159423828e-01,-6.667353820800781250e+01,-1.826883239746093750e+02,-2.342747688293457031e+00,7.562299346923828125e+01,3.135653114318847656e+01
1.399179995059967041e-01,1.000000000000000000e+00,-3.486259078979492188e+01,4.855772018432617188e+01,2.994414329528808594e+01,1.089107208251953125e+02,9.498156738281250000e+01,-3.135172605514526367e+00,4.031498432159423828e-01,-6.667353820800781250e+01,-1.826883239746093750e+02,-2.342819452285766602e+00,7.562291717529296875e+01,3.135653114318847656e+01
1.438660025596618652e-01,1.000000000000000000e+00,-3.488664627075195312e+01,4.850965499877929688e+01,2.995831680297851562e+01,1.088652648925781250e+02,9.499463653564453125e+01,-3.149821043014526367e+00,4.031498432159423828e-01,-6.667353820800781250e+01,-1.826883239746093750e+02,-2.342819452285766602e+00,7.562291717529296875e+01,3.135653114318847656e+01
1.478089988231658936e-01,1.000000000000000000e+00,-3.491173553466796875e+01,4.845878219604492188e+01,2.997377014160156250e+01,1.088136978149414062e+02,9.500897979736328125e+01,-3.165486812591552734e+00,4.031498432159423828e-01,-6.667362213134765625e+01,-1.826883239746093750e+02,-2.342819452285766602e+00,7.562291717529296875e+01,3.135653114318847656e+01
1.508180052042007446e-01,1.000000000000000000e+00,-3.493820571899414062e+01,4.840494537353515625e+01,2.999049949645996094e+01,1.087591781616210938e+02,9.502406311035156250e+01,-3.182237386703491211e+00,4.031498432159423828e-01,-6.667353820800781250e+01,-1.826883239746093750e+02,-2.342819452285766602e+00,7.562299346923828125e+01,3.135653114318847656e+01
1.558849960565567017e-01,1.000000000000000000e+00,-3.493820571899414062e+01,4.840494537353515625e+01,2.999049949645996094e+01,1.087591781616210938e+02,9.502406311035156250e+01,-3.182237386703491211e+00,4.031498432159423828e-01,-6.667353820800781250e+01,-1.826883239746093750e+02,-2.342819452285766602e+00,7.562299346923828125e+01,3.135653114318847656e+01
1.598400026559829712e-01,1.000000000000000000e+00,-3.499541854858398438e+01,4.828890228271484375e+01,3.002644729614257812e+01,1.086435546875000000e+02,9.505578613281250000e+01,-3.217705726623535156e+00,4.031498432159423828e-01,-6.667353820800781250e+01,-1.826883239746093750e+02,-2.342819452285766602e+00,7.562291717529296875e+01,3.135653114318847656e+01
1.628089994192123413e-01,1.000000000000000000e+00,-3.502633285522460938e+01,4.822727966308593750e+01,3.004509353637695312e+01,1.085820846557617188e+02,9.507225799560546875e+01,-3.236897945404052734e+00,4.031498432159423828e-01,-6.667353820800781250e+01,-1.826881713867187500e+02,-2.342819452285766602e+00,7.562291717529296875e+01,3.135653114318847656e+01
1.678790003061294556e-01,1.000000000000000000e+00,-3.502633285522460938e+01,4.822727966308593750e+01,3.004509353637695312e+01,1.085820846557617188e+02,9.507225799560546875e+01,-3.236897945404052734e+00,4.031498432159423828e-01,-6.667353820800781250e+01,-1.826881713867187500e+02,-2.342819452285766602e+00,7.562291717529296875e+01,3.135653114318847656e+01
1.718100011348724365e-01,1.000000000000000000e+00,-3.509218597412109375e+01,4.809763336181640625e+01,3.008396720886230469e+01,1.084524536132812500e+02,9.510713195800781250e+01,-3.276502847671508789e+00,4.031498432159423828e-01,-6.667353820800781250e+01,-1.826883239746093750e+02,-2.342891216278076172e+00,7.562299346923828125e+01,3.135653114318847656e+01
1.758600026369094849e-01,1.000000000000000000e+00,-3.512637710571289062e+01,4.802976608276367188e+01,3.010429763793945312e+01,1.083865585327148438e+02,9.512525939941406250e+01,-3.297254800796508789e+00,4.031498432159423828e-01,-6.667362213134765625e+01,-1.826883239746093750e+02,-2.342819452285766602e+00,7.562291717529296875e+01,3.135653114318847656e+01
1.788589954376220703e-01,1.000000000000000000e+00,-3.516122817993164062e+01,4.796026611328125000e+01,3.012493515014648438e+01,1.083193511962890625e+02,9.514418792724609375e+01,-3.318820476531982422e+00,4.031498432159423828e-01,-6.667362213134765625e+01,-1.826883239746093750e+02,-2.342819452285766602e+00,7.562291717529296875e+01,3.135653114318847656e+01
1.838669925928115845e-01,1.000000000000000000e+00,-3.516122817993164062e+01,4.796026611328125000e+01,3.012493515014648438e+01,1.083193511962890625e+02,9.514418792724609375e+01,-3.318820476531982422e+00,4.031498432159423828e-01,-6.667362213134765625e+01,-1.826883239746093750e+02,-2.342819452285766602e+00,7.562291717529296875e+01,3.135653114318847656e+01
1.868170052766799927e-01,1.000000000000000000e+00,-3.523373794555664062e+01,4.781622695922851562e+01,3.016618919372558594e+01,1.081830825805664062e+02,9.518374633789062500e+01,-3.361409664154052734e+00,4.031498432159423828e-01,-6.667353820800781250e+01,-1.826883239746093750e+02,-2.342747688293457031e+00,7.562291717529296875e+01,3.135642242431640625e+01
1.919980049133300781e-01,1.000000000000000000e+00,-3.523373794555664062e+01,4.781622695922851562e+01,3.016618919372558594e+01,1.081830825805664062e+02,9.518374633789062500e+01,-3.361409664154052734e+00,4.031498432159423828e-01,-6.667353820800781250e+01,-1.826883239746093750e+02,-2.342747688293457031e+00,7.562291717529296875e+01,3.135642242431640625e+01
1.958750039339065552e-01,1.000000000000000000e+00,-3.530952835083007812e+01,4.766605758666992188e+01,3.020758438110351562e+01,1.080458145141601562e+02,9.522096252441406250e+01,-3.403388261795043945e+00,4.031498432159423828e-01,-6.667353820800781250e+01,-1.826883239746093750e+02,-2.342819452285766602e+00,7.562291717529296875e+01,3.135675048828125000e+01
1.988700032234191895e-01,1.000000000000000000e+00,-3.534793853759765625e+01,4.758974838256835938e+01,3.022854614257812500e+01,1.079772338867187500e+02,9.523961639404296875e+01,-3.424072265625000000e+00,4.031498432159423828e-01,-6.667362213134765625e+01,-1.826884307861328125e+02,-2.342891216278076172e+00,7.562291717529296875e+01,3.135675048828125000e+01
2.038780003786087036e-01,1.000000000000000000e+00,-3.534793853759765625e+01,4.758974838256835938e+01,3.022854614257812500e+01,1.079772338867187500e+02,9.523961639404296875e+01,-3.424072265625000000e+00,4.031498432159423828e-01,-6.667362213134765625e+01,-1.826884307861328125e+02,-2.342891216278076172e+00,7.562291717529296875e+01,3.135675048828125000e+01
2.078090012073516846e-01,1.000000000000000000e+00,-3.542621994018554688e+01,4.743654632568359375e+01,3.027008438110351562e+01,1.078392257690429688e+02,9.527784729003906250e+01,-3.467000484466552734e+00,4.031498432159423828e-01,-6.667353820800781250e+01,-1.826883239746093750e+02,-2.342819452285766602e+00,7.562291717529296875e+01,3.135653114318847656e+01
2.108380049467086792e-01,1.000000000000000000e+00,-3.546560287475585938e+01,4.735993957519531250e+01,3.029084396362304688e+01,1.077701721191406250e+02,9.529763031005859375e+01,-3.488430500030517578e+00,4.031498432159423828e-01,-6.667353820800781250e+01,-1.826883239746093750e+02,-2.342819452285766602e+00,7.562291717529296875e+01,3.135653114318847656e+01
2.158720046281814575e-01,1.000000000000000000e+00,-3.546560287475585938e+01,4.735993957519531250e+01,3.029084396362304688e+01,1.077701721191406250e+02,9.529763031005859375e+01,-3.488430500030517578e+00,4.031498432159423828e-01,-6.667353820800781250e+01,-1.826883239746093750e+02,-2.342819452285766602e+00,7.562291717529296875e+01,3.135653114318847656e+01
2.198349982500076294e-01,1.000000000000000000e+00,-3.554489135742187500e+01,4.720709991455078125e+01,3.033250236511230469e+01,1.076321640014648438e+02,9.533756256103515625e+01,-3.532308101654052734e+00,4.031498432159423828e-01,-6.667362213134765625e+01,-1.826883239746093750e+02,-2.342747688293457031e+00,7.562291717529296875e+01,3.135653114318847656e+01
2.239219993352890015e-01,1.000000000000000000e+00,-3.558439636230468750e+01,4.713072204589843750e+01,3.035346603393554688e+01,1.075631103515625000e+02,9.535627746582031250e+01,-3.553399085998535156e+00,4.031498432159423828e-01,-6.667353820800781250e+01,-1.826883239746093750e+02,-2.342819452285766602e+00,7.562291717529296875e+01,3.135653114318847656e+01
2.268629968166351318e-01,1.000000000000000000e+00,-3.562366485595703125e+01,4.705421066284179688e+01,3.037420272827148438e+01,1.074933700561523438e+02,9.537477874755859375e+01,-3.573879718780517578e+00,4.031498432159423828e-01,-6.667343902587890625e+01,-1.826883239746093750e+02,-2.342747688293457031e+00,7.562291717529296875e+01,3.135653114318847656e+01
2.318540066480636597e-01,1.000000000000000000e+00,-3.562366485595703125e+01,4.705421066284179688e+01,3.037420272827148438e+01,1.074933700561523438e+02,9.537477874755859375e+01,-3.573879718780517578e+00,4.031498432159423828e-01,-6.667343902587890625e+01,-1.826883239746093750e+02,-2.342747688293457031e+00,7.562291717529296875e+01,3.135653114318847656e+01
2.348079979419708252e-01,1.000000000000000000e+00,-3.570243835449218750e+01,4.690096282958984375e+01,3.041602516174316406e+01,1.073550415039062500e+02,9.541311645507812500e+01,-3.616400718688964844e+00,4.031498432159423828e-01,-6.667353820800781250e+01,-1.826883239746093750e+02,-2.342819452285766602e+00,7.562291717529296875e+01,3.135653114318847656e+01
2.398770004510879517e-01,1.000000000000000000e+00,-3.570243835449218750e+01,4.690096282958984375e+01,3.041602516174316406e+01,1.073550415039062500e+02,9.541311645507812500e+01,-3.616400718688964844e+00,4.031498432159423828e-01,-6.667353820800781250e+01,-1.826883239746093750e+02,-2.342819452285766602e+00,7.562291717529296875e+01,3.135653114318847656e+01
2.438790053129196167e-01,1.000000000000000000e+00,-3.578135299682617188e+01,4.674775695800781250e+01,3.045853996276855469e+01,1.072163543701171875e+02,9.545272827148437500e+01,-3.658379554748535156e+00,4.031498432159423828e-01,-6.667353820800781250e+01,-1.826883239746093750e+02,-2.342819452285766602e+00,7.562291717529296875e+01,3.135653114318847656e+01
2.469229996204376221e-01,1.000000000000000000e+00,-3.582050704956054688e+01,4.667122268676757812e+01,3.047962379455566406e+01,1.071474075317382812e+02,9.547287750244140625e+01,-3.680216550827026367e+00,4.031498432159423828e-01,-6.667362213134765625e+01,-1.826883239746093750e+02,-2.342819452285766602e+00,7.562291717529296875e+01,3.135653114318847656e+01
2.518680095672607422e-01,1.000000000000000000e+00,-3.582050704956054688e+01,4.667122268676757812e+01,3.047962379455566406e+01,1.071474075317382812e+02,9.547287750244140625e+01,-3.680216550827026367e+00,4.031498432159423828e-01,-6.667362213134765625e+01,-1.826883239746093750e+02,-2.342819452285766602e+00,7.562291717529296875e+01,3.135653114318847656e+01
2.583020031452178955e-01,1.000000000000000000e+00,-3.589881896972656250e+01,4.651826858520507812e+01,3.052126502990722656e+01,1.070088195800781250e+02,9.551094818115234375e+01,-3.723958253860473633e+00,4.031498432159423828e-01,-6.667343902587890625e+01,-1.826883239746093750e+02,-2.342819452285766602e+00,7.562291717529296875e+01,3.135653114318847656e+01
2.597160041332244873e-01,1.000000000000000000e+00,-3.593791961669921875e+01,4.644175720214843750e+01,3.054230880737304688e+01,1.069388656616210938e+02,9.552950286865234375e+01,-3.745049476623535156e+00,4.031498432159423828e-01,-6.667353820800781250e+01,-1.826883239746093750e+02,-2.342747688293457031e+00,7.562299346923828125e+01,3.135653114318847656e+01
2.648540139198303223e-01,1.000000000000000000e+00,-3.593791961669921875e+01,4.644175720214843750e+01,3.054230880737304688e+01,1.069388656616210938e+02,9.552950286865234375e+01,-3.745049476623535156e+00,4.031498432159423828e-01,-6.667353820800781250e+01,-1.826883239746093750e+02,-2.342747688293457031e+00,7.562299346923828125e+01,3.135653114318847656e+01
2.683250010013580322e-01,1.000000000000000000e+00,-3.601559829711914062e+01,4.628836822509765625e+01,3.058467864990234375e+01,1.067994384765625000e+02,9.556767272949218750e+01,-3.786553144454956055e+00,4.033146500587463379e-01,-6.667343902587890625e+01,-1.826883239746093750e+02,-2.342819452285766602e+00,7.562291717529296875e+01,3.135653114318847656e+01
2.718330025672912598e-01,1.000000000000000000e+00,-3.605426788330078125e+01,4.621126937866210938e+01,3.060586357116699219e+01,1.067301254272460938e+02,9.558777618408203125e+01,-3.807847976684570312e+00,4.031498432159423828e-01,-6.667353820800781250e+01,-1.826883239746093750e+02,-2.342747688293457031e+00,7.562299346923828125e+01,3.135653114318847656e+01
2.768349945545196533e-01,1.000000000000000000e+00,-3.605426788330078125e+01,4.621126937866210938e+01,3.060586357116699219e+01,1.067301254272460938e+02,9.558777618408203125e+01,-3.807847976684570312e+00,4.031498432159423828e-01,-6.667353820800781250e+01,-1.826883239746093750e+02,-2.342747688293457031e+00,7.562299346923828125e+01,3.135653114318847656e+01
2.803100049495697021e-01,1.000000000000000000e+00,-3.613171768188476562e+01,4.605634689331054688e+01,3.064786911010742188e+01,1.065906906127929688e+02,9.562776184082031250e+01,-3.850640535354614258e+00,4.031498432159423828e-01,-6.667353820800781250e+01,-1.826883239746093750e+02,-2.342819452285766602e+00,7.562277984619140625e+01,3.135653114318847656e+01
2.838020026683807373e-01,1.000000000000000000e+00,-3.617064285278320312e+01,4.597906494140625000e+01,3.066911697387695312e+01,1.065205841064453125e+02,9.564658355712890625e+01,-3.872409582138061523e+00,4.031498432159423828e-01,-6.667343902587890625e+01,-1.826883239746093750e+02,-2.342819452285766602e+00,7.562277984619140625e+01,3.135653114318847656e+01
2.879289984703063965e-01,1.000000000000000000e+00,-3.617064285278320312e+01,4.597906494140625000e+01,3.066911697387695312e+01,1.065205841064453125e+02,9.564658355712890625e+01,-3.872409582138061523e+00,4.031498432159423828e-01,-6.667343902587890625e+01,-1.826883239746093750e+02,-2.342819452285766602e+00,7.562277984619140625e+01,3.135653114318847656e+01
2.945010066032409668e-01,1.000000000000000000e+00,-3.620934295654296875e+01,4.590180587768554688e+01,3.069040298461914062e+01,1.064507980346679688e+02,9.566535186767578125e+01,-3.894721269607543945e+00,4.031498432159423828e-01,-6.667353820800781250e+01,-1.826883239746093750e+02,-2.342819452285766602e+00,7.562291717529296875e+01,3.135653114318847656e+01
2.959170043468475342e-01,1.000000000000000000e+00,-3.628676223754882812e+01,4.574740219116210938e+01,3.073257255554199219e+01,1.063117828369140625e+02,9.570363616943359375e+01,-3.936903238296508789e+00,4.031498432159423828e-01,-6.667353820800781250e+01,-1.826883239746093750e+02,-2.342891216278076172e+00,7.562277984619140625e+01,3.135642242431640625e+01
2.999069988727569580e-01,1.000000000000000000e+00,-3.628676223754882812e+01,4.574740219116210938e+01,3.073257255554199219e+01,1.063117828369140625e+02,9.570363616943359375e+01,-3.936903238296508789e+00,4.031498432159423828e-01,-6.667353820800781250e+01,-1.826883239746093750e+02,-2.342891216278076172e+00,7.562277984619140625e+01,3.135642242431640625e+01
3.038440048694610596e-01,1.000000000000000000e+00,-3.632543182373046875e+01,4.566978073120117188e+01,3.075353431701660156e+01,1.062415161132812500e+02,9.572341156005859375e+01,-3.957655429840087891e+00,4.031498432159423828e-01,-6.667353820800781250e+01,-1.826883239746093750e+02,-2.342819452285766602e+00,7.562291717529296875e+01,3.135642242431640625e+01
3.078939914703369141e-01,1.000000000000000000e+00,-3.636438751220703125e+01,4.559181976318359375e+01,3.077475929260253906e+01,1.061714630126953125e+02,9.574382781982421875e+01,-3.978678226470947266e+00,4.031498432159423828e-01,-6.667353820800781250e+01,-1.826883239746093750e+02,-2.342819452285766602e+00,7.562277984619140625e+01,3.135642242431640625e+01
3.119289875030517578e-01,1.000000000000000000e+00,-3.640325546264648438e+01,4.551406478881835938e+01,3.079623031616210938e+01,1.061019821166992188e+02,9.576414489746093750e+01,-3.999701738357543945e+00,4.031498432159423828e-01,-6.667353820800781250e+01,-1.826883239746093750e+02,-2.342819452285766602e+00,7.562291717529296875e+01,3.135642242431640625e+01
3.158479928970336914e-01,1.000000000000000000e+00,-3.644229888916015625e+01,4.543621826171875000e+01,3.081753730773925781e+01,1.060319824218750000e+02,9.578382110595703125e+01,-4.021063804626464844e+00,4.031498432159423828e-01,-6.667353820800781250e+01,-1.826883239746093750e+02,-2.342747688293457031e+00,7.562291717529296875e+01,3.135653114318847656e+01
3.198890089988708496e-01,1.000000000000000000e+00,-3.648148345947265625e+01,4.535821151733398438e+01,3.083864212036132812e+01,1.059617080688476562e+02,9.580263519287109375e+01,-4.043240070343017578e+00,4.031498432159423828e-01,-6.667343902587890625e+01,-1.826883239746093750e+02,-2.342819452285766602e+00,7.562299346923828125e+01,3.135653114318847656e+01
3.239260017871856689e-01,1.000000000000000000e+00,-3.652083969116210938e+01,4.528009414672851562e+01,3.085966682434082031e+01,1.058912353515625000e+02,9.582151794433593750e+01,-4.065009117126464844e+00,4.031498432159423828e-01,-6.667353820800781250e+01,-1.826883239746093750e+02,-2.342747688293457031e+00,7.562299346923828125e+01,3.135653114318847656e+01
3.278700113296508789e-01,1.000000000000000000e+00,-3.656011199951171875e+01,4.520213317871093750e+01,3.088068962097167969e+01,1.058214950561523438e+02,9.584091949462890625e+01,-4.087185382843017578e+00,4.031498432159423828e-01,-6.667353820800781250e+01,-1.826883239746093750e+02,-2.342819452285766602e+00,7.562299346923828125e+01,3.135653114318847656e+01
3.318560123443603516e-01,1.000000000000000000e+00,-3.659958267211914062e+01,4.512451171875000000e+01,3.090209770202636719e+01,1.057515487670898438e+02,9.586011505126953125e+01,-4.108479976654052734e+00,4.031498432159423828e-01,-6.667353820800781250e+01,-1.826883239746093750e+02,-2.342819452285766602e+00,7.562291717529296875e+01,3.135653114318847656e+01
3.359389901161193848e-01,1.000000000000000000e+00,-3.663922500610351562e+01,4.504644012451171875e+01,3.092340469360351562e+01,1.056815338134765625e+02,9.588031768798828125e+01,-4.129164218902587891e+00,4.033146500587463379e-01,-6.667343902587890625e+01,-1.826883239746093750e+02,-2.342819452285766602e+00,7.562299346923828125e+01,3.135653114318847656e+01
3.398709893226623535e-01,1.000000000000000000e+00,-3.667898559570312500e+01,4.496845626831054688e+01,3.094471549987792969e+01,1.056107940673828125e+02,9.590079498291015625e+01,-4.150526523590087891e+00,4.031498432159423828e-01,-6.667353820800781250e+01,-1.826883239746093750e+02,-2.342819452285766602e+00,7.562291717529296875e+01,3.135653114318847656e+01
3.438510000705718994e-01,1.000000000000000000e+00,-3.671865844726562500e+01,4.489040756225585938e+01,3.096598052978515625e+01,1.055411605834960938e+02,9.592084503173828125e+01,-4.172227859497070312e+00,4.031498432159423828e-01,-6.667353820800781250e+01,-1.826883239746093750e+02,-2.342819452285766602e+00,7.562291717529296875e+01,3.135675048828125000e+01
3.479189872741699219e-01,1.000000000000000000e+00,-3.675827026367187500e+01,4.481231307983398438e+01,3.098722648620605469e+01,1.054704208374023438e+02,9.594003295898437500e+01,-4.193657875061035156e+00,4.031498432159423828e-01,-6.667353820800781250e+01,-1.826881713867187500e+02,-2.342819452285766602e+00,7.562291717529296875e+01,3.135653114318847656e+01
3.519279956817626953e-01,1.000000000000000000e+00,-3.679800415039062500e+01,4.473398971557617188e+01,3.100857734680175781e+01,1.054005813598632812e+02,9.595890808105468750e+01,-4.214952468872070312e+00,4.031498432159423828e-01,-6.667353820800781250e+01,-1.826883239746093750e+02,-2.342819452285766602e+00,7.562291717529296875e+01,3.135675048828125000e+01
3.558470010757446289e-01,1.000000000000000000e+00,-3.683796310424804688e+01,4.465564346313476562e+01,3.103008651733398438e+01,1.053296813964843750e+02,9.597815704345703125e+01,-4.237196445465087891e+00,4.031498432159423828e-01,-6.667353820800781250e+01,-1.826883239746093750e+02,-2.342819452285766602e+00,7.562291717529296875e+01,3.135653114318847656e+01
3.598580062389373779e-01,1.000000000000000000e+00,-3.687815093994140625e+01,4.457759094238281250e+01,3.105139541625976562e+01,1.052599945068359375e+02,9.599771881103515625e+01,-4.259100914001464844e+00,4.031498432159423828e-01,-6.667353820800781250e+01,-1.826883239746093750e+02,-2.342819452285766602e+00,7.562291717529296875e+01,3.135653114318847656e+01
3.639119863510131836e-01,1.000000000000000000e+00,-3.691794204711914062e+01,4.449936294555664062e+01,3.107266235351562500e+01,1.051893005371093750e+02,9.601771545410156250e+01,-4.281141757965087891e+00,4.031498432159423828e-01,-6.667343902587890625e+01,-1.826883239746093750e+02,-2.342891216278076172e+00,7.562291717529296875e+01,3.135642242431640625e+01
3.678629994392395020e-01,1.000000000000000000e+00,-3.695792770385742188e+01,4.442124176025390625e+01,3.109398841857910156e+01,1.051194534301757812e+02,9.603829956054687500e+01,-4.302435874938964844e+00,4.031498432159423828e-01,-6.667353820800781250e+01,-1.826883239746093750e+02,-2.342891216278076172e+00,7.562277984619140625e+01,3.135653114318847656e+01
3.718810081481933594e-01,1.000000000000000000e+00,-3.699789047241210938e+01,4.434330749511718750e+01,3.111541938781738281e+01,1.050481872558593750e+02,9.605861663818359375e+01,-4.323594570159912109e+00,4.031498432159423828e-01,-6.667353820800781250e+01,-1.826883239746093750e+02,-2.342819452285766602e+00,7.562291717529296875e+01,3.135642242431640625e+01
3.759280145168304443e-01,1.000000000000000000e+00,-3.703805160522460938e+01,4.426536560058593750e+01,3.113686943054199219e+01,1.049779739379882812e+02,9.607812500000000000e+01,-4.344889640808105469e+00,4.031498432159423828e-01,-6.667353820800781250e+01,-1.826883239746093750e+02,-2.342747688293457031e+00,7.562291717529296875e+01,3.135642242431640625e+01
3.798800110816955566e-01,1.000000000000000000e+00,-3.707798385620117188e+01,4.418722534179687500e+01,3.115823745727539062e+01,1.049072799682617188e+02,9.609726715087890625e+01,-4.366862297058105469e+00,4.031498432159423828e-01,-6.667353820800781250e+01,-1.826883239746093750e+02,-2.342819452285766602e+00,7.562291717529296875e+01,3.135653114318847656e+01
3.838439881801605225e-01,1.000000000000000000e+00,-3.711811447143554688e+01,4.410890579223632812e+01,3.117948532104492188e+01,1.048369064331054688e+02,9.611624908447265625e+01,-4.388360023498535156e+00,4.031498432159423828e-01,-6.667353820800781250e+01,-1.826883239746093750e+02,-2.342891216278076172e+00,7.562291717529296875e+01,3.135653114318847656e+01
3.880720138549804688e-01,1.000000000000000000e+00,-3.715807342529296875e+01,4.403035736083984375e+01,3.120077323913574219e+01,1.047661132812500000e+02,9.613549804687500000e+01,-4.409993648529052734e+00,4.031498432159423828e-01,-6.667343902587890625e+01,-1.826883239746093750e+02,-2.342747688293457031e+00,7.562299346923828125e+01,3.135653114318847656e+01
3.912689983844757080e-01,1.000000000000000000e+00,-3.719806289672851562e+01,4.395171737670898438e+01,3.122228431701660156e+01,1.046954269409179688e+02,9.615538024902343750e+01,-4.432373046875000000e+00,4.031498432159423828e-01,-6.667353820800781250e+01,-1.826881713867187500e+02,-2.342819452285766602e+00,7.562299346923828125e+01,3.135653114318847656e+01
3.951939940452575684e-01,1.000000000000000000e+00,-3.723802185058593750e+01,4.387282943725585938e+01,3.124379539489746094e+01,1.046248474121093750e+02,9.617542266845703125e+01,-4.455091476440429688e+00,4.031498432159423828e-01,-6.667353820800781250e+01,-1.826883239746093750e+02,-2.342747688293457031e+00,7.562299346923828125e+01,3.135653114318847656e+01
3.994069993495941162e-01,1.000000000000000000e+00,-3.727801132202148438e+01,4.379391860961914062e+01,3.126534461975097656e+01,1.045542068481445312e+02,9.619595336914062500e+01,-4.476861000061035156e+00,4.031498432159423828e-01,-6.667353820800781250e+01,-1.826883239746093750e+02,-2.342819452285766602e+00,7.562291717529296875e+01,3.135653114318847656e+01
4.034030139446258545e-01,1.000000000000000000e+00,-3.731805801391601562e+01,4.371546173095703125e+01,3.128687667846679688e+01,1.044833679199218750e+02,9.621573638916015625e+01,-4.497748851776123047e+00,4.031498432159423828e-01,-6.667362213134765625e+01,-1.826883239746093750e+02,-2.342747688293457031e+00,7.562291717529296875e+01,3.135653114318847656e+01
4.079009890556335449e-01,1.000000000000000000e+00,-3.735821914672851562e+01,4.363718414306640625e+01,3.130830764770507812e+01,1.044128265380859375e+02,9.623471832275390625e+01,-4.519314289093017578e+00,4.031498432159423828e-01,-6.667353820800781250e+01,-1.826883239746093750e+02,-2.342747688293457031e+00,7.562277984619140625e+01,3.135642242431640625e+01
4.122110009193420410e-01,1.000000000000000000e+00,-3.739814758300781250e+01,4.355843353271484375e+01,3.132977676391601562e+01,1.043416213989257812e+02,9.625396728515625000e+01,-4.540744304656982422e+00,4.031498432159423828e-01,-6.667353820800781250e+01,-1.826883239746093750e+02,-2.342819452285766602e+00,7.562299346923828125e+01,3.135653114318847656e+01
4.154550135135650635e-01,1.000000000000000000e+00,-3.743828201293945312e+01,4.347986221313476562e+01,3.135130882263183594e+01,1.042711944580078125e+02,9.627347564697265625e+01,-4.562649250030517578e+00,4.031498432159423828e-01,-6.667353820800781250e+01,-1.826883239746093750e+02,-2.342747688293457031e+00,7.562291717529296875e+01,3.135653114318847656e+01
4.198729991912841797e-01,1.000000000000000000e+00,-3.747841262817382812e+01,4.340108489990234375e+01,3.137257575988769531e+01,1.041999816894531250e+02,9.629283142089843750e+01,-4.584689617156982422e+00,4.031498432159423828e-01,-6.667353820800781250e+01,-1.826883239746093750e+02,-2.342891216278076172e+00,7.562291717529296875e+01,3.135653114318847656e+01
4.246160089969635010e-01,1.000000000000000000e+00,-3.751863098144531250e+01,4.332199478149414062e+01,3.139408683776855469e+01,1.041291275024414062e+02,9.631304168701171875e+01,-4.606594562530517578e+00,4.031498432159423828e-01,-6.667353820800781250e+01,-1.826883239746093750e+02,-2.342819452285766602e+00,7.562291717529296875e+01,3.135653114318847656e+01
4.279319941997528076e-01,1.000000000000000000e+00,-3.755873489379882812e+01,4.324258804321289062e+01,3.141555786132812500e+01,1.040577087402343750e+02,9.633351135253906250e+01,-4.629042148590087891e+00,4.031498432159423828e-01,-6.667353820800781250e+01,-1.826883239746093750e+02,-2.342747688293457031e+00,7.562299346923828125e+01,3.135653114318847656e+01
4.318479895591735840e-01,1.000000000000000000e+00,-3.759878158569335938e+01,4.316295242309570312e+01,3.143735313415527344e+01,1.039869155883789062e+02,9.635372161865234375e+01,-4.651489734649658203e+00,4.031498432159423828e-01,-6.667362213134765625e+01,-1.826883239746093750e+02,-2.342747688293457031e+00,7.562299346923828125e+01,3.135653114318847656e+01
4.363859891891479492e-01,1.000000000000000000e+00,-3.763891220092773438e+01,4.308388519287109375e+01,3.145912742614746094e+01,1.039155883789062500e+02,9.637280273437500000e+01,-4.673190593719482422e+00,4.031498432159423828e-01,-6.667362213134765625e+01,-1.826883239746093750e+02,-2.342819452285766602e+00,7.562291717529296875e+01,3.135653114318847656e+01
4.398689866065979004e-01,1.000000000000000000e+00,-3.767898941040039062e+01,4.300452041625976562e+01,3.148061943054199219e+01,1.038445892333984375e+02,9.639210510253906250e+01,-4.693942546844482422e+00,4.031498432159423828e-01,-6.667353820800781250e+01,-1.826883239746093750e+02,-2.342819452285766602e+00,7.562277984619140625e+01,3.135653114318847656e+01
4.438540041446685791e-01,1.000000000000000000e+00,-3.771894836425781250e+01,4.292547225952148438e+01,3.150202751159667969e+01,1.037733688354492188e+02,9.641123962402343750e+01,-4.715237140655517578e+00,4.031498432159423828e-01,-6.667353820800781250e+01,-1.826883239746093750e+02,-2.342819452285766602e+00,7.562291717529296875e+01,3.135642242431640625e+01
4.487310051918029785e-01,1.000000000000000000e+00,-3.775913619995117188e+01,4.284669876098632812e+01,3.152347755432128906e+01,1.037022552490234375e+02,9.643065643310546875e+01,-4.737209796905517578e+00,4.031498432159423828e-01,-6.667353820800781250e+01,-1.826883239746093750e+02,-2.342819452285766602e+00,7.562291717529296875e+01,3.135653114318847656e+01
4.518660008907318115e-01,1.000000000000000000e+00,-3.779929733276367188e+01,4.276781082153320312e+01,3.154496955871582031e+01,1.036310501098632812e+02,9.645043182373046875e+01,-4.758979320526123047e+00,4.031498432159423828e-01,-6.667353820800781250e+01,-1.826883239746093750e+02,-2.342819452285766602e+00,7.562291717529296875e+01,3.135653114318847656e+01
4.559389948844909668e-01,1.000000000000000000e+00,-3.783942794799804688e+01,4.268878555297851562e+01,3.156686782836914062e+01,1.035599822998046875e+02,9.647090148925781250e+01,-4.781087398529052734e+00,4.031498432159423828e-01,-6.667353820800781250e+01,-1.826883239746093750e+02,-2.342747688293457031e+00,7.562291717529296875e+01,3.135642242431640625e+01
4.599289894104003906e-01,1.000000000000000000e+00,-3.787958908081054688e+01,4.260951232910156250e+01,3.158850097656250000e+01,1.034883499145507812e+02,9.649143218994140625e+01,-4.803466796875000000e+00,4.031498432159423828e-01,-6.667362213134765625e+01,-1.826883239746093750e+02,-2.342747688293457031e+00,7.562291717529296875e+01,3.135653114318847656e+01
4.645009934902191162e-01,1.000000000000000000e+00,-3.791966247558593750e+01,4.253022003173828125e+01,3.161011314392089844e+01,1.034170303344726562e+02,9.651110839843750000e+01,-4.825778961181640625e+00,4.031498432159423828e-01,-6.667353820800781250e+01,-1.826883239746093750e+02,-2.342819452285766602e+00,7.562291717529296875e+01,3.135653114318847656e+01
4.679819941520690918e-01,1.000000000000000000e+00,-3.795988464355468750e+01,4.245060729980468750e+01,3.163178825378417969e+01,1.033454971313476562e+02,9.653013610839843750e+01,-4.847344398498535156e+00,4.031498432159423828e-01,-6.667353820800781250e+01,-1.826883239746093750e+02,-2.342819452285766602e+00,7.562291717529296875e+01,3.135653114318847656e+01
4.728179872035980225e-01,1.000000000000000000e+00,-3.799998855590820312e+01,4.237076950073242188e+01,3.165350151062011719e+01,1.032740707397460938e+02,9.654959869384765625e+01,-4.868978023529052734e+00,4.031498432159423828e-01,-6.667353820800781250e+01,-1.826883239746093750e+02,-2.342819452285766602e+00,7.562277984619140625e+01,3.135653114318847656e+01
4.760710000991821289e-01,1.000000000000000000e+00,-3.804011917114257812e+01,4.229115676879882812e+01,3.167531776428222656e+01,1.032026519775390625e+02,9.656927490234375000e+01,-4.890476226806640625e+00,4.031498432159423828e-01,-6.667362213134765625e+01,-1.826883239746093750e+02,-2.342819452285766602e+00,7.562299346923828125e+01,3.135642242431640625e+01
4.799619913101196289e-01,1.000000000000000000e+00,-3.808042144775390625e+01,4.221170425415039062e+01,3.169707107543945312e+01,1.031307449340820312e+02,9.658911132812500000e+01,-4.912177562713623047e+00,4.030399620532989502e-01,-6.667353820800781250e+01,-1.826881713867187500e+02,-2.342747688293457031e+00,7.562291717529296875e+01,3.135642242431640625e+01
4.840959906578063965e-01,1.000000000000000000e+00,-3.812067031860351562e+01,4.213258743286132812e+01,3.171852111816406250e+01,1.030591583251953125e+02,9.660942077636718750e+01,-4.934150218963623047e+00,4.031498432159423828e-01,-6.667353820800781250e+01,-1.826883239746093750e+02,-2.342819452285766602e+00,7.562291717529296875e+01,3.135653114318847656e+01
4.887300133705139160e-01,1.000000000000000000e+00,-3.816094589233398438e+01,4.205311203002929688e+01,3.174003219604492188e+01,1.029875259399414062e+02,9.663015747070312500e+01,-4.955986976623535156e+00,4.031498432159423828e-01,-6.667353820800781250e+01,-1.826883239746093750e+02,-2.342747688293457031e+00,7.562299346923828125e+01,3.135653114318847656e+01
4.920130074024200439e-01,1.000000000000000000e+00,-3.820107650756835938e+01,4.197390747070312500e+01,3.176170539855957031e+01,1.029159393310546875e+02,9.665047454833984375e+01,-4.978095054626464844e+00,4.031498432159423828e-01,-6.667353820800781250e+01,-1.826883239746093750e+02,-2.342819452285766602e+00,7.562291717529296875e+01,3.135653114318847656e+01
4.972890019416809082e-01,1.000000000000000000e+00,-3.824138259887695312e+01,4.189438629150390625e+01,3.178360176086425781e+01,1.028444137573242188e+02,9.666999053955078125e+01,-5.001017093658447266e+00,4.031498432159423828e-01,-6.667353820800781250e+01,-1.826883239746093750e+02,-2.342819452285766602e+00,7.562299346923828125e+01,3.135653114318847656e+01
5.001749992370605469e-01,1.000000000000000000e+00,-3.828174591064453125e+01,4.181425476074218750e+01,3.180554199218750000e+01,1.027722473144531250e+02,9.668901824951171875e+01,-5.023532390594482422e+00,4.031498432159423828e-01,-6.667343902587890625e+01,-1.826883239746093750e+02,-2.342819452285766602e+00,7.562291717529296875e+01,3.135653114318847656e+01
5.042049884796142578e-01,1.000000000000000000e+00,-3.832196044921875000e+01,4.173407363891601562e+01,3.182727813720703125e+01,1.027008743286132812e+02,9.670837402343750000e+01,-5.044894695281982422e+00,4.031498432159423828e-01,-6.667353820800781250e+01,-1.826883239746093750e+02,-2.342747688293457031e+00,7.562291717529296875e+01,3.135653114318847656e+01
5.081059932708740234e-01,1.000000000000000000e+00,-3.836226654052734375e+01,4.165362548828125000e+01,3.184880638122558594e+01,1.026291351318359375e+02,9.672815704345703125e+01,-5.065782546997070312e+00,4.031498432159423828e-01,-6.667362213134765625e+01,-1.826883239746093750e+02,-2.342747688293457031e+00,7.562291717529296875e+01,3.135653114318847656e+01
5.108460187911987305e-01,1.000000000000000000e+00,-3.840262985229492188e+01,4.157317733764648438e+01,3.187052345275878906e+01,1.025572280883789062e+02,9.674858093261718750e+01,-5.087755203247070312e+00,4.031498432159423828e-01,-6.667362213134765625e+01,-1.826883239746093750e+02,-2.342747688293457031e+00,7.562299346923828125e+01,3.135653114318847656e+01
5.167210102081298828e-01,1.000000000000000000e+00,-3.844278717041015625e+01,4.149300003051757812e+01,3.189244079589843750e+01,1.024845886230468750e+02,9.676937103271484375e+01,-5.109727859497070312e+00,4.031498432159423828e-01,-6.667353820800781250e+01,-1.826883239746093750e+02,-2.342819452285766602e+00,7.562291717529296875e+01,3.135653114318847656e+01
5.203719735145568848e-01,1.000000000000000000e+00,-3.848312377929687500e+01,4.141331863403320312e+01,3.191435623168945312e+01,1.024131164550781250e+02,9.678979492187500000e+01,-5.131361484527587891e+00,4.031498432159423828e-01,-6.667353820800781250e+01,-1.826883239746093750e+02,-2.342819452285766602e+00,7.562291717529296875e+01,3.135653114318847656e+01
5.227980017662048340e-01,1.000000000000000000e+00,-3.852351379394531250e+01,4.133382034301757812e+01,3.193619155883789062e+01,1.023411102294921875e+02,9.680946350097656250e+01,-5.154012203216552734e+00,4.031498432159423828e-01,-6.667353820800781250e+01,-1.826883239746093750e+02,-2.342891216278076172e+00,7.562299346923828125e+01,3.135653114318847656e+01
5.268200039863586426e-01,1.000000000000000000e+00,-3.856407546997070312e+01,4.125409317016601562e+01,3.195790863037109375e+01,1.022694778442382812e+02,9.682876586914062500e+01,-5.176459789276123047e+00,4.031498432159423828e-01,-6.667362213134765625e+01,-1.826883239746093750e+02,-2.342891216278076172e+00,7.562291717529296875e+01,3.135653114318847656e+01
5.324829816818237305e-01,1.000000000000000000e+00,-3.860426330566406250e+01,4.117394256591796875e+01,3.197956085205078125e+01,1.021969375610351562e+02,9.684832763671875000e+01,-5.199313640594482422e+00,4.031498432159423828e-01,-6.667353820800781250e+01,-1.826883239746093750e+02,-2.342747688293457031e+00,7.562291717529296875e+01,3.135653114318847656e+01
5.370730161666870117e-01,1.000000000000000000e+00,-3.864477157592773438e+01,4.109344482421875000e+01,3.200149917602539062e+01,1.021251449584960938e+02,9.686821746826171875e+01,-5.221761226654052734e+00,4.031498432159423828e-01,-6.667353820800781250e+01,-1.826883239746093750e+02,-2.342747688293457031e+00,7.562291717529296875e+01,3.135642242431640625e+01
5.388029813766479492e-01,1.000000000000000000e+00,-3.868519210815429688e+01,4.101286315917968750e+01,3.202345657348632812e+01,1.020525588989257812e+02,9.688837432861328125e+01,-5.242852210998535156e+00,4.031498432159423828e-01,-6.667353820800781250e+01,-1.826883239746093750e+02,-2.342819452285766602e+00,7.562291717529296875e+01,3.135642242431640625e+01
5.428569912910461426e-01,1.000000000000000000e+00,-3.872583770751953125e+01,4.093191528320312500e+01,3.204531478881835938e+01,1.019807128906250000e+02,9.690931701660156250e+01,-5.264621734619140625e+00,4.031498432159423828e-01,-6.667353820800781250e+01,-1.826883239746093750e+02,-2.342819452285766602e+00,7.562291717529296875e+01,3.135653114318847656e+01
5.485500097274780273e-01,1.000000000000000000e+00,-3.876660537719726562e+01,4.085099029541015625e+01,3.206715011596679688e+01,1.019083938598632812e+02,9.693006134033203125e+01,-5.286932945251464844e+00,4.031498432159423828e-01,-6.667343902587890625e+01,-1.826883239746093750e+02,-2.342747688293457031e+00,7.562291717529296875e+01,3.135653114318847656e+01
5.527110099792480469e-01,1.000000000000000000e+00,-3.880725097656250000e+01,4.077065277099609375e+01,3.208905029296875000e+01,1.018362808227539062e+02,9.695016479492187500e+01,-5.309041500091552734e+00,4.031498432159423828e-01,-6.667353820800781250e+01,-1.826883239746093750e+02,-2.342819452285766602e+00,7.562299346923828125e+01,3.135653114318847656e+01
5.565829873085021973e-01,1.000000000000000000e+00,-3.884795761108398438e+01,4.069027328491210938e+01,3.211112594604492188e+01,1.017640151977539062e+02,9.696951293945312500e+01,-5.331081867218017578e+00,4.031498432159423828e-01,-6.667343902587890625e+01,-1.826883239746093750e+02,-2.342747688293457031e+00,7.562291717529296875e+01,3.135653114318847656e+01
5.614510178565979004e-01,1.000000000000000000e+00,-3.888877868652343750e+01,4.061018371582031250e+01,3.213314819335937500e+01,1.016918563842773438e+02,9.698886871337890625e+01,-5.353800773620605469e+00,4.031498432159423828e-01,-6.667353820800781250e+01,-1.826883239746093750e+02,-2.342819452285766602e+00,7.562277984619140625e+01,3.135642242431640625e+01
5.646179914474487305e-01,1.000000000000000000e+00,-3.892965698242187500e+01,4.053007507324218750e+01,3.215510559082031250e+01,1.016193695068359375e+02,9.700849151611328125e+01,-5.376722812652587891e+00,4.031498432159423828e-01,-6.667353820800781250e+01,-1.826883239746093750e+02,-2.342819452285766602e+00,7.562299346923828125e+01,3.135653114318847656e+01
5.696030259132385254e-01,1.000000000000000000e+00,-3.897053527832031250e+01,4.044969177246093750e+01,3.217696380615234375e+01,1.015466842651367188e+02,9.702864074707031250e+01,-5.399169921875000000e+00,4.031498432159423828e-01,-6.667353820800781250e+01,-1.826883239746093750e+02,-2.342819452285766602e+00,7.562291717529296875e+01,3.135653114318847656e+01
5.727959871292114258e-01,1.000000000000000000e+00,-3.901164245605468750e+01,4.036899185180664062e+01,3.219881820678710938e+01,1.014743576049804688e+02,9.704938507080078125e+01,-5.420667648315429688e+00,4.031498432159423828e-01,-6.667343902587890625e+01,-1.826883239746093750e+02,-2.342819452285766602e+00,7.562299346923828125e+01,3.135653114318847656e+01
5.766869783401489258e-01,1.000000000000000000e+00,-3.905260848999023438e+01,4.028800201416015625e+01,3.222082138061523438e+01,1.014019851684570312e+02,9.707028961181640625e+01,-5.442708492279052734e+00,4.031498432159423828e-01,-6.667353820800781250e+01,-1.826881713867187500e+02,-2.342819452285766602e+00,7.562299346923828125e+01,3.135653114318847656e+01
5.812900066375732422e-01,1.000000000000000000e+00,-3.913468170166015625e+01,4.012562942504882812e+01,3.226514053344726562e+01,1.012566070556640625e+02,9.710989379882812500e+01,-5.487263679504394531e+00,4.031498432159423828e-01,-6.667353820800781250e+01,-1.826883239746093750e+02,-2.342747688293457031e+00,7.562299346923828125e+01,3.135653114318847656e+01
5.828109979629516602e-01,1.000000000000000000e+00,-3.913468170166015625e+01,4.012562942504882812e+01,3.226514053344726562e+01,1.012566070556640625e+02,9.710989379882812500e+01,-5.487263679504394531e+00,4.031498432159423828e-01,-6.667353820800781250e+01,-1.826883239746093750e+02,-2.342747688293457031e+00,7.562299346923828125e+01,3.135653114318847656e+01
5.888419747352600098e-01,1.000000000000000000e+00,-3.917587661743164062e+01,4.004466247558593750e+01,3.228726577758789062e+01,1.011843338012695312e+02,9.712924957275390625e+01,-5.509847164154052734e+00,4.031498432159423828e-01,-6.667343902587890625e+01,-1.826883239746093750e+02,-2.342819452285766602e+00,7.562291717529296875e+01,3.135653114318847656e+01
5.936040282249450684e-01,1.000000000000000000e+00,-3.921712493896484375e+01,3.996396255493164062e+01,3.230922317504882812e+01,1.011117553710937500e+02,9.714940643310546875e+01,-5.532158851623535156e+00,4.031498432159423828e-01,-6.667343902587890625e+01,-1.826883239746093750e+02,-2.342819452285766602e+00,7.562291717529296875e+01,3.135653114318847656e+01
5.969449877738952637e-01,1.000000000000000000e+00,-3.925837707519531250e+01,3.988355636596679688e+01,3.233119964599609375e+01,1.010387954711914062e+02,9.716945648193359375e+01,-5.555284500122070312e+00,4.031498432159423828e-01,-6.667353820800781250e+01,-1.826883239746093750e+02,-2.342819452285766602e+00,7.562291717529296875e+01,3.135653114318847656e+01
6.011229753494262695e-01,1.000000000000000000e+00,-3.929963302612304688e+01,3.980322265625000000e+01,3.235334396362304688e+01,1.009663162231445312e+02,9.718971252441406250e+01,-5.578477859497070312e+00,4.031498432159423828e-01,-6.667353820800781250e+01,-1.826883239746093750e+02,-2.342747688293457031e+00,7.562299346923828125e+01,3.135653114318847656e+01
6.028509736061096191e-01,1.000000000000000000e+00,-3.934108352661132812e+01,3.972252655029296875e+01,3.237533950805664062e+01,1.008932571411132812e+02,9.721109008789062500e+01,-5.600518226623535156e+00,4.031498432159423828e-01,-6.667353820800781250e+01,-1.826883239746093750e+02,-2.342819452285766602e+00,7.562291717529296875e+01,3.135653114318847656e+01
6.067879796028137207e-01,1.000000000000000000e+00,-3.938233566284179688e+01,3.964144134521484375e+01,3.239729690551757812e+01,1.008207321166992188e+02,9.723172760009765625e+01,-5.622287273406982422e+00,4.031498432159423828e-01,-6.667353820800781250e+01,-1.826883239746093750e+02,-2.342819452285766602e+00,7.562291717529296875e+01,3.135653114318847656e+01
6.128630042076110840e-01,1.000000000000000000e+00,-3.942358779907226562e+01,3.956018066406250000e+01,3.241942214965820312e+01,1.007474060058593750e+02,9.725139617919921875e+01,-5.644328117370605469e+00,4.031498432159423828e-01,-6.667353820800781250e+01,-1.826883239746093750e+02,-2.342747688293457031e+00,7.562299346923828125e+01,3.135653114318847656e+01
6.177650094032287598e-01,1.000000000000000000e+00,-3.946478271484375000e+01,3.947866439819335938e+01,3.244160079956054688e+01,1.006747665405273438e+02,9.727086639404296875e+01,-5.666775226593017578e+00,4.031498432159423828e-01,-6.667353820800781250e+01,-1.826883239746093750e+02,-2.342819452285766602e+00,7.562291717529296875e+01,3.135653114318847656e+01
6.210370063781738281e-01,1.000000000000000000e+00,-3.950623321533203125e+01,3.939701843261718750e+01,3.246390533447265625e+01,1.006014938354492188e+02,9.729037475585937500e+01,-5.689019203186035156e+00,4.031498432159423828e-01,-6.667353820800781250e+01,-1.826883239746093750e+02,-2.342819452285766602e+00,7.562291717529296875e+01,3.135653114318847656e+01
6.227899789810180664e-01,1.000000000000000000e+00,-3.954751205444335938e+01,3.931584167480468750e+01,3.248610687255859375e+01,1.005286483764648438e+02,9.731047058105468750e+01,-5.711941242218017578e+00,4.031498432159423828e-01,-6.667353820800781250e+01,-1.826883239746093750e+02,-2.342819452285766602e+00,7.562291717529296875e+01,3.135653114318847656e+01
6.278010010719299316e-01,1.000000000000000000e+00,-3.958879470825195312e+01,3.923469161987304688e+01,3.250814819335937500e+01,1.004554901123046875e+02,9.733094787597656250e+01,-5.735270023345947266e+00,4.031498432159423828e-01,-6.667353820800781250e+01,-1.826883239746093750e+02,-2.342747688293457031e+00,7.562277984619140625e+01,3.135653114318847656e+01
6.308029890060424805e-01,1.000000000000000000e+00,-3.962995910644531250e+01,3.915381240844726562e+01,3.253012466430664062e+01,1.003827438354492188e+02,9.735205841064453125e+01,-5.758260250091552734e+00,4.031498432159423828e-01,-6.667353820800781250e+01,-1.826883239746093750e+02,-2.342747688293457031e+00,7.562277984619140625e+01,3.135653114318847656e+01
6.378430128097534180e-01,1.000000000000000000e+00,-3.962995910644531250e+01,3.915381240844726562e+01,3.253012466430664062e+01,1.003827438354492188e+02,9.735205841064453125e+01,-5.758260250091552734e+00,4.031498432159423828e-01,-6.667353820800781250e+01,-1.826883239746093750e+02,-2.342819452285766602e+00,7.562277984619140625e+01,3.135653114318847656e+01
6.394780278205871582e-01,1.000000000000000000e+00,-3.971266174316406250e+01,3.899132919311523438e+01,3.257438659667968750e+01,1.002362594604492188e+02,9.739300537109375000e+01,-5.802612304687500000e+00,4.031498432159423828e-01,-6.667353820800781250e+01,-1.826883239746093750e+02,-2.342747688293457031e+00,7.562299346923828125e+01,3.135653114318847656e+01
6.435599923133850098e-01,1.000000000000000000e+00,-3.975417327880859375e+01,3.890995407104492188e+01,3.259661102294921875e+01,1.001626663208007812e+02,9.741252136230468750e+01,-5.824313640594482422e+00,4.033146500587463379e-01,-6.667353820800781250e+01,-1.826883239746093750e+02,-2.342891216278076172e+00,7.562299346923828125e+01,3.135653114318847656e+01
6.479319930076599121e-01,1.000000000000000000e+00,-3.979560089111328125e+01,3.882818984985351562e+01,3.261893463134765625e+01,1.000899810791015625e+02,9.743214416503906250e+01,-5.846625328063964844e+00,4.031498432159423828e-01,-6.667353820800781250e+01,-1.826883239746093750e+02,-2.342603921890258789e+00,7.562277984619140625e+01,3.135653114318847656e+01
6.509069800376892090e-01,1.000000000000000000e+00,-3.983679199218750000e+01,3.874611282348632812e+01,3.264105606079101562e+01,1.000161361694335938e+02,9.745229339599609375e+01,-5.869344234466552734e+00,4.031498432159423828e-01,-6.667353820800781250e+01,-1.826883239746093750e+02,-2.342819452285766602e+00,7.562291717529296875e+01,3.135653114318847656e+01
6.558009982109069824e-01,1.000000000000000000e+00,-3.987804412841796875e+01,3.866389846801757812e+01,3.266340255737304688e+01,9.994297027587890625e+01,9.747293090820312500e+01,-5.891994953155517578e+00,4.031498432159423828e-01,-6.667353820800781250e+01,-1.826883239746093750e+02,-2.342819452285766602e+00,7.562291717529296875e+01,3.135653114318847656e+01
6.597890257835388184e-01,1.000000000000000000e+00,-3.991941070556640625e+01,3.858184051513671875e+01,3.268576812744140625e+01,9.986885833740234375e+01,9.749409484863281250e+01,-5.914713859558105469e+00,4.031498432159423828e-01,-6.667353820800781250e+01,-1.826883239746093750e+02,-2.342603921890258789e+00,7.562291717529296875e+01,3.135653114318847656e+01
6.638560295104980469e-01,1.000000000000000000e+00,-3.996075057983398438e+01,3.850014877319335938e+01,3.270786666870117188e+01,9.979611206054687500e+01,9.751525878906250000e+01,-5.937839031219482422e+00,4.033146500587463379e-01,-6.667353820800781250e+01,-1.826883239746093750e+02,-2.342819452285766602e+00,7.562291717529296875e+01,3.135653114318847656e+01
6.677920222282409668e-01,1.000000000000000000e+00,-4.000222778320312500e+01,3.841879272460937500e+01,3.273011016845703125e+01,9.972231292724609375e+01,9.753557586669921875e+01,-5.960625648498535156e+00,4.031498432159423828e-01,-6.667353820800781250e+01,-1.826883239746093750e+02,-2.342891216278076172e+00,7.562291717529296875e+01,3.135653114318847656e+01
6.708040237426757812e-01,1.000000000000000000e+00,-4.004351043701171875e+01,3.833748245239257812e+01,3.275231170654296875e+01,9.964873504638671875e+01,9.755529785156250000e+01,-5.982666015625000000e+00,4.031498432159423828e-01,-6.667353820800781250e+01,-1.826883239746093750e+02,-2.342819452285766602e+00,7.562291717529296875e+01,3.135653114318847656e+01
6.758999824523925781e-01,1.000000000000000000e+00,-4.004351043701171875e+01,3.833748245239257812e+01,3.275231170654296875e+01,9.964873504638671875e+01,9.755529785156250000e+01,-5.982666015625000000e+00,4.031498432159423828e-01,-6.667353820800781250e+01,-1.826883239746093750e+02,-2.342819452285766602e+00,7.562291717529296875e+01,3.135653114318847656e+01
6.788730025291442871e-01,1.000000000000000000e+00,-4.012641525268554688e+01,3.817387008666992188e+01,3.279720687866210938e+01,9.950151062011718750e+01,9.759491729736328125e+01,-6.026950359344482422e+00,4.031498432159423828e-01,-6.667353820800781250e+01,-1.826883239746093750e+02,-2.342747688293457031e+00,7.562291717529296875e+01,3.135653114318847656e+01
6.838459968566894531e-01,1.000000000000000000e+00,-4.012641525268554688e+01,3.817387008666992188e+01,3.279720687866210938e+01,9.950151062011718750e+01,9.759491729736328125e+01,-6.026950359344482422e+00,4.031498432159423828e-01,-6.667353820800781250e+01,-1.826883239746093750e+02,-2.342747688293457031e+00,7.562291717529296875e+01,3.135653114318847656e+01
6.878709793090820312e-01,1.000000000000000000e+00,-4.020940780639648438e+01,3.800946426391601562e+01,3.284171295166015625e+01,9.935396575927734375e+01,9.763677215576171875e+01,-6.072387695312500000e+00,4.031498432159423828e-01,-6.667353820800781250e+01,-1.826883239746093750e+02,-2.342747688293457031e+00,7.562291717529296875e+01,3.135653114318847656e+01
6.918029785156250000e-01,1.000000000000000000e+00,-4.025103378295898438e+01,3.792695617675781250e+01,3.286397552490234375e+01,9.927995300292968750e+01,9.765788269042968750e+01,-6.095310211181640625e+00,4.031498432159423828e-01,-6.667353820800781250e+01,-1.826883239746093750e+02,-2.342819452285766602e+00,7.562277984619140625e+01,3.135653114318847656e+01
6.947919726371765137e-01,1.000000000000000000e+00,-4.029271316528320312e+01,3.784469604492187500e+01,3.288642120361328125e+01,9.920663452148437500e+01,9.767872619628906250e+01,-6.118842601776123047e+00,4.031498432159423828e-01,-6.667353820800781250e+01,-1.826883239746093750e+02,-2.342747688293457031e+00,7.562291717529296875e+01,3.135653114318847656e+01
6.998819708824157715e-01,1.000000000000000000e+00,-4.029271316528320312e+01,3.784469604492187500e+01,3.288642120361328125e+01,9.920663452148437500e+01,9.767872619628906250e+01,-6.118842601776123047e+00,4.031498432159423828e-01,-6.667353820800781250e+01,-1.826883239746093750e+02,-2.342747688293457031e+00,7.562291717529296875e+01,3.135653114318847656e+01
7.028570175170898438e-01,1.000000000000000000e+00,-4.037604904174804688e+01,3.768083190917968750e+01,3.293131256103515625e+01,9.905867767333984375e+01,9.771849822998046875e+01,-6.163805007934570312e+00,4.031498432159423828e-01,-6.667353820800781250e+01,-1.826883239746093750e+02,-2.342747688293457031e+00,7.562291717529296875e+01,3.135653114318847656e+01
7.078859806060791016e-01,1.000000000000000000e+00,-4.037604904174804688e+01,3.768083190917968750e+01,3.293131256103515625e+01,9.905867767333984375e+01,9.771849822998046875e+01,-6.163805007934570312e+00,4.031498432159423828e-01,-6.667353820800781250e+01,-1.826883239746093750e+02,-2.342747688293457031e+00,7.562291717529296875e+01,3.135653114318847656e+01
7.107920050621032715e-01,1.000000000000000000e+00,-4.045964431762695312e+01,3.751708221435546875e+01,3.297590255737304688e+01,9.891082000732421875e+01,9.775923156738281250e+01,-6.207953929901123047e+00,4.031498432159423828e-01,-6.667353820800781250e+01,-1.826883239746093750e+02,-2.342819452285766602e+00,7.562291717529296875e+01,3.135653114318847656e+01
7.158570289611816406e-01,1.000000000000000000e+00,-4.045964431762695312e+01,3.751708221435546875e+01,3.297590255737304688e+01,9.891082000732421875e+01,9.775923156738281250e+01,-6.207953929901123047e+00,4.031498432159423828e-01,-6.667353820800781250e+01,-1.826883239746093750e+02,-2.342819452285766602e+00,7.562291717529296875e+01,3.135653114318847656e+01
7.188280224800109863e-01,1.000000000000000000e+00,-4.054306793212890625e+01,3.735219955444335938e+01,3.302105712890625000e+01,9.876243591308593750e+01,9.780200195312500000e+01,-6.253187656402587891e+00,4.031498432159423828e-01,-6.667353820800781250e+01,-1.826883239746093750e+02,-2.342819452285766602e+00,7.562299346923828125e+01,3.135653114318847656e+01
7.239009737968444824e-01,1.000000000000000000e+00,-4.054306793212890625e+01,3.735219955444335938e+01,3.302105712890625000e+01,9.876243591308593750e+01,9.780200195312500000e+01,-6.253187656402587891e+00,4.031498432159423828e-01,-6.667353820800781250e+01,-1.826883239746093750e+02,-2.342819452285766602e+00,7.562299346923828125e+01,3.135653114318847656e+01
7.268509864807128906e-01,1.000000000000000000e+00,-4.062714767456054688e+01,3.718627548217773438e+01,3.306572723388671875e+01,9.861426544189453125e+01,9.784256744384765625e+01,-6.299981117248535156e+00,4.031498432159423828e-01,-6.667343902587890625e+01,-1.826883239746093750e+02,-2.342819452285766602e+00,7.562291717529296875e+01,3.135653114318847656e+01
7.318440079689025879e-01,1.000000000000000000e+00,-4.062714767456054688e+01,3.718627548217773438e+01,3.306572723388671875e+01,9.861426544189453125e+01,9.784256744384765625e+01,-6.299981117248535156e+00,4.031498432159423828e-01,-6.667343902587890625e+01,-1.826883239746093750e+02,-2.342819452285766602e+00,7.562291717529296875e+01,3.135653114318847656e+01
7.358289957046508789e-01,1.000000000000000000e+00,-4.071102905273437500e+01,3.702082824707031250e+01,3.311084365844726562e+01,9.846583557128906250e+01,9.788228607177734375e+01,-6.345757484436035156e+00,4.031498432159423828e-01,-6.667353820800781250e+01,-1.826883239746093750e+02,-2.342819452285766602e+00,7.562291717529296875e+01,3.135653114318847656e+01
7.398269772529602051e-01,1.000000000000000000e+00,-4.075305557250976562e+01,3.693856811523437500e+01,3.313349533081054688e+01,9.839140319824218750e+01,9.790270996093750000e+01,-6.367933750152587891e+00,4.031498432159423828e-01,-6.667353820800781250e+01,-1.826883239746093750e+02,-2.342819452285766602e+00,7.562291717529296875e+01,3.135653114318847656e+01
7.428380250930786133e-01,1.000000000000000000e+00,-4.079513931274414062e+01,3.685651397705078125e+01,3.315597915649414062e+01,9.831755828857421875e+01,9.792372131347656250e+01,-6.390041828155517578e+00,4.031498432159423828e-01,-6.667353820800781250e+01,-1.826883239746093750e+02,-2.342819452285766602e+00,7.562291717529296875e+01,3.135653114318847656e+01
7.478830218315124512e-01,1.000000000000000000e+00,-4.079513931274414062e+01,3.685651397705078125e+01,3.315597915649414062e+01,9.831755828857421875e+01,9.792372131347656250e+01,-6.390041828155517578e+00,4.031498432159423828e-01,-6.667353820800781250e+01,-1.826883239746093750e+02,-2.342819452285766602e+00,7.562291717529296875e+01,3.135653114318847656e+01
7.508630156517028809e-01,1.000000000000000000e+00,-4.087922286987304688e+01,3.669124603271484375e+01,3.320054626464843750e+01,9.816874694824218750e+01,9.796605682373046875e+01,-6.436293125152587891e+00,4.031498432159423828e-01,-6.667353820800781250e+01,-1.826883239746093750e+02,-2.342747688293457031e+00,7.562299346923828125e+01,3.135653114318847656e+01
7.559210062026977539e-01,1.000000000000000000e+00,-4.087922286987304688e+01,3.669124603271484375e+01,3.320054626464843750e+01,9.816874694824218750e+01,9.796605682373046875e+01,-6.436293125152587891e+00,4.031498432159423828e-01,-6.667353820800781250e+01,-1.826883239746093750e+02,-2.342747688293457031e+00,7.562299346923828125e+01,3.135653114318847656e+01
7.587900161743164062e-01,1.000000000000000000e+00,-4.096344757080078125e+01,3.652511978149414062e+01,3.324586868286132812e+01,9.801931762695312500e+01,9.800592803955078125e+01,-6.483018875122070312e+00,4.031498432159423828e-01,-6.667353820800781250e+01,-1.826883239746093750e+02,-2.342747688293457031e+00,7.562291717529296875e+01,3.135642242431640625e+01
7.638710141181945801e-01,1.000000000000000000e+00,-4.096344757080078125e+01,3.652511978149414062e+01,3.324586868286132812e+01,9.801931762695312500e+01,9.800592803955078125e+01,-6.483018875122070312e+00,4.031498432159423828e-01,-6.667353820800781250e+01,-1.826883239746093750e+02,-2.342747688293457031e+00,7.562291717529296875e+01,3.135642242431640625e+01
7.688270211219787598e-01,1.000000000000000000e+00,-4.100536346435546875e+01,3.644170761108398438e+01,3.326859664916992188e+01,9.794504547119140625e+01,9.802645874023437500e+01,-6.506347656250000000e+00,4.031498432159423828e-01,-6.667353820800781250e+01,-1.826883239746093750e+02,-2.342819452285766602e+00,7.562291717529296875e+01,3.135653114318847656e+01
7.714380025863647461e-01,1.000000000000000000e+00,-4.108950042724609375e+01,3.627548980712890625e+01,3.331379699707031250e+01,9.779592132568359375e+01,9.806830596923828125e+01,-6.551174640655517578e+00,4.031498432159423828e-01,-6.667362213134765625e+01,-1.826883239746093750e+02,-2.342747688293457031e+00,7.562291717529296875e+01,3.135653114318847656e+01
7.758700251579284668e-01,1.000000000000000000e+00,-4.108950042724609375e+01,3.627548980712890625e+01,3.331379699707031250e+01,9.779592132568359375e+01,9.806830596923828125e+01,-6.551174640655517578e+00,4.031498432159423828e-01,-6.667362213134765625e+01,-1.826883239746093750e+02,-2.342747688293457031e+00,7.562291717529296875e+01,3.135653114318847656e+01
7.823929786682128906e-01,1.000000000000000000e+00,-4.113152694702148438e+01,3.619291305541992188e+01,3.333640670776367188e+01,9.772112274169921875e+01,9.809011840820312500e+01,-6.574028968811035156e+00,4.031498432159423828e-01,-6.667353820800781250e+01,-1.826883239746093750e+02,-2.342819452285766602e+00,7.562277984619140625e+01,3.135653114318847656e+01
7.838159799575805664e-01,1.000000000000000000e+00,-4.121569442749023438e+01,3.602726364135742188e+01,3.338159942626953125e+01,9.757179260253906250e+01,9.813101196289062500e+01,-6.620212078094482422e+00,4.031498432159423828e-01,-6.667353820800781250e+01,-1.826883239746093750e+02,-2.342747688293457031e+00,7.562299346923828125e+01,3.135653114318847656e+01
7.888479828834533691e-01,1.000000000000000000e+00,-4.121569442749023438e+01,3.602726364135742188e+01,3.338159942626953125e+01,9.757179260253906250e+01,9.813101196289062500e+01,-6.620212078094482422e+00,4.031498432159423828e-01,-6.667353820800781250e+01,-1.826883239746093750e+02,-2.342747688293457031e+00,7.562299346923828125e+01,3.135653114318847656e+01
7.915760278701782227e-01,1.000000000000000000e+00,-4.129954910278320312e+01,3.586082077026367188e+01,3.342687988281250000e+01,9.742220306396484375e+01,9.817105102539062500e+01,-6.667480468750000000e+00,4.031498432159423828e-01,-6.667353820800781250e+01,-1.826883239746093750e+02,-2.342819452285766602e+00,7.562291717529296875e+01,3.135653114318847656e+01
7.958350181579589844e-01,1.000000000000000000e+00,-4.129954910278320312e+01,3.586082077026367188e+01,3.342687988281250000e+01,9.742220306396484375e+01,9.817105102539062500e+01,-6.667480468750000000e+00,4.031498432159423828e-01,-6.667353820800781250e+01,-1.826883239746093750e+02,-2.342819452285766602e+00,7.562291717529296875e+01,3.135653114318847656e+01
7.999460101127624512e-01,1.000000000000000000e+00,-4.138351440429687500e+01,3.569313049316406250e+01,3.347260665893554688e+01,9.727213287353515625e+01,9.821306610107421875e+01,-6.714070796966552734e+00,4.031498432159423828e-01,-6.667353820800781250e+01,-1.826883239746093750e+02,-2.342891216278076172e+00,7.562291717529296875e+01,3.135653114318847656e+01
8.038520216941833496e-01,1.000000000000000000e+00,-4.138351440429687500e+01,3.569313049316406250e+01,3.347260665893554688e+01,9.727213287353515625e+01,9.821306610107421875e+01,-6.714070796966552734e+00,4.031498432159423828e-01,-6.667353820800781250e+01,-1.826883239746093750e+02,-2.342891216278076172e+00,7.562291717529296875e+01,3.135653114318847656e+01
8.078370094299316406e-01,1.000000000000000000e+00,-4.142562866210937500e+01,3.560942459106445312e+01,3.349535751342773438e+01,9.719749450683593750e+01,9.823492431640625000e+01,-6.736450672149658203e+00,4.031498432159423828e-01,-6.667353820800781250e+01,-1.826883239746093750e+02,-2.342819452285766602e+00,7.562299346923828125e+01,3.135653114318847656e+01
8.119239807128906250e-01,1.000000000000000000e+00,-4.146751403808593750e+01,3.552610015869140625e+01,3.351796722412109375e+01,9.712206268310546875e+01,9.825588226318359375e+01,-6.758897781372070312e+00,4.031498432159423828e-01,-6.667353820800781250e+01,-1.826883239746093750e+02,-2.342747688293457031e+00,7.562277984619140625e+01,3.135653114318847656e+01
8.158299922943115234e-01,1.000000000000000000e+00,-4.150933837890625000e+01,3.544316482543945312e+01,3.354049301147460938e+01,9.704715728759765625e+01,9.827597808837890625e+01,-6.782361984252929688e+00,4.031498432159423828e-01,-6.667353820800781250e+01,-1.826883239746093750e+02,-2.342819452285766602e+00,7.562291717529296875e+01,3.135653114318847656e+01
8.198390007019042969e-01,1.000000000000000000e+00,-4.155133819580078125e+01,3.536013412475585938e+01,3.356330871582031250e+01,9.697204589843750000e+01,9.829607391357421875e+01,-6.805691719055175781e+00,4.031498432159423828e-01,-6.667353820800781250e+01,-1.826883239746093750e+02,-2.342747688293457031e+00,7.562291717529296875e+01,3.135653114318847656e+01
8.239210247993469238e-01,1.000000000000000000e+00,-4.159339141845703125e+01,3.527683258056640625e+01,3.358620071411132812e+01,9.689692687988281250e+01,9.831660461425781250e+01,-6.829020500183105469e+00,4.031498432159423828e-01,-6.667353820800781250e+01,-1.826883239746093750e+02,-2.342819452285766602e+00,7.562277984619140625e+01,3.135653114318847656e+01
8.278390169143676758e-01,1.000000000000000000e+00,-4.163561630249023438e+01,3.519308090209960938e+01,3.360903167724609375e+01,9.682160949707031250e+01,9.833766174316406250e+01,-6.852620601654052734e+00,4.031498432159423828e-01,-6.667353820800781250e+01,-1.826883239746093750e+02,-2.342891216278076172e+00,7.562291717529296875e+01,3.135653114318847656e+01
8.318340182304382324e-01,1.000000000000000000e+00,-4.167770385742187500e+01,3.510927963256835938e+01,3.363186645507812500e+01,9.674644470214843750e+01,9.835920715332031250e+01,-6.876492023468017578e+00,4.031498432159423828e-01,-6.667343902587890625e+01,-1.826883239746093750e+02,-2.342747688293457031e+00,7.562291717529296875e+01,3.135653114318847656e+01
8.359090089797973633e-01,1.000000000000000000e+00,-4.171987533569335938e+01,3.502507400512695312e+01,3.365461730957031250e+01,9.667127227783203125e+01,9.838095092773437500e+01,-6.899414062500000000e+00,4.031498432159423828e-01,-6.667353820800781250e+01,-1.826883239746093750e+02,-2.342819452285766602e+00,7.562299346923828125e+01,3.135653114318847656e+01
8.398560285568237305e-01,1.000000000000000000e+00,-4.176218795776367188e+01,3.494055175781250000e+01,3.367765426635742188e+01,9.659590148925781250e+01,9.840228271484375000e+01,-6.921997070312500000e+00,4.031498432159423828e-01,-6.667353820800781250e+01,-1.826883239746093750e+02,-2.342819452285766602e+00,7.562291717529296875e+01,3.135653114318847656e+01
8.438479900360107422e-01,1.000000000000000000e+00,-4.180441665649414062e+01,3.485657119750976562e+01,3.370052719116210938e+01,9.652031707763671875e+01,9.842275238037109375e+01,-6.944241046905517578e+00,4.031498432159423828e-01,-6.667353820800781250e+01,-1.826881713867187500e+02,-2.342819452285766602e+00,7.562291717529296875e+01,3.135653114318847656e+01
8.478360176086425781e-01,1.000000000000000000e+00,-4.184707260131835938e+01,3.477279281616210938e+01,3.372319412231445312e+01,9.644472503662109375e+01,9.844285583496093750e+01,-6.967841625213623047e+00,4.031498432159423828e-01,-6.667343902587890625e+01,-1.826883239746093750e+02,-2.342819452285766602e+00,7.562277984619140625e+01,3.135675048828125000e+01
8.518440127372741699e-01,1.000000000000000000e+00,-4.188961410522460938e+01,3.468910980224609375e+01,3.374588394165039062e+01,9.636903381347656250e+01,9.846348571777343750e+01,-6.991170406341552734e+00,4.031498432159423828e-01,-6.667353820800781250e+01,-1.826881713867187500e+02,-2.342819452285766602e+00,7.562291717529296875e+01,3.135653114318847656e+01
8.558459877967834473e-01,1.000000000000000000e+00,-4.193198776245117188e+01,3.460549163818359375e+01,3.376871871948242188e+01,9.629392242431640625e+01,9.848454284667968750e+01,-7.014567375183105469e+00,4.031498432159423828e-01,-6.667353820800781250e+01,-1.826883239746093750e+02,-2.342747688293457031e+00,7.562291717529296875e+01,3.135653114318847656e+01
8.599140048027038574e-01,1.000000000000000000e+00,-4.197476196289062500e+01,3.452175903320312500e+01,3.379159164428710938e+01,9.621823120117187500e+01,9.850652313232421875e+01,-7.038438796997070312e+00,4.030399620532989502e-01,-6.667353820800781250e+01,-1.826883239746093750e+02,-2.342747688293457031e+00,7.562291717529296875e+01,3.135653114318847656e+01
8.638569712638854980e-01,1.000000000000000000e+00,-4.201741790771484375e+01,3.443767166137695312e+01,3.381458663940429688e+01,9.614232635498046875e+01,9.852842712402343750e+01,-7.062039375305175781e+00,4.031498432159423828e-01,-6.667353820800781250e+01,-1.826883239746093750e+02,-2.342819452285766602e+00,7.562299346923828125e+01,3.135653114318847656e+01
8.679299950599670410e-01,1.000000000000000000e+00,-4.206019210815429688e+01,3.435314559936523438e+01,3.383739852905273438e+01,9.606663513183593750e+01,9.854969787597656250e+01,-7.084961414337158203e+00,4.031498432159423828e-01,-6.667362213134765625e+01,-1.826883239746093750e+02,-2.342819452285766602e+00,7.562291717529296875e+01,3.135653114318847656e+01
8.711829781532287598e-01,1.000000000000000000e+00,-4.210305404663085938e+01,3.426830673217773438e+01,3.386013031005859375e+01,9.599104309082031250e+01,9.856990814208984375e+01,-7.107476234436035156e+00,4.031498432159423828e-01,-6.667353820800781250e+01,-1.826883239746093750e+02,-2.342819452285766602e+00,7.562291717529296875e+01,3.135642242431640625e+01
8.750709891319274902e-01,1.000000000000000000e+00,-4.214599609375000000e+01,3.418355560302734375e+01,3.388308715820312500e+01,9.591514587402343750e+01,9.859059906005859375e+01,-7.130465984344482422e+00,4.031498432159423828e-01,-6.667353820800781250e+01,-1.826883239746093750e+02,-2.342891216278076172e+00,7.562291717529296875e+01,3.135642242431640625e+01
8.790299892425537109e-01,1.000000000000000000e+00,-4.218894195556640625e+01,3.409894561767578125e+01,3.390610122680664062e+01,9.583902740478515625e+01,9.861138916015625000e+01,-7.153523921966552734e+00,4.031498432159423828e-01,-6.667353820800781250e+01,-1.826883239746093750e+02,-2.342819452285766602e+00,7.562291717529296875e+01,3.135653114318847656e+01
8.840109705924987793e-01,1.000000000000000000e+00,-4.223188781738281250e+01,3.401480865478515625e+01,3.392901611328125000e+01,9.576354980468750000e+01,9.863288116455078125e+01,-7.177191734313964844e+00,4.031498432159423828e-01,-6.667353820800781250e+01,-1.826883239746093750e+02,-2.342747688293457031e+00,7.562291717529296875e+01,3.135653114318847656e+01
8.878989815711975098e-01,1.000000000000000000e+00,-4.227492141723632812e+01,3.393105316162109375e+01,3.395211410522460938e+01,9.568748474121093750e+01,9.865462493896484375e+01,-7.200995922088623047e+00,4.031498432159423828e-01,-6.667343902587890625e+01,-1.826883239746093750e+02,-2.342819452285766602e+00,7.562291717529296875e+01,3.135653114318847656e+01
8.918390274047851562e-01,1.000000000000000000e+00,-4.231806564331054688e+01,3.384718704223632812e+01,3.397508621215820312e+01,9.561141967773437500e+01,9.867675781250000000e+01,-7.224799156188964844e+00,4.031498432159423828e-01,-6.667353820800781250e+01,-1.826883239746093750e+02,-2.342819452285766602e+00,7.562299346923828125e+01,3.135653114318847656e+01
8.958370089530944824e-01,1.000000000000000000e+00,-4.236124038696289062e+01,3.376300048828125000e+01,3.399808502197265625e+01,9.553510284423828125e+01,9.869797515869140625e+01,-7.248128414154052734e+00,4.031498432159423828e-01,-6.667353820800781250e+01,-1.826883239746093750e+02,-2.342747688293457031e+00,7.562299346923828125e+01,3.135642242431640625e+01
8.999040126800537109e-01,1.000000000000000000e+00,-4.240435791015625000e+01,3.367845916748046875e+01,3.402113723754882812e+01,9.545941162109375000e+01,9.871812438964843750e+01,-7.271254062652587891e+00,4.031498432159423828e-01,-6.667353820800781250e+01,-1.826883239746093750e+02,-2.342819452285766602e+00,7.562291717529296875e+01,3.135653114318847656e+01
9.038469791412353516e-01,1.000000000000000000e+00,-4.244741821289062500e+01,3.359366607666015625e+01,3.404413604736328125e+01,9.538318634033203125e+01,9.873828125000000000e+01,-7.293565273284912109e+00,4.031498432159423828e-01,-6.667353820800781250e+01,-1.826883239746093750e+02,-2.342747688293457031e+00,7.562291717529296875e+01,3.135653114318847656e+01
9.085440039634704590e-01,1.000000000000000000e+00,-4.249056625366210938e+01,3.350866699218750000e+01,3.406708908081054688e+01,9.530691528320312500e+01,9.875939178466796875e+01,-7.316826343536376953e+00,4.031498432159423828e-01,-6.667353820800781250e+01,-1.826883239746093750e+02,-2.342747688293457031e+00,7.562291717529296875e+01,3.135653114318847656e+01
9.121739864349365234e-01,1.000000000000000000e+00,-4.253368377685546875e+01,3.342362213134765625e+01,3.409022521972656250e+01,9.523074340820312500e+01,9.878088378906250000e+01,-7.339884281158447266e+00,4.031498432159423828e-01,-6.667353820800781250e+01,-1.826883239746093750e+02,-2.342747688293457031e+00,7.562291717529296875e+01,3.135653114318847656e+01
9.153850078582763672e-01,1.000000000000000000e+00,-4.257677459716796875e+01,3.333896255493164062e+01,3.411350631713867188e+01,9.515452575683593750e+01,9.880273437500000000e+01,-7.363484382629394531e+00,4.031498432159423828e-01,-6.667353820800781250e+01,-1.826883239746093750e+02,-2.342747688293457031e+00,7.562291717529296875e+01,3.135653114318847656e+01
9.199820160865783691e-01,1.000000000000000000e+00,-4.261986160278320312e+01,3.325453186035156250e+01,3.413674545288085938e+01,9.507846832275390625e+01,9.882476043701171875e+01,-7.387220859527587891e+00,4.031498432159423828e-01,-6.667353820800781250e+01,-1.826883239746093750e+02,-2.342819452285766602e+00,7.562291717529296875e+01,3.135653114318847656e+01
9.241529703140258789e-01,1.000000000000000000e+00,-4.266289138793945312e+01,3.316994094848632812e+01,3.415978240966796875e+01,9.500203704833984375e+01,9.884592437744140625e+01,-7.411228179931640625e+00,4.031498432159423828e-01,-6.667362213134765625e+01,-1.826881713867187500e+02,-2.342819452285766602e+00,7.562291717529296875e+01,3.135653114318847656e+01
9.274659752845764160e-01,1.000000000000000000e+00,-4.270595169067382812e+01,3.308548355102539062e+01,3.418271636962890625e+01,9.492587280273437500e+01,9.886618041992187500e+01,-7.435099601745605469e+00,4.031498432159423828e-01,-6.667353820800781250e+01,-1.826883239746093750e+02,-2.342747688293457031e+00,7.562299346923828125e+01,3.135653114318847656e+01
9.325919747352600098e-01,1.000000000000000000e+00,-4.274892425537109375e+01,3.300082778930664062e+01,3.420568847656250000e+01,9.484933471679687500e+01,9.888677215576171875e+01,-7.457953453063964844e+00,4.031498432159423828e-01,-6.667362213134765625e+01,-1.826883239746093750e+02,-2.342819452285766602e+00,7.562291717529296875e+01,3.135653114318847656e+01
9.364339709281921387e-01,1.000000000000000000e+00,-4.279218673706054688e+01,3.291551208496093750e+01,3.422903060913085938e+01,9.477311706542968750e+01,9.890809631347656250e+01,-7.481147289276123047e+00,4.031498432159423828e-01,-6.667362213134765625e+01,-1.826883239746093750e+02,-2.342747688293457031e+00,7.562299346923828125e+01,3.135653114318847656e+01
9.398880004882812500e-01,1.000000000000000000e+00,-4.283541870117187500e+01,3.283008193969726562e+01,3.425225067138671875e+01,9.469626617431640625e+01,9.892947387695312500e+01,-7.504137039184570312e+00,4.031498432159423828e-01,-6.667343902587890625e+01,-1.826883239746093750e+02,-2.342747688293457031e+00,7.562291717529296875e+01,3.135653114318847656e+01
9.439970254898071289e-01,1.000000000000000000e+00,-4.287836837768554688e+01,3.274424743652343750e+01,3.427540969848632812e+01,9.461983489990234375e+01,9.895159912109375000e+01,-7.527736663818359375e+00,4.031498432159423828e-01,-6.667353820800781250e+01,-1.826883239746093750e+02,-2.342891216278076172e+00,7.562291717529296875e+01,3.135653114318847656e+01
9.476040005683898926e-01,1.000000000000000000e+00,-4.292134094238281250e+01,3.265836715698242188e+01,3.429860687255859375e+01,9.454282379150390625e+01,9.897377777099609375e+01,-7.551269531250000000e+00,4.031498432159423828e-01,-6.667353820800781250e+01,-1.826883239746093750e+02,-2.342819452285766602e+00,7.562299346923828125e+01,3.135653114318847656e+01
9.519400000572204590e-01,1.000000000000000000e+00,-4.296448516845703125e+01,3.257300949096679688e+01,3.432184600830078125e+01,9.446665954589843750e+01,9.899494934082031250e+01,-7.575276851654052734e+00,4.031498432159423828e-01,-6.667353820800781250e+01,-1.826884307861328125e+02,-2.342819452285766602e+00,7.562291717529296875e+01,3.135653114318847656e+01
9.558899998664855957e-01,1.000000000000000000e+00,-4.300769042968750000e+01,3.248789596557617188e+01,3.434516525268554688e+01,9.438991546630859375e+01,9.901504516601562500e+01,-7.599487304687500000e+00,4.031498432159423828e-01,-6.667353820800781250e+01,-1.826883239746093750e+02,-2.342747688293457031e+00,7.562291717529296875e+01,3.135653114318847656e+01
9.604920148849487305e-01,1.000000000000000000e+00,-4.305069351196289062e+01,3.240306091308593750e+01,3.436836624145507812e+01,9.431353759765625000e+01,9.903572845458984375e+01,-7.623155593872070312e+00,4.031498432159423828e-01,-6.667353820800781250e+01,-1.826883239746093750e+02,-2.342819452285766602e+00,7.562299346923828125e+01,3.135653114318847656e+01
9.639070034027099609e-01,1.000000000000000000e+00,-4.309386825561523438e+01,3.231799316406250000e+01,3.439131927490234375e+01,9.423657989501953125e+01,9.905673980712890625e+01,-7.646213531494140625e+00,4.031498432159423828e-01,-6.667353820800781250e+01,-1.826883239746093750e+02,-2.342747688293457031e+00,7.562291717529296875e+01,3.135642242431640625e+01
9.680410027503967285e-01,1.000000000000000000e+00,-4.313698577880859375e+01,3.223256301879882812e+01,3.441441726684570312e+01,9.415967559814453125e+01,9.907838439941406250e+01,-7.669474601745605469e+00,4.031498432159423828e-01,-6.667353820800781250e+01,-1.826883239746093750e+02,-2.342747688293457031e+00,7.562291717529296875e+01,3.135653114318847656e+01
9.718750119209289551e-01,1.000000000000000000e+00,-4.318021774291992188e+01,3.214698028564453125e+01,3.443774032592773438e+01,9.408282470703125000e+01,9.910066986083984375e+01,-7.692871093750000000e+00,4.031498432159423828e-01,-6.667362213134765625e+01,-1.826883239746093750e+02,-2.342747688293457031e+00,7.562299346923828125e+01,3.135642242431640625e+01
9.759430289268493652e-01,1.000000000000000000e+00,-4.322333526611328125e+01,3.206093978881835938e+01,3.446126174926757812e+01,9.400591278076171875e+01,9.912242126464843750e+01,-7.716471195220947266e+00,4.031498432159423828e-01,-6.667353820800781250e+01,-1.826883239746093750e+02,-2.342747688293457031e+00,7.562291717529296875e+01,3.135642242431640625e+01
9.812189936637878418e-01,1.000000000000000000e+00,-4.326673889160156250e+01,3.197449302673339844e+01,3.448466110229492188e+01,9.392916870117187500e+01,9.914364624023437500e+01,-7.740614414215087891e+00,4.031498432159423828e-01,-6.667353820800781250e+01,-1.826883239746093750e+02,-2.342819452285766602e+00,7.562277984619140625e+01,3.135653114318847656e+01
9.847339987754821777e-01,1.000000000000000000e+00,-4.331002807617187500e+01,3.188852119445800781e+01,3.450786209106445312e+01,9.385184478759765625e+01,9.916406250000000000e+01,-7.764824867248535156e+00,4.031498432159423828e-01,-6.667362213134765625e+01,-1.826883239746093750e+02,-2.342747688293457031e+00,7.562291717529296875e+01,3.135653114318847656e+01
9.881089925765991211e-01,1.000000000000000000e+00,-4.335337448120117188e+01,3.180291175842285156e+01,3.453099822998046875e+01,9.377504730224609375e+01,9.918507385253906250e+01,-7.789103507995605469e+00,4.030399620532989502e-01,-6.667353820800781250e+01,-1.826883239746093750e+02,-2.342819452285766602e+00,7.562291717529296875e+01,3.135653114318847656e+01
9.920819997787475586e-01,1.000000000000000000e+00,-4.339683914184570312e+01,3.171771240234375000e+01,3.455427932739257812e+01,9.369757080078125000e+01,9.920655822753906250e+01,-7.813246250152587891e+00,4.031498432159423828e-01,-6.667343902587890625e+01,-1.826883239746093750e+02,-2.342819452285766602e+00,7.562299346923828125e+01,3.135653114318847656e+01
9.958249926567077637e-01,1.000000000000000000e+00,-4.344041824340820312e+01,3.163232803344726562e+01,3.457772064208984375e+01,9.362055969238281250e+01,9.922836303710937500e+01,-7.836507320404052734e+00,4.031498432159423828e-01,-6.667353820800781250e+01,-1.826883239746093750e+02,-2.342747688293457031e+00,7.562291717529296875e+01,3.135653114318847656e+01
1.000012993812561035e+00,1.000000000000000000e+00,-4.348402023315429688e+01,3.154699134826660156e+01,3.460112380981445312e+01,9.354307556152343750e+01,9.925096893310546875e+01,-7.859565258026123047e+00,4.031498432159423828e-01,-6.667353820800781250e+01,-1.826883239746093750e+02,-2.342819452285766602e+00,7.562291717529296875e+01,3.135653114318847656e+01
1.004173040390014648e+00,1.000000000000000000e+00,-4.352788925170898438e+01,3.146120071411132812e+01,3.462454605102539062e+01,9.346622467041015625e+01,9.927304077148437500e+01,-7.882962226867675781e+00,4.031498432159423828e-01,-6.667353820800781250e+01,-1.826883239746093750e+02,-2.342819452285766602e+00,7.562291717529296875e+01,3.135653114318847656e+01
1.006783008575439453e+00,1.000000000000000000e+00,-4.357134628295898438e+01,3.137497901916503906e+01,3.464784622192382812e+01,9.338863372802734375e+01,9.929399108886718750e+01,-7.906901359558105469e+00,4.031498432159423828e-01,-6.667343902587890625e+01,-1.826883239746093750e+02,-2.342819452285766602e+00,7.562291717529296875e+01,3.135653114318847656e+01
1.012289047241210938e+00,1.000000000000000000e+00,-4.361498260498046875e+01,3.128835296630859375e+01,3.467140960693359375e+01,9.331172943115234375e+01,9.931452178955078125e+01,-7.930975914001464844e+00,4.031498432159423828e-01,-6.667353820800781250e+01,-1.826883239746093750e+02,-2.342819452285766602e+00,7.562291717529296875e+01,3.135653114318847656e+01
1.015866994857788086e+00,1.000000000000000000e+00,-4.365872955322265625e+01,3.120181655883789062e+01,3.469491195678710938e+01,9.323403930664062500e+01,9.933515930175781250e+01,-7.955525875091552734e+00,4.031498432159423828e-01,-6.667353820800781250e+01,-1.826883239746093750e+02,-2.342747688293457031e+00,7.562291717529296875e+01,3.135653114318847656e+01
1.018828988075256348e+00,1.000000000000000000e+00,-4.370268249511718750e+01,3.111532592773437500e+01,3.471829605102539062e+01,9.315660095214843750e+01,9.935685729980468750e+01,-7.980008125305175781e+00,4.031498432159423828e-01,-6.667353820800781250e+01,-1.826883239746093750e+02,-2.342891216278076172e+00,7.562299346923828125e+01,3.135653114318847656e+01
1.022865056991577148e+00,1.000000000000000000e+00,-4.374654769897460938e+01,3.102939987182617188e+01,3.474168014526367188e+01,9.307885742187500000e+01,9.937898254394531250e+01,-8.003472328186035156e+00,4.031498432159423828e-01,-6.667353820800781250e+01,-1.826883239746093750e+02,-2.342747688293457031e+00,7.562299346923828125e+01,3.135653114318847656e+01
1.026857018470764160e+00,1.000000000000000000e+00,-4.379063796997070312e+01,3.094381332397460938e+01,3.476506042480468750e+01,9.300158691406250000e+01,9.940180206298828125e+01,-8.026802062988281250e+00,4.031498432159423828e-01,-6.667353820800781250e+01,-1.826883239746093750e+02,-2.342747688293457031e+00,7.562277984619140625e+01,3.135653114318847656e+01
1.033128023147583008e+00,1.000000000000000000e+00,-4.383444595336914062e+01,3.085802268981933594e+01,3.478874588012695312e+01,9.292362213134765625e+01,9.942333984375000000e+01,-8.050198554992675781e+00,4.031498432159423828e-01,-6.667362213134765625e+01,-1.826883239746093750e+02,-2.342819452285766602e+00,7.562299346923828125e+01,3.135653114318847656e+01
1.034785985946655273e+00,1.000000000000000000e+00,-4.387848281860351562e+01,3.077180290222167969e+01,3.481226730346679688e+01,9.284614562988281250e+01,9.944412994384765625e+01,-8.073730468750000000e+00,4.031498432159423828e-01,-6.667353820800781250e+01,-1.826883239746093750e+02,-2.342747688293457031e+00,7.562299346923828125e+01,3.135675048828125000e+01
1.038877964019775391e+00,1.000000000000000000e+00,-4.392234802246093750e+01,3.068537902832031250e+01,3.483579254150390625e+01,9.276839447021484375e+01,9.946492767333984375e+01,-8.097737312316894531e+00,4.031498432159423828e-01,-6.667353820800781250e+01,-1.826883239746093750e+02,-2.342819452285766602e+00,7.562291717529296875e+01,3.135653114318847656e+01
1.042788028717041016e+00,1.000000000000000000e+00,-4.396635437011718750e+01,3.059864044189453125e+01,3.485915374755859375e+01,9.269054412841796875e+01,9.948646545410156250e+01,-8.121949195861816406e+00,4.031498432159423828e-01,-6.667353820800781250e+01,-1.826883239746093750e+02,-2.342819452285766602e+00,7.562291717529296875e+01,3.135653114318847656e+01
1.046800971031188965e+00,1.000000000000000000e+00,-4.401044845581054688e+01,3.051137733459472656e+01,3.488263702392578125e+01,9.261258697509765625e+01,9.950801086425781250e+01,-8.146362304687500000e+00,4.031498432159423828e-01,-6.667353820800781250e+01,-1.826883239746093750e+02,-2.342747688293457031e+00,7.562291717529296875e+01,3.135653114318847656e+01
1.052556037902832031e+00,1.000000000000000000e+00,-4.405434036254882812e+01,3.042436790466308594e+01,3.490640640258789062e+01,9.253473663330078125e+01,9.953066253662109375e+01,-8.170911788940429688e+00,4.031498432159423828e-01,-6.667353820800781250e+01,-1.826883239746093750e+02,-2.342747688293457031e+00,7.562291717529296875e+01,3.135653114318847656e+01
1.057291984558105469e+00,1.000000000000000000e+00,-4.409814834594726562e+01,3.033753585815429688e+01,3.493011474609375000e+01,9.245693206787109375e+01,9.955321502685546875e+01,-8.194172859191894531e+00,4.031498432159423828e-01,-6.667362213134765625e+01,-1.826883239746093750e+02,-2.342819452285766602e+00,7.562291717529296875e+01,3.135653114318847656e+01
1.058835983276367188e+00,1.000000000000000000e+00,-4.414198303222656250e+01,3.025124549865722656e+01,3.495380020141601562e+01,9.237902832031250000e+01,9.957465362548828125e+01,-8.217638015747070312e+00,4.031498432159423828e-01,-6.667343902587890625e+01,-1.826883239746093750e+02,-2.342819452285766602e+00,7.562291717529296875e+01,3.135642242431640625e+01
1.064509034156799316e+00,1.000000000000000000e+00,-4.418593215942382812e+01,3.016496086120605469e+01,3.497724151611328125e+01,9.230123138427734375e+01,9.959549713134765625e+01,-8.240899085998535156e+00,4.031498432159423828e-01,-6.667353820800781250e+01,-1.826883239746093750e+02,-2.342819452285766602e+00,7.562291717529296875e+01,3.135653114318847656e+01
1.068554043769836426e+00,1.000000000000000000e+00,-4.422988510131835938e+01,3.007862663269042969e+01,3.500076675415039062e+01,9.222301483154296875e+01,9.961624145507812500e+01,-8.264770507812500000e+00,4.031498432159423828e-01,-6.667343902587890625e+01,-1.826883239746093750e+02,-2.342819452285766602e+00,7.562299346923828125e+01,3.135653114318847656e+01
1.072594046592712402e+00,1.000000000000000000e+00,-4.427380371093750000e+01,2.999199867248535156e+01,3.502445220947265625e+01,9.214452362060546875e+01,9.963793945312500000e+01,-8.288981437683105469e+00,4.031498432159423828e-01,-6.667343902587890625e+01,-1.826883239746093750e+02,-2.342819452285766602e+00,7.562291717529296875e+01,3.135653114318847656e+01
1.077474951744079590e+00,1.000000000000000000e+00,-4.431752395629882812e+01,2.990478134155273438e+01,3.504801559448242188e+01,9.206651306152343750e+01,9.965979766845703125e+01,-8.313463211059570312e+00,4.031498432159423828e-01,-6.667353820800781250e+01,-1.826883239746093750e+02,-2.342819452285766602e+00,7.562291717529296875e+01,3.135653114318847656e+01
1.081477046012878418e+00,1.000000000000000000e+00,-4.436150360107421875e+01,2.981713676452636719e+01,3.507160186767578125e+01,9.198844909667968750e+01,9.968224334716796875e+01,-8.338283538818359375e+00,4.031498432159423828e-01,-6.667353820800781250e+01,-1.826883239746093750e+02,-2.342891216278076172e+00,7.562291717529296875e+01,3.135653114318847656e+01
1.085083961486816406e+00,1.000000000000000000e+00,-4.440531158447265625e+01,2.972969627380371094e+01,3.509524536132812500e+01,9.191054534912109375e+01,9.970442199707031250e+01,-8.362563133239746094e+00,4.031498432159423828e-01,-6.667353820800781250e+01,-1.826883239746093750e+02,-2.342819452285766602e+00,7.562291717529296875e+01,3.135653114318847656e+01
1.086801052093505859e+00,1.000000000000000000e+00,-4.444900131225585938e+01,2.964227676391601562e+01,3.511901473999023438e+01,9.183180236816406250e+01,9.972586059570312500e+01,-8.386027336120605469e+00,4.031498432159423828e-01,-6.667353820800781250e+01,-1.826883239746093750e+02,-2.342819452285766602e+00,7.562291717529296875e+01,3.135653114318847656e+01
1.090860962867736816e+00,1.000000000000000000e+00,-4.449309539794921875e+01,2.955533218383789062e+01,3.514286422729492188e+01,9.175362396240234375e+01,9.974675750732421875e+01,-8.409356117248535156e+00,4.031498432159423828e-01,-6.667353820800781250e+01,-1.826881713867187500e+02,-2.342819452285766602e+00,7.562291717529296875e+01,3.135675048828125000e+01
1.094779968261718750e+00,1.000000000000000000e+00,-4.453678894042968750e+01,2.946884155273437500e+01,3.516661071777343750e+01,9.167514801025390625e+01,9.976797485351562500e+01,-8.432956695556640625e+00,4.031498432159423828e-01,-6.667353820800781250e+01,-1.826881713867187500e+02,-2.342819452285766602e+00,7.562299346923828125e+01,3.135653114318847656e+01
1.102246046066284180e+00,1.000000000000000000e+00,-4.458061981201171875e+01,2.938234710693359375e+01,3.519007492065429688e+01,9.159719085693359375e+01,9.978951263427734375e+01,-8.456624984741210938e+00,4.031498432159423828e-01,-6.667353820800781250e+01,-1.826883239746093750e+02,-2.342819452285766602e+00,7.562277984619140625e+01,3.135653114318847656e+01
1.105591058731079102e+00,1.000000000000000000e+00,-4.462437057495117188e+01,2.929551887512207031e+01,3.521368026733398438e+01,9.151823425292968750e+01,9.981180572509765625e+01,-8.480902671813964844e+00,4.031498432159423828e-01,-6.667353820800781250e+01,-1.826883239746093750e+02,-2.342819452285766602e+00,7.562299346923828125e+01,3.135653114318847656e+01
1.108916044235229492e+00,1.000000000000000000e+00,-4.466835021972656250e+01,2.920834732055664062e+01,3.523744964599609375e+01,9.144006347656250000e+01,9.983467864990234375e+01,-8.505588531494140625e+00,4.031498432159423828e-01,-6.667353820800781250e+01,-1.826883239746093750e+02,-2.342747688293457031e+00,7.562291717529296875e+01,3.135653114318847656e+01
1.113075971603393555e+00,1.000000000000000000e+00,-4.471238708496093750e+01,2.912081527709960938e+01,3.526129531860351562e+01,9.136141967773437500e+01,9.985685729980468750e+01,-8.530341148376464844e+00,4.031498432159423828e-01,-6.667353820800781250e+01,-1.826883239746093750e+02,-2.342747688293457031e+00,7.562291717529296875e+01,3.135653114318847656e+01
1.114802002906799316e+00,1.000000000000000000e+00,-4.475619506835937500e+01,2.903285408020019531e+01,3.528520965576171875e+01,9.128314208984375000e+01,9.987807464599609375e+01,-8.554619789123535156e+00,4.031498432159423828e-01,-6.667353820800781250e+01,-1.826883239746093750e+02,-2.342747688293457031e+00,7.562291717529296875e+01,3.135653114318847656e+01
