rpiRobotics/ARM-21-02-F-19-Robot-Motion-Program/data_performance_abb/curve_1/curve_pose_opt1/greedy0.02/grad_result/real/run_0.csv
timestamp,cmd_num,J1,J2,J3,J4,J5,J6
2.280000044265761971e-04,-1.000000000000000000e+00,-3.467665481567382812e+01,4.892507171630859375e+01,2.986676216125488281e+01,1.091836776733398438e+02,9.491103363037109375e+01,-3.052842855453491211e+00,4.031498432159423828e-01,-6.667343902587890625e+01,-1.826883239746093750e+02,-2.342819452285766602e+00,7.562277984619140625e+01,3.135653114318847656e+01
4.670999944210052490e-03,1.000000000000000000e+00,-3.467665481567382812e+01,4.892507171630859375e+01,2.986676216125488281e+01,1.091836776733398438e+02,9.491098022460937500e+01,-3.052978754043579102e+00,4.031498432159423828e-01,-6.667343902587890625e+01,-1.826881713867187500e+02,-2.342747688293457031e+00,7.562291717529296875e+01,3.135653114318847656e+01
8.293000049889087677e-03,1.000000000000000000e+00,-3.467665481567382812e+01,4.892507171630859375e+01,2.986676216125488281e+01,1.091836776733398438e+02,9.491098022460937500e+01,-3.052978754043579102e+00,4.031498432159423828e-01,-6.667343902587890625e+01,-1.826881713867187500e+02,-2.342747688293457031e+00,7.562291717529296875e+01,3.135653114318847656e+01
1.242099981755018234e-02,1.000000000000000000e+00,-3.467665481567382812e+01,4.892507171630859375e+01,2.986676216125488281e+01,1.091836776733398438e+02,9.491103363037109375e+01,-3.052978754043579102e+00,4.031498432159423828e-01,-6.667343902587890625e+01,-1.826883239746093750e+02,-2.342819452285766602e+00,7.562277984619140625e+01,3.135653114318847656e+01
3.473699837923049927e-02,1.000000000000000000e+00,-3.467665481567382812e+01,4.892507171630859375e+01,2.986680221557617188e+01,1.091835174560546875e+02,9.491103363037109375e+01,-3.052842855453491211e+00,4.031498432159423828e-01,-6.667343902587890625e+01,-1.826883239746093750e+02,-2.342819452285766602e+00,7.562277984619140625e+01,3.135653114318847656e+01
3.736900165677070618e-02,1.000000000000000000e+00,-3.467665481567382812e+01,4.892502975463867188e+01,2.986680221557617188e+01,1.091835174560546875e+02,9.491103363037109375e+01,-3.052842855453491211e+00,4.031498432159423828e-01,-6.667343902587890625e+01,-1.826883239746093750e+02,-2.342747688293457031e+00,7.562277984619140625e+01,3.135653114318847656e+01
3.871000185608863831e-02,1.000000000000000000e+00,-3.467665481567382812e+01,4.892502975463867188e+01,2.986680221557617188e+01,1.091835174560546875e+02,9.491103363037109375e+01,-3.052842855453491211e+00,4.031498432159423828e-01,-6.667343902587890625e+01,-1.826883239746093750e+02,-2.342747688293457031e+00,7.562277984619140625e+01,3.135653114318847656e+01
4.450099915266036987e-02,1.000000000000000000e+00,-3.467668533325195312e+01,4.892507171630859375e+01,2.986680221557617188e+01,1.091836776733398438e+02,9.491103363037109375e+01,-3.052842855453491211e+00,4.031498432159423828e-01,-6.667343902587890625e+01,-1.826883239746093750e+02,-2.342891216278076172e+00,7.562277984619140625e+01,3.135653114318847656e+01
4.586499929428100586e-02,1.000000000000000000e+00,-3.467668533325195312e+01,4.892507171630859375e+01,2.986680221557617188e+01,1.091835174560546875e+02,9.491098022460937500e+01,-3.052842855453491211e+00,4.031498432159423828e-01,-6.667353820800781250e+01,-1.826883239746093750e+02,-2.342819452285766602e+00,7.562277984619140625e+01,3.135653114318847656e+01
4.900800064206123352e-02,1.000000000000000000e+00,-3.467668533325195312e+01,4.892507171630859375e+01,2.986680221557617188e+01,1.091835174560546875e+02,9.491098022460937500e+01,-3.052842855453491211e+00,4.031498432159423828e-01,-6.667353820800781250e+01,-1.826883239746093750e+02,-2.342819452285766602e+00,7.562277984619140625e+01,3.135653114318847656e+01
5.042799934744834900e-02,1.000000000000000000e+00,-3.467668533325195312e+01,4.892507171630859375e+01,2.986680221557617188e+01,1.091836776733398438e+02,9.491098022460937500e+01,-3.052639484405517578e+00,4.031498432159423828e-01,-6.667343902587890625e+01,-1.826883239746093750e+02,-2.342747688293457031e+00,7.562277984619140625e+01,3.135653114318847656e+01
5.690599977970123291e-02,1.000000000000000000e+00,-3.467697143554687500e+01,4.892491531372070312e+01,2.986680221557617188e+01,1.091836776733398438e+02,9.491103363037109375e+01,-3.052842855453491211e+00,4.031498432159423828e-01,-6.667343902587890625e+01,-1.826883239746093750e+02,-2.342891216278076172e+00,7.562270355224609375e+01,3.135653114318847656e+01
5.895299836993217468e-02,1.000000000000000000e+00,-3.467697143554687500e+01,4.892491531372070312e+01,2.986680221557617188e+01,1.091836776733398438e+02,9.491103363037109375e+01,-3.052842855453491211e+00,4.031498432159423828e-01,-6.667343902587890625e+01,-1.826883239746093750e+02,-2.342891216278076172e+00,7.562270355224609375e+01,3.135653114318847656e+01
6.166600063443183899e-02,1.000000000000000000e+00,-3.467763137817382812e+01,4.892450714111328125e+01,2.986680221557617188e+01,1.091836776733398438e+02,9.491103363037109375e+01,-3.052978754043579102e+00,4.031498432159423828e-01,-6.667343902587890625e+01,-1.826883239746093750e+02,-2.342819452285766602e+00,7.562277984619140625e+01,3.135653114318847656e+01
6.298600137233734131e-02,1.000000000000000000e+00,-3.467763137817382812e+01,4.892450714111328125e+01,2.986680221557617188e+01,1.091836776733398438e+02,9.491103363037109375e+01,-3.052978754043579102e+00,4.031498432159423828e-01,-6.667343902587890625e+01,-1.826883239746093750e+02,-2.342819452285766602e+00,7.562277984619140625e+01,3.135653114318847656e+01
6.720799952745437622e-02,1.000000000000000000e+00,-3.467886352539062500e+01,4.892364883422851562e+01,2.986680221557617188e+01,1.091836776733398438e+02,9.491098022460937500e+01,-3.052978754043579102e+00,4.031498432159423828e-01,-6.667343902587890625e+01,-1.826883239746093750e+02,-2.342819452285766602e+00,7.562277984619140625e+01,3.135653114318847656e+01
6.964000314474105835e-02,1.000000000000000000e+00,-3.468082046508789062e+01,4.892183685302734375e+01,2.986680221557617188e+01,1.091834182739257812e+02,9.491114044189453125e+01,-3.052842855453491211e+00,4.031498432159423828e-01,-6.667343902587890625e+01,-1.826883239746093750e+02,-2.342747688293457031e+00,7.562277984619140625e+01,3.135642242431640625e+01
7.091200351715087891e-02,1.000000000000000000e+00,-3.468082046508789062e+01,4.892183685302734375e+01,2.986680221557617188e+01,1.091834182739257812e+02,9.491114044189453125e+01,-3.052842855453491211e+00,4.031498432159423828e-01,-6.667343902587890625e+01,-1.826883239746093750e+02,-2.342747688293457031e+00,7.562277984619140625e+01,3.135642242431640625e+01
7.425899803638458252e-02,1.000000000000000000e+00,-3.468337249755859375e+01,4.891878128051757812e+01,2.986680221557617188e+01,1.091832580566406250e+02,9.491114044189453125e+01,-3.052842855453491211e+00,4.031498432159423828e-01,-6.667334747314453125e+01,-1.826883239746093750e+02,-2.342747688293457031e+00,7.562277984619140625e+01,3.135653114318847656e+01
7.667800039052963257e-02,1.000000000000000000e+00,-3.468337249755859375e+01,4.891878128051757812e+01,2.986680221557617188e+01,1.091832580566406250e+02,9.491114044189453125e+01,-3.052842855453491211e+00,4.031498432159423828e-01,-6.667343902587890625e+01,-1.826883239746093750e+02,-2.342891216278076172e+00,7.562270355224609375e+01,3.135675048828125000e+01
8.285500109195709229e-02,1.000000000000000000e+00,-3.469006347656250000e+01,4.890742111206054688e+01,2.986690521240234375e+01,1.091823654174804688e+02,9.491124725341796875e+01,-3.052978754043579102e+00,4.031498432159423828e-01,-6.667343902587890625e+01,-1.826883239746093750e+02,-2.342819452285766602e+00,7.562277984619140625e+01,3.135653114318847656e+01
8.569200336933135986e-02,1.000000000000000000e+00,-3.469431304931640625e+01,4.889895629882812500e+01,2.986716842651367188e+01,1.091801528930664062e+02,9.491162109375000000e+01,-3.053114175796508789e+00,4.031498432159423828e-01,-6.667343902587890625e+01,-1.826883239746093750e+02,-2.342819452285766602e+00,7.562277984619140625e+01,3.135653114318847656e+01
8.702699840068817139e-02,1.000000000000000000e+00,-3.469431304931640625e+01,4.889895629882812500e+01,2.986716842651367188e+01,1.091801528930664062e+02,9.491162109375000000e+01,-3.053114175796508789e+00,4.031498432159423828e-01,-6.667343902587890625e+01,-1.826883239746093750e+02,-2.342819452285766602e+00,7.562277984619140625e+01,3.135653114318847656e+01
8.962800353765487671e-02,1.000000000000000000e+00,-3.469942092895507812e+01,4.888859176635742188e+01,2.986773872375488281e+01,1.091760406494140625e+02,9.491204833984375000e+01,-3.053250074386596680e+00,4.031498432159423828e-01,-6.667353820800781250e+01,-1.826883239746093750e+02,-2.342819452285766602e+00,7.562277984619140625e+01,3.135653114318847656e+01
9.358400106430053711e-02,1.000000000000000000e+00,-3.470550537109375000e+01,4.887637329101562500e+01,2.986887931823730469e+01,1.091704025268554688e+02,9.491311645507812500e+01,-3.054199457168579102e+00,4.031498432159423828e-01,-6.667343902587890625e+01,-1.826883239746093750e+02,-2.342819452285766602e+00,7.562277984619140625e+01,3.135653114318847656e+01
9.527099877595901489e-02,1.000000000000000000e+00,-3.470550537109375000e+01,4.887637329101562500e+01,2.986887931823730469e+01,1.091704025268554688e+02,9.491311645507812500e+01,-3.054199457168579102e+00,4.031498432159423828e-01,-6.667343902587890625e+01,-1.826883239746093750e+02,-2.342819452285766602e+00,7.562277984619140625e+01,3.135653114318847656e+01
9.920699894428253174e-02,1.000000000000000000e+00,-3.471268463134765625e+01,4.886161804199218750e+01,2.987052536010742188e+01,1.091628723144531250e+02,9.491471099853515625e+01,-3.056233882904052734e+00,4.031498432159423828e-01,-6.667343902587890625e+01,-1.826884307861328125e+02,-2.342819452285766602e+00,7.562270355224609375e+01,3.135642242431640625e+01
1.032389998435974121e-01,1.000000000000000000e+00,-3.472126770019531250e+01,4.884434890747070312e+01,2.987285995483398438e+01,1.091531829833984375e+02,9.491716766357421875e+01,-3.059421300888061523e+00,4.031498432159423828e-01,-6.667343902587890625e+01,-1.826883239746093750e+02,-2.342819452285766602e+00,7.562277984619140625e+01,3.135675048828125000e+01
1.073120012879371643e-01,1.000000000000000000e+00,-3.473091125488281250e+01,4.882464218139648438e+01,2.987590980529785156e+01,1.091406478881835938e+02,9.492047119140625000e+01,-3.063286781311035156e+00,4.031498432159423828e-01,-6.667343902587890625e+01,-1.826883239746093750e+02,-2.342819452285766602e+00,7.562277984619140625e+01,3.135653114318847656e+01
1.112110018730163574e-01,1.000000000000000000e+00,-3.474213790893554688e+01,4.880232620239257812e+01,2.987989616394042969e+01,1.091248931884765625e+02,9.492468261718750000e+01,-3.067491292953491211e+00,4.031498432159423828e-01,-6.667343902587890625e+01,-1.826881713867187500e+02,-2.342819452285766602e+00,7.562277984619140625e+01,3.135653114318847656e+01
1.152260005474090576e-01,1.000000000000000000e+00,-3.475476837158203125e+01,4.877714157104492188e+01,2.988522338867187500e+01,1.091064071655273438e+02,9.492953491210937500e+01,-3.072916746139526367e+00,4.031498432159423828e-01,-6.667343902587890625e+01,-1.826883239746093750e+02,-2.342819452285766602e+00,7.562270355224609375e+01,3.135653114318847656e+01
1.192519962787628174e-01,1.000000000000000000e+00,-3.476903533935546875e+01,4.874910354614257812e+01,2.989156913757324219e+01,1.090852355957031250e+02,9.493566894531250000e+01,-3.079766273498535156e+00,4.031498432159423828e-01,-6.667353820800781250e+01,-1.826883239746093750e+02,-2.342747688293457031e+00,7.562299346923828125e+01,3.135653114318847656e+01
1.232559978961944580e-01,1.000000000000000000e+00,-3.478496551513671875e+01,4.871764755249023438e+01,2.989907073974609375e+01,1.090593643188476562e+02,9.494270324707031250e+01,-3.087904214859008789e+00,4.031498432159423828e-01,-6.667353820800781250e+01,-1.826883239746093750e+02,-2.342819452285766602e+00,7.562291717529296875e+01,3.135653114318847656e+01
1.272799968719482422e-01,1.000000000000000000e+00,-3.480221939086914062e+01,4.868299865722656250e+01,2.990795326232910156e+01,1.090294952392578125e+02,9.495085906982421875e+01,-3.097398519515991211e+00,4.031498432159423828e-01,-6.667343902587890625e+01,-1.826883239746093750e+02,-2.342747688293457031e+00,7.562277984619140625e+01,3.135653114318847656e+01
1.314399987459182739e-01,1.000000000000000000e+00,-3.482093811035156250e+01,4.864471054077148438e+01,2.991830444335937500e+01,1.089938354492187500e+02,9.496013641357421875e+01,-3.108181476593017578e+00,4.031498432159423828e-01,-6.667343902587890625e+01,-1.826883239746093750e+02,-2.342819452285766602e+00,7.562291717529296875e+01,3.135642242431640625e+01
1.352310031652450562e-01,1.000000000000000000e+00,-3.484117507934570312e+01,4.860311889648437500e+01,2.993003654479980469e+01,1.089538040161132812e+02,9.497064208984375000e+01,-3.120252847671508789e+00,4.031498432159423828e-01,-6.667343902587890625e+01,-1.826883239746093750e+02,-2.342819452285766602e+00,7.562277984619140625e+01,3.135675048828125000e+01
1.392219960689544678e-01,1.000000000000000000e+00,-3.486359405517578125e+01,4.855801391601562500e+01,2.994288444519042969e+01,1.089115600585937500e+02,9.498226165771484375e+01,-3.134155273437500000e+00,4.031498432159423828e-01,-6.667343902587890625e+01,-1.826883239746093750e+02,-2.342747688293457031e+00,7.562270355224609375e+01,3.135675048828125000e+01
1.432500034570693970e-01,1.000000000000000000e+00,-3.488753890991210938e+01,4.850995254516601562e+01,2.995715904235839844e+01,1.088661575317382812e+02,9.499522399902343750e+01,-3.149007320404052734e+00,4.031498432159423828e-01,-6.667343902587890625e+01,-1.826883239746093750e+02,-2.342819452285766602e+00,7.562277984619140625e+01,3.135675048828125000e+01
1.472879946231842041e-01,1.000000000000000000e+00,-3.491262435913085938e+01,4.845907592773437500e+01,2.997258758544921875e+01,1.088148040771484375e+02,9.500945281982421875e+01,-3.164469480514526367e+00,4.031498432159423828e-01,-6.667353820800781250e+01,-1.826883239746093750e+02,-2.342747688293457031e+00,7.562277984619140625e+01,3.135653114318847656e+01
1.512659937143325806e-01,1.000000000000000000e+00,-3.493912124633789062e+01,4.840519714355468750e+01,2.998934173583984375e+01,1.087600708007812500e+02,9.502475738525390625e+01,-3.181152582168579102e+00,4.031498432159423828e-01,-6.667353820800781250e+01,-1.826883239746093750e+02,-2.342819452285766602e+00,7.562277984619140625e+01,3.135653114318847656e+01
1.552820056676864624e-01,1.000000000000000000e+00,-3.496702575683593750e+01,4.834857559204101562e+01,3.000709342956542969e+01,1.087039260864257812e+02,9.504032897949218750e+01,-3.198310136795043945e+00,4.031498432159423828e-01,-6.667343902587890625e+01,-1.826883239746093750e+02,-2.342747688293457031e+00,7.562277984619140625e+01,3.135653114318847656e+01
1.592029929161071777e-01,1.000000000000000000e+00,-3.499630355834960938e+01,4.828901290893554688e+01,3.002520751953125000e+01,1.086445617675781250e+02,9.505648040771484375e+01,-3.216824054718017578e+00,4.031498432159423828e-01,-6.667343902587890625e+01,-1.826883239746093750e+02,-2.342819452285766602e+00,7.562277984619140625e+01,3.135642242431640625e+01
1.632349938154220581e-01,1.000000000000000000e+00,-3.502719497680664062e+01,4.822732543945312500e+01,3.004379272460937500e+01,1.085830383300781250e+02,9.507295227050781250e+01,-3.235880613327026367e+00,4.031498432159423828e-01,-6.667343902587890625e+01,-1.826883239746093750e+02,-2.342819452285766602e+00,7.562277984619140625e+01,3.135642242431640625e+01
1.672119945287704468e-01,1.000000000000000000e+00,-3.505974578857421875e+01,4.816339492797851562e+01,3.006302642822265625e+01,1.085186157226562500e+02,9.509017181396484375e+01,-3.255276203155517578e+00,4.031498432159423828e-01,-6.667343902587890625e+01,-1.826883239746093750e+02,-2.342747688293457031e+00,7.562277984619140625e+01,3.135642242431640625e+01
1.712049990892410278e-01,1.000000000000000000e+00,-3.509313201904296875e+01,4.809767532348632812e+01,3.008266639709472656e+01,1.084533004760742188e+02,9.510782623291015625e+01,-3.275553464889526367e+00,4.031498432159423828e-01,-6.667343902587890625e+01,-1.826883239746093750e+02,-2.342819452285766602e+00,7.562270355224609375e+01,3.135642242431640625e+01
1.752330064773559570e-01,1.000000000000000000e+00,-3.512738418579101562e+01,4.802976608276367188e+01,3.010297584533691406e+01,1.083874588012695312e+02,9.512600708007812500e+01,-3.296373367309570312e+00,4.031498432159423828e-01,-6.667353820800781250e+01,-1.826883239746093750e+02,-2.342819452285766602e+00,7.562277984619140625e+01,3.135653114318847656e+01
1.792940050363540649e-01,1.000000000000000000e+00,-3.516208648681640625e+01,4.796031570434570312e+01,3.012363433837890625e+01,1.083202438354492188e+02,9.514487457275390625e+01,-3.317735671997070312e+00,4.031498432159423828e-01,-6.667343902587890625e+01,-1.826883239746093750e+02,-2.342819452285766602e+00,7.562291717529296875e+01,3.135642242431640625e+01
1.832219958305358887e-01,1.000000000000000000e+00,-3.519779968261718750e+01,4.788909530639648438e+01,3.014414978027343750e+01,1.082523422241210938e+02,9.516455841064453125e+01,-3.339437007904052734e+00,4.031498432159423828e-01,-6.667353820800781250e+01,-1.826883239746093750e+02,-2.342819452285766602e+00,7.562277984619140625e+01,3.135642242431640625e+01
1.872610002756118774e-01,1.000000000000000000e+00,-3.523468780517578125e+01,4.781627273559570312e+01,3.016474533081054688e+01,1.081837158203125000e+02,9.518422698974609375e+01,-3.360799312591552734e+00,4.031498432159423828e-01,-6.667343902587890625e+01,-1.826883239746093750e+02,-2.342819452285766602e+00,7.562277984619140625e+01,3.135653114318847656e+01
1.912579983472824097e-01,1.000000000000000000e+00,-3.527229309082031250e+01,4.774166488647460938e+01,3.018542289733886719e+01,1.081155548095703125e+02,9.520320892333984375e+01,-3.381618976593017578e+00,4.031498432159423828e-01,-6.667353820800781250e+01,-1.826883239746093750e+02,-2.342819452285766602e+00,7.562277984619140625e+01,3.135653114318847656e+01
1.976870000362396240e-01,1.000000000000000000e+00,-3.531044769287109375e+01,4.766601181030273438e+01,3.020628356933593750e+01,1.080467605590820312e+02,9.522143554687500000e+01,-3.402642250061035156e+00,4.031498432159423828e-01,-6.667343902587890625e+01,-1.826883239746093750e+02,-2.342819452285766602e+00,7.562277984619140625e+01,3.135653114318847656e+01
1.992249935865402222e-01,1.000000000000000000e+00,-3.534894180297851562e+01,4.758965682983398438e+01,3.022710227966308594e+01,1.079778671264648438e+02,9.523999786376953125e+01,-3.423529863357543945e+00,4.031498432159423828e-01,-6.667353820800781250e+01,-1.826883239746093750e+02,-2.342819452285766602e+00,7.562277984619140625e+01,3.135653114318847656e+01
2.042489945888519287e-01,1.000000000000000000e+00,-3.534894180297851562e+01,4.758965682983398438e+01,3.022710227966308594e+01,1.079778671264648438e+02,9.523999786376953125e+01,-3.423529863357543945e+00,4.031498432159423828e-01,-6.667343902587890625e+01,-1.826883239746093750e+02,-2.342747688293457031e+00,7.562270355224609375e+01,3.135642242431640625e+01
2.072480022907257080e-01,1.000000000000000000e+00,-3.542719268798828125e+01,4.743631744384765625e+01,3.026874160766601562e+01,1.078400115966796875e+02,9.527838134765625000e+01,-3.466186523437500000e+00,4.031498432159423828e-01,-6.667343902587890625e+01,-1.826881713867187500e+02,-2.342819452285766602e+00,7.562277984619140625e+01,3.135653114318847656e+01
2.123219966888427734e-01,1.000000000000000000e+00,-3.542719268798828125e+01,4.743631744384765625e+01,3.026874160766601562e+01,1.078400115966796875e+02,9.527838134765625000e+01,-3.466186523437500000e+00,4.031498432159423828e-01,-6.667343902587890625e+01,-1.826883239746093750e+02,-2.342819452285766602e+00,7.562291717529296875e+01,3.135642242431640625e+01
2.152699977159500122e-01,1.000000000000000000e+00,-3.550585556030273438e+01,4.728349685668945312e+01,3.031015968322753906e+01,1.077021636962890625e+02,9.531837463378906250e+01,-3.510064125061035156e+00,4.031498432159423828e-01,-6.667343902587890625e+01,-1.826883239746093750e+02,-2.342819452285766602e+00,7.562270355224609375e+01,3.135653114318847656e+01
2.217929959297180176e-01,1.000000000000000000e+00,-3.550585556030273438e+01,4.728349685668945312e+01,3.031015968322753906e+01,1.077021636962890625e+02,9.531837463378906250e+01,-3.510064125061035156e+00,4.031498432159423828e-01,-6.667343902587890625e+01,-1.826883239746093750e+02,-2.342819452285766602e+00,7.562270355224609375e+01,3.135653114318847656e+01
2.242619991302490234e-01,1.000000000000000000e+00,-3.558528518676757812e+01,4.713068008422851562e+01,3.035204315185546875e+01,1.075637969970703125e+02,9.535670471191406250e+01,-3.552653074264526367e+00,4.031498432159423828e-01,-6.667353820800781250e+01,-1.826883239746093750e+02,-2.342819452285766602e+00,7.562277984619140625e+01,3.135642242431640625e+01
2.277150005102157593e-01,1.000000000000000000e+00,-3.562461471557617188e+01,4.705410003662109375e+01,3.037284088134765625e+01,1.074941635131835938e+02,9.537515258789062500e+01,-3.573405027389526367e+00,4.031498432159423828e-01,-6.667334747314453125e+01,-1.826884307861328125e+02,-2.342819452285766602e+00,7.562270355224609375e+01,3.135653114318847656e+01
2.322629988193511963e-01,1.000000000000000000e+00,-3.566394424438476562e+01,4.697767639160156250e+01,3.039362144470214844e+01,1.074253158569335938e+02,9.539440155029296875e+01,-3.594563722610473633e+00,4.031498432159423828e-01,-6.667343902587890625e+01,-1.826883239746093750e+02,-2.342819452285766602e+00,7.562277984619140625e+01,3.135642242431640625e+01
2.352090030908584595e-01,1.000000000000000000e+00,-3.570335769653320312e+01,4.690091705322265625e+01,3.041456222534179688e+01,1.073558349609375000e+02,9.541353607177734375e+01,-3.615722894668579102e+00,4.031498432159423828e-01,-6.667353820800781250e+01,-1.826883239746093750e+02,-2.342819452285766602e+00,7.562270355224609375e+01,3.135653114318847656e+01
2.393410056829452515e-01,1.000000000000000000e+00,-3.570335769653320312e+01,4.690091705322265625e+01,3.041456222534179688e+01,1.073558349609375000e+02,9.541353607177734375e+01,-3.615722894668579102e+00,4.031498432159423828e-01,-6.667353820800781250e+01,-1.826883239746093750e+02,-2.342819452285766602e+00,7.562270355224609375e+01,3.135653114318847656e+01
2.461059987545013428e-01,1.000000000000000000e+00,-3.574296951293945312e+01,4.682408905029296875e+01,3.043580818176269531e+01,1.072866744995117188e+02,9.543310546875000000e+01,-3.636610507965087891e+00,4.031498432159423828e-01,-6.667353820800781250e+01,-1.826883239746093750e+02,-2.342819452285766602e+00,7.562277984619140625e+01,3.135653114318847656e+01
2.474980056285858154e-01,1.000000000000000000e+00,-3.582139968872070312e+01,4.667113494873046875e+01,3.047826194763183594e+01,1.071479873657226562e+02,9.547330474853515625e+01,-3.679741859436035156e+00,4.031498432159423828e-01,-6.667343902587890625e+01,-1.826883239746093750e+02,-2.342891216278076172e+00,7.562270355224609375e+01,3.135653114318847656e+01
2.522499859333038330e-01,1.000000000000000000e+00,-3.582139968872070312e+01,4.667113494873046875e+01,3.047826194763183594e+01,1.071479873657226562e+02,9.547330474853515625e+01,-3.679741859436035156e+00,4.031498432159423828e-01,-6.667343902587890625e+01,-1.826883239746093750e+02,-2.342891216278076172e+00,7.562270355224609375e+01,3.135653114318847656e+01
2.552109956741333008e-01,1.000000000000000000e+00,-3.589973831176757812e+01,4.651833724975585938e+01,3.051992225646972656e+01,1.070092926025390625e+02,9.551153564453125000e+01,-3.723687171936035156e+00,4.031498432159423828e-01,-6.667343902587890625e+01,-1.826883239746093750e+02,-2.342819452285766602e+00,7.562270355224609375e+01,3.135675048828125000e+01
2.592490017414093018e-01,1.000000000000000000e+00,-3.589973831176757812e+01,4.651833724975585938e+01,3.051992225646972656e+01,1.070092926025390625e+02,9.551153564453125000e+01,-3.723687171936035156e+00,4.031498432159423828e-01,-6.667343902587890625e+01,-1.826883239746093750e+02,-2.342819452285766602e+00,7.562270355224609375e+01,3.135675048828125000e+01
2.633239924907684326e-01,1.000000000000000000e+00,-3.593901062011718750e+01,4.644184494018554688e+01,3.054094505310058594e+01,1.069395523071289062e+02,9.552998352050781250e+01,-3.744778156280517578e+00,4.031498432159423828e-01,-6.667343902587890625e+01,-1.826883239746093750e+02,-2.342819452285766602e+00,7.562277984619140625e+01,3.135675048828125000e+01
2.672640085220336914e-01,1.000000000000000000e+00,-3.597793579101562500e+01,4.636515045166015625e+01,3.056219100952148438e+01,1.068698120117187500e+02,9.554885864257812500e+01,-3.765258789062500000e+00,4.031498432159423828e-01,-6.667343902587890625e+01,-1.826883239746093750e+02,-2.342891216278076172e+00,7.562277984619140625e+01,3.135675048828125000e+01
2.712619900703430176e-01,1.000000000000000000e+00,-3.601665878295898438e+01,4.628825759887695312e+01,3.058339881896972656e+01,1.067999649047851562e+02,9.556809997558593750e+01,-3.786417961120605469e+00,4.031498432159423828e-01,-6.667343902587890625e+01,-1.826883239746093750e+02,-2.342747688293457031e+00,7.562277984619140625e+01,3.135675048828125000e+01
2.753329873085021973e-01,1.000000000000000000e+00,-3.605524444580078125e+01,4.621115875244140625e+01,3.060454177856445312e+01,1.067305450439453125e+02,9.558804321289062500e+01,-3.807508707046508789e+00,4.033146500587463379e-01,-6.667353820800781250e+01,-1.826881713867187500e+02,-2.342891216278076172e+00,7.562277984619140625e+01,3.135675048828125000e+01
2.792699933052062988e-01,1.000000000000000000e+00,-3.609399795532226562e+01,4.613357925415039062e+01,3.062560462951660156e+01,1.066611709594726562e+02,9.560830688476562500e+01,-3.829074621200561523e+00,4.031498432159423828e-01,-6.667343902587890625e+01,-1.826883239746093750e+02,-2.342819452285766602e+00,7.562277984619140625e+01,3.135675048828125000e+01
2.832680046558380127e-01,1.000000000000000000e+00,-3.613278198242187500e+01,4.605627822875976562e+01,3.064648818969726562e+01,1.065912246704101562e+02,9.562808990478515625e+01,-3.850165843963623047e+00,4.031498432159423828e-01,-6.667343902587890625e+01,-1.826883239746093750e+02,-2.342819452285766602e+00,7.562270355224609375e+01,3.135675048828125000e+01
2.872749865055084229e-01,1.000000000000000000e+00,-3.617156219482421875e+01,4.597888565063476562e+01,3.066775512695312500e+01,1.065211105346679688e+02,9.564706420898437500e+01,-3.872070550918579102e+00,4.031498432159423828e-01,-6.667353820800781250e+01,-1.826883239746093750e+02,-2.342819452285766602e+00,7.562277984619140625e+01,3.135653114318847656e+01
2.912720143795013428e-01,1.000000000000000000e+00,-3.621020507812500000e+01,4.590180587768554688e+01,3.068912315368652344e+01,1.064513168334960938e+02,9.566583251953125000e+01,-3.894382238388061523e+00,4.031498432159423828e-01,-6.667343902587890625e+01,-1.826883239746093750e+02,-2.342819452285766602e+00,7.562277984619140625e+01,3.135675048828125000e+01
2.952859997749328613e-01,1.000000000000000000e+00,-3.624890136718750000e+01,4.582468414306640625e+01,3.071024894714355469e+01,1.063820037841796875e+02,9.568481445312500000e+01,-3.916015625000000000e+00,4.031498432159423828e-01,-6.667343902587890625e+01,-1.826883239746093750e+02,-2.342747688293457031e+00,7.562277984619140625e+01,3.135653114318847656e+01
2.992790043354034424e-01,1.000000000000000000e+00,-3.628765487670898438e+01,4.574719619750976562e+01,3.073129272460937500e+01,1.063121566772460938e+02,9.570426940917968750e+01,-3.936564207077026367e+00,4.031498432159423828e-01,-6.667343902587890625e+01,-1.826881713867187500e+02,-2.342819452285766602e+00,7.562277984619140625e+01,3.135653114318847656e+01
3.033060133457183838e-01,1.000000000000000000e+00,-3.632652282714843750e+01,4.566948699951171875e+01,3.075227546691894531e+01,1.062417297363281250e+02,9.572383880615234375e+01,-3.957451820373535156e+00,4.031498432159423828e-01,-6.667353820800781250e+01,-1.826883239746093750e+02,-2.342819452285766602e+00,7.562277984619140625e+01,3.135653114318847656e+01
3.072470128536224365e-01,1.000000000000000000e+00,-3.636527633666992188e+01,4.559161758422851562e+01,3.077350044250488281e+01,1.061718826293945312e+02,9.574426269531250000e+01,-3.978678226470947266e+00,4.031498432159423828e-01,-6.667343902587890625e+01,-1.826883239746093750e+02,-2.342891216278076172e+00,7.562277984619140625e+01,3.135653114318847656e+01
3.113040030002593994e-01,1.000000000000000000e+00,-3.640417480468750000e+01,4.551395416259765625e+01,3.079496955871582031e+01,1.061025085449218750e+02,9.576467895507812500e+01,-3.999498367309570312e+00,4.031498432159423828e-01,-6.667343902587890625e+01,-1.826883239746093750e+02,-2.342819452285766602e+00,7.562277984619140625e+01,3.135653114318847656e+01
3.153179883956909180e-01,1.000000000000000000e+00,-3.644321441650390625e+01,4.543598937988281250e+01,3.081625747680664062e+01,1.060324554443359375e+02,9.578424835205078125e+01,-4.020928382873535156e+00,4.031498432159423828e-01,-6.667343902587890625e+01,-1.826883239746093750e+02,-2.342891216278076172e+00,7.562291717529296875e+01,3.135653114318847656e+01
3.192490041255950928e-01,1.000000000000000000e+00,-3.648246002197265625e+01,4.535787200927734375e+01,3.083744430541992188e+01,1.059621887207031250e+02,9.580296325683593750e+01,-4.042562007904052734e+00,4.031498432159423828e-01,-6.667343902587890625e+01,-1.826883239746093750e+02,-2.342819452285766602e+00,7.562277984619140625e+01,3.135653114318847656e+01
3.233129978179931641e-01,1.000000000000000000e+00,-3.652175903320312500e+01,4.527975463867187500e+01,3.085846710205078125e+01,1.058916549682617188e+02,9.582183074951171875e+01,-4.064805507659912109e+00,4.031498432159423828e-01,-6.667343902587890625e+01,-1.826883239746093750e+02,-2.342891216278076172e+00,7.562277984619140625e+01,3.135675048828125000e+01
3.273339867591857910e-01,1.000000000000000000e+00,-3.656103134155273438e+01,4.520186233520507812e+01,3.087944984436035156e+01,1.058219680786132812e+02,9.584103393554687500e+01,-4.087049961090087891e+00,4.031498432159423828e-01,-6.667343902587890625e+01,-1.826883239746093750e+02,-2.342891216278076172e+00,7.562270355224609375e+01,3.135653114318847656e+01
3.312529921531677246e-01,1.000000000000000000e+00,-3.660047149658203125e+01,4.512417602539062500e+01,3.090083885192871094e+01,1.057517013549804688e+02,9.586043548583984375e+01,-4.108479976654052734e+00,4.031498432159423828e-01,-6.667343902587890625e+01,-1.826883239746093750e+02,-2.342891216278076172e+00,7.562277984619140625e+01,3.135653114318847656e+01
3.352749943733215332e-01,1.000000000000000000e+00,-3.664005661010742188e+01,4.504619216918945312e+01,3.092216491699218750e+01,1.056819610595703125e+02,9.588074493408203125e+01,-4.129367828369140625e+00,4.031498432159423828e-01,-6.667343902587890625e+01,-1.826884307861328125e+02,-2.342819452285766602e+00,7.562277984619140625e+01,3.135675048828125000e+01
3.394699990749359131e-01,1.000000000000000000e+00,-3.667979049682617188e+01,4.496816253662109375e+01,3.094345092773437500e+01,1.056110610961914062e+02,9.590127563476562500e+01,-4.150526523590087891e+00,4.031498432159423828e-01,-6.667343902587890625e+01,-1.826883239746093750e+02,-2.342891216278076172e+00,7.562270355224609375e+01,3.135653114318847656e+01
3.432520031929016113e-01,1.000000000000000000e+00,-3.671943283081054688e+01,4.489015960693359375e+01,3.096478271484375000e+01,1.055414276123046875e+02,9.592121887207031250e+01,-4.172227859497070312e+00,4.031498432159423828e-01,-6.667343902587890625e+01,-1.826883239746093750e+02,-2.342891216278076172e+00,7.562270355224609375e+01,3.135653114318847656e+01
3.474749922752380371e-01,1.000000000000000000e+00,-3.675913619995117188e+01,4.481203842163085938e+01,3.098604774475097656e+01,1.054708938598632812e+02,9.594003295898437500e+01,-4.193657875061035156e+00,4.031498432159423828e-01,-6.667343902587890625e+01,-1.826883239746093750e+02,-2.342747688293457031e+00,7.562277984619140625e+01,3.135653114318847656e+01
3.513250052928924561e-01,1.000000000000000000e+00,-3.679886245727539062e+01,4.473376083374023438e+01,3.100743675231933594e+01,1.054008941650390625e+02,9.595933532714843750e+01,-4.215087890625000000e+00,4.031498432159423828e-01,-6.667343902587890625e+01,-1.826883239746093750e+02,-2.342819452285766602e+00,7.562277984619140625e+01,3.135653114318847656e+01
3.552609980106353760e-01,1.000000000000000000e+00,-3.683879470825195312e+01,4.465532684326171875e+01,3.102894783020019531e+01,1.053299942016601562e+02,9.597847747802734375e+01,-4.236721515655517578e+00,4.031498432159423828e-01,-6.667343902587890625e+01,-1.826883239746093750e+02,-2.342747688293457031e+00,7.562277984619140625e+01,3.135653114318847656e+01
3.592619895935058594e-01,1.000000000000000000e+00,-3.687878417968750000e+01,4.457729721069335938e+01,3.105025482177734375e+01,1.052603073120117188e+02,9.599810028076171875e+01,-4.258965492248535156e+00,4.031498432159423828e-01,-6.667343902587890625e+01,-1.826884307861328125e+02,-2.342819452285766602e+00,7.562277984619140625e+01,3.135653114318847656e+01
3.636370003223419189e-01,1.000000000000000000e+00,-3.691883087158203125e+01,4.449906921386718750e+01,3.107154464721679688e+01,1.051897201538085938e+02,9.601798248291015625e+01,-4.280870437622070312e+00,4.031498432159423828e-01,-6.667343902587890625e+01,-1.826883239746093750e+02,-2.342819452285766602e+00,7.562270355224609375e+01,3.135653114318847656e+01
3.672559857368469238e-01,1.000000000000000000e+00,-3.695887756347656250e+01,4.442094802856445312e+01,3.109289360046386719e+01,1.051196136474609375e+02,9.603856658935546875e+01,-4.302300453186035156e+00,4.031498432159423828e-01,-6.667343902587890625e+01,-1.826883239746093750e+02,-2.342819452285766602e+00,7.562277984619140625e+01,3.135653114318847656e+01
3.719519972801208496e-01,1.000000000000000000e+00,-3.699886703491210938e+01,4.434308242797851562e+01,3.111428260803222656e+01,1.050485000610351562e+02,9.605898284912109375e+01,-4.323594570159912109e+00,4.033146500587463379e-01,-6.667343902587890625e+01,-1.826881713867187500e+02,-2.342819452285766602e+00,7.562277984619140625e+01,3.135653114318847656e+01
3.753400146961212158e-01,1.000000000000000000e+00,-3.703882598876953125e+01,4.426516723632812500e+01,3.113566970825195312e+01,1.049781875610351562e+02,9.607839202880859375e+01,-4.344889640808105469e+00,4.031498432159423828e-01,-6.667343902587890625e+01,-1.826881713867187500e+02,-2.342819452285766602e+00,7.562270355224609375e+01,3.135653114318847656e+01
3.792600035667419434e-01,1.000000000000000000e+00,-3.707875823974609375e+01,4.418713760375976562e+01,3.115711975097656250e+01,1.049077072143554688e+02,9.609726715087890625e+01,-4.366862297058105469e+00,4.031498432159423828e-01,-6.667353820800781250e+01,-1.826883239746093750e+02,-2.342747688293457031e+00,7.562277984619140625e+01,3.135642242431640625e+01
3.832550048828125000e-01,1.000000000000000000e+00,-3.711891555786132812e+01,4.410874557495117188e+01,3.117836570739746094e+01,1.048373336791992188e+02,9.611661529541015625e+01,-4.388360023498535156e+00,4.031498432159423828e-01,-6.667343902587890625e+01,-1.826883239746093750e+02,-2.342819452285766602e+00,7.562277984619140625e+01,3.135653114318847656e+01
3.879809975624084473e-01,1.000000000000000000e+00,-3.715881729125976562e+01,4.403017807006835938e+01,3.119967651367187500e+01,1.047665405273437500e+02,9.613586425781250000e+01,-4.409857749938964844e+00,4.031498432159423828e-01,-6.667343902587890625e+01,-1.826883239746093750e+02,-2.342819452285766602e+00,7.562270355224609375e+01,3.135653114318847656e+01
3.922420144081115723e-01,1.000000000000000000e+00,-3.719878005981445312e+01,4.395144653320312500e+01,3.122114753723144531e+01,1.046959533691406250e+02,9.615548706054687500e+01,-4.432101726531982422e+00,4.031498432159423828e-01,-6.667343902587890625e+01,-1.826883239746093750e+02,-2.342819452285766602e+00,7.562270355224609375e+01,3.135675048828125000e+01
3.959920108318328857e-01,1.000000000000000000e+00,-3.723868179321289062e+01,4.387255859375000000e+01,3.124269676208496094e+01,1.046251144409179688e+02,9.617568969726562500e+01,-4.454888343811035156e+00,4.031498432159423828e-01,-6.667343902587890625e+01,-1.826884307861328125e+02,-2.342891216278076172e+00,7.562277984619140625e+01,3.135653114318847656e+01
3.993639945983886719e-01,1.000000000000000000e+00,-3.727878570556640625e+01,4.379371643066406250e+01,3.126422882080078125e+01,1.045544738769531250e+02,9.619622039794921875e+01,-4.476657390594482422e+00,4.031498432159423828e-01,-6.667343902587890625e+01,-1.826883239746093750e+02,-2.342819452285766602e+00,7.562270355224609375e+01,3.135653114318847656e+01
4.032829999923706055e-01,1.000000000000000000e+00,-3.731880187988281250e+01,4.371525573730468750e+01,3.128584289550781250e+01,1.044835739135742188e+02,9.621600341796875000e+01,-4.498019695281982422e+00,4.031498432159423828e-01,-6.667343902587890625e+01,-1.826883239746093750e+02,-2.342819452285766602e+00,7.562277984619140625e+01,3.135653114318847656e+01
4.073829948902130127e-01,1.000000000000000000e+00,-3.735890579223632812e+01,4.363684463500976562e+01,3.130723190307617188e+01,1.044129943847656250e+02,9.623498535156250000e+01,-4.519111156463623047e+00,4.031498432159423828e-01,-6.667343902587890625e+01,-1.826883239746093750e+02,-2.342819452285766602e+00,7.562270355224609375e+01,3.135653114318847656e+01
4.122090041637420654e-01,1.000000000000000000e+00,-3.739886474609375000e+01,4.355813980102539062e+01,3.132880020141601562e+01,1.043420410156250000e+02,9.625422668457031250e+01,-4.540880203247070312e+00,4.031498432159423828e-01,-6.667343902587890625e+01,-1.826883239746093750e+02,-2.342819452285766602e+00,7.562270355224609375e+01,3.135653114318847656e+01
4.153609871864318848e-01,1.000000000000000000e+00,-3.743899917602539062e+01,4.347967910766601562e+01,3.135025024414062500e+01,1.042714614868164062e+02,9.627347564697265625e+01,-4.562649250030517578e+00,4.031498432159423828e-01,-6.667343902587890625e+01,-1.826883239746093750e+02,-2.342819452285766602e+00,7.562270355224609375e+01,3.135653114318847656e+01
4.200280010700225830e-01,1.000000000000000000e+00,-3.747912979125976562e+01,4.340090560913085938e+01,3.137158203125000000e+01,1.042000808715820312e+02,9.629309082031250000e+01,-4.584215164184570312e+00,4.031498432159423828e-01,-6.667343902587890625e+01,-1.826883239746093750e+02,-2.342819452285766602e+00,7.562277984619140625e+01,3.135653114318847656e+01
4.234879910945892334e-01,1.000000000000000000e+00,-3.751937866210937500e+01,4.332176971435546875e+01,3.139304924011230469e+01,1.041293411254882812e+02,9.631304168701171875e+01,-4.606390953063964844e+00,4.031498432159423828e-01,-6.667343902587890625e+01,-1.826883239746093750e+02,-2.342819452285766602e+00,7.562277984619140625e+01,3.135653114318847656e+01
4.275850057601928711e-01,1.000000000000000000e+00,-3.755942153930664062e+01,4.324247360229492188e+01,3.141460227966308594e+01,1.040579681396484375e+02,9.633377838134765625e+01,-4.629381179809570312e+00,4.031498432159423828e-01,-6.667353820800781250e+01,-1.826883239746093750e+02,-2.342819452285766602e+00,7.562277984619140625e+01,3.135653114318847656e+01
4.315280020236968994e-01,1.000000000000000000e+00,-3.759955596923828125e+01,4.316286087036132812e+01,3.143635559082031250e+01,1.039869155883789062e+02,9.635392761230468750e+01,-4.651353836059570312e+00,4.031498432159423828e-01,-6.667343902587890625e+01,-1.826883239746093750e+02,-2.342819452285766602e+00,7.562277984619140625e+01,3.135653114318847656e+01
4.362269937992095947e-01,1.000000000000000000e+00,-3.763974380493164062e+01,4.308365631103515625e+01,3.145815467834472656e+01,1.039158554077148438e+02,9.637317657470703125e+01,-4.672919750213623047e+00,4.031498432159423828e-01,-6.667343902587890625e+01,-1.826883239746093750e+02,-2.342819452285766602e+00,7.562291717529296875e+01,3.135653114318847656e+01
4.395309984683990479e-01,1.000000000000000000e+00,-3.767973327636718750e+01,4.300447463989257812e+01,3.147972488403320312e+01,1.038448486328125000e+02,9.639220428466796875e+01,-4.693807125091552734e+00,4.031498432159423828e-01,-6.667343902587890625e+01,-1.826883239746093750e+02,-2.342819452285766602e+00,7.562277984619140625e+01,3.135653114318847656e+01
4.441690146923065186e-01,1.000000000000000000e+00,-3.771969223022460938e+01,4.292547225952148438e+01,3.150107192993164062e+01,1.037735824584960938e+02,9.641135406494140625e+01,-4.715372562408447266e+00,4.031498432159423828e-01,-6.667343902587890625e+01,-1.826884307861328125e+02,-2.342891216278076172e+00,7.562270355224609375e+01,3.135653114318847656e+01
4.477429986000061035e-01,1.000000000000000000e+00,-3.775962448120117188e+01,4.284669876098632812e+01,3.152250099182128906e+01,1.037025222778320312e+02,9.643092346191406250e+01,-4.737209796905517578e+00,4.031498432159423828e-01,-6.667343902587890625e+01,-1.826881713867187500e+02,-2.342891216278076172e+00,7.562270355224609375e+01,3.135653114318847656e+01
4.522449970245361328e-01,1.000000000000000000e+00,-3.780004501342773438e+01,4.276781082153320312e+01,3.154407501220703125e+01,1.036311492919921875e+02,9.645075225830078125e+01,-4.758843421936035156e+00,4.031498432159423828e-01,-6.667343902587890625e+01,-1.826881713867187500e+02,-2.342891216278076172e+00,7.562277984619140625e+01,3.135653114318847656e+01
4.554800093173980713e-01,1.000000000000000000e+00,-3.784003448486328125e+01,4.268873977661132812e+01,3.156593132019042969e+01,1.035600967407226562e+02,9.647116851806640625e+01,-4.781087398529052734e+00,4.031498432159423828e-01,-6.667343902587890625e+01,-1.826883239746093750e+02,-2.342891216278076172e+00,7.562270355224609375e+01,3.135653114318847656e+01
4.597519934177398682e-01,1.000000000000000000e+00,-3.788030624389648438e+01,4.260940170288085938e+01,3.158760643005371094e+01,1.034886169433593750e+02,9.649153900146484375e+01,-4.803466796875000000e+00,4.031498432159423828e-01,-6.667343902587890625e+01,-1.826883239746093750e+02,-2.342819452285766602e+00,7.562270355224609375e+01,3.135642242431640625e+01
4.643549919128417969e-01,1.000000000000000000e+00,-3.792044067382812500e+01,4.252999496459960938e+01,3.160936164855957031e+01,1.034170303344726562e+02,9.651120758056640625e+01,-4.825643062591552734e+00,4.031498432159423828e-01,-6.667353820800781250e+01,-1.826883239746093750e+02,-2.342819452285766602e+00,7.562277984619140625e+01,3.135642242431640625e+01
4.684700071811676025e-01,1.000000000000000000e+00,-3.796057128906250000e+01,4.245035552978515625e+01,3.163101196289062500e+01,1.033456039428710938e+02,9.653050994873046875e+01,-4.847480297088623047e+00,4.031498432159423828e-01,-6.667343902587890625e+01,-1.826883239746093750e+02,-2.342819452285766602e+00,7.562277984619140625e+01,3.135642242431640625e+01
4.717170000076293945e-01,1.000000000000000000e+00,-3.800076293945312500e+01,4.237054443359375000e+01,3.165266799926757812e+01,1.032741775512695312e+02,9.654986572265625000e+01,-4.868978023529052734e+00,4.031498432159423828e-01,-6.667343902587890625e+01,-1.826883239746093750e+02,-2.342819452285766602e+00,7.562277984619140625e+01,3.135642242431640625e+01
4.762510061264038086e-01,1.000000000000000000e+00,-3.804083633422851562e+01,4.229104232788085938e+01,3.167454528808593750e+01,1.032026519775390625e+02,9.656916046142578125e+01,-4.890340328216552734e+00,4.031498432159423828e-01,-6.667353820800781250e+01,-1.826883239746093750e+02,-2.342819452285766602e+00,7.562277984619140625e+01,3.135642242431640625e+01
4.799720048904418945e-01,1.000000000000000000e+00,-3.808113861083984375e+01,4.221152114868164062e+01,3.169625854492187500e+01,1.031310119628906250e+02,9.658921051025390625e+01,-4.912177562713623047e+00,4.031498432159423828e-01,-6.667343902587890625e+01,-1.826883239746093750e+02,-2.342747688293457031e+00,7.562270355224609375e+01,3.135642242431640625e+01
4.839589893817901611e-01,1.000000000000000000e+00,-3.812129974365234375e+01,4.213247680664062500e+01,3.171776962280273438e+01,1.030592727661132812e+02,9.660958099365234375e+01,-4.934285640716552734e+00,4.031498432159423828e-01,-6.667343902587890625e+01,-1.826883239746093750e+02,-2.342891216278076172e+00,7.562270355224609375e+01,3.135653114318847656e+01
4.887770116329193115e-01,1.000000000000000000e+00,-3.816166305541992188e+01,4.205302047729492188e+01,3.173926162719726562e+01,1.029876251220703125e+02,9.663043212890625000e+01,-4.955851078033447266e+00,4.031498432159423828e-01,-6.667343902587890625e+01,-1.826883239746093750e+02,-2.342819452285766602e+00,7.562270355224609375e+01,3.135653114318847656e+01
4.918409883975982666e-01,1.000000000000000000e+00,-3.820188140869140625e+01,4.197361373901367188e+01,3.176095390319824219e+01,1.029162063598632812e+02,9.665068817138671875e+01,-4.978095054626464844e+00,4.031498432159423828e-01,-6.667343902587890625e+01,-1.826883239746093750e+02,-2.342891216278076172e+00,7.562277984619140625e+01,3.135653114318847656e+01
4.958510100841522217e-01,1.000000000000000000e+00,-3.824207305908203125e+01,4.189404678344726562e+01,3.178283119201660156e+01,1.028444137573242188e+02,9.667015075683593750e+01,-5.001017093658447266e+00,4.031498432159423828e-01,-6.667353820800781250e+01,-1.826883239746093750e+02,-2.342819452285766602e+00,7.562277984619140625e+01,3.135653114318847656e+01
5.001440048217773438e-01,1.000000000000000000e+00,-3.828240585327148438e+01,4.181396102905273438e+01,3.180474853515625000e+01,1.027723541259765625e+02,9.668918609619140625e+01,-5.023532390594482422e+00,4.031498432159423828e-01,-6.667343902587890625e+01,-1.826884307861328125e+02,-2.342819452285766602e+00,7.562277984619140625e+01,3.135653114318847656e+01
5.051599740982055664e-01,1.000000000000000000e+00,-3.836289978027343750e+01,4.165328598022460938e+01,3.184815788269042969e+01,1.026291885375976562e+02,9.672842407226562500e+01,-5.065782546997070312e+00,4.031498432159423828e-01,-6.667343902587890625e+01,-1.826881713867187500e+02,-2.342891216278076172e+00,7.562277984619140625e+01,3.135653114318847656e+01
5.082830190658569336e-01,1.000000000000000000e+00,-3.836289978027343750e+01,4.165328598022460938e+01,3.184815788269042969e+01,1.026291885375976562e+02,9.672842407226562500e+01,-5.065782546997070312e+00,4.031498432159423828e-01,-6.667343902587890625e+01,-1.826881713867187500e+02,-2.342891216278076172e+00,7.562277984619140625e+01,3.135653114318847656e+01
5.127739906311035156e-01,1.000000000000000000e+00,-3.840328979492187500e+01,4.157290649414062500e+01,3.186978912353515625e+01,1.025572280883789062e+02,9.674868011474609375e+01,-5.087890625000000000e+00,4.030399620532989502e-01,-6.667343902587890625e+01,-1.826883239746093750e+02,-2.342747688293457031e+00,7.562277984619140625e+01,3.135653114318847656e+01
5.161030292510986328e-01,1.000000000000000000e+00,-3.844345092773437500e+01,4.149283981323242188e+01,3.189166641235351562e+01,1.024849166870117188e+02,9.676952362060546875e+01,-5.109591960906982422e+00,4.031498432159423828e-01,-6.667343902587890625e+01,-1.826883239746093750e+02,-2.342747688293457031e+00,7.562291717529296875e+01,3.135653114318847656e+01
5.204060077667236328e-01,1.000000000000000000e+00,-3.848363876342773438e+01,4.141316223144531250e+01,3.191360473632812500e+01,1.024130096435546875e+02,9.678989410400390625e+01,-5.131700515747070312e+00,4.031498432159423828e-01,-6.667353820800781250e+01,-1.826883239746093750e+02,-2.342747688293457031e+00,7.562270355224609375e+01,3.135642242431640625e+01
5.242850184440612793e-01,1.000000000000000000e+00,-3.852417373657226562e+01,4.133363723754882812e+01,3.193542098999023438e+01,1.023413772583007812e+02,9.680962371826171875e+01,-5.153808593750000000e+00,4.031498432159423828e-01,-6.667343902587890625e+01,-1.826883239746093750e+02,-2.342747688293457031e+00,7.562270355224609375e+01,3.135653114318847656e+01
5.284749865531921387e-01,1.000000000000000000e+00,-3.856467819213867188e+01,4.125373077392578125e+01,3.195719528198242188e+01,1.022694778442382812e+02,9.682886505126953125e+01,-5.176459789276123047e+00,4.031498432159423828e-01,-6.667343902587890625e+01,-1.826883239746093750e+02,-2.342819452285766602e+00,7.562270355224609375e+01,3.135653114318847656e+01
5.323349833488464355e-01,1.000000000000000000e+00,-3.860506820678710938e+01,4.117353057861328125e+01,3.197887039184570312e+01,1.021969375610351562e+02,9.684864807128906250e+01,-5.199313640594482422e+00,4.031498432159423828e-01,-6.667343902587890625e+01,-1.826881713867187500e+02,-2.342819452285766602e+00,7.562270355224609375e+01,3.135653114318847656e+01
5.370029807090759277e-01,1.000000000000000000e+00,-3.864542770385742188e+01,4.109310531616210938e+01,3.200086975097656250e+01,1.021250457763671875e+02,9.686848449707031250e+01,-5.221761226654052734e+00,4.031498432159423828e-01,-6.667343902587890625e+01,-1.826883239746093750e+02,-2.342819452285766602e+00,7.562270355224609375e+01,3.135653114318847656e+01
5.403180122375488281e-01,1.000000000000000000e+00,-3.868582153320312500e+01,4.101256561279296875e+01,3.202284622192382812e+01,1.020527191162109375e+02,9.688847351074218750e+01,-5.242852210998535156e+00,4.031498432159423828e-01,-6.667343902587890625e+01,-1.826884307861328125e+02,-2.342819452285766602e+00,7.562270355224609375e+01,3.135653114318847656e+01
5.444170236587524414e-01,1.000000000000000000e+00,-3.872661209106445312e+01,4.093184661865234375e+01,3.204476547241210938e+01,1.019810867309570312e+02,9.690931701660156250e+01,-5.264485836029052734e+00,4.031498432159423828e-01,-6.667343902587890625e+01,-1.826883239746093750e+02,-2.342819452285766602e+00,7.562270355224609375e+01,3.135653114318847656e+01
5.484709739685058594e-01,1.000000000000000000e+00,-3.876712036132812500e+01,4.085085296630859375e+01,3.206660079956054688e+01,1.019085006713867188e+02,9.693027496337890625e+01,-5.286932945251464844e+00,4.031498432159423828e-01,-6.667353820800781250e+01,-1.826883239746093750e+02,-2.342819452285766602e+00,7.562291717529296875e+01,3.135653114318847656e+01
5.522480010986328125e-01,1.000000000000000000e+00,-3.880785369873046875e+01,4.077040481567382812e+01,3.208849716186523438e+01,1.018364410400390625e+02,9.695026397705078125e+01,-5.309041500091552734e+00,4.033146500587463379e-01,-6.667343902587890625e+01,-1.826883239746093750e+02,-2.342819452285766602e+00,7.562277984619140625e+01,3.135653114318847656e+01
5.563820004463195801e-01,1.000000000000000000e+00,-3.884859085083007812e+01,4.069015884399414062e+01,3.211050033569335938e+01,1.017641677856445312e+02,9.696968078613281250e+01,-5.331285476684570312e+00,4.031498432159423828e-01,-6.667343902587890625e+01,-1.826883239746093750e+02,-2.342747688293457031e+00,7.562270355224609375e+01,3.135653114318847656e+01
5.610120296478271484e-01,1.000000000000000000e+00,-3.888938140869140625e+01,4.061002349853515625e+01,3.213259887695312500e+01,1.016921691894531250e+02,9.698902893066406250e+01,-5.353936195373535156e+00,4.031498432159423828e-01,-6.667353820800781250e+01,-1.826884307861328125e+02,-2.342891216278076172e+00,7.562277984619140625e+01,3.135653114318847656e+01
5.643370151519775391e-01,1.000000000000000000e+00,-3.893023300170898438e+01,4.052989196777343750e+01,3.215457916259765625e+01,1.016194763183593750e+02,9.700865173339843750e+01,-5.376722812652587891e+00,4.031498432159423828e-01,-6.667343902587890625e+01,-1.826884307861328125e+02,-2.342891216278076172e+00,7.562277984619140625e+01,3.135653114318847656e+01
5.684909820556640625e-01,1.000000000000000000e+00,-3.897102355957031250e+01,4.044948577880859375e+01,3.217639160156250000e+01,1.015467834472656250e+02,9.702875518798828125e+01,-5.399034500122070312e+00,4.031498432159423828e-01,-6.667353820800781250e+01,-1.826883239746093750e+02,-2.342819452285766602e+00,7.562277984619140625e+01,3.135642242431640625e+01
5.712270140647888184e-01,1.000000000000000000e+00,-3.901215744018554688e+01,4.036883544921875000e+01,3.219824981689453125e+01,1.014743576049804688e+02,9.704965209960937500e+01,-5.420667648315429688e+00,4.031498432159423828e-01,-6.667353820800781250e+01,-1.826883239746093750e+02,-2.342819452285766602e+00,7.562270355224609375e+01,3.135653114318847656e+01
5.765699744224548340e-01,1.000000000000000000e+00,-3.905329895019531250e+01,4.028781890869140625e+01,3.222024917602539062e+01,1.014020919799804688e+02,9.707028961181640625e+01,-5.442640781402587891e+00,4.031498432159423828e-01,-6.667353820800781250e+01,-1.826883239746093750e+02,-2.342819452285766602e+00,7.562277984619140625e+01,3.135653114318847656e+01
5.792459845542907715e-01,1.000000000000000000e+00,-3.909412002563476562e+01,4.020650863647460938e+01,3.224249267578125000e+01,1.013295059204101562e+02,9.709075927734375000e+01,-5.464817047119140625e+00,4.031498432159423828e-01,-6.667343902587890625e+01,-1.826883239746093750e+02,-2.342819452285766602e+00,7.562277984619140625e+01,3.135653114318847656e+01
5.862969756126403809e-01,1.000000000000000000e+00,-3.917656707763671875e+01,4.004436874389648438e+01,3.228675460815429688e+01,1.011843338012695312e+02,9.712951660156250000e+01,-5.509778976440429688e+00,4.031498432159423828e-01,-6.667343902587890625e+01,-1.826883239746093750e+02,-2.342819452285766602e+00,7.562277984619140625e+01,3.135642242431640625e+01
5.888760089874267578e-01,1.000000000000000000e+00,-3.917656707763671875e+01,4.004436874389648438e+01,3.228675460815429688e+01,1.011843338012695312e+02,9.712951660156250000e+01,-5.509778976440429688e+00,4.031498432159423828e-01,-6.667343902587890625e+01,-1.826883239746093750e+02,-2.342819452285766602e+00,7.562277984619140625e+01,3.135642242431640625e+01
5.912619829177856445e-01,1.000000000000000000e+00,-3.921770095825195312e+01,3.996373748779296875e+01,3.230873489379882812e+01,1.011116485595703125e+02,9.714940643310546875e+01,-5.532158851623535156e+00,4.031498432159423828e-01,-6.667343902587890625e+01,-1.826884307861328125e+02,-2.342819452285766602e+00,7.562277984619140625e+01,3.135653114318847656e+01
5.952200293540954590e-01,1.000000000000000000e+00,-3.925898361206054688e+01,3.988337707519531250e+01,3.233069229125976562e+01,1.010389022827148438e+02,9.716960906982421875e+01,-5.555352210998535156e+00,4.031498432159423828e-01,-6.667343902587890625e+01,-1.826883239746093750e+02,-2.342819452285766602e+00,7.562277984619140625e+01,3.135653114318847656e+01
5.991870164871215820e-01,1.000000000000000000e+00,-3.930026245117187500e+01,3.980302047729492188e+01,3.235285568237304688e+01,1.009663696289062500e+02,9.719013977050781250e+01,-5.578477859497070312e+00,4.031498432159423828e-01,-6.667343902587890625e+01,-1.826883239746093750e+02,-2.342819452285766602e+00,7.562277984619140625e+01,3.135675048828125000e+01
6.032559871673583984e-01,1.000000000000000000e+00,-3.934168624877929688e+01,3.972236633300781250e+01,3.237485122680664062e+01,1.008935165405273438e+02,9.721120452880859375e+01,-5.600789546966552734e+00,4.031498432159423828e-01,-6.667353820800781250e+01,-1.826883239746093750e+02,-2.342819452285766602e+00,7.562270355224609375e+01,3.135653114318847656e+01
6.072099804878234863e-01,1.000000000000000000e+00,-3.938293457031250000e+01,3.964123535156250000e+01,3.239683151245117188e+01,1.008207778930664062e+02,9.723188018798828125e+01,-5.622490882873535156e+00,4.031498432159423828e-01,-6.667343902587890625e+01,-1.826883239746093750e+02,-2.342747688293457031e+00,7.562277984619140625e+01,3.135653114318847656e+01
6.111930012702941895e-01,1.000000000000000000e+00,-3.942416000366210938e+01,3.955999755859375000e+01,3.241887283325195312e+01,1.007475128173828125e+02,9.725156402587890625e+01,-5.644328117370605469e+00,4.031498432159423828e-01,-6.667343902587890625e+01,-1.826883239746093750e+02,-2.342819452285766602e+00,7.562270355224609375e+01,3.135653114318847656e+01
6.152799725532531738e-01,1.000000000000000000e+00,-3.946541595458984375e+01,3.947848510742187500e+01,3.244115447998046875e+01,1.006748733520507812e+02,9.727096557617187500e+01,-5.666775226593017578e+00,4.031498432159423828e-01,-6.667343902587890625e+01,-1.826883239746093750e+02,-2.342819452285766602e+00,7.562277984619140625e+01,3.135653114318847656e+01
6.191989779472351074e-01,1.000000000000000000e+00,-3.950677871704101562e+01,3.939690399169921875e+01,3.246337890625000000e+01,1.006014938354492188e+02,9.729048156738281250e+01,-5.689155101776123047e+00,4.031498432159423828e-01,-6.667343902587890625e+01,-1.826883239746093750e+02,-2.342819452285766602e+00,7.562270355224609375e+01,3.135653114318847656e+01
6.231870055198669434e-01,1.000000000000000000e+00,-3.954808807373046875e+01,3.931552505493164062e+01,3.248566055297851562e+01,1.005287551879882812e+02,9.731057739257812500e+01,-5.712077140808105469e+00,4.031498432159423828e-01,-6.667343902587890625e+01,-1.826883239746093750e+02,-2.342891216278076172e+00,7.562277984619140625e+01,3.135653114318847656e+01
6.272969841957092285e-01,1.000000000000000000e+00,-3.958945465087890625e+01,3.923435211181640625e+01,3.250770187377929688e+01,1.004556427001953125e+02,9.733094787597656250e+01,-5.735134601593017578e+00,4.031498432159423828e-01,-6.667343902587890625e+01,-1.826883239746093750e+02,-2.342819452285766602e+00,7.562277984619140625e+01,3.135653114318847656e+01
6.311950087547302246e-01,1.000000000000000000e+00,-3.963059234619140625e+01,3.915354156494140625e+01,3.252962112426757812e+01,1.003827438354492188e+02,9.735205841064453125e+01,-5.758396148681640625e+00,4.031498432159423828e-01,-6.667343902587890625e+01,-1.826883239746093750e+02,-2.342819452285766602e+00,7.562270355224609375e+01,3.135642242431640625e+01
6.384779810905456543e-01,1.000000000000000000e+00,-3.967195892333984375e+01,3.907245635986328125e+01,3.255169677734375000e+01,1.003091583251953125e+02,9.737301635742187500e+01,-5.780368804931640625e+00,4.031498432159423828e-01,-6.667343902587890625e+01,-1.826883239746093750e+02,-2.342819452285766602e+00,7.562270355224609375e+01,3.135642242431640625e+01
6.412519812583923340e-01,1.000000000000000000e+00,-3.971335220336914062e+01,3.899123764038085938e+01,3.257394027709960938e+01,1.002363586425781250e+02,9.739300537109375000e+01,-5.802340984344482422e+00,4.031498432159423828e-01,-6.667343902587890625e+01,-1.826883239746093750e+02,-2.342891216278076172e+00,7.562277984619140625e+01,3.135642242431640625e+01
6.431909799575805664e-01,1.000000000000000000e+00,-3.975466156005859375e+01,3.890988540649414062e+01,3.259608459472656250e+01,1.001628799438476562e+02,9.741252136230468750e+01,-5.824178218841552734e+00,4.031498432159423828e-01,-6.667343902587890625e+01,-1.826883239746093750e+02,-2.342819452285766602e+00,7.562270355224609375e+01,3.135653114318847656e+01
6.472809910774230957e-01,1.000000000000000000e+00,-3.979611587524414062e+01,3.882807922363281250e+01,3.261843109130859375e+01,1.000900268554687500e+02,9.743224334716796875e+01,-5.846489906311035156e+00,4.031498432159423828e-01,-6.667343902587890625e+01,-1.826883239746093750e+02,-2.342819452285766602e+00,7.562277984619140625e+01,3.135653114318847656e+01
6.513710021972656250e-01,1.000000000000000000e+00,-3.983753967285156250e+01,3.874586486816406250e+01,3.264060974121093750e+01,1.000161361694335938e+02,9.745251464843750000e+01,-5.869072914123535156e+00,4.031498432159423828e-01,-6.667343902587890625e+01,-1.826883239746093750e+02,-2.342747688293457031e+00,7.562277984619140625e+01,3.135653114318847656e+01
6.552069783210754395e-01,1.000000000000000000e+00,-3.987873458862304688e+01,3.866362380981445312e+01,3.266293334960937500e+01,9.994318389892578125e+01,9.747293090820312500e+01,-5.891859531402587891e+00,4.031498432159423828e-01,-6.667353820800781250e+01,-1.826883239746093750e+02,-2.342819452285766602e+00,7.562277984619140625e+01,3.135653114318847656e+01
6.612589955329895020e-01,1.000000000000000000e+00,-3.991998291015625000e+01,3.858163833618164062e+01,3.268527984619140625e+01,9.986917114257812500e+01,9.749409484863281250e+01,-5.914713859558105469e+00,4.031498432159423828e-01,-6.667343902587890625e+01,-1.826883239746093750e+02,-2.342891216278076172e+00,7.562277984619140625e+01,3.135642242431640625e+01
6.653689742088317871e-01,1.000000000000000000e+00,-3.996134948730468750e+01,3.849998855590820312e+01,3.270740127563476562e+01,9.979600524902343750e+01,9.751542663574218750e+01,-5.937839031219482422e+00,4.031498432159423828e-01,-6.667343902587890625e+01,-1.826883239746093750e+02,-2.342747688293457031e+00,7.562270355224609375e+01,3.135653114318847656e+01
6.671900153160095215e-01,1.000000000000000000e+00,-4.000277709960937500e+01,3.841863250732421875e+01,3.272960281372070312e+01,9.972231292724609375e+01,9.753568267822265625e+01,-5.960354328155517578e+00,4.031498432159423828e-01,-6.667353820800781250e+01,-1.826883239746093750e+02,-2.342891216278076172e+00,7.562270355224609375e+01,3.135653114318847656e+01
6.711859703063964844e-01,1.000000000000000000e+00,-4.004417037963867188e+01,3.833728027343750000e+01,3.275184249877929688e+01,9.964888763427734375e+01,9.755535125732421875e+01,-5.982462882995605469e+00,4.031498432159423828e-01,-6.667353820800781250e+01,-1.826881713867187500e+02,-2.342747688293457031e+00,7.562277984619140625e+01,3.135675048828125000e+01
6.752269864082336426e-01,1.000000000000000000e+00,-4.008547973632812500e+01,3.825567626953125000e+01,3.277431106567382812e+01,9.957492828369140625e+01,9.757492065429687500e+01,-6.004570960998535156e+00,4.031498432159423828e-01,-6.667343902587890625e+01,-1.826883239746093750e+02,-2.342819452285766602e+00,7.562277984619140625e+01,3.135675048828125000e+01
6.792529821395874023e-01,1.000000000000000000e+00,-4.012704849243164062e+01,3.817380142211914062e+01,3.279676055908203125e+01,9.950160980224609375e+01,9.759502410888671875e+01,-6.026950359344482422e+00,4.031498432159423828e-01,-6.667343902587890625e+01,-1.826883239746093750e+02,-2.342819452285766602e+00,7.562277984619140625e+01,3.135653114318847656e+01
6.831899881362915039e-01,1.000000000000000000e+00,-4.016849899291992188e+01,3.809183502197265625e+01,3.281898117065429688e+01,9.942791748046875000e+01,9.761565399169921875e+01,-6.049465656280517578e+00,4.031498432159423828e-01,-6.667343902587890625e+01,-1.826883239746093750e+02,-2.342747688293457031e+00,7.562277984619140625e+01,3.135675048828125000e+01
6.872609853744506836e-01,1.000000000000000000e+00,-4.020992660522460938e+01,3.800941467285156250e+01,3.284126281738281250e+01,9.935396575927734375e+01,9.763677215576171875e+01,-6.072184085845947266e+00,4.031498432159423828e-01,-6.667343902587890625e+01,-1.826883239746093750e+02,-2.342891216278076172e+00,7.562291717529296875e+01,3.135675048828125000e+01
6.912540197372436523e-01,1.000000000000000000e+00,-4.025154876708984375e+01,3.792686080932617188e+01,3.286350631713867188e+01,9.927995300292968750e+01,9.765814971923828125e+01,-6.095513343811035156e+00,4.031498432159423828e-01,-6.667343902587890625e+01,-1.826883239746093750e+02,-2.342819452285766602e+00,7.562270355224609375e+01,3.135675048828125000e+01
6.962109804153442383e-01,1.000000000000000000e+00,-4.029314422607421875e+01,3.784455871582031250e+01,3.288595581054687500e+01,9.920663452148437500e+01,9.767884063720703125e+01,-6.118435382843017578e+00,4.031498432159423828e-01,-6.667343902587890625e+01,-1.826883239746093750e+02,-2.342819452285766602e+00,7.562277984619140625e+01,3.135653114318847656e+01
6.992160081863403320e-01,1.000000000000000000e+00,-4.033479690551757812e+01,3.776252365112304688e+01,3.290858078002929688e+01,9.913278961181640625e+01,9.769856262207031250e+01,-6.141357421875000000e+00,4.031498432159423828e-01,-6.667353820800781250e+01,-1.826883239746093750e+02,-2.342819452285766602e+00,7.562277984619140625e+01,3.135653114318847656e+01
7.041990160942077637e-01,1.000000000000000000e+00,-4.033479690551757812e+01,3.776252365112304688e+01,3.290858078002929688e+01,9.913278961181640625e+01,9.769856262207031250e+01,-6.141357421875000000e+00,4.031498432159423828e-01,-6.667343902587890625e+01,-1.826883239746093750e+02,-2.342819452285766602e+00,7.562270355224609375e+01,3.135653114318847656e+01
7.075669765472412109e-01,1.000000000000000000e+00,-4.041836547851562500e+01,3.759888839721679688e+01,3.295317077636718750e+01,9.898440551757812500e+01,9.773870849609375000e+01,-6.185235023498535156e+00,4.031498432159423828e-01,-6.667353820800781250e+01,-1.826883239746093750e+02,-2.342819452285766602e+00,7.562277984619140625e+01,3.135642242431640625e+01
7.123680114746093750e-01,1.000000000000000000e+00,-4.046013259887695312e+01,3.751685333251953125e+01,3.297549438476562500e+01,9.891071319580078125e+01,9.775934600830078125e+01,-6.207818031311035156e+00,4.031498432159423828e-01,-6.667343902587890625e+01,-1.826883239746093750e+02,-2.342819452285766602e+00,7.562277984619140625e+01,3.135653114318847656e+01
7.153139710426330566e-01,1.000000000000000000e+00,-4.050172805786132812e+01,3.743466186523437500e+01,3.299798202514648438e+01,9.883665466308593750e+01,9.778045654296875000e+01,-6.230333328247070312e+00,4.031498432159423828e-01,-6.667343902587890625e+01,-1.826881713867187500e+02,-2.342819452285766602e+00,7.562277984619140625e+01,3.135642242431640625e+01
7.202410101890563965e-01,1.000000000000000000e+00,-4.050172805786132812e+01,3.743466186523437500e+01,3.299798202514648438e+01,9.883665466308593750e+01,9.778045654296875000e+01,-6.230333328247070312e+00,4.031498432159423828e-01,-6.667343902587890625e+01,-1.826883239746093750e+02,-2.342819452285766602e+00,7.562277984619140625e+01,3.135653114318847656e+01
7.231979966163635254e-01,1.000000000000000000e+00,-4.058558273315429688e+01,3.726919555664062500e+01,3.304301834106445312e+01,9.868832397460937500e+01,9.782267761230468750e+01,-6.276245117187500000e+00,4.031498432159423828e-01,-6.667343902587890625e+01,-1.826881713867187500e+02,-2.342819452285766602e+00,7.562277984619140625e+01,3.135653114318847656e+01
7.272980213165283203e-01,1.000000000000000000e+00,-4.058558273315429688e+01,3.726919555664062500e+01,3.304301834106445312e+01,9.868832397460937500e+01,9.782267761230468750e+01,-6.276245117187500000e+00,4.031498432159423828e-01,-6.667343902587890625e+01,-1.826881713867187500e+02,-2.342819452285766602e+00,7.562277984619140625e+01,3.135653114318847656e+01
7.338269948959350586e-01,1.000000000000000000e+00,-4.062760925292968750e+01,3.718614196777343750e+01,3.306529998779296875e+01,9.861416625976562500e+01,9.784256744384765625e+01,-6.299981117248535156e+00,4.031498432159423828e-01,-6.667353820800781250e+01,-1.826883239746093750e+02,-2.342747688293457031e+00,7.562277984619140625e+01,3.135653114318847656e+01
7.359949946403503418e-01,1.000000000000000000e+00,-4.071151733398437500e+01,3.702067184448242188e+01,3.311031723022460938e+01,9.846604156494140625e+01,9.788228607177734375e+01,-6.345418453216552734e+00,4.031498432159423828e-01,-6.667343902587890625e+01,-1.826883239746093750e+02,-2.342819452285766602e+00,7.562277984619140625e+01,3.135653114318847656e+01
7.392609715461730957e-01,1.000000000000000000e+00,-4.075357437133789062e+01,3.693852233886718750e+01,3.313300704956054688e+01,9.839171600341796875e+01,9.790281677246093750e+01,-6.367933750152587891e+00,4.031498432159423828e-01,-6.667343902587890625e+01,-1.826883239746093750e+02,-2.342819452285766602e+00,7.562270355224609375e+01,3.135653114318847656e+01
7.432510256767272949e-01,1.000000000000000000e+00,-4.075357437133789062e+01,3.693852233886718750e+01,3.313300704956054688e+01,9.839171600341796875e+01,9.790281677246093750e+01,-6.367933750152587891e+00,4.031498432159423828e-01,-6.667343902587890625e+01,-1.826883239746093750e+02,-2.342819452285766602e+00,7.562270355224609375e+01,3.135653114318847656e+01
7.472329735755920410e-01,1.000000000000000000e+00,-4.079562759399414062e+01,3.685637664794921875e+01,3.315553283691406250e+01,9.831744384765625000e+01,9.792382049560546875e+01,-6.390380859375000000e+00,4.031498432159423828e-01,-6.667353820800781250e+01,-1.826883239746093750e+02,-2.342819452285766602e+00,7.562270355224609375e+01,3.135653114318847656e+01
7.513350248336791992e-01,1.000000000000000000e+00,-4.083760070800781250e+01,3.677386856079101562e+01,3.317781448364257812e+01,9.824323272705078125e+01,9.794541931152343750e+01,-6.413438796997070312e+00,4.031498432159423828e-01,-6.667343902587890625e+01,-1.826883239746093750e+02,-2.342819452285766602e+00,7.562270355224609375e+01,3.135653114318847656e+01
7.552419900894165039e-01,1.000000000000000000e+00,-4.087976837158203125e+01,3.669104385375976562e+01,3.320013809204101562e+01,9.816885375976562500e+01,9.796615600585937500e+01,-6.436089515686035156e+00,4.031498432159423828e-01,-6.667353820800781250e+01,-1.826883239746093750e+02,-2.342747688293457031e+00,7.562270355224609375e+01,3.135653114318847656e+01
7.592480182647705078e-01,1.000000000000000000e+00,-4.092182540893554688e+01,3.660828399658203125e+01,3.322269058227539062e+01,9.809405517578125000e+01,9.798583221435546875e+01,-6.459418296813964844e+00,4.031498432159423828e-01,-6.667343902587890625e+01,-1.826883239746093750e+02,-2.342819452285766602e+00,7.562277984619140625e+01,3.135675048828125000e+01
7.633060216903686523e-01,1.000000000000000000e+00,-4.096402359008789062e+01,3.652507400512695312e+01,3.324541854858398438e+01,9.801941680908203125e+01,9.800603485107421875e+01,-6.483154773712158203e+00,4.031498432159423828e-01,-6.667353820800781250e+01,-1.826883239746093750e+02,-2.342819452285766602e+00,7.562277984619140625e+01,3.135675048828125000e+01
7.672320008277893066e-01,1.000000000000000000e+00,-4.100587844848632812e+01,3.644150543212890625e+01,3.326817321777343750e+01,9.794488525390625000e+01,9.802645874023437500e+01,-6.506890296936035156e+00,4.031498432159423828e-01,-6.667343902587890625e+01,-1.826883239746093750e+02,-2.342819452285766602e+00,7.562291717529296875e+01,3.135653114318847656e+01
7.712460160255432129e-01,1.000000000000000000e+00,-4.104796218872070312e+01,3.635829162597656250e+01,3.329079818725585938e+01,9.787061309814453125e+01,9.804714202880859375e+01,-6.528795242309570312e+00,4.031498432159423828e-01,-6.667343902587890625e+01,-1.826883239746093750e+02,-2.342819452285766602e+00,7.562270355224609375e+01,3.135653114318847656e+01
7.752969861030578613e-01,1.000000000000000000e+00,-4.108996200561523438e+01,3.627537918090820312e+01,3.331326675415039062e+01,9.779592132568359375e+01,9.806830596923828125e+01,-6.551310539245605469e+00,4.031498432159423828e-01,-6.667343902587890625e+01,-1.826883239746093750e+02,-2.342819452285766602e+00,7.562277984619140625e+01,3.135653114318847656e+01
7.793130278587341309e-01,1.000000000000000000e+00,-4.113201522827148438e+01,3.619275665283203125e+01,3.333601760864257812e+01,9.772122955322265625e+01,9.808995819091796875e+01,-6.574028968811035156e+00,4.031498432159423828e-01,-6.667343902587890625e+01,-1.826883239746093750e+02,-2.342819452285766602e+00,7.562277984619140625e+01,3.135653114318847656e+01
7.832750082015991211e-01,1.000000000000000000e+00,-4.117412948608398438e+01,3.610988616943359375e+01,3.335866928100585938e+01,9.764659118652343750e+01,9.811106872558593750e+01,-6.597357749938964844e+00,4.031498432159423828e-01,-6.667343902587890625e+01,-1.826881713867187500e+02,-2.342819452285766602e+00,7.562277984619140625e+01,3.135653114318847656e+01
7.872599959373474121e-01,1.000000000000000000e+00,-4.121632766723632812e+01,3.602712631225585938e+01,3.338125610351562500e+01,9.757173919677734375e+01,9.813101196289062500e+01,-6.620280265808105469e+00,4.031498432159423828e-01,-6.667343902587890625e+01,-1.826883239746093750e+02,-2.342819452285766602e+00,7.562277984619140625e+01,3.135653114318847656e+01
7.913140058517456055e-01,1.000000000000000000e+00,-4.125812530517578125e+01,3.594416427612304688e+01,3.340382766723632812e+01,9.749731445312500000e+01,9.815084075927734375e+01,-6.643948554992675781e+00,4.031498432159423828e-01,-6.667343902587890625e+01,-1.826883239746093750e+02,-2.342819452285766602e+00,7.562277984619140625e+01,3.135653114318847656e+01
7.952719926834106445e-01,1.000000000000000000e+00,-4.130000686645507812e+01,3.586070632934570312e+01,3.342637252807617188e+01,9.742235565185546875e+01,9.817105102539062500e+01,-6.667548179626464844e+00,4.031498432159423828e-01,-6.667343902587890625e+01,-1.826883239746093750e+02,-2.342819452285766602e+00,7.562277984619140625e+01,3.135653114318847656e+01
7.992370128631591797e-01,1.000000000000000000e+00,-4.134189224243164062e+01,3.577697372436523438e+01,3.344930648803710938e+01,9.734745788574218750e+01,9.819190216064453125e+01,-6.691216468811035156e+00,4.031498432159423828e-01,-6.667343902587890625e+01,-1.826881713867187500e+02,-2.342819452285766602e+00,7.562291717529296875e+01,3.135675048828125000e+01
8.033130168914794922e-01,1.000000000000000000e+00,-4.138406372070312500e+01,3.569313049316406250e+01,3.347217941284179688e+01,9.727202606201171875e+01,9.821327972412109375e+01,-6.714070796966552734e+00,4.031498432159423828e-01,-6.667343902587890625e+01,-1.826883239746093750e+02,-2.342819452285766602e+00,7.562277984619140625e+01,3.135653114318847656e+01
8.072440028190612793e-01,1.000000000000000000e+00,-4.142605972290039062e+01,3.560928726196289062e+01,3.349501419067382812e+01,9.719749450683593750e+01,9.823492431640625000e+01,-6.736585617065429688e+00,4.031498432159423828e-01,-6.667343902587890625e+01,-1.826883239746093750e+02,-2.342819452285766602e+00,7.562277984619140625e+01,3.135653114318847656e+01
8.112490177154541016e-01,1.000000000000000000e+00,-4.146802902221679688e+01,3.552591705322265625e+01,3.351756286621093750e+01,9.712206268310546875e+01,9.825576782226562500e+01,-6.759100914001464844e+00,4.031498432159423828e-01,-6.667343902587890625e+01,-1.826883239746093750e+02,-2.342891216278076172e+00,7.562277984619140625e+01,3.135653114318847656e+01
8.153079748153686523e-01,1.000000000000000000e+00,-4.150985336303710938e+01,3.544304656982421875e+01,3.354019165039062500e+01,9.704726409912109375e+01,9.827597808837890625e+01,-6.782158851623535156e+00,4.031498432159423828e-01,-6.667353820800781250e+01,-1.826883239746093750e+02,-2.342891216278076172e+00,7.562270355224609375e+01,3.135653114318847656e+01
8.192319869995117188e-01,1.000000000000000000e+00,-4.155187988281250000e+01,3.536001968383789062e+01,3.356300354003906250e+01,9.697204589843750000e+01,9.829607391357421875e+01,-6.805623531341552734e+00,4.031498432159423828e-01,-6.667343902587890625e+01,-1.826884307861328125e+02,-2.342819452285766602e+00,7.562277984619140625e+01,3.135653114318847656e+01
8.232349753379821777e-01,1.000000000000000000e+00,-4.159413909912109375e+01,3.527660751342773438e+01,3.358571243286132812e+01,9.689704132080078125e+01,9.831660461425781250e+01,-6.829359531402587891e+00,4.031498432159423828e-01,-6.667343902587890625e+01,-1.826883239746093750e+02,-2.342819452285766602e+00,7.562270355224609375e+01,3.135653114318847656e+01
8.273270130157470703e-01,1.000000000000000000e+00,-4.163613510131835938e+01,3.519296646118164062e+01,3.360862731933593750e+01,9.682160949707031250e+01,9.833744812011718750e+01,-6.853095054626464844e+00,4.031498432159423828e-01,-6.667353820800781250e+01,-1.826883239746093750e+02,-2.342819452285766602e+00,7.562277984619140625e+01,3.135653114318847656e+01
8.312450051307678223e-01,1.000000000000000000e+00,-4.167833328247070312e+01,3.510923385620117188e+01,3.363148117065429688e+01,9.674660491943359375e+01,9.835920715332031250e+01,-6.876627922058105469e+00,4.031498432159423828e-01,-6.667353820800781250e+01,-1.826883239746093750e+02,-2.342819452285766602e+00,7.562270355224609375e+01,3.135653114318847656e+01
8.352389931678771973e-01,1.000000000000000000e+00,-4.172053527832031250e+01,3.502491760253906250e+01,3.365423202514648438e+01,9.667127227783203125e+01,9.838111877441406250e+01,-6.899414062500000000e+00,4.031498432159423828e-01,-6.667343902587890625e+01,-1.826883239746093750e+02,-2.342819452285766602e+00,7.562277984619140625e+01,3.135653114318847656e+01
8.393639922142028809e-01,1.000000000000000000e+00,-4.176264572143554688e+01,3.494052886962890625e+01,3.367718887329101562e+01,9.659590148925781250e+01,9.840233612060546875e+01,-6.921861648559570312e+00,4.031498432159423828e-01,-6.667343902587890625e+01,-1.826883239746093750e+02,-2.342819452285766602e+00,7.562270355224609375e+01,3.135653114318847656e+01
8.432329893112182617e-01,1.000000000000000000e+00,-4.180513381958007812e+01,3.485647964477539062e+01,3.370007705688476562e+01,9.652021026611328125e+01,9.842270660400390625e+01,-6.944512367248535156e+00,4.031498432159423828e-01,-6.667343902587890625e+01,-1.826883239746093750e+02,-2.342819452285766602e+00,7.562270355224609375e+01,3.135653114318847656e+01
8.472520112991333008e-01,1.000000000000000000e+00,-4.184753036499023438e+01,3.477275085449218750e+01,3.372276687622070312e+01,9.644493865966796875e+01,9.844285583496093750e+01,-6.967841625213623047e+00,4.031498432159423828e-01,-6.667343902587890625e+01,-1.826883239746093750e+02,-2.342819452285766602e+00,7.562277984619140625e+01,3.135653114318847656e+01
8.516039848327636719e-01,1.000000000000000000e+00,-4.189004516601562500e+01,3.468904113769531250e+01,3.374549865722656250e+01,9.636930084228515625e+01,9.846348571777343750e+01,-6.991577148437500000e+00,4.031498432159423828e-01,-6.667343902587890625e+01,-1.826883239746093750e+02,-2.342747688293457031e+00,7.562270355224609375e+01,3.135642242431640625e+01
8.555039763450622559e-01,1.000000000000000000e+00,-4.193259048461914062e+01,3.460542297363281250e+01,3.376829147338867188e+01,9.629376220703125000e+01,9.848454284667968750e+01,-7.014567375183105469e+00,4.031498432159423828e-01,-6.667353820800781250e+01,-1.826881713867187500e+02,-2.342891216278076172e+00,7.562291717529296875e+01,3.135642242431640625e+01
8.594520092010498047e-01,1.000000000000000000e+00,-4.197518920898437500e+01,3.452156066894531250e+01,3.379120635986328125e+01,9.621823120117187500e+01,9.850652313232421875e+01,-7.038302898406982422e+00,4.031498432159423828e-01,-6.667343902587890625e+01,-1.826883239746093750e+02,-2.342819452285766602e+00,7.562277984619140625e+01,3.135653114318847656e+01
8.635119795799255371e-01,1.000000000000000000e+00,-4.201796340942382812e+01,3.443746566772460938e+01,3.381415939331054688e+01,9.614232635498046875e+01,9.852837371826171875e+01,-7.062174320220947266e+00,4.031498432159423828e-01,-6.667343902587890625e+01,-1.826883239746093750e+02,-2.342819452285766602e+00,7.562270355224609375e+01,3.135653114318847656e+01
8.673059940338134766e-01,1.000000000000000000e+00,-4.206079864501953125e+01,3.435292053222656250e+01,3.383699417114257812e+01,9.606663513183593750e+01,9.854959869384765625e+01,-7.085096836090087891e+00,4.031498432159423828e-01,-6.667353820800781250e+01,-1.826883239746093750e+02,-2.342819452285766602e+00,7.562277984619140625e+01,3.135653114318847656e+01
8.714730143547058105e-01,1.000000000000000000e+00,-4.210359954833984375e+01,3.426816940307617188e+01,3.385976409912109375e+01,9.599104309082031250e+01,9.857012176513671875e+01,-7.107476234436035156e+00,4.031498432159423828e-01,-6.667353820800781250e+01,-1.826883239746093750e+02,-2.342819452285766602e+00,7.562270355224609375e+01,3.135653114318847656e+01
8.752350211143493652e-01,1.000000000000000000e+00,-4.214645767211914062e+01,3.418353652954101562e+01,3.388267898559570312e+01,9.591514587402343750e+01,9.859059906005859375e+01,-7.130262374877929688e+00,4.031498432159423828e-01,-6.667343902587890625e+01,-1.826883239746093750e+02,-2.342819452285766602e+00,7.562277984619140625e+01,3.135653114318847656e+01
8.800100088119506836e-01,1.000000000000000000e+00,-4.218937301635742188e+01,3.409894561767578125e+01,3.390569305419921875e+01,9.583902740478515625e+01,9.861149597167968750e+01,-7.153523921966552734e+00,4.031498432159423828e-01,-6.667343902587890625e+01,-1.826883239746093750e+02,-2.342891216278076172e+00,7.562277984619140625e+01,3.135653114318847656e+01
8.832359910011291504e-01,1.000000000000000000e+00,-4.223243331909179688e+01,3.401464462280273438e+01,3.392868804931640625e+01,9.576349639892578125e+01,9.863288116455078125e+01,-7.177056312561035156e+00,4.031498432159423828e-01,-6.667343902587890625e+01,-1.826883239746093750e+02,-2.342819452285766602e+00,7.562277984619140625e+01,3.135653114318847656e+01
8.877480030059814453e-01,1.000000000000000000e+00,-4.227546691894531250e+01,3.393096160888671875e+01,3.395170593261718750e+01,9.568748474121093750e+01,9.865462493896484375e+01,-7.200995922088623047e+00,4.031498432159423828e-01,-6.667343902587890625e+01,-1.826883239746093750e+02,-2.342819452285766602e+00,7.562270355224609375e+01,3.135642242431640625e+01
8.922410011291503906e-01,1.000000000000000000e+00,-4.231866836547851562e+01,3.384709548950195312e+01,3.397460174560546875e+01,9.561152648925781250e+01,9.867664337158203125e+01,-7.224596023559570312e+00,4.031498432159423828e-01,-6.667343902587890625e+01,-1.826883239746093750e+02,-2.342819452285766602e+00,7.562270355224609375e+01,3.135675048828125000e+01
8.954470157623291016e-01,1.000000000000000000e+00,-4.236167144775390625e+01,3.376286697387695312e+01,3.399769592285156250e+01,9.553520202636718750e+01,9.869786834716796875e+01,-7.248128414154052734e+00,4.031498432159423828e-01,-6.667343902587890625e+01,-1.826883239746093750e+02,-2.342819452285766602e+00,7.562270355224609375e+01,3.135653114318847656e+01
8.992660045623779297e-01,1.000000000000000000e+00,-4.240481567382812500e+01,3.367823410034179688e+01,3.402077484130859375e+01,9.545941162109375000e+01,9.871829223632812500e+01,-7.271254062652587891e+00,4.031498432159423828e-01,-6.667343902587890625e+01,-1.826883239746093750e+02,-2.342891216278076172e+00,7.562270355224609375e+01,3.135653114318847656e+01
9.040499925613403320e-01,1.000000000000000000e+00,-4.244790649414062500e+01,3.359359741210937500e+01,3.404362869262695312e+01,9.538334655761718750e+01,9.873854827880859375e+01,-7.293565273284912109e+00,4.031498432159423828e-01,-6.667343902587890625e+01,-1.826883239746093750e+02,-2.342819452285766602e+00,7.562277984619140625e+01,3.135653114318847656e+01
9.073240160942077637e-01,1.000000000000000000e+00,-4.249102401733398438e+01,3.350862121582031250e+01,3.406670379638671875e+01,9.530707550048828125e+01,9.875923919677734375e+01,-7.316826343536376953e+00,4.031498432159423828e-01,-6.667343902587890625e+01,-1.826883239746093750e+02,-2.342819452285766602e+00,7.562277984619140625e+01,3.135653114318847656e+01
9.121699929237365723e-01,1.000000000000000000e+00,-4.253411102294921875e+01,3.342346191406250000e+01,3.408985900878906250e+01,9.523074340820312500e+01,9.878088378906250000e+01,-7.340020179748535156e+00,4.031498432159423828e-01,-6.667343902587890625e+01,-1.826883239746093750e+02,-2.342819452285766602e+00,7.562277984619140625e+01,3.135653114318847656e+01
9.154800176620483398e-01,1.000000000000000000e+00,-4.257723236083984375e+01,3.333880615234375000e+01,3.411318206787109375e+01,9.515464019775390625e+01,9.880300140380859375e+01,-7.363484382629394531e+00,4.031498432159423828e-01,-6.667343902587890625e+01,-1.826883239746093750e+02,-2.342819452285766602e+00,7.562277984619140625e+01,3.135653114318847656e+01
9.194520115852355957e-01,1.000000000000000000e+00,-4.262040328979492188e+01,3.325441741943359375e+01,3.413637924194335938e+01,9.507868194580078125e+01,9.882476043701171875e+01,-7.387017250061035156e+00,4.031498432159423828e-01,-6.667343902587890625e+01,-1.826883239746093750e+02,-2.342819452285766602e+00,7.562270355224609375e+01,3.135642242431640625e+01
9.233340024948120117e-01,1.000000000000000000e+00,-4.266349792480468750e+01,3.316994094848632812e+01,3.415933227539062500e+01,9.500209045410156250e+01,9.884582519531250000e+01,-7.411363124847412109e+00,4.031498432159423828e-01,-6.667343902587890625e+01,-1.826883239746093750e+02,-2.342819452285766602e+00,7.562270355224609375e+01,3.135653114318847656e+01
9.280700087547302246e-01,1.000000000000000000e+00,-4.270629882812500000e+01,3.308544158935546875e+01,3.418227005004882812e+01,9.492587280273437500e+01,9.886618041992187500e+01,-7.434964179992675781e+00,4.031498432159423828e-01,-6.667343902587890625e+01,-1.826883239746093750e+02,-2.342819452285766602e+00,7.562277984619140625e+01,3.135653114318847656e+01
9.315350055694580078e-01,1.000000000000000000e+00,-4.274964523315429688e+01,3.300062179565429688e+01,3.420528411865234375e+01,9.484918212890625000e+01,9.888687133789062500e+01,-7.458157062530517578e+00,4.031498432159423828e-01,-6.667343902587890625e+01,-1.826883239746093750e+02,-2.342819452285766602e+00,7.562277984619140625e+01,3.135653114318847656e+01
9.361829757690429688e-01,1.000000000000000000e+00,-4.279279327392578125e+01,3.291539764404296875e+01,3.422862625122070312e+01,9.477327728271484375e+01,9.890820312500000000e+01,-7.480943202972412109e+00,4.031498432159423828e-01,-6.667334747314453125e+01,-1.826884307861328125e+02,-2.342819452285766602e+00,7.562270355224609375e+01,3.135653114318847656e+01
9.394400119781494141e-01,1.000000000000000000e+00,-4.283590698242187500e+01,3.282992553710937500e+01,3.425180435180664062e+01,9.469637298583984375e+01,9.892963409423828125e+01,-7.504001140594482422e+00,4.031498432159423828e-01,-6.667353820800781250e+01,-1.826883239746093750e+02,-2.342891216278076172e+00,7.562270355224609375e+01,3.135653114318847656e+01
9.436020255088806152e-01,1.000000000000000000e+00,-4.287888336181640625e+01,3.274400329589843750e+01,3.427504348754882812e+01,9.461983489990234375e+01,9.895186614990234375e+01,-7.527601718902587891e+00,4.031498432159423828e-01,-6.667343902587890625e+01,-1.826881713867187500e+02,-2.342747688293457031e+00,7.562277984619140625e+01,3.135653114318847656e+01
9.474570155143737793e-01,1.000000000000000000e+00,-4.292176818847656250e+01,3.265830230712890625e+01,3.429825973510742188e+01,9.454298400878906250e+01,9.897389221191406250e+01,-7.551676750183105469e+00,4.031498432159423828e-01,-6.667343902587890625e+01,-1.826883239746093750e+02,-2.342819452285766602e+00,7.562277984619140625e+01,3.135642242431640625e+01
9.516749978065490723e-01,1.000000000000000000e+00,-4.296503067016601562e+01,3.257282638549804688e+01,3.432139968872070312e+01,9.446665954589843750e+01,9.899494934082031250e+01,-7.575615406036376953e+00,4.031498432159423828e-01,-6.667343902587890625e+01,-1.826883239746093750e+02,-2.342747688293457031e+00,7.562277984619140625e+01,3.135653114318847656e+01
9.556270241737365723e-01,1.000000000000000000e+00,-4.300817871093750000e+01,3.248778533935546875e+01,3.434479904174804688e+01,9.439007568359375000e+01,9.901504516601562500e+01,-7.599758625030517578e+00,4.031498432159423828e-01,-6.667343902587890625e+01,-1.826883239746093750e+02,-2.342819452285766602e+00,7.562277984619140625e+01,3.135653114318847656e+01
9.603880047798156738e-01,1.000000000000000000e+00,-4.305126571655273438e+01,3.240301132202148438e+01,3.436800003051757812e+01,9.431364440917968750e+01,9.903572845458984375e+01,-7.623291015625000000e+00,4.031498432159423828e-01,-6.667343902587890625e+01,-1.826881713867187500e+02,-2.342819452285766602e+00,7.562270355224609375e+01,3.135653114318847656e+01
9.638569951057434082e-01,1.000000000000000000e+00,-4.309438705444335938e+01,3.231792449951171875e+01,3.439095306396484375e+01,9.423667907714843750e+01,9.905673980712890625e+01,-7.646280765533447266e+00,4.031498432159423828e-01,-6.667353820800781250e+01,-1.826883239746093750e+02,-2.342819452285766602e+00,7.562270355224609375e+01,3.135653114318847656e+01
9.684000015258789062e-01,1.000000000000000000e+00,-4.313747406005859375e+01,3.223240661621093750e+01,3.441399002075195312e+01,9.415967559814453125e+01,9.907870483398437500e+01,-7.669270992279052734e+00,4.031498432159423828e-01,-6.667343902587890625e+01,-1.826883239746093750e+02,-2.342819452285766602e+00,7.562270355224609375e+01,3.135653114318847656e+01
9.717630147933959961e-01,1.000000000000000000e+00,-4.318073272705078125e+01,3.214675140380859375e+01,3.443737030029296875e+01,9.408282470703125000e+01,9.910099029541015625e+01,-7.692871093750000000e+00,4.031498432159423828e-01,-6.667343902587890625e+01,-1.826883239746093750e+02,-2.342819452285766602e+00,7.562270355224609375e+01,3.135653114318847656e+01
9.768270254135131836e-01,1.000000000000000000e+00,-4.322388076782226562e+01,3.206073379516601562e+01,3.446085739135742188e+01,9.400597381591796875e+01,9.912274932861328125e+01,-7.716675281524658203e+00,4.031498432159423828e-01,-6.667353820800781250e+01,-1.826883239746093750e+02,-2.342819452285766602e+00,7.562277984619140625e+01,3.135653114318847656e+01
9.802359938621520996e-01,1.000000000000000000e+00,-4.326720046997070312e+01,3.197438049316406250e+01,3.448427581787109375e+01,9.392916870117187500e+01,9.914364624023437500e+01,-7.740682601928710938e+00,4.031498432159423828e-01,-6.667343902587890625e+01,-1.826883239746093750e+02,-2.342819452285766602e+00,7.562277984619140625e+01,3.135653114318847656e+01
9.846090078353881836e-01,1.000000000000000000e+00,-4.331046295166015625e+01,3.188847732543945312e+01,3.450745391845703125e+01,9.385184478759765625e+01,9.916406250000000000e+01,-7.764893054962158203e+00,4.031498432159423828e-01,-6.667343902587890625e+01,-1.826883239746093750e+02,-2.342819452285766602e+00,7.562277984619140625e+01,3.135653114318847656e+01
9.883189797401428223e-01,1.000000000000000000e+00,-4.335380554199218750e+01,3.180291175842285156e+01,3.453052902221679688e+01,9.377520751953125000e+01,9.918495941162109375e+01,-7.789170742034912109e+00,4.031498432159423828e-01,-6.667343902587890625e+01,-1.826883239746093750e+02,-2.342819452285766602e+00,7.562277984619140625e+01,3.135653114318847656e+01
9.919319748878479004e-01,1.000000000000000000e+00,-4.339735412597656250e+01,3.171755218505859375e+01,3.455391311645507812e+01,9.369757080078125000e+01,9.920645141601562500e+01,-7.813246250152587891e+00,4.031498432159423828e-01,-6.667343902587890625e+01,-1.826883239746093750e+02,-2.342891216278076172e+00,7.562277984619140625e+01,3.135653114318847656e+01
9.958860278129577637e-01,1.000000000000000000e+00,-4.344096374511718750e+01,3.163219070434570312e+01,3.457743835449218750e+01,9.362055969238281250e+01,9.922863006591796875e+01,-7.836507320404052734e+00,4.031498432159423828e-01,-6.667343902587890625e+01,-1.826883239746093750e+02,-2.342819452285766602e+00,7.562270355224609375e+01,3.135653114318847656e+01
1.001011967658996582e+00,1.000000000000000000e+00,-4.348456573486328125e+01,3.154674148559570312e+01,3.460084152221679688e+01,9.354323577880859375e+01,9.925112915039062500e+01,-7.859700202941894531e+00,4.031498432159423828e-01,-6.667343902587890625e+01,-1.826883239746093750e+02,-2.342819452285766602e+00,7.562270355224609375e+01,3.135653114318847656e+01
1.004117012023925781e+00,1.000000000000000000e+00,-4.352834701538085938e+01,3.146093177795410156e+01,3.462419891357421875e+01,9.346637725830078125e+01,9.927310180664062500e+01,-7.883301258087158203e+00,4.031498432159423828e-01,-6.667343902587890625e+01,-1.826883239746093750e+02,-2.342891216278076172e+00,7.562291717529296875e+01,3.135653114318847656e+01
1.008681058883666992e+00,1.000000000000000000e+00,-4.357186508178710938e+01,3.137482261657714844e+01,3.464746093750000000e+01,9.338874053955078125e+01,9.929389190673828125e+01,-7.906968593597412109e+00,4.031498432159423828e-01,-6.667343902587890625e+01,-1.826883239746093750e+02,-2.342819452285766602e+00,7.562270355224609375e+01,3.135653114318847656e+01
1.012351989746093750e+00,1.000000000000000000e+00,-4.361549758911132812e+01,3.128826332092285156e+01,3.467100524902343750e+01,9.331172943115234375e+01,9.931452178955078125e+01,-7.931111812591552734e+00,4.031498432159423828e-01,-6.667353820800781250e+01,-1.826883239746093750e+02,-2.342891216278076172e+00,7.562277984619140625e+01,3.135675048828125000e+01
1.016216039657592773e+00,1.000000000000000000e+00,-4.365927505493164062e+01,3.120170402526855469e+01,3.469448471069335938e+01,9.323403930664062500e+01,9.933537292480468750e+01,-7.955661773681640625e+00,4.031498432159423828e-01,-6.667353820800781250e+01,-1.826883239746093750e+02,-2.342819452285766602e+00,7.562277984619140625e+01,3.135675048828125000e+01
1.020038962364196777e+00,1.000000000000000000e+00,-4.370319747924804688e+01,3.111537170410156250e+01,3.471792984008789062e+01,9.315686798095703125e+01,9.935701751708984375e+01,-7.980008125305175781e+00,4.031498432159423828e-01,-6.667343902587890625e+01,-1.826883239746093750e+02,-2.342891216278076172e+00,7.562270355224609375e+01,3.135653114318847656e+01
1.023995041847229004e+00,1.000000000000000000e+00,-4.374709320068359375e+01,3.102928733825683594e+01,3.474135208129882812e+01,9.307880401611328125e+01,9.937908935546875000e+01,-8.003607749938964844e+00,4.031498432159423828e-01,-6.667343902587890625e+01,-1.826883239746093750e+02,-2.342819452285766602e+00,7.562270355224609375e+01,3.135653114318847656e+01
1.028339982032775879e+00,1.000000000000000000e+00,-4.379101562500000000e+01,3.094376945495605469e+01,3.476471328735351562e+01,9.300137329101562500e+01,9.940158843994140625e+01,-8.026802062988281250e+00,4.031498432159423828e-01,-6.667343902587890625e+01,-1.826883239746093750e+02,-2.342819452285766602e+00,7.562277984619140625e+01,3.135642242431640625e+01
1.033043026924133301e+00,1.000000000000000000e+00,-4.383496093750000000e+01,3.085781860351562500e+01,3.478833770751953125e+01,9.292362213134765625e+01,9.942344665527343750e+01,-8.050198554992675781e+00,4.031498432159423828e-01,-6.667343902587890625e+01,-1.826883239746093750e+02,-2.342819452285766602e+00,7.562277984619140625e+01,3.135642242431640625e+01
1.036219000816345215e+00,1.000000000000000000e+00,-4.387891006469726562e+01,3.077171325683593750e+01,3.481198501586914062e+01,9.284635162353515625e+01,9.944424438476562500e+01,-8.073865890502929688e+00,4.031498432159423828e-01,-6.667343902587890625e+01,-1.826883239746093750e+02,-2.342819452285766602e+00,7.562277984619140625e+01,3.135653114318847656e+01
1.040349006652832031e+00,1.000000000000000000e+00,-4.392286300659179688e+01,3.068533515930175781e+01,3.483548736572265625e+01,9.276855468750000000e+01,9.946503448486328125e+01,-8.097737312316894531e+00,4.031498432159423828e-01,-6.667343902587890625e+01,-1.826883239746093750e+02,-2.342819452285766602e+00,7.562291717529296875e+01,3.135653114318847656e+01
1.044312953948974609e+00,1.000000000000000000e+00,-4.396686935424804688e+01,3.059859275817871094e+01,3.485885238647460938e+01,9.269039154052734375e+01,9.948625183105468750e+01,-8.122083663940429688e+00,4.031498432159423828e-01,-6.667343902587890625e+01,-1.826883239746093750e+02,-2.342891216278076172e+00,7.562270355224609375e+01,3.135653114318847656e+01
1.049085974693298340e+00,1.000000000000000000e+00,-4.401093673706054688e+01,3.051142120361328125e+01,3.488233184814453125e+01,9.261258697509765625e+01,9.950816345214843750e+01,-8.146497726440429688e+00,4.031498432159423828e-01,-6.667343902587890625e+01,-1.826883239746093750e+02,-2.342891216278076172e+00,7.562277984619140625e+01,3.135642242431640625e+01
1.052499055862426758e+00,1.000000000000000000e+00,-4.405482864379882812e+01,3.042427635192871094e+01,3.490615844726562500e+01,9.253473663330078125e+01,9.953066253662109375e+01,-8.170911788940429688e+00,4.031498432159423828e-01,-6.667343902587890625e+01,-1.826883239746093750e+02,-2.342747688293457031e+00,7.562277984619140625e+01,3.135642242431640625e+01
1.057168960571289062e+00,1.000000000000000000e+00,-4.409863662719726562e+01,3.033753585815429688e+01,3.492982864379882812e+01,9.245703887939453125e+01,9.955337524414062500e+01,-8.194308280944824219e+00,4.031498432159423828e-01,-6.667343902587890625e+01,-1.826881713867187500e+02,-2.342819452285766602e+00,7.562277984619140625e+01,3.135642242431640625e+01
1.060528993606567383e+00,1.000000000000000000e+00,-4.414249801635742188e+01,3.025108909606933594e+01,3.495349502563476562e+01,9.237882232666015625e+01,9.957476043701171875e+01,-8.217638015747070312e+00,4.031498432159423828e-01,-6.667343902587890625e+01,-1.826883239746093750e+02,-2.342891216278076172e+00,7.562277984619140625e+01,3.135653114318847656e+01
1.064332962036132812e+00,1.000000000000000000e+00,-4.418650436401367188e+01,3.016480064392089844e+01,3.497703552246093750e+01,9.230112457275390625e+01,9.959566497802734375e+01,-8.241237640380859375e+00,4.031498432159423828e-01,-6.667353820800781250e+01,-1.826883239746093750e+02,-2.342747688293457031e+00,7.562277984619140625e+01,3.135675048828125000e+01
1.067173004150390625e+00,1.000000000000000000e+00,-4.423045730590820312e+01,3.007858276367187500e+01,3.500052261352539062e+01,9.222327423095703125e+01,9.961650848388671875e+01,-8.264973640441894531e+00,4.031498432159423828e-01,-6.667353820800781250e+01,-1.826883239746093750e+02,-2.342819452285766602e+00,7.562277984619140625e+01,3.135675048828125000e+01
1.073065996170043945e+00,1.000000000000000000e+00,-4.427417755126953125e+01,2.999199867248535156e+01,3.502420806884765625e+01,9.214483642578125000e+01,9.963783264160156250e+01,-8.289319992065429688e+00,4.031498432159423828e-01,-6.667343902587890625e+01,-1.826883239746093750e+02,-2.342819452285766602e+00,7.562277984619140625e+01,3.135675048828125000e+01
1.075175046920776367e+00,1.000000000000000000e+00,-4.431804275512695312e+01,2.990466880798339844e+01,3.504779434204101562e+01,9.206640625000000000e+01,9.965979766845703125e+01,-8.313666343688964844e+00,4.031498432159423828e-01,-6.667343902587890625e+01,-1.826883239746093750e+02,-2.342819452285766602e+00,7.562277984619140625e+01,3.135653114318847656e+01
1.079213976860046387e+00,1.000000000000000000e+00,-4.436190414428710938e+01,2.981718063354492188e+01,3.507135772705078125e+01,9.198834991455078125e+01,9.968208312988281250e+01,-8.337944984436035156e+00,4.031498432159423828e-01,-6.667353820800781250e+01,-1.826883239746093750e+02,-2.342747688293457031e+00,7.562270355224609375e+01,3.135675048828125000e+01
1.083179950714111328e+00,1.000000000000000000e+00,-4.440574264526367188e+01,2.972955894470214844e+01,3.509502410888671875e+01,9.191054534912109375e+01,9.970452880859375000e+01,-8.362359046936035156e+00,4.031498432159423828e-01,-6.667343902587890625e+01,-1.826883239746093750e+02,-2.342819452285766602e+00,7.562277984619140625e+01,3.135675048828125000e+01
1.087237954139709473e+00,1.000000000000000000e+00,-4.444954681396484375e+01,2.964218521118164062e+01,3.511877059936523438e+01,9.183195495605468750e+01,9.972586059570312500e+01,-8.386027336120605469e+00,4.031498432159423828e-01,-6.667343902587890625e+01,-1.826883239746093750e+02,-2.342819452285766602e+00,7.562277984619140625e+01,3.135675048828125000e+01
1.091179966926574707e+00,1.000000000000000000e+00,-4.449344253540039062e+01,2.955517578125000000e+01,3.514264297485351562e+01,9.175362396240234375e+01,9.974686431884765625e+01,-8.409356117248535156e+00,4.030399620532989502e-01,-6.667353820800781250e+01,-1.826883239746093750e+02,-2.342819452285766602e+00,7.562291717529296875e+01,3.135675048828125000e+01
1.095170974731445312e+00,1.000000000000000000e+00,-4.453733062744140625e+01,2.946863555908203125e+01,3.516630935668945312e+01,9.167498779296875000e+01,9.976813507080078125e+01,-8.433092117309570312e+00,4.031498432159423828e-01,-6.667353820800781250e+01,-1.826883239746093750e+02,-2.342819452285766602e+00,7.562270355224609375e+01,3.135653114318847656e+01
1.099187016487121582e+00,1.000000000000000000e+00,-4.458108139038085938e+01,2.938223457336425781e+01,3.518981170654296875e+01,9.159719085693359375e+01,9.978967285156250000e+01,-8.456963539123535156e+00,4.031498432159423828e-01,-6.667353820800781250e+01,-1.826884307861328125e+02,-2.342819452285766602e+00,7.562277984619140625e+01,3.135675048828125000e+01
1.103247046470642090e+00,1.000000000000000000e+00,-4.462488937377929688e+01,2.929529380798339844e+01,3.521347808837890625e+01,9.151833343505859375e+01,9.981207275390625000e+01,-8.481038093566894531e+00,4.031498432159423828e-01,-6.667343902587890625e+01,-1.826883239746093750e+02,-2.342747688293457031e+00,7.562277984619140625e+01,3.135653114318847656e+01
1.107174038887023926e+00,1.000000000000000000e+00,-4.466880798339843750e+01,2.920816802978515625e+01,3.523720169067382812e+01,9.144017028808593750e+01,9.983467864990234375e+01,-8.505927085876464844e+00,4.031498432159423828e-01,-6.667343902587890625e+01,-1.826883239746093750e+02,-2.342819452285766602e+00,7.562277984619140625e+01,3.135675048828125000e+01
1.111304044723510742e+00,1.000000000000000000e+00,-4.471276092529296875e+01,2.912076759338378906e+01,3.526105499267578125e+01,9.136168670654296875e+01,9.985685729980468750e+01,-8.530341148376464844e+00,4.031498432159423828e-01,-6.667343902587890625e+01,-1.826883239746093750e+02,-2.342891216278076172e+00,7.562270355224609375e+01,3.135653114318847656e+01
1.115303993225097656e+00,1.000000000000000000e+00,-4.475662612915039062e+01,2.903264808654785156e+01,3.528502273559570312e+01,9.128304290771484375e+01,9.987818145751953125e+01,-8.554619789123535156e+00,4.031498432159423828e-01,-6.667343902587890625e+01,-1.826883239746093750e+02,-2.342819452285766602e+00,7.562291717529296875e+01,3.135653114318847656e+01
