rpiRobotics/ARM-21-02-F-19-Robot-Motion-Program/data_performance_abb/curve_2/curve_pose_opt2/100L/curve_exe_v343.75_z10.csv
# timestamp,cmd_num,J1,J2,J3,J4,J5,J6
0.000000000000000000e+00,-1.000000000000000000e+00,7.736404895782470703e+00,-1.011599540710449219e+01,2.640931367874145508e+00,-2.074215087890625000e+02,-1.019231643676757812e+02,-1.806663665771484375e+02,1.166222991943359375e+02,8.770228385925292969e+00,3.480780029296875000e+01,-1.537292938232421875e+02,6.622257232666015625e+01,1.191414108276367188e+02
4.000000189989805222e-03,1.000000000000000000e+00,7.736404895782470703e+00,-1.011599540710449219e+01,2.640931367874145508e+00,-2.074215087890625000e+02,-1.019231643676757812e+02,-1.806663665771484375e+02,1.166222991943359375e+02,8.770228385925292969e+00,3.480780029296875000e+01,-1.537292938232421875e+02,6.622257232666015625e+01,1.191414108276367188e+02
6.000000052154064178e-03,1.000000000000000000e+00,7.736404895782470703e+00,-1.011599540710449219e+01,2.640931367874145508e+00,-2.074215087890625000e+02,-1.019231643676757812e+02,-1.806663665771484375e+02,1.166222991943359375e+02,8.770228385925292969e+00,3.480780029296875000e+01,-1.537292938232421875e+02,6.622257232666015625e+01,1.191414108276367188e+02
9.999999776482582092e-03,1.000000000000000000e+00,7.736404895782470703e+00,-1.011599540710449219e+01,2.640931367874145508e+00,-2.074215087890625000e+02,-1.019231643676757812e+02,-1.806663665771484375e+02,1.166222991943359375e+02,8.770228385925292969e+00,3.480780029296875000e+01,-1.537292938232421875e+02,6.622257232666015625e+01,1.191414108276367188e+02
1.200000010430812836e-02,1.000000000000000000e+00,7.736404895782470703e+00,-1.011599540710449219e+01,2.640931367874145508e+00,-2.074215087890625000e+02,-1.019231643676757812e+02,-1.806663665771484375e+02,1.166222991943359375e+02,8.770228385925292969e+00,3.480780029296875000e+01,-1.537292938232421875e+02,6.622257232666015625e+01,1.191414108276367188e+02
1.600000075995922089e-02,1.000000000000000000e+00,7.736404895782470703e+00,-1.011599540710449219e+01,2.640931367874145508e+00,-2.074215087890625000e+02,-1.019231643676757812e+02,-1.806663665771484375e+02,1.166222991943359375e+02,8.770228385925292969e+00,3.480780029296875000e+01,-1.537292938232421875e+02,6.622257232666015625e+01,1.191414108276367188e+02
1.999999955296516418e-02,1.000000000000000000e+00,7.736404895782470703e+00,-1.011599540710449219e+01,2.640931367874145508e+00,-2.074215087890625000e+02,-1.019231643676757812e+02,-1.806663665771484375e+02,1.166222991943359375e+02,8.770228385925292969e+00,3.480780029296875000e+01,-1.537292938232421875e+02,6.622257232666015625e+01,1.191414108276367188e+02
2.400000020861625671e-02,1.000000000000000000e+00,7.736404895782470703e+00,-1.011599540710449219e+01,2.640931367874145508e+00,-2.074215087890625000e+02,-1.019231643676757812e+02,-1.806663665771484375e+02,1.166222991943359375e+02,8.770228385925292969e+00,3.480780029296875000e+01,-1.537292938232421875e+02,6.622257232666015625e+01,1.191414108276367188e+02
2.800000086426734924e-02,1.000000000000000000e+00,7.736404895782470703e+00,-1.011599540710449219e+01,2.640931367874145508e+00,-2.074215087890625000e+02,-1.019231643676757812e+02,-1.806663665771484375e+02,1.166222991943359375e+02,8.770228385925292969e+00,3.480780029296875000e+01,-1.537292938232421875e+02,6.622257232666015625e+01,1.191414108276367188e+02
3.200000151991844177e-02,1.000000000000000000e+00,7.736404895782470703e+00,-1.011599540710449219e+01,2.640931367874145508e+00,-2.074215087890625000e+02,-1.019231643676757812e+02,-1.806663665771484375e+02,1.166222991943359375e+02,8.770228385925292969e+00,3.480780029296875000e+01,-1.537292938232421875e+02,6.622257232666015625e+01,1.191414108276367188e+02
3.599999845027923584e-02,1.000000000000000000e+00,7.736404895782470703e+00,-1.011599540710449219e+01,2.640931367874145508e+00,-2.074215087890625000e+02,-1.019231643676757812e+02,-1.806663665771484375e+02,1.166222991943359375e+02,8.770228385925292969e+00,3.480780029296875000e+01,-1.537292938232421875e+02,6.622257232666015625e+01,1.191414108276367188e+02
3.999999910593032837e-02,1.000000000000000000e+00,7.736404895782470703e+00,-1.011599540710449219e+01,2.640931367874145508e+00,-2.074215087890625000e+02,-1.019231643676757812e+02,-1.806663665771484375e+02,1.166222991943359375e+02,8.770228385925292969e+00,3.480780029296875000e+01,-1.537292938232421875e+02,6.622257232666015625e+01,1.191414108276367188e+02
4.399999976158142090e-02,1.000000000000000000e+00,7.736368179321289062e+00,-1.011597061157226562e+01,2.640933752059936523e+00,-2.074215087890625000e+02,-1.019231643676757812e+02,-1.806663665771484375e+02,1.166222991943359375e+02,8.770228385925292969e+00,3.480780029296875000e+01,-1.537292938232421875e+02,6.622257232666015625e+01,1.191414108276367188e+02
4.800000041723251343e-02,1.000000000000000000e+00,7.736145496368408203e+00,-1.011581611633300781e+01,2.640947818756103516e+00,-2.074215087890625000e+02,-1.019231491088867188e+02,-1.806663513183593750e+02,1.166222991943359375e+02,8.770228385925292969e+00,3.480780029296875000e+01,-1.537292938232421875e+02,6.622257232666015625e+01,1.191414108276367188e+02
5.200000107288360596e-02,1.000000000000000000e+00,7.735477924346923828e+00,-1.011534118652343750e+01,2.640992164611816406e+00,-2.074215087890625000e+02,-1.019231109619140625e+02,-1.806663360595703125e+02,1.166222991943359375e+02,8.770228385925292969e+00,3.480780029296875000e+01,-1.537292938232421875e+02,6.622257232666015625e+01,1.191414108276367188e+02
5.600000172853469849e-02,1.000000000000000000e+00,7.734113693237304688e+00,-1.011433219909667969e+01,2.641088724136352539e+00,-2.074214477539062500e+02,-1.019229888916015625e+02,-1.806662597656250000e+02,1.166222991943359375e+02,8.770228385925292969e+00,3.480780029296875000e+01,-1.537292938232421875e+02,6.622257232666015625e+01,1.191414108276367188e+02
5.999999865889549255e-02,1.000000000000000000e+00,7.731904029846191406e+00,-1.011262226104736328e+01,2.641257762908935547e+00,-2.074213256835937500e+02,-1.019227142333984375e+02,-1.806661071777343750e+02,1.166222991943359375e+02,8.770228385925292969e+00,3.480780029296875000e+01,-1.537292938232421875e+02,6.622257232666015625e+01,1.191414108276367188e+02
6.400000303983688354e-02,1.000000000000000000e+00,7.728772163391113281e+00,-1.011009693145751953e+01,2.641518115997314453e+00,-2.074210357666015625e+02,-1.019221649169921875e+02,-1.806657257080078125e+02,1.166222991943359375e+02,8.770228385925292969e+00,3.480780029296875000e+01,-1.537292938232421875e+02,6.622257232666015625e+01,1.191414108276367188e+02
6.800000369548797607e-02,1.000000000000000000e+00,7.724635124206542969e+00,-1.010664081573486328e+01,2.641892194747924805e+00,-2.074204559326171875e+02,-1.019211883544921875e+02,-1.806650390625000000e+02,1.166222991943359375e+02,8.770228385925292969e+00,3.480780029296875000e+01,-1.537292938232421875e+02,6.622257232666015625e+01,1.191414108276367188e+02
7.199999690055847168e-02,1.000000000000000000e+00,7.719382762908935547e+00,-1.010210323333740234e+01,2.642408847808837891e+00,-2.074194335937500000e+02,-1.019195861816406250e+02,-1.806638183593750000e+02,1.166222991943359375e+02,8.770228385925292969e+00,3.480780029296875000e+01,-1.537292938232421875e+02,6.622257232666015625e+01,1.191414108276367188e+02
7.599999755620956421e-02,1.000000000000000000e+00,7.712880134582519531e+00,-1.009627532958984375e+01,2.643103122711181641e+00,-2.074178009033203125e+02,-1.019170837402343750e+02,-1.806619110107421875e+02,1.166222991943359375e+02,8.770228385925292969e+00,3.480780029296875000e+01,-1.537292938232421875e+02,6.622257232666015625e+01,1.191414108276367188e+02
7.999999821186065674e-02,1.000000000000000000e+00,7.704928874969482422e+00,-1.008881664276123047e+01,2.644016265869140625e+00,-2.074153137207031250e+02,-1.019134063720703125e+02,-1.806590270996093750e+02,1.166222991943359375e+02,8.770228385925292969e+00,3.480780029296875000e+01,-1.537292938232421875e+02,6.622257232666015625e+01,1.191414108276367188e+02
8.399999886751174927e-02,1.000000000000000000e+00,7.695230960845947266e+00,-1.007926845550537109e+01,2.645195245742797852e+00,-2.074117126464843750e+02,-1.019081878662109375e+02,-1.806548919677734375e+02,1.166222991943359375e+02,8.770228385925292969e+00,3.480780029296875000e+01,-1.537292938232421875e+02,6.622257232666015625e+01,1.191414108276367188e+02
8.799999952316284180e-02,1.000000000000000000e+00,7.683415412902832031e+00,-1.006722259521484375e+01,2.646697998046875000e+00,-2.074067230224609375e+02,-1.019010467529296875e+02,-1.806491699218750000e+02,1.166222991943359375e+02,8.770228385925292969e+00,3.480780029296875000e+01,-1.537292938232421875e+02,6.622257232666015625e+01,1.191414108276367188e+02
9.200000017881393433e-02,1.000000000000000000e+00,7.669155120849609375e+00,-1.005252265930175781e+01,2.648585319519042969e+00,-2.074000396728515625e+02,-1.018915481567382812e+02,-1.806415252685546875e+02,1.166222991943359375e+02,8.770228385925292969e+00,3.480780029296875000e+01,-1.537292938232421875e+02,6.622257232666015625e+01,1.191414108276367188e+02
9.600000083446502686e-02,1.000000000000000000e+00,7.652341842651367188e+00,-1.003536605834960938e+01,2.650901317596435547e+00,-2.073912658691406250e+02,-1.018792266845703125e+02,-1.806315307617187500e+02,1.166222991943359375e+02,8.770228385925292969e+00,3.480780029296875000e+01,-1.537292938232421875e+02,6.622257232666015625e+01,1.191414108276367188e+02
1.000000014901161194e-01,1.000000000000000000e+00,7.633111476898193359e+00,-1.001616954803466797e+01,2.653656482696533203e+00,-2.073800506591796875e+02,-1.018636322021484375e+02,-1.806188049316406250e+02,1.166222991943359375e+02,8.770228385925292969e+00,3.480780029296875000e+01,-1.537292938232421875e+02,6.622257232666015625e+01,1.191414108276367188e+02
1.040000021457672119e-01,1.000000000000000000e+00,7.611639976501464844e+00,-9.995386123657226562e+00,2.656850337982177734e+00,-2.073660583496093750e+02,-1.018443298339843750e+02,-1.806029663085937500e+02,1.166222991943359375e+02,8.770228385925292969e+00,3.480780029296875000e+01,-1.537292938232421875e+02,6.622257232666015625e+01,1.191414108276367188e+02
1.080000028014183044e-01,1.000000000000000000e+00,7.587934494018554688e+00,-9.973316192626953125e+00,2.660496473312377930e+00,-2.073489837646484375e+02,-1.018209533691406250e+02,-1.805836639404296875e+02,1.166222991943359375e+02,8.770228385925292969e+00,3.480780029296875000e+01,-1.537292938232421875e+02,6.622257232666015625e+01,1.191414108276367188e+02
1.120000034570693970e-01,1.000000000000000000e+00,7.561821937561035156e+00,-9.949977874755859375e+00,2.664620876312255859e+00,-2.073286132812500000e+02,-1.017931900024414062e+02,-1.805606842041015625e+02,1.166222991943359375e+02,8.770228385925292969e+00,3.480780029296875000e+01,-1.537292938232421875e+02,6.622257232666015625e+01,1.191414108276367188e+02
1.159999966621398926e-01,1.000000000000000000e+00,7.533110618591308594e+00,-9.925148963928222656e+00,2.669241905212402344e+00,-2.073047943115234375e+02,-1.017608718872070312e+02,-1.805338439941406250e+02,1.166222991943359375e+02,8.770228385925292969e+00,3.480780029296875000e+01,-1.537292938232421875e+02,6.622257232666015625e+01,1.191414108276367188e+02
1.199999973177909851e-01,1.000000000000000000e+00,7.501678943634033203e+00,-9.898536682128906250e+00,2.674367666244506836e+00,-2.072774658203125000e+02,-1.017238769531250000e+02,-1.805030670166015625e+02,1.166222991943359375e+02,8.770228385925292969e+00,3.480780029296875000e+01,-1.537292938232421875e+02,6.622257232666015625e+01,1.191414108276367188e+02
1.239999979734420776e-01,1.000000000000000000e+00,7.467466354370117188e+00,-9.870029449462890625e+00,2.680012226104736328e+00,-2.072466278076171875e+02,-1.016822433471679688e+02,-1.804683685302734375e+02,1.166222991943359375e+02,8.770228385925292969e+00,3.480780029296875000e+01,-1.537292938232421875e+02,6.622257232666015625e+01,1.191414108276367188e+02
1.280000060796737671e-01,1.000000000000000000e+00,7.430484294891357422e+00,-9.839759826660156250e+00,2.686189413070678711e+00,-2.072123718261718750e+02,-1.016360473632812500e+02,-1.804298400878906250e+02,1.166222991943359375e+02,8.770228385925292969e+00,3.480780029296875000e+01,-1.537292938232421875e+02,6.622257232666015625e+01,1.191414108276367188e+02
1.309999972581863403e-01,1.000000000000000000e+00,7.390844345092773438e+00,-9.807909965515136719e+00,2.692895412445068359e+00,-2.071748352050781250e+02,-1.015854873657226562e+02,-1.803876495361328125e+02,1.166222991943359375e+02,8.770228385925292969e+00,3.480780029296875000e+01,-1.537292938232421875e+02,6.622257232666015625e+01,1.191414108276367188e+02
1.360000073909759521e-01,1.000000000000000000e+00,7.348779678344726562e+00,-9.774572372436523438e+00,2.700098752975463867e+00,-2.071342163085937500e+02,-1.015308380126953125e+02,-1.803419952392578125e+02,1.166222991943359375e+02,8.770228385925292969e+00,3.480780029296875000e+01,-1.537292938232421875e+02,6.622257232666015625e+01,1.191414108276367188e+02
1.389999985694885254e-01,1.000000000000000000e+00,7.304550170898437500e+00,-9.739713668823242188e+00,2.707758188247680664e+00,-2.070907897949218750e+02,-1.014724502563476562e+02,-1.802932128906250000e+02,1.166222991943359375e+02,8.770228385925292969e+00,3.480780029296875000e+01,-1.537292938232421875e+02,6.622257232666015625e+01,1.191414108276367188e+02
1.439999938011169434e-01,1.000000000000000000e+00,7.258246421813964844e+00,-9.703155517578125000e+00,2.715842247009277344e+00,-2.070448760986328125e+02,-1.014107360839843750e+02,-1.802416381835937500e+02,1.166222991943359375e+02,8.770228385925292969e+00,3.480780029296875000e+01,-1.537292938232421875e+02,6.622257232666015625e+01,1.191414108276367188e+02
1.480000019073486328e-01,1.000000000000000000e+00,7.209752082824707031e+00,-9.664522171020507812e+00,2.724331140518188477e+00,-2.069968414306640625e+02,-1.013461456298828125e+02,-1.801876525878906250e+02,1.166222991943359375e+02,8.770228385925292969e+00,3.480780029296875000e+01,-1.537292938232421875e+02,6.622257232666015625e+01,1.191414108276367188e+02
1.519999951124191284e-01,1.000000000000000000e+00,7.158935546875000000e+00,-9.623393058776855469e+00,2.733199596405029297e+00,-2.069470367431640625e+02,-1.012791290283203125e+02,-1.801316833496093750e+02,1.166222991943359375e+02,8.770228385925292969e+00,3.480780029296875000e+01,-1.537292938232421875e+02,6.622257232666015625e+01,1.191414108276367188e+02
1.560000032186508179e-01,1.000000000000000000e+00,7.105866432189941406e+00,-9.579648017883300781e+00,2.742406368255615234e+00,-2.068957824707031250e+02,-1.012101516723632812e+02,-1.800740814208984375e+02,1.166222991943359375e+02,8.770228385925292969e+00,3.480780029296875000e+01,-1.537292938232421875e+02,6.622257232666015625e+01,1.191414108276367188e+02
1.599999964237213135e-01,1.000000000000000000e+00,7.050814628601074219e+00,-9.533577919006347656e+00,2.751900434494018555e+00,-2.068434295654296875e+02,-1.011396026611328125e+02,-1.800152435302734375e+02,1.166222991943359375e+02,8.770228385925292969e+00,3.480780029296875000e+01,-1.537292938232421875e+02,6.622257232666015625e+01,1.191414108276367188e+02
1.640000045299530029e-01,1.000000000000000000e+00,6.994101047515869141e+00,-9.485651016235351562e+00,2.761632442474365234e+00,-2.067902221679687500e+02,-1.010678482055664062e+02,-1.799553985595703125e+02,1.166222991943359375e+02,8.770228385925292969e+00,3.480780029296875000e+01,-1.537292938232421875e+02,6.622257232666015625e+01,1.191414108276367188e+02
1.679999977350234985e-01,1.000000000000000000e+00,6.936015605926513672e+00,-9.436278343200683594e+00,2.771558284759521484e+00,-2.067363891601562500e+02,-1.009951782226562500e+02,-1.798948364257812500e+02,1.166222991943359375e+02,8.770228385925292969e+00,3.480780029296875000e+01,-1.537292938232421875e+02,6.622257232666015625e+01,1.191414108276367188e+02
1.720000058412551880e-01,1.000000000000000000e+00,6.876813888549804688e+00,-9.385775566101074219e+00,2.781634092330932617e+00,-2.066820831298828125e+02,-1.009218444824218750e+02,-1.798337402343750000e+02,1.166222991943359375e+02,8.770228385925292969e+00,3.480780029296875000e+01,-1.537292938232421875e+02,6.622257232666015625e+01,1.191414108276367188e+02
1.759999990463256836e-01,1.000000000000000000e+00,6.816704273223876953e+00,-9.334397315979003906e+00,2.791821241378784180e+00,-2.066274719238281250e+02,-1.008480453491210938e+02,-1.797723083496093750e+02,1.166222991943359375e+02,8.770228385925292969e+00,3.480780029296875000e+01,-1.537292938232421875e+02,6.622257232666015625e+01,1.191414108276367188e+02
1.800000071525573730e-01,1.000000000000000000e+00,6.755841255187988281e+00,-9.282324790954589844e+00,2.802091121673583984e+00,-2.065726470947265625e+02,-1.007739410400390625e+02,-1.797106018066406250e+02,1.166222991943359375e+02,8.770228385925292969e+00,3.480780029296875000e+01,-1.537292938232421875e+02,6.622257232666015625e+01,1.191414108276367188e+02
1.840000003576278687e-01,1.000000000000000000e+00,6.694310665130615234e+00,-9.229663848876953125e+00,2.812424659729003906e+00,-2.065177001953125000e+02,-1.006996383666992188e+02,-1.796487731933593750e+02,1.166222991943359375e+02,8.770228385925292969e+00,3.480780029296875000e+01,-1.537292938232421875e+02,6.622257232666015625e+01,1.191414108276367188e+02
1.879999935626983643e-01,1.000000000000000000e+00,6.632171154022216797e+00,-9.176497459411621094e+00,2.822808027267456055e+00,-2.064627075195312500e+02,-1.006252288818359375e+02,-1.795868682861328125e+02,1.166222991943359375e+02,8.770228385925292969e+00,3.480780029296875000e+01,-1.537292938232421875e+02,6.622257232666015625e+01,1.191414108276367188e+02
1.920000016689300537e-01,1.000000000000000000e+00,6.569531917572021484e+00,-9.122946739196777344e+00,2.833226919174194336e+00,-2.064076843261718750e+02,-1.005507736206054688e+02,-1.795249328613281250e+02,1.166222991943359375e+02,8.770228385925292969e+00,3.480780029296875000e+01,-1.537292938232421875e+02,6.622257232666015625e+01,1.191414108276367188e+02
1.959999948740005493e-01,1.000000000000000000e+00,6.506573200225830078e+00,-9.069162368774414062e+00,2.843666076660156250e+00,-2.063526458740234375e+02,-1.004762954711914062e+02,-1.794629821777343750e+02,1.166222991943359375e+02,8.770228385925292969e+00,3.480780029296875000e+01,-1.537292938232421875e+02,6.622257232666015625e+01,1.191414108276367188e+02
2.000000029802322388e-01,1.000000000000000000e+00,6.443479537963867188e+00,-9.015284538269042969e+00,2.854113101959228516e+00,-2.062976226806640625e+02,-1.004018249511718750e+02,-1.794010467529296875e+02,1.166222991943359375e+02,8.770228385925292969e+00,3.480780029296875000e+01,-1.537292938232421875e+02,6.622257232666015625e+01,1.191414108276367188e+02
2.039999961853027344e-01,1.000000000000000000e+00,6.380359172821044922e+00,-8.961391448974609375e+00,2.864560842514038086e+00,-2.062426147460937500e+02,-1.003273468017578125e+02,-1.793390960693359375e+02,1.166222991943359375e+02,8.770228385925292969e+00,3.480780029296875000e+01,-1.537292938232421875e+02,6.622257232666015625e+01,1.191414108276367188e+02
2.080000042915344238e-01,1.000000000000000000e+00,6.317242622375488281e+00,-8.907500267028808594e+00,2.875007867813110352e+00,-2.061876068115234375e+02,-1.002528762817382812e+02,-1.792771606445312500e+02,1.166222991943359375e+02,8.770228385925292969e+00,3.480780029296875000e+01,-1.537292938232421875e+02,6.622257232666015625e+01,1.191414108276367188e+02
2.119999974966049194e-01,1.000000000000000000e+00,6.254130840301513672e+00,-8.853613853454589844e+00,2.885454177856445312e+00,-2.061325988769531250e+02,-1.001784210205078125e+02,-1.792152252197265625e+02,1.166222991943359375e+02,8.770228385925292969e+00,3.480780029296875000e+01,-1.537292938232421875e+02,6.622257232666015625e+01,1.191414108276367188e+02
2.160000056028366089e-01,1.000000000000000000e+00,6.191023349761962891e+00,-8.799731254577636719e+00,2.895899772644042969e+00,-2.060776062011718750e+02,-1.001039657592773438e+02,-1.791533050537109375e+02,1.166222991943359375e+02,8.770228385925292969e+00,3.480780029296875000e+01,-1.537292938232421875e+02,6.622257232666015625e+01,1.191414108276367188e+02
2.199999988079071045e-01,1.000000000000000000e+00,6.127921581268310547e+00,-8.745853424072265625e+00,2.906344413757324219e+00,-2.060225982666015625e+02,-1.000295104980468750e+02,-1.790914001464843750e+02,1.166222991943359375e+02,8.770228385925292969e+00,3.480780029296875000e+01,-1.537292938232421875e+02,6.622257232666015625e+01,1.191414108276367188e+02
2.240000069141387939e-01,1.000000000000000000e+00,6.064824104309082031e+00,-8.691979408264160156e+00,2.916788101196289062e+00,-2.059676055908203125e+02,-9.995506286621093750e+01,-1.790294799804687500e+02,1.166222991943359375e+02,8.770228385925292969e+00,3.480780029296875000e+01,-1.537292938232421875e+02,6.622257232666015625e+01,1.191414108276367188e+02
2.280000001192092896e-01,1.000000000000000000e+00,6.001731872558593750e+00,-8.638109207153320312e+00,2.927231311798095703e+00,-2.059126129150390625e+02,-9.988063049316406250e+01,-1.789675750732421875e+02,1.166222991943359375e+02,8.770228385925292969e+00,3.480780029296875000e+01,-1.537292938232421875e+02,6.622257232666015625e+01,1.191414108276367188e+02
2.319999933242797852e-01,1.000000000000000000e+00,5.938644409179687500e+00,-8.584243774414062500e+00,2.937673568725585938e+00,-2.058576354980468750e+02,-9.980619812011718750e+01,-1.789056549072265625e+02,1.166222991943359375e+02,8.770228385925292969e+00,3.480780029296875000e+01,-1.537292938232421875e+02,6.622257232666015625e+01,1.191414108276367188e+02
2.360000014305114746e-01,1.000000000000000000e+00,5.875561237335205078e+00,-8.530382156372070312e+00,2.948115110397338867e+00,-2.058026428222656250e+02,-9.973176574707031250e+01,-1.788437652587890625e+02,1.166222991943359375e+02,8.770228385925292969e+00,3.480780029296875000e+01,-1.537292938232421875e+02,6.622257232666015625e+01,1.191414108276367188e+02
2.399999946355819702e-01,1.000000000000000000e+00,5.812483310699462891e+00,-8.476524353027343750e+00,2.958555698394775391e+00,-2.057476654052734375e+02,-9.965734100341796875e+01,-1.787818756103515625e+02,1.166222991943359375e+02,8.770228385925292969e+00,3.480780029296875000e+01,-1.537292938232421875e+02,6.622257232666015625e+01,1.191414108276367188e+02
2.440000027418136597e-01,1.000000000000000000e+00,5.749410152435302734e+00,-8.422670364379882812e+00,2.968995809555053711e+00,-2.056926879882812500e+02,-9.958292388916015625e+01,-1.787199707031250000e+02,1.166222991943359375e+02,8.770228385925292969e+00,3.480780029296875000e+01,-1.537292938232421875e+02,6.622257232666015625e+01,1.191414108276367188e+02
2.479999959468841553e-01,1.000000000000000000e+00,5.686340808868408203e+00,-8.368821144104003906e+00,2.979434967041015625e+00,-2.056377258300781250e+02,-9.950851440429687500e+01,-1.786580963134765625e+02,1.166222991943359375e+02,8.770228385925292969e+00,3.480780029296875000e+01,-1.537292938232421875e+02,6.622257232666015625e+01,1.191414108276367188e+02
2.520000040531158447e-01,1.000000000000000000e+00,5.623276233673095703e+00,-8.314973831176757812e+00,2.989873409271240234e+00,-2.055827484130859375e+02,-9.943410491943359375e+01,-1.785962066650390625e+02,1.166222991943359375e+02,8.770228385925292969e+00,3.480780029296875000e+01,-1.537292938232421875e+02,6.622257232666015625e+01,1.191414108276367188e+02
2.560000121593475342e-01,1.000000000000000000e+00,5.560216903686523438e+00,-8.261132240295410156e+00,3.000311136245727539e+00,-2.055277862548828125e+02,-9.935970306396484375e+01,-1.785343322753906250e+02,1.166222991943359375e+02,8.770228385925292969e+00,3.480780029296875000e+01,-1.537292938232421875e+02,6.622257232666015625e+01,1.191414108276367188e+02
2.599999904632568359e-01,1.000000000000000000e+00,5.497161388397216797e+00,-8.207293510437011719e+00,3.010748147964477539e+00,-2.054728240966796875e+02,-9.928530883789062500e+01,-1.784724578857421875e+02,1.166222991943359375e+02,8.770228385925292969e+00,3.480780029296875000e+01,-1.537292938232421875e+02,6.622257232666015625e+01,1.191414108276367188e+02
2.639999985694885254e-01,1.000000000000000000e+00,5.434110164642333984e+00,-8.153459548950195312e+00,3.021184444427490234e+00,-2.054178771972656250e+02,-9.921092224121093750e+01,-1.784105987548828125e+02,1.166222991943359375e+02,8.770228385925292969e+00,3.480780029296875000e+01,-1.537292938232421875e+02,6.622257232666015625e+01,1.191414108276367188e+02
2.680000066757202148e-01,1.000000000000000000e+00,5.371063709259033203e+00,-8.099628448486328125e+00,3.031620025634765625e+00,-2.053629302978515625e+02,-9.913653564453125000e+01,-1.783487243652343750e+02,1.166222991943359375e+02,8.770228385925292969e+00,3.480780029296875000e+01,-1.537292938232421875e+02,6.622257232666015625e+01,1.191414108276367188e+02
2.720000147819519043e-01,1.000000000000000000e+00,5.308021068572998047e+00,-8.045801162719726562e+00,3.042054653167724609e+00,-2.053079681396484375e+02,-9.906215667724609375e+01,-1.782868652343750000e+02,1.166222991943359375e+02,8.770228385925292969e+00,3.480780029296875000e+01,-1.537292938232421875e+02,6.622257232666015625e+01,1.191414108276367188e+02
2.759999930858612061e-01,1.000000000000000000e+00,5.244983196258544922e+00,-7.991978168487548828e+00,3.052488803863525391e+00,-2.052530364990234375e+02,-9.898777770996093750e+01,-1.782250213623046875e+02,1.166222991943359375e+02,8.770228385925292969e+00,3.480780029296875000e+01,-1.537292938232421875e+02,6.622257232666015625e+01,1.191414108276367188e+02
2.800000011920928955e-01,1.000000000000000000e+00,5.181949138641357422e+00,-7.938158512115478516e+00,3.062922239303588867e+00,-2.051980895996093750e+02,-9.891340637207031250e+01,-1.781631622314453125e+02,1.166222991943359375e+02,8.770228385925292969e+00,3.480780029296875000e+01,-1.537292938232421875e+02,6.622257232666015625e+01,1.191414108276367188e+02
2.840000092983245850e-01,1.000000000000000000e+00,5.118919849395751953e+00,-7.884342670440673828e+00,3.073354959487915039e+00,-2.051431579589843750e+02,-9.883905029296875000e+01,-1.781013031005859375e+02,1.166222991943359375e+02,8.770228385925292969e+00,3.480780029296875000e+01,-1.537292938232421875e+02,6.622257232666015625e+01,1.191414108276367188e+02
2.879999876022338867e-01,1.000000000000000000e+00,5.055894851684570312e+00,-7.830530166625976562e+00,3.083786964416503906e+00,-2.050882263183593750e+02,-9.876468658447265625e+01,-1.780394744873046875e+02,1.166222991943359375e+02,8.770228385925292969e+00,3.480780029296875000e+01,-1.537292938232421875e+02,6.622257232666015625e+01,1.191414108276367188e+02
2.919999957084655762e-01,1.000000000000000000e+00,4.992873668670654297e+00,-7.776721000671386719e+00,3.094218015670776367e+00,-2.050332946777343750e+02,-9.869032287597656250e+01,-1.779776306152343750e+02,1.166222991943359375e+02,8.770228385925292969e+00,3.480780029296875000e+01,-1.537292938232421875e+02,6.622257232666015625e+01,1.191414108276367188e+02
2.960000038146972656e-01,1.000000000000000000e+00,4.929857254028320312e+00,-7.722916126251220703e+00,3.104648590087890625e+00,-2.049783782958984375e+02,-9.861598205566406250e+01,-1.779157867431640625e+02,1.166222991943359375e+02,8.770228385925292969e+00,3.480780029296875000e+01,-1.537292938232421875e+02,6.622257232666015625e+01,1.191414108276367188e+02
3.000000119209289551e-01,1.000000000000000000e+00,4.866844654083251953e+00,-7.669115066528320312e+00,3.115078449249267578e+00,-2.049234466552734375e+02,-9.854163360595703125e+01,-1.778539581298828125e+02,1.166222991943359375e+02,8.770228385925292969e+00,3.480780029296875000e+01,-1.537292938232421875e+02,6.622257232666015625e+01,1.191414108276367188e+02
3.039999902248382568e-01,1.000000000000000000e+00,4.803835868835449219e+00,-7.615315914154052734e+00,3.125507593154907227e+00,-2.048685302734375000e+02,-9.846729278564453125e+01,-1.777921295166015625e+02,1.166222991943359375e+02,8.770228385925292969e+00,3.480780029296875000e+01,-1.537292938232421875e+02,6.622257232666015625e+01,1.191414108276367188e+02
3.079999983310699463e-01,1.000000000000000000e+00,4.740831851959228516e+00,-7.561521530151367188e+00,3.135936260223388672e+00,-2.048136138916015625e+02,-9.839295959472656250e+01,-1.777303009033203125e+02,1.166222991943359375e+02,8.770228385925292969e+00,3.480780029296875000e+01,-1.537292938232421875e+02,6.622257232666015625e+01,1.191414108276367188e+02
3.120000064373016357e-01,1.000000000000000000e+00,4.677831649780273438e+00,-7.507731437683105469e+00,3.146363973617553711e+00,-2.047587127685546875e+02,-9.831862640380859375e+01,-1.776684875488281250e+02,1.166222991943359375e+02,8.770228385925292969e+00,3.480780029296875000e+01,-1.537292938232421875e+02,6.622257232666015625e+01,1.191414108276367188e+02
3.160000145435333252e-01,1.000000000000000000e+00,4.614835262298583984e+00,-7.453943252563476562e+00,3.156791210174560547e+00,-2.047038116455078125e+02,-9.824430084228515625e+01,-1.776066741943359375e+02,1.166222991943359375e+02,8.770228385925292969e+00,3.480780029296875000e+01,-1.537292938232421875e+02,6.622257232666015625e+01,1.191414108276367188e+02
3.199999928474426270e-01,1.000000000000000000e+00,4.551843166351318359e+00,-7.400159358978271484e+00,3.167217731475830078e+00,-2.046489105224609375e+02,-9.816998291015625000e+01,-1.775448608398437500e+02,1.166222991943359375e+02,8.770228385925292969e+00,3.480780029296875000e+01,-1.537292938232421875e+02,6.622257232666015625e+01,1.191414108276367188e+02
3.240000009536743164e-01,1.000000000000000000e+00,4.488854408264160156e+00,-7.346378326416015625e+00,3.177643537521362305e+00,-2.045940093994140625e+02,-9.809566497802734375e+01,-1.774830627441406250e+02,1.166222991943359375e+02,8.770228385925292969e+00,3.480780029296875000e+01,-1.537292938232421875e+02,6.622257232666015625e+01,1.191414108276367188e+02
3.280000090599060059e-01,1.000000000000000000e+00,4.425870418548583984e+00,-7.292600631713867188e+00,3.188068628311157227e+00,-2.045391082763671875e+02,-9.802134704589843750e+01,-1.774212493896484375e+02,1.166222991943359375e+02,8.770228385925292969e+00,3.480780029296875000e+01,-1.537292938232421875e+02,6.622257232666015625e+01,1.191414108276367188e+02
3.319999873638153076e-01,1.000000000000000000e+00,4.362890243530273438e+00,-7.238827705383300781e+00,3.198493003845214844e+00,-2.044842071533203125e+02,-9.794704437255859375e+01,-1.773594512939453125e+02,1.166222991943359375e+02,8.770228385925292969e+00,3.480780029296875000e+01,-1.537292938232421875e+02,6.622257232666015625e+01,1.191414108276367188e+02
3.359999954700469971e-01,1.000000000000000000e+00,4.299913883209228516e+00,-7.185056686401367188e+00,3.208917140960693359e+00,-2.044293212890625000e+02,-9.787274932861328125e+01,-1.772976684570312500e+02,1.166222991943359375e+02,8.770228385925292969e+00,3.480780029296875000e+01,-1.537292938232421875e+02,6.622257232666015625e+01,1.191414108276367188e+02
3.400000035762786865e-01,1.000000000000000000e+00,4.236941337585449219e+00,-7.131289482116699219e+00,3.219340085983276367e+00,-2.043744354248046875e+02,-9.779844665527343750e+01,-1.772358703613281250e+02,1.166222991943359375e+02,8.770228385925292969e+00,3.480780029296875000e+01,-1.537292938232421875e+02,6.622257232666015625e+01,1.191414108276367188e+02
3.440000116825103760e-01,1.000000000000000000e+00,4.173973083496093750e+00,-7.077525138854980469e+00,3.229762792587280273e+00,-2.043195495605468750e+02,-9.772415161132812500e+01,-1.771740875244140625e+02,1.166222991943359375e+02,8.770228385925292969e+00,3.480780029296875000e+01,-1.537292938232421875e+02,6.622257232666015625e+01,1.191414108276367188e+02
3.479999899864196777e-01,1.000000000000000000e+00,4.111008167266845703e+00,-7.023765087127685547e+00,3.240184545516967773e+00,-2.042646789550781250e+02,-9.764986419677734375e+01,-1.771123046875000000e+02,1.166222991943359375e+02,8.770228385925292969e+00,3.480780029296875000e+01,-1.537292938232421875e+02,6.622257232666015625e+01,1.191414108276367188e+02
3.519999980926513672e-01,1.000000000000000000e+00,4.048047065734863281e+00,-6.970007419586181641e+00,3.250606060028076172e+00,-2.042097930908203125e+02,-9.757557678222656250e+01,-1.770505218505859375e+02,1.166222991943359375e+02,8.770228385925292969e+00,3.480780029296875000e+01,-1.537292938232421875e+02,6.622257232666015625e+01,1.191414108276367188e+02
3.560000061988830566e-01,1.000000000000000000e+00,3.985090255737304688e+00,-6.916253566741943359e+00,3.261026382446289062e+00,-2.041549224853515625e+02,-9.750129699707031250e+01,-1.769887390136718750e+02,1.166222991943359375e+02,8.770228385925292969e+00,3.480780029296875000e+01,-1.537292938232421875e+02,6.622257232666015625e+01,1.191414108276367188e+02
3.600000143051147461e-01,1.000000000000000000e+00,3.922136783599853516e+00,-6.862502574920654297e+00,3.271446466445922852e+00,-2.041000518798828125e+02,-9.742702484130859375e+01,-1.769269714355468750e+02,1.166222991943359375e+02,8.770228385925292969e+00,3.480780029296875000e+01,-1.537292938232421875e+02,6.622257232666015625e+01,1.191414108276367188e+02
3.639999926090240479e-01,1.000000000000000000e+00,3.859186649322509766e+00,-6.808754920959472656e+00,3.281866073608398438e+00,-2.040451812744140625e+02,-9.735276031494140625e+01,-1.768652038574218750e+02,1.166222991943359375e+02,8.770228385925292969e+00,3.480780029296875000e+01,-1.537292938232421875e+02,6.622257232666015625e+01,1.191414108276367188e+02
3.680000007152557373e-01,1.000000000000000000e+00,3.796241044998168945e+00,-6.755010128021240234e+00,3.292284727096557617e+00,-2.039903259277343750e+02,-9.727849578857421875e+01,-1.768034362792968750e+02,1.166222991943359375e+02,8.770228385925292969e+00,3.480780029296875000e+01,-1.537292938232421875e+02,6.622257232666015625e+01,1.191414108276367188e+02
3.720000088214874268e-01,1.000000000000000000e+00,3.733298540115356445e+00,-6.701268672943115234e+00,3.302702903747558594e+00,-2.039354553222656250e+02,-9.720423126220703125e+01,-1.767416839599609375e+02,1.166222991943359375e+02,8.770228385925292969e+00,3.480780029296875000e+01,-1.537292938232421875e+02,6.622257232666015625e+01,1.191414108276367188e+02
3.759999871253967285e-01,1.000000000000000000e+00,3.670359611511230469e+00,-6.647530555725097656e+00,3.313120603561401367e+00,-2.038805999755859375e+02,-9.712996673583984375e+01,-1.766799163818359375e+02,1.166222991943359375e+02,8.770228385925292969e+00,3.480780029296875000e+01,-1.537292938232421875e+02,6.622257232666015625e+01,1.191414108276367188e+02
3.799999952316284180e-01,1.000000000000000000e+00,3.607424736022949219e+00,-6.593795299530029297e+00,3.323537588119506836e+00,-2.038257598876953125e+02,-9.705571746826171875e+01,-1.766181640625000000e+02,1.166222991943359375e+02,8.770228385925292969e+00,3.480780029296875000e+01,-1.537292938232421875e+02,6.622257232666015625e+01,1.191414108276367188e+02
3.840000033378601074e-01,1.000000000000000000e+00,3.544493198394775391e+00,-6.540063381195068359e+00,3.333953857421875000e+00,-2.037709045410156250e+02,-9.698146820068359375e+01,-1.765564117431640625e+02,1.166222991943359375e+02,8.770228385925292969e+00,3.480780029296875000e+01,-1.537292938232421875e+02,6.622257232666015625e+01,1.191414108276367188e+02
3.880000114440917969e-01,1.000000000000000000e+00,3.481565475463867188e+00,-6.486333847045898438e+00,3.344369649887084961e+00,-2.037160491943359375e+02,-9.690722656250000000e+01,-1.764946594238281250e+02,1.166222991943359375e+02,8.770228385925292969e+00,3.480780029296875000e+01,-1.537292938232421875e+02,6.622257232666015625e+01,1.191414108276367188e+02
3.919999897480010986e-01,1.000000000000000000e+00,3.418641090393066406e+00,-6.432608127593994141e+00,3.354784965515136719e+00,-2.036612243652343750e+02,-9.683297729492187500e+01,-1.764329223632812500e+02,1.166222991943359375e+02,8.770228385925292969e+00,3.480780029296875000e+01,-1.537292938232421875e+02,6.622257232666015625e+01,1.191414108276367188e+02
3.959999978542327881e-01,1.000000000000000000e+00,3.355720043182373047e+00,-6.378884792327880859e+00,3.365199565887451172e+00,-2.036063690185546875e+02,-9.675874328613281250e+01,-1.763711853027343750e+02,1.166222991943359375e+02,8.770228385925292969e+00,3.480780029296875000e+01,-1.537292938232421875e+02,6.622257232666015625e+01,1.191414108276367188e+02
4.000000059604644775e-01,1.000000000000000000e+00,3.292802572250366211e+00,-6.325165271759033203e+00,3.375613451004028320e+00,-2.035515441894531250e+02,-9.668450927734375000e+01,-1.763094329833984375e+02,1.166222991943359375e+02,8.770228385925292969e+00,3.480780029296875000e+01,-1.537292938232421875e+02,6.622257232666015625e+01,1.191414108276367188e+02
4.040000140666961670e-01,1.000000000000000000e+00,3.229888677597045898e+00,-6.271447658538818359e+00,3.386027097702026367e+00,-2.034966888427734375e+02,-9.661028289794921875e+01,-1.762477111816406250e+02,1.166222991943359375e+02,8.770228385925292969e+00,3.480780029296875000e+01,-1.537292938232421875e+02,6.622257232666015625e+01,1.191414108276367188e+02
4.079999923706054688e-01,1.000000000000000000e+00,3.166978120803833008e+00,-6.217733860015869141e+00,3.396440029144287109e+00,-2.034418792724609375e+02,-9.653605651855468750e+01,-1.761859741210937500e+02,1.166222991943359375e+02,8.770228385925292969e+00,3.480780029296875000e+01,-1.537292938232421875e+02,6.622257232666015625e+01,1.191414108276367188e+02
4.120000004768371582e-01,1.000000000000000000e+00,3.104071140289306641e+00,-6.164022445678710938e+00,3.406852245330810547e+00,-2.033870391845703125e+02,-9.646183776855468750e+01,-1.761242523193359375e+02,1.166222991943359375e+02,8.770228385925292969e+00,3.480780029296875000e+01,-1.537292938232421875e+02,6.622257232666015625e+01,1.191414108276367188e+02
4.160000085830688477e-01,1.000000000000000000e+00,3.041167259216308594e+00,-6.110314369201660156e+00,3.417263984680175781e+00,-2.033322143554687500e+02,-9.638762664794921875e+01,-1.760625305175781250e+02,1.166222991943359375e+02,8.770228385925292969e+00,3.480780029296875000e+01,-1.537292938232421875e+02,6.622257232666015625e+01,1.191414108276367188e+02
4.199999868869781494e-01,1.000000000000000000e+00,2.978266716003417969e+00,-6.056608676910400391e+00,3.427675485610961914e+00,-2.032773895263671875e+02,-9.631341552734375000e+01,-1.760008087158203125e+02,1.166222991943359375e+02,8.770228385925292969e+00,3.480780029296875000e+01,-1.537292938232421875e+02,6.622257232666015625e+01,1.191414108276367188e+02
4.239999949932098389e-01,1.000000000000000000e+00,2.915369510650634766e+00,-6.002905845642089844e+00,3.438086032867431641e+00,-2.032225646972656250e+02,-9.623920440673828125e+01,-1.759390869140625000e+02,1.166222991943359375e+02,8.770228385925292969e+00,3.480780029296875000e+01,-1.537292938232421875e+02,6.622257232666015625e+01,1.191414108276367188e+02
4.280000030994415283e-01,1.000000000000000000e+00,2.852475881576538086e+00,-5.949206352233886719e+00,3.448496103286743164e+00,-2.031677551269531250e+02,-9.616500091552734375e+01,-1.758773803710937500e+02,1.166222991943359375e+02,8.770228385925292969e+00,3.480780029296875000e+01,-1.537292938232421875e+02,6.622257232666015625e+01,1.191414108276367188e+02
4.320000112056732178e-01,1.000000000000000000e+00,2.789585590362548828e+00,-5.895509243011474609e+00,3.458905696868896484e+00,-2.031129302978515625e+02,-9.609079742431640625e+01,-1.758156738281250000e+02,1.166222991943359375e+02,8.770228385925292969e+00,3.480780029296875000e+01,-1.537292938232421875e+02,6.622257232666015625e+01,1.191414108276367188e+02
4.359999895095825195e-01,1.000000000000000000e+00,2.726698637008666992e+00,-5.841814517974853516e+00,3.469314336776733398e+00,-2.030581207275390625e+02,-9.601660156250000000e+01,-1.757539520263671875e+02,1.166222991943359375e+02,8.770228385925292969e+00,3.480780029296875000e+01,-1.537292938232421875e+02,6.622257232666015625e+01,1.191414108276367188e+02
4.399999976158142090e-01,1.000000000000000000e+00,2.663814783096313477e+00,-5.788122177124023438e+00,3.479722738265991211e+00,-2.030033264160156250e+02,-9.594240570068359375e+01,-1.756922454833984375e+02,1.166222991943359375e+02,8.770228385925292969e+00,3.480780029296875000e+01,-1.537292938232421875e+02,6.622257232666015625e+01,1.191414108276367188e+02
4.440000057220458984e-01,1.000000000000000000e+00,2.600934028625488281e+00,-5.734433650970458984e+00,3.490130901336669922e+00,-2.029485168457031250e+02,-9.586822509765625000e+01,-1.756305541992187500e+02,1.166222991943359375e+02,8.770228385925292969e+00,3.480780029296875000e+01,-1.537292938232421875e+02,6.622257232666015625e+01,1.191414108276367188e+02
4.480000138282775879e-01,1.000000000000000000e+00,2.538055658340454102e+00,-5.680747509002685547e+00,3.500538349151611328e+00,-2.028937072753906250e+02,-9.579402923583984375e+01,-1.755688476562500000e+02,1.166222991943359375e+02,8.770228385925292969e+00,3.480780029296875000e+01,-1.537292938232421875e+02,6.622257232666015625e+01,1.191414108276367188e+02
4.519999921321868896e-01,1.000000000000000000e+00,2.475180625915527344e+00,-5.627064228057861328e+00,3.510945558547973633e+00,-2.028388977050781250e+02,-9.571984863281250000e+01,-1.755071563720703125e+02,1.166222991943359375e+02,8.770228385925292969e+00,3.480780029296875000e+01,-1.537292938232421875e+02,6.622257232666015625e+01,1.191414108276367188e+02
4.560000002384185791e-01,1.000000000000000000e+00,2.412308454513549805e+00,-5.573383331298828125e+00,3.521351814270019531e+00,-2.027841186523437500e+02,-9.564567565917968750e+01,-1.754454803466796875e+02,1.166222991943359375e+02,8.770228385925292969e+00,3.480780029296875000e+01,-1.537292938232421875e+02,6.622257232666015625e+01,1.191414108276367188e+02
4.600000083446502686e-01,1.000000000000000000e+00,2.349439382553100586e+00,-5.519704818725585938e+00,3.531757831573486328e+00,-2.027293090820312500e+02,-9.557149505615234375e+01,-1.753837890625000000e+02,1.166222991943359375e+02,8.770228385925292969e+00,3.480780029296875000e+01,-1.537292938232421875e+02,6.622257232666015625e+01,1.191414108276367188e+02
4.639999866485595703e-01,1.000000000000000000e+00,2.286573171615600586e+00,-5.466028690338134766e+00,3.542163372039794922e+00,-2.026745147705078125e+02,-9.549732971191406250e+01,-1.753220977783203125e+02,1.166222991943359375e+02,8.770228385925292969e+00,3.480780029296875000e+01,-1.537292938232421875e+02,6.622257232666015625e+01,1.191414108276367188e+02
4.679999947547912598e-01,1.000000000000000000e+00,2.223710298538208008e+00,-5.412355422973632812e+00,3.552568435668945312e+00,-2.026197357177734375e+02,-9.542315673828125000e+01,-1.752604064941406250e+02,1.166222991943359375e+02,8.770228385925292969e+00,3.480780029296875000e+01,-1.537292938232421875e+02,6.622257232666015625e+01,1.191414108276367188e+02
4.720000028610229492e-01,1.000000000000000000e+00,2.160850286483764648e+00,-5.358684539794921875e+00,3.562973022460937500e+00,-2.025649414062500000e+02,-9.534899902343750000e+01,-1.751987304687500000e+02,1.166222991943359375e+02,8.770228385925292969e+00,3.480780029296875000e+01,-1.537292938232421875e+02,6.622257232666015625e+01,1.191414108276367188e+02
4.760000109672546387e-01,1.000000000000000000e+00,2.097993135452270508e+00,-5.305015563964843750e+00,3.573377132415771484e+00,-2.025101470947265625e+02,-9.527483367919921875e+01,-1.751370544433593750e+02,1.166222991943359375e+02,8.770228385925292969e+00,3.480780029296875000e+01,-1.537292938232421875e+02,6.622257232666015625e+01,1.191414108276367188e+02
4.799999892711639404e-01,1.000000000000000000e+00,2.035138845443725586e+00,-5.251348972320556641e+00,3.583780765533447266e+00,-2.024553680419921875e+02,-9.520068359375000000e+01,-1.750753784179687500e+02,1.166222991943359375e+02,8.770228385925292969e+00,3.480780029296875000e+01,-1.537292938232421875e+02,6.622257232666015625e+01,1.191414108276367188e+02
4.839999973773956299e-01,1.000000000000000000e+00,1.972287178039550781e+00,-5.197685241699218750e+00,3.594183921813964844e+00,-2.024005889892578125e+02,-9.512652587890625000e+01,-1.750137023925781250e+02,1.166222991943359375e+02,8.770228385925292969e+00,3.480780029296875000e+01,-1.537292938232421875e+02,6.622257232666015625e+01,1.191414108276367188e+02
4.880000054836273193e-01,1.000000000000000000e+00,1.909438371658325195e+00,-5.144023895263671875e+00,3.604586601257324219e+00,-2.023458251953125000e+02,-9.505236816406250000e+01,-1.749520263671875000e+02,1.166222991943359375e+02,8.770228385925292969e+00,3.480780029296875000e+01,-1.537292938232421875e+02,6.622257232666015625e+01,1.191414108276367188e+02
4.920000135898590088e-01,1.000000000000000000e+00,1.846592068672180176e+00,-5.090364456176757812e+00,3.614989042282104492e+00,-2.022910461425781250e+02,-9.497821807861328125e+01,-1.748903656005859375e+02,1.166222991943359375e+02,8.770228385925292969e+00,3.480780029296875000e+01,-1.537292938232421875e+02,6.622257232666015625e+01,1.191414108276367188e+02
4.959999918937683105e-01,1.000000000000000000e+00,1.783748626708984375e+00,-5.036707401275634766e+00,3.625391006469726562e+00,-2.022362670898437500e+02,-9.490407562255859375e+01,-1.748287048339843750e+02,1.166222991943359375e+02,8.770228385925292969e+00,3.480780029296875000e+01,-1.537292938232421875e+02,6.622257232666015625e+01,1.191414108276367188e+02
5.000000000000000000e-01,1.000000000000000000e+00,1.720907926559448242e+00,-4.983052730560302734e+00,3.635792016983032227e+00,-2.021815032958984375e+02,-9.482994079589843750e+01,-1.747670440673828125e+02,1.166222991943359375e+02,8.770228385925292969e+00,3.480780029296875000e+01,-1.537292938232421875e+02,6.622257232666015625e+01,1.191414108276367188e+02
5.040000081062316895e-01,1.000000000000000000e+00,1.658069849014282227e+00,-4.929399967193603516e+00,3.646193265914916992e+00,-2.021267395019531250e+02,-9.475579833984375000e+01,-1.747053833007812500e+02,1.166222991943359375e+02,8.770228385925292969e+00,3.480780029296875000e+01,-1.537292938232421875e+02,6.622257232666015625e+01,1.191414108276367188e+02
5.080000162124633789e-01,1.000000000000000000e+00,1.595234513282775879e+00,-4.875750064849853516e+00,3.656593799591064453e+00,-2.020719604492187500e+02,-9.468166351318359375e+01,-1.746437225341796875e+02,1.166222991943359375e+02,8.770228385925292969e+00,3.480780029296875000e+01,-1.537292938232421875e+02,6.622257232666015625e+01,1.191414108276367188e+02
5.120000243186950684e-01,1.000000000000000000e+00,1.532401680946350098e+00,-4.822102069854736328e+00,3.666994094848632812e+00,-2.020171966552734375e+02,-9.460752868652343750e+01,-1.745820617675781250e+02,1.166222991943359375e+02,8.770228385925292969e+00,3.480780029296875000e+01,-1.537292938232421875e+02,6.622257232666015625e+01,1.191414108276367188e+02
5.159999728202819824e-01,1.000000000000000000e+00,1.469571352005004883e+00,-4.768455982208251953e+00,3.677393913269042969e+00,-2.019624328613281250e+02,-9.453340148925781250e+01,-1.745204162597656250e+02,1.166222991943359375e+02,8.770228385925292969e+00,3.480780029296875000e+01,-1.537292938232421875e+02,6.622257232666015625e+01,1.191414108276367188e+02
5.199999809265136719e-01,1.000000000000000000e+00,1.406743407249450684e+00,-4.714812755584716797e+00,3.687793254852294922e+00,-2.019076690673828125e+02,-9.445926666259765625e+01,-1.744587707519531250e+02,1.166222991943359375e+02,8.770228385925292969e+00,3.480780029296875000e+01,-1.537292938232421875e+02,6.622257232666015625e+01,1.191414108276367188e+02
5.239999890327453613e-01,1.000000000000000000e+00,1.343918085098266602e+00,-4.661170959472656250e+00,3.698192358016967773e+00,-2.018529052734375000e+02,-9.438514709472656250e+01,-1.743971252441406250e+02,1.166222991943359375e+02,8.770228385925292969e+00,3.480780029296875000e+01,-1.537292938232421875e+02,6.622257232666015625e+01,1.191414108276367188e+02
5.279999971389770508e-01,1.000000000000000000e+00,1.281095147132873535e+00,-4.607531070709228516e+00,3.708590745925903320e+00,-2.017981567382812500e+02,-9.431102752685546875e+01,-1.743354644775390625e+02,1.166222991943359375e+02,8.770228385925292969e+00,3.480780029296875000e+01,-1.537292938232421875e+02,6.622257232666015625e+01,1.191414108276367188e+02
5.320000052452087402e-01,1.000000000000000000e+00,1.218274593353271484e+00,-4.553893566131591797e+00,3.718988895416259766e+00,-2.017434082031250000e+02,-9.423690795898437500e+01,-1.742738342285156250e+02,1.166222991943359375e+02,8.770228385925292969e+00,3.480780029296875000e+01,-1.537292938232421875e+02,6.622257232666015625e+01,1.191414108276367188e+02
5.360000133514404297e-01,1.000000000000000000e+00,1.155456423759460449e+00,-4.500257968902587891e+00,3.729386568069458008e+00,-2.016886596679687500e+02,-9.416278839111328125e+01,-1.742121887207031250e+02,1.166222991943359375e+02,8.770228385925292969e+00,3.480780029296875000e+01,-1.537292938232421875e+02,6.622257232666015625e+01,1.191414108276367188e+02
5.400000214576721191e-01,1.000000000000000000e+00,1.092640638351440430e+00,-4.446624755859375000e+00,3.739784002304077148e+00,-2.016339111328125000e+02,-9.408867645263671875e+01,-1.741505584716796875e+02,1.166222991943359375e+02,8.770228385925292969e+00,3.480780029296875000e+01,-1.537292938232421875e+02,6.622257232666015625e+01,1.191414108276367188e+02
5.440000295639038086e-01,1.000000000000000000e+00,1.029827356338500977e+00,-4.392993450164794922e+00,3.750181198120117188e+00,-2.015791625976562500e+02,-9.401457214355468750e+01,-1.740889129638671875e+02,1.166222991943359375e+02,8.770228385925292969e+00,3.480780029296875000e+01,-1.537292938232421875e+02,6.622257232666015625e+01,1.191414108276367188e+02
5.479999780654907227e-01,1.000000000000000000e+00,9.670162796974182129e-01,-4.339364051818847656e+00,3.760577440261840820e+00,-2.015243988037109375e+02,-9.394046020507812500e+01,-1.740272827148437500e+02,1.166222991943359375e+02,8.770228385925292969e+00,3.480780029296875000e+01,-1.537292938232421875e+02,6.622257232666015625e+01,1.191414108276367188e+02
5.519999861717224121e-01,1.000000000000000000e+00,9.042076468467712402e-01,-4.285736560821533203e+00,3.770973920822143555e+00,-2.014696655273437500e+02,-9.386635589599609375e+01,-1.739656524658203125e+02,1.166222991943359375e+02,8.770228385925292969e+00,3.480780029296875000e+01,-1.537292938232421875e+02,6.622257232666015625e+01,1.191414108276367188e+02
5.559999942779541016e-01,1.000000000000000000e+00,8.414013981819152832e-01,-4.232111454010009766e+00,3.781369447708129883e+00,-2.014149169921875000e+02,-9.379225158691406250e+01,-1.739040222167968750e+02,1.166222991943359375e+02,8.770228385925292969e+00,3.480780029296875000e+01,-1.537292938232421875e+02,6.622257232666015625e+01,1.191414108276367188e+02
5.600000023841857910e-01,1.000000000000000000e+00,7.785974740982055664e-01,-4.178488254547119141e+00,3.791764974594116211e+00,-2.013601837158203125e+02,-9.371815490722656250e+01,-1.738424072265625000e+02,1.166222991943359375e+02,8.770228385925292969e+00,3.480780029296875000e+01,-1.537292938232421875e+02,6.622257232666015625e+01,1.191414108276367188e+02
5.640000104904174805e-01,1.000000000000000000e+00,7.157958149909973145e-01,-4.124866962432861328e+00,3.802159786224365234e+00,-2.013054504394531250e+02,-9.364405822753906250e+01,-1.737807769775390625e+02,1.166222991943359375e+02,8.770228385925292969e+00,3.480780029296875000e+01,-1.537292938232421875e+02,6.622257232666015625e+01,1.191414108276367188e+02
5.680000185966491699e-01,1.000000000000000000e+00,6.529964804649353027e-01,-4.071247577667236328e+00,3.812554359436035156e+00,-2.012507019042968750e+02,-9.356996917724609375e+01,-1.737191619873046875e+02,1.166222991943359375e+02,8.770228385925292969e+00,3.480780029296875000e+01,-1.537292938232421875e+02,6.622257232666015625e+01,1.191414108276367188e+02
5.720000267028808594e-01,1.000000000000000000e+00,5.901995301246643066e-01,-4.017630577087402344e+00,3.822948694229125977e+00,-2.011959838867187500e+02,-9.349587249755859375e+01,-1.736575317382812500e+02,1.166222991943359375e+02,8.770228385925292969e+00,3.480780029296875000e+01,-1.537292938232421875e+02,6.622257232666015625e+01,1.191414108276367188e+02
5.759999752044677734e-01,1.000000000000000000e+00,5.274048447608947754e-01,-3.964014768600463867e+00,3.833342552185058594e+00,-2.011412506103515625e+02,-9.342178344726562500e+01,-1.735959167480468750e+02,1.166222991943359375e+02,8.770228385925292969e+00,3.480780029296875000e+01,-1.537292938232421875e+02,6.622257232666015625e+01,1.191414108276367188e+02
5.799999833106994629e-01,1.000000000000000000e+00,4.646124839782714844e-01,-3.910401582717895508e+00,3.843735933303833008e+00,-2.010865173339843750e+02,-9.334769439697265625e+01,-1.735343017578125000e+02,1.166222991943359375e+02,8.770228385925292969e+00,3.480780029296875000e+01,-1.537292938232421875e+02,6.622257232666015625e+01,1.191414108276367188e+02
5.839999914169311523e-01,1.000000000000000000e+00,4.018223285675048828e-01,-3.856790065765380859e+00,3.854129314422607422e+00,-2.010317840576171875e+02,-9.327362060546875000e+01,-1.734726867675781250e+02,1.166222991943359375e+02,8.770228385925292969e+00,3.480780029296875000e+01,-1.537292938232421875e+02,6.622257232666015625e+01,1.191414108276367188e+02
5.879999995231628418e-01,1.000000000000000000e+00,3.390344381332397461e-01,-3.803180456161499023e+00,3.864521980285644531e+00,-2.009770660400390625e+02,-9.319953918457031250e+01,-1.734110717773437500e+02,1.166222991943359375e+02,8.770228385925292969e+00,3.480780029296875000e+01,-1.537292938232421875e+02,6.622257232666015625e+01,1.191414108276367188e+02
5.920000076293945312e-01,1.000000000000000000e+00,2.762488424777984619e-01,-3.749573230743408203e+00,3.874914407730102539e+00,-2.009223327636718750e+02,-9.312546539306640625e+01,-1.733494720458984375e+02,1.166222991943359375e+02,8.770228385925292969e+00,3.480780029296875000e+01,-1.537292938232421875e+02,6.622257232666015625e+01,1.191414108276367188e+02
5.960000157356262207e-01,1.000000000000000000e+00,2.134654968976974487e-01,-3.695967435836791992e+00,3.885306119918823242e+00,-2.008676147460937500e+02,-9.305138397216796875e+01,-1.732878570556640625e+02,1.166222991943359375e+02,8.770228385925292969e+00,3.480780029296875000e+01,-1.537292938232421875e+02,6.622257232666015625e+01,1.191414108276367188e+02
6.000000238418579102e-01,1.000000000000000000e+00,1.506843715906143188e-01,-3.642363548278808594e+00,3.895697832107543945e+00,-2.008129119873046875e+02,-9.297731781005859375e+01,-1.732262573242187500e+02,1.166222991943359375e+02,8.770228385925292969e+00,3.480780029296875000e+01,-1.537292938232421875e+02,6.622257232666015625e+01,1.191414108276367188e+02
6.039999723434448242e-01,1.000000000000000000e+00,8.790545910596847534e-02,-3.588762044906616211e+00,3.906089067459106445e+00,-2.007581787109375000e+02,-9.290324401855468750e+01,-1.731646575927734375e+02,1.166222991943359375e+02,8.770228385925292969e+00,3.480780029296875000e+01,-1.537292938232421875e+02,6.622257232666015625e+01,1.191414108276367188e+02
6.079999804496765137e-01,1.000000000000000000e+00,2.512876503169536591e-02,-3.535161972045898438e+00,3.916480064392089844e+00,-2.007034759521484375e+02,-9.282917785644531250e+01,-1.731030578613281250e+02,1.166222991943359375e+02,8.770228385925292969e+00,3.480780029296875000e+01,-1.537292938232421875e+02,6.622257232666015625e+01,1.191414108276367188e+02
6.119999885559082031e-01,1.000000000000000000e+00,-3.764572739601135254e-02,-3.481563806533813477e+00,3.926870346069335938e+00,-2.006487426757812500e+02,-9.275511169433593750e+01,-1.730414581298828125e+02,1.166222991943359375e+02,8.770228385925292969e+00,3.480780029296875000e+01,-1.537292938232421875e+02,6.622257232666015625e+01,1.191414108276367188e+02
6.159999966621398926e-01,1.000000000000000000e+00,-1.004180237650871277e-01,-3.427967786788940430e+00,3.937260389328002930e+00,-2.005940399169921875e+02,-9.268105316162109375e+01,-1.729798736572265625e+02,1.166222991943359375e+02,8.770228385925292969e+00,3.480780029296875000e+01,-1.537292938232421875e+02,6.622257232666015625e+01,1.191414108276367188e+02
6.200000047683715820e-01,1.000000000000000000e+00,-1.631881296634674072e-01,-3.374373435974121094e+00,3.947650432586669922e+00,-2.005393218994140625e+02,-9.260699462890625000e+01,-1.729182739257812500e+02,1.166222991943359375e+02,8.770228385925292969e+00,3.480780029296875000e+01,-1.537292938232421875e+02,6.622257232666015625e+01,1.191414108276367188e+02
6.240000128746032715e-01,1.000000000000000000e+00,-2.259560823440551758e-01,-3.320780992507934570e+00,3.958039522171020508e+00,-2.004846191406250000e+02,-9.253293609619140625e+01,-1.728566741943359375e+02,1.166222991943359375e+02,8.770228385925292969e+00,3.480780029296875000e+01,-1.537292938232421875e+02,6.622257232666015625e+01,1.191414108276367188e+02
6.280000209808349609e-01,1.000000000000000000e+00,-2.887218594551086426e-01,-3.267190456390380859e+00,3.968428850173950195e+00,-2.004299163818359375e+02,-9.245888519287109375e+01,-1.727951049804687500e+02,1.166222991943359375e+02,8.770228385925292969e+00,3.480780029296875000e+01,-1.537292938232421875e+02,6.622257232666015625e+01,1.191414108276367188e+02
6.320000290870666504e-01,1.000000000000000000e+00,-3.514855206012725830e-01,-3.213601827621459961e+00,3.978817462921142578e+00,-2.003752136230468750e+02,-9.238483428955078125e+01,-1.727335052490234375e+02,1.166222991943359375e+02,8.770228385925292969e+00,3.480780029296875000e+01,-1.537292938232421875e+02,6.622257232666015625e+01,1.191414108276367188e+02
6.359999775886535645e-01,1.000000000000000000e+00,-4.142470061779022217e-01,-3.160015106201171875e+00,3.989205837249755859e+00,-2.003205108642578125e+02,-9.231078338623046875e+01,-1.726719207763671875e+02,1.166222991943359375e+02,8.770228385925292969e+00,3.480780029296875000e+01,-1.537292938232421875e+02,6.622257232666015625e+01,1.191414108276367188e+02
6.399999856948852539e-01,1.000000000000000000e+00,-4.770063757896423340e-01,-3.106429815292358398e+00,3.999593973159790039e+00,-2.002658081054687500e+02,-9.223674011230468750e+01,-1.726103363037109375e+02,1.166222991943359375e+02,8.770228385925292969e+00,3.480780029296875000e+01,-1.537292938232421875e+02,6.622257232666015625e+01,1.191414108276367188e+02
6.439999938011169434e-01,1.000000000000000000e+00,-5.397636294364929199e-01,-3.052846670150756836e+00,4.009981632232666016e+00,-2.002111053466796875e+02,-9.216269683837890625e+01,-1.725487670898437500e+02,1.166222991943359375e+02,8.770228385925292969e+00,3.480780029296875000e+01,-1.537292938232421875e+02,6.622257232666015625e+01,1.191414108276367188e+02
6.480000019073486328e-01,1.000000000000000000e+00,-6.025187373161315918e-01,-2.999265193939208984e+00,4.020369052886962891e+00,-2.001564178466796875e+02,-9.208865356445312500e+01,-1.724871826171875000e+02,1.166222991943359375e+02,8.770228385925292969e+00,3.480780029296875000e+01,-1.537292938232421875e+02,6.622257232666015625e+01,1.191414108276367188e+02
6.520000100135803223e-01,1.000000000000000000e+00,-6.652718186378479004e-01,-2.945685625076293945e+00,4.030755519866943359e+00,-2.001017150878906250e+02,-9.201461791992187500e+01,-1.724255981445312500e+02,1.166222991943359375e+02,8.770228385925292969e+00,3.480780029296875000e+01,-1.537292938232421875e+02,6.622257232666015625e+01,1.191414108276367188e+02
6.560000181198120117e-01,1.000000000000000000e+00,-7.280227541923522949e-01,-2.892107725143432617e+00,4.041141986846923828e+00,-2.000470275878906250e+02,-9.194057464599609375e+01,-1.723640289306640625e+02,1.166222991943359375e+02,8.770228385925292969e+00,3.480780029296875000e+01,-1.537292938232421875e+02,6.622257232666015625e+01,1.191414108276367188e+02
6.600000262260437012e-01,1.000000000000000000e+00,-7.907716631889343262e-01,-2.838531732559204102e+00,4.051528453826904297e+00,-1.999923400878906250e+02,-9.186654663085937500e+01,-1.723024597167968750e+02,1.166222991943359375e+02,8.770228385925292969e+00,3.480780029296875000e+01,-1.537292938232421875e+02,6.622257232666015625e+01,1.191414108276367188e+02
6.639999747276306152e-01,1.000000000000000000e+00,-8.535184860229492188e-01,-2.784957408905029297e+00,4.061914443969726562e+00,-1.999376373291015625e+02,-9.179251098632812500e+01,-1.722408905029296875e+02,1.166222991943359375e+02,8.770228385925292969e+00,3.480780029296875000e+01,-1.537292938232421875e+02,6.622257232666015625e+01,1.191414108276367188e+02
6.679999828338623047e-01,1.000000000000000000e+00,-9.162632822990417480e-01,-2.731384754180908203e+00,4.072299957275390625e+00,-1.998829650878906250e+02,-9.171848297119140625e+01,-1.721793212890625000e+02,1.166222991943359375e+02,8.770228385925292969e+00,3.480780029296875000e+01,-1.537292938232421875e+02,6.622257232666015625e+01,1.191414108276367188e+02
6.719999909400939941e-01,1.000000000000000000e+00,-9.790059328079223633e-01,-2.677814006805419922e+00,4.082684993743896484e+00,-1.998282775878906250e+02,-9.164445495605468750e+01,-1.721177520751953125e+02,1.166222991943359375e+02,8.770228385925292969e+00,3.480780029296875000e+01,-1.537292938232421875e+02,6.622257232666015625e+01,1.191414108276367188e+02
6.759999990463256836e-01,1.000000000000000000e+00,-1.041746616363525391e+00,-2.624244928359985352e+00,4.093070030212402344e+00,-1.997735900878906250e+02,-9.157043457031250000e+01,-1.720561981201171875e+02,1.166222991943359375e+02,8.770228385925292969e+00,3.480780029296875000e+01,-1.537292938232421875e+02,6.622257232666015625e+01,1.191414108276367188e+02
6.800000071525573730e-01,1.000000000000000000e+00,-1.104485392570495605e+00,-2.570677757263183594e+00,4.103454589843750000e+00,-1.997189025878906250e+02,-9.149640655517578125e+01,-1.719946289062500000e+02,1.166222991943359375e+02,8.770228385925292969e+00,3.480780029296875000e+01,-1.537292938232421875e+02,6.622257232666015625e+01,1.191414108276367188e+02
6.840000152587890625e-01,1.000000000000000000e+00,-1.167221903800964355e+00,-2.517112255096435547e+00,4.113838672637939453e+00,-1.996642303466796875e+02,-9.142239379882812500e+01,-1.719330749511718750e+02,1.166222991943359375e+02,8.770228385925292969e+00,3.480780029296875000e+01,-1.537292938232421875e+02,6.622257232666015625e+01,1.191414108276367188e+02
6.880000233650207520e-01,1.000000000000000000e+00,-1.229956626892089844e+00,-2.463548183441162109e+00,4.124222755432128906e+00,-1.996095428466796875e+02,-9.134837341308593750e+01,-1.718715057373046875e+02,1.166222991943359375e+02,8.770228385925292969e+00,3.480780029296875000e+01,-1.537292938232421875e+02,6.622257232666015625e+01,1.191414108276367188e+02
6.919999718666076660e-01,1.000000000000000000e+00,-1.292689323425292969e+00,-2.409986019134521484e+00,4.134606361389160156e+00,-1.995548706054687500e+02,-9.127436065673828125e+01,-1.718099517822265625e+02,1.166222991943359375e+02,8.770228385925292969e+00,3.480780029296875000e+01,-1.537292938232421875e+02,6.622257232666015625e+01,1.191414108276367188e+02
6.959999799728393555e-01,1.000000000000000000e+00,-1.355419993400573730e+00,-2.356425523757934570e+00,4.144989490509033203e+00,-1.995001983642578125e+02,-9.120034790039062500e+01,-1.717483978271484375e+02,1.166222991943359375e+02,8.770228385925292969e+00,3.480780029296875000e+01,-1.537292938232421875e+02,6.622257232666015625e+01,1.191414108276367188e+02
6.999999880790710449e-01,1.000000000000000000e+00,-1.418148636817932129e+00,-2.302866935729980469e+00,4.155372142791748047e+00,-1.994455108642578125e+02,-9.112633514404296875e+01,-1.716868438720703125e+02,1.166222991943359375e+02,8.770228385925292969e+00,3.480780029296875000e+01,-1.537292938232421875e+02,6.622257232666015625e+01,1.191414108276367188e+02
7.039999961853027344e-01,1.000000000000000000e+00,-1.480875372886657715e+00,-2.249309539794921875e+00,4.165755271911621094e+00,-1.993908386230468750e+02,-9.105233001708984375e+01,-1.716252899169921875e+02,1.166222991943359375e+02,8.770228385925292969e+00,3.480780029296875000e+01,-1.537292938232421875e+02,6.622257232666015625e+01,1.191414108276367188e+02
7.080000042915344238e-01,1.000000000000000000e+00,-1.543600201606750488e+00,-2.195754289627075195e+00,4.176137447357177734e+00,-1.993361816406250000e+02,-9.097832489013671875e+01,-1.715637512207031250e+02,1.166222991943359375e+02,8.770228385925292969e+00,3.480780029296875000e+01,-1.537292938232421875e+02,6.622257232666015625e+01,1.191414108276367188e+02
7.120000123977661133e-01,1.000000000000000000e+00,-1.606323003768920898e+00,-2.142200469970703125e+00,4.186519145965576172e+00,-1.992815093994140625e+02,-9.090431976318359375e+01,-1.715021972656250000e+02,1.166222991943359375e+02,8.770228385925292969e+00,3.480780029296875000e+01,-1.537292938232421875e+02,6.622257232666015625e+01,1.191414108276367188e+02
7.160000205039978027e-01,1.000000000000000000e+00,-1.669044017791748047e+00,-2.088648319244384766e+00,4.196900844573974609e+00,-1.992268371582031250e+02,-9.083032226562500000e+01,-1.714406585693359375e+02,1.166222991943359375e+02,8.770228385925292969e+00,3.480780029296875000e+01,-1.537292938232421875e+02,6.622257232666015625e+01,1.191414108276367188e+02
7.200000286102294922e-01,1.000000000000000000e+00,-1.731763005256652832e+00,-2.035098075866699219e+00,4.207282066345214844e+00,-1.991721801757812500e+02,-9.075632476806640625e+01,-1.713791198730468750e+02,1.166222991943359375e+02,8.770228385925292969e+00,3.480780029296875000e+01,-1.537292938232421875e+02,6.622257232666015625e+01,1.191414108276367188e+02
7.239999771118164062e-01,1.000000000000000000e+00,-1.794480085372924805e+00,-1.981549143791198730e+00,4.217662811279296875e+00,-1.991175231933593750e+02,-9.068232727050781250e+01,-1.713175811767578125e+02,1.166222991943359375e+02,8.770228385925292969e+00,3.480780029296875000e+01,-1.537292938232421875e+02,6.622257232666015625e+01,1.191414108276367188e+02
7.279999852180480957e-01,1.000000000000000000e+00,-1.857195258140563965e+00,-1.928001880645751953e+00,4.228043556213378906e+00,-1.990628509521484375e+02,-9.060833740234375000e+01,-1.712560424804687500e+02,1.166222991943359375e+02,8.770228385925292969e+00,3.480780029296875000e+01,-1.537292938232421875e+02,6.622257232666015625e+01,1.191414108276367188e+02
7.319999933242797852e-01,1.000000000000000000e+00,-1.919908523559570312e+00,-1.874456405639648438e+00,4.238423824310302734e+00,-1.990081939697265625e+02,-9.053433990478515625e+01,-1.711945037841796875e+02,1.166222991943359375e+02,8.770228385925292969e+00,3.480780029296875000e+01,-1.537292938232421875e+02,6.622257232666015625e+01,1.191414108276367188e+02
7.360000014305114746e-01,1.000000000000000000e+00,-1.982620120048522949e+00,-1.820912480354309082e+00,4.248803615570068359e+00,-1.989535369873046875e+02,-9.046035003662109375e+01,-1.711329650878906250e+02,1.166222991943359375e+02,8.770228385925292969e+00,3.480780029296875000e+01,-1.537292938232421875e+02,6.622257232666015625e+01,1.191414108276367188e+02
7.400000095367431641e-01,1.000000000000000000e+00,-2.045329570770263672e+00,-1.767370104789733887e+00,4.259183406829833984e+00,-1.988988800048828125e+02,-9.038636779785156250e+01,-1.710714263916015625e+02,1.166222991943359375e+02,8.770228385925292969e+00,3.480780029296875000e+01,-1.537292938232421875e+02,6.622257232666015625e+01,1.191414108276367188e+02
7.440000176429748535e-01,1.000000000000000000e+00,-2.108037471771240234e+00,-1.713829278945922852e+00,4.269562721252441406e+00,-1.988442230224609375e+02,-9.031238555908203125e+01,-1.710099029541015625e+02,1.166222991943359375e+02,8.770228385925292969e+00,3.480780029296875000e+01,-1.537292938232421875e+02,6.622257232666015625e+01,1.191414108276367188e+02
7.480000257492065430e-01,1.000000000000000000e+00,-2.170743227005004883e+00,-1.660290122032165527e+00,4.279942035675048828e+00,-1.987895660400390625e+02,-9.023839569091796875e+01,-1.709483642578125000e+02,1.166222991943359375e+02,8.770228385925292969e+00,3.480780029296875000e+01,-1.537292938232421875e+02,6.622257232666015625e+01,1.191414108276367188e+02
7.519999742507934570e-01,1.000000000000000000e+00,-2.233447313308715820e+00,-1.606752395629882812e+00,4.290320873260498047e+00,-1.987349090576171875e+02,-9.016441345214843750e+01,-1.708868408203125000e+02,1.166222991943359375e+02,8.770228385925292969e+00,3.480780029296875000e+01,-1.537292938232421875e+02,6.622257232666015625e+01,1.191414108276367188e+02
7.559999823570251465e-01,1.000000000000000000e+00,-2.296149492263793945e+00,-1.553216457366943359e+00,4.300699710845947266e+00,-1.986802673339843750e+02,-9.009043884277343750e+01,-1.708253173828125000e+02,1.166222991943359375e+02,8.770228385925292969e+00,3.480780029296875000e+01,-1.537292938232421875e+02,6.622257232666015625e+01,1.191414108276367188e+02
7.599999904632568359e-01,1.000000000000000000e+00,-2.358850002288818359e+00,-1.499681949615478516e+00,4.311077594757080078e+00,-1.986256256103515625e+02,-9.001646423339843750e+01,-1.707637939453125000e+02,1.166222991943359375e+02,8.770228385925292969e+00,3.480780029296875000e+01,-1.537292938232421875e+02,6.622257232666015625e+01,1.191414108276367188e+02
7.639999985694885254e-01,1.000000000000000000e+00,-2.421548604965209961e+00,-1.446148872375488281e+00,4.321455478668212891e+00,-1.985709686279296875e+02,-8.994248962402343750e+01,-1.707022705078125000e+02,1.166222991943359375e+02,8.770228385925292969e+00,3.480780029296875000e+01,-1.537292938232421875e+02,6.622257232666015625e+01,1.191414108276367188e+02
7.680000066757202148e-01,1.000000000000000000e+00,-2.484245538711547852e+00,-1.392617583274841309e+00,4.331833362579345703e+00,-1.985163269042968750e+02,-8.986851501464843750e+01,-1.706407470703125000e+02,1.166222991943359375e+02,8.770228385925292969e+00,3.480780029296875000e+01,-1.537292938232421875e+02,6.622257232666015625e+01,1.191414108276367188e+02
7.720000147819519043e-01,1.000000000000000000e+00,-2.546940326690673828e+00,-1.339087605476379395e+00,4.342210292816162109e+00,-1.984616851806640625e+02,-8.979454803466796875e+01,-1.705792388916015625e+02,1.166222991943359375e+02,8.770228385925292969e+00,3.480780029296875000e+01,-1.537292938232421875e+02,6.622257232666015625e+01,1.191414108276367188e+02
7.760000228881835938e-01,1.000000000000000000e+00,-2.609633684158325195e+00,-1.285559177398681641e+00,4.352587223052978516e+00,-1.984070434570312500e+02,-8.972058105468750000e+01,-1.705177154541015625e+02,1.166222991943359375e+02,8.770228385925292969e+00,3.480780029296875000e+01,-1.537292938232421875e+02,6.622257232666015625e+01,1.191414108276367188e+02
7.799999713897705078e-01,1.000000000000000000e+00,-2.672325134277343750e+00,-1.232032418251037598e+00,4.362964153289794922e+00,-1.983524017333984375e+02,-8.964660644531250000e+01,-1.704561920166015625e+02,1.166222991943359375e+02,8.770228385925292969e+00,3.480780029296875000e+01,-1.537292938232421875e+02,6.622257232666015625e+01,1.191414108276367188e+02
7.839999794960021973e-01,1.000000000000000000e+00,-2.735014915466308594e+00,-1.178506970405578613e+00,4.373340129852294922e+00,-1.982977600097656250e+02,-8.957264709472656250e+01,-1.703946838378906250e+02,1.166222991943359375e+02,8.770228385925292969e+00,3.480780029296875000e+01,-1.537292938232421875e+02,6.622257232666015625e+01,1.191414108276367188e+02
7.879999876022338867e-01,1.000000000000000000e+00,-2.797702789306640625e+00,-1.124983310699462891e+00,4.383716583251953125e+00,-1.982431182861328125e+02,-8.949868774414062500e+01,-1.703331756591796875e+02,1.166222991943359375e+02,8.770228385925292969e+00,3.480780029296875000e+01,-1.537292938232421875e+02,6.622257232666015625e+01,1.191414108276367188e+02
7.919999957084655762e-01,1.000000000000000000e+00,-2.860389232635498047e+00,-1.071461200714111328e+00,4.394092559814453125e+00,-1.981884918212890625e+02,-8.942472076416015625e+01,-1.702716522216796875e+02,1.166222991943359375e+02,8.770228385925292969e+00,3.480780029296875000e+01,-1.537292938232421875e+02,6.622257232666015625e+01,1.191414108276367188e+02
7.960000038146972656e-01,1.000000000000000000e+00,-2.923074245452880859e+00,-1.017940640449523926e+00,4.404468536376953125e+00,-1.981338500976562500e+02,-8.935076904296875000e+01,-1.702101440429687500e+02,1.166222991943359375e+02,8.770228385925292969e+00,3.480780029296875000e+01,-1.537292938232421875e+02,6.622257232666015625e+01,1.191414108276367188e+02
8.000000119209289551e-01,1.000000000000000000e+00,-2.985757350921630859e+00,-9.644214510917663574e-01,4.414844036102294922e+00,-1.980792236328125000e+02,-8.927681732177734375e+01,-1.701486511230468750e+02,1.166222991943359375e+02,8.770228385925292969e+00,3.480780029296875000e+01,-1.537292938232421875e+02,6.622257232666015625e+01,1.191414108276367188e+02
8.040000200271606445e-01,1.000000000000000000e+00,-3.048439025878906250e+00,-9.109032750129699707e-01,4.425218582153320312e+00,-1.980245819091796875e+02,-8.920285797119140625e+01,-1.700871276855468750e+02,1.166222991943359375e+02,8.770228385925292969e+00,3.480780029296875000e+01,-1.537292938232421875e+02,6.622257232666015625e+01,1.191414108276367188e+02
8.080000281333923340e-01,1.000000000000000000e+00,-3.111118793487548828e+00,-8.573862910270690918e-01,4.435593128204345703e+00,-1.979699554443359375e+02,-8.912890625000000000e+01,-1.700256347656250000e+02,1.166222991943359375e+02,8.770228385925292969e+00,3.480780029296875000e+01,-1.537292938232421875e+02,6.622257232666015625e+01,1.191414108276367188e+02
8.119999766349792480e-01,1.000000000000000000e+00,-3.173797369003295898e+00,-8.038705587387084961e-01,4.445967674255371094e+00,-1.979153137207031250e+02,-8.905495452880859375e+01,-1.699641418457031250e+02,1.166222991943359375e+02,8.770228385925292969e+00,3.480780029296875000e+01,-1.537292938232421875e+02,6.622257232666015625e+01,1.191414108276367188e+02
8.159999847412109375e-01,1.000000000000000000e+00,-3.236473798751831055e+00,-7.503561973571777344e-01,4.456342220306396484e+00,-1.978606872558593750e+02,-8.898101043701171875e+01,-1.699026336669921875e+02,1.166222991943359375e+02,8.770228385925292969e+00,3.480780029296875000e+01,-1.537292938232421875e+02,6.622257232666015625e+01,1.191414108276367188e+02
8.199999928474426270e-01,1.000000000000000000e+00,-3.299149274826049805e+00,-6.968431472778320312e-01,4.466715812683105469e+00,-1.978060607910156250e+02,-8.890706634521484375e+01,-1.698411407470703125e+02,1.166222991943359375e+02,8.770228385925292969e+00,3.480780029296875000e+01,-1.537292938232421875e+02,6.622257232666015625e+01,1.191414108276367188e+02
8.240000009536743164e-01,1.000000000000000000e+00,-3.361822843551635742e+00,-6.433314085006713867e-01,4.477089405059814453e+00,-1.977514495849609375e+02,-8.883312225341796875e+01,-1.697796325683593750e+02,1.166222991943359375e+02,8.770228385925292969e+00,3.480780029296875000e+01,-1.537292938232421875e+02,6.622257232666015625e+01,1.191414108276367188e+02
8.280000090599060059e-01,1.000000000000000000e+00,-3.424494743347167969e+00,-5.898209214210510254e-01,4.487462997436523438e+00,-1.976968231201171875e+02,-8.875917816162109375e+01,-1.697181396484375000e+02,1.166222991943359375e+02,8.770228385925292969e+00,3.480780029296875000e+01,-1.537292938232421875e+02,6.622257232666015625e+01,1.191414108276367188e+02
8.320000171661376953e-01,1.000000000000000000e+00,-3.487164974212646484e+00,-5.363118052482604980e-01,4.497836112976074219e+00,-1.976421966552734375e+02,-8.868524169921875000e+01,-1.696566467285156250e+02,1.166222991943359375e+02,8.770228385925292969e+00,3.480780029296875000e+01,-1.537292938232421875e+02,6.622257232666015625e+01,1.191414108276367188e+02
8.360000252723693848e-01,1.000000000000000000e+00,-3.549834251403808594e+00,-4.828038811683654785e-01,4.508209228515625000e+00,-1.975875854492187500e+02,-8.861129760742187500e+01,-1.695951538085937500e+02,1.166222991943359375e+02,8.770228385925292969e+00,3.480780029296875000e+01,-1.537292938232421875e+02,6.622257232666015625e+01,1.191414108276367188e+02
8.399999737739562988e-01,1.000000000000000000e+00,-3.612501621246337891e+00,-4.292971789836883545e-01,4.518582344055175781e+00,-1.975329589843750000e+02,-8.853736114501953125e+01,-1.695336608886718750e+02,1.166222991943359375e+02,8.770228385925292969e+00,3.480780029296875000e+01,-1.537292938232421875e+02,6.622257232666015625e+01,1.191414108276367188e+02
8.439999818801879883e-01,1.000000000000000000e+00,-3.675167798995971680e+00,-3.757916986942291260e-01,4.528954505920410156e+00,-1.974783325195312500e+02,-8.846343231201171875e+01,-1.694721679687500000e+02,1.166222991943359375e+02,8.770228385925292969e+00,3.480780029296875000e+01,-1.537292938232421875e+02,6.622257232666015625e+01,1.191414108276367188e+02
8.479999899864196777e-01,1.000000000000000000e+00,-3.737832069396972656e+00,-3.222874104976654053e-01,4.539327144622802734e+00,-1.974237213134765625e+02,-8.838949584960937500e+01,-1.694106903076171875e+02,1.166222991943359375e+02,8.770228385925292969e+00,3.480780029296875000e+01,-1.537292938232421875e+02,6.622257232666015625e+01,1.191414108276367188e+02
8.519999980926513672e-01,1.000000000000000000e+00,-3.800495386123657227e+00,-2.687843739986419678e-01,4.549699306488037109e+00,-1.973691101074218750e+02,-8.831555938720703125e+01,-1.693491973876953125e+02,1.166222991943359375e+02,8.770228385925292969e+00,3.480780029296875000e+01,-1.537292938232421875e+02,6.622257232666015625e+01,1.191414108276367188e+02
8.560000061988830566e-01,1.000000000000000000e+00,-3.863156795501708984e+00,-2.152825742959976196e-01,4.560071468353271484e+00,-1.973144836425781250e+02,-8.824162292480468750e+01,-1.692877197265625000e+02,1.166222991943359375e+02,8.770228385925292969e+00,3.480780029296875000e+01,-1.537292938232421875e+02,6.622257232666015625e+01,1.191414108276367188e+02
8.600000143051147461e-01,1.000000000000000000e+00,-3.925817012786865234e+00,-1.617819815874099731e-01,4.570442676544189453e+00,-1.972598724365234375e+02,-8.816769409179687500e+01,-1.692262268066406250e+02,1.166222991943359375e+02,8.770228385925292969e+00,3.480780029296875000e+01,-1.537292938232421875e+02,6.622257232666015625e+01,1.191414108276367188e+02
8.640000224113464355e-01,1.000000000000000000e+00,-3.988475322723388672e+00,-1.082826107740402222e-01,4.580814361572265625e+00,-1.972052612304687500e+02,-8.809377288818359375e+01,-1.691647491455078125e+02,1.166222991943359375e+02,8.770228385925292969e+00,3.480780029296875000e+01,-1.537292938232421875e+02,6.622257232666015625e+01,1.191414108276367188e+02
8.679999709129333496e-01,1.000000000000000000e+00,-4.051132678985595703e+00,-5.478442087769508362e-02,4.591185569763183594e+00,-1.971506500244140625e+02,-8.801984405517578125e+01,-1.691032562255859375e+02,1.166222991943359375e+02,8.770228385925292969e+00,3.480780029296875000e+01,-1.537292938232421875e+02,6.622257232666015625e+01,1.191414108276367188e+02
8.719999790191650391e-01,1.000000000000000000e+00,-4.113788127899169922e+00,-1.287395250983536243e-03,4.601556777954101562e+00,-1.970960388183593750e+02,-8.794592285156250000e+01,-1.690417785644531250e+02,1.166222991943359375e+02,8.770228385925292969e+00,3.480780029296875000e+01,-1.537292938232421875e+02,6.622257232666015625e+01,1.191414108276367188e+02
8.759999871253967285e-01,1.000000000000000000e+00,-4.176442146301269531e+00,5.220849439501762390e-02,4.611927986145019531e+00,-1.970414276123046875e+02,-8.787199401855468750e+01,-1.689802856445312500e+02,1.166222991943359375e+02,8.770228385925292969e+00,3.480780029296875000e+01,-1.537292938232421875e+02,6.622257232666015625e+01,1.191414108276367188e+02
8.799999952316284180e-01,1.000000000000000000e+00,-4.239095211029052734e+00,1.057032570242881775e-01,4.622298240661621094e+00,-1.969868316650390625e+02,-8.779807281494140625e+01,-1.689188232421875000e+02,1.166222991943359375e+02,8.770228385925292969e+00,3.480780029296875000e+01,-1.537292938232421875e+02,6.622257232666015625e+01,1.191414108276367188e+02
8.840000033378601074e-01,1.000000000000000000e+00,-4.301747322082519531e+00,1.591968834400177002e-01,4.632668972015380859e+00,-1.969322052001953125e+02,-8.772415161132812500e+01,-1.688573303222656250e+02,1.166222991943359375e+02,8.770228385925292969e+00,3.480780029296875000e+01,-1.537292938232421875e+02,6.622257232666015625e+01,1.191414108276367188e+02
8.880000114440917969e-01,1.000000000000000000e+00,-4.364397048950195312e+00,2.126893252134323120e-01,4.643038749694824219e+00,-1.968776092529296875e+02,-8.765023040771484375e+01,-1.687958526611328125e+02,1.166222991943359375e+02,8.770228385925292969e+00,3.480780029296875000e+01,-1.537292938232421875e+02,6.622257232666015625e+01,1.191414108276367188e+02
8.920000195503234863e-01,1.000000000000000000e+00,-4.427046298980712891e+00,2.661806046962738037e-01,4.653409004211425781e+00,-1.968229980468750000e+02,-8.757631683349609375e+01,-1.687343902587890625e+02,1.166222991943359375e+02,8.770228385925292969e+00,3.480780029296875000e+01,-1.537292938232421875e+02,6.622257232666015625e+01,1.191414108276367188e+02
8.960000276565551758e-01,1.000000000000000000e+00,-4.489693641662597656e+00,3.196707069873809814e-01,4.663778781890869141e+00,-1.967684020996093750e+02,-8.750240325927734375e+01,-1.686729125976562500e+02,1.166222991943359375e+02,8.770228385925292969e+00,3.480780029296875000e+01,-1.537292938232421875e+02,6.622257232666015625e+01,1.191414108276367188e+02
8.999999761581420898e-01,1.000000000000000000e+00,-4.552340030670166016e+00,3.731595873832702637e-01,4.674148082733154297e+00,-1.967137908935546875e+02,-8.742848205566406250e+01,-1.686114501953125000e+02,1.166222991943359375e+02,8.770228385925292969e+00,3.480780029296875000e+01,-1.537292938232421875e+02,6.622257232666015625e+01,1.191414108276367188e+02
9.039999842643737793e-01,1.000000000000000000e+00,-4.614984512329101562e+00,4.266472458839416504e-01,4.684517383575439453e+00,-1.966591949462890625e+02,-8.735457611083984375e+01,-1.685499725341796875e+02,1.166222991943359375e+02,8.770228385925292969e+00,3.480780029296875000e+01,-1.537292938232421875e+02,6.622257232666015625e+01,1.191414108276367188e+02
9.079999923706054688e-01,1.000000000000000000e+00,-4.677627563476562500e+00,4.801336526870727539e-01,4.694886207580566406e+00,-1.966045989990234375e+02,-8.728066253662109375e+01,-1.684884948730468750e+02,1.166222991943359375e+02,8.770228385925292969e+00,3.480780029296875000e+01,-1.537292938232421875e+02,6.622257232666015625e+01,1.191414108276367188e+02
9.120000004768371582e-01,1.000000000000000000e+00,-4.740269660949707031e+00,5.336188077926635742e-01,4.705255508422851562e+00,-1.965499877929687500e+02,-8.720675659179687500e+01,-1.684270324707031250e+02,1.166222991943359375e+02,8.770228385925292969e+00,3.480780029296875000e+01,-1.537292938232421875e+02,6.622257232666015625e+01,1.191414108276367188e+02
9.160000085830688477e-01,1.000000000000000000e+00,-4.802909851074218750e+00,5.871027112007141113e-01,4.715623855590820312e+00,-1.964953918457031250e+02,-8.713285064697265625e+01,-1.683655700683593750e+02,1.166222991943359375e+02,8.770228385925292969e+00,3.480780029296875000e+01,-1.537292938232421875e+02,6.622257232666015625e+01,1.191414108276367188e+02
9.200000166893005371e-01,1.000000000000000000e+00,-4.865548610687255859e+00,6.405852437019348145e-01,4.725992202758789062e+00,-1.964408111572265625e+02,-8.705894470214843750e+01,-1.683041076660156250e+02,1.166222991943359375e+02,8.770228385925292969e+00,3.480780029296875000e+01,-1.537292938232421875e+02,6.622257232666015625e+01,1.191414108276367188e+02
9.240000247955322266e-01,1.000000000000000000e+00,-4.928185462951660156e+00,6.940665245056152344e-01,4.736360073089599609e+00,-1.963861999511718750e+02,-8.698503875732421875e+01,-1.682426452636718750e+02,1.166222991943359375e+02,8.770228385925292969e+00,3.480780029296875000e+01,-1.537292938232421875e+02,6.622257232666015625e+01,1.191414108276367188e+02
9.279999732971191406e-01,1.000000000000000000e+00,-4.990821361541748047e+00,7.475464344024658203e-01,4.746727943420410156e+00,-1.963316040039062500e+02,-8.691114044189453125e+01,-1.681811676025390625e+02,1.166222991943359375e+02,8.770228385925292969e+00,3.480780029296875000e+01,-1.537292938232421875e+02,6.622257232666015625e+01,1.191414108276367188e+02
9.319999814033508301e-01,1.000000000000000000e+00,-5.053455352783203125e+00,8.010250926017761230e-01,4.757095336914062500e+00,-1.962770233154296875e+02,-8.683723449707031250e+01,-1.681197052001953125e+02,1.166222991943359375e+02,8.770228385925292969e+00,3.480780029296875000e+01,-1.537292938232421875e+02,6.622257232666015625e+01,1.191414108276367188e+02
9.359999895095825195e-01,1.000000000000000000e+00,-5.116087913513183594e+00,8.545023202896118164e-01,4.767462730407714844e+00,-1.962224273681640625e+02,-8.676334381103515625e+01,-1.680582580566406250e+02,1.166222991943359375e+02,8.770228385925292969e+00,3.480780029296875000e+01,-1.537292938232421875e+02,6.622257232666015625e+01,1.191414108276367188e+02
9.399999976158142090e-01,1.000000000000000000e+00,-5.178718566894531250e+00,9.079781174659729004e-01,4.777829647064208984e+00,-1.961678466796875000e+02,-8.668944549560546875e+01,-1.679967956542968750e+02,1.166222991943359375e+02,8.770228385925292969e+00,3.480780029296875000e+01,-1.537292938232421875e+02,6.622257232666015625e+01,1.191414108276367188e+02
9.440000057220458984e-01,1.000000000000000000e+00,-5.241348266601562500e+00,9.614525437355041504e-01,4.788196563720703125e+00,-1.961132507324218750e+02,-8.661554718017578125e+01,-1.679353332519531250e+02,1.166222991943359375e+02,8.770228385925292969e+00,3.480780029296875000e+01,-1.537292938232421875e+02,6.622257232666015625e+01,1.191414108276367188e+02
9.480000138282775879e-01,1.000000000000000000e+00,-5.303975582122802734e+00,1.014925718307495117e+00,4.798563003540039062e+00,-1.960586700439453125e+02,-8.654165649414062500e+01,-1.678739013671875000e+02,1.166222991943359375e+02,8.770228385925292969e+00,3.480780029296875000e+01,-1.537292938232421875e+02,6.622257232666015625e+01,1.191414108276367188e+02
9.520000219345092773e-01,1.000000000000000000e+00,-5.366601467132568359e+00,1.068397164344787598e+00,4.808929443359375000e+00,-1.960040893554687500e+02,-8.646777343750000000e+01,-1.678124389648437500e+02,1.166222991943359375e+02,8.770228385925292969e+00,3.480780029296875000e+01,-1.537292938232421875e+02,6.622257232666015625e+01,1.191414108276367188e+02
9.559999704360961914e-01,1.000000000000000000e+00,-5.429225444793701172e+00,1.121867418289184570e+00,4.819294929504394531e+00,-1.959494934082031250e+02,-8.639388275146484375e+01,-1.677509918212890625e+02,1.166222991943359375e+02,8.770228385925292969e+00,3.480780029296875000e+01,-1.537292938232421875e+02,6.622257232666015625e+01,1.191414108276367188e+02
9.599999785423278809e-01,1.000000000000000000e+00,-5.491848468780517578e+00,1.175336122512817383e+00,4.829660415649414062e+00,-1.958949127197265625e+02,-8.631999206542968750e+01,-1.676895294189453125e+02,1.166222991943359375e+02,8.770228385925292969e+00,3.480780029296875000e+01,-1.537292938232421875e+02,6.622257232666015625e+01,1.191414108276367188e+02
9.639999866485595703e-01,1.000000000000000000e+00,-5.554469108581542969e+00,1.228803396224975586e+00,4.840025901794433594e+00,-1.958403320312500000e+02,-8.624610900878906250e+01,-1.676280822753906250e+02,1.166222991943359375e+02,8.770228385925292969e+00,3.480780029296875000e+01,-1.537292938232421875e+02,6.622257232666015625e+01,1.191414108276367188e+02
9.679999947547912598e-01,1.000000000000000000e+00,-5.617087841033935547e+00,1.282269120216369629e+00,4.850390911102294922e+00,-1.957857513427734375e+02,-8.617222595214843750e+01,-1.675666503906250000e+02,1.166222991943359375e+02,8.770228385925292969e+00,3.480780029296875000e+01,-1.537292938232421875e+02,6.622257232666015625e+01,1.191414108276367188e+02
9.720000028610229492e-01,1.000000000000000000e+00,-5.679705142974853516e+00,1.335733294486999512e+00,4.860755920410156250e+00,-1.957311706542968750e+02,-8.609835052490234375e+01,-1.675052032470703125e+02,1.166222991943359375e+02,8.770228385925292969e+00,3.480780029296875000e+01,-1.537292938232421875e+02,6.622257232666015625e+01,1.191414108276367188e+02
9.760000109672546387e-01,1.000000000000000000e+00,-5.742320537567138672e+00,1.389195919036865234e+00,4.871120452880859375e+00,-1.956766052246093750e+02,-8.602447509765625000e+01,-1.674437561035156250e+02,1.166222991943359375e+02,8.770228385925292969e+00,3.480780029296875000e+01,-1.537292938232421875e+02,6.622257232666015625e+01,1.191414108276367188e+02
9.800000190734863281e-01,1.000000000000000000e+00,-5.804934501647949219e+00,1.442657113075256348e+00,4.881484031677246094e+00,-1.956220245361328125e+02,-8.595059967041015625e+01,-1.673823089599609375e+02,1.166222991943359375e+02,8.770228385925292969e+00,3.480780029296875000e+01,-1.537292938232421875e+02,6.622257232666015625e+01,1.191414108276367188e+02
9.840000271797180176e-01,1.000000000000000000e+00,-5.867546081542968750e+00,1.496116638183593750e+00,4.891848087310791016e+00,-1.955674591064453125e+02,-8.587672424316406250e+01,-1.673208770751953125e+02,1.166222991943359375e+02,8.770228385925292969e+00,3.480780029296875000e+01,-1.537292938232421875e+02,6.622257232666015625e+01,1.191414108276367188e+02
9.879999756813049316e-01,1.000000000000000000e+00,-5.930156230926513672e+00,1.549574613571166992e+00,4.902211666107177734e+00,-1.955128784179687500e+02,-8.580284881591796875e+01,-1.672594299316406250e+02,1.166222991943359375e+02,8.770228385925292969e+00,3.480780029296875000e+01,-1.537292938232421875e+02,6.622257232666015625e+01,1.191414108276367188e+02
9.919999837875366211e-01,1.000000000000000000e+00,-5.992764472961425781e+00,1.603031039237976074e+00,4.912574768066406250e+00,-1.954583129882812500e+02,-8.572898101806640625e+01,-1.671980133056640625e+02,1.166222991943359375e+02,8.770228385925292969e+00,3.480780029296875000e+01,-1.537292938232421875e+02,6.622257232666015625e+01,1.191414108276367188e+02
9.959999918937683105e-01,1.000000000000000000e+00,-6.055370330810546875e+00,1.656485795974731445e+00,4.922937870025634766e+00,-1.954037475585937500e+02,-8.565511322021484375e+01,-1.671365814208984375e+02,1.166222991943359375e+02,8.770228385925292969e+00,3.480780029296875000e+01,-1.537292938232421875e+02,6.622257232666015625e+01,1.191414108276367188e+02
1.000000000000000000e+00,1.000000000000000000e+00,-6.117974758148193359e+00,1.709939002990722656e+00,4.933300495147705078e+00,-1.953491821289062500e+02,-8.558125305175781250e+01,-1.670751495361328125e+02,1.166222991943359375e+02,8.770228385925292969e+00,3.480780029296875000e+01,-1.537292938232421875e+02,6.622257232666015625e+01,1.191414108276367188e+02
1.003999948501586914e+00,1.000000000000000000e+00,-6.180577278137207031e+00,1.763390421867370605e+00,4.943662643432617188e+00,-1.952946166992187500e+02,-8.550739288330078125e+01,-1.670137176513671875e+02,1.166222991943359375e+02,8.770228385925292969e+00,3.480780029296875000e+01,-1.537292938232421875e+02,6.622257232666015625e+01,1.191414108276367188e+02
1.008000016212463379e+00,1.000000000000000000e+00,-6.243177413940429688e+00,1.816840171813964844e+00,4.954024791717529297e+00,-1.952400512695312500e+02,-8.543353271484375000e+01,-1.669522857666015625e+02,1.166222991943359375e+02,8.770228385925292969e+00,3.480780029296875000e+01,-1.537292938232421875e+02,6.622257232666015625e+01,1.191414108276367188e+02
1.011999964714050293e+00,1.000000000000000000e+00,-6.305776119232177734e+00,1.870288252830505371e+00,4.964385986328125000e+00,-1.951854858398437500e+02,-8.535967254638671875e+01,-1.668908691406250000e+02,1.166222991943359375e+02,8.770228385925292969e+00,3.480780029296875000e+01,-1.537292938232421875e+02,6.622257232666015625e+01,1.191414108276367188e+02
1.016000032424926758e+00,1.000000000000000000e+00,-6.368372440338134766e+00,1.923734784126281738e+00,4.974747657775878906e+00,-1.951309204101562500e+02,-8.528582000732421875e+01,-1.668294372558593750e+02,1.166222991943359375e+02,8.770228385925292969e+00,3.480780029296875000e+01,-1.537292938232421875e+02,6.622257232666015625e+01,1.191414108276367188e+02
1.019999980926513672e+00,1.000000000000000000e+00,-6.430966854095458984e+00,1.977179527282714844e+00,4.985108375549316406e+00,-1.950763854980468750e+02,-8.521196746826171875e+01,-1.667680206298828125e+02,1.166222991943359375e+02,8.770228385925292969e+00,3.480780029296875000e+01,-1.537292938232421875e+02,6.622257232666015625e+01,1.191414108276367188e+02
1.024000048637390137e+00,1.000000000000000000e+00,-6.493559360504150391e+00,2.030622482299804688e+00,4.995469093322753906e+00,-1.950218200683593750e+02,-8.513810729980468750e+01,-1.667066040039062500e+02,1.166222991943359375e+02,8.770228385925292969e+00,3.480780029296875000e+01,-1.537292938232421875e+02,6.622257232666015625e+01,1.191414108276367188e+02
1.026999950408935547e+00,1.000000000000000000e+00,-6.556149482727050781e+00,2.084063768386840820e+00,5.005829334259033203e+00,-1.949672546386718750e+02,-8.506426239013671875e+01,-1.666451873779296875e+02,1.166222991943359375e+02,8.770228385925292969e+00,3.480780029296875000e+01,-1.537292938232421875e+02,6.622257232666015625e+01,1.191414108276367188e+02
1.031999945640563965e+00,1.000000000000000000e+00,-6.618738174438476562e+00,2.137503147125244141e+00,5.016189098358154297e+00,-1.949127197265625000e+02,-8.499042510986328125e+01,-1.665837707519531250e+02,1.166222991943359375e+02,8.770228385925292969e+00,3.480780029296875000e+01,-1.537292938232421875e+02,6.622257232666015625e+01,1.191414108276367188e+02
1.036000013351440430e+00,1.000000000000000000e+00,-6.681324481964111328e+00,2.190940856933593750e+00,5.026548862457275391e+00,-1.948581542968750000e+02,-8.491658020019531250e+01,-1.665223541259765625e+02,1.166222991943359375e+02,8.770228385925292969e+00,3.480780029296875000e+01,-1.537292938232421875e+02,6.622257232666015625e+01,1.191414108276367188e+02
1.039999961853027344e+00,1.000000000000000000e+00,-6.743908405303955078e+00,2.244376897811889648e+00,5.036908149719238281e+00,-1.948036041259765625e+02,-8.484274291992187500e+01,-1.664609375000000000e+02,1.166222991943359375e+02,8.770228385925292969e+00,3.480780029296875000e+01,-1.537292938232421875e+02,6.622257232666015625e+01,1.191414108276367188e+02
1.044000029563903809e+00,1.000000000000000000e+00,-6.806490421295166016e+00,2.297811031341552734e+00,5.047266960144042969e+00,-1.947490692138671875e+02,-8.476889801025390625e+01,-1.663995361328125000e+02,1.166222991943359375e+02,8.770228385925292969e+00,3.480780029296875000e+01,-1.537292938232421875e+02,6.622257232666015625e+01,1.191414108276367188e+02
1.047999978065490723e+00,1.000000000000000000e+00,-6.869070529937744141e+00,2.351243019104003906e+00,5.057625770568847656e+00,-1.946945190429687500e+02,-8.469506072998046875e+01,-1.663381195068359375e+02,1.166222991943359375e+02,8.770228385925292969e+00,3.480780029296875000e+01,-1.537292938232421875e+02,6.622257232666015625e+01,1.191414108276367188e+02
1.052000045776367188e+00,1.000000000000000000e+00,-6.931647777557373047e+00,2.404673576354980469e+00,5.067983627319335938e+00,-1.946399688720703125e+02,-8.462123107910156250e+01,-1.662767028808593750e+02,1.166222991943359375e+02,8.770228385925292969e+00,3.480780029296875000e+01,-1.537292938232421875e+02,6.622257232666015625e+01,1.191414108276367188e+02
1.054999947547912598e+00,1.000000000000000000e+00,-6.994223594665527344e+00,2.458101987838745117e+00,5.078341960906982422e+00,-1.945854339599609375e+02,-8.454740142822265625e+01,-1.662153167724609375e+02,1.166222991943359375e+02,8.770228385925292969e+00,3.480780029296875000e+01,-1.537292938232421875e+02,6.622257232666015625e+01,1.191414108276367188e+02
1.059999942779541016e+00,1.000000000000000000e+00,-7.056797027587890625e+00,2.511528730392456055e+00,5.088699340820312500e+00,-1.945308990478515625e+02,-8.447357177734375000e+01,-1.661539154052734375e+02,1.166222991943359375e+02,8.770228385925292969e+00,3.480780029296875000e+01,-1.537292938232421875e+02,6.622257232666015625e+01,1.191414108276367188e+02
1.064000010490417480e+00,1.000000000000000000e+00,-7.119368076324462891e+00,2.564953327178955078e+00,5.099056243896484375e+00,-1.944763641357421875e+02,-8.439974975585937500e+01,-1.660925140380859375e+02,1.166222991943359375e+02,8.770228385925292969e+00,3.480780029296875000e+01,-1.537292938232421875e+02,6.622257232666015625e+01,1.191414108276367188e+02
1.067999958992004395e+00,1.000000000000000000e+00,-7.181936264038085938e+00,2.618376255035400391e+00,5.109413146972656250e+00,-1.944218292236328125e+02,-8.432592773437500000e+01,-1.660311279296875000e+02,1.166222991943359375e+02,8.770228385925292969e+00,3.480780029296875000e+01,-1.537292938232421875e+02,6.622257232666015625e+01,1.191414108276367188e+02
1.072000026702880859e+00,1.000000000000000000e+00,-7.244503498077392578e+00,2.671797037124633789e+00,5.119769573211669922e+00,-1.943672943115234375e+02,-8.425210571289062500e+01,-1.659697265625000000e+02,1.166222991943359375e+02,8.770228385925292969e+00,3.480780029296875000e+01,-1.537292938232421875e+02,6.622257232666015625e+01,1.191414108276367188e+02
1.075999975204467773e+00,1.000000000000000000e+00,-7.307066917419433594e+00,2.725216150283813477e+00,5.130125045776367188e+00,-1.943127593994140625e+02,-8.417828369140625000e+01,-1.659083251953125000e+02,1.166222991943359375e+02,8.770228385925292969e+00,3.480780029296875000e+01,-1.537292938232421875e+02,6.622257232666015625e+01,1.191414108276367188e+02
1.080000042915344238e+00,1.000000000000000000e+00,-7.369628906250000000e+00,2.778633117675781250e+00,5.140480518341064453e+00,-1.942582244873046875e+02,-8.410446929931640625e+01,-1.658469390869140625e+02,1.166222991943359375e+02,8.770228385925292969e+00,3.480780029296875000e+01,-1.537292938232421875e+02,6.622257232666015625e+01,1.191414108276367188e+02
1.083999991416931152e+00,1.000000000000000000e+00,-7.432189464569091797e+00,2.832048177719116211e+00,5.150835990905761719e+00,-1.942037048339843750e+02,-8.403065490722656250e+01,-1.657855529785156250e+02,1.166222991943359375e+02,8.770228385925292969e+00,3.480780029296875000e+01,-1.537292938232421875e+02,6.622257232666015625e+01,1.191414108276367188e+02
1.088000059127807617e+00,1.000000000000000000e+00,-7.494746208190917969e+00,2.885461091995239258e+00,5.161190509796142578e+00,-1.941491851806640625e+02,-8.395684814453125000e+01,-1.657241668701171875e+02,1.166222991943359375e+02,8.770228385925292969e+00,3.480780029296875000e+01,-1.537292938232421875e+02,6.622257232666015625e+01,1.191414108276367188e+02
1.090999960899353027e+00,1.000000000000000000e+00,-7.557301521301269531e+00,2.938872098922729492e+00,5.171545028686523438e+00,-1.940946502685546875e+02,-8.388304138183593750e+01,-1.656627807617187500e+02,1.166222991943359375e+02,8.770228385925292969e+00,3.480780029296875000e+01,-1.537292938232421875e+02,6.622257232666015625e+01,1.191414108276367188e+02
1.095999956130981445e+00,1.000000000000000000e+00,-7.619853973388671875e+00,2.992280960083007812e+00,5.181899547576904297e+00,-1.940401306152343750e+02,-8.380924224853515625e+01,-1.656014099121093750e+02,1.166222991943359375e+02,8.770228385925292969e+00,3.480780029296875000e+01,-1.537292938232421875e+02,6.622257232666015625e+01,1.191414108276367188e+02
1.100000023841857910e+00,1.000000000000000000e+00,-7.682404041290283203e+00,3.045687675476074219e+00,5.192253112792968750e+00,-1.939856109619140625e+02,-8.373544311523437500e+01,-1.655400390625000000e+02,1.166222991943359375e+02,8.770228385925292969e+00,3.480780029296875000e+01,-1.537292938232421875e+02,6.622257232666015625e+01,1.191414108276367188e+02
1.103999972343444824e+00,1.000000000000000000e+00,-7.744952201843261719e+00,3.099092483520507812e+00,5.202606201171875000e+00,-1.939310913085937500e+02,-8.366164398193359375e+01,-1.654786529541015625e+02,1.166222991943359375e+02,8.770228385925292969e+00,3.480780029296875000e+01,-1.537292938232421875e+02,6.622257232666015625e+01,1.191414108276367188e+02
1.108000040054321289e+00,1.000000000000000000e+00,-7.807497024536132812e+00,3.152495145797729492e+00,5.212958812713623047e+00,-1.938765869140625000e+02,-8.358785247802734375e+01,-1.654172821044921875e+02,1.166222991943359375e+02,8.770228385925292969e+00,3.480780029296875000e+01,-1.537292938232421875e+02,6.622257232666015625e+01,1.191414108276367188e+02
1.111999988555908203e+00,1.000000000000000000e+00,-7.870040416717529297e+00,3.205895900726318359e+00,5.223311424255371094e+00,-1.938220672607421875e+02,-8.351405334472656250e+01,-1.653559112548828125e+02,1.166222991943359375e+02,8.770228385925292969e+00,3.480780029296875000e+01,-1.537292938232421875e+02,6.622257232666015625e+01,1.191414108276367188e+02
1.116000056266784668e+00,1.000000000000000000e+00,-7.932579994201660156e+00,3.259294271469116211e+00,5.233663082122802734e+00,-1.937675628662109375e+02,-8.344026947021484375e+01,-1.652945404052734375e+02,1.166222991943359375e+02,8.770228385925292969e+00,3.480780029296875000e+01,-1.537292938232421875e+02,6.622257232666015625e+01,1.191414108276367188e+02
