rpiRobotics/ARM-21-02-F-19-Robot-Motion-Program/data_performance_abb/curve_1/curve_pose_opt1/100L/grad_result/real/run_2.csv
timestamp,cmd_num,J1,J2,J3,J4,J5,J6
1.400000037392601371e-04,-1.000000000000000000e+00,-3.429580307006835938e+01,4.938364410400390625e+01,3.007501983642578125e+01,1.101245956420898438e+02,9.639295959472656250e+01,-1.301676511764526367e+00,4.030399620532989502e-01,-6.667316436767578125e+01,-1.826874694824218750e+02,-2.342603921890258789e+00,7.562255859375000000e+01,3.135576248168945312e+01
8.524999953806400299e-03,1.000000000000000000e+00,-3.429586029052734375e+01,4.938359832763671875e+01,3.007497978210449219e+01,1.101248092651367188e+02,9.639295959472656250e+01,-1.301676511764526367e+00,4.030399620532989502e-01,-6.667316436767578125e+01,-1.826874694824218750e+02,-2.342603921890258789e+00,7.562255859375000000e+01,3.135619926452636719e+01
1.215799991041421890e-02,1.000000000000000000e+00,-3.429591751098632812e+01,4.938364410400390625e+01,3.007497978210449219e+01,1.101245956420898438e+02,9.639311218261718750e+01,-1.301744341850280762e+00,4.030399620532989502e-01,-6.667316436767578125e+01,-1.826874694824218750e+02,-2.342532396316528320e+00,7.562255859375000000e+01,3.135598182678222656e+01
1.651900075376033783e-02,1.000000000000000000e+00,-3.429580307006835938e+01,4.938359832763671875e+01,3.007497978210449219e+01,1.101246948242187500e+02,9.639295959472656250e+01,-1.301676511764526367e+00,4.030399620532989502e-01,-6.667316436767578125e+01,-1.826873016357421875e+02,-2.342532396316528320e+00,7.562255859375000000e+01,3.135598182678222656e+01
3.843700140714645386e-02,1.000000000000000000e+00,-3.429586029052734375e+01,4.938357543945312500e+01,3.007497978210449219e+01,1.101246948242187500e+02,9.639284515380859375e+01,-1.301540851593017578e+00,4.030399620532989502e-01,-6.667316436767578125e+01,-1.826874694824218750e+02,-2.342460393905639648e+00,7.562255859375000000e+01,3.135598182678222656e+01
4.152899980545043945e-02,1.000000000000000000e+00,-3.429597473144531250e+01,4.938353347778320312e+01,3.007501983642578125e+01,1.101246948242187500e+02,9.639284515380859375e+01,-1.301676511764526367e+00,4.030399620532989502e-01,-6.667316436767578125e+01,-1.826875762939453125e+02,-2.342532396316528320e+00,7.562255859375000000e+01,3.135598182678222656e+01
4.280000180006027222e-02,1.000000000000000000e+00,-3.429597473144531250e+01,4.938353347778320312e+01,3.007501983642578125e+01,1.101246948242187500e+02,9.639284515380859375e+01,-1.301676511764526367e+00,4.030399620532989502e-01,-6.667316436767578125e+01,-1.826875762939453125e+02,-2.342532396316528320e+00,7.562255859375000000e+01,3.135598182678222656e+01
4.941099882125854492e-02,1.000000000000000000e+00,-3.429597473144531250e+01,4.938357543945312500e+01,3.007497978210449219e+01,1.101246948242187500e+02,9.639311218261718750e+01,-1.301540851593017578e+00,4.030399620532989502e-01,-6.667316436767578125e+01,-1.826873016357421875e+02,-2.342532396316528320e+00,7.562241363525390625e+01,3.135598182678222656e+01
5.066800117492675781e-02,1.000000000000000000e+00,-3.429597473144531250e+01,4.938357543945312500e+01,3.007497978210449219e+01,1.101246948242187500e+02,9.639311218261718750e+01,-1.301540851593017578e+00,4.030399620532989502e-01,-6.667316436767578125e+01,-1.826873016357421875e+02,-2.342532396316528320e+00,7.562241363525390625e+01,3.135598182678222656e+01
5.326600000262260437e-02,1.000000000000000000e+00,-3.429597473144531250e+01,4.938357543945312500e+01,3.007497978210449219e+01,1.101246948242187500e+02,9.639311218261718750e+01,-1.301676511764526367e+00,4.030399620532989502e-01,-6.667316436767578125e+01,-1.826874694824218750e+02,-2.342532396316528320e+00,7.562255859375000000e+01,3.135576248168945312e+01
5.459500104188919067e-02,1.000000000000000000e+00,-3.429597473144531250e+01,4.938357543945312500e+01,3.007497978210449219e+01,1.101246948242187500e+02,9.639311218261718750e+01,-1.301676511764526367e+00,4.030399620532989502e-01,-6.667316436767578125e+01,-1.826874694824218750e+02,-2.342532396316528320e+00,7.562255859375000000e+01,3.135576248168945312e+01
6.406600028276443481e-02,1.000000000000000000e+00,-3.429623413085937500e+01,4.938339614868164062e+01,3.007493782043457031e+01,1.101246948242187500e+02,9.639311218261718750e+01,-1.301676511764526367e+00,4.030399620532989502e-01,-6.667316436767578125e+01,-1.826874694824218750e+02,-2.342603921890258789e+00,7.562255859375000000e+01,3.135598182678222656e+01
6.553599983453750610e-02,1.000000000000000000e+00,-3.429703903198242188e+01,4.938307952880859375e+01,3.007501983642578125e+01,1.101246948242187500e+02,9.639311218261718750e+01,-1.301540851593017578e+00,4.030399620532989502e-01,-6.667308044433593750e+01,-1.826873016357421875e+02,-2.342460393905639648e+00,7.562255859375000000e+01,3.135598182678222656e+01
6.685700267553329468e-02,1.000000000000000000e+00,-3.429703903198242188e+01,4.938307952880859375e+01,3.007501983642578125e+01,1.101246948242187500e+02,9.639311218261718750e+01,-1.301540851593017578e+00,4.030399620532989502e-01,-6.667308044433593750e+01,-1.826873016357421875e+02,-2.342460393905639648e+00,7.562255859375000000e+01,3.135598182678222656e+01
6.935600191354751587e-02,1.000000000000000000e+00,-3.429827499389648438e+01,4.938217163085937500e+01,3.007493782043457031e+01,1.101246948242187500e+02,9.639311218261718750e+01,-1.301676511764526367e+00,4.030399620532989502e-01,-6.667316436767578125e+01,-1.826874694824218750e+02,-2.342603921890258789e+00,7.562241363525390625e+01,3.135598182678222656e+01
7.273600250482559204e-02,1.000000000000000000e+00,-3.430007934570312500e+01,4.938027572631835938e+01,3.007497978210449219e+01,1.101246948242187500e+02,9.639311218261718750e+01,-1.301540851593017578e+00,4.030399620532989502e-01,-6.667316436767578125e+01,-1.826874694824218750e+02,-2.342532396316528320e+00,7.562255859375000000e+01,3.135598182678222656e+01
7.412300258874893188e-02,1.000000000000000000e+00,-3.430007934570312500e+01,4.938027572631835938e+01,3.007497978210449219e+01,1.101246948242187500e+02,9.639311218261718750e+01,-1.301540851593017578e+00,4.030399620532989502e-01,-6.667316436767578125e+01,-1.826874694824218750e+02,-2.342532396316528320e+00,7.562255859375000000e+01,3.135598182678222656e+01
7.735999673604965210e-02,1.000000000000000000e+00,-3.430260848999023438e+01,4.937719726562500000e+01,3.007493782043457031e+01,1.101244354248046875e+02,9.639311218261718750e+01,-1.301676511764526367e+00,4.030399620532989502e-01,-6.667316436767578125e+01,-1.826874694824218750e+02,-2.342603921890258789e+00,7.562255859375000000e+01,3.135598182678222656e+01
7.889500260353088379e-02,1.000000000000000000e+00,-3.430260848999023438e+01,4.937719726562500000e+01,3.007493782043457031e+01,1.101244354248046875e+02,9.639311218261718750e+01,-1.301676511764526367e+00,4.030399620532989502e-01,-6.667316436767578125e+01,-1.826874694824218750e+02,-2.342603921890258789e+00,7.562255859375000000e+01,3.135598182678222656e+01
8.206800371408462524e-02,1.000000000000000000e+00,-3.430556488037109375e+01,4.937232971191406250e+01,3.007504081726074219e+01,1.101244354248046875e+02,9.639311218261718750e+01,-1.301676511764526367e+00,4.030399620532989502e-01,-6.667316436767578125e+01,-1.826874694824218750e+02,-2.342532396316528320e+00,7.562255859375000000e+01,3.135598182678222656e+01
8.455599844455718994e-02,1.000000000000000000e+00,-3.430556488037109375e+01,4.937232971191406250e+01,3.007504081726074219e+01,1.101244354248046875e+02,9.639311218261718750e+01,-1.301676511764526367e+00,4.030399620532989502e-01,-6.667316436767578125e+01,-1.826873016357421875e+02,-2.342532396316528320e+00,7.562255859375000000e+01,3.135598182678222656e+01
8.696299791336059570e-02,1.000000000000000000e+00,-3.430906677246093750e+01,4.936551666259765625e+01,3.007518386840820312e+01,1.101239624023437500e+02,9.639349365234375000e+01,-1.301744341850280762e+00,4.030399620532989502e-01,-6.667316436767578125e+01,-1.826873016357421875e+02,-2.342532396316528320e+00,7.562255859375000000e+01,3.135598182678222656e+01
8.949200063943862915e-02,1.000000000000000000e+00,-3.431331253051757812e+01,4.935678482055664062e+01,3.007534408569335938e+01,1.101221160888671875e+02,9.639396667480468750e+01,-1.302015662193298340e+00,4.030399620532989502e-01,-6.667316436767578125e+01,-1.826874694824218750e+02,-2.342460393905639648e+00,7.562255859375000000e+01,3.135598182678222656e+01
9.080299735069274902e-02,1.000000000000000000e+00,-3.431331253051757812e+01,4.935678482055664062e+01,3.007534408569335938e+01,1.101221160888671875e+02,9.639396667480468750e+01,-1.302015662193298340e+00,4.030399620532989502e-01,-6.667316436767578125e+01,-1.826874694824218750e+02,-2.342460393905639648e+00,7.562255859375000000e+01,3.135598182678222656e+01
9.740000218152999878e-02,1.000000000000000000e+00,-3.432407760620117188e+01,4.933383560180664062e+01,3.007703590393066406e+01,1.101129531860351562e+02,9.639556884765625000e+01,-1.303982257843017578e+00,4.030399620532989502e-01,-6.667316436767578125e+01,-1.826874694824218750e+02,-2.342603921890258789e+00,7.562270355224609375e+01,3.135598182678222656e+01
9.870799630880355835e-02,1.000000000000000000e+00,-3.432407760620117188e+01,4.933383560180664062e+01,3.007703590393066406e+01,1.101129531860351562e+02,9.639556884765625000e+01,-1.303982257843017578e+00,4.030399620532989502e-01,-6.667316436767578125e+01,-1.826874694824218750e+02,-2.342603921890258789e+00,7.562270355224609375e+01,3.135598182678222656e+01
1.020150035619735718e-01,1.000000000000000000e+00,-3.433108139038085938e+01,4.931905746459960938e+01,3.007868194580078125e+01,1.101057357788085938e+02,9.639743041992187500e+01,-1.306491494178771973e+00,4.030399620532989502e-01,-6.667316436767578125e+01,-1.826874694824218750e+02,-2.342603921890258789e+00,7.562255859375000000e+01,3.135598182678222656e+01
1.048019975423812866e-01,1.000000000000000000e+00,-3.433108139038085938e+01,4.931905746459960938e+01,3.007868194580078125e+01,1.101057357788085938e+02,9.639743041992187500e+01,-1.306491494178771973e+00,4.030399620532989502e-01,-6.667316436767578125e+01,-1.826874694824218750e+02,-2.342603921890258789e+00,7.562255859375000000e+01,3.135598182678222656e+01
1.137380003929138184e-01,1.000000000000000000e+00,-3.436111068725585938e+01,4.925909042358398438e+01,3.008799362182617188e+01,1.100690765380859375e+02,9.640660858154296875e+01,-1.319037556648254395e+00,4.030399620532989502e-01,-6.667316436767578125e+01,-1.826874694824218750e+02,-2.342532396316528320e+00,7.562241363525390625e+01,3.135598182678222656e+01
1.150640025734901428e-01,1.000000000000000000e+00,-3.436111068725585938e+01,4.925909042358398438e+01,3.008799362182617188e+01,1.100690765380859375e+02,9.640660858154296875e+01,-1.319037556648254395e+00,4.030399620532989502e-01,-6.667316436767578125e+01,-1.826874694824218750e+02,-2.342532396316528320e+00,7.562241363525390625e+01,3.135598182678222656e+01
1.175530031323432922e-01,1.000000000000000000e+00,-3.437391281127929688e+01,4.923386001586914062e+01,3.009281349182128906e+01,1.100503234863281250e+02,9.641114044189453125e+01,-1.325005531311035156e+00,4.030399620532989502e-01,-6.667308044433593750e+01,-1.826874694824218750e+02,-2.342532396316528320e+00,7.562255859375000000e+01,3.135598182678222656e+01
1.207880005240440369e-01,1.000000000000000000e+00,-3.437391281127929688e+01,4.923386001586914062e+01,3.009281349182128906e+01,1.100503234863281250e+02,9.641114044189453125e+01,-1.325005531311035156e+00,4.030399620532989502e-01,-6.667308044433593750e+01,-1.826874694824218750e+02,-2.342532396316528320e+00,7.562255859375000000e+01,3.135598182678222656e+01
1.255069971084594727e-01,1.000000000000000000e+00,-3.438846969604492188e+01,4.920579528808593750e+01,3.009889221191406250e+01,1.100275650024414062e+02,9.641673278808593750e+01,-1.332397580146789551e+00,4.030399620532989502e-01,-6.667316436767578125e+01,-1.826874694824218750e+02,-2.342532396316528320e+00,7.562255859375000000e+01,3.135598182678222656e+01
1.269710063934326172e-01,1.000000000000000000e+00,-3.440448760986328125e+01,4.917416000366210938e+01,3.010637474060058594e+01,1.099999160766601562e+02,9.642324066162109375e+01,-1.341213703155517578e+00,4.030399620532989502e-01,-6.667316436767578125e+01,-1.826874694824218750e+02,-2.342603921890258789e+00,7.562255859375000000e+01,3.135598182678222656e+01
1.309989988803863525e-01,1.000000000000000000e+00,-3.442165374755859375e+01,4.913908386230468750e+01,3.011493301391601562e+01,1.099686279296875000e+02,9.643075561523437500e+01,-1.351182818412780762e+00,4.030399620532989502e-01,-6.667316436767578125e+01,-1.826874694824218750e+02,-2.342460393905639648e+00,7.562241363525390625e+01,3.135598182678222656e+01
1.350629925727844238e-01,1.000000000000000000e+00,-3.444074249267578125e+01,4.910041046142578125e+01,3.012471389770507812e+01,1.099340209960937500e+02,9.643928527832031250e+01,-1.362711668014526367e+00,4.030399620532989502e-01,-6.667316436767578125e+01,-1.826873016357421875e+02,-2.342532396316528320e+00,7.562255859375000000e+01,3.135619926452636719e+01
1.390150040388107300e-01,1.000000000000000000e+00,-3.446187210083007812e+01,4.905852127075195312e+01,3.013585281372070312e+01,1.098959884643554688e+02,9.644898986816406250e+01,-1.375868082046508789e+00,4.030399620532989502e-01,-6.667316436767578125e+01,-1.826874694824218750e+02,-2.342532396316528320e+00,7.562255859375000000e+01,3.135598182678222656e+01
1.430110037326812744e-01,1.000000000000000000e+00,-3.448458099365234375e+01,4.901335144042968750e+01,3.014854049682617188e+01,1.098522186279296875e+02,9.645997619628906250e+01,-1.389906287193298340e+00,4.030399620532989502e-01,-6.667316436767578125e+01,-1.826874694824218750e+02,-2.342532396316528320e+00,7.562255859375000000e+01,3.135598182678222656e+01
1.470459997653961182e-01,1.000000000000000000e+00,-3.450857925415039062e+01,4.896494674682617188e+01,3.016246795654296875e+01,1.098033828735351562e+02,9.647160339355468750e+01,-1.405775308609008789e+00,4.030399620532989502e-01,-6.667316436767578125e+01,-1.826874694824218750e+02,-2.342460393905639648e+00,7.562255859375000000e+01,3.135598182678222656e+01
1.509789973497390747e-01,1.000000000000000000e+00,-3.453386688232421875e+01,4.891380310058593750e+01,3.017749404907226562e+01,1.097520828247070312e+02,9.648391723632812500e+01,-1.423339962959289551e+00,4.030399620532989502e-01,-6.667316436767578125e+01,-1.826874694824218750e+02,-2.342603921890258789e+00,7.562255859375000000e+01,3.135598182678222656e+01
1.549970060586929321e-01,1.000000000000000000e+00,-3.456085205078125000e+01,4.885971832275390625e+01,3.019333267211914062e+01,1.096976699829101562e+02,9.649681854248046875e+01,-1.442125201225280762e+00,4.030399620532989502e-01,-6.667316436767578125e+01,-1.826874694824218750e+02,-2.342532396316528320e+00,7.562255859375000000e+01,3.135598182678222656e+01
1.591099947690963745e-01,1.000000000000000000e+00,-3.458927536010742188e+01,4.880293655395507812e+01,3.021020698547363281e+01,1.096397857666015625e+02,9.651067352294921875e+01,-1.462131142616271973e+00,4.030399620532989502e-01,-6.667316436767578125e+01,-1.826874694824218750e+02,-2.342460393905639648e+00,7.562255859375000000e+01,3.135598182678222656e+01
1.629769951105117798e-01,1.000000000000000000e+00,-3.461901092529296875e+01,4.874369430541992188e+01,3.022793769836425781e+01,1.095794754028320312e+02,9.652486419677734375e+01,-1.482883095741271973e+00,4.030399620532989502e-01,-6.667316436767578125e+01,-1.826874694824218750e+02,-2.342603921890258789e+00,7.562255859375000000e+01,3.135598182678222656e+01
1.669729948043823242e-01,1.000000000000000000e+00,-3.465024566650390625e+01,4.868177795410156250e+01,3.024625587463378906e+01,1.095157318115234375e+02,9.653957366943359375e+01,-1.504584550857543945e+00,4.030399620532989502e-01,-6.667316436767578125e+01,-1.826874694824218750e+02,-2.342460393905639648e+00,7.562255859375000000e+01,3.135576248168945312e+01
1.710540056228637695e-01,1.000000000000000000e+00,-3.468262863159179688e+01,4.861762237548828125e+01,3.026487922668457031e+01,1.094508972167968750e+02,9.655482482910156250e+01,-1.526353716850280762e+00,4.030399620532989502e-01,-6.667316436767578125e+01,-1.826874694824218750e+02,-2.342603921890258789e+00,7.562255859375000000e+01,3.135598182678222656e+01
1.771100014448165894e-01,1.000000000000000000e+00,-3.471630096435546875e+01,4.855138778686523438e+01,3.028407287597656250e+01,1.093839416503906250e+02,9.657039642333984375e+01,-1.548529863357543945e+00,4.030399620532989502e-01,-6.667316436767578125e+01,-1.826874694824218750e+02,-2.342532396316528320e+00,7.562255859375000000e+01,3.135598182678222656e+01
1.790730059146881104e-01,1.000000000000000000e+00,-3.475071716308593750e+01,4.848326873779296875e+01,3.030351066589355469e+01,1.093166275024414062e+02,9.658665466308593750e+01,-1.571112751960754395e+00,4.030399620532989502e-01,-6.667316436767578125e+01,-1.826874694824218750e+02,-2.342532396316528320e+00,7.562255859375000000e+01,3.135598182678222656e+01
1.830500066280364990e-01,1.000000000000000000e+00,-3.478605651855468750e+01,4.841332244873046875e+01,3.032335281372070312e+01,1.092483139038085938e+02,9.660377502441406250e+01,-1.594306230545043945e+00,4.030399620532989502e-01,-6.667316436767578125e+01,-1.826874694824218750e+02,-2.342532396316528320e+00,7.562255859375000000e+01,3.135598182678222656e+01
1.869769990444183350e-01,1.000000000000000000e+00,-3.482225799560546875e+01,4.834162902832031250e+01,3.034346008300781250e+01,1.091791992187500000e+02,9.662136077880859375e+01,-1.617635130882263184e+00,4.030399620532989502e-01,-6.667326354980468750e+01,-1.826874694824218750e+02,-2.342532396316528320e+00,7.562255859375000000e+01,3.135598182678222656e+01
1.910409927368164062e-01,1.000000000000000000e+00,-3.485911560058593750e+01,4.826810455322265625e+01,3.036358833312988281e+01,1.091090927124023438e+02,9.663853454589843750e+01,-1.642049193382263184e+00,4.030399620532989502e-01,-6.667316436767578125e+01,-1.826874694824218750e+02,-2.342532396316528320e+00,7.562255859375000000e+01,3.135598182678222656e+01
1.950110048055648804e-01,1.000000000000000000e+00,-3.489689636230468750e+01,4.819351577758789062e+01,3.038349533081054688e+01,1.090390319824218750e+02,9.665527343750000000e+01,-1.666327595710754395e+00,4.030399620532989502e-01,-6.667308044433593750e+01,-1.826874694824218750e+02,-2.342532396316528320e+00,7.562255859375000000e+01,3.135598182678222656e+01
2.021699994802474976e-01,1.000000000000000000e+00,-3.489689636230468750e+01,4.819351577758789062e+01,3.038349533081054688e+01,1.090390319824218750e+02,9.665527343750000000e+01,-1.666327595710754395e+00,4.030399620532989502e-01,-6.667326354980468750e+01,-1.826874694824218750e+02,-2.342532396316528320e+00,7.562255859375000000e+01,3.135598182678222656e+01
2.036419957876205444e-01,1.000000000000000000e+00,-3.497477722167968750e+01,4.804207611083984375e+01,3.042369079589843750e+01,1.088992919921875000e+02,9.668865203857421875e+01,-1.713460326194763184e+00,4.030399620532989502e-01,-6.667316436767578125e+01,-1.826874694824218750e+02,-2.342532396316528320e+00,7.562270355224609375e+01,3.135598182678222656e+01
2.080779969692230225e-01,1.000000000000000000e+00,-3.501442337036132812e+01,4.796563339233398438e+01,3.044390106201171875e+01,1.088290786743164062e+02,9.670533752441406250e+01,-1.736450314521789551e+00,4.030399620532989502e-01,-6.667316436767578125e+01,-1.826874694824218750e+02,-2.342603921890258789e+00,7.562255859375000000e+01,3.135598182678222656e+01
2.109870016574859619e-01,1.000000000000000000e+00,-3.505409240722656250e+01,4.788909530639648438e+01,3.046413040161132812e+01,1.087584457397460938e+02,9.672229003906250000e+01,-1.760050535202026367e+00,4.030399620532989502e-01,-6.667316436767578125e+01,-1.826874694824218750e+02,-2.342603921890258789e+00,7.562255859375000000e+01,3.135598182678222656e+01
2.160210013389587402e-01,1.000000000000000000e+00,-3.509379577636718750e+01,4.781226730346679688e+01,3.048418045043945312e+01,1.086883316040039062e+02,9.673946380615234375e+01,-1.783786416053771973e+00,4.030399620532989502e-01,-6.667316436767578125e+01,-1.826874694824218750e+02,-2.342460393905639648e+00,7.562255859375000000e+01,3.135598182678222656e+01
2.190389931201934814e-01,1.000000000000000000e+00,-3.513398361206054688e+01,4.773487472534179688e+01,3.050418472290039062e+01,1.086178054809570312e+02,9.675732421875000000e+01,-1.807929277420043945e+00,4.030399620532989502e-01,-6.667326354980468750e+01,-1.826874694824218750e+02,-2.342532396316528320e+00,7.562255859375000000e+01,3.135598182678222656e+01
2.260220050811767578e-01,1.000000000000000000e+00,-3.513398361206054688e+01,4.773487472534179688e+01,3.050418472290039062e+01,1.086178054809570312e+02,9.675732421875000000e+01,-1.807929277420043945e+00,4.030399620532989502e-01,-6.667326354980468750e+01,-1.826874694824218750e+02,-2.342532396316528320e+00,7.562255859375000000e+01,3.135598182678222656e+01
2.280379980802536011e-01,1.000000000000000000e+00,-3.521390533447265625e+01,4.758031082153320312e+01,3.054442214965820312e+01,1.084765243530273438e+02,9.679251098632812500e+01,-1.856689572334289551e+00,4.030399620532989502e-01,-6.667316436767578125e+01,-1.826874694824218750e+02,-2.342532396316528320e+00,7.562255859375000000e+01,3.135598182678222656e+01
2.323099970817565918e-01,1.000000000000000000e+00,-3.525397872924804688e+01,4.750318908691406250e+01,3.056489562988281250e+01,1.084059982299804688e+02,9.680924987792968750e+01,-1.881035804748535156e+00,4.030399620532989502e-01,-6.667316436767578125e+01,-1.826875762939453125e+02,-2.342603921890258789e+00,7.562255859375000000e+01,3.135598182678222656e+01
2.349759936332702637e-01,1.000000000000000000e+00,-3.529391098022460938e+01,4.742642974853515625e+01,3.058528709411621094e+01,1.083352584838867188e+02,9.682582855224609375e+01,-1.904703974723815918e+00,4.030399620532989502e-01,-6.667308044433593750e+01,-1.826874694824218750e+02,-2.342532396316528320e+00,7.562255859375000000e+01,3.135598182678222656e+01
2.400970011949539185e-01,1.000000000000000000e+00,-3.529391098022460938e+01,4.742642974853515625e+01,3.058528709411621094e+01,1.083352584838867188e+02,9.682582855224609375e+01,-1.904703974723815918e+00,4.030399620532989502e-01,-6.667308044433593750e+01,-1.826874694824218750e+02,-2.342532396316528320e+00,7.562255859375000000e+01,3.135598182678222656e+01
2.430839985609054565e-01,1.000000000000000000e+00,-3.537334060668945312e+01,4.727358627319335938e+01,3.062593269348144531e+01,1.081942443847656250e+02,9.685995483398437500e+01,-1.951226234436035156e+00,4.030399620532989502e-01,-6.667316436767578125e+01,-1.826874694824218750e+02,-2.342532396316528320e+00,7.562255859375000000e+01,3.135598182678222656e+01
2.470320016145706177e-01,1.000000000000000000e+00,-3.537334060668945312e+01,4.727358627319335938e+01,3.062593269348144531e+01,1.081942443847656250e+02,9.685995483398437500e+01,-1.951226234436035156e+00,4.030399620532989502e-01,-6.667316436767578125e+01,-1.826874694824218750e+02,-2.342532396316528320e+00,7.562255859375000000e+01,3.135598182678222656e+01
2.510220110416412354e-01,1.000000000000000000e+00,-3.541321563720703125e+01,4.719675827026367188e+01,3.064616012573242188e+01,1.081236114501953125e+02,9.687706756591796875e+01,-1.975233316421508789e+00,4.030399620532989502e-01,-6.667316436767578125e+01,-1.826875762939453125e+02,-2.342460393905639648e+00,7.562255859375000000e+01,3.135598182678222656e+01
2.557809948921203613e-01,1.000000000000000000e+00,-3.545283126831054688e+01,4.711970138549804688e+01,3.066663360595703125e+01,1.080527114868164062e+02,9.689476776123046875e+01,-1.999444007873535156e+00,4.030399620532989502e-01,-6.667316436767578125e+01,-1.826875762939453125e+02,-2.342532396316528320e+00,7.562255859375000000e+01,3.135598182678222656e+01
2.599680125713348389e-01,1.000000000000000000e+00,-3.553208923339843750e+01,4.696548080444335938e+01,3.070766639709472656e+01,1.079111785888671875e+02,9.693064880371093750e+01,-2.048543453216552734e+00,4.030399620532989502e-01,-6.667326354980468750e+01,-1.826874694824218750e+02,-2.342532396316528320e+00,7.562255859375000000e+01,3.135598182678222656e+01
2.629750072956085205e-01,1.000000000000000000e+00,-3.557181930541992188e+01,4.688799667358398438e+01,3.072809982299804688e+01,1.078402786254882812e+02,9.694776916503906250e+01,-2.072618484497070312e+00,4.030399620532989502e-01,-6.667316436767578125e+01,-1.826874694824218750e+02,-2.342532396316528320e+00,7.562255859375000000e+01,3.135598182678222656e+01
2.670919895172119141e-01,1.000000000000000000e+00,-3.557181930541992188e+01,4.688799667358398438e+01,3.072809982299804688e+01,1.078402786254882812e+02,9.694776916503906250e+01,-2.072618484497070312e+00,4.030399620532989502e-01,-6.667316436767578125e+01,-1.826874694824218750e+02,-2.342532396316528320e+00,7.562255859375000000e+01,3.135598182678222656e+01
2.710320055484771729e-01,1.000000000000000000e+00,-3.561100387573242188e+01,4.681062316894531250e+01,3.074840927124023438e+01,1.077691192626953125e+02,9.696455383300781250e+01,-2.096354246139526367e+00,4.030399620532989502e-01,-6.667316436767578125e+01,-1.826874694824218750e+02,-2.342603921890258789e+00,7.562255859375000000e+01,3.135598182678222656e+01
2.750520110130310059e-01,1.000000000000000000e+00,-3.564990234375000000e+01,4.673374938964843750e+01,3.076888656616210938e+01,1.076983184814453125e+02,9.698135375976562500e+01,-2.119547605514526367e+00,4.030399620532989502e-01,-6.667316436767578125e+01,-1.826874694824218750e+02,-2.342532396316528320e+00,7.562255859375000000e+01,3.135598182678222656e+01
2.798790037631988525e-01,1.000000000000000000e+00,-3.568906021118164062e+01,4.665666961669921875e+01,3.078952026367187500e+01,1.076271133422851562e+02,9.699825286865234375e+01,-2.143351316452026367e+00,4.030399620532989502e-01,-6.667316436767578125e+01,-1.826874694824218750e+02,-2.342532396316528320e+00,7.562255859375000000e+01,3.135598182678222656e+01
2.829700112342834473e-01,1.000000000000000000e+00,-3.576754379272460938e+01,4.650210952758789062e+01,3.083032608032226562e+01,1.074846801757812500e+02,9.703291320800781250e+01,-2.191772460937500000e+00,4.030399620532989502e-01,-6.667316436767578125e+01,-1.826874694824218750e+02,-2.342532396316528320e+00,7.562255859375000000e+01,3.135598182678222656e+01
2.880750000476837158e-01,1.000000000000000000e+00,-3.576754379272460938e+01,4.650210952758789062e+01,3.083032608032226562e+01,1.074846801757812500e+02,9.703291320800781250e+01,-2.191772460937500000e+00,4.030399620532989502e-01,-6.667316436767578125e+01,-1.826874694824218750e+02,-2.342532396316528320e+00,7.562255859375000000e+01,3.135598182678222656e+01
2.910490036010742188e-01,1.000000000000000000e+00,-3.584533691406250000e+01,4.634691619873046875e+01,3.087107276916503906e+01,1.073424530029296875e+02,9.706879425048828125e+01,-2.241007566452026367e+00,4.030399620532989502e-01,-6.667316436767578125e+01,-1.826874694824218750e+02,-2.342532396316528320e+00,7.562255859375000000e+01,3.135598182678222656e+01
2.950409948825836182e-01,1.000000000000000000e+00,-3.584533691406250000e+01,4.634691619873046875e+01,3.087107276916503906e+01,1.073424530029296875e+02,9.706879425048828125e+01,-2.241007566452026367e+00,4.030399620532989502e-01,-6.667316436767578125e+01,-1.826874694824218750e+02,-2.342532396316528320e+00,7.562255859375000000e+01,3.135598182678222656e+01
2.990230023860931396e-01,1.000000000000000000e+00,-3.588432312011718750e+01,4.626890563964843750e+01,3.089168930053710938e+01,1.072717132568359375e+02,9.708628082275390625e+01,-2.265150308609008789e+00,4.030399620532989502e-01,-6.667316436767578125e+01,-1.826874694824218750e+02,-2.342603921890258789e+00,7.562241363525390625e+01,3.135598182678222656e+01
3.037289977073669434e-01,1.000000000000000000e+00,-3.592362213134765625e+01,4.619099044799804688e+01,3.091244697570800781e+01,1.071999740600585938e+02,9.710307312011718750e+01,-2.288682937622070312e+00,4.030399620532989502e-01,-6.667316436767578125e+01,-1.826874694824218750e+02,-2.342532396316528320e+00,7.562255859375000000e+01,3.135598182678222656e+01
3.102749884128570557e-01,1.000000000000000000e+00,-3.596257781982421875e+01,4.611296463012695312e+01,3.093310356140136719e+01,1.071293411254882812e+02,9.711991882324218750e+01,-2.312418699264526367e+00,4.030399620532989502e-01,-6.667316436767578125e+01,-1.826874694824218750e+02,-2.342532396316528320e+00,7.562255859375000000e+01,3.135598182678222656e+01
3.116829991340637207e-01,1.000000000000000000e+00,-3.604094696044921875e+01,4.595702362060546875e+01,3.097423553466796875e+01,1.069866409301757812e+02,9.715425872802734375e+01,-2.360636472702026367e+00,4.030399620532989502e-01,-6.667316436767578125e+01,-1.826874694824218750e+02,-2.342532396316528320e+00,7.562255859375000000e+01,3.135598182678222656e+01
3.161639869213104248e-01,1.000000000000000000e+00,-3.604094696044921875e+01,4.595702362060546875e+01,3.097423553466796875e+01,1.069866409301757812e+02,9.715425872802734375e+01,-2.360636472702026367e+00,4.030399620532989502e-01,-6.667316436767578125e+01,-1.826874694824218750e+02,-2.342532396316528320e+00,7.562255859375000000e+01,3.135598182678222656e+01
3.195599913597106934e-01,1.000000000000000000e+00,-3.611963272094726562e+01,4.580098724365234375e+01,3.101534652709960938e+01,1.068437423706054688e+02,9.718944549560546875e+01,-2.410210609436035156e+00,4.030399620532989502e-01,-6.667316436767578125e+01,-1.826874694824218750e+02,-2.342532396316528320e+00,7.562255859375000000e+01,3.135598182678222656e+01
3.230209946632385254e-01,1.000000000000000000e+00,-3.611963272094726562e+01,4.580098724365234375e+01,3.101534652709960938e+01,1.068437423706054688e+02,9.718944549560546875e+01,-2.410210609436035156e+00,4.030399620532989502e-01,-6.667316436767578125e+01,-1.826874694824218750e+02,-2.342532396316528320e+00,7.562255859375000000e+01,3.135598182678222656e+01
3.281340003013610840e-01,1.000000000000000000e+00,-3.615924835205078125e+01,4.572286987304687500e+01,3.103582000732421875e+01,1.067716827392578125e+02,9.720794677734375000e+01,-2.434624671936035156e+00,4.030399620532989502e-01,-6.667316436767578125e+01,-1.826875762939453125e+02,-2.342532396316528320e+00,7.562241363525390625e+01,3.135598182678222656e+01
3.310549855232238770e-01,1.000000000000000000e+00,-3.623865127563476562e+01,4.556629180908203125e+01,3.107682800292968750e+01,1.066287307739257812e+02,9.724265289306640625e+01,-2.481757402420043945e+00,4.030399620532989502e-01,-6.667316436767578125e+01,-1.826874694824218750e+02,-2.342316627502441406e+00,7.562255859375000000e+01,3.135598182678222656e+01
3.350499868392944336e-01,1.000000000000000000e+00,-3.623865127563476562e+01,4.556629180908203125e+01,3.107682800292968750e+01,1.066287307739257812e+02,9.724265289306640625e+01,-2.481757402420043945e+00,4.030399620532989502e-01,-6.667316436767578125e+01,-1.826874694824218750e+02,-2.342316627502441406e+00,7.562255859375000000e+01,3.135598182678222656e+01
3.390229940414428711e-01,1.000000000000000000e+00,-3.627867126464843750e+01,4.548799514770507812e+01,3.109750747680664062e+01,1.065572433471679688e+02,9.725950622558593750e+01,-2.505832195281982422e+00,4.030399620532989502e-01,-6.667308044433593750e+01,-1.826874694824218750e+02,-2.342532396316528320e+00,7.562255859375000000e+01,3.135598182678222656e+01
3.432149887084960938e-01,1.000000000000000000e+00,-3.631874084472656250e+01,4.540937805175781250e+01,3.111826705932617188e+01,1.064851837158203125e+02,9.727656555175781250e+01,-2.529568195343017578e+00,4.030399620532989502e-01,-6.667316436767578125e+01,-1.826874694824218750e+02,-2.342460393905639648e+00,7.562255859375000000e+01,3.135598182678222656e+01
3.470230102539062500e-01,1.000000000000000000e+00,-3.635893630981445312e+01,4.533092117309570312e+01,3.113898277282714844e+01,1.064138641357421875e+02,9.729362487792968750e+01,-2.553982257843017578e+00,4.030399620532989502e-01,-6.667316436767578125e+01,-1.826874694824218750e+02,-2.342532396316528320e+00,7.562255859375000000e+01,3.135598182678222656e+01
3.519729971885681152e-01,1.000000000000000000e+00,-3.639918136596679688e+01,4.525266647338867188e+01,3.115966224670410156e+01,1.063422851562500000e+02,9.731074523925781250e+01,-2.578396558761596680e+00,4.030399620532989502e-01,-6.667316436767578125e+01,-1.826874694824218750e+02,-2.342532396316528320e+00,7.562255859375000000e+01,3.135598182678222656e+01
3.560160100460052490e-01,1.000000000000000000e+00,-3.643948364257812500e+01,4.517420959472656250e+01,3.118013572692871094e+01,1.062702789306640625e+02,9.732843780517578125e+01,-2.603217363357543945e+00,4.030399620532989502e-01,-6.667316436767578125e+01,-1.826874694824218750e+02,-2.342532396316528320e+00,7.562255859375000000e+01,3.135598182678222656e+01
3.600359857082366943e-01,1.000000000000000000e+00,-3.647996139526367188e+01,4.509577560424804688e+01,3.120071029663085938e+01,1.061982727050781250e+02,9.734667968750000000e+01,-2.627495765686035156e+00,4.030399620532989502e-01,-6.667316436767578125e+01,-1.826874694824218750e+02,-2.342532396316528320e+00,7.562270355224609375e+01,3.135598182678222656e+01
3.640730082988739014e-01,1.000000000000000000e+00,-3.652066802978515625e+01,4.501726913452148438e+01,3.122157287597656250e+01,1.061269989013671875e+02,9.736475372314453125e+01,-2.651435136795043945e+00,4.030399620532989502e-01,-6.667316436767578125e+01,-1.826874694824218750e+02,-2.342532396316528320e+00,7.562255859375000000e+01,3.135598182678222656e+01
3.676190078258514404e-01,1.000000000000000000e+00,-3.656114196777343750e+01,4.493903732299804688e+01,3.124229049682617188e+01,1.060550003051757812e+02,9.738191223144531250e+01,-2.674967527389526367e+00,4.030399620532989502e-01,-6.667316436767578125e+01,-1.826874694824218750e+02,-2.342460393905639648e+00,7.562255859375000000e+01,3.135619926452636719e+01
3.720520138740539551e-01,1.000000000000000000e+00,-3.660173416137695312e+01,4.486087417602539062e+01,3.126302909851074219e+01,1.059831008911132812e+02,9.739881896972656250e+01,-2.699042558670043945e+00,4.030399620532989502e-01,-6.667326354980468750e+01,-1.826874694824218750e+02,-2.342532396316528320e+00,7.562255859375000000e+01,3.135598182678222656e+01
3.759849965572357178e-01,1.000000000000000000e+00,-3.664250183105468750e+01,4.478223419189453125e+01,3.128382682800292969e+01,1.059103546142578125e+02,9.741603851318359375e+01,-2.722981929779052734e+00,4.030399620532989502e-01,-6.667316436767578125e+01,-1.826874694824218750e+02,-2.342532396316528320e+00,7.562255859375000000e+01,3.135598182678222656e+01
3.800939917564392090e-01,1.000000000000000000e+00,-3.668328857421875000e+01,4.470336914062500000e+01,3.130446434020996094e+01,1.058388748168945312e+02,9.743336486816406250e+01,-2.747531652450561523e+00,4.030399620532989502e-01,-6.667316436767578125e+01,-1.826874694824218750e+02,-2.342532396316528320e+00,7.562255859375000000e+01,3.135576248168945312e+01
3.830179870128631592e-01,1.000000000000000000e+00,-3.672379684448242188e+01,4.462409973144531250e+01,3.132528305053710938e+01,1.057666091918945312e+02,9.745053863525390625e+01,-2.772759437561035156e+00,4.030399620532989502e-01,-6.667316436767578125e+01,-1.826875762939453125e+02,-2.342532396316528320e+00,7.562255859375000000e+01,3.135598182678222656e+01
3.880890011787414551e-01,1.000000000000000000e+00,-3.676438903808593750e+01,4.454521179199218750e+01,3.134628677368164062e+01,1.056951293945312500e+02,9.746807861328125000e+01,-2.797512531280517578e+00,4.030399620532989502e-01,-6.667316436767578125e+01,-1.826874694824218750e+02,-2.342532396316528320e+00,7.562255859375000000e+01,3.135598182678222656e+01
3.917340040206909180e-01,1.000000000000000000e+00,-3.680514907836914062e+01,4.446641540527343750e+01,3.136700630187988281e+01,1.056225967407226562e+02,9.748631286621093750e+01,-2.821316242218017578e+00,4.030399620532989502e-01,-6.667316436767578125e+01,-1.826874694824218750e+02,-2.342532396316528320e+00,7.562255859375000000e+01,3.135598182678222656e+01
3.960199952125549316e-01,1.000000000000000000e+00,-3.684582901000976562e+01,4.438781738281250000e+01,3.138762283325195312e+01,1.055508575439453125e+02,9.750475311279296875e+01,-2.844441890716552734e+00,4.030399620532989502e-01,-6.667316436767578125e+01,-1.826874694824218750e+02,-2.342532396316528320e+00,7.562255859375000000e+01,3.135598182678222656e+01
3.998939990997314453e-01,1.000000000000000000e+00,-3.688633346557617188e+01,4.430938339233398438e+01,3.140837860107421875e+01,1.054785385131835938e+02,9.752219390869140625e+01,-2.868245601654052734e+00,4.030399620532989502e-01,-6.667316436767578125e+01,-1.826874694824218750e+02,-2.342603921890258789e+00,7.562255859375000000e+01,3.135598182678222656e+01
4.040859937667846680e-01,1.000000000000000000e+00,-3.692695236206054688e+01,4.423067474365234375e+01,3.142920112609863281e+01,1.054066848754882812e+02,9.753936004638671875e+01,-2.892659664154052734e+00,4.030399620532989502e-01,-6.667316436767578125e+01,-1.826874694824218750e+02,-2.342460393905639648e+00,7.562255859375000000e+01,3.135598182678222656e+01
4.071770012378692627e-01,1.000000000000000000e+00,-3.696746063232421875e+01,4.415169906616210938e+01,3.145028686523437500e+01,1.053341522216796875e+02,9.755641937255859375e+01,-2.917005777359008789e+00,4.030399620532989502e-01,-6.667316436767578125e+01,-1.826874694824218750e+02,-2.342532396316528320e+00,7.562255859375000000e+01,3.135619926452636719e+01
4.113369882106781006e-01,1.000000000000000000e+00,-3.700796508789062500e+01,4.407226562500000000e+01,3.147122764587402344e+01,1.052622070312500000e+02,9.757359313964843750e+01,-2.941759109497070312e+00,4.030399620532989502e-01,-6.667316436767578125e+01,-1.826875762939453125e+02,-2.342532396316528320e+00,7.562255859375000000e+01,3.135598182678222656e+01
4.158009886741638184e-01,1.000000000000000000e+00,-3.704844284057617188e+01,4.399290466308593750e+01,3.149200439453125000e+01,1.051897201538085938e+02,9.759070587158203125e+01,-2.966918945312500000e+00,4.030399620532989502e-01,-6.667316436767578125e+01,-1.826875762939453125e+02,-2.342532396316528320e+00,7.562270355224609375e+01,3.135598182678222656e+01
4.200159907341003418e-01,1.000000000000000000e+00,-3.708897781372070312e+01,4.391322326660156250e+01,3.151284790039062500e+01,1.051177215576171875e+02,9.760835266113281250e+01,-2.991468667984008789e+00,4.030399620532989502e-01,-6.667316436767578125e+01,-1.826874694824218750e+02,-2.342532396316528320e+00,7.562255859375000000e+01,3.135576248168945312e+01
4.232540130615234375e-01,1.000000000000000000e+00,-3.712953948974609375e+01,4.383372497558593750e+01,3.153372764587402344e+01,1.050448150634765625e+02,9.762631988525390625e+01,-3.015475749969482422e+00,4.030399620532989502e-01,-6.667316436767578125e+01,-1.826874694824218750e+02,-2.342532396316528320e+00,7.562255859375000000e+01,3.135598182678222656e+01
4.272029995918273926e-01,1.000000000000000000e+00,-3.716989898681640625e+01,4.375469970703125000e+01,3.155468940734863281e+01,1.049724960327148438e+02,9.764482116699218750e+01,-3.039551019668579102e+00,4.030399620532989502e-01,-6.667316436767578125e+01,-1.826874694824218750e+02,-2.342603921890258789e+00,7.562255859375000000e+01,3.135598182678222656e+01
4.311259984970092773e-01,1.000000000000000000e+00,-3.721017837524414062e+01,4.367547607421875000e+01,3.157571220397949219e+01,1.048997573852539062e+02,9.766305541992187500e+01,-3.063625812530517578e+00,4.030399620532989502e-01,-6.667316436767578125e+01,-1.826874694824218750e+02,-2.342603921890258789e+00,7.562255859375000000e+01,3.135598182678222656e+01
4.351499974727630615e-01,1.000000000000000000e+00,-3.725036621093750000e+01,4.359642791748046875e+01,3.159648895263671875e+01,1.048278503417968750e+02,9.768016815185546875e+01,-3.087700843811035156e+00,4.030399620532989502e-01,-6.667316436767578125e+01,-1.826874694824218750e+02,-2.342460393905639648e+00,7.562255859375000000e+01,3.135598182678222656e+01
4.399830102920532227e-01,1.000000000000000000e+00,-3.729092788696289062e+01,4.351722335815429688e+01,3.161735153198242188e+01,1.047552719116210938e+02,9.769749450683593750e+01,-3.112589597702026367e+00,4.030399620532989502e-01,-6.667316436767578125e+01,-1.826874694824218750e+02,-2.342460393905639648e+00,7.562255859375000000e+01,3.135598182678222656e+01
4.440169930458068848e-01,1.000000000000000000e+00,-3.733137512207031250e+01,4.343795013427734375e+01,3.163821220397949219e+01,1.046827850341796875e+02,9.771450042724609375e+01,-3.137614250183105469e+00,4.030399620532989502e-01,-6.667316436767578125e+01,-1.826874694824218750e+02,-2.342532396316528320e+00,7.562255859375000000e+01,3.135598182678222656e+01
4.481509923934936523e-01,1.000000000000000000e+00,-3.737196731567382812e+01,4.335849380493164062e+01,3.165919494628906250e+01,1.046099395751953125e+02,9.773215484619140625e+01,-3.162570476531982422e+00,4.030399620532989502e-01,-6.667316436767578125e+01,-1.826874694824218750e+02,-2.342532396316528320e+00,7.562255859375000000e+01,3.135598182678222656e+01
4.514200091361999512e-01,1.000000000000000000e+00,-3.741233062744140625e+01,4.327868270874023438e+01,3.168039894104003906e+01,1.045374603271484375e+02,9.774969482421875000e+01,-3.186916828155517578e+00,4.030399620532989502e-01,-6.667316436767578125e+01,-1.826874694824218750e+02,-2.342532396316528320e+00,7.562255859375000000e+01,3.135598182678222656e+01
4.553250074386596680e-01,1.000000000000000000e+00,-3.745294952392578125e+01,4.319863891601562500e+01,3.170138168334960938e+01,1.044646072387695312e+02,9.776750183105468750e+01,-3.210924148559570312e+00,4.031498432159423828e-01,-6.667316436767578125e+01,-1.826874694824218750e+02,-2.342532396316528320e+00,7.562255859375000000e+01,3.135598182678222656e+01
4.594500064849853516e-01,1.000000000000000000e+00,-3.749356842041015625e+01,4.311859512329101562e+01,3.172222328186035156e+01,1.043922348022460938e+02,9.778621673583984375e+01,-3.235270261764526367e+00,4.030399620532989502e-01,-6.667316436767578125e+01,-1.826874694824218750e+02,-2.342532396316528320e+00,7.562255859375000000e+01,3.135598182678222656e+01
4.642030000686645508e-01,1.000000000000000000e+00,-3.753416061401367188e+01,4.303880691528320312e+01,3.174312400817871094e+01,1.043192825317382812e+02,9.780445098876953125e+01,-3.259616374969482422e+00,4.030399620532989502e-01,-6.667316436767578125e+01,-1.826874694824218750e+02,-2.342460393905639648e+00,7.562255859375000000e+01,3.135598182678222656e+01
4.675000011920928955e-01,1.000000000000000000e+00,-3.757472610473632812e+01,4.295919418334960938e+01,3.176420783996582031e+01,1.042465438842773438e+02,9.782193756103515625e+01,-3.284030437469482422e+00,4.030399620532989502e-01,-6.667316436767578125e+01,-1.826874694824218750e+02,-2.342532396316528320e+00,7.562255859375000000e+01,3.135598182678222656e+01
4.714530110359191895e-01,1.000000000000000000e+00,-3.761548614501953125e+01,4.287998580932617188e+01,3.178539276123046875e+01,1.041731109619140625e+02,9.783889007568359375e+01,-3.309122800827026367e+00,4.030399620532989502e-01,-6.667316436767578125e+01,-1.826874694824218750e+02,-2.342532396316528320e+00,7.562255859375000000e+01,3.135576248168945312e+01
4.760990142822265625e-01,1.000000000000000000e+00,-3.765613937377929688e+01,4.280087280273437500e+01,3.180645561218261719e+01,1.041007385253906250e+02,9.785616302490234375e+01,-3.334825277328491211e+00,4.030399620532989502e-01,-6.667316436767578125e+01,-1.826874694824218750e+02,-2.342460393905639648e+00,7.562255859375000000e+01,3.135598182678222656e+01
4.795230031013488770e-01,1.000000000000000000e+00,-3.769695663452148438e+01,4.272146606445312500e+01,3.182741737365722656e+01,1.040274734497070312e+02,9.787375640869140625e+01,-3.359442949295043945e+00,4.030399620532989502e-01,-6.667316436767578125e+01,-1.826874694824218750e+02,-2.342532396316528320e+00,7.562255859375000000e+01,3.135598182678222656e+01
4.836240112781524658e-01,1.000000000000000000e+00,-3.773766326904296875e+01,4.264153289794921875e+01,3.184819984436035156e+01,1.039545745849609375e+02,9.789087677001953125e+01,-3.383653640747070312e+00,4.030399620532989502e-01,-6.667316436767578125e+01,-1.826874694824218750e+02,-2.342532396316528320e+00,7.562255859375000000e+01,3.135598182678222656e+01
4.884470105171203613e-01,1.000000000000000000e+00,-3.777857208251953125e+01,4.256140136718750000e+01,3.186922264099121094e+01,1.038814544677734375e+02,9.790867614746093750e+01,-3.407864332199096680e+00,4.030399620532989502e-01,-6.667316436767578125e+01,-1.826874694824218750e+02,-2.342532396316528320e+00,7.562255859375000000e+01,3.135619926452636719e+01
4.919329881668090820e-01,1.000000000000000000e+00,-3.781956481933593750e+01,4.248118209838867188e+01,3.189042663574218750e+01,1.038088226318359375e+02,9.792723846435546875e+01,-3.431939125061035156e+00,4.030399620532989502e-01,-6.667316436767578125e+01,-1.826874694824218750e+02,-2.342460393905639648e+00,7.562255859375000000e+01,3.135598182678222656e+01
4.974069893360137939e-01,1.000000000000000000e+00,-3.786061859130859375e+01,4.240091323852539062e+01,3.191173362731933594e+01,1.037352905273437500e+02,9.794557952880859375e+01,-3.456827878952026367e+00,4.030399620532989502e-01,-6.667316436767578125e+01,-1.826874694824218750e+02,-2.342532396316528320e+00,7.562255859375000000e+01,3.135598182678222656e+01
5.000510215759277344e-01,1.000000000000000000e+00,-3.794263076782226562e+01,4.224021530151367188e+01,3.195404624938964844e+01,1.035892715454101562e+02,9.798028564453125000e+01,-3.507215738296508789e+00,4.030399620532989502e-01,-6.667316436767578125e+01,-1.826875762939453125e+02,-2.342460393905639648e+00,7.562255859375000000e+01,3.135598182678222656e+01
5.037180185317993164e-01,1.000000000000000000e+00,-3.794263076782226562e+01,4.224021530151367188e+01,3.195404624938964844e+01,1.035892715454101562e+02,9.798028564453125000e+01,-3.507215738296508789e+00,4.030399620532989502e-01,-6.667316436767578125e+01,-1.826875762939453125e+02,-2.342460393905639648e+00,7.562255859375000000e+01,3.135598182678222656e+01
5.080900192260742188e-01,1.000000000000000000e+00,-3.798359298706054688e+01,4.216037750244140625e+01,3.197498703002929688e+01,1.035161056518554688e+02,9.799793243408203125e+01,-3.532511472702026367e+00,4.030399620532989502e-01,-6.667316436767578125e+01,-1.826874694824218750e+02,-2.342603921890258789e+00,7.562255859375000000e+01,3.135598182678222656e+01
5.126780271530151367e-01,1.000000000000000000e+00,-3.802450180053710938e+01,4.208038330078125000e+01,3.199615097045898438e+01,1.034424743652343750e+02,9.801552581787109375e+01,-3.556993246078491211e+00,4.030399620532989502e-01,-6.667316436767578125e+01,-1.826874694824218750e+02,-2.342460393905639648e+00,7.562255859375000000e+01,3.135598182678222656e+01
5.160509943962097168e-01,1.000000000000000000e+00,-3.806552505493164062e+01,4.200045394897460938e+01,3.201733779907226562e+01,1.033694610595703125e+02,9.803290557861328125e+01,-3.581000328063964844e+00,4.030399620532989502e-01,-6.667316436767578125e+01,-1.826874694824218750e+02,-2.342603921890258789e+00,7.562255859375000000e+01,3.135598182678222656e+01
5.197409987449645996e-01,1.000000000000000000e+00,-3.810660171508789062e+01,4.192032241821289062e+01,3.203842163085937500e+01,1.032954559326171875e+02,9.805076599121093750e+01,-3.605346918106079102e+00,4.030399620532989502e-01,-6.667316436767578125e+01,-1.826874694824218750e+02,-2.342603921890258789e+00,7.562255859375000000e+01,3.135598182678222656e+01
5.244309902191162109e-01,1.000000000000000000e+00,-3.814773941040039062e+01,4.183964538574218750e+01,3.205952453613281250e+01,1.032224502563476562e+02,9.806964111328125000e+01,-3.629964351654052734e+00,4.030399620532989502e-01,-6.667316436767578125e+01,-1.826874694824218750e+02,-2.342603921890258789e+00,7.562255859375000000e+01,3.135598182678222656e+01
5.323569774627685547e-01,1.000000000000000000e+00,-3.827097702026367188e+01,4.159657669067382812e+01,3.212340927124023438e+01,1.030017013549804688e+02,9.812344360351562500e+01,-3.704969644546508789e+00,4.030399620532989502e-01,-6.667316436767578125e+01,-1.826874694824218750e+02,-2.342603921890258789e+00,7.562255859375000000e+01,3.135598182678222656e+01
5.337290167808532715e-01,1.000000000000000000e+00,-3.827097702026367188e+01,4.159657669067382812e+01,3.212340927124023438e+01,1.030017013549804688e+02,9.812344360351562500e+01,-3.704969644546508789e+00,4.030399620532989502e-01,-6.667316436767578125e+01,-1.826874694824218750e+02,-2.342603921890258789e+00,7.562255859375000000e+01,3.135598182678222656e+01
5.380079746246337891e-01,1.000000000000000000e+00,-3.831203079223632812e+01,4.151562881469726562e+01,3.214481735229492188e+01,1.029284210205078125e+02,9.814076995849609375e+01,-3.730401039123535156e+00,4.030399620532989502e-01,-6.667316436767578125e+01,-1.826874694824218750e+02,-2.342532396316528320e+00,7.562255859375000000e+01,3.135598182678222656e+01
5.406579971313476562e-01,1.000000000000000000e+00,-3.835299301147460938e+01,4.143502044677734375e+01,3.216596221923828125e+01,1.028547363281250000e+02,9.815840911865234375e+01,-3.754815101623535156e+00,4.030399620532989502e-01,-6.667316436767578125e+01,-1.826875762939453125e+02,-2.342532396316528320e+00,7.562255859375000000e+01,3.135598182678222656e+01
5.442410111427307129e-01,1.000000000000000000e+00,-3.835299301147460938e+01,4.143502044677734375e+01,3.216596221923828125e+01,1.028547363281250000e+02,9.815840911865234375e+01,-3.754815101623535156e+00,4.030399620532989502e-01,-6.667316436767578125e+01,-1.826875762939453125e+02,-2.342532396316528320e+00,7.562255859375000000e+01,3.135598182678222656e+01
5.481690168380737305e-01,1.000000000000000000e+00,-3.839424514770507812e+01,4.135477447509765625e+01,3.218704986572265625e+01,1.027809906005859375e+02,9.817595672607421875e+01,-3.778754472732543945e+00,4.030399620532989502e-01,-6.667316436767578125e+01,-1.826874694824218750e+02,-2.342532396316528320e+00,7.562255859375000000e+01,3.135598182678222656e+01
5.521199703216552734e-01,1.000000000000000000e+00,-3.843515396118164062e+01,4.127448654174804688e+01,3.220813369750976562e+01,1.027074584960937500e+02,9.819387054443359375e+01,-3.803372144699096680e+00,4.030399620532989502e-01,-6.667316436767578125e+01,-1.826874694824218750e+02,-2.342460393905639648e+00,7.562255859375000000e+01,3.135619926452636719e+01
5.562019944190979004e-01,1.000000000000000000e+00,-3.847620391845703125e+01,4.119396591186523438e+01,3.222956466674804688e+01,1.026338195800781250e+02,9.821237182617187500e+01,-3.828396320343017578e+00,4.030399620532989502e-01,-6.667316436767578125e+01,-1.826874694824218750e+02,-2.342532396316528320e+00,7.562241363525390625e+01,3.135598182678222656e+01
5.608670115470886230e-01,1.000000000000000000e+00,-3.851719665527343750e+01,4.111304473876953125e+01,3.225086975097656250e+01,1.025598144531250000e+02,9.823108673095703125e+01,-3.853217601776123047e+00,4.030399620532989502e-01,-6.667326354980468750e+01,-1.826874694824218750e+02,-2.342532396316528320e+00,7.562255859375000000e+01,3.135598182678222656e+01
5.641099810600280762e-01,1.000000000000000000e+00,-3.855825042724609375e+01,4.103205108642578125e+01,3.227225875854492188e+01,1.024854888916015625e+02,9.824921417236328125e+01,-3.878445386886596680e+00,4.030399620532989502e-01,-6.667326354980468750e+01,-1.826875762939453125e+02,-2.342532396316528320e+00,7.562255859375000000e+01,3.135598182678222656e+01
5.669670104980468750e-01,1.000000000000000000e+00,-3.859921264648437500e+01,4.095067214965820312e+01,3.229366683959960938e+01,1.024117507934570312e+02,9.826654052734375000e+01,-3.904351234436035156e+00,4.030399620532989502e-01,-6.667316436767578125e+01,-1.826874694824218750e+02,-2.342532396316528320e+00,7.562255859375000000e+01,3.135598182678222656e+01
5.720819830894470215e-01,1.000000000000000000e+00,-3.864026260375976562e+01,4.086911392211914062e+01,3.231487655639648438e+01,1.023378448486328125e+02,9.828397369384765625e+01,-3.929172277450561523e+00,4.030399620532989502e-01,-6.667316436767578125e+01,-1.826874694824218750e+02,-2.342603921890258789e+00,7.562255859375000000e+01,3.135598182678222656e+01
5.749650001525878906e-01,1.000000000000000000e+00,-3.868122863769531250e+01,4.078791809082031250e+01,3.233638381958007812e+01,1.022642059326171875e+02,9.830162048339843750e+01,-3.952772140502929688e+00,4.030399620532989502e-01,-6.667316436767578125e+01,-1.826874694824218750e+02,-2.342532396316528320e+00,7.562255859375000000e+01,3.135598182678222656e+01
5.789960026741027832e-01,1.000000000000000000e+00,-3.872248077392578125e+01,4.070699691772460938e+01,3.235791397094726562e+01,1.021898269653320312e+02,9.831953430175781250e+01,-3.977322101593017578e+00,4.030399620532989502e-01,-6.667316436767578125e+01,-1.826874694824218750e+02,-2.342532396316528320e+00,7.562255859375000000e+01,3.135598182678222656e+01
5.830209851264953613e-01,1.000000000000000000e+00,-3.876379013061523438e+01,4.062638473510742188e+01,3.237910461425781250e+01,1.021160888671875000e+02,9.833744812011718750e+01,-4.001939773559570312e+00,4.030399620532989502e-01,-6.667316436767578125e+01,-1.826874694824218750e+02,-2.342532396316528320e+00,7.562255859375000000e+01,3.135598182678222656e+01
5.870109796524047852e-01,1.000000000000000000e+00,-3.880495452880859375e+01,4.054561996459960938e+01,3.240036773681640625e+01,1.020417633056640625e+02,9.835605621337890625e+01,-4.026896476745605469e+00,4.030399620532989502e-01,-6.667316436767578125e+01,-1.826874694824218750e+02,-2.342532396316528320e+00,7.562255859375000000e+01,3.135598182678222656e+01
5.910350084304809570e-01,1.000000000000000000e+00,-3.884626388549804688e+01,4.046485519409179688e+01,3.242163467407226562e+01,1.019682312011718750e+02,9.837509155273437500e+01,-4.052395343780517578e+00,4.030399620532989502e-01,-6.667308044433593750e+01,-1.826874694824218750e+02,-2.342532396316528320e+00,7.562255859375000000e+01,3.135598182678222656e+01
5.950769782066345215e-01,1.000000000000000000e+00,-3.888759994506835938e+01,4.038383865356445312e+01,3.244304656982421875e+01,1.018937530517578125e+02,9.839348602294921875e+01,-4.078233242034912109e+00,4.030399620532989502e-01,-6.667316436767578125e+01,-1.826874694824218750e+02,-2.342532396316528320e+00,7.562255859375000000e+01,3.135598182678222656e+01
5.990120172500610352e-01,1.000000000000000000e+00,-3.892905426025390625e+01,4.030216598510742188e+01,3.246463775634765625e+01,1.018196945190429688e+02,9.841123962402343750e+01,-4.103936195373535156e+00,4.030399620532989502e-01,-6.667316436767578125e+01,-1.826874694824218750e+02,-2.342532396316528320e+00,7.562255859375000000e+01,3.135598182678222656e+01
6.029580235481262207e-01,1.000000000000000000e+00,-3.897053527832031250e+01,4.022015762329101562e+01,3.248619079589843750e+01,1.017451553344726562e+02,9.842861938476562500e+01,-4.128214836120605469e+00,4.030399620532989502e-01,-6.667316436767578125e+01,-1.826874694824218750e+02,-2.342532396316528320e+00,7.562241363525390625e+01,3.135598182678222656e+01
6.070380210876464844e-01,1.000000000000000000e+00,-3.901227569580078125e+01,4.013825988769531250e+01,3.250749588012695312e+01,1.016714096069335938e+02,9.844637298583984375e+01,-4.152425289154052734e+00,4.030399620532989502e-01,-6.667316436767578125e+01,-1.826874694824218750e+02,-2.342532396316528320e+00,7.562255859375000000e+01,3.135598182678222656e+01
6.125649809837341309e-01,1.000000000000000000e+00,-3.905392837524414062e+01,4.005649948120117188e+01,3.252874374389648438e+01,1.015964584350585938e+02,9.846423339843750000e+01,-4.177517414093017578e+00,4.030399620532989502e-01,-6.667316436767578125e+01,-1.826874694824218750e+02,-2.342532396316528320e+00,7.562255859375000000e+01,3.135598182678222656e+01
6.166070103645324707e-01,1.000000000000000000e+00,-3.909558486938476562e+01,3.997502899169921875e+01,3.255021286010742188e+01,1.015220260620117188e+02,9.848258209228515625e+01,-4.202474117279052734e+00,4.030399620532989502e-01,-6.667316436767578125e+01,-1.826874694824218750e+02,-2.342460393905639648e+00,7.562255859375000000e+01,3.135598182678222656e+01
6.207190155982971191e-01,1.000000000000000000e+00,-3.913723754882812500e+01,3.989403533935546875e+01,3.257166290283203125e+01,1.014473419189453125e+02,9.850118255615234375e+01,-4.227566242218017578e+00,4.030399620532989502e-01,-6.667316436767578125e+01,-1.826874694824218750e+02,-2.342532396316528320e+00,7.562241363525390625e+01,3.135598182678222656e+01
6.245769858360290527e-01,1.000000000000000000e+00,-3.917923355102539062e+01,3.981306838989257812e+01,3.259311294555664062e+01,1.013734359741210938e+02,9.852027130126953125e+01,-4.253336906433105469e+00,4.030399620532989502e-01,-6.667316436767578125e+01,-1.826874694824218750e+02,-2.342603921890258789e+00,7.562255859375000000e+01,3.135598182678222656e+01
6.289439797401428223e-01,1.000000000000000000e+00,-3.922122955322265625e+01,3.973184967041015625e+01,3.261464691162109375e+01,1.012989501953125000e+02,9.853871917724609375e+01,-4.278903484344482422e+00,4.030399620532989502e-01,-6.667316436767578125e+01,-1.826874694824218750e+02,-2.342603921890258789e+00,7.562255859375000000e+01,3.135619926452636719e+01
6.335309743881225586e-01,1.000000000000000000e+00,-3.926314544677734375e+01,3.965003967285156250e+01,3.263605499267578125e+01,1.012245254516601562e+02,9.855657958984375000e+01,-4.304063796997070312e+00,4.030399620532989502e-01,-6.667308044433593750e+01,-1.826874694824218750e+02,-2.342460393905639648e+00,7.562255859375000000e+01,3.135598182678222656e+01
6.370329856872558594e-01,1.000000000000000000e+00,-3.930508422851562500e+01,3.956805419921875000e+01,3.265756607055664062e+01,1.011498336791992188e+02,9.857417297363281250e+01,-4.328477859497070312e+00,4.030399620532989502e-01,-6.667316436767578125e+01,-1.826874694824218750e+02,-2.342460393905639648e+00,7.562255859375000000e+01,3.135598182678222656e+01
6.389679908752441406e-01,1.000000000000000000e+00,-3.934716796875000000e+01,3.948574829101562500e+01,3.267932128906250000e+01,1.010751953125000000e+02,9.859224700927734375e+01,-4.353366851806640625e+00,4.030399620532989502e-01,-6.667316436767578125e+01,-1.826874694824218750e+02,-2.342532396316528320e+00,7.562255859375000000e+01,3.135598182678222656e+01
6.431310176849365234e-01,1.000000000000000000e+00,-3.938922500610351562e+01,3.940341949462890625e+01,3.270087432861328125e+01,1.010005035400390625e+02,9.861026763916015625e+01,-4.378933429718017578e+00,4.030399620532989502e-01,-6.667316436767578125e+01,-1.826874694824218750e+02,-2.342316627502441406e+00,7.562255859375000000e+01,3.135598182678222656e+01
6.469609737396240234e-01,1.000000000000000000e+00,-3.943128204345703125e+01,3.932115936279296875e+01,3.272232437133789062e+01,1.009258651733398438e+02,9.862871551513671875e+01,-4.404093742370605469e+00,4.030399620532989502e-01,-6.667326354980468750e+01,-1.826874694824218750e+02,-2.342532396316528320e+00,7.562255859375000000e+01,3.135576248168945312e+01
6.509559750556945801e-01,1.000000000000000000e+00,-3.947336578369140625e+01,3.923926162719726562e+01,3.274387741088867188e+01,1.008508605957031250e+02,9.864710998535156250e+01,-4.429592609405517578e+00,4.030399620532989502e-01,-6.667316436767578125e+01,-1.826874694824218750e+02,-2.342532396316528320e+00,7.562255859375000000e+01,3.135598182678222656e+01
6.549749970436096191e-01,1.000000000000000000e+00,-3.951556396484375000e+01,3.915779495239257812e+01,3.276554870605468750e+01,1.007761611938476562e+02,9.866651916503906250e+01,-4.455973148345947266e+00,4.030399620532989502e-01,-6.667316436767578125e+01,-1.826874694824218750e+02,-2.342532396316528320e+00,7.562255859375000000e+01,3.135598182678222656e+01
6.609899997711181641e-01,1.000000000000000000e+00,-3.955750656127929688e+01,3.907616806030273438e+01,3.278730392456054688e+01,1.007011032104492188e+02,9.868502044677734375e+01,-4.481472492218017578e+00,4.030399620532989502e-01,-6.667316436767578125e+01,-1.826874694824218750e+02,-2.342532396316528320e+00,7.562255859375000000e+01,3.135576248168945312e+01
6.651650071144104004e-01,1.000000000000000000e+00,-3.959955978393554688e+01,3.899447631835937500e+01,3.280885314941406250e+01,1.006262512207031250e+02,9.870277404785156250e+01,-4.506226062774658203e+00,4.030399620532989502e-01,-6.667316436767578125e+01,-1.826874694824218750e+02,-2.342603921890258789e+00,7.562255859375000000e+01,3.135598182678222656e+01
6.674389839172363281e-01,1.000000000000000000e+00,-3.964158630371093750e+01,3.891262435913085938e+01,3.283026504516601562e+01,1.005512008666992188e+02,9.872047424316406250e+01,-4.530707359313964844e+00,4.030399620532989502e-01,-6.667316436767578125e+01,-1.826874694824218750e+02,-2.342460393905639648e+00,7.562255859375000000e+01,3.135598182678222656e+01
6.731479763984680176e-01,1.000000000000000000e+00,-3.968384170532226562e+01,3.883024978637695312e+01,3.285179519653320312e+01,1.004760284423828125e+02,9.873838806152343750e+01,-4.555867671966552734e+00,4.030399620532989502e-01,-6.667316436767578125e+01,-1.826874694824218750e+02,-2.342532396316528320e+00,7.562255859375000000e+01,3.135598182678222656e+01
6.749770045280456543e-01,1.000000000000000000e+00,-3.972612762451171875e+01,3.874740219116210938e+01,3.287339019775390625e+01,1.004012374877929688e+02,9.875635528564453125e+01,-4.581367015838623047e+00,4.030399620532989502e-01,-6.667308044433593750e+01,-1.826874694824218750e+02,-2.342460393905639648e+00,7.562255859375000000e+01,3.135598182678222656e+01
6.789540052413940430e-01,1.000000000000000000e+00,-3.976807022094726562e+01,3.866444015502929688e+01,3.289528274536132812e+01,1.003260650634765625e+02,9.877474975585937500e+01,-4.607137203216552734e+00,4.030399620532989502e-01,-6.667316436767578125e+01,-1.826874694824218750e+02,-2.342532396316528320e+00,7.562255859375000000e+01,3.135598182678222656e+01
6.852949857711791992e-01,1.000000000000000000e+00,-3.981015396118164062e+01,3.858172607421875000e+01,3.291710281372070312e+01,1.002510604858398438e+02,9.879373168945312500e+01,-4.633246421813964844e+00,4.030399620532989502e-01,-6.667316436767578125e+01,-1.826874694824218750e+02,-2.342460393905639648e+00,7.562255859375000000e+01,3.135598182678222656e+01
6.869850158691406250e-01,1.000000000000000000e+00,-3.985214996337890625e+01,3.849942398071289062e+01,3.293877410888671875e+01,1.001757812500000000e+02,9.881276702880859375e+01,-4.658949375152587891e+00,4.030399620532989502e-01,-6.667316436767578125e+01,-1.826874694824218750e+02,-2.342603921890258789e+00,7.562255859375000000e+01,3.135598182678222656e+01
6.910099983215332031e-01,1.000000000000000000e+00,-3.989411926269531250e+01,3.841757202148437500e+01,3.296043014526367188e+01,1.001008834838867188e+02,9.883116149902343750e+01,-4.683838367462158203e+00,4.030399620532989502e-01,-6.667316436767578125e+01,-1.826874694824218750e+02,-2.342532396316528320e+00,7.562255859375000000e+01,3.135598182678222656e+01
6.950190067291259766e-01,1.000000000000000000e+00,-3.993634796142578125e+01,3.833574295043945312e+01,3.298202133178710938e+01,1.000252456665039062e+02,9.884907531738281250e+01,-4.708387374877929688e+00,4.030399620532989502e-01,-6.667316436767578125e+01,-1.826874694824218750e+02,-2.342460393905639648e+00,7.562255859375000000e+01,3.135598182678222656e+01
6.999670267105102539e-01,1.000000000000000000e+00,-3.997845840454101562e+01,3.825354766845703125e+01,3.300385665893554688e+01,9.994981384277343750e+01,9.886698913574218750e+01,-4.733276367187500000e+00,4.030399620532989502e-01,-6.667316436767578125e+01,-1.826874694824218750e+02,-2.342460393905639648e+00,7.562270355224609375e+01,3.135598182678222656e+01
7.029799818992614746e-01,1.000000000000000000e+00,-4.002057647705078125e+01,3.817088317871093750e+01,3.302563095092773438e+01,9.987401580810546875e+01,9.888500976562500000e+01,-4.758843421936035156e+00,4.030399620532989502e-01,-6.667316436767578125e+01,-1.826874694824218750e+02,-2.342532396316528320e+00,7.562255859375000000e+01,3.135598182678222656e+01
7.100570201873779297e-01,1.000000000000000000e+00,-4.002057647705078125e+01,3.817088317871093750e+01,3.302563095092773438e+01,9.987401580810546875e+01,9.888500976562500000e+01,-4.758843421936035156e+00,4.030399620532989502e-01,-6.667316436767578125e+01,-1.826874694824218750e+02,-2.342532396316528320e+00,7.562255859375000000e+01,3.135598182678222656e+01
7.114490270614624023e-01,1.000000000000000000e+00,-4.010474014282226562e+01,3.800516510009765625e+01,3.306881713867187500e+01,9.972347259521484375e+01,9.892163848876953125e+01,-4.810451984405517578e+00,4.030399620532989502e-01,-6.667326354980468750e+01,-1.826874694824218750e+02,-2.342532396316528320e+00,7.562255859375000000e+01,3.135598182678222656e+01
7.174249887466430664e-01,1.000000000000000000e+00,-4.014688110351562500e+01,3.792181777954101562e+01,3.309065628051757812e+01,9.964768218994140625e+01,9.894088745117187500e+01,-4.836358070373535156e+00,4.030399620532989502e-01,-6.667316436767578125e+01,-1.826874694824218750e+02,-2.342532396316528320e+00,7.562255859375000000e+01,3.135598182678222656e+01
7.190099954605102539e-01,1.000000000000000000e+00,-4.018910980224609375e+01,3.783885574340820312e+01,3.311261367797851562e+01,9.957198333740234375e+01,9.895996856689453125e+01,-4.861586093902587891e+00,4.030399620532989502e-01,-6.667316436767578125e+01,-1.826874694824218750e+02,-2.342532396316528320e+00,7.562255859375000000e+01,3.135598182678222656e+01
7.256439924240112305e-01,1.000000000000000000e+00,-4.018910980224609375e+01,3.783885574340820312e+01,3.311261367797851562e+01,9.957198333740234375e+01,9.895996856689453125e+01,-4.861586093902587891e+00,4.030399620532989502e-01,-6.667316436767578125e+01,-1.826874694824218750e+02,-2.342532396316528320e+00,7.562255859375000000e+01,3.135598182678222656e+01
7.280949950218200684e-01,1.000000000000000000e+00,-4.027365493774414062e+01,3.767377090454101562e+01,3.315636444091796875e+01,9.942118072509765625e+01,9.899659729003906250e+01,-4.911499023437500000e+00,4.030399620532989502e-01,-6.667316436767578125e+01,-1.826874694824218750e+02,-2.342460393905639648e+00,7.562255859375000000e+01,3.135598182678222656e+01
7.314879894256591797e-01,1.000000000000000000e+00,-4.031588363647460938e+01,3.759103775024414062e+01,3.317791748046875000e+01,9.934522247314453125e+01,9.901429748535156250e+01,-4.936794757843017578e+00,4.030399620532989502e-01,-6.667316436767578125e+01,-1.826874694824218750e+02,-2.342532396316528320e+00,7.562255859375000000e+01,3.135598182678222656e+01
7.360839843750000000e-01,1.000000000000000000e+00,-4.035825347900390625e+01,3.750834655761718750e+01,3.319951248168945312e+01,9.926958465576171875e+01,9.903221130371093750e+01,-4.962633132934570312e+00,4.030399620532989502e-01,-6.667316436767578125e+01,-1.826875762939453125e+02,-2.342603921890258789e+00,7.562255859375000000e+01,3.135598182678222656e+01
7.396119832992553711e-01,1.000000000000000000e+00,-4.040068054199218750e+01,3.742547607421875000e+01,3.322138977050781250e+01,9.919400024414062500e+01,9.905044555664062500e+01,-4.988674640655517578e+00,4.030399620532989502e-01,-6.667316436767578125e+01,-1.826874694824218750e+02,-2.342532396316528320e+00,7.562241363525390625e+01,3.135598182678222656e+01
7.439950108528137207e-01,1.000000000000000000e+00,-4.044313812255859375e+01,3.734222030639648438e+01,3.324334716796875000e+01,9.911809539794921875e+01,9.906889343261718750e+01,-5.014919757843017578e+00,4.030399620532989502e-01,-6.667316436767578125e+01,-1.826874694824218750e+02,-2.342532396316528320e+00,7.562255859375000000e+01,3.135576248168945312e+01
7.469940185546875000e-01,1.000000000000000000e+00,-4.048545074462890625e+01,3.725841903686523438e+01,3.326534271240234375e+01,9.904150390625000000e+01,9.908803558349609375e+01,-5.040418624877929688e+00,4.030399620532989502e-01,-6.667316436767578125e+01,-1.826874694824218750e+02,-2.342460393905639648e+00,7.562255859375000000e+01,3.135598182678222656e+01
7.510210275650024414e-01,1.000000000000000000e+00,-4.048545074462890625e+01,3.725841903686523438e+01,3.326534271240234375e+01,9.904150390625000000e+01,9.908803558349609375e+01,-5.040418624877929688e+00,4.030399620532989502e-01,-6.667316436767578125e+01,-1.826874694824218750e+02,-2.342460393905639648e+00,7.562255859375000000e+01,3.135598182678222656e+01
7.551280260086059570e-01,1.000000000000000000e+00,-4.052793884277343750e+01,3.717462158203125000e+01,3.328728103637695312e+01,9.896560668945312500e+01,9.910723114013671875e+01,-5.064968585968017578e+00,4.030399620532989502e-01,-6.667308044433593750e+01,-1.826874694824218750e+02,-2.342532396316528320e+00,7.562255859375000000e+01,3.135598182678222656e+01
7.590379714965820312e-01,1.000000000000000000e+00,-4.057048034667968750e+01,3.709100341796875000e+01,3.330901718139648438e+01,9.888980102539062500e+01,9.912594604492187500e+01,-5.090128421783447266e+00,4.030399620532989502e-01,-6.667316436767578125e+01,-1.826874694824218750e+02,-2.342532396316528320e+00,7.562255859375000000e+01,3.135598182678222656e+01
7.630400061607360840e-01,1.000000000000000000e+00,-4.061325454711914062e+01,3.700774765014648438e+01,3.333101654052734375e+01,9.881410980224609375e+01,9.914385986328125000e+01,-5.115560054779052734e+00,4.030399620532989502e-01,-6.667316436767578125e+01,-1.826874694824218750e+02,-2.342532396316528320e+00,7.562255859375000000e+01,3.135598182678222656e+01
7.670500278472900391e-01,1.000000000000000000e+00,-4.065585327148437500e+01,3.692492675781250000e+01,3.335301589965820312e+01,9.873778533935546875e+01,9.916172027587890625e+01,-5.141262531280517578e+00,4.030399620532989502e-01,-6.667316436767578125e+01,-1.826874694824218750e+02,-2.342532396316528320e+00,7.562255859375000000e+01,3.135598182678222656e+01
7.710059881210327148e-01,1.000000000000000000e+00,-4.069860076904296875e+01,3.684200668334960938e+01,3.337485122680664062e+01,9.866167449951171875e+01,9.917995452880859375e+01,-5.167033195495605469e+00,4.030399620532989502e-01,-6.667316436767578125e+01,-1.826874694824218750e+02,-2.342532396316528320e+00,7.562255859375000000e+01,3.135598182678222656e+01
7.750229835510253906e-01,1.000000000000000000e+00,-4.074137115478515625e+01,3.675893402099609375e+01,3.339668655395507812e+01,9.858535003662109375e+01,9.919824218750000000e+01,-5.193481445312500000e+00,4.030399620532989502e-01,-6.667316436767578125e+01,-1.826874694824218750e+02,-2.342532396316528320e+00,7.562255859375000000e+01,3.135576248168945312e+01
7.790459990501403809e-01,1.000000000000000000e+00,-4.078408813476562500e+01,3.667552185058593750e+01,3.341850280761718750e+01,9.850991821289062500e+01,9.921684265136718750e+01,-5.219591140747070312e+00,4.030399620532989502e-01,-6.667316436767578125e+01,-1.826874694824218750e+02,-2.342460393905639648e+00,7.562255859375000000e+01,3.135598182678222656e+01
7.830010056495666504e-01,1.000000000000000000e+00,-4.082660293579101562e+01,3.659197235107421875e+01,3.344062423706054688e+01,9.843312072753906250e+01,9.923635864257812500e+01,-5.244954586029052734e+00,4.030399620532989502e-01,-6.667316436767578125e+01,-1.826874694824218750e+02,-2.342532396316528320e+00,7.562255859375000000e+01,3.135619926452636719e+01
7.880759835243225098e-01,1.000000000000000000e+00,-4.086937713623046875e+01,3.650790023803710938e+01,3.346290969848632812e+01,9.835726928710937500e+01,9.925571441650390625e+01,-5.269843101501464844e+00,4.030399620532989502e-01,-6.667316436767578125e+01,-1.826874694824218750e+02,-2.342532396316528320e+00,7.562255859375000000e+01,3.135598182678222656e+01
7.910299897193908691e-01,1.000000000000000000e+00,-4.095515441894531250e+01,3.633989715576171875e+01,3.350698852539062500e+01,9.820467376708984375e+01,9.929223632812500000e+01,-5.321587562561035156e+00,4.030399620532989502e-01,-6.667316436767578125e+01,-1.826874694824218750e+02,-2.342603921890258789e+00,7.562255859375000000e+01,3.135598182678222656e+01
7.960050106048583984e-01,1.000000000000000000e+00,-4.095515441894531250e+01,3.633989715576171875e+01,3.350698852539062500e+01,9.820467376708984375e+01,9.929223632812500000e+01,-5.321587562561035156e+00,4.030399620532989502e-01,-6.667316436767578125e+01,-1.826874694824218750e+02,-2.342603921890258789e+00,7.562255859375000000e+01,3.135598182678222656e+01
7.989689707756042480e-01,1.000000000000000000e+00,-4.104072952270507812e+01,3.617297744750976562e+01,3.355074310302734375e+01,9.805133819580078125e+01,9.932849121093750000e+01,-5.373874187469482422e+00,4.030399620532989502e-01,-6.667316436767578125e+01,-1.826874694824218750e+02,-2.342532396316528320e+00,7.562255859375000000e+01,3.135598182678222656e+01
8.040500283241271973e-01,1.000000000000000000e+00,-4.104072952270507812e+01,3.617297744750976562e+01,3.355074310302734375e+01,9.805133819580078125e+01,9.932849121093750000e+01,-5.373874187469482422e+00,4.030399620532989502e-01,-6.667316436767578125e+01,-1.826874694824218750e+02,-2.342532396316528320e+00,7.562255859375000000e+01,3.135598182678222656e+01
8.069700002670288086e-01,1.000000000000000000e+00,-4.112641525268554688e+01,3.600610351562500000e+01,3.359518814086914062e+01,9.789826202392578125e+01,9.936581420898437500e+01,-5.425143718719482422e+00,4.030399620532989502e-01,-6.667326354980468750e+01,-1.826874694824218750e+02,-2.342603921890258789e+00,7.562255859375000000e+01,3.135598182678222656e+01
8.120520114898681641e-01,1.000000000000000000e+00,-4.112641525268554688e+01,3.600610351562500000e+01,3.359518814086914062e+01,9.789826202392578125e+01,9.936581420898437500e+01,-5.425143718719482422e+00,4.030399620532989502e-01,-6.667326354980468750e+01,-1.826874694824218750e+02,-2.342603921890258789e+00,7.562255859375000000e+01,3.135598182678222656e+01
8.150749802589416504e-01,1.000000000000000000e+00,-4.121207809448242188e+01,3.583814239501953125e+01,3.363928604125976562e+01,9.774530029296875000e+01,9.940457153320312500e+01,-5.476413249969482422e+00,4.030399620532989502e-01,-6.667316436767578125e+01,-1.826874694824218750e+02,-2.342532396316528320e+00,7.562255859375000000e+01,3.135598182678222656e+01
8.190119862556457520e-01,1.000000000000000000e+00,-4.121207809448242188e+01,3.583814239501953125e+01,3.363928604125976562e+01,9.774530029296875000e+01,9.940457153320312500e+01,-5.476413249969482422e+00,4.030399620532989502e-01,-6.667316436767578125e+01,-1.826874694824218750e+02,-2.342532396316528320e+00,7.562255859375000000e+01,3.135598182678222656e+01
8.230289816856384277e-01,1.000000000000000000e+00,-4.125465011596679688e+01,3.575355529785156250e+01,3.366136932373046875e+01,9.766840362548828125e+01,9.942275238037109375e+01,-5.502455234527587891e+00,4.030399620532989502e-01,-6.667316436767578125e+01,-1.826874694824218750e+02,-2.342532396316528320e+00,7.562255859375000000e+01,3.135598182678222656e+01
8.270609974861145020e-01,1.000000000000000000e+00,-4.129734039306640625e+01,3.566902923583984375e+01,3.368363189697265625e+01,9.759165191650390625e+01,9.944082641601562500e+01,-5.528564929962158203e+00,4.030399620532989502e-01,-6.667308044433593750e+01,-1.826874694824218750e+02,-2.342532396316528320e+00,7.562255859375000000e+01,3.135598182678222656e+01
8.310449719429016113e-01,1.000000000000000000e+00,-4.134002304077148438e+01,3.558459854125976562e+01,3.370581436157226562e+01,9.751490783691406250e+01,9.945912170410156250e+01,-5.555284500122070312e+00,4.030399620532989502e-01,-6.667316436767578125e+01,-1.826874694824218750e+02,-2.342532396316528320e+00,7.562255859375000000e+01,3.135619926452636719e+01
8.357779979705810547e-01,1.000000000000000000e+00,-4.138305664062500000e+01,3.550059509277343750e+01,3.372787475585937500e+01,9.743800354003906250e+01,9.947756195068359375e+01,-5.582072257995605469e+00,4.030399620532989502e-01,-6.667316436767578125e+01,-1.826874694824218750e+02,-2.342532396316528320e+00,7.562255859375000000e+01,3.135598182678222656e+01
8.399829864501953125e-01,1.000000000000000000e+00,-4.142576980590820312e+01,3.541709136962890625e+01,3.374988937377929688e+01,9.736141204833984375e+01,9.949617004394531250e+01,-5.607774257659912109e+00,4.030399620532989502e-01,-6.667316436767578125e+01,-1.826874694824218750e+02,-2.342603921890258789e+00,7.562255859375000000e+01,3.135598182678222656e+01
8.450120091438293457e-01,1.000000000000000000e+00,-4.146851730346679688e+01,3.533327102661132812e+01,3.377203369140625000e+01,9.728392791748046875e+01,9.951515197753906250e+01,-5.632799148559570312e+00,4.030399620532989502e-01,-6.667316436767578125e+01,-1.826874694824218750e+02,-2.342460393905639648e+00,7.562255859375000000e+01,3.135598182678222656e+01
8.476579785346984863e-01,1.000000000000000000e+00,-4.155377578735351562e+01,3.516458892822265625e+01,3.381649780273437500e+01,9.712980651855468750e+01,9.955433654785156250e+01,-5.684679031372070312e+00,4.030399620532989502e-01,-6.667316436767578125e+01,-1.826874694824218750e+02,-2.342532396316528320e+00,7.562255859375000000e+01,3.135598182678222656e+01
8.520309925079345703e-01,1.000000000000000000e+00,-4.155377578735351562e+01,3.516458892822265625e+01,3.381649780273437500e+01,9.712980651855468750e+01,9.955433654785156250e+01,-5.684679031372070312e+00,4.030399620532989502e-01,-6.667316436767578125e+01,-1.826874694824218750e+02,-2.342532396316528320e+00,7.562255859375000000e+01,3.135598182678222656e+01
8.559780120849609375e-01,1.000000000000000000e+00,-4.159663391113281250e+01,3.507983779907226562e+01,3.383860015869140625e+01,9.705300903320312500e+01,9.957278442382812500e+01,-5.711059570312500000e+00,4.030399620532989502e-01,-6.667316436767578125e+01,-1.826874694824218750e+02,-2.342532396316528320e+00,7.562255859375000000e+01,3.135598182678222656e+01
8.600689768791198730e-01,1.000000000000000000e+00,-4.163943481445312500e+01,3.499495315551757812e+01,3.386057662963867188e+01,9.697578430175781250e+01,9.959075164794921875e+01,-5.737711429595947266e+00,4.030399620532989502e-01,-6.667316436767578125e+01,-1.826874694824218750e+02,-2.342532396316528320e+00,7.562270355224609375e+01,3.135598182678222656e+01
8.640689849853515625e-01,1.000000000000000000e+00,-4.168218231201171875e+01,3.490975189208984375e+01,3.388282012939453125e+01,9.689894104003906250e+01,9.960919952392578125e+01,-5.764431476593017578e+00,4.030399620532989502e-01,-6.667316436767578125e+01,-1.826874694824218750e+02,-2.342532396316528320e+00,7.562255859375000000e+01,3.135598182678222656e+01
8.681039810180664062e-01,1.000000000000000000e+00,-4.172504043579101562e+01,3.482495498657226562e+01,3.390518569946289062e+01,9.682144927978515625e+01,9.962748718261718750e+01,-5.790133953094482422e+00,4.030399620532989502e-01,-6.667316436767578125e+01,-1.826874694824218750e+02,-2.342532396316528320e+00,7.562255859375000000e+01,3.135598182678222656e+01
8.720160126686096191e-01,1.000000000000000000e+00,-4.176813125610351562e+01,3.474063873291015625e+01,3.392747116088867188e+01,9.674443817138671875e+01,9.964630889892578125e+01,-5.815497398376464844e+00,4.030399620532989502e-01,-6.667316436767578125e+01,-1.826874694824218750e+02,-2.342532396316528320e+00,7.562255859375000000e+01,3.135598182678222656e+01
8.750500082969665527e-01,1.000000000000000000e+00,-4.181124496459960938e+01,3.465616226196289062e+01,3.394981384277343750e+01,9.666706848144531250e+01,9.966539764404296875e+01,-5.841064929962158203e+00,4.030399620532989502e-01,-6.667316436767578125e+01,-1.826874694824218750e+02,-2.342460393905639648e+00,7.562255859375000000e+01,3.135598182678222656e+01
8.790199756622314453e-01,1.000000000000000000e+00,-4.185424804687500000e+01,3.457184219360351562e+01,3.397199630737304688e+01,9.658973693847656250e+01,9.968506622314453125e+01,-5.867038249969482422e+00,4.030399620532989502e-01,-6.667316436767578125e+01,-1.826874694824218750e+02,-2.342532396316528320e+00,7.562255859375000000e+01,3.135598182678222656e+01
8.842279911041259766e-01,1.000000000000000000e+00,-4.189745330810546875e+01,3.448731994628906250e+01,3.399430084228515625e+01,9.651225280761718750e+01,9.970426177978515625e+01,-5.893351554870605469e+00,4.030399620532989502e-01,-6.667326354980468750e+01,-1.826874694824218750e+02,-2.342532396316528320e+00,7.562255859375000000e+01,3.135598182678222656e+01
8.879860043525695801e-01,1.000000000000000000e+00,-4.194077301025390625e+01,3.440232086181640625e+01,3.401664352416992188e+01,9.643450927734375000e+01,9.972270965576171875e+01,-5.919867515563964844e+00,4.030399620532989502e-01,-6.667316436767578125e+01,-1.826874694824218750e+02,-2.342460393905639648e+00,7.562255859375000000e+01,3.135576248168945312e+01
8.920029997825622559e-01,1.000000000000000000e+00,-4.198426437377929688e+01,3.431705474853515625e+01,3.403882980346679688e+01,9.635702514648437500e+01,9.974094390869140625e+01,-5.946858882904052734e+00,4.030399620532989502e-01,-6.667316436767578125e+01,-1.826874694824218750e+02,-2.342532396316528320e+00,7.562255859375000000e+01,3.135598182678222656e+01
8.950459957122802734e-01,1.000000000000000000e+00,-4.202761077880859375e+01,3.423133087158203125e+01,3.406115341186523438e+01,9.627922821044921875e+01,9.975933837890625000e+01,-5.972900390625000000e+00,4.030399620532989502e-01,-6.667316436767578125e+01,-1.826874694824218750e+02,-2.342532396316528320e+00,7.562255859375000000e+01,3.135598182678222656e+01
8.990830183029174805e-01,1.000000000000000000e+00,-4.207115936279296875e+01,3.414576721191406250e+01,3.408351516723632812e+01,9.620163726806640625e+01,9.977810668945312500e+01,-5.997992515563964844e+00,4.030399620532989502e-01,-6.667316436767578125e+01,-1.826874694824218750e+02,-2.342532396316528320e+00,7.562255859375000000e+01,3.135598182678222656e+01
9.030339717864990234e-01,1.000000000000000000e+00,-4.211465072631835938e+01,3.406069946289062500e+01,3.410608673095703125e+01,9.612383270263671875e+01,9.979703521728515625e+01,-6.023627758026123047e+00,4.030399620532989502e-01,-6.667316436767578125e+01,-1.826875762939453125e+02,-2.342532396316528320e+00,7.562255859375000000e+01,3.135598182678222656e+01
9.076669812202453613e-01,1.000000000000000000e+00,-4.215830993652343750e+01,3.397613143920898438e+01,3.412867355346679688e+01,9.604635620117187500e+01,9.981655120849609375e+01,-6.050144195556640625e+00,4.030399620532989502e-01,-6.667316436767578125e+01,-1.826874694824218750e+02,-2.342532396316528320e+00,7.562255859375000000e+01,3.135598182678222656e+01
9.129729866981506348e-01,1.000000000000000000e+00,-4.220188903808593750e+01,3.389172363281250000e+01,3.415095520019531250e+01,9.596865844726562500e+01,9.983638000488281250e+01,-6.076592445373535156e+00,4.030399620532989502e-01,-6.667316436767578125e+01,-1.826874694824218750e+02,-2.342532396316528320e+00,7.562255859375000000e+01,3.135598182678222656e+01
9.155899882316589355e-01,1.000000000000000000e+00,-4.228947448730468750e+01,3.372201919555664062e+01,3.419550323486328125e+01,9.581274414062500000e+01,9.987364959716796875e+01,-6.129625320434570312e+00,4.030399620532989502e-01,-6.667316436767578125e+01,-1.826874694824218750e+02,-2.342532396316528320e+00,7.562255859375000000e+01,3.135598182678222656e+01
9.200710058212280273e-01,1.000000000000000000e+00,-4.228947448730468750e+01,3.372201919555664062e+01,3.419550323486328125e+01,9.581274414062500000e+01,9.987364959716796875e+01,-6.129625320434570312e+00,4.030399620532989502e-01,-6.667316436767578125e+01,-1.826874694824218750e+02,-2.342532396316528320e+00,7.562255859375000000e+01,3.135598182678222656e+01
9.232360124588012695e-01,1.000000000000000000e+00,-4.233345031738281250e+01,3.363679504394531250e+01,3.421791076660156250e+01,9.573500061035156250e+01,9.989209747314453125e+01,-6.156208992004394531e+00,4.030399620532989502e-01,-6.667316436767578125e+01,-1.826874694824218750e+02,-2.342532396316528320e+00,7.562270355224609375e+01,3.135598182678222656e+01
9.272890090942382812e-01,1.000000000000000000e+00,-4.237720108032226562e+01,3.355096054077148438e+01,3.424068069458007812e+01,9.565703582763671875e+01,9.991049194335937500e+01,-6.181437492370605469e+00,4.030399620532989502e-01,-6.667326354980468750e+01,-1.826874694824218750e+02,-2.342532396316528320e+00,7.562255859375000000e+01,3.135576248168945312e+01
9.330880045890808105e-01,1.000000000000000000e+00,-4.242103958129882812e+01,3.346494674682617188e+01,3.426321029663085938e+01,9.557839965820312500e+01,9.992930603027343750e+01,-6.207478523254394531e+00,4.030399620532989502e-01,-6.667316436767578125e+01,-1.826874694824218750e+02,-2.342603921890258789e+00,7.562255859375000000e+01,3.135598182678222656e+01
9.357600212097167969e-01,1.000000000000000000e+00,-4.250905227661132812e+01,3.329402160644531250e+01,3.430816268920898438e+01,9.542232513427734375e+01,9.996807098388671875e+01,-6.259833335876464844e+00,4.030399620532989502e-01,-6.667316436767578125e+01,-1.826874694824218750e+02,-2.342603921890258789e+00,7.562255859375000000e+01,3.135598182678222656e+01
9.400479793548583984e-01,1.000000000000000000e+00,-4.250905227661132812e+01,3.329402160644531250e+01,3.430816268920898438e+01,9.542232513427734375e+01,9.996807098388671875e+01,-6.259833335876464844e+00,4.030399620532989502e-01,-6.667316436767578125e+01,-1.826874694824218750e+02,-2.342603921890258789e+00,7.562255859375000000e+01,3.135598182678222656e+01
9.444220066070556641e-01,1.000000000000000000e+00,-4.259677886962890625e+01,3.312395477294921875e+01,3.435334014892578125e+01,9.526619720458984375e+01,1.000063552856445312e+02,-6.314222812652587891e+00,4.030399620532989502e-01,-6.667316436767578125e+01,-1.826874694824218750e+02,-2.342603921890258789e+00,7.562255859375000000e+01,3.135598182678222656e+01
9.473080039024353027e-01,1.000000000000000000e+00,-4.259677886962890625e+01,3.312395477294921875e+01,3.435334014892578125e+01,9.526619720458984375e+01,1.000063552856445312e+02,-6.314222812652587891e+00,4.030399620532989502e-01,-6.667316436767578125e+01,-1.826874694824218750e+02,-2.342603921890258789e+00,7.562255859375000000e+01,3.135598182678222656e+01
9.512580037117004395e-01,1.000000000000000000e+00,-4.264073181152343750e+01,3.303859710693359375e+01,3.437570571899414062e+01,9.518813323974609375e+01,1.000249557495117188e+02,-6.340874671936035156e+00,4.030399620532989502e-01,-6.667326354980468750e+01,-1.826874694824218750e+02,-2.342532396316528320e+00,7.562255859375000000e+01,3.135598182678222656e+01
9.561179876327514648e-01,1.000000000000000000e+00,-4.268453598022460938e+01,3.295289611816406250e+01,3.439804840087890625e+01,9.510948944091796875e+01,1.000435180664062500e+02,-6.366373538970947266e+00,4.030399620532989502e-01,-6.667326354980468750e+01,-1.826873016357421875e+02,-2.342532396316528320e+00,7.562255859375000000e+01,3.135598182678222656e+01
9.609569907188415527e-01,1.000000000000000000e+00,-4.272817230224609375e+01,3.286667633056640625e+01,3.442049789428710938e+01,9.503163909912109375e+01,1.000622787475585938e+02,-6.392076492309570312e+00,4.030399620532989502e-01,-6.667316436767578125e+01,-1.826874694824218750e+02,-2.342532396316528320e+00,7.562255859375000000e+01,3.135598182678222656e+01
9.650290012359619141e-01,1.000000000000000000e+00,-4.277200698852539062e+01,3.278011703491210938e+01,3.444322586059570312e+01,9.495294189453125000e+01,1.000813140869140625e+02,-6.418660640716552734e+00,4.030399620532989502e-01,-6.667316436767578125e+01,-1.826874694824218750e+02,-2.342532396316528320e+00,7.562255859375000000e+01,3.135598182678222656e+01
9.680340290069580078e-01,1.000000000000000000e+00,-4.281581497192382812e+01,3.269358062744140625e+01,3.446606063842773438e+01,9.487467193603515625e+01,1.001008834838867188e+02,-6.445651531219482422e+00,4.030399620532989502e-01,-6.667316436767578125e+01,-1.826874694824218750e+02,-2.342532396316528320e+00,7.562255859375000000e+01,3.135598182678222656e+01
9.715830087661743164e-01,1.000000000000000000e+00,-4.285982131958007812e+01,3.260708999633789062e+01,3.448866653442382812e+01,9.479618835449218750e+01,1.001209335327148438e+02,-6.472642898559570312e+00,4.030399620532989502e-01,-6.667316436767578125e+01,-1.826874694824218750e+02,-2.342460393905639648e+00,7.562255859375000000e+01,3.135598182678222656e+01
9.760050177574157715e-01,1.000000000000000000e+00,-4.290362930297851562e+01,3.252109527587890625e+01,3.451115798950195312e+01,9.471759796142578125e+01,1.001405487060546875e+02,-6.499362468719482422e+00,4.030399620532989502e-01,-6.667316436767578125e+01,-1.826874694824218750e+02,-2.342532396316528320e+00,7.562255859375000000e+01,3.135598182678222656e+01
9.803299903869628906e-01,1.000000000000000000e+00,-4.294749069213867188e+01,3.243541717529296875e+01,3.453348159790039062e+01,9.463864135742187500e+01,1.001592102050781250e+02,-6.526014804840087891e+00,4.030399620532989502e-01,-6.667316436767578125e+01,-1.826874694824218750e+02,-2.342532396316528320e+00,7.562255859375000000e+01,3.135598182678222656e+01
9.839739799499511719e-01,1.000000000000000000e+00,-4.299143981933593750e+01,3.234987640380859375e+01,3.455612945556640625e+01,9.456005096435546875e+01,1.001778182983398438e+02,-6.551920413970947266e+00,4.030399620532989502e-01,-6.667316436767578125e+01,-1.826875762939453125e+02,-2.342532396316528320e+00,7.562255859375000000e+01,3.135619926452636719e+01
9.880009889602661133e-01,1.000000000000000000e+00,-4.303516006469726562e+01,3.226385879516601562e+01,3.457877731323242188e+01,9.448156738281250000e+01,1.001963195800781250e+02,-6.578301429748535156e+00,4.030399620532989502e-01,-6.667316436767578125e+01,-1.826875762939453125e+02,-2.342603921890258789e+00,7.562255859375000000e+01,3.135598182678222656e+01
9.917259812355041504e-01,1.000000000000000000e+00,-4.307917022705078125e+01,3.217752838134765625e+01,3.460155105590820312e+01,9.440303039550781250e+01,1.002151947021484375e+02,-6.604614734649658203e+00,4.030399620532989502e-01,-6.667316436767578125e+01,-1.826874694824218750e+02,-2.342603921890258789e+00,7.562255859375000000e+01,3.135598182678222656e+01
9.960029721260070801e-01,1.000000000000000000e+00,-4.312300491333007812e+01,3.209081268310546875e+01,3.462424087524414062e+01,9.432423400878906250e+01,1.002345962524414062e+02,-6.631808757781982422e+00,4.030399620532989502e-01,-6.667316436767578125e+01,-1.826874694824218750e+02,-2.342460393905639648e+00,7.562255859375000000e+01,3.135598182678222656e+01
1.000010013580322266e+00,1.000000000000000000e+00,-4.316681289672851562e+01,3.200377655029296875e+01,3.464685058593750000e+01,9.424553680419921875e+01,1.002543258666992188e+02,-6.659139156341552734e+00,4.030399620532989502e-01,-6.667316436767578125e+01,-1.826874694824218750e+02,-2.342460393905639648e+00,7.562255859375000000e+01,3.135598182678222656e+01
1.004528999328613281e+00,1.000000000000000000e+00,-4.321070480346679688e+01,3.191680908203125000e+01,3.466968154907226562e+01,9.416651916503906250e+01,1.002744827270507812e+02,-6.686401367187500000e+00,4.030399620532989502e-01,-6.667316436767578125e+01,-1.826874694824218750e+02,-2.342532396316528320e+00,7.562270355224609375e+01,3.135598182678222656e+01
1.007961988449096680e+00,1.000000000000000000e+00,-4.325471115112304688e+01,3.183029365539550781e+01,3.469251632690429688e+01,9.408761596679687500e+01,1.002936706542968750e+02,-6.713256835937500000e+00,4.030399620532989502e-01,-6.667316436767578125e+01,-1.826874694824218750e+02,-2.342532396316528320e+00,7.562255859375000000e+01,3.135598182678222656e+01
1.011996030807495117e+00,1.000000000000000000e+00,-4.329877471923828125e+01,3.174418830871582031e+01,3.471520614624023438e+01,9.400865173339843750e+01,1.003124389648437500e+02,-6.739298820495605469e+00,4.030399620532989502e-01,-6.667316436767578125e+01,-1.826874694824218750e+02,-2.342532396316528320e+00,7.562255859375000000e+01,3.135598182678222656e+01
1.015998005867004395e+00,1.000000000000000000e+00,-4.334292984008789062e+01,3.165794372558593750e+01,3.473781204223632812e+01,9.392985534667968750e+01,1.003310470581054688e+02,-6.765272617340087891e+00,4.030399620532989502e-01,-6.667316436767578125e+01,-1.826874694824218750e+02,-2.342603921890258789e+00,7.562255859375000000e+01,3.135598182678222656e+01
1.019978046417236328e+00,1.000000000000000000e+00,-4.338708114624023438e+01,3.157192802429199219e+01,3.476048660278320312e+01,9.385053253173828125e+01,1.003499755859375000e+02,-6.792060375213623047e+00,4.030399620532989502e-01,-6.667316436767578125e+01,-1.826874694824218750e+02,-2.342532396316528320e+00,7.562255859375000000e+01,3.135598182678222656e+01
1.024009943008422852e+00,1.000000000000000000e+00,-4.343143081665039062e+01,3.148575592041015625e+01,3.478350067138671875e+01,9.377136230468750000e+01,1.003691635131835938e+02,-6.819322586059570312e+00,4.030399620532989502e-01,-6.667316436767578125e+01,-1.826874694824218750e+02,-2.342460393905639648e+00,7.562255859375000000e+01,3.135576248168945312e+01
1.028678059577941895e+00,1.000000000000000000e+00,-4.347581100463867188e+01,3.139890289306640625e+01,3.480637359619140625e+01,9.369182586669921875e+01,1.003889007568359375e+02,-6.846924304962158203e+00,4.030399620532989502e-01,-6.667316436767578125e+01,-1.826874694824218750e+02,-2.342603921890258789e+00,7.562255859375000000e+01,3.135598182678222656e+01
1.032960057258605957e+00,1.000000000000000000e+00,-4.352016448974609375e+01,3.131152725219726562e+01,3.482926559448242188e+01,9.361296844482421875e+01,1.004088897705078125e+02,-6.874186515808105469e+00,4.030399620532989502e-01,-6.667316436767578125e+01,-1.826874694824218750e+02,-2.342532396316528320e+00,7.562241363525390625e+01,3.135598182678222656e+01
1.035930037498474121e+00,1.000000000000000000e+00,-4.356457138061523438e+01,3.122424507141113281e+01,3.485191345214843750e+01,9.353358459472656250e+01,1.004288864135742188e+02,-6.900702953338623047e+00,4.030399620532989502e-01,-6.667316436767578125e+01,-1.826874694824218750e+02,-2.342532396316528320e+00,7.562255859375000000e+01,3.135598182678222656e+01
1.040109992027282715e+00,1.000000000000000000e+00,-4.360895538330078125e+01,3.113695716857910156e+01,3.487462997436523438e+01,9.345474243164062500e+01,1.004479217529296875e+02,-6.926879882812500000e+00,4.030399620532989502e-01,-6.667316436767578125e+01,-1.826874694824218750e+02,-2.342532396316528320e+00,7.562255859375000000e+01,3.135598182678222656e+01
1.044152021408081055e+00,1.000000000000000000e+00,-4.365341949462890625e+01,3.105010604858398438e+01,3.489766311645507812e+01,9.337472534179687500e+01,1.004666366577148438e+02,-6.952853679656982422e+00,4.030399620532989502e-01,-6.667316436767578125e+01,-1.826874694824218750e+02,-2.342532396316528320e+00,7.562255859375000000e+01,3.135598182678222656e+01
1.048032045364379883e+00,1.000000000000000000e+00,-4.369820404052734375e+01,3.096379470825195312e+01,3.492065811157226562e+01,9.329582214355468750e+01,1.004854507446289062e+02,-6.979912757873535156e+00,4.030399620532989502e-01,-6.667316436767578125e+01,-1.826874694824218750e+02,-2.342532396316528320e+00,7.562255859375000000e+01,3.135598182678222656e+01
1.053779959678649902e+00,1.000000000000000000e+00,-4.374272918701171875e+01,3.087732505798339844e+01,3.494363403320312500e+01,9.321607208251953125e+01,1.005043258666992188e+02,-7.006971836090087891e+00,4.030399620532989502e-01,-6.667316436767578125e+01,-1.826874694824218750e+02,-2.342460393905639648e+00,7.562255859375000000e+01,3.135598182678222656e+01
1.056972980499267578e+00,1.000000000000000000e+00,-4.383203506469726562e+01,3.070343971252441406e+01,3.498929595947265625e+01,9.305705261230468750e+01,1.005437774658203125e+02,-7.062039375305175781e+00,4.030399620532989502e-01,-6.667316436767578125e+01,-1.826874694824218750e+02,-2.342532396316528320e+00,7.562255859375000000e+01,3.135598182678222656e+01
1.060099005699157715e+00,1.000000000000000000e+00,-4.383203506469726562e+01,3.070343971252441406e+01,3.498929595947265625e+01,9.305705261230468750e+01,1.005437774658203125e+02,-7.062039375305175781e+00,4.030399620532989502e-01,-6.667316436767578125e+01,-1.826874694824218750e+02,-2.342532396316528320e+00,7.562255859375000000e+01,3.135598182678222656e+01
1.064252972602844238e+00,1.000000000000000000e+00,-4.387693023681640625e+01,3.061595153808593750e+01,3.501225280761718750e+01,9.297708892822265625e+01,1.005638809204101562e+02,-7.088284015655517578e+00,4.030399620532989502e-01,-6.667316436767578125e+01,-1.826875762939453125e+02,-2.342532396316528320e+00,7.562270355224609375e+01,3.135598182678222656e+01
1.068241000175476074e+00,1.000000000000000000e+00,-4.392148590087890625e+01,3.052812576293945312e+01,3.503526687622070312e+01,9.289771270751953125e+01,1.005834960937500000e+02,-7.114326000213623047e+00,4.030399620532989502e-01,-6.667316436767578125e+01,-1.826874694824218750e+02,-2.342603921890258789e+00,7.562255859375000000e+01,3.135598182678222656e+01
1.072425961494445801e+00,1.000000000000000000e+00,-4.396629714965820312e+01,3.044013786315917969e+01,3.505812072753906250e+01,9.281743621826171875e+01,1.006022109985351562e+02,-7.140841960906982422e+00,4.030399620532989502e-01,-6.667316436767578125e+01,-1.826874694824218750e+02,-2.342532396316528320e+00,7.562255859375000000e+01,3.135598182678222656e+01
1.075001001358032227e+00,1.000000000000000000e+00,-4.401116561889648438e+01,3.035249328613281250e+01,3.508107376098632812e+01,9.273784637451171875e+01,1.006210937500000000e+02,-7.167765140533447266e+00,4.030399620532989502e-01,-6.667316436767578125e+01,-1.826874694824218750e+02,-2.342532396316528320e+00,7.562255859375000000e+01,3.135598182678222656e+01
1.080975055694580078e+00,1.000000000000000000e+00,-4.405580139160156250e+01,3.026534652709960938e+01,3.510404968261718750e+01,9.265778350830078125e+01,1.006403350830078125e+02,-7.195569992065429688e+00,4.030399620532989502e-01,-6.667316436767578125e+01,-1.826874694824218750e+02,-2.342603921890258789e+00,7.562270355224609375e+01,3.135619926452636719e+01
1.084216952323913574e+00,1.000000000000000000e+00,-4.410044097900390625e+01,3.017806053161621094e+01,3.512708663940429688e+01,9.257839965820312500e+01,1.006596908569335938e+02,-7.222697257995605469e+00,4.030399620532989502e-01,-6.667316436767578125e+01,-1.826874694824218750e+02,-2.342532396316528320e+00,7.562255859375000000e+01,3.135619926452636719e+01
1.086946010589599609e+00,1.000000000000000000e+00,-4.414502716064453125e+01,3.009091377258300781e+01,3.515012359619140625e+01,9.249812316894531250e+01,1.006793594360351562e+02,-7.250027179718017578e+00,4.030399620532989502e-01,-6.667316436767578125e+01,-1.826875762939453125e+02,-2.342532396316528320e+00,7.562255859375000000e+01,3.135598182678222656e+01
1.090942978858947754e+00,1.000000000000000000e+00,-4.418978118896484375e+01,3.000385665893554688e+01,3.517297363281250000e+01,9.241822052001953125e+01,1.006997299194335938e+02,-7.276475429534912109e+00,4.030399620532989502e-01,-6.667316436767578125e+01,-1.826874694824218750e+02,-2.342532396316528320e+00,7.562255859375000000e+01,3.135598182678222656e+01
1.095044970512390137e+00,1.000000000000000000e+00,-4.423450469970703125e+01,2.991600608825683594e+01,3.519585037231445312e+01,9.233836364746093750e+01,1.007197723388671875e+02,-7.302517414093017578e+00,4.030399620532989502e-01,-6.667316436767578125e+01,-1.826874694824218750e+02,-2.342603921890258789e+00,7.562255859375000000e+01,3.135598182678222656e+01
1.098950028419494629e+00,1.000000000000000000e+00,-4.427914428710937500e+01,2.982748031616210938e+01,3.521896743774414062e+01,9.225809478759765625e+01,1.007391815185546875e+02,-7.329576969146728516e+00,4.030399620532989502e-01,-6.667316436767578125e+01,-1.826874694824218750e+02,-2.342532396316528320e+00,7.562255859375000000e+01,3.135598182678222656e+01
1.104588985443115234e+00,1.000000000000000000e+00,-4.432375335693359375e+01,2.973913192749023438e+01,3.524204254150390625e+01,9.217813110351562500e+01,1.007581100463867188e+02,-7.356635570526123047e+00,4.030399620532989502e-01,-6.667316436767578125e+01,-1.826874694824218750e+02,-2.342532396316528320e+00,7.562255859375000000e+01,3.135598182678222656e+01
1.108410000801086426e+00,1.000000000000000000e+00,-4.436825180053710938e+01,2.965073966979980469e+01,3.526519775390625000e+01,9.209717559814453125e+01,1.007769317626953125e+02,-7.383491039276123047e+00,4.030399620532989502e-01,-6.667326354980468750e+01,-1.826873016357421875e+02,-2.342532396316528320e+00,7.562255859375000000e+01,3.135598182678222656e+01
1.110957980155944824e+00,1.000000000000000000e+00,-4.441291809082031250e+01,2.956282043457031250e+01,3.528839874267578125e+01,9.201715850830078125e+01,1.007959136962890625e+02,-7.411567211151123047e+00,4.030399620532989502e-01,-6.667316436767578125e+01,-1.826874694824218750e+02,-2.342603921890258789e+00,7.562241363525390625e+01,3.135598182678222656e+01
1.114948987960815430e+00,1.000000000000000000e+00,-4.445761489868164062e+01,2.947558212280273438e+01,3.531141662597656250e+01,9.193698883056640625e+01,1.008155364990234375e+02,-7.439033031463623047e+00,4.030399620532989502e-01,-6.667316436767578125e+01,-1.826874694824218750e+02,-2.342603921890258789e+00,7.562255859375000000e+01,3.135598182678222656e+01
