rpiRobotics/ARM-21-02-F-19-Robot-Motion-Program/data_performance_abb/curve_1/curve_pose_opt1/100L/grad_result/real/run_0.csv
timestamp,cmd_num,J1,J2,J3,J4,J5,J6
1.510000001871958375e-04,-1.000000000000000000e+00,-3.429629135131835938e+01,4.938357543945312500e+01,3.007418823242187500e+01,1.101253356933593750e+02,9.639295959472656250e+01,-1.301744341850280762e+00,4.030399620532989502e-01,-6.667316436767578125e+01,-1.826874694824218750e+02,-2.342460393905639648e+00,7.562255859375000000e+01,3.135598182678222656e+01
3.804000094532966614e-03,1.000000000000000000e+00,-3.429623413085937500e+01,4.938359832763671875e+01,3.007410621643066406e+01,1.101254348754882812e+02,9.639295959472656250e+01,-1.301676511764526367e+00,4.030399620532989502e-01,-6.667316436767578125e+01,-1.826874694824218750e+02,-2.342532396316528320e+00,7.562255859375000000e+01,3.135598182678222656e+01
8.798000402748584747e-03,1.000000000000000000e+00,-3.429629135131835938e+01,4.938359832763671875e+01,3.007410621643066406e+01,1.101254348754882812e+02,9.639295959472656250e+01,-1.301676511764526367e+00,4.030399620532989502e-01,-6.667316436767578125e+01,-1.826874694824218750e+02,-2.342460393905639648e+00,7.562255859375000000e+01,3.135598182678222656e+01
1.231800019741058350e-02,1.000000000000000000e+00,-3.429640579223632812e+01,4.938353347778320312e+01,3.007414627075195312e+01,1.101254348754882812e+02,9.639311218261718750e+01,-1.301676511764526367e+00,4.030399620532989502e-01,-6.667316436767578125e+01,-1.826874694824218750e+02,-2.342460393905639648e+00,7.562255859375000000e+01,3.135598182678222656e+01
3.852999955415725708e-02,1.000000000000000000e+00,-3.429629135131835938e+01,4.938357543945312500e+01,3.007410621643066406e+01,1.101253356933593750e+02,9.639295959472656250e+01,-1.301540851593017578e+00,4.030399620532989502e-01,-6.667326354980468750e+01,-1.826874694824218750e+02,-2.342532396316528320e+00,7.562255859375000000e+01,3.135598182678222656e+01
3.993000090122222900e-02,1.000000000000000000e+00,-3.429629135131835938e+01,4.938353347778320312e+01,3.007410621643066406e+01,1.101254348754882812e+02,9.639311218261718750e+01,-1.301676511764526367e+00,4.030399620532989502e-01,-6.667316436767578125e+01,-1.826874694824218750e+02,-2.342460393905639648e+00,7.562255859375000000e+01,3.135598182678222656e+01
4.118400067090988159e-02,1.000000000000000000e+00,-3.429629135131835938e+01,4.938353347778320312e+01,3.007410621643066406e+01,1.101254348754882812e+02,9.639311218261718750e+01,-1.301676511764526367e+00,4.030399620532989502e-01,-6.667316436767578125e+01,-1.826874694824218750e+02,-2.342460393905639648e+00,7.562255859375000000e+01,3.135598182678222656e+01
4.868600144982337952e-02,1.000000000000000000e+00,-3.429629135131835938e+01,4.938359832763671875e+01,3.007410621643066406e+01,1.101254348754882812e+02,9.639295959472656250e+01,-1.301540851593017578e+00,4.030399620532989502e-01,-6.667316436767578125e+01,-1.826874694824218750e+02,-2.342316627502441406e+00,7.562255859375000000e+01,3.135598182678222656e+01
5.110099911689758301e-02,1.000000000000000000e+00,-3.429634857177734375e+01,4.938357543945312500e+01,3.007410621643066406e+01,1.101253356933593750e+02,9.639311218261718750e+01,-1.301540851593017578e+00,4.030399620532989502e-01,-6.667316436767578125e+01,-1.826874694824218750e+02,-2.342532396316528320e+00,7.562255859375000000e+01,3.135619926452636719e+01
5.245200172066688538e-02,1.000000000000000000e+00,-3.429634857177734375e+01,4.938357543945312500e+01,3.007410621643066406e+01,1.101253356933593750e+02,9.639311218261718750e+01,-1.301540851593017578e+00,4.030399620532989502e-01,-6.667316436767578125e+01,-1.826874694824218750e+02,-2.342532396316528320e+00,7.562255859375000000e+01,3.135619926452636719e+01
5.570999905467033386e-02,1.000000000000000000e+00,-3.429634857177734375e+01,4.938353347778320312e+01,3.007410621643066406e+01,1.101253356933593750e+02,9.639311218261718750e+01,-1.301540851593017578e+00,4.030399620532989502e-01,-6.667316436767578125e+01,-1.826875762939453125e+02,-2.342532396316528320e+00,7.562255859375000000e+01,3.135598182678222656e+01
5.700999870896339417e-02,1.000000000000000000e+00,-3.429634857177734375e+01,4.938353347778320312e+01,3.007410621643066406e+01,1.101253356933593750e+02,9.639311218261718750e+01,-1.301540851593017578e+00,4.030399620532989502e-01,-6.667316436767578125e+01,-1.826875762939453125e+02,-2.342532396316528320e+00,7.562255859375000000e+01,3.135598182678222656e+01
5.974899977445602417e-02,1.000000000000000000e+00,-3.429660797119140625e+01,4.938337326049804688e+01,3.007410621643066406e+01,1.101254348754882812e+02,9.639295959472656250e+01,-1.301540851593017578e+00,4.030399620532989502e-01,-6.667316436767578125e+01,-1.826875762939453125e+02,-2.342532396316528320e+00,7.562255859375000000e+01,3.135598182678222656e+01
6.338199973106384277e-02,1.000000000000000000e+00,-3.429735565185546875e+01,4.938303375244140625e+01,3.007408523559570312e+01,1.101254348754882812e+02,9.639311218261718750e+01,-1.301676511764526367e+00,4.030399620532989502e-01,-6.667326354980468750e+01,-1.826874694824218750e+02,-2.342316627502441406e+00,7.562255859375000000e+01,3.135598182678222656e+01
6.473299860954284668e-02,1.000000000000000000e+00,-3.429735565185546875e+01,4.938303375244140625e+01,3.007408523559570312e+01,1.101254348754882812e+02,9.639311218261718750e+01,-1.301676511764526367e+00,4.030399620532989502e-01,-6.667326354980468750e+01,-1.826874694824218750e+02,-2.342316627502441406e+00,7.562255859375000000e+01,3.135598182678222656e+01
6.729300320148468018e-02,1.000000000000000000e+00,-3.429858779907226562e+01,4.938201522827148438e+01,3.007414627075195312e+01,1.101253356933593750e+02,9.639295959472656250e+01,-1.301540851593017578e+00,4.030399620532989502e-01,-6.667316436767578125e+01,-1.826874694824218750e+02,-2.342460393905639648e+00,7.562270355224609375e+01,3.135619926452636719e+01
7.145699858665466309e-02,1.000000000000000000e+00,-3.430039596557617188e+01,4.938009262084960938e+01,3.007414627075195312e+01,1.101253356933593750e+02,9.639311218261718750e+01,-1.301676511764526367e+00,4.030399620532989502e-01,-6.667316436767578125e+01,-1.826874694824218750e+02,-2.342460393905639648e+00,7.562255859375000000e+01,3.135598182678222656e+01
7.283300161361694336e-02,1.000000000000000000e+00,-3.430039596557617188e+01,4.938009262084960938e+01,3.007414627075195312e+01,1.101253356933593750e+02,9.639311218261718750e+01,-1.301676511764526367e+00,4.030399620532989502e-01,-6.667316436767578125e+01,-1.826874694824218750e+02,-2.342460393905639648e+00,7.562255859375000000e+01,3.135598182678222656e+01
7.599599659442901611e-02,1.000000000000000000e+00,-3.430277633666992188e+01,4.937694931030273438e+01,3.007410621643066406e+01,1.101253356933593750e+02,9.639311218261718750e+01,-1.301676511764526367e+00,4.030399620532989502e-01,-6.667316436767578125e+01,-1.826874694824218750e+02,-2.342460393905639648e+00,7.562255859375000000e+01,3.135598182678222656e+01
7.728499919176101685e-02,1.000000000000000000e+00,-3.430277633666992188e+01,4.937694931030273438e+01,3.007410621643066406e+01,1.101253356933593750e+02,9.639311218261718750e+01,-1.301676511764526367e+00,4.030399620532989502e-01,-6.667316436767578125e+01,-1.826874694824218750e+02,-2.342460393905639648e+00,7.562255859375000000e+01,3.135598182678222656e+01
8.103799819946289062e-02,1.000000000000000000e+00,-3.430582046508789062e+01,4.937217330932617188e+01,3.007418823242187500e+01,1.101251754760742188e+02,9.639311218261718750e+01,-1.301676511764526367e+00,4.030399620532989502e-01,-6.667326354980468750e+01,-1.826874694824218750e+02,-2.342532396316528320e+00,7.562255859375000000e+01,3.135598182678222656e+01
8.372499793767929077e-02,1.000000000000000000e+00,-3.430946731567382812e+01,4.936540603637695312e+01,3.007424926757812500e+01,1.101245956420898438e+02,9.639349365234375000e+01,-1.301744341850280762e+00,4.030399620532989502e-01,-6.667316436767578125e+01,-1.826874694824218750e+02,-2.342460393905639648e+00,7.562255859375000000e+01,3.135598182678222656e+01
8.506499975919723511e-02,1.000000000000000000e+00,-3.430946731567382812e+01,4.936540603637695312e+01,3.007424926757812500e+01,1.101245956420898438e+02,9.639349365234375000e+01,-1.301744341850280762e+00,4.030399620532989502e-01,-6.667316436767578125e+01,-1.826874694824218750e+02,-2.342460393905639648e+00,7.562255859375000000e+01,3.135598182678222656e+01
8.852499723434448242e-02,1.000000000000000000e+00,-3.431365966796875000e+01,4.935671615600585938e+01,3.007451248168945312e+01,1.101231231689453125e+02,9.639385986328125000e+01,-1.301880002021789551e+00,4.030399620532989502e-01,-6.667316436767578125e+01,-1.826874694824218750e+02,-2.342460393905639648e+00,7.562255859375000000e+01,3.135598182678222656e+01
9.497100114822387695e-02,1.000000000000000000e+00,-3.431365966796875000e+01,4.935671615600585938e+01,3.007451248168945312e+01,1.101231231689453125e+02,9.639385986328125000e+01,-1.301880002021789551e+00,4.030399620532989502e-01,-6.667316436767578125e+01,-1.826874694824218750e+02,-2.342460393905639648e+00,7.562255859375000000e+01,3.135598182678222656e+01
9.637299925088882446e-02,1.000000000000000000e+00,-3.432448196411132812e+01,4.933370208740234375e+01,3.007599639892578125e+01,1.101144256591796875e+02,9.639583587646484375e+01,-1.303168535232543945e+00,4.030399620532989502e-01,-6.667316436767578125e+01,-1.826874694824218750e+02,-2.342460393905639648e+00,7.562255859375000000e+01,3.135598182678222656e+01
9.974599629640579224e-02,1.000000000000000000e+00,-3.432448196411132812e+01,4.933370208740234375e+01,3.007599639892578125e+01,1.101144256591796875e+02,9.639583587646484375e+01,-1.303168535232543945e+00,4.030399620532989502e-01,-6.667316436767578125e+01,-1.826874694824218750e+02,-2.342460393905639648e+00,7.562255859375000000e+01,3.135598182678222656e+01
1.037089973688125610e-01,1.000000000000000000e+00,-3.433136749267578125e+01,4.931878662109375000e+01,3.007750320434570312e+01,1.101069488525390625e+02,9.639733123779296875e+01,-1.305202960968017578e+00,4.030399620532989502e-01,-6.667316436767578125e+01,-1.826874694824218750e+02,-2.342460393905639648e+00,7.562255859375000000e+01,3.135598182678222656e+01
1.079500019550323486e-01,1.000000000000000000e+00,-3.433989715576171875e+01,4.930147552490234375e+01,3.007973670959472656e+01,1.100979385375976562e+02,9.639978027343750000e+01,-1.308865070343017578e+00,4.030399620532989502e-01,-6.667316436767578125e+01,-1.826874694824218750e+02,-2.342460393905639648e+00,7.562255859375000000e+01,3.135598182678222656e+01
1.109559983015060425e-01,1.000000000000000000e+00,-3.434982681274414062e+01,4.928142547607421875e+01,3.008274841308593750e+01,1.100859832763671875e+02,9.640303039550781250e+01,-1.313205361366271973e+00,4.030399620532989502e-01,-6.667316436767578125e+01,-1.826874694824218750e+02,-2.342532396316528320e+00,7.562255859375000000e+01,3.135598182678222656e+01
1.152840033173561096e-01,1.000000000000000000e+00,-3.436125564575195312e+01,4.925881958007812500e+01,3.008654975891113281e+01,1.100707626342773438e+02,9.640660858154296875e+01,-1.318020343780517578e+00,4.030399620532989502e-01,-6.667326354980468750e+01,-1.826874694824218750e+02,-2.342460393905639648e+00,7.562270355224609375e+01,3.135598182678222656e+01
1.197120025753974915e-01,1.000000000000000000e+00,-3.437420272827148438e+01,4.923358535766601562e+01,3.009130668640136719e+01,1.100521697998046875e+02,9.641114044189453125e+01,-1.323988199234008789e+00,4.030399620532989502e-01,-6.667316436767578125e+01,-1.826874694824218750e+02,-2.342460393905639648e+00,7.562270355224609375e+01,3.135598182678222656e+01
1.238479986786842346e-01,1.000000000000000000e+00,-3.438892745971679688e+01,4.920550155639648438e+01,3.009728431701660156e+01,1.100291519165039062e+02,9.641658020019531250e+01,-1.331448078155517578e+00,4.030399620532989502e-01,-6.667316436767578125e+01,-1.826874694824218750e+02,-2.342532396316528320e+00,7.562270355224609375e+01,3.135598182678222656e+01
1.277469992637634277e-01,1.000000000000000000e+00,-3.440485763549804688e+01,4.917382049560546875e+01,3.010468482971191406e+01,1.100018081665039062e+02,9.642334747314453125e+01,-1.340060830116271973e+00,4.030399620532989502e-01,-6.667316436767578125e+01,-1.826874694824218750e+02,-2.342532396316528320e+00,7.562255859375000000e+01,3.135598182678222656e+01
1.316740065813064575e-01,1.000000000000000000e+00,-3.442193984985351562e+01,4.913863372802734375e+01,3.011326599121093750e+01,1.099703598022460938e+02,9.643065643310546875e+01,-1.350165605545043945e+00,4.030399620532989502e-01,-6.667316436767578125e+01,-1.826874694824218750e+02,-2.342460393905639648e+00,7.562255859375000000e+01,3.135576248168945312e+01
1.364479959011077881e-01,1.000000000000000000e+00,-3.444105911254882812e+01,4.910004806518554688e+01,3.012302398681640625e+01,1.099359207153320312e+02,9.643928527832031250e+01,-1.361965656280517578e+00,4.030399620532989502e-01,-6.667316436767578125e+01,-1.826874694824218750e+02,-2.342460393905639648e+00,7.562255859375000000e+01,3.135598182678222656e+01
1.396950036287307739e-01,1.000000000000000000e+00,-3.446210098266601562e+01,4.905820465087890625e+01,3.013412475585937500e+01,1.098976745605468750e+02,9.644925689697265625e+01,-1.374647378921508789e+00,4.030399620532989502e-01,-6.667308044433593750e+01,-1.826874694824218750e+02,-2.342532396316528320e+00,7.562255859375000000e+01,3.135598182678222656e+01
1.436980068683624268e-01,1.000000000000000000e+00,-3.448492050170898438e+01,4.901296615600585938e+01,3.014669036865234375e+01,1.098539047241210938e+02,9.645970916748046875e+01,-1.388956785202026367e+00,4.030399620532989502e-01,-6.667316436767578125e+01,-1.826874694824218750e+02,-2.342316627502441406e+00,7.562270355224609375e+01,3.135598182678222656e+01
1.480219960212707520e-01,1.000000000000000000e+00,-3.450892257690429688e+01,4.896442413330078125e+01,3.016061592102050781e+01,1.098052291870117188e+02,9.647160339355468750e+01,-1.404690265655517578e+00,4.030399620532989502e-01,-6.667316436767578125e+01,-1.826874694824218750e+02,-2.342532396316528320e+00,7.562255859375000000e+01,3.135598182678222656e+01
1.515530049800872803e-01,1.000000000000000000e+00,-3.453424453735351562e+01,4.891305541992187500e+01,3.017562294006347656e+01,1.097537155151367188e+02,9.648391723632812500e+01,-1.422458291053771973e+00,4.030399620532989502e-01,-6.667316436767578125e+01,-1.826874694824218750e+02,-2.342460393905639648e+00,7.562255859375000000e+01,3.135598182678222656e+01
1.556970030069351196e-01,1.000000000000000000e+00,-3.456125640869140625e+01,4.885914993286132812e+01,3.019148254394531250e+01,1.096992492675781250e+02,9.649681854248046875e+01,-1.440972328186035156e+00,4.030399620532989502e-01,-6.667316436767578125e+01,-1.826874694824218750e+02,-2.342460393905639648e+00,7.562255859375000000e+01,3.135598182678222656e+01
1.604329943656921387e-01,1.000000000000000000e+00,-3.458958816528320312e+01,4.880232620239257812e+01,3.020835685729980469e+01,1.096414718627929688e+02,9.651057434082031250e+01,-1.460774779319763184e+00,4.030399620532989502e-01,-6.667316436767578125e+01,-1.826874694824218750e+02,-2.342460393905639648e+00,7.562241363525390625e+01,3.135598182678222656e+01
1.637170016765594482e-01,1.000000000000000000e+00,-3.461933135986328125e+01,4.874294662475585938e+01,3.022598457336425781e+01,1.095811080932617188e+02,9.652486419677734375e+01,-1.482001423835754395e+00,4.030399620532989502e-01,-6.667316436767578125e+01,-1.826874694824218750e+02,-2.342460393905639648e+00,7.562255859375000000e+01,3.135576248168945312e+01
1.676809936761856079e-01,1.000000000000000000e+00,-3.465050125122070312e+01,4.868094253540039062e+01,3.024424171447753906e+01,1.095175781250000000e+02,9.653968811035156250e+01,-1.503635048866271973e+00,4.030399620532989502e-01,-6.667316436767578125e+01,-1.826874694824218750e+02,-2.342460393905639648e+00,7.562255859375000000e+01,3.135598182678222656e+01
1.721840053796768188e-01,1.000000000000000000e+00,-3.468291473388671875e+01,4.861678695678710938e+01,3.026290893554687500e+01,1.094526290893554688e+02,9.655471801757812500e+01,-1.525065183639526367e+00,4.030399620532989502e-01,-6.667316436767578125e+01,-1.826874694824218750e+02,-2.342460393905639648e+00,7.562255859375000000e+01,3.135598182678222656e+01
1.757739931344985962e-01,1.000000000000000000e+00,-3.471655654907226562e+01,4.855038833618164062e+01,3.028199958801269531e+01,1.093855743408203125e+02,9.657044982910156250e+01,-1.547105669975280762e+00,4.030399620532989502e-01,-6.667316436767578125e+01,-1.826873016357421875e+02,-2.342460393905639648e+00,7.562255859375000000e+01,3.135598182678222656e+01
1.797119975090026855e-01,1.000000000000000000e+00,-3.475103759765625000e+01,4.848227310180664062e+01,3.030143356323242188e+01,1.093182067871093750e+02,9.658665466308593750e+01,-1.570095539093017578e+00,4.030399620532989502e-01,-6.667316436767578125e+01,-1.826874694824218750e+02,-2.342460393905639648e+00,7.562255859375000000e+01,3.135598182678222656e+01
1.846379935741424561e-01,1.000000000000000000e+00,-3.478631591796875000e+01,4.841225433349609375e+01,3.032117652893066406e+01,1.092499389648437500e+02,9.660377502441406250e+01,-1.593288898468017578e+00,4.030399620532989502e-01,-6.667316436767578125e+01,-1.826874694824218750e+02,-2.342460393905639648e+00,7.562255859375000000e+01,3.135619926452636719e+01
1.878210008144378662e-01,1.000000000000000000e+00,-3.482246017456054688e+01,4.834047317504882812e+01,3.034134674072265625e+01,1.091807785034179688e+02,9.662136077880859375e+01,-1.616414427757263184e+00,4.030399620532989502e-01,-6.667316436767578125e+01,-1.826874694824218750e+02,-2.342316627502441406e+00,7.562255859375000000e+01,3.135598182678222656e+01
1.917970031499862671e-01,1.000000000000000000e+00,-3.485931777954101562e+01,4.826694869995117188e+01,3.036141395568847656e+01,1.091108322143554688e+02,9.663853454589843750e+01,-1.640692830085754395e+00,4.030399620532989502e-01,-6.667316436767578125e+01,-1.826874694824218750e+02,-2.342460393905639648e+00,7.562255859375000000e+01,3.135598182678222656e+01
1.964589953422546387e-01,1.000000000000000000e+00,-3.489709472656250000e+01,4.819231796264648438e+01,3.038142204284667969e+01,1.090407714843750000e+02,9.665527343750000000e+01,-1.665242671966552734e+00,4.030399620532989502e-01,-6.667326354980468750e+01,-1.826874694824218750e+02,-2.342460393905639648e+00,7.562255859375000000e+01,3.135598182678222656e+01
2.000200003385543823e-01,1.000000000000000000e+00,-3.493570709228515625e+01,4.811679840087890625e+01,3.040138816833496094e+01,1.089707717895507812e+02,9.667195892333984375e+01,-1.689181923866271973e+00,4.030399620532989502e-01,-6.667316436767578125e+01,-1.826874694824218750e+02,-2.342532396316528320e+00,7.562255859375000000e+01,3.135598182678222656e+01
2.046449929475784302e-01,1.000000000000000000e+00,-3.501453399658203125e+01,4.796438598632812500e+01,3.044172668457031250e+01,1.088305511474609375e+02,9.670533752441406250e+01,-1.735229492187500000e+00,4.030399620532989502e-01,-6.667316436767578125e+01,-1.826874694824218750e+02,-2.342460393905639648e+00,7.562255859375000000e+01,3.135598182678222656e+01
2.085890024900436401e-01,1.000000000000000000e+00,-3.501453399658203125e+01,4.796438598632812500e+01,3.044172668457031250e+01,1.088305511474609375e+02,9.670533752441406250e+01,-1.735229492187500000e+00,4.030399620532989502e-01,-6.667316436767578125e+01,-1.826874694824218750e+02,-2.342460393905639648e+00,7.562255859375000000e+01,3.135598182678222656e+01
2.120590060949325562e-01,1.000000000000000000e+00,-3.505440902709960938e+01,4.788774108886718750e+01,3.046193313598632812e+01,1.087599639892578125e+02,9.672223663330078125e+01,-1.759033322334289551e+00,4.030399620532989502e-01,-6.667316436767578125e+01,-1.826874694824218750e+02,-2.342316627502441406e+00,7.562270355224609375e+01,3.135598182678222656e+01
2.157229930162429810e-01,1.000000000000000000e+00,-3.509396743774414062e+01,4.781102371215820312e+01,3.048204612731933594e+01,1.086898040771484375e+02,9.673946380615234375e+01,-1.782972693443298340e+00,4.030399620532989502e-01,-6.667316436767578125e+01,-1.826874694824218750e+02,-2.342460393905639648e+00,7.562270355224609375e+01,3.135598182678222656e+01
2.206140011548995972e-01,1.000000000000000000e+00,-3.513415527343750000e+01,4.773371887207031250e+01,3.050202941894531250e+01,1.086192245483398438e+02,9.675732421875000000e+01,-1.806708455085754395e+00,4.030399620532989502e-01,-6.667316436767578125e+01,-1.826874694824218750e+02,-2.342460393905639648e+00,7.562255859375000000e+01,3.135598182678222656e+01
2.241410017013549805e-01,1.000000000000000000e+00,-3.517417526245117188e+01,4.765644073486328125e+01,3.052191352844238281e+01,1.085490646362304688e+02,9.677528381347656250e+01,-1.831122517585754395e+00,4.030399620532989502e-01,-6.667316436767578125e+01,-1.826874694824218750e+02,-2.342460393905639648e+00,7.562241363525390625e+01,3.135598182678222656e+01
2.266809940338134766e-01,1.000000000000000000e+00,-3.521430587768554688e+01,4.757892990112304688e+01,3.054218482971191406e+01,1.084778442382812500e+02,9.679272460937500000e+01,-1.856011271476745605e+00,4.030399620532989502e-01,-6.667316436767578125e+01,-1.826874694824218750e+02,-2.342460393905639648e+00,7.562270355224609375e+01,3.135619926452636719e+01
2.336380034685134888e-01,1.000000000000000000e+00,-3.525432205200195312e+01,4.750185394287109375e+01,3.056270027160644531e+01,1.084073715209960938e+02,9.680924987792968750e+01,-1.879882812500000000e+00,4.030399620532989502e-01,-6.667316436767578125e+01,-1.826874694824218750e+02,-2.342316627502441406e+00,7.562255859375000000e+01,3.135598182678222656e+01
2.366449981927871704e-01,1.000000000000000000e+00,-3.529419708251953125e+01,4.742509460449218750e+01,3.058309173583984375e+01,1.083365783691406250e+02,9.682604980468750000e+01,-1.903550863265991211e+00,4.030399620532989502e-01,-6.667316436767578125e+01,-1.826874694824218750e+02,-2.342460393905639648e+00,7.562270355224609375e+01,3.135598182678222656e+01
2.400909960269927979e-01,1.000000000000000000e+00,-3.533392715454101562e+01,4.734860229492187500e+01,3.060348510742187500e+01,1.082663040161132812e+02,9.684310150146484375e+01,-1.927015542984008789e+00,4.030399620532989502e-01,-6.667316436767578125e+01,-1.826874694824218750e+02,-2.342532396316528320e+00,7.562255859375000000e+01,3.135598182678222656e+01
2.426259964704513550e-01,1.000000000000000000e+00,-3.537363052368164062e+01,4.727218246459960938e+01,3.062369728088378906e+01,1.081955642700195312e+02,9.686006164550781250e+01,-1.950480222702026367e+00,4.030399620532989502e-01,-6.667316436767578125e+01,-1.826874694824218750e+02,-2.342532396316528320e+00,7.562255859375000000e+01,3.135598182678222656e+01
2.483280003070831299e-01,1.000000000000000000e+00,-3.541347122192382812e+01,4.719540023803710938e+01,3.064388275146484375e+01,1.081248779296875000e+02,9.687717437744140625e+01,-1.974487304687500000e+00,4.030399620532989502e-01,-6.667316436767578125e+01,-1.826874694824218750e+02,-2.342460393905639648e+00,7.562255859375000000e+01,3.135598182678222656e+01
2.522380053997039795e-01,1.000000000000000000e+00,-3.545314407348632812e+01,4.711848068237304688e+01,3.066441726684570312e+01,1.080539321899414062e+02,9.689487457275390625e+01,-1.998697996139526367e+00,4.030399620532989502e-01,-6.667316436767578125e+01,-1.826874694824218750e+02,-2.342460393905639648e+00,7.562255859375000000e+01,3.135576248168945312e+01
2.562020123004913330e-01,1.000000000000000000e+00,-3.549290466308593750e+01,4.704122161865234375e+01,3.068503570556640625e+01,1.079832382202148438e+02,9.691305541992187500e+01,-2.023044109344482422e+00,4.030399620532989502e-01,-6.667316436767578125e+01,-1.826874694824218750e+02,-2.342460393905639648e+00,7.562241363525390625e+01,3.135598182678222656e+01
2.604170143604278564e-01,1.000000000000000000e+00,-3.553255081176757812e+01,4.696405410766601562e+01,3.070551109313964844e+01,1.079122848510742188e+02,9.693091583251953125e+01,-2.047729492187500000e+00,4.030399620532989502e-01,-6.667316436767578125e+01,-1.826874694824218750e+02,-2.342460393905639648e+00,7.562255859375000000e+01,3.135598182678222656e+01
2.643519937992095947e-01,1.000000000000000000e+00,-3.557219314575195312e+01,4.688673019409179688e+01,3.072586250305175781e+01,1.078415451049804688e+02,9.694776916503906250e+01,-2.072075843811035156e+00,4.030399620532989502e-01,-6.667316436767578125e+01,-1.826874694824218750e+02,-2.342532396316528320e+00,7.562255859375000000e+01,3.135598182678222656e+01
2.690779864788055420e-01,1.000000000000000000e+00,-3.561123275756835938e+01,4.680928802490234375e+01,3.074625396728515625e+01,1.077704925537109375e+02,9.696455383300781250e+01,-2.095337152481079102e+00,4.030399620532989502e-01,-6.667316436767578125e+01,-1.826874694824218750e+02,-2.342460393905639648e+00,7.562255859375000000e+01,3.135598182678222656e+01
2.706759870052337646e-01,1.000000000000000000e+00,-3.565021896362304688e+01,4.673216629028320312e+01,3.076668930053710938e+01,1.076995391845703125e+02,9.698151397705078125e+01,-2.118801593780517578e+00,4.030399620532989502e-01,-6.667316436767578125e+01,-1.826874694824218750e+02,-2.342532396316528320e+00,7.562255859375000000e+01,3.135598182678222656e+01
2.764919996261596680e-01,1.000000000000000000e+00,-3.568934631347656250e+01,4.665497207641601562e+01,3.078730773925781250e+01,1.076278457641601562e+02,9.699851989746093750e+01,-2.142605304718017578e+00,4.030399620532989502e-01,-6.667316436767578125e+01,-1.826874694824218750e+02,-2.342460393905639648e+00,7.562255859375000000e+01,3.135619926452636719e+01
2.813760042190551758e-01,1.000000000000000000e+00,-3.572867584228515625e+01,4.657794189453125000e+01,3.080782127380371094e+01,1.075573654174804688e+02,9.701564025878906250e+01,-2.166748285293579102e+00,4.030399620532989502e-01,-6.667316436767578125e+01,-1.826874694824218750e+02,-2.342532396316528320e+00,7.562255859375000000e+01,3.135598182678222656e+01
2.846210002899169922e-01,1.000000000000000000e+00,-3.576788711547851562e+01,4.650057220458984375e+01,3.082821273803710938e+01,1.074859466552734375e+02,9.703301239013671875e+01,-2.191433668136596680e+00,4.030399620532989502e-01,-6.667316436767578125e+01,-1.826874694824218750e+02,-2.342460393905639648e+00,7.562270355224609375e+01,3.135598182678222656e+01
2.884210050106048584e-01,1.000000000000000000e+00,-3.580681610107421875e+01,4.642324447631835938e+01,3.084850502014160156e+01,1.074150390625000000e+02,9.705098724365234375e+01,-2.216118812561035156e+00,4.030399620532989502e-01,-6.667316436767578125e+01,-1.826874694824218750e+02,-2.342316627502441406e+00,7.562255859375000000e+01,3.135598182678222656e+01
2.931579947471618652e-01,1.000000000000000000e+00,-3.584556579589843750e+01,4.634564590454101562e+01,3.086883544921875000e+01,1.073434066772460938e+02,9.706890106201171875e+01,-2.240532875061035156e+00,4.030399620532989502e-01,-6.667316436767578125e+01,-1.826874694824218750e+02,-2.342532396316528320e+00,7.562255859375000000e+01,3.135598182678222656e+01
2.946490049362182617e-01,1.000000000000000000e+00,-3.588458251953125000e+01,4.626759719848632812e+01,3.088943099975585938e+01,1.072727203369140625e+02,9.708628082275390625e+01,-2.264675617218017578e+00,4.030399620532989502e-01,-6.667316436767578125e+01,-1.826874694824218750e+02,-2.342460393905639648e+00,7.562255859375000000e+01,3.135598182678222656e+01
3.007220029830932617e-01,1.000000000000000000e+00,-3.592382431030273438e+01,4.618959045410156250e+01,3.091027069091796875e+01,1.072010269165039062e+02,9.710307312011718750e+01,-2.288275718688964844e+00,4.030399620532989502e-01,-6.667316436767578125e+01,-1.826874694824218750e+02,-2.342460393905639648e+00,7.562270355224609375e+01,3.135598182678222656e+01
3.053390085697174072e-01,1.000000000000000000e+00,-3.596292495727539062e+01,4.611138153076171875e+01,3.093096923828125000e+01,1.071301803588867188e+02,9.712003326416015625e+01,-2.311469316482543945e+00,4.030399620532989502e-01,-6.667316436767578125e+01,-1.826874694824218750e+02,-2.342316627502441406e+00,7.562270355224609375e+01,3.135598182678222656e+01
3.087370097637176514e-01,1.000000000000000000e+00,-3.600210952758789062e+01,4.603335571289062500e+01,3.095166778564453125e+01,1.070584411621093750e+02,9.713725280761718750e+01,-2.335680007934570312e+00,4.030399620532989502e-01,-6.667316436767578125e+01,-1.826874694824218750e+02,-2.342460393905639648e+00,7.562255859375000000e+01,3.135598182678222656e+01
3.127140104770660400e-01,1.000000000000000000e+00,-3.604123687744140625e+01,4.595537185668945312e+01,3.097214126586914062e+01,1.069875946044921875e+02,9.715425872802734375e+01,-2.360229492187500000e+00,4.030399620532989502e-01,-6.667316436767578125e+01,-1.826874694824218750e+02,-2.342316627502441406e+00,7.562255859375000000e+01,3.135598182678222656e+01
3.174279928207397461e-01,1.000000000000000000e+00,-3.608058929443359375e+01,4.587749862670898438e+01,3.099259567260742188e+01,1.069157485961914062e+02,9.717174530029296875e+01,-2.384711503982543945e+00,4.030399620532989502e-01,-6.667316436767578125e+01,-1.826874694824218750e+02,-2.342532396316528320e+00,7.562270355224609375e+01,3.135619926452636719e+01
3.208959996700286865e-01,1.000000000000000000e+00,-3.611989212036132812e+01,4.579954147338867188e+01,3.101315116882324219e+01,1.068445281982421875e+02,9.718987274169921875e+01,-2.409735918045043945e+00,4.030399620532989502e-01,-6.667316436767578125e+01,-1.826874694824218750e+02,-2.342460393905639648e+00,7.562255859375000000e+01,3.135598182678222656e+01
3.226220011711120605e-01,1.000000000000000000e+00,-3.615956497192382812e+01,4.572126388549804688e+01,3.103372573852539062e+01,1.067724227905273438e+02,9.720778656005859375e+01,-2.434149980545043945e+00,4.030399620532989502e-01,-6.667316436767578125e+01,-1.826874694824218750e+02,-2.342460393905639648e+00,7.562270355224609375e+01,3.135598182678222656e+01
3.297330141067504883e-01,1.000000000000000000e+00,-3.619920730590820312e+01,4.564303207397460938e+01,3.105422019958496094e+01,1.067014160156250000e+02,9.722564697265625000e+01,-2.457818031311035156e+00,4.030399620532989502e-01,-6.667316436767578125e+01,-1.826874694824218750e+02,-2.342460393905639648e+00,7.562255859375000000e+01,3.135598182678222656e+01
3.329060077667236328e-01,1.000000000000000000e+00,-3.623893737792968750e+01,4.556478118896484375e+01,3.107473564147949219e+01,1.066297225952148438e+02,9.724276733398437500e+01,-2.481486082077026367e+00,4.030399620532989502e-01,-6.667316436767578125e+01,-1.826874694824218750e+02,-2.342460393905639648e+00,7.562255859375000000e+01,3.135598182678222656e+01
3.368380069732666016e-01,1.000000000000000000e+00,-3.627890014648437500e+01,4.548645401000976562e+01,3.109539222717285156e+01,1.065580368041992188e+02,9.725977325439453125e+01,-2.505425453186035156e+00,4.030399620532989502e-01,-6.667316436767578125e+01,-1.826874694824218750e+02,-2.342460393905639648e+00,7.562255859375000000e+01,3.135598182678222656e+01
3.396260142326354980e-01,1.000000000000000000e+00,-3.631897354125976562e+01,4.540784072875976562e+01,3.111615371704101562e+01,1.064861373901367188e+02,9.727656555175781250e+01,-2.529296875000000000e+00,4.030399620532989502e-01,-6.667316436767578125e+01,-1.826874694824218750e+02,-2.342532396316528320e+00,7.562255859375000000e+01,3.135598182678222656e+01
3.436169922351837158e-01,1.000000000000000000e+00,-3.635922241210937500e+01,4.532938003540039062e+01,3.113690948486328125e+01,1.064148101806640625e+02,9.729351806640625000e+01,-2.553711175918579102e+00,4.030399620532989502e-01,-6.667316436767578125e+01,-1.826875762939453125e+02,-2.342460393905639648e+00,7.562255859375000000e+01,3.135598182678222656e+01
3.466979861259460449e-01,1.000000000000000000e+00,-3.639943695068359375e+01,4.525122070312500000e+01,3.115756797790527344e+01,1.063431243896484375e+02,9.731084442138671875e+01,-2.578192710876464844e+00,4.030399620532989502e-01,-6.667316436767578125e+01,-1.826874694824218750e+02,-2.342460393905639648e+00,7.562255859375000000e+01,3.135598182678222656e+01
3.516480028629302979e-01,1.000000000000000000e+00,-3.643976974487304688e+01,4.517280578613281250e+01,3.117810249328613281e+01,1.062712783813476562e+02,9.732843780517578125e+01,-2.602946043014526367e+00,4.030399620532989502e-01,-6.667316436767578125e+01,-1.826874694824218750e+02,-2.342532396316528320e+00,7.562255859375000000e+01,3.135598182678222656e+01
3.556360006332397461e-01,1.000000000000000000e+00,-3.648024749755859375e+01,4.509448242187500000e+01,3.119869995117187500e+01,1.061991729736328125e+02,9.734656524658203125e+01,-2.627495765686035156e+00,4.030399620532989502e-01,-6.667316436767578125e+01,-1.826874694824218750e+02,-2.342460393905639648e+00,7.562255859375000000e+01,3.135598182678222656e+01
3.596859872341156006e-01,1.000000000000000000e+00,-3.652098464965820312e+01,4.501591110229492188e+01,3.121945571899414062e+01,1.061279525756835938e+02,9.736475372314453125e+01,-2.650757074356079102e+00,4.030399620532989502e-01,-6.667316436767578125e+01,-1.826874694824218750e+02,-2.342532396316528320e+00,7.562255859375000000e+01,3.135598182678222656e+01
3.636200129985809326e-01,1.000000000000000000e+00,-3.656148910522460938e+01,4.493766021728515625e+01,3.124021720886230469e+01,1.060557937622070312e+02,9.738202667236328125e+01,-2.674628496170043945e+00,4.030399620532989502e-01,-6.667316436767578125e+01,-1.826874694824218750e+02,-2.342460393905639648e+00,7.562270355224609375e+01,3.135598182678222656e+01
3.676150143146514893e-01,1.000000000000000000e+00,-3.660216522216796875e+01,4.485935974121093750e+01,3.126097297668457031e+01,1.059839935302734375e+02,9.739892578125000000e+01,-2.698771238327026367e+00,4.030399620532989502e-01,-6.667316436767578125e+01,-1.826874694824218750e+02,-2.342532396316528320e+00,7.562255859375000000e+01,3.135598182678222656e+01
3.716779947280883789e-01,1.000000000000000000e+00,-3.664292907714843750e+01,4.478081130981445312e+01,3.128185653686523438e+01,1.059111938476562500e+02,9.741603851318359375e+01,-2.722642898559570312e+00,4.030399620532989502e-01,-6.667316436767578125e+01,-1.826874694824218750e+02,-2.342460393905639648e+00,7.562255859375000000e+01,3.135598182678222656e+01
3.756319880485534668e-01,1.000000000000000000e+00,-3.668363571166992188e+01,4.470194625854492188e+01,3.130257225036621094e+01,1.058396682739257812e+02,9.743336486816406250e+01,-2.747531652450561523e+00,4.030399620532989502e-01,-6.667316436767578125e+01,-1.826874694824218750e+02,-2.342460393905639648e+00,7.562255859375000000e+01,3.135598182678222656e+01
3.796859979629516602e-01,1.000000000000000000e+00,-3.672414016723632812e+01,4.462278366088867188e+01,3.132335281372070312e+01,1.057675018310546875e+02,9.745059204101562500e+01,-2.772623777389526367e+00,4.030399620532989502e-01,-6.667316436767578125e+01,-1.826874694824218750e+02,-2.342460393905639648e+00,7.562255859375000000e+01,3.135598182678222656e+01
3.827039897441864014e-01,1.000000000000000000e+00,-3.676470184326171875e+01,4.454391860961914062e+01,3.134423446655273438e+01,1.056960754394531250e+02,9.746807861328125000e+01,-2.796834468841552734e+00,4.030399620532989502e-01,-6.667316436767578125e+01,-1.826874694824218750e+02,-2.342460393905639648e+00,7.562255859375000000e+01,3.135598182678222656e+01
3.900319933891296387e-01,1.000000000000000000e+00,-3.676470184326171875e+01,4.454391860961914062e+01,3.134423446655273438e+01,1.056960754394531250e+02,9.746807861328125000e+01,-2.796834468841552734e+00,4.030399620532989502e-01,-6.667316436767578125e+01,-1.826874694824218750e+02,-2.342460393905639648e+00,7.562255859375000000e+01,3.135598182678222656e+01
3.914740085601806641e-01,1.000000000000000000e+00,-3.684608840942382812e+01,4.438632583618164062e+01,3.138560676574707031e+01,1.055515365600585938e+02,9.750475311279296875e+01,-2.844306230545043945e+00,4.028751850128173828e-01,-6.667316436767578125e+01,-1.826874694824218750e+02,-2.342460393905639648e+00,7.562255859375000000e+01,3.135598182678222656e+01
3.957619965076446533e-01,1.000000000000000000e+00,-3.688665390014648438e+01,4.430788803100585938e+01,3.140640830993652344e+01,1.054792709350585938e+02,9.752251434326171875e+01,-2.868109703063964844e+00,4.030399620532989502e-01,-6.667316436767578125e+01,-1.826874694824218750e+02,-2.342460393905639648e+00,7.562255859375000000e+01,3.135598182678222656e+01
3.986909985542297363e-01,1.000000000000000000e+00,-3.692727279663085938e+01,4.422918319702148438e+01,3.142726898193359375e+01,1.054075851440429688e+02,9.753919982910156250e+01,-2.892184972763061523e+00,4.030399620532989502e-01,-6.667316436767578125e+01,-1.826874694824218750e+02,-2.342460393905639648e+00,7.562270355224609375e+01,3.135598182678222656e+01
4.036720097064971924e-01,1.000000000000000000e+00,-3.692727279663085938e+01,4.422918319702148438e+01,3.142726898193359375e+01,1.054075851440429688e+02,9.753919982910156250e+01,-2.892184972763061523e+00,4.030399620532989502e-01,-6.667316436767578125e+01,-1.826874694824218750e+02,-2.342460393905639648e+00,7.562270355224609375e+01,3.135598182678222656e+01
4.077050089836120605e-01,1.000000000000000000e+00,-3.700836563110351562e+01,4.407104492187500000e+01,3.146929359436035156e+01,1.052629928588867188e+02,9.757353973388671875e+01,-2.941623449325561523e+00,4.030399620532989502e-01,-6.667316436767578125e+01,-1.826874694824218750e+02,-2.342316627502441406e+00,7.562255859375000000e+01,3.135598182678222656e+01
4.116199910640716553e-01,1.000000000000000000e+00,-3.704867172241210938e+01,4.399172592163085938e+01,3.149009513854980469e+01,1.051902465820312500e+02,9.759075164794921875e+01,-2.966918945312500000e+00,4.030399620532989502e-01,-6.667316436767578125e+01,-1.826874694824218750e+02,-2.342460393905639648e+00,7.562255859375000000e+01,3.135598182678222656e+01
4.156300127506256104e-01,1.000000000000000000e+00,-3.708923721313476562e+01,4.391199874877929688e+01,3.151087379455566406e+01,1.051185073852539062e+02,9.760861206054687500e+01,-2.991333007812500000e+00,4.030399620532989502e-01,-6.667316436767578125e+01,-1.826874694824218750e+02,-2.342460393905639648e+00,7.562255859375000000e+01,3.135598182678222656e+01
4.196580052375793457e-01,1.000000000000000000e+00,-3.712973785400390625e+01,4.383245849609375000e+01,3.153177452087402344e+01,1.050456619262695312e+02,9.762621307373046875e+01,-3.015001058578491211e+00,4.030399620532989502e-01,-6.667316436767578125e+01,-1.826874694824218750e+02,-2.342316627502441406e+00,7.562255859375000000e+01,3.135598182678222656e+01
4.236510097980499268e-01,1.000000000000000000e+00,-3.717024612426757812e+01,4.375325393676757812e+01,3.155271530151367188e+01,1.049732360839843750e+02,9.764471435546875000e+01,-3.039076089859008789e+00,4.030399620532989502e-01,-6.667316436767578125e+01,-1.826874694824218750e+02,-2.342460393905639648e+00,7.562255859375000000e+01,3.135598182678222656e+01
4.276280105113983154e-01,1.000000000000000000e+00,-3.721046447753906250e+01,4.367404556274414062e+01,3.157378005981445312e+01,1.049005432128906250e+02,9.766294860839843750e+01,-3.063422441482543945e+00,4.030399620532989502e-01,-6.667316436767578125e+01,-1.826874694824218750e+02,-2.342460393905639648e+00,7.562255859375000000e+01,3.135598182678222656e+01
4.316120147705078125e-01,1.000000000000000000e+00,-3.725074005126953125e+01,4.359511566162109375e+01,3.159463882446289062e+01,1.048285369873046875e+02,9.768027496337890625e+01,-3.087700843811035156e+00,4.030399620532989502e-01,-6.667316436767578125e+01,-1.826874694824218750e+02,-2.342460393905639648e+00,7.562255859375000000e+01,3.135598182678222656e+01
4.356989860534667969e-01,1.000000000000000000e+00,-3.729127120971679688e+01,4.351579666137695312e+01,3.161544036865234375e+01,1.047559509277343750e+02,9.769738769531250000e+01,-3.112318277359008789e+00,4.030399620532989502e-01,-6.667326354980468750e+01,-1.826874694824218750e+02,-2.342460393905639648e+00,7.562255859375000000e+01,3.135598182678222656e+01
4.396229982376098633e-01,1.000000000000000000e+00,-3.733177947998046875e+01,4.343657302856445312e+01,3.163632011413574219e+01,1.046834716796875000e+02,9.771461486816406250e+01,-3.137207031250000000e+00,4.030399620532989502e-01,-6.667316436767578125e+01,-1.826874694824218750e+02,-2.342460393905639648e+00,7.562255859375000000e+01,3.135598182678222656e+01
4.436160027980804443e-01,1.000000000000000000e+00,-3.737213897705078125e+01,4.335720825195312500e+01,3.165730285644531250e+01,1.046106796264648438e+02,9.773215484619140625e+01,-3.162435054779052734e+00,4.030399620532989502e-01,-6.667316436767578125e+01,-1.826874694824218750e+02,-2.342532396316528320e+00,7.562255859375000000e+01,3.135598182678222656e+01
4.476859867572784424e-01,1.000000000000000000e+00,-3.741270446777343750e+01,4.327741622924804688e+01,3.167851066589355469e+01,1.045382537841796875e+02,9.774969482421875000e+01,-3.186781167984008789e+00,4.030399620532989502e-01,-6.667316436767578125e+01,-1.826875762939453125e+02,-2.342460393905639648e+00,7.562255859375000000e+01,3.135598182678222656e+01
4.518019855022430420e-01,1.000000000000000000e+00,-3.745323562622070312e+01,4.319728088378906250e+01,3.169955444335937500e+01,1.044654541015625000e+02,9.776770782470703125e+01,-3.210584878921508789e+00,4.030399620532989502e-01,-6.667316436767578125e+01,-1.826874694824218750e+02,-2.342460393905639648e+00,7.562255859375000000e+01,3.135598182678222656e+01
4.547129869461059570e-01,1.000000000000000000e+00,-3.749377059936523438e+01,4.311735153198242188e+01,3.172037124633789062e+01,1.043929748535156250e+02,9.778610229492187500e+01,-3.234795570373535156e+00,4.030399620532989502e-01,-6.667316436767578125e+01,-1.826874694824218750e+02,-2.342460393905639648e+00,7.562255859375000000e+01,3.135598182678222656e+01
4.596639871597290039e-01,1.000000000000000000e+00,-3.749377059936523438e+01,4.311735153198242188e+01,3.172037124633789062e+01,1.043929748535156250e+02,9.778610229492187500e+01,-3.234795570373535156e+00,4.030399620532989502e-01,-6.667316436767578125e+01,-1.826874694824218750e+02,-2.342460393905639648e+00,7.562255859375000000e+01,3.135598182678222656e+01
4.637379944324493408e-01,1.000000000000000000e+00,-3.757509613037109375e+01,4.295792388916015625e+01,3.176231575012207031e+01,1.042471237182617188e+02,9.782193756103515625e+01,-3.284030437469482422e+00,4.030399620532989502e-01,-6.667316436767578125e+01,-1.826874694824218750e+02,-2.342532396316528320e+00,7.562255859375000000e+01,3.135598182678222656e+01
4.676199853420257568e-01,1.000000000000000000e+00,-3.761580276489257812e+01,4.287867355346679688e+01,3.178352355957031250e+01,1.041737976074218750e+02,9.783910369873046875e+01,-3.308987140655517578e+00,4.030399620532989502e-01,-6.667316436767578125e+01,-1.826874694824218750e+02,-2.342460393905639648e+00,7.562255859375000000e+01,3.135598182678222656e+01
4.726819992065429688e-01,1.000000000000000000e+00,-3.761580276489257812e+01,4.287867355346679688e+01,3.178352355957031250e+01,1.041737976074218750e+02,9.783910369873046875e+01,-3.308987140655517578e+00,4.030399620532989502e-01,-6.667316436767578125e+01,-1.826874694824218750e+02,-2.342316627502441406e+00,7.562255859375000000e+01,3.135598182678222656e+01
4.756999909877777100e-01,1.000000000000000000e+00,-3.769724655151367188e+01,4.272008514404296875e+01,3.182564926147460938e+01,1.040280990600585938e+02,9.787348937988281250e+01,-3.359239578247070312e+00,4.030399620532989502e-01,-6.667316436767578125e+01,-1.826874694824218750e+02,-2.342460393905639648e+00,7.562255859375000000e+01,3.135598182678222656e+01
4.806250035762786865e-01,1.000000000000000000e+00,-3.773794937133789062e+01,4.264017868041992188e+01,3.184636878967285156e+01,1.039552536010742188e+02,9.789103698730468750e+01,-3.383585691452026367e+00,4.030399620532989502e-01,-6.667316436767578125e+01,-1.826874694824218750e+02,-2.342460393905639648e+00,7.562255859375000000e+01,3.135598182678222656e+01
4.836359918117523193e-01,1.000000000000000000e+00,-3.777877044677734375e+01,4.256020355224609375e+01,3.186737060546875000e+01,1.038819885253906250e+02,9.790884399414062500e+01,-3.407728433609008789e+00,4.030399620532989502e-01,-6.667316436767578125e+01,-1.826874694824218750e+02,-2.342316627502441406e+00,7.562255859375000000e+01,3.135598182678222656e+01
4.901739954948425293e-01,1.000000000000000000e+00,-3.777877044677734375e+01,4.256020355224609375e+01,3.186737060546875000e+01,1.038819885253906250e+02,9.790884399414062500e+01,-3.407728433609008789e+00,4.030399620532989502e-01,-6.667316436767578125e+01,-1.826874694824218750e+02,-2.342460393905639648e+00,7.562255859375000000e+01,3.135619926452636719e+01
4.917010068893432617e-01,1.000000000000000000e+00,-3.786095809936523438e+01,4.239964294433593750e+01,3.190988540649414062e+01,1.037360229492187500e+02,9.794557952880859375e+01,-3.456624507904052734e+00,4.030399620532989502e-01,-6.667316436767578125e+01,-1.826874694824218750e+02,-2.342460393905639648e+00,7.562277984619140625e+01,3.135598182678222656e+01
4.966939985752105713e-01,1.000000000000000000e+00,-3.786095809936523438e+01,4.239964294433593750e+01,3.190988540649414062e+01,1.037360229492187500e+02,9.794557952880859375e+01,-3.456624507904052734e+00,4.030399620532989502e-01,-6.667316436767578125e+01,-1.826874694824218750e+02,-2.342460393905639648e+00,7.562277984619140625e+01,3.135598182678222656e+01
5.004230141639709473e-01,1.000000000000000000e+00,-3.794291687011718750e+01,4.223901748657226562e+01,3.195233917236328125e+01,1.035897979736328125e+02,9.798044586181640625e+01,-3.507215738296508789e+00,4.030399620532989502e-01,-6.667316436767578125e+01,-1.826874694824218750e+02,-2.342460393905639648e+00,7.562255859375000000e+01,3.135576248168945312e+01
5.036200284957885742e-01,1.000000000000000000e+00,-3.798385238647460938e+01,4.215917968750000000e+01,3.197326087951660156e+01,1.035167465209960938e+02,9.799793243408203125e+01,-3.532308101654052734e+00,4.030399620532989502e-01,-6.667326354980468750e+01,-1.826874694824218750e+02,-2.342460393905639648e+00,7.562255859375000000e+01,3.135598182678222656e+01
5.076619982719421387e-01,1.000000000000000000e+00,-3.798385238647460938e+01,4.215917968750000000e+01,3.197326087951660156e+01,1.035167465209960938e+02,9.799793243408203125e+01,-3.532308101654052734e+00,4.030399620532989502e-01,-6.667326354980468750e+01,-1.826874694824218750e+02,-2.342460393905639648e+00,7.562255859375000000e+01,3.135598182678222656e+01
5.123450160026550293e-01,1.000000000000000000e+00,-3.802479171752929688e+01,4.207913589477539062e+01,3.199436187744140625e+01,1.034432067871093750e+02,9.801541900634765625e+01,-3.556925535202026367e+00,4.030399620532989502e-01,-6.667316436767578125e+01,-1.826874694824218750e+02,-2.342316627502441406e+00,7.562255859375000000e+01,3.135598182678222656e+01
5.156390070915222168e-01,1.000000000000000000e+00,-3.810688781738281250e+01,4.191907501220703125e+01,3.203669357299804688e+01,1.032961425781250000e+02,9.805088043212890625e+01,-3.605211257934570312e+00,4.030399620532989502e-01,-6.667326354980468750e+01,-1.826874694824218750e+02,-2.342460393905639648e+00,7.562255859375000000e+01,3.135598182678222656e+01
5.196570158004760742e-01,1.000000000000000000e+00,-3.810688781738281250e+01,4.191907501220703125e+01,3.203669357299804688e+01,1.032961425781250000e+02,9.805088043212890625e+01,-3.605211257934570312e+00,4.030399620532989502e-01,-6.667326354980468750e+01,-1.826874694824218750e+02,-2.342460393905639648e+00,7.562255859375000000e+01,3.135598182678222656e+01
5.246930122375488281e-01,1.000000000000000000e+00,-3.814802932739257812e+01,4.183846664428710938e+01,3.205779647827148438e+01,1.032232971191406250e+02,9.806948089599609375e+01,-3.629828453063964844e+00,4.030399620532989502e-01,-6.667316436767578125e+01,-1.826874694824218750e+02,-2.342460393905639648e+00,7.562255859375000000e+01,3.135598182678222656e+01
5.275210142135620117e-01,1.000000000000000000e+00,-3.823004531860351562e+01,4.167630004882812500e+01,3.210029220581054688e+01,1.030757598876953125e+02,9.810632324218750000e+01,-3.679606199264526367e+00,4.030399620532989502e-01,-6.667316436767578125e+01,-1.826874694824218750e+02,-2.342460393905639648e+00,7.562241363525390625e+01,3.135598182678222656e+01
5.316799879074096680e-01,1.000000000000000000e+00,-3.823004531860351562e+01,4.167630004882812500e+01,3.210029220581054688e+01,1.030757598876953125e+02,9.810632324218750000e+01,-3.679606199264526367e+00,4.030399620532989502e-01,-6.667316436767578125e+01,-1.826874694824218750e+02,-2.342460393905639648e+00,7.562241363525390625e+01,3.135598182678222656e+01
5.357459783554077148e-01,1.000000000000000000e+00,-3.827117919921875000e+01,4.159526443481445312e+01,3.212171936035156250e+01,1.030022277832031250e+02,9.812354278564453125e+01,-3.704969644546508789e+00,4.030399620532989502e-01,-6.667316436767578125e+01,-1.826874694824218750e+02,-2.342460393905639648e+00,7.562255859375000000e+01,3.135598182678222656e+01
5.396639704704284668e-01,1.000000000000000000e+00,-3.831228637695312500e+01,4.151447296142578125e+01,3.214313125610351562e+01,1.029289474487304688e+02,9.814076995849609375e+01,-3.730401039123535156e+00,4.030399620532989502e-01,-6.667326354980468750e+01,-1.826874694824218750e+02,-2.342460393905639648e+00,7.562255859375000000e+01,3.135598182678222656e+01
5.436589717864990234e-01,1.000000000000000000e+00,-3.835330963134765625e+01,4.143386840820312500e+01,3.216437911987304688e+01,1.028554153442382812e+02,9.815830993652343750e+01,-3.754815101623535156e+00,4.030399620532989502e-01,-6.667316436767578125e+01,-1.826874694824218750e+02,-2.342460393905639648e+00,7.562255859375000000e+01,3.135598182678222656e+01
5.477880239486694336e-01,1.000000000000000000e+00,-3.839444732666015625e+01,4.135382461547851562e+01,3.218546295166015625e+01,1.027816238403320312e+02,9.817595672607421875e+01,-3.778754472732543945e+00,4.030399620532989502e-01,-6.667308044433593750e+01,-1.826874694824218750e+02,-2.342316627502441406e+00,7.562255859375000000e+01,3.135598182678222656e+01
5.516759753227233887e-01,1.000000000000000000e+00,-3.843538284301757812e+01,4.127360153198242188e+01,3.220658493041992188e+01,1.027080917358398438e+02,9.819376373291015625e+01,-3.803372144699096680e+00,4.030399620532989502e-01,-6.667316436767578125e+01,-1.826875762939453125e+02,-2.342460393905639648e+00,7.562255859375000000e+01,3.135598182678222656e+01
5.556589961051940918e-01,1.000000000000000000e+00,-3.847637557983398438e+01,4.119313049316406250e+01,3.222787475585937500e+01,1.026342926025390625e+02,9.821237182617187500e+01,-3.828057289123535156e+00,4.030399620532989502e-01,-6.667316436767578125e+01,-1.826874694824218750e+02,-2.342532396316528320e+00,7.562255859375000000e+01,3.135598182678222656e+01
5.597400069236755371e-01,1.000000000000000000e+00,-3.851748657226562500e+01,4.111200332641601562e+01,3.224932098388671875e+01,1.025603942871093750e+02,9.823108673095703125e+01,-3.853217601776123047e+00,4.030399620532989502e-01,-6.667316436767578125e+01,-1.826874694824218750e+02,-2.342316627502441406e+00,7.562255859375000000e+01,3.135598182678222656e+01
5.636619925498962402e-01,1.000000000000000000e+00,-3.855859375000000000e+01,4.103085327148437500e+01,3.227069473266601562e+01,1.024860687255859375e+02,9.824921417236328125e+01,-3.878581047058105469e+00,4.030399620532989502e-01,-6.667316436767578125e+01,-1.826874694824218750e+02,-2.342460393905639648e+00,7.562255859375000000e+01,3.135598182678222656e+01
5.676879882812500000e-01,1.000000000000000000e+00,-3.859949874877929688e+01,4.094956207275390625e+01,3.229208374023437500e+01,1.024123306274414062e+02,9.826664733886718750e+01,-3.904351234436035156e+00,4.030399620532989502e-01,-6.667316436767578125e+01,-1.826875762939453125e+02,-2.342460393905639648e+00,7.562255859375000000e+01,3.135598182678222656e+01
5.716699957847595215e-01,1.000000000000000000e+00,-3.864054870605468750e+01,4.086809539794921875e+01,3.231341171264648438e+01,1.023384704589843750e+02,9.828397369384765625e+01,-3.928968667984008789e+00,4.030399620532989502e-01,-6.667316436767578125e+01,-1.826874694824218750e+02,-2.342460393905639648e+00,7.562241363525390625e+01,3.135598182678222656e+01
5.756809711456298828e-01,1.000000000000000000e+00,-3.868151473999023438e+01,4.078687667846679688e+01,3.233483886718750000e+01,1.022645797729492188e+02,9.830178070068359375e+01,-3.952975988388061523e+00,4.030399620532989502e-01,-6.667316436767578125e+01,-1.826875762939453125e+02,-2.342316627502441406e+00,7.562270355224609375e+01,3.135598182678222656e+01
5.796570181846618652e-01,1.000000000000000000e+00,-3.872282409667968750e+01,4.070595550537109375e+01,3.235634994506835938e+01,1.021903533935546875e+02,9.831964874267578125e+01,-3.977661132812500000e+00,4.030399620532989502e-01,-6.667316436767578125e+01,-1.826874694824218750e+02,-2.342460393905639648e+00,7.562255859375000000e+01,3.135598182678222656e+01
5.837280154228210449e-01,1.000000000000000000e+00,-3.876410293579101562e+01,4.062541198730468750e+01,3.237759780883789062e+01,1.021166152954101562e+02,9.833755493164062500e+01,-4.002075195312500000e+00,4.030399620532989502e-01,-6.667316436767578125e+01,-1.826874694824218750e+02,-2.342460393905639648e+00,7.562255859375000000e+01,3.135598182678222656e+01
5.876849889755249023e-01,1.000000000000000000e+00,-3.880527114868164062e+01,4.054478073120117188e+01,3.239884567260742188e+01,1.020425033569335938e+02,9.835605621337890625e+01,-4.026896476745605469e+00,4.030399620532989502e-01,-6.667316436767578125e+01,-1.826874694824218750e+02,-2.342460393905639648e+00,7.562255859375000000e+01,3.135598182678222656e+01
5.916579961776733398e-01,1.000000000000000000e+00,-3.884654998779296875e+01,4.046395111083984375e+01,3.242015075683593750e+01,1.019688110351562500e+02,9.837519836425781250e+01,-4.052395343780517578e+00,4.030399620532989502e-01,-6.667316436767578125e+01,-1.826874694824218750e+02,-2.342316627502441406e+00,7.562255859375000000e+01,3.135598182678222656e+01
5.957360267639160156e-01,1.000000000000000000e+00,-3.888794708251953125e+01,4.038282012939453125e+01,3.244156265258789062e+01,1.018942260742187500e+02,9.839369964599609375e+01,-4.078233242034912109e+00,4.030399620532989502e-01,-6.667326354980468750e+01,-1.826875762939453125e+02,-2.342460393905639648e+00,7.562255859375000000e+01,3.135598182678222656e+01
5.997080206871032715e-01,1.000000000000000000e+00,-3.892937088012695312e+01,4.030124282836914062e+01,3.246315383911132812e+01,1.018201675415039062e+02,9.841123962402343750e+01,-4.103596687316894531e+00,4.030399620532989502e-01,-6.667316436767578125e+01,-1.826874694824218750e+02,-2.342460393905639648e+00,7.562241363525390625e+01,3.135598182678222656e+01
6.036509871482849121e-01,1.000000000000000000e+00,-3.897079467773437500e+01,4.021913909912109375e+01,3.248474502563476562e+01,1.017457351684570312e+02,9.842873382568359375e+01,-4.128078937530517578e+00,4.030399620532989502e-01,-6.667316436767578125e+01,-1.826873016357421875e+02,-2.342532396316528320e+00,7.562255859375000000e+01,3.135598182678222656e+01
6.077690124511718750e-01,1.000000000000000000e+00,-3.901258850097656250e+01,4.013728713989257812e+01,3.250603485107421875e+01,1.016718902587890625e+02,9.844647979736328125e+01,-4.152425289154052734e+00,4.030399620532989502e-01,-6.667316436767578125e+01,-1.826874694824218750e+02,-2.342532396316528320e+00,7.562255859375000000e+01,3.135598182678222656e+01
6.116790175437927246e-01,1.000000000000000000e+00,-3.905421447753906250e+01,4.005545806884765625e+01,3.252740478515625000e+01,1.015969848632812500e+02,9.846428680419921875e+01,-4.177517414093017578e+00,4.030399620532989502e-01,-6.667316436767578125e+01,-1.826874694824218750e+02,-2.342460393905639648e+00,7.562255859375000000e+01,3.135598182678222656e+01
6.156550049781799316e-01,1.000000000000000000e+00,-3.909587097167968750e+01,3.997405624389648438e+01,3.254881286621093750e+01,1.015227203369140625e+02,9.848258209228515625e+01,-4.202745437622070312e+00,4.030399620532989502e-01,-6.667316436767578125e+01,-1.826874694824218750e+02,-2.342460393905639648e+00,7.562255859375000000e+01,3.135598182678222656e+01
6.207230091094970703e-01,1.000000000000000000e+00,-3.913752365112304688e+01,3.989304351806640625e+01,3.257028198242187500e+01,1.014479675292968750e+02,9.850102233886718750e+01,-4.227701663970947266e+00,4.030399620532989502e-01,-6.667316436767578125e+01,-1.826874694824218750e+02,-2.342316627502441406e+00,7.562255859375000000e+01,3.135598182678222656e+01
6.246320009231567383e-01,1.000000000000000000e+00,-3.917952346801757812e+01,3.981213760375976562e+01,3.259169387817382812e+01,1.013739624023437500e+02,9.852027130126953125e+01,-4.253133296966552734e+00,4.030399620532989502e-01,-6.667316436767578125e+01,-1.826874694824218750e+02,-2.342460393905639648e+00,7.562255859375000000e+01,3.135598182678222656e+01
6.276710033416748047e-01,1.000000000000000000e+00,-3.922143173217773438e+01,3.973089599609375000e+01,3.261330413818359375e+01,1.012994766235351562e+02,9.853882598876953125e+01,-4.278632640838623047e+00,4.030399620532989502e-01,-6.667316436767578125e+01,-1.826874694824218750e+02,-2.342460393905639648e+00,7.562255859375000000e+01,3.135619926452636719e+01
6.318330168724060059e-01,1.000000000000000000e+00,-3.926337432861328125e+01,3.964913558959960938e+01,3.263473129272460938e+01,1.012250518798828125e+02,9.855652618408203125e+01,-4.304063796997070312e+00,4.030399620532989502e-01,-6.667316436767578125e+01,-1.826874694824218750e+02,-2.342316627502441406e+00,7.562255859375000000e+01,3.135598182678222656e+01
6.357349753379821777e-01,1.000000000000000000e+00,-3.930543136596679688e+01,3.956712722778320312e+01,3.265630722045898438e+01,1.011502075195312500e+02,9.857417297363281250e+01,-4.328613281250000000e+00,4.030399620532989502e-01,-6.667316436767578125e+01,-1.826874694824218750e+02,-2.342603921890258789e+00,7.562255859375000000e+01,3.135598182678222656e+01
6.396610140800476074e-01,1.000000000000000000e+00,-3.934748458862304688e+01,3.948479843139648438e+01,3.267803955078125000e+01,1.010758285522460938e+02,9.859214019775390625e+01,-4.353366851806640625e+00,4.030399620532989502e-01,-6.667316436767578125e+01,-1.826874694824218750e+02,-2.342460393905639648e+00,7.562270355224609375e+01,3.135619926452636719e+01
6.443610191345214844e-01,1.000000000000000000e+00,-3.938948440551757812e+01,3.940240097045898438e+01,3.269953155517578125e+01,1.010010375976562500e+02,9.861026763916015625e+01,-4.378594398498535156e+00,4.030399620532989502e-01,-6.667316436767578125e+01,-1.826874694824218750e+02,-2.342460393905639648e+00,7.562255859375000000e+01,3.135598182678222656e+01
6.477469801902770996e-01,1.000000000000000000e+00,-3.943150711059570312e+01,3.932032394409179688e+01,3.272102355957031250e+01,1.009264450073242188e+02,9.862839508056640625e+01,-4.403957843780517578e+00,4.030399620532989502e-01,-6.667316436767578125e+01,-1.826874694824218750e+02,-2.342460393905639648e+00,7.562270355224609375e+01,3.135598182678222656e+01
6.516659855842590332e-01,1.000000000000000000e+00,-3.947356414794921875e+01,3.923847198486328125e+01,3.274265289306640625e+01,1.008513870239257812e+02,9.864727020263671875e+01,-4.429253578186035156e+00,4.030399620532989502e-01,-6.667316436767578125e+01,-1.826874694824218750e+02,-2.342532396316528320e+00,7.562241363525390625e+01,3.135598182678222656e+01
6.559640169143676758e-01,1.000000000000000000e+00,-3.951576232910156250e+01,3.915700531005859375e+01,3.276422500610351562e+01,1.007765884399414062e+02,9.866651916503906250e+01,-4.455837726593017578e+00,4.030399620532989502e-01,-6.667316436767578125e+01,-1.826874694824218750e+02,-2.342460393905639648e+00,7.562255859375000000e+01,3.135619926452636719e+01
6.596199870109558105e-01,1.000000000000000000e+00,-3.955779266357421875e+01,3.907528686523437500e+01,3.278604125976562500e+01,1.007016296386718750e+02,9.868502044677734375e+01,-4.481201171875000000e+00,4.030399620532989502e-01,-6.667316436767578125e+01,-1.826874694824218750e+02,-2.342460393905639648e+00,7.562255859375000000e+01,3.135598182678222656e+01
6.636620163917541504e-01,1.000000000000000000e+00,-3.959976196289062500e+01,3.899357223510742188e+01,3.280757522583007812e+01,1.006268920898437500e+02,9.870277404785156250e+01,-4.505886554718017578e+00,4.030399620532989502e-01,-6.667316436767578125e+01,-1.826874694824218750e+02,-2.342460393905639648e+00,7.562255859375000000e+01,3.135598182678222656e+01
6.684389710426330566e-01,1.000000000000000000e+00,-3.964181900024414062e+01,3.891164779663085938e+01,3.282902526855468750e+01,1.005517272949218750e+02,9.872047424316406250e+01,-4.530571937561035156e+00,4.030399620532989502e-01,-6.667316436767578125e+01,-1.826874694824218750e+02,-2.342460393905639648e+00,7.562255859375000000e+01,3.135598182678222656e+01
6.717420220375061035e-01,1.000000000000000000e+00,-3.968395614624023438e+01,3.882927703857421875e+01,3.285055541992187500e+01,1.004765548706054688e+02,9.873817443847656250e+01,-4.555935382843017578e+00,4.030399620532989502e-01,-6.667316436767578125e+01,-1.826874694824218750e+02,-2.342532396316528320e+00,7.562255859375000000e+01,3.135598182678222656e+01
6.756880283355712891e-01,1.000000000000000000e+00,-3.972612762451171875e+01,3.874645233154296875e+01,3.287224960327148438e+01,1.004016494750976562e+02,9.875619506835937500e+01,-4.581367015838623047e+00,4.030399620532989502e-01,-6.667316436767578125e+01,-1.826874694824218750e+02,-2.342316627502441406e+00,7.562255859375000000e+01,3.135598182678222656e+01
6.802009940147399902e-01,1.000000000000000000e+00,-3.976835632324218750e+01,3.866360473632812500e+01,3.289410781860351562e+01,1.003266983032226562e+02,9.877464294433593750e+01,-4.607069492340087891e+00,4.030399620532989502e-01,-6.667316436767578125e+01,-1.826874694824218750e+02,-2.342532396316528320e+00,7.562255859375000000e+01,3.135598182678222656e+01
6.838229894638061523e-01,1.000000000000000000e+00,-3.981035232543945312e+01,3.858091354370117188e+01,3.291590118408203125e+01,1.002515869140625000e+02,9.879362487792968750e+01,-4.633111000061035156e+00,4.030399620532989502e-01,-6.667316436767578125e+01,-1.826874694824218750e+02,-2.342316627502441406e+00,7.562255859375000000e+01,3.135598182678222656e+01
6.877200007438659668e-01,1.000000000000000000e+00,-3.985240936279296875e+01,3.849863052368164062e+01,3.293753433227539062e+01,1.001763610839843750e+02,9.881260681152343750e+01,-4.658813476562500000e+00,4.030399620532989502e-01,-6.667316436767578125e+01,-1.826874694824218750e+02,-2.342460393905639648e+00,7.562241363525390625e+01,3.135598182678222656e+01
6.924470067024230957e-01,1.000000000000000000e+00,-3.989443588256835938e+01,3.841669082641601562e+01,3.295922851562500000e+01,1.001013107299804688e+02,9.883116149902343750e+01,-4.683702468872070312e+00,4.030399620532989502e-01,-6.667316436767578125e+01,-1.826874694824218750e+02,-2.342460393905639648e+00,7.562255859375000000e+01,3.135598182678222656e+01
6.959059834480285645e-01,1.000000000000000000e+00,-3.993672180175781250e+01,3.833481216430664062e+01,3.298088455200195312e+01,1.000257186889648438e+02,9.884907531738281250e+01,-4.708252429962158203e+00,4.030399620532989502e-01,-6.667316436767578125e+01,-1.826874694824218750e+02,-2.342460393905639648e+00,7.562241363525390625e+01,3.135598182678222656e+01
6.998000144958496094e-01,1.000000000000000000e+00,-3.997866058349609375e+01,3.825255203247070312e+01,3.300276184082031250e+01,9.995039367675781250e+01,9.886682891845703125e+01,-4.733276367187500000e+00,4.030399620532989502e-01,-6.667316436767578125e+01,-1.826874694824218750e+02,-2.342460393905639648e+00,7.562255859375000000e+01,3.135598182678222656e+01
7.044280171394348145e-01,1.000000000000000000e+00,-4.002086257934570312e+01,3.817002105712890625e+01,3.302455520629882812e+01,9.987464904785156250e+01,9.888484954833984375e+01,-4.758843421936035156e+00,4.030399620532989502e-01,-6.667316436767578125e+01,-1.826874694824218750e+02,-2.342460393905639648e+00,7.562255859375000000e+01,3.135598182678222656e+01
7.079060077667236328e-01,1.000000000000000000e+00,-4.006285858154296875e+01,3.808732986450195312e+01,3.304614639282226562e+01,9.979943084716796875e+01,9.890324401855468750e+01,-4.784478187561035156e+00,4.030399620532989502e-01,-6.667326354980468750e+01,-1.826874694824218750e+02,-2.342532396316528320e+00,7.562255859375000000e+01,3.135576248168945312e+01
7.119140028953552246e-01,1.000000000000000000e+00,-4.010508346557617188e+01,3.800432586669921875e+01,3.306767654418945312e+01,9.972384643554687500e+01,9.892163848876953125e+01,-4.810451984405517578e+00,4.030399620532989502e-01,-6.667308044433593750e+01,-1.826874694824218750e+02,-2.342460393905639648e+00,7.562255859375000000e+01,3.135598182678222656e+01
7.167789936065673828e-01,1.000000000000000000e+00,-4.014717102050781250e+01,3.792111587524414062e+01,3.308949279785156250e+01,9.964830780029296875e+01,9.894077301025390625e+01,-4.836358070373535156e+00,4.030399620532989502e-01,-6.667316436767578125e+01,-1.826875762939453125e+02,-2.342532396316528320e+00,7.562255859375000000e+01,3.135598182678222656e+01
7.200199961662292480e-01,1.000000000000000000e+00,-4.018934249877929688e+01,3.783817672729492188e+01,3.311151504516601562e+01,9.957256317138671875e+01,9.896013641357421875e+01,-4.861586093902587891e+00,4.030399620532989502e-01,-6.667316436767578125e+01,-1.826874694824218750e+02,-2.342460393905639648e+00,7.562255859375000000e+01,3.135598182678222656e+01
7.240020036697387695e-01,1.000000000000000000e+00,-4.023154067993164062e+01,3.775539779663085938e+01,3.313349533081054688e+01,9.949723815917968750e+01,9.897868347167968750e+01,-4.886406898498535156e+00,4.030399620532989502e-01,-6.667316436767578125e+01,-1.826874694824218750e+02,-2.342316627502441406e+00,7.562255859375000000e+01,3.135598182678222656e+01
7.286850214004516602e-01,1.000000000000000000e+00,-4.027394104003906250e+01,3.767304611206054688e+01,3.315528869628906250e+01,9.942165374755859375e+01,9.899659729003906250e+01,-4.911363601684570312e+00,4.030399620532989502e-01,-6.667316436767578125e+01,-1.826874694824218750e+02,-2.342316627502441406e+00,7.562255859375000000e+01,3.135598182678222656e+01
7.321100234985351562e-01,1.000000000000000000e+00,-4.031622314453125000e+01,3.759019851684570312e+01,3.317679977416992188e+01,9.934564208984375000e+01,9.901429748535156250e+01,-4.936998367309570312e+00,4.030399620532989502e-01,-6.667316436767578125e+01,-1.826874694824218750e+02,-2.342460393905639648e+00,7.562255859375000000e+01,3.135598182678222656e+01
7.346190214157104492e-01,1.000000000000000000e+00,-4.035862350463867188e+01,3.750751113891601562e+01,3.319843292236328125e+01,9.926995086669921875e+01,9.903221130371093750e+01,-4.962633132934570312e+00,4.030399620532989502e-01,-6.667316436767578125e+01,-1.826873016357421875e+02,-2.342532396316528320e+00,7.562255859375000000e+01,3.135598182678222656e+01
7.400299906730651855e-01,1.000000000000000000e+00,-4.040102386474609375e+01,3.742475128173828125e+01,3.322026824951171875e+01,9.919457244873046875e+01,9.905044555664062500e+01,-4.988674640655517578e+00,4.030399620532989502e-01,-6.667316436767578125e+01,-1.826874694824218750e+02,-2.342460393905639648e+00,7.562270355224609375e+01,3.135598182678222656e+01
7.442479729652404785e-01,1.000000000000000000e+00,-4.044339370727539062e+01,3.734147262573242188e+01,3.324235153198242188e+01,9.911850738525390625e+01,9.906889343261718750e+01,-5.014919757843017578e+00,4.030399620532989502e-01,-6.667316436767578125e+01,-1.826875762939453125e+02,-2.342532396316528320e+00,7.562270355224609375e+01,3.135598182678222656e+01
7.481539845466613770e-01,1.000000000000000000e+00,-4.048582458496093750e+01,3.725767517089843750e+01,3.326438903808593750e+01,9.904208374023437500e+01,9.908814239501953125e+01,-5.040418624877929688e+00,4.030399620532989502e-01,-6.667316436767578125e+01,-1.826875762939453125e+02,-2.342532396316528320e+00,7.562255859375000000e+01,3.135598182678222656e+01
7.506470084190368652e-01,1.000000000000000000e+00,-4.052831268310546875e+01,3.717391967773437500e+01,3.328620529174804688e+01,9.896607208251953125e+01,9.910733795166015625e+01,-5.064968585968017578e+00,4.030399620532989502e-01,-6.667316436767578125e+01,-1.826874694824218750e+02,-2.342532396316528320e+00,7.562241363525390625e+01,3.135598182678222656e+01
7.563099861145019531e-01,1.000000000000000000e+00,-4.057091140747070312e+01,3.709021377563476562e+01,3.330800247192382812e+01,9.889032745361328125e+01,9.912583923339843750e+01,-5.090128421783447266e+00,4.030399620532989502e-01,-6.667316436767578125e+01,-1.826874694824218750e+02,-2.342460393905639648e+00,7.562270355224609375e+01,3.135619926452636719e+01
7.603380084037780762e-01,1.000000000000000000e+00,-4.061351394653320312e+01,3.700695419311523438e+01,3.332994079589843750e+01,9.881453704833984375e+01,9.914385986328125000e+01,-5.115424633026123047e+00,4.030399620532989502e-01,-6.667316436767578125e+01,-1.826874694824218750e+02,-2.342460393905639648e+00,7.562255859375000000e+01,3.135598182678222656e+01
7.644450068473815918e-01,1.000000000000000000e+00,-4.065623092651367188e+01,3.692415237426757812e+01,3.335199737548828125e+01,9.873831176757812500e+01,9.916172027587890625e+01,-5.141262531280517578e+00,4.030399620532989502e-01,-6.667316436767578125e+01,-1.826874694824218750e+02,-2.342532396316528320e+00,7.562255859375000000e+01,3.135598182678222656e+01
7.683759927749633789e-01,1.000000000000000000e+00,-4.069885635375976562e+01,3.684132766723632812e+01,3.337377166748046875e+01,9.866220092773437500e+01,9.917995452880859375e+01,-5.167033195495605469e+00,4.030399620532989502e-01,-6.667316436767578125e+01,-1.826874694824218750e+02,-2.342460393905639648e+00,7.562255859375000000e+01,3.135598182678222656e+01
7.723330259323120117e-01,1.000000000000000000e+00,-4.074165725708007812e+01,3.675832366943359375e+01,3.339564895629882812e+01,9.858586883544921875e+01,9.919829559326171875e+01,-5.193481445312500000e+00,4.030399620532989502e-01,-6.667316436767578125e+01,-1.826874694824218750e+02,-2.342460393905639648e+00,7.562255859375000000e+01,3.135598182678222656e+01
7.769659757614135742e-01,1.000000000000000000e+00,-4.078440475463867188e+01,3.667481613159179688e+01,3.341748809814453125e+01,9.851033782958984375e+01,9.921701049804687500e+01,-5.219794750213623047e+00,4.030399620532989502e-01,-6.667326354980468750e+01,-1.826874694824218750e+02,-2.342316627502441406e+00,7.562255859375000000e+01,3.135598182678222656e+01
7.786779999732971191e-01,1.000000000000000000e+00,-4.082691955566406250e+01,3.659111022949218750e+01,3.343960952758789062e+01,9.843359375000000000e+01,9.923635864257812500e+01,-5.244615554809570312e+00,4.030399620532989502e-01,-6.667316436767578125e+01,-1.826874694824218750e+02,-2.342603921890258789e+00,7.562255859375000000e+01,3.135598182678222656e+01
7.846140265464782715e-01,1.000000000000000000e+00,-4.086974716186523438e+01,3.650715255737304688e+01,3.346191406250000000e+01,9.835779571533203125e+01,9.925582122802734375e+01,-5.269504070281982422e+00,4.030399620532989502e-01,-6.667316436767578125e+01,-1.826874694824218750e+02,-2.342460393905639648e+00,7.562255859375000000e+01,3.135598182678222656e+01
7.883219718933105469e-01,1.000000000000000000e+00,-4.091258239746093750e+01,3.642287826538085938e+01,3.348405456542968750e+01,9.828083801269531250e+01,9.927421569824218750e+01,-5.295410156250000000e+00,4.030399620532989502e-01,-6.667326354980468750e+01,-1.826874694824218750e+02,-2.342460393905639648e+00,7.562255859375000000e+01,3.135576248168945312e+01
7.926489710807800293e-01,1.000000000000000000e+00,-4.095544052124023438e+01,3.633903503417968750e+01,3.350603485107421875e+01,9.820503997802734375e+01,9.929250335693359375e+01,-5.321384429931640625e+00,4.030399620532989502e-01,-6.667316436767578125e+01,-1.826874694824218750e+02,-2.342460393905639648e+00,7.562255859375000000e+01,3.135598182678222656e+01
7.965559959411621094e-01,1.000000000000000000e+00,-4.099812698364257812e+01,3.625548553466796875e+01,3.352782821655273438e+01,9.812771606445312500e+01,9.931052398681640625e+01,-5.347425460815429688e+00,4.030399620532989502e-01,-6.667316436767578125e+01,-1.826874694824218750e+02,-2.342460393905639648e+00,7.562255859375000000e+01,3.135598182678222656e+01
8.013780117034912109e-01,1.000000000000000000e+00,-4.104095840454101562e+01,3.617234420776367188e+01,3.354980850219726562e+01,9.805181121826171875e+01,9.932838439941406250e+01,-5.373874187469482422e+00,4.030399620532989502e-01,-6.667326354980468750e+01,-1.826873016357421875e+02,-2.342460393905639648e+00,7.562255859375000000e+01,3.135598182678222656e+01
8.047940135002136230e-01,1.000000000000000000e+00,-4.108370208740234375e+01,3.608899688720703125e+01,3.357202911376953125e+01,9.797496032714843750e+01,9.934688568115234375e+01,-5.399847984313964844e+00,4.030399620532989502e-01,-6.667316436767578125e+01,-1.826874694824218750e+02,-2.342460393905639648e+00,7.562255859375000000e+01,3.135598182678222656e+01
8.086959719657897949e-01,1.000000000000000000e+00,-4.112656021118164062e+01,3.600551605224609375e+01,3.359421157836914062e+01,9.789879608154296875e+01,9.936570739746093750e+01,-5.425143718719482422e+00,4.030399620532989502e-01,-6.667316436767578125e+01,-1.826874694824218750e+02,-2.342460393905639648e+00,7.562255859375000000e+01,3.135598182678222656e+01
8.135669827461242676e-01,1.000000000000000000e+00,-4.116939163208007812e+01,3.592173767089843750e+01,3.361633300781250000e+01,9.782199859619140625e+01,9.938521575927734375e+01,-5.450439453125000000e+00,4.030399620532989502e-01,-6.667316436767578125e+01,-1.826874694824218750e+02,-2.342460393905639648e+00,7.562255859375000000e+01,3.135598182678222656e+01
8.167819976806640625e-01,1.000000000000000000e+00,-4.121219253540039062e+01,3.583753204345703125e+01,3.363832855224609375e+01,9.774582672119140625e+01,9.940446472167968750e+01,-5.476277828216552734e+00,4.030399620532989502e-01,-6.667316436767578125e+01,-1.826874694824218750e+02,-2.342460393905639648e+00,7.562255859375000000e+01,3.135598182678222656e+01
8.208590149879455566e-01,1.000000000000000000e+00,-4.125482559204101562e+01,3.575287628173828125e+01,3.366039276123046875e+01,9.766913604736328125e+01,9.942281341552734375e+01,-5.502590656280517578e+00,4.030399620532989502e-01,-6.667316436767578125e+01,-1.826874694824218750e+02,-2.342460393905639648e+00,7.562270355224609375e+01,3.135576248168945312e+01
8.254860043525695801e-01,1.000000000000000000e+00,-4.129753875732421875e+01,3.566835021972656250e+01,3.368273544311523438e+01,9.759185791015625000e+01,9.944104003906250000e+01,-5.528564929962158203e+00,4.030399620532989502e-01,-6.667316436767578125e+01,-1.826874694824218750e+02,-2.342460393905639648e+00,7.562255859375000000e+01,3.135576248168945312e+01
8.288840055465698242e-01,1.000000000000000000e+00,-4.134031295776367188e+01,3.558394241333007812e+01,3.370497894287109375e+01,9.751548767089843750e+01,9.945932769775390625e+01,-5.555284500122070312e+00,4.030399620532989502e-01,-6.667308044433593750e+01,-1.826874694824218750e+02,-2.342460393905639648e+00,7.562255859375000000e+01,3.135619926452636719e+01
8.328160047531127930e-01,1.000000000000000000e+00,-4.138320159912109375e+01,3.549991989135742188e+01,3.372694015502929688e+01,9.743836975097656250e+01,9.947745513916015625e+01,-5.581936359405517578e+00,4.030399620532989502e-01,-6.667316436767578125e+01,-1.826874694824218750e+02,-2.342460393905639648e+00,7.562270355224609375e+01,3.135598182678222656e+01
8.373680114746093750e-01,1.000000000000000000e+00,-4.142582702636718750e+01,3.541643524169921875e+01,3.374899673461914062e+01,9.736189270019531250e+01,9.949617004394531250e+01,-5.607503414154052734e+00,4.030399620532989502e-01,-6.667316436767578125e+01,-1.826874694824218750e+02,-2.342460393905639648e+00,7.562255859375000000e+01,3.135598182678222656e+01
8.395990133285522461e-01,1.000000000000000000e+00,-4.146860122680664062e+01,3.533270645141601562e+01,3.377109909057617188e+01,9.728445434570312500e+01,9.951546478271484375e+01,-5.632663249969482422e+00,4.030399620532989502e-01,-6.667316436767578125e+01,-1.826874694824218750e+02,-2.342460393905639648e+00,7.562255859375000000e+01,3.135576248168945312e+01
8.446660041809082031e-01,1.000000000000000000e+00,-4.151120376586914062e+01,3.524865722656250000e+01,3.379328155517578125e+01,9.720765686035156250e+01,9.953508758544921875e+01,-5.658637046813964844e+00,4.030399620532989502e-01,-6.667316436767578125e+01,-1.826874694824218750e+02,-2.342460393905639648e+00,7.562255859375000000e+01,3.135598182678222656e+01
8.476009964942932129e-01,1.000000000000000000e+00,-4.155397796630859375e+01,3.516413497924804688e+01,3.381554412841796875e+01,9.713022613525390625e+01,9.955422973632812500e+01,-5.684475421905517578e+00,4.030399620532989502e-01,-6.667316436767578125e+01,-1.826874694824218750e+02,-2.342460393905639648e+00,7.562255859375000000e+01,3.135598182678222656e+01
8.515980243682861328e-01,1.000000000000000000e+00,-4.159669113159179688e+01,3.507938385009765625e+01,3.383764648437500000e+01,9.705342864990234375e+01,9.957278442382812500e+01,-5.710991859436035156e+00,4.030399620532989502e-01,-6.667316436767578125e+01,-1.826874694824218750e+02,-2.342460393905639648e+00,7.562255859375000000e+01,3.135598182678222656e+01
8.575260043144226074e-01,1.000000000000000000e+00,-4.163972473144531250e+01,3.499427413940429688e+01,3.385980606079101562e+01,9.697615051269531250e+01,9.959091186523437500e+01,-5.737915039062500000e+00,4.030399620532989502e-01,-6.667326354980468750e+01,-1.826874694824218750e+02,-2.342460393905639648e+00,7.562255859375000000e+01,3.135598182678222656e+01
8.596000075340270996e-01,1.000000000000000000e+00,-4.168252944946289062e+01,3.490900421142578125e+01,3.388204956054687500e+01,9.689935302734375000e+01,9.960919952392578125e+01,-5.764431476593017578e+00,4.030399620532989502e-01,-6.667316436767578125e+01,-1.826873016357421875e+02,-2.342460393905639648e+00,7.562255859375000000e+01,3.135598182678222656e+01
8.636090159416198730e-01,1.000000000000000000e+00,-4.172523880004882812e+01,3.482436752319335938e+01,3.390433120727539062e+01,9.682208251953125000e+01,9.962748718261718750e+01,-5.789998531341552734e+00,4.030399620532989502e-01,-6.667316436767578125e+01,-1.826874694824218750e+02,-2.342460393905639648e+00,7.562255859375000000e+01,3.135598182678222656e+01
8.666319847106933594e-01,1.000000000000000000e+00,-4.176830291748046875e+01,3.474018478393554688e+01,3.392659378051757812e+01,9.674486541748046875e+01,9.964614868164062500e+01,-5.815226554870605469e+00,4.030399620532989502e-01,-6.667316436767578125e+01,-1.826874694824218750e+02,-2.342460393905639648e+00,7.562270355224609375e+01,3.135598182678222656e+01
8.729950189590454102e-01,1.000000000000000000e+00,-4.176830291748046875e+01,3.474018478393554688e+01,3.392659378051757812e+01,9.674486541748046875e+01,9.964614868164062500e+01,-5.815226554870605469e+00,4.030399620532989502e-01,-6.667316436767578125e+01,-1.826874694824218750e+02,-2.342460393905639648e+00,7.562270355224609375e+01,3.135598182678222656e+01
8.745989799499511719e-01,1.000000000000000000e+00,-4.185459518432617188e+01,3.457141113281250000e+01,3.397112274169921875e+01,9.659000396728515625e+01,9.968506622314453125e+01,-5.866902828216552734e+00,4.030399620532989502e-01,-6.667316436767578125e+01,-1.826874694824218750e+02,-2.342316627502441406e+00,7.562255859375000000e+01,3.135598182678222656e+01
8.797000050544738770e-01,1.000000000000000000e+00,-4.185459518432617188e+01,3.457141113281250000e+01,3.397112274169921875e+01,9.659000396728515625e+01,9.968506622314453125e+01,-5.866902828216552734e+00,4.030399620532989502e-01,-6.667316436767578125e+01,-1.826874694824218750e+02,-2.342316627502441406e+00,7.562255859375000000e+01,3.135598182678222656e+01
8.836659789085388184e-01,1.000000000000000000e+00,-4.194097137451171875e+01,3.440187072753906250e+01,3.401581192016601562e+01,9.643503570556640625e+01,9.972261047363281250e+01,-5.919867515563964844e+00,4.030399620532989502e-01,-6.667316436767578125e+01,-1.826874694824218750e+02,-2.342460393905639648e+00,7.562255859375000000e+01,3.135598182678222656e+01
8.876000046730041504e-01,1.000000000000000000e+00,-4.198440933227539062e+01,3.431653213500976562e+01,3.403801727294921875e+01,9.635739135742187500e+01,9.974078369140625000e+01,-5.946655750274658203e+00,4.030399620532989502e-01,-6.667316436767578125e+01,-1.826874694824218750e+02,-2.342532396316528320e+00,7.562255859375000000e+01,3.135576248168945312e+01
8.916800022125244141e-01,1.000000000000000000e+00,-4.202795410156250000e+01,3.423080825805664062e+01,3.406029891967773438e+01,9.627959442138671875e+01,9.975949859619140625e+01,-5.972425937652587891e+00,4.030399620532989502e-01,-6.667316436767578125e+01,-1.826874694824218750e+02,-2.342460393905639648e+00,7.562255859375000000e+01,3.135598182678222656e+01
8.956019878387451172e-01,1.000000000000000000e+00,-4.207133102416992188e+01,3.414537811279296875e+01,3.408268356323242188e+01,9.620216369628906250e+01,9.977794647216796875e+01,-5.997857093811035156e+00,4.030399620532989502e-01,-6.667316436767578125e+01,-1.826874694824218750e+02,-2.342460393905639648e+00,7.562255859375000000e+01,3.135598182678222656e+01
8.995959758758544922e-01,1.000000000000000000e+00,-4.211493682861328125e+01,3.406018066406250000e+01,3.410523223876953125e+01,9.612425994873046875e+01,9.979714202880859375e+01,-6.023627758026123047e+00,4.030399620532989502e-01,-6.667316436767578125e+01,-1.826874694824218750e+02,-2.342532396316528320e+00,7.562255859375000000e+01,3.135598182678222656e+01
9.036639928817749023e-01,1.000000000000000000e+00,-4.215863037109375000e+01,3.397549819946289062e+01,3.412792205810546875e+01,9.604688262939453125e+01,9.981670379638671875e+01,-6.049940586090087891e+00,4.030399620532989502e-01,-6.667316436767578125e+01,-1.826874694824218750e+02,-2.342460393905639648e+00,7.562270355224609375e+01,3.135598182678222656e+01
9.076089859008789062e-01,1.000000000000000000e+00,-4.220220565795898438e+01,3.389111328125000000e+01,3.415018463134765625e+01,9.596903228759765625e+01,9.983638000488281250e+01,-6.076592445373535156e+00,4.030399620532989502e-01,-6.667326354980468750e+01,-1.826874694824218750e+02,-2.342460393905639648e+00,7.562255859375000000e+01,3.135576248168945312e+01
9.116439819335937500e-01,1.000000000000000000e+00,-4.224595260620117188e+01,3.380651855468750000e+01,3.417242813110351562e+01,9.589118194580078125e+01,9.985530853271484375e+01,-6.103176593780517578e+00,4.030399620532989502e-01,-6.667316436767578125e+01,-1.826874694824218750e+02,-2.342460393905639648e+00,7.562255859375000000e+01,3.135598182678222656e+01
9.160599708557128906e-01,1.000000000000000000e+00,-4.228979110717773438e+01,3.372161483764648438e+01,3.419469070434570312e+01,9.581327056884765625e+01,9.987364959716796875e+01,-6.129828929901123047e+00,4.030399620532989502e-01,-6.667316436767578125e+01,-1.826874694824218750e+02,-2.342460393905639648e+00,7.562255859375000000e+01,3.135598182678222656e+01
9.186729788780212402e-01,1.000000000000000000e+00,-4.233365249633789062e+01,3.363643646240234375e+01,3.421713638305664062e+01,9.573558044433593750e+01,9.989193725585937500e+01,-6.156005859375000000e+00,4.030399620532989502e-01,-6.667316436767578125e+01,-1.826874694824218750e+02,-2.342460393905639648e+00,7.562255859375000000e+01,3.135619926452636719e+01
9.237419962882995605e-01,1.000000000000000000e+00,-4.233365249633789062e+01,3.363643646240234375e+01,3.421713638305664062e+01,9.573558044433593750e+01,9.989193725585937500e+01,-6.156005859375000000e+00,4.030399620532989502e-01,-6.667316436767578125e+01,-1.826874694824218750e+02,-2.342460393905639648e+00,7.562255859375000000e+01,3.135619926452636719e+01
9.266849756240844727e-01,1.000000000000000000e+00,-4.242132568359375000e+01,3.346463012695312500e+01,3.426243591308593750e+01,9.557897949218750000e+01,9.992930603027343750e+01,-6.207275390625000000e+00,4.030399620532989502e-01,-6.667316436767578125e+01,-1.826874694824218750e+02,-2.342532396316528320e+00,7.562255859375000000e+01,3.135598182678222656e+01
9.316580295562744141e-01,1.000000000000000000e+00,-4.242132568359375000e+01,3.346463012695312500e+01,3.426243591308593750e+01,9.557897949218750000e+01,9.992930603027343750e+01,-6.207275390625000000e+00,4.030399620532989502e-01,-6.667316436767578125e+01,-1.826874694824218750e+02,-2.342532396316528320e+00,7.562255859375000000e+01,3.135598182678222656e+01
9.356189966201782227e-01,1.000000000000000000e+00,-4.250910949707031250e+01,3.329361343383789062e+01,3.430735015869140625e+01,9.542269897460937500e+01,9.996807098388671875e+01,-6.259494304656982422e+00,4.030399620532989502e-01,-6.667316436767578125e+01,-1.826874694824218750e+02,-2.342460393905639648e+00,7.562270355224609375e+01,3.135598182678222656e+01
9.396479725837707520e-01,1.000000000000000000e+00,-4.255291748046875000e+01,3.320852279663085938e+01,3.432989883422851562e+01,9.534499359130859375e+01,9.998774719238281250e+01,-6.286892414093017578e+00,4.030399620532989502e-01,-6.667316436767578125e+01,-1.826874694824218750e+02,-2.342460393905639648e+00,7.562255859375000000e+01,3.135598182678222656e+01
9.436389803886413574e-01,1.000000000000000000e+00,-4.259703826904296875e+01,3.312343597412109375e+01,3.435256576538085938e+01,9.526673126220703125e+01,1.000064544677734375e+02,-6.314086914062500000e+00,4.030399620532989502e-01,-6.667316436767578125e+01,-1.826874694824218750e+02,-2.342460393905639648e+00,7.562270355224609375e+01,3.135598182678222656e+01
9.476900100708007812e-01,1.000000000000000000e+00,-4.264078903198242188e+01,3.303818893432617188e+01,3.437497329711914062e+01,9.518865966796875000e+01,1.000249557495117188e+02,-6.340399742126464844e+00,4.030399620532989502e-01,-6.667316436767578125e+01,-1.826874694824218750e+02,-2.342460393905639648e+00,7.562255859375000000e+01,3.135598182678222656e+01
9.516100287437438965e-01,1.000000000000000000e+00,-4.268465423583984375e+01,3.295262527465820312e+01,3.439731979370117188e+01,9.510997009277343750e+01,1.000434112548828125e+02,-6.366170406341552734e+00,4.030399620532989502e-01,-6.667316436767578125e+01,-1.826874694824218750e+02,-2.342532396316528320e+00,7.562255859375000000e+01,3.135598182678222656e+01
9.556189775466918945e-01,1.000000000000000000e+00,-4.272837448120117188e+01,3.286633682250976562e+01,3.441978454589843750e+01,9.503206634521484375e+01,1.000623855590820312e+02,-6.391940593719482422e+00,4.030399620532989502e-01,-6.667316436767578125e+01,-1.826874694824218750e+02,-2.342460393905639648e+00,7.562255859375000000e+01,3.135598182678222656e+01
9.596480131149291992e-01,1.000000000000000000e+00,-4.277232360839843750e+01,3.277970886230468750e+01,3.444245529174804688e+01,9.495336914062500000e+01,1.000814208984375000e+02,-6.418660640716552734e+00,4.030399620532989502e-01,-6.667316436767578125e+01,-1.826874694824218750e+02,-2.342460393905639648e+00,7.562255859375000000e+01,3.135598182678222656e+01
9.636480212211608887e-01,1.000000000000000000e+00,-4.281615829467773438e+01,3.269319534301757812e+01,3.446529006958007812e+01,9.487530517578125000e+01,1.001008300781250000e+02,-6.445651531219482422e+00,4.030399620532989502e-01,-6.667308044433593750e+01,-1.826874694824218750e+02,-2.342460393905639648e+00,7.562255859375000000e+01,3.135576248168945312e+01
9.676219820976257324e-01,1.000000000000000000e+00,-4.286005401611328125e+01,3.260672760009765625e+01,3.448799896240234375e+01,9.479676818847656250e+01,1.001209335327148438e+02,-6.472371578216552734e+00,4.030399620532989502e-01,-6.667316436767578125e+01,-1.826874694824218750e+02,-2.342460393905639648e+00,7.562255859375000000e+01,3.135598182678222656e+01
9.716150164604187012e-01,1.000000000000000000e+00,-4.290377044677734375e+01,3.252069091796875000e+01,3.451037979125976562e+01,9.471797180175781250e+01,1.001406021118164062e+02,-6.499362468719482422e+00,4.030399620532989502e-01,-6.667316436767578125e+01,-1.826874694824218750e+02,-2.342460393905639648e+00,7.562255859375000000e+01,3.135598182678222656e+01
9.766359925270080566e-01,1.000000000000000000e+00,-4.294763565063476562e+01,3.243508148193359375e+01,3.453276824951171875e+01,9.463900756835937500e+01,1.001592636108398438e+02,-6.526014804840087891e+00,4.030399620532989502e-01,-6.667316436767578125e+01,-1.826874694824218750e+02,-2.342460393905639648e+00,7.562255859375000000e+01,3.135598182678222656e+01
9.799469709396362305e-01,1.000000000000000000e+00,-4.299164199829101562e+01,3.234942626953125000e+01,3.455541610717773438e+01,9.456041717529296875e+01,1.001778182983398438e+02,-6.551920413970947266e+00,4.030399620532989502e-01,-6.667316436767578125e+01,-1.826874694824218750e+02,-2.342460393905639648e+00,7.562255859375000000e+01,3.135598182678222656e+01
9.833719730377197266e-01,1.000000000000000000e+00,-4.303544998168945312e+01,3.226333999633789062e+01,3.457809066772460938e+01,9.448208618164062500e+01,1.001963195800781250e+02,-6.577894210815429688e+00,4.030399620532989502e-01,-6.667316436767578125e+01,-1.826874694824218750e+02,-2.342460393905639648e+00,7.562255859375000000e+01,3.135576248168945312e+01
9.876899719238281250e-01,1.000000000000000000e+00,-4.303544998168945312e+01,3.226333999633789062e+01,3.457809066772460938e+01,9.448208618164062500e+01,1.001963195800781250e+02,-6.577894210815429688e+00,4.030399620532989502e-01,-6.667316436767578125e+01,-1.826874694824218750e+02,-2.342460393905639648e+00,7.562255859375000000e+01,3.135576248168945312e+01
9.926199913024902344e-01,1.000000000000000000e+00,-4.307931518554687500e+01,3.217707443237304688e+01,3.460084152221679688e+01,9.440371704101562500e+01,1.002152938842773438e+02,-6.604614734649658203e+00,4.030399620532989502e-01,-6.667316436767578125e+01,-1.826874694824218750e+02,-2.342532396316528320e+00,7.562270355224609375e+01,3.135598182678222656e+01
9.956300258636474609e-01,1.000000000000000000e+00,-4.316704177856445312e+01,3.200341415405273438e+01,3.464613723754882812e+01,9.424584960937500000e+01,1.002543258666992188e+02,-6.659071445465087891e+00,4.030399620532989502e-01,-6.667316436767578125e+01,-1.826874694824218750e+02,-2.342460393905639648e+00,7.562255859375000000e+01,3.135576248168945312e+01
1.000622987747192383e+00,1.000000000000000000e+00,-4.316704177856445312e+01,3.200341415405273438e+01,3.464613723754882812e+01,9.424584960937500000e+01,1.002543258666992188e+02,-6.659071445465087891e+00,4.030399620532989502e-01,-6.667316436767578125e+01,-1.826874694824218750e+02,-2.342460393905639648e+00,7.562255859375000000e+01,3.135576248168945312e+01
1.004135966300964355e+00,1.000000000000000000e+00,-4.325511550903320312e+01,3.182984352111816406e+01,3.469190216064453125e+01,9.408803558349609375e+01,1.002937850952148438e+02,-6.713121414184570312e+00,4.030399620532989502e-01,-6.667316436767578125e+01,-1.826874694824218750e+02,-2.342460393905639648e+00,7.562255859375000000e+01,3.135598182678222656e+01
1.007737040519714355e+00,1.000000000000000000e+00,-4.329920578002929688e+01,3.174373435974121094e+01,3.471453475952148438e+01,9.400918579101562500e+01,1.003124389648437500e+02,-6.739027500152587891e+00,4.030399620532989502e-01,-6.667316436767578125e+01,-1.826874694824218750e+02,-2.342316627502441406e+00,7.562270355224609375e+01,3.135598182678222656e+01
1.012684941291809082e+00,1.000000000000000000e+00,-4.329920578002929688e+01,3.174373435974121094e+01,3.471453475952148438e+01,9.400918579101562500e+01,1.003124389648437500e+02,-6.739027500152587891e+00,4.030399620532989502e-01,-6.667316436767578125e+01,-1.826874694824218750e+02,-2.342316627502441406e+00,7.562270355224609375e+01,3.135598182678222656e+01
1.015645027160644531e+00,1.000000000000000000e+00,-4.338736724853515625e+01,3.157163429260253906e+01,3.475979232788085938e+01,9.385085296630859375e+01,1.003499755859375000e+02,-6.791992187500000000e+00,4.030399620532989502e-01,-6.667316436767578125e+01,-1.826874694824218750e+02,-2.342460393905639648e+00,7.562255859375000000e+01,3.135598182678222656e+01
1.019536972045898438e+00,1.000000000000000000e+00,-4.343177795410156250e+01,3.148543739318847656e+01,3.478284835815429688e+01,9.377183532714843750e+01,1.003691635131835938e+02,-6.819322586059570312e+00,4.030399620532989502e-01,-6.667326354980468750e+01,-1.826874694824218750e+02,-2.342460393905639648e+00,7.562270355224609375e+01,3.135598182678222656e+01
1.023699045181274414e+00,1.000000000000000000e+00,-4.343177795410156250e+01,3.148543739318847656e+01,3.478284835815429688e+01,9.377183532714843750e+01,1.003691635131835938e+02,-6.819322586059570312e+00,4.030399620532989502e-01,-6.667326354980468750e+01,-1.826874694824218750e+02,-2.342460393905639648e+00,7.562270355224609375e+01,3.135598182678222656e+01
1.027678012847900391e+00,1.000000000000000000e+00,-4.347612762451171875e+01,3.139856147766113281e+01,3.480576324462890625e+01,9.369224548339843750e+01,1.003887863159179688e+02,-6.846584796905517578e+00,4.030399620532989502e-01,-6.667316436767578125e+01,-1.826874694824218750e+02,-2.342460393905639648e+00,7.562270355224609375e+01,3.135598182678222656e+01
1.031715989112854004e+00,1.000000000000000000e+00,-4.352053833007812500e+01,3.131116485595703125e+01,3.482857513427734375e+01,9.361339569091796875e+01,1.004089965820312500e+02,-6.874050617218017578e+00,4.030399620532989502e-01,-6.667316436767578125e+01,-1.826874694824218750e+02,-2.342460393905639648e+00,7.562255859375000000e+01,3.135598182678222656e+01
1.036651968955993652e+00,1.000000000000000000e+00,-4.356491851806640625e+01,3.122383499145507812e+01,3.485130691528320312e+01,9.353401184082031250e+01,1.004289932250976562e+02,-6.900838375091552734e+00,4.030399620532989502e-01,-6.667316436767578125e+01,-1.826874694824218750e+02,-2.342316627502441406e+00,7.562255859375000000e+01,3.135598182678222656e+01
1.039618015289306641e+00,1.000000000000000000e+00,-4.365367889404296875e+01,3.104969787597656250e+01,3.489699172973632812e+01,9.337520599365234375e+01,1.004666366577148438e+02,-6.952853679656982422e+00,4.030399620532989502e-01,-6.667316436767578125e+01,-1.826874694824218750e+02,-2.342460393905639648e+00,7.562241363525390625e+01,3.135598182678222656e+01
1.043653964996337891e+00,1.000000000000000000e+00,-4.365367889404296875e+01,3.104969787597656250e+01,3.489699172973632812e+01,9.337520599365234375e+01,1.004666366577148438e+02,-6.952853679656982422e+00,4.030399620532989502e-01,-6.667316436767578125e+01,-1.826874694824218750e+02,-2.342460393905639648e+00,7.562241363525390625e+01,3.135598182678222656e+01
1.047814965248107910e+00,1.000000000000000000e+00,-4.369852066040039062e+01,3.096334075927734375e+01,3.492004776000976562e+01,9.329603576660156250e+01,1.004856109619140625e+02,-6.979912757873535156e+00,4.030399620532989502e-01,-6.667316436767578125e+01,-1.826874694824218750e+02,-2.342460393905639648e+00,7.562270355224609375e+01,3.135598182678222656e+01
1.051669001579284668e+00,1.000000000000000000e+00,-4.374315643310546875e+01,3.087687492370605469e+01,3.494298171997070312e+01,9.321659851074218750e+01,1.005044860839843750e+02,-7.007107257843017578e+00,4.030399620532989502e-01,-6.667316436767578125e+01,-1.826874694824218750e+02,-2.342460393905639648e+00,7.562255859375000000e+01,3.135598182678222656e+01
1.055654048919677734e+00,1.000000000000000000e+00,-4.378776931762695312e+01,3.079015541076660156e+01,3.496577453613281250e+01,9.313706207275390625e+01,1.005238342285156250e+02,-7.034641265869140625e+00,4.030399620532989502e-01,-6.667316436767578125e+01,-1.826875762939453125e+02,-2.342460393905639648e+00,7.562255859375000000e+01,3.135598182678222656e+01
1.059646964073181152e+00,1.000000000000000000e+00,-4.383232116699218750e+01,3.070302963256835938e+01,3.498858642578125000e+01,9.305747222900390625e+01,1.005437774658203125e+02,-7.061699867248535156e+00,4.030399620532989502e-01,-6.667316436767578125e+01,-1.826874694824218750e+02,-2.342460393905639648e+00,7.562255859375000000e+01,3.135576248168945312e+01
1.063712000846862793e+00,1.000000000000000000e+00,-4.387713241577148438e+01,3.061552047729492188e+01,3.501160049438476562e+01,9.297730255126953125e+01,1.005641479492187500e+02,-7.088148593902587891e+00,4.030399620532989502e-01,-6.667316436767578125e+01,-1.826874694824218750e+02,-2.342460393905639648e+00,7.562255859375000000e+01,3.135598182678222656e+01
1.067654967308044434e+00,1.000000000000000000e+00,-4.392194366455078125e+01,3.052758216857910156e+01,3.503464126586914062e+01,9.289792633056640625e+01,1.005836639404296875e+02,-7.114665031433105469e+00,4.030399620532989502e-01,-6.667316436767578125e+01,-1.826874694824218750e+02,-2.342316627502441406e+00,7.562255859375000000e+01,3.135598182678222656e+01
1.071642994880676270e+00,1.000000000000000000e+00,-4.396658325195312500e+01,3.043964004516601562e+01,3.505749130249023438e+01,9.281812286376953125e+01,1.006022109985351562e+02,-7.141181468963623047e+00,4.030399620532989502e-01,-6.667316436767578125e+01,-1.826874694824218750e+02,-2.342460393905639648e+00,7.562255859375000000e+01,3.135576248168945312e+01
1.075662970542907715e+00,1.000000000000000000e+00,-4.401139831542968750e+01,3.035206413269042969e+01,3.508046722412109375e+01,9.273837280273437500e+01,1.006209793090820312e+02,-7.167968750000000000e+00,4.030399620532989502e-01,-6.667316436767578125e+01,-1.826874694824218750e+02,-2.342316627502441406e+00,7.562270355224609375e+01,3.135576248168945312e+01
1.079674959182739258e+00,1.000000000000000000e+00,-4.405609130859375000e+01,3.026484870910644531e+01,3.510336303710937500e+01,9.265805053710937500e+01,1.006404418945312500e+02,-7.195366859436035156e+00,4.030399620532989502e-01,-6.667316436767578125e+01,-1.826874694824218750e+02,-2.342460393905639648e+00,7.562255859375000000e+01,3.135598182678222656e+01
1.083690047264099121e+00,1.000000000000000000e+00,-4.410070037841796875e+01,3.017763137817382812e+01,3.512641525268554688e+01,9.257855987548828125e+01,1.006596908569335938e+02,-7.223036289215087891e+00,4.030399620532989502e-01,-6.667316436767578125e+01,-1.826874694824218750e+02,-2.342460393905639648e+00,7.562270355224609375e+01,3.135619926452636719e+01
1.087710022926330566e+00,1.000000000000000000e+00,-4.414537048339843750e+01,3.009066581726074219e+01,3.514945220947265625e+01,9.249880981445312500e+01,1.006793594360351562e+02,-7.250434398651123047e+00,4.030399620532989502e-01,-6.667316436767578125e+01,-1.826874694824218750e+02,-2.342460393905639648e+00,7.562255859375000000e+01,3.135598182678222656e+01
1.091642975807189941e+00,1.000000000000000000e+00,-4.419012069702148438e+01,3.000349426269531250e+01,3.517236709594726562e+01,9.241853332519531250e+01,1.006998367309570312e+02,-7.276815414428710938e+00,4.030399620532989502e-01,-6.667316436767578125e+01,-1.826874694824218750e+02,-2.342532396316528320e+00,7.562255859375000000e+01,3.135598182678222656e+01
1.095700979232788086e+00,1.000000000000000000e+00,-4.423473358154296875e+01,2.991548728942871094e+01,3.519521713256835938e+01,9.233868408203125000e+01,1.007199401855468750e+02,-7.302721500396728516e+00,4.030399620532989502e-01,-6.667316436767578125e+01,-1.826874694824218750e+02,-2.342460393905639648e+00,7.562255859375000000e+01,3.135619926452636719e+01
1.099701046943664551e+00,1.000000000000000000e+00,-4.427943038940429688e+01,2.982707023620605469e+01,3.521829605102539062e+01,9.225840759277343750e+01,1.007393417358398438e+02,-7.329711914062500000e+00,4.030399620532989502e-01,-6.667326354980468750e+01,-1.826874694824218750e+02,-2.342460393905639648e+00,7.562241363525390625e+01,3.135598182678222656e+01
1.103934049606323242e+00,1.000000000000000000e+00,-4.432398223876953125e+01,2.973870277404785156e+01,3.524145507812500000e+01,9.217849731445312500e+01,1.007578964233398438e+02,-7.356499671936035156e+00,4.030399620532989502e-01,-6.667316436767578125e+01,-1.826874694824218750e+02,-2.342532396316528320e+00,7.562270355224609375e+01,3.135598182678222656e+01
1.107674956321716309e+00,1.000000000000000000e+00,-4.436867904663085938e+01,2.965044593811035156e+01,3.526457214355468750e+01,9.209738159179687500e+01,1.007768249511718750e+02,-7.383830070495605469e+00,4.030399620532989502e-01,-6.667326354980468750e+01,-1.826874694824218750e+02,-2.342316627502441406e+00,7.562255859375000000e+01,3.135598182678222656e+01
1.111642003059387207e+00,1.000000000000000000e+00,-4.441329193115234375e+01,2.956252670288085938e+01,3.528776931762695312e+01,9.201752471923828125e+01,1.007961730957031250e+02,-7.411567211151123047e+00,4.030399620532989502e-01,-6.667316436767578125e+01,-1.826875762939453125e+02,-2.342460393905639648e+00,7.562255859375000000e+01,3.135598182678222656e+01
1.115730047225952148e+00,1.000000000000000000e+00,-4.445787429809570312e+01,2.947524452209472656e+01,3.531088638305664062e+01,9.193714904785156250e+01,1.008155364990234375e+02,-7.439236164093017578e+00,4.030399620532989502e-01,-6.667316436767578125e+01,-1.826874694824218750e+02,-2.342460393905639648e+00,7.562255859375000000e+01,3.135598182678222656e+01
