rpiRobotics/ARM-21-02-F-19-Robot-Motion-Program/data_performance_abb/curve_1/curve_pose_opt1/100L/grad_result/real/run_3.csv
timestamp,cmd_num,J1,J2,J3,J4,J5,J6
1.400000037392601371e-04,-1.000000000000000000e+00,-3.429586029052734375e+01,4.938357543945312500e+01,3.007488059997558594e+01,1.101246948242187500e+02,9.639295959472656250e+01,-1.301676511764526367e+00,4.030399620532989502e-01,-6.667316436767578125e+01,-1.826874694824218750e+02,-2.342460393905639648e+00,7.562255859375000000e+01,3.135598182678222656e+01
6.521000061184167862e-03,1.000000000000000000e+00,-3.429586029052734375e+01,4.938359832763671875e+01,3.007491874694824219e+01,1.101246948242187500e+02,9.639295959472656250e+01,-1.301540851593017578e+00,4.030399620532989502e-01,-6.667316436767578125e+01,-1.826874694824218750e+02,-2.342532396316528320e+00,7.562255859375000000e+01,3.135598182678222656e+01
1.002799998968839645e-02,1.000000000000000000e+00,-3.429586029052734375e+01,4.938359832763671875e+01,3.007493782043457031e+01,1.101248092651367188e+02,9.639311218261718750e+01,-1.301676511764526367e+00,4.030399620532989502e-01,-6.667316436767578125e+01,-1.826873016357421875e+02,-2.342532396316528320e+00,7.562270355224609375e+01,3.135598182678222656e+01
1.405700016766786575e-02,1.000000000000000000e+00,-3.429586029052734375e+01,4.938359832763671875e+01,3.007493782043457031e+01,1.101248092651367188e+02,9.639311218261718750e+01,-1.301676511764526367e+00,4.030399620532989502e-01,-6.667316436767578125e+01,-1.826873016357421875e+02,-2.342532396316528320e+00,7.562270355224609375e+01,3.135598182678222656e+01
3.630200028419494629e-02,1.000000000000000000e+00,-3.429580307006835938e+01,4.938353347778320312e+01,3.007491874694824219e+01,1.101248092651367188e+02,9.639295959472656250e+01,-1.301540851593017578e+00,4.030399620532989502e-01,-6.667316436767578125e+01,-1.826873016357421875e+02,-2.342532396316528320e+00,7.562255859375000000e+01,3.135598182678222656e+01
3.934799879789352417e-02,1.000000000000000000e+00,-3.429591751098632812e+01,4.938357543945312500e+01,3.007493782043457031e+01,1.101246948242187500e+02,9.639295959472656250e+01,-1.301676511764526367e+00,4.030399620532989502e-01,-6.667316436767578125e+01,-1.826874694824218750e+02,-2.342532396316528320e+00,7.562255859375000000e+01,3.135598182678222656e+01
4.211699962615966797e-02,1.000000000000000000e+00,-3.429591751098632812e+01,4.938357543945312500e+01,3.007493782043457031e+01,1.101246948242187500e+02,9.639295959472656250e+01,-1.301676511764526367e+00,4.030399620532989502e-01,-6.667316436767578125e+01,-1.826874694824218750e+02,-2.342532396316528320e+00,7.562255859375000000e+01,3.135598182678222656e+01
4.982500150799751282e-02,1.000000000000000000e+00,-3.429586029052734375e+01,4.938357543945312500e+01,3.007493782043457031e+01,1.101246948242187500e+02,9.639295959472656250e+01,-1.301676511764526367e+00,4.030399620532989502e-01,-6.667316436767578125e+01,-1.826875762939453125e+02,-2.342532396316528320e+00,7.562255859375000000e+01,3.135598182678222656e+01
5.115500092506408691e-02,1.000000000000000000e+00,-3.429586029052734375e+01,4.938357543945312500e+01,3.007491874694824219e+01,1.101246948242187500e+02,9.639295959472656250e+01,-1.301676511764526367e+00,4.030399620532989502e-01,-6.667316436767578125e+01,-1.826874694824218750e+02,-2.342532396316528320e+00,7.562255859375000000e+01,3.135598182678222656e+01
5.245700106024742126e-02,1.000000000000000000e+00,-3.429586029052734375e+01,4.938357543945312500e+01,3.007491874694824219e+01,1.101246948242187500e+02,9.639295959472656250e+01,-1.301676511764526367e+00,4.030399620532989502e-01,-6.667316436767578125e+01,-1.826874694824218750e+02,-2.342532396316528320e+00,7.562255859375000000e+01,3.135598182678222656e+01
5.573200061917304993e-02,1.000000000000000000e+00,-3.429597473144531250e+01,4.938359832763671875e+01,3.007497978210449219e+01,1.101246948242187500e+02,9.639295959472656250e+01,-1.301676511764526367e+00,4.030399620532989502e-01,-6.667316436767578125e+01,-1.826874694824218750e+02,-2.342603921890258789e+00,7.562255859375000000e+01,3.135598182678222656e+01
5.846900120377540588e-02,1.000000000000000000e+00,-3.429617691040039062e+01,4.938344192504882812e+01,3.007488059997558594e+01,1.101248092651367188e+02,9.639311218261718750e+01,-1.301676511764526367e+00,4.030399620532989502e-01,-6.667316436767578125e+01,-1.826874694824218750e+02,-2.342532396316528320e+00,7.562255859375000000e+01,3.135598182678222656e+01
6.293799728155136108e-02,1.000000000000000000e+00,-3.429697799682617188e+01,4.938307952880859375e+01,3.007497978210449219e+01,1.101246948242187500e+02,9.639295959472656250e+01,-1.301540851593017578e+00,4.030399620532989502e-01,-6.667316436767578125e+01,-1.826874694824218750e+02,-2.342532396316528320e+00,7.562255859375000000e+01,3.135598182678222656e+01
6.421700119972229004e-02,1.000000000000000000e+00,-3.429697799682617188e+01,4.938307952880859375e+01,3.007497978210449219e+01,1.101246948242187500e+02,9.639295959472656250e+01,-1.301540851593017578e+00,4.030399620532989502e-01,-6.667316436767578125e+01,-1.826874694824218750e+02,-2.342532396316528320e+00,7.562255859375000000e+01,3.135598182678222656e+01
6.689699739217758179e-02,1.000000000000000000e+00,-3.429827499389648438e+01,4.938217163085937500e+01,3.007491874694824219e+01,1.101246948242187500e+02,9.639295959472656250e+01,-1.301540851593017578e+00,4.030399620532989502e-01,-6.667316436767578125e+01,-1.826874694824218750e+02,-2.342603921890258789e+00,7.562255859375000000e+01,3.135576248168945312e+01
7.024200260639190674e-02,1.000000000000000000e+00,-3.430013656616210938e+01,4.938027572631835938e+01,3.007493782043457031e+01,1.101245956420898438e+02,9.639295959472656250e+01,-1.301540851593017578e+00,4.030399620532989502e-01,-6.667316436767578125e+01,-1.826874694824218750e+02,-2.342603921890258789e+00,7.562255859375000000e+01,3.135598182678222656e+01
7.153700292110443115e-02,1.000000000000000000e+00,-3.430013656616210938e+01,4.938027572631835938e+01,3.007493782043457031e+01,1.101245956420898438e+02,9.639295959472656250e+01,-1.301540851593017578e+00,4.030399620532989502e-01,-6.667316436767578125e+01,-1.826874694824218750e+02,-2.342603921890258789e+00,7.562255859375000000e+01,3.135598182678222656e+01
7.489100098609924316e-02,1.000000000000000000e+00,-3.430013656616210938e+01,4.938027572631835938e+01,3.007493782043457031e+01,1.101245956420898438e+02,9.639295959472656250e+01,-1.301540851593017578e+00,4.030399620532989502e-01,-6.667316436767578125e+01,-1.826874694824218750e+02,-2.342603921890258789e+00,7.562255859375000000e+01,3.135598182678222656e+01
7.624100148677825928e-02,1.000000000000000000e+00,-3.430266571044921875e+01,4.937710571289062500e+01,3.007497978210449219e+01,1.101245956420898438e+02,9.639311218261718750e+01,-1.301744341850280762e+00,4.030399620532989502e-01,-6.667316436767578125e+01,-1.826874694824218750e+02,-2.342603921890258789e+00,7.562255859375000000e+01,3.135598182678222656e+01
7.886599749326705933e-02,1.000000000000000000e+00,-3.430550765991210938e+01,4.937235260009765625e+01,3.007497978210449219e+01,1.101245956420898438e+02,9.639322662353515625e+01,-1.301676511764526367e+00,4.030399620532989502e-01,-6.667316436767578125e+01,-1.826873016357421875e+02,-2.342532396316528320e+00,7.562255859375000000e+01,3.135598182678222656e+01
8.322499692440032959e-02,1.000000000000000000e+00,-3.430906677246093750e+01,4.936547470092773438e+01,3.007508277893066406e+01,1.101238555908203125e+02,9.639332580566406250e+01,-1.301676511764526367e+00,4.030399620532989502e-01,-6.667316436767578125e+01,-1.826874694824218750e+02,-2.342532396316528320e+00,7.562255859375000000e+01,3.135598182678222656e+01
8.654399961233139038e-02,1.000000000000000000e+00,-3.431320190429687500e+01,4.935678482055664062e+01,3.007538604736328125e+01,1.101221160888671875e+02,9.639369964599609375e+01,-1.301880002021789551e+00,4.030399620532989502e-01,-6.667316436767578125e+01,-1.826874694824218750e+02,-2.342532396316528320e+00,7.562241363525390625e+01,3.135598182678222656e+01
8.792400360107421875e-02,1.000000000000000000e+00,-3.431320190429687500e+01,4.935678482055664062e+01,3.007538604736328125e+01,1.101221160888671875e+02,9.639369964599609375e+01,-1.301880002021789551e+00,4.030399620532989502e-01,-6.667316436767578125e+01,-1.826874694824218750e+02,-2.342532396316528320e+00,7.562241363525390625e+01,3.135598182678222656e+01
9.044399857521057129e-02,1.000000000000000000e+00,-3.431822586059570312e+01,4.934628295898437500e+01,3.007599639892578125e+01,1.101184310913085938e+02,9.639444732666015625e+01,-1.302625894546508789e+00,4.030399620532989502e-01,-6.667316436767578125e+01,-1.826874694824218750e+02,-2.342532396316528320e+00,7.562255859375000000e+01,3.135598182678222656e+01
9.557799994945526123e-02,1.000000000000000000e+00,-3.432402420043945312e+01,4.933378982543945312e+01,3.007703590393066406e+01,1.101130599975585938e+02,9.639556884765625000e+01,-1.303778886795043945e+00,4.030399620532989502e-01,-6.667316436767578125e+01,-1.826874694824218750e+02,-2.342603921890258789e+00,7.562241363525390625e+01,3.135598182678222656e+01
9.695500135421752930e-02,1.000000000000000000e+00,-3.432402420043945312e+01,4.933378982543945312e+01,3.007703590393066406e+01,1.101130599975585938e+02,9.639556884765625000e+01,-1.303778886795043945e+00,4.030399620532989502e-01,-6.667316436767578125e+01,-1.826874694824218750e+02,-2.342603921890258789e+00,7.562241363525390625e+01,3.135598182678222656e+01
1.001499965786933899e-01,1.000000000000000000e+00,-3.433108139038085938e+01,4.931910705566406250e+01,3.007874298095703125e+01,1.101057357788085938e+02,9.639721679687500000e+01,-1.306491494178771973e+00,4.030399620532989502e-01,-6.667316436767578125e+01,-1.826873016357421875e+02,-2.342532396316528320e+00,7.562255859375000000e+01,3.135598182678222656e+01
1.038990020751953125e-01,1.000000000000000000e+00,-3.433958053588867188e+01,4.930167770385742188e+01,3.008105850219726562e+01,1.100964126586914062e+02,9.639978027343750000e+01,-1.309950113296508789e+00,4.030399620532989502e-01,-6.667316436767578125e+01,-1.826874694824218750e+02,-2.342532396316528320e+00,7.562255859375000000e+01,3.135598182678222656e+01
1.104039996862411499e-01,1.000000000000000000e+00,-3.436096954345703125e+01,4.925909042358398438e+01,3.008817481994628906e+01,1.100691833496093750e+02,9.640634155273437500e+01,-1.318766355514526367e+00,4.030399620532989502e-01,-6.667316436767578125e+01,-1.826873016357421875e+02,-2.342532396316528320e+00,7.562241363525390625e+01,3.135598182678222656e+01
1.119019985198974609e-01,1.000000000000000000e+00,-3.436096954345703125e+01,4.925909042358398438e+01,3.008817481994628906e+01,1.100691833496093750e+02,9.640634155273437500e+01,-1.318766355514526367e+00,4.030399620532989502e-01,-6.667316436767578125e+01,-1.826873016357421875e+02,-2.342532396316528320e+00,7.562241363525390625e+01,3.135598182678222656e+01
1.158669963479042053e-01,1.000000000000000000e+00,-3.436096954345703125e+01,4.925909042358398438e+01,3.008817481994628906e+01,1.100691833496093750e+02,9.640634155273437500e+01,-1.318766355514526367e+00,4.030399620532989502e-01,-6.667316436767578125e+01,-1.826873016357421875e+02,-2.342532396316528320e+00,7.562241363525390625e+01,3.135598182678222656e+01
1.208800002932548523e-01,1.000000000000000000e+00,-3.437385559082031250e+01,4.923392868041992188e+01,3.009291267395019531e+01,1.100502166748046875e+02,9.641097259521484375e+01,-1.324869871139526367e+00,4.030399620532989502e-01,-6.667316436767578125e+01,-1.826874694824218750e+02,-2.342532396316528320e+00,7.562270355224609375e+01,3.135598182678222656e+01
1.242979988455772400e-01,1.000000000000000000e+00,-3.440454483032226562e+01,4.917411422729492188e+01,3.010645294189453125e+01,1.100000762939453125e+02,9.642313385009765625e+01,-1.340942502021789551e+00,4.030399620532989502e-01,-6.667308044433593750e+01,-1.826874694824218750e+02,-2.342532396316528320e+00,7.562255859375000000e+01,3.135598182678222656e+01
1.278080046176910400e-01,1.000000000000000000e+00,-3.442159652709960938e+01,4.913899230957031250e+01,3.011501502990722656e+01,1.099686279296875000e+02,9.643065643310546875e+01,-1.350911498069763184e+00,4.030399620532989502e-01,-6.667316436767578125e+01,-1.826874694824218750e+02,-2.342603921890258789e+00,7.562241363525390625e+01,3.135598182678222656e+01
1.326020061969757080e-01,1.000000000000000000e+00,-3.442159652709960938e+01,4.913899230957031250e+01,3.011501502990722656e+01,1.099686279296875000e+02,9.643065643310546875e+01,-1.350911498069763184e+00,4.030399620532989502e-01,-6.667316436767578125e+01,-1.826874694824218750e+02,-2.342603921890258789e+00,7.562241363525390625e+01,3.135598182678222656e+01
1.358560025691986084e-01,1.000000000000000000e+00,-3.446201705932617188e+01,4.905852127075195312e+01,3.013599777221679688e+01,1.098959884643554688e+02,9.644888305664062500e+01,-1.375732421875000000e+00,4.030399620532989502e-01,-6.667316436767578125e+01,-1.826874694824218750e+02,-2.342532396316528320e+00,7.562255859375000000e+01,3.135598182678222656e+01
1.398500055074691772e-01,1.000000000000000000e+00,-3.446201705932617188e+01,4.905852127075195312e+01,3.013599777221679688e+01,1.098959884643554688e+02,9.644888305664062500e+01,-1.375732421875000000e+00,4.030399620532989502e-01,-6.667316436767578125e+01,-1.826874694824218750e+02,-2.342532396316528320e+00,7.562255859375000000e+01,3.135598182678222656e+01
1.438580006361007690e-01,1.000000000000000000e+00,-3.448466491699218750e+01,4.901325988769531250e+01,3.014868354797363281e+01,1.098522186279296875e+02,9.645949554443359375e+01,-1.389770627021789551e+00,4.030399620532989502e-01,-6.667316436767578125e+01,-1.826874694824218750e+02,-2.342532396316528320e+00,7.562255859375000000e+01,3.135598182678222656e+01
1.478749960660934448e-01,1.000000000000000000e+00,-3.450878143310546875e+01,4.896483612060546875e+01,3.016263198852539062e+01,1.098032836914062500e+02,9.647128295898437500e+01,-1.405775308609008789e+00,4.030399620532989502e-01,-6.667316436767578125e+01,-1.826874694824218750e+02,-2.342532396316528320e+00,7.562255859375000000e+01,3.135598182678222656e+01
1.518609970808029175e-01,1.000000000000000000e+00,-3.453412628173828125e+01,4.891353225708007812e+01,3.017759704589843750e+01,1.097519760131835938e+02,9.648391723632812500e+01,-1.423339962959289551e+00,4.030399620532989502e-01,-6.667308044433593750e+01,-1.826875762939453125e+02,-2.342603921890258789e+00,7.562255859375000000e+01,3.135598182678222656e+01
1.565590053796768188e-01,1.000000000000000000e+00,-3.456102371215820312e+01,4.885953521728515625e+01,3.019357490539550781e+01,1.096976699829101562e+02,9.649691772460937500e+01,-1.441989541053771973e+00,4.030399620532989502e-01,-6.667316436767578125e+01,-1.826874694824218750e+02,-2.342603921890258789e+00,7.562255859375000000e+01,3.135598182678222656e+01
1.598529964685440063e-01,1.000000000000000000e+00,-3.461915588378906250e+01,4.874355697631835938e+01,3.022803688049316406e+01,1.095793151855468750e+02,9.652469635009765625e+01,-1.482747435569763184e+00,4.030399620532989502e-01,-6.667316436767578125e+01,-1.826874694824218750e+02,-2.342532396316528320e+00,7.562255859375000000e+01,3.135598182678222656e+01
1.638520061969757080e-01,1.000000000000000000e+00,-3.461915588378906250e+01,4.874355697631835938e+01,3.022803688049316406e+01,1.095793151855468750e+02,9.652469635009765625e+01,-1.482747435569763184e+00,4.030399620532989502e-01,-6.667316436767578125e+01,-1.826874694824218750e+02,-2.342532396316528320e+00,7.562255859375000000e+01,3.135598182678222656e+01
1.679369956254959106e-01,1.000000000000000000e+00,-3.465030670166015625e+01,4.868162155151367188e+01,3.024631881713867188e+01,1.095158996582031250e+02,9.653947448730468750e+01,-1.504448890686035156e+00,4.030399620532989502e-01,-6.667308044433593750e+01,-1.826874694824218750e+02,-2.342532396316528320e+00,7.562255859375000000e+01,3.135598182678222656e+01
1.718769967555999756e-01,1.000000000000000000e+00,-3.468271255493164062e+01,4.861755371093750000e+01,3.026498222351074219e+01,1.094509963989257812e+02,9.655471801757812500e+01,-1.526014685630798340e+00,4.030399620532989502e-01,-6.667308044433593750e+01,-1.826875762939453125e+02,-2.342532396316528320e+00,7.562255859375000000e+01,3.135598182678222656e+01
1.759350001811981201e-01,1.000000000000000000e+00,-3.471632766723632812e+01,4.855126953125000000e+01,3.028415489196777344e+01,1.093839416503906250e+02,9.657028198242187500e+01,-1.548190712928771973e+00,4.030399620532989502e-01,-6.667308044433593750e+01,-1.826874694824218750e+02,-2.342603921890258789e+00,7.562255859375000000e+01,3.135598182678222656e+01
1.805489957332611084e-01,1.000000000000000000e+00,-3.475091934204101562e+01,4.848313140869140625e+01,3.030363082885742188e+01,1.093166275024414062e+02,9.658676147460937500e+01,-1.571112751960754395e+00,4.030399620532989502e-01,-6.667326354980468750e+01,-1.826874694824218750e+02,-2.342532396316528320e+00,7.562270355224609375e+01,3.135598182678222656e+01
1.838449984788894653e-01,1.000000000000000000e+00,-3.482225799560546875e+01,4.834142303466796875e+01,3.034370613098144531e+01,1.091791992187500000e+02,9.662114715576171875e+01,-1.617296099662780762e+00,4.030399620532989502e-01,-6.667316436767578125e+01,-1.826873016357421875e+02,-2.342532396316528320e+00,7.562255859375000000e+01,3.135598182678222656e+01
1.879130005836486816e-01,1.000000000000000000e+00,-3.482225799560546875e+01,4.834142303466796875e+01,3.034370613098144531e+01,1.091791992187500000e+02,9.662114715576171875e+01,-1.617296099662780762e+00,4.030399620532989502e-01,-6.667316436767578125e+01,-1.826873016357421875e+02,-2.342532396316528320e+00,7.562255859375000000e+01,3.135598182678222656e+01
1.918569952249526978e-01,1.000000000000000000e+00,-3.485917663574218750e+01,4.826792144775390625e+01,3.036373329162597656e+01,1.091089324951171875e+02,9.663847351074218750e+01,-1.641845822334289551e+00,4.030399620532989502e-01,-6.667316436767578125e+01,-1.826874694824218750e+02,-2.342532396316528320e+00,7.562255859375000000e+01,3.135598182678222656e+01
1.959030032157897949e-01,1.000000000000000000e+00,-3.489680862426757812e+01,4.819335937500000000e+01,3.038375854492187500e+01,1.090390319824218750e+02,9.665522003173828125e+01,-1.666124224662780762e+00,4.030399620532989502e-01,-6.667316436767578125e+01,-1.826874694824218750e+02,-2.342532396316528320e+00,7.562270355224609375e+01,3.135598182678222656e+01
1.998749971389770508e-01,1.000000000000000000e+00,-3.493556594848632812e+01,4.811788558959960938e+01,3.040374755859375000e+01,1.089692993164062500e+02,9.667174530029296875e+01,-1.689656734466552734e+00,4.030399620532989502e-01,-6.667316436767578125e+01,-1.826873016357421875e+02,-2.342532396316528320e+00,7.562255859375000000e+01,3.135598182678222656e+01
2.045409977436065674e-01,1.000000000000000000e+00,-3.497483444213867188e+01,4.804196166992187500e+01,3.042387580871582031e+01,1.088992919921875000e+02,9.668843078613281250e+01,-1.713324666023254395e+00,4.030399620532989502e-01,-6.667316436767578125e+01,-1.826874694824218750e+02,-2.342603921890258789e+00,7.562241363525390625e+01,3.135598182678222656e+01
2.088720053434371948e-01,1.000000000000000000e+00,-3.501430511474609375e+01,4.796542739868164062e+01,3.044406318664550781e+01,1.088288650512695312e+02,9.670516967773437500e+01,-1.735907793045043945e+00,4.030399620532989502e-01,-6.667316436767578125e+01,-1.826874694824218750e+02,-2.342460393905639648e+00,7.562255859375000000e+01,3.135598182678222656e+01
2.115339934825897217e-01,1.000000000000000000e+00,-3.509385299682617188e+01,4.781199645996093750e+01,3.048438072204589844e+01,1.086883316040039062e+02,9.673946380615234375e+01,-1.783447384834289551e+00,4.030399620532989502e-01,-6.667316436767578125e+01,-1.826874694824218750e+02,-2.342603921890258789e+00,7.562270355224609375e+01,3.135598182678222656e+01
2.158460021018981934e-01,1.000000000000000000e+00,-3.509385299682617188e+01,4.781199645996093750e+01,3.048438072204589844e+01,1.086883316040039062e+02,9.673946380615234375e+01,-1.783447384834289551e+00,4.030399620532989502e-01,-6.667316436767578125e+01,-1.826874694824218750e+02,-2.342603921890258789e+00,7.562270355224609375e+01,3.135598182678222656e+01
2.200610041618347168e-01,1.000000000000000000e+00,-3.513389968872070312e+01,4.773476028442382812e+01,3.050436592102050781e+01,1.086178054809570312e+02,9.675720977783203125e+01,-1.807725667953491211e+00,4.030399620532989502e-01,-6.667316436767578125e+01,-1.826874694824218750e+02,-2.342532396316528320e+00,7.562255859375000000e+01,3.135598182678222656e+01
2.233510017395019531e-01,1.000000000000000000e+00,-3.517397308349609375e+01,4.765752410888671875e+01,3.052433395385742188e+01,1.085475845336914062e+02,9.677501678466796875e+01,-1.832004189491271973e+00,4.030399620532989502e-01,-6.667308044433593750e+01,-1.826874694824218750e+02,-2.342603921890258789e+00,7.562255859375000000e+01,3.135598182678222656e+01
2.292079925537109375e-01,1.000000000000000000e+00,-3.521390533447265625e+01,4.758022308349609375e+01,3.054452514648437500e+01,1.084763183593750000e+02,9.679240417480468750e+01,-1.856485962867736816e+00,4.030399620532989502e-01,-6.667316436767578125e+01,-1.826874694824218750e+02,-2.342532396316528320e+00,7.562255859375000000e+01,3.135598182678222656e+01
2.320290058851242065e-01,1.000000000000000000e+00,-3.529391098022460938e+01,4.742620086669921875e+01,3.058549118041992188e+01,1.083351516723632812e+02,9.682572937011718750e+01,-1.904364824295043945e+00,4.030399620532989502e-01,-6.667316436767578125e+01,-1.826874694824218750e+02,-2.342532396316528320e+00,7.562241363525390625e+01,3.135619926452636719e+01
2.354689985513687134e-01,1.000000000000000000e+00,-3.529391098022460938e+01,4.742620086669921875e+01,3.058549118041992188e+01,1.083351516723632812e+02,9.682572937011718750e+01,-1.904364824295043945e+00,4.030399620532989502e-01,-6.667316436767578125e+01,-1.826874694824218750e+02,-2.342532396316528320e+00,7.562241363525390625e+01,3.135619926452636719e+01
2.398499995470046997e-01,1.000000000000000000e+00,-3.533372497558593750e+01,4.734975814819335938e+01,3.060586357116699219e+01,1.082649383544921875e+02,9.684288787841796875e+01,-1.927965044975280762e+00,4.030399620532989502e-01,-6.667308044433593750e+01,-1.826874694824218750e+02,-2.342532396316528320e+00,7.562255859375000000e+01,3.135598182678222656e+01
2.440270036458969116e-01,1.000000000000000000e+00,-3.537334060668945312e+01,4.727328872680664062e+01,3.062609481811523438e+01,1.081942443847656250e+02,9.685984802246093750e+01,-1.950955033302307129e+00,4.030399620532989502e-01,-6.667316436767578125e+01,-1.826874694824218750e+02,-2.342532396316528320e+00,7.562255859375000000e+01,3.135598182678222656e+01
2.476889938116073608e-01,1.000000000000000000e+00,-3.541327285766601562e+01,4.719657516479492188e+01,3.064636611938476562e+01,1.081236114501953125e+02,9.687696075439453125e+01,-1.974961996078491211e+00,4.030399620532989502e-01,-6.667316436767578125e+01,-1.826874694824218750e+02,-2.342603921890258789e+00,7.562255859375000000e+01,3.135598182678222656e+01
2.518930137157440186e-01,1.000000000000000000e+00,-3.545288848876953125e+01,4.711956787109375000e+01,3.066686058044433594e+01,1.080526123046875000e+02,9.689445495605468750e+01,-1.999104857444763184e+00,4.030399620532989502e-01,-6.667316436767578125e+01,-1.826874694824218750e+02,-2.342603921890258789e+00,7.562255859375000000e+01,3.135598182678222656e+01
2.558900117874145508e-01,1.000000000000000000e+00,-3.549253082275390625e+01,4.704237365722656250e+01,3.068743515014648438e+01,1.079819183349609375e+02,9.691278839111328125e+01,-2.023926019668579102e+00,4.030399620532989502e-01,-6.667316436767578125e+01,-1.826874694824218750e+02,-2.342532396316528320e+00,7.562255859375000000e+01,3.135598182678222656e+01
2.598910033702850342e-01,1.000000000000000000e+00,-3.553217697143554688e+01,4.696518707275390625e+01,3.070782661437988281e+01,1.079110717773437500e+02,9.693064880371093750e+01,-2.048407793045043945e+00,4.030399620532989502e-01,-6.667316436767578125e+01,-1.826875762939453125e+02,-2.342532396316528320e+00,7.562255859375000000e+01,3.135598182678222656e+01
2.638629972934722900e-01,1.000000000000000000e+00,-3.557179260253906250e+01,4.688781356811523438e+01,3.072824287414550781e+01,1.078402786254882812e+02,9.694765472412109375e+01,-2.072211503982543945e+00,4.030399620532989502e-01,-6.667326354980468750e+01,-1.826874694824218750e+02,-2.342532396316528320e+00,7.562241363525390625e+01,3.135619926452636719e+01
2.684719860553741455e-01,1.000000000000000000e+00,-3.561100387573242188e+01,4.681048583984375000e+01,3.074859428405761719e+01,1.077692718505859375e+02,9.696418762207031250e+01,-2.095675945281982422e+00,4.030399620532989502e-01,-6.667316436767578125e+01,-1.826874694824218750e+02,-2.342532396316528320e+00,7.562255859375000000e+01,3.135598182678222656e+01
2.719160020351409912e-01,1.000000000000000000e+00,-3.564995956420898438e+01,4.673338699340820312e+01,3.076908683776855469e+01,1.076983184814453125e+02,9.698108673095703125e+01,-2.119479894638061523e+00,4.030399620532989502e-01,-6.667316436767578125e+01,-1.826874694824218750e+02,-2.342603921890258789e+00,7.562255859375000000e+01,3.135598182678222656e+01
2.758499979972839355e-01,1.000000000000000000e+00,-3.568911743164062500e+01,4.665626525878906250e+01,3.078976631164550781e+01,1.076268997192382812e+02,9.699825286865234375e+01,-2.143419027328491211e+00,4.030399620532989502e-01,-6.667316436767578125e+01,-1.826874694824218750e+02,-2.342603921890258789e+00,7.562255859375000000e+01,3.135598182678222656e+01
2.798950076103210449e-01,1.000000000000000000e+00,-3.572847366333007812e+01,4.657923507690429688e+01,3.081019783020019531e+01,1.075563125610351562e+02,9.701537322998046875e+01,-2.167155027389526367e+00,4.028751850128173828e-01,-6.667316436767578125e+01,-1.826874694824218750e+02,-2.342603921890258789e+00,7.562255859375000000e+01,3.135598182678222656e+01
2.838940024375915527e-01,1.000000000000000000e+00,-3.576768493652343750e+01,4.650181579589843750e+01,3.083059310913085938e+01,1.074846801757812500e+02,9.703264617919921875e+01,-2.191772460937500000e+00,4.030399620532989502e-01,-6.667316436767578125e+01,-1.826874694824218750e+02,-2.342532396316528320e+00,7.562255859375000000e+01,3.135598182678222656e+01
2.878929972648620605e-01,1.000000000000000000e+00,-3.580658340454101562e+01,4.642435073852539062e+01,3.085094451904296875e+01,1.074139862060546875e+02,9.705072021484375000e+01,-2.216322422027587891e+00,4.030399620532989502e-01,-6.667316436767578125e+01,-1.826874694824218750e+02,-2.342603921890258789e+00,7.562270355224609375e+01,3.135598182678222656e+01
2.923960089683532715e-01,1.000000000000000000e+00,-3.584551239013671875e+01,4.634684753417968750e+01,3.087121582031250000e+01,1.073424530029296875e+02,9.706890106201171875e+01,-2.241007566452026367e+00,4.030399620532989502e-01,-6.667316436767578125e+01,-1.826874694824218750e+02,-2.342532396316528320e+00,7.562255859375000000e+01,3.135598182678222656e+01
2.959649860858917236e-01,1.000000000000000000e+00,-3.588438034057617188e+01,4.626890563964843750e+01,3.089184951782226562e+01,1.072718276977539062e+02,9.708628082275390625e+01,-2.265150308609008789e+00,4.030399620532989502e-01,-6.667316436767578125e+01,-1.826874694824218750e+02,-2.342532396316528320e+00,7.562255859375000000e+01,3.135598182678222656e+01
2.999109923839569092e-01,1.000000000000000000e+00,-3.592362213134765625e+01,4.619087982177734375e+01,3.091265106201171875e+01,1.071999740600585938e+02,9.710296630859375000e+01,-2.288547039031982422e+00,4.030399620532989502e-01,-6.667308044433593750e+01,-1.826874694824218750e+02,-2.342532396316528320e+00,7.562255859375000000e+01,3.135598182678222656e+01
3.039520084857940674e-01,1.000000000000000000e+00,-3.596274948120117188e+01,4.611267089843750000e+01,3.093328857421875000e+01,1.071291275024414062e+02,9.711976623535156250e+01,-2.312011718750000000e+00,4.030399620532989502e-01,-6.667316436767578125e+01,-1.826874694824218750e+02,-2.342532396316528320e+00,7.562255859375000000e+01,3.135598182678222656e+01
3.081099987030029297e-01,1.000000000000000000e+00,-3.600196456909179688e+01,4.603462219238281250e+01,3.095394325256347656e+01,1.070575942993164062e+02,9.713713836669921875e+01,-2.336290121078491211e+00,4.030399620532989502e-01,-6.667316436767578125e+01,-1.826874694824218750e+02,-2.342532396316528320e+00,7.562255859375000000e+01,3.135598182678222656e+01
3.120769858360290527e-01,1.000000000000000000e+00,-3.604114913940429688e+01,4.595661544799804688e+01,3.097443962097167969e+01,1.069865875244140625e+02,9.715415191650390625e+01,-2.360772132873535156e+00,4.030399620532989502e-01,-6.667316436767578125e+01,-1.826874694824218750e+02,-2.342532396316528320e+00,7.562255859375000000e+01,3.135619926452636719e+01
3.167900145053863525e-01,1.000000000000000000e+00,-3.608042144775390625e+01,4.587872314453125000e+01,3.099491310119628906e+01,1.069146423339843750e+02,9.717147827148437500e+01,-2.385186195373535156e+00,4.030399620532989502e-01,-6.667316436767578125e+01,-1.826874694824218750e+02,-2.342532396316528320e+00,7.562270355224609375e+01,3.135598182678222656e+01
3.200989961624145508e-01,1.000000000000000000e+00,-3.611980819702148438e+01,4.580083084106445312e+01,3.101551055908203125e+01,1.068437423706054688e+02,9.718944549560546875e+01,-2.409939289093017578e+00,4.030399620532989502e-01,-6.667316436767578125e+01,-1.826874694824218750e+02,-2.342532396316528320e+00,7.562255859375000000e+01,3.135598182678222656e+01
3.238109946250915527e-01,1.000000000000000000e+00,-3.615938949584960938e+01,4.572270965576171875e+01,3.103598403930664062e+01,1.067715759277343750e+02,9.720768737792968750e+01,-2.434421062469482422e+00,4.030399620532989502e-01,-6.667316436767578125e+01,-1.826874694824218750e+02,-2.342532396316528320e+00,7.562241363525390625e+01,3.135598182678222656e+01
3.280630111694335938e-01,1.000000000000000000e+00,-3.619915390014648438e+01,4.564445877075195312e+01,3.105639648437500000e+01,1.067007827758789062e+02,9.722543334960937500e+01,-2.458157062530517578e+00,4.030399620532989502e-01,-6.667316436767578125e+01,-1.826874694824218750e+02,-2.342532396316528320e+00,7.562255859375000000e+01,3.135598182678222656e+01
3.308269977569580078e-01,1.000000000000000000e+00,-3.623885345458984375e+01,4.556595611572265625e+01,3.107697105407714844e+01,1.066287307739257812e+02,9.724250030517578125e+01,-2.481757402420043945e+00,4.030399620532989502e-01,-6.667316436767578125e+01,-1.826874694824218750e+02,-2.342603921890258789e+00,7.562255859375000000e+01,3.135598182678222656e+01
3.348219990730285645e-01,1.000000000000000000e+00,-3.627867126464843750e+01,4.548783874511718750e+01,3.109771156311035156e+01,1.065570831298828125e+02,9.725934600830078125e+01,-2.505696773529052734e+00,4.030399620532989502e-01,-6.667316436767578125e+01,-1.826875762939453125e+02,-2.342532396316528320e+00,7.562255859375000000e+01,3.135598182678222656e+01
3.388080000877380371e-01,1.000000000000000000e+00,-3.631874084472656250e+01,4.540933609008789062e+01,3.111844825744628906e+01,1.064853515625000000e+02,9.727629852294921875e+01,-2.529296875000000000e+00,4.030399620532989502e-01,-6.667316436767578125e+01,-1.826874694824218750e+02,-2.342532396316528320e+00,7.562255859375000000e+01,3.135598182678222656e+01
3.442780077457427979e-01,1.000000000000000000e+00,-3.635893630981445312e+01,4.533067321777343750e+01,3.113916778564453125e+01,1.064140243530273438e+02,9.729341888427734375e+01,-2.553982257843017578e+00,4.030399620532989502e-01,-6.667316436767578125e+01,-1.826874694824218750e+02,-2.342603921890258789e+00,7.562255859375000000e+01,3.135598182678222656e+01
3.467850089073181152e-01,1.000000000000000000e+00,-3.639923477172851562e+01,4.525239562988281250e+01,3.115980529785156250e+01,1.063422851562500000e+02,9.731057739257812500e+01,-2.578531980514526367e+00,4.030399620532989502e-01,-6.667316436767578125e+01,-1.826874694824218750e+02,-2.342532396316528320e+00,7.562255859375000000e+01,3.135598182678222656e+01
3.522740006446838379e-01,1.000000000000000000e+00,-3.643954086303710938e+01,4.517398452758789062e+01,3.118023681640625000e+01,1.062703781127929688e+02,9.732833099365234375e+01,-2.603081703186035156e+00,4.030399620532989502e-01,-6.667316436767578125e+01,-1.826874694824218750e+02,-2.342460393905639648e+00,7.562255859375000000e+01,3.135598182678222656e+01
3.548269867897033691e-01,1.000000000000000000e+00,-3.647996139526367188e+01,4.509577560424804688e+01,3.120081329345703125e+01,1.061984786987304688e+02,9.734646606445312500e+01,-2.627495765686035156e+00,4.030399620532989502e-01,-6.667316436767578125e+01,-1.826874694824218750e+02,-2.342603921890258789e+00,7.562255859375000000e+01,3.135598182678222656e+01
3.587839901447296143e-01,1.000000000000000000e+00,-3.652058029174804688e+01,4.501722335815429688e+01,3.122161102294921875e+01,1.061271133422851562e+02,9.736454010009765625e+01,-2.651095867156982422e+00,4.030399620532989502e-01,-6.667316436767578125e+01,-1.826874694824218750e+02,-2.342532396316528320e+00,7.562255859375000000e+01,3.135598182678222656e+01
3.628129959106445312e-01,1.000000000000000000e+00,-3.656105804443359375e+01,4.493901443481445312e+01,3.124239158630371094e+01,1.060550003051757812e+02,9.738202667236328125e+01,-2.674831867218017578e+00,4.030399620532989502e-01,-6.667316436767578125e+01,-1.826874694824218750e+02,-2.342603921890258789e+00,7.562255859375000000e+01,3.135598182678222656e+01
3.685980141162872314e-01,1.000000000000000000e+00,-3.660173416137695312e+01,4.486071777343750000e+01,3.126321029663085938e+01,1.059831542968750000e+02,9.739881896972656250e+01,-2.699042558670043945e+00,4.030399620532989502e-01,-6.667316436767578125e+01,-1.826874694824218750e+02,-2.342532396316528320e+00,7.562255859375000000e+01,3.135598182678222656e+01
3.724040091037750244e-01,1.000000000000000000e+00,-3.664255523681640625e+01,4.478200912475585938e+01,3.128401184082031250e+01,1.059102554321289062e+02,9.741582489013671875e+01,-2.722981929779052734e+00,4.030399620532989502e-01,-6.667326354980468750e+01,-1.826874694824218750e+02,-2.342460393905639648e+00,7.562255859375000000e+01,3.135598182678222656e+01
3.748129904270172119e-01,1.000000000000000000e+00,-3.668314743041992188e+01,4.470316696166992188e+01,3.130467033386230469e+01,1.058390884399414062e+02,9.743309783935546875e+01,-2.747531652450561523e+00,4.030399620532989502e-01,-6.667316436767578125e+01,-1.826874694824218750e+02,-2.342603921890258789e+00,7.562255859375000000e+01,3.135598182678222656e+01
3.806099891662597656e-01,1.000000000000000000e+00,-3.672373962402343750e+01,4.462403106689453125e+01,3.132550811767578125e+01,1.057667160034179688e+02,9.745043182373046875e+01,-2.772759437561035156e+00,4.030399620532989502e-01,-6.667308044433593750e+01,-1.826874694824218750e+02,-2.342532396316528320e+00,7.562241363525390625e+01,3.135598182678222656e+01
3.845469951629638672e-01,1.000000000000000000e+00,-3.676438903808593750e+01,4.454514312744140625e+01,3.134638786315917969e+01,1.056951293945312500e+02,9.746791076660156250e+01,-2.797173261642456055e+00,4.030399620532989502e-01,-6.667316436767578125e+01,-1.826874694824218750e+02,-2.342603921890258789e+00,7.562241363525390625e+01,3.135598182678222656e+01
3.892570137977600098e-01,1.000000000000000000e+00,-3.680500793457031250e+01,4.446625137329101562e+01,3.136710739135742188e+01,1.056225967407226562e+02,9.748599243164062500e+01,-2.821112871170043945e+00,4.030399620532989502e-01,-6.667316436767578125e+01,-1.826874694824218750e+02,-2.342532396316528320e+00,7.562255859375000000e+01,3.135598182678222656e+01
3.907769918441772461e-01,1.000000000000000000e+00,-3.684574127197265625e+01,4.438763809204101562e+01,3.138772583007812500e+01,1.055508575439453125e+02,9.750444030761718750e+01,-2.844306230545043945e+00,4.030399620532989502e-01,-6.667316436767578125e+01,-1.826874694824218750e+02,-2.342532396316528320e+00,7.562255859375000000e+01,3.135598182678222656e+01
3.948299884796142578e-01,1.000000000000000000e+00,-3.688627624511718750e+01,4.430924606323242188e+01,3.140846061706542969e+01,1.054786911010742188e+02,9.752214050292968750e+01,-2.868245601654052734e+00,4.030399620532989502e-01,-6.667316436767578125e+01,-1.826873016357421875e+02,-2.342532396316528320e+00,7.562255859375000000e+01,3.135598182678222656e+01
4.005059897899627686e-01,1.000000000000000000e+00,-3.692684173583984375e+01,4.423060989379882812e+01,3.142932128906250000e+01,1.054067916870117188e+02,9.753914642333984375e+01,-2.892524003982543945e+00,4.030399620532989502e-01,-6.667316436767578125e+01,-1.826874694824218750e+02,-2.342532396316528320e+00,7.562255859375000000e+01,3.135576248168945312e+01
4.048370122909545898e-01,1.000000000000000000e+00,-3.696737289428710938e+01,4.415151977539062500e+01,3.145040512084960938e+01,1.053339385986328125e+02,9.755637359619140625e+01,-2.917005777359008789e+00,4.030399620532989502e-01,-6.667316436767578125e+01,-1.826874694824218750e+02,-2.342532396316528320e+00,7.562241363525390625e+01,3.135598182678222656e+01
4.088180065155029297e-01,1.000000000000000000e+00,-3.700793457031250000e+01,4.407226562500000000e+01,3.147134780883789062e+01,1.052622528076171875e+02,9.757321166992187500e+01,-2.941759109497070312e+00,4.030399620532989502e-01,-6.667316436767578125e+01,-1.826874694824218750e+02,-2.342603921890258789e+00,7.562255859375000000e+01,3.135598182678222656e+01
4.135589897632598877e-01,1.000000000000000000e+00,-3.704832458496093750e+01,4.399297332763671875e+01,3.149208641052246094e+01,1.051898803710937500e+02,9.759059906005859375e+01,-2.966918945312500000e+00,4.030399620532989502e-01,-6.667316436767578125e+01,-1.826874694824218750e+02,-2.342532396316528320e+00,7.562255859375000000e+01,3.135598182678222656e+01
4.169169962406158447e-01,1.000000000000000000e+00,-3.708880615234375000e+01,4.391331481933593750e+01,3.151290512084960938e+01,1.051177215576171875e+02,9.760819244384765625e+01,-2.991672277450561523e+00,4.030399620532989502e-01,-6.667308044433593750e+01,-1.826873016357421875e+02,-2.342603921890258789e+00,7.562255859375000000e+01,3.135598182678222656e+01
4.209110140800476074e-01,1.000000000000000000e+00,-3.712942504882812500e+01,4.383361053466796875e+01,3.153378868103027344e+01,1.050447082519531250e+02,9.762621307373046875e+01,-3.015475749969482422e+00,4.030399620532989502e-01,-6.667308044433593750e+01,-1.826874694824218750e+02,-2.342603921890258789e+00,7.562255859375000000e+01,3.135598182678222656e+01
4.247809946537017822e-01,1.000000000000000000e+00,-3.716981506347656250e+01,4.375458908081054688e+01,3.155472946166992188e+01,1.049724960327148438e+02,9.764466094970703125e+01,-3.039415121078491211e+00,4.030399620532989502e-01,-6.667316436767578125e+01,-1.826874694824218750e+02,-2.342532396316528320e+00,7.562255859375000000e+01,3.135598182678222656e+01
4.290359914302825928e-01,1.000000000000000000e+00,-3.721012115478515625e+01,4.367531585693359375e+01,3.157581520080566406e+01,1.048998565673828125e+02,9.766273498535156250e+01,-3.063422441482543945e+00,4.030399620532989502e-01,-6.667316436767578125e+01,-1.826874694824218750e+02,-2.342532396316528320e+00,7.562255859375000000e+01,3.135598182678222656e+01
4.307970106601715088e-01,1.000000000000000000e+00,-3.725030899047851562e+01,4.359635925292968750e+01,3.159657096862792969e+01,1.048278503417968750e+02,9.768016815185546875e+01,-3.087700843811035156e+00,4.030399620532989502e-01,-6.667316436767578125e+01,-1.826874694824218750e+02,-2.342532396316528320e+00,7.562255859375000000e+01,3.135598182678222656e+01
4.375309944152832031e-01,1.000000000000000000e+00,-3.729092788696289062e+01,4.351697158813476562e+01,3.161738967895507812e+01,1.047552719116210938e+02,9.769706726074218750e+01,-3.112589597702026367e+00,4.030399620532989502e-01,-6.667316436767578125e+01,-1.826874694824218750e+02,-2.342532396316528320e+00,7.562255859375000000e+01,3.135598182678222656e+01
4.411590099334716797e-01,1.000000000000000000e+00,-3.733137512207031250e+01,4.343765640258789062e+01,3.163825225830078125e+01,1.046829452514648438e+02,9.771450042724609375e+01,-3.137478351593017578e+00,4.030399620532989502e-01,-6.667316436767578125e+01,-1.826874694824218750e+02,-2.342460393905639648e+00,7.562255859375000000e+01,3.135576248168945312e+01
4.428310096263885498e-01,1.000000000000000000e+00,-3.737185287475585938e+01,4.335822677612304688e+01,3.165927696228027344e+01,1.046100997924804688e+02,9.773183441162109375e+01,-3.162435054779052734e+00,4.030399620532989502e-01,-6.667316436767578125e+01,-1.826874694824218750e+02,-2.342532396316528320e+00,7.562255859375000000e+01,3.135598182678222656e+01
4.489620029926300049e-01,1.000000000000000000e+00,-3.741224288940429688e+01,4.327856826782226562e+01,3.168039894104003906e+01,1.045377731323242188e+02,9.774958038330078125e+01,-3.186781167984008789e+00,4.030399620532989502e-01,-6.667316436767578125e+01,-1.826874694824218750e+02,-2.342532396316528320e+00,7.562255859375000000e+01,3.135598182678222656e+01
4.531530141830444336e-01,1.000000000000000000e+00,-3.745283508300781250e+01,4.319859313964843750e+01,3.170140075683593750e+01,1.044648208618164062e+02,9.776750183105468750e+01,-3.210788249969482422e+00,4.030399620532989502e-01,-6.667316436767578125e+01,-1.826874694824218750e+02,-2.342603921890258789e+00,7.562241363525390625e+01,3.135598182678222656e+01
4.548110067844390869e-01,1.000000000000000000e+00,-3.749348449707031250e+01,4.311859512329101562e+01,3.172222328186035156e+01,1.043922882080078125e+02,9.778583526611328125e+01,-3.235134601593017578e+00,4.030399620532989502e-01,-6.667316436767578125e+01,-1.826874694824218750e+02,-2.342532396316528320e+00,7.562255859375000000e+01,3.135576248168945312e+01
4.620850086212158203e-01,1.000000000000000000e+00,-3.753413391113281250e+01,4.303853225708007812e+01,3.174312400817871094e+01,1.043192825317382812e+02,9.780407714843750000e+01,-3.259413003921508789e+00,4.030399620532989502e-01,-6.667316436767578125e+01,-1.826874694824218750e+02,-2.342603921890258789e+00,7.562270355224609375e+01,3.135598182678222656e+01
4.634920060634613037e-01,1.000000000000000000e+00,-3.757481002807617188e+01,4.295891952514648438e+01,3.176420783996582031e+01,1.042466430664062500e+02,9.782183074951171875e+01,-3.284166336059570312e+00,4.030399620532989502e-01,-6.667316436767578125e+01,-1.826874694824218750e+02,-2.342532396316528320e+00,7.562255859375000000e+01,3.135598182678222656e+01
4.678559899330139160e-01,1.000000000000000000e+00,-3.761548614501953125e+01,4.287969207763671875e+01,3.178539276123046875e+01,1.041733245849609375e+02,9.783872985839843750e+01,-3.309122800827026367e+00,4.030399620532989502e-01,-6.667326354980468750e+01,-1.826874694824218750e+02,-2.342532396316528320e+00,7.562255859375000000e+01,3.135598182678222656e+01
4.708429872989654541e-01,1.000000000000000000e+00,-3.765628051757812500e+01,4.280064773559570312e+01,3.180651855468750000e+01,1.041008987426757812e+02,9.785605621337890625e+01,-3.334621906280517578e+00,4.030399620532989502e-01,-6.667316436767578125e+01,-1.826874694824218750e+02,-2.342532396316528320e+00,7.562255859375000000e+01,3.135598182678222656e+01
4.773570001125335693e-01,1.000000000000000000e+00,-3.765628051757812500e+01,4.280064773559570312e+01,3.180651855468750000e+01,1.041008987426757812e+02,9.785605621337890625e+01,-3.334621906280517578e+00,4.030399620532989502e-01,-6.667316436767578125e+01,-1.826874694824218750e+02,-2.342532396316528320e+00,7.562255859375000000e+01,3.135598182678222656e+01
4.798429906368255615e-01,1.000000000000000000e+00,-3.773772048950195312e+01,4.264153289794921875e+01,3.184819984436035156e+01,1.039547271728515625e+02,9.789087677001953125e+01,-3.383382320404052734e+00,4.030399620532989502e-01,-6.667326354980468750e+01,-1.826874694824218750e+02,-2.342603921890258789e+00,7.562255859375000000e+01,3.135576248168945312e+01
4.829069972038269043e-01,1.000000000000000000e+00,-3.777857208251953125e+01,4.256140136718750000e+01,3.186918067932128906e+01,1.038815612792968750e+02,9.790857696533203125e+01,-3.407864332199096680e+00,4.030399620532989502e-01,-6.667316436767578125e+01,-1.826874694824218750e+02,-2.342532396316528320e+00,7.562255859375000000e+01,3.135598182678222656e+01
4.898540079593658447e-01,1.000000000000000000e+00,-3.777857208251953125e+01,4.256140136718750000e+01,3.186918067932128906e+01,1.038815612792968750e+02,9.790857696533203125e+01,-3.407864332199096680e+00,4.030399620532989502e-01,-6.667316436767578125e+01,-1.826874694824218750e+02,-2.342532396316528320e+00,7.562255859375000000e+01,3.135598182678222656e+01
4.918450117111206055e-01,1.000000000000000000e+00,-3.786067199707031250e+01,4.240075302124023438e+01,3.191169548034667969e+01,1.037352905273437500e+02,9.794557952880859375e+01,-3.456624507904052734e+00,4.030399620532989502e-01,-6.667316436767578125e+01,-1.826874694824218750e+02,-2.342532396316528320e+00,7.562255859375000000e+01,3.135598182678222656e+01
4.955959916114807129e-01,1.000000000000000000e+00,-3.790163803100585938e+01,4.232034683227539062e+01,3.193294143676757812e+01,1.036629180908203125e+02,9.796305847167968750e+01,-3.481580972671508789e+00,4.030399620532989502e-01,-6.667316436767578125e+01,-1.826873016357421875e+02,-2.342603921890258789e+00,7.562255859375000000e+01,3.135598182678222656e+01
4.999510049819946289e-01,1.000000000000000000e+00,-3.794266128540039062e+01,4.224017333984375000e+01,3.195404624938964844e+01,1.035894317626953125e+02,9.798028564453125000e+01,-3.507080316543579102e+00,4.030399620532989502e-01,-6.667316436767578125e+01,-1.826873016357421875e+02,-2.342532396316528320e+00,7.562255859375000000e+01,3.135598182678222656e+01
5.027949810028076172e-01,1.000000000000000000e+00,-3.798368453979492188e+01,4.216026687622070312e+01,3.197498703002929688e+01,1.035163192749023438e+02,9.799777221679687500e+01,-3.532511472702026367e+00,4.030399620532989502e-01,-6.667316436767578125e+01,-1.826874694824218750e+02,-2.342603921890258789e+00,7.562255859375000000e+01,3.135598182678222656e+01
5.078700184822082520e-01,1.000000000000000000e+00,-3.798368453979492188e+01,4.216026687622070312e+01,3.197498703002929688e+01,1.035163192749023438e+02,9.799777221679687500e+01,-3.532511472702026367e+00,4.030399620532989502e-01,-6.667316436767578125e+01,-1.826874694824218750e+02,-2.342603921890258789e+00,7.562255859375000000e+01,3.135598182678222656e+01
5.141950249671936035e-01,1.000000000000000000e+00,-3.810660171508789062e+01,4.192034149169921875e+01,3.203832244873046875e+01,1.032957763671875000e+02,9.805076599121093750e+01,-3.605211257934570312e+00,4.030399620532989502e-01,-6.667316436767578125e+01,-1.826874694824218750e+02,-2.342603921890258789e+00,7.562255859375000000e+01,3.135598182678222656e+01
5.155770182609558105e-01,1.000000000000000000e+00,-3.810660171508789062e+01,4.192034149169921875e+01,3.203832244873046875e+01,1.032957763671875000e+02,9.805076599121093750e+01,-3.605211257934570312e+00,4.030399620532989502e-01,-6.667316436767578125e+01,-1.826874694824218750e+02,-2.342603921890258789e+00,7.562255859375000000e+01,3.135598182678222656e+01
5.197989940643310547e-01,1.000000000000000000e+00,-3.814765548706054688e+01,4.183971023559570312e+01,3.205946731567382812e+01,1.032227172851562500e+02,9.806948089599609375e+01,-3.629828453063964844e+00,4.030399620532989502e-01,-6.667316436767578125e+01,-1.826874694824218750e+02,-2.342603921890258789e+00,7.562255859375000000e+01,3.135598182678222656e+01
5.237730145454406738e-01,1.000000000000000000e+00,-3.818870544433593750e+01,4.175862884521484375e+01,3.208058929443359375e+01,1.031487121582031250e+02,9.808814239501953125e+01,-3.654446125030517578e+00,4.030399620532989502e-01,-6.667316436767578125e+01,-1.826874694824218750e+02,-2.342603921890258789e+00,7.562255859375000000e+01,3.135598182678222656e+01
5.267829895019531250e-01,1.000000000000000000e+00,-3.822990036010742188e+01,4.167741012573242188e+01,3.210192108154296875e+01,1.030753936767578125e+02,9.810617065429687500e+01,-3.679267168045043945e+00,4.030399620532989502e-01,-6.667316436767578125e+01,-1.826874694824218750e+02,-2.342603921890258789e+00,7.562255859375000000e+01,3.135598182678222656e+01
5.318490266799926758e-01,1.000000000000000000e+00,-3.822990036010742188e+01,4.167741012573242188e+01,3.210192108154296875e+01,1.030753936767578125e+02,9.810617065429687500e+01,-3.679267168045043945e+00,4.030399620532989502e-01,-6.667316436767578125e+01,-1.826874694824218750e+02,-2.342603921890258789e+00,7.562255859375000000e+01,3.135598182678222656e+01
5.358009934425354004e-01,1.000000000000000000e+00,-3.831191635131835938e+01,4.151554107666015625e+01,3.214467620849609375e+01,1.029285812377929688e+02,9.814076995849609375e+01,-3.730401039123535156e+00,4.030399620532989502e-01,-6.667308044433593750e+01,-1.826874694824218750e+02,-2.342603921890258789e+00,7.562255859375000000e+01,3.135598182678222656e+01
5.387889742851257324e-01,1.000000000000000000e+00,-3.835296630859375000e+01,4.143497848510742188e+01,3.216592407226562500e+01,1.028548431396484375e+02,9.815820312500000000e+01,-3.754815101623535156e+00,4.030399620532989502e-01,-6.667316436767578125e+01,-1.826874694824218750e+02,-2.342603921890258789e+00,7.562241363525390625e+01,3.135598182678222656e+01
5.438659787178039551e-01,1.000000000000000000e+00,-3.835296630859375000e+01,4.143497848510742188e+01,3.216592407226562500e+01,1.028548431396484375e+02,9.815820312500000000e+01,-3.754815101623535156e+00,4.030399620532989502e-01,-6.667316436767578125e+01,-1.826874694824218750e+02,-2.342603921890258789e+00,7.562241363525390625e+01,3.135598182678222656e+01
5.468140244483947754e-01,1.000000000000000000e+00,-3.843509674072265625e+01,4.127448654174804688e+01,3.220813369750976562e+01,1.027074050903320312e+02,9.819365692138671875e+01,-3.803032636642456055e+00,4.030399620532989502e-01,-6.667316436767578125e+01,-1.826874694824218750e+02,-2.342532396316528320e+00,7.562270355224609375e+01,3.135598182678222656e+01
5.518360137939453125e-01,1.000000000000000000e+00,-3.843509674072265625e+01,4.127448654174804688e+01,3.220813369750976562e+01,1.027074050903320312e+02,9.819365692138671875e+01,-3.803032636642456055e+00,4.030399620532989502e-01,-6.667316436767578125e+01,-1.826874694824218750e+02,-2.342532396316528320e+00,7.562270355224609375e+01,3.135598182678222656e+01
5.547909736633300781e-01,1.000000000000000000e+00,-3.851699829101562500e+01,4.111299896240234375e+01,3.225086975097656250e+01,1.025601272583007812e+02,9.823097229003906250e+01,-3.853217601776123047e+00,4.030399620532989502e-01,-6.667316436767578125e+01,-1.826874694824218750e+02,-2.342532396316528320e+00,7.562241363525390625e+01,3.135598182678222656e+01
5.598610043525695801e-01,1.000000000000000000e+00,-3.851699829101562500e+01,4.111299896240234375e+01,3.225086975097656250e+01,1.025601272583007812e+02,9.823097229003906250e+01,-3.853217601776123047e+00,4.030399620532989502e-01,-6.667316436767578125e+01,-1.826874694824218750e+02,-2.342532396316528320e+00,7.562241363525390625e+01,3.135598182678222656e+01
5.627809762954711914e-01,1.000000000000000000e+00,-3.859921264648437500e+01,4.095044708251953125e+01,3.229362487792968750e+01,1.024117507934570312e+02,9.826654052734375000e+01,-3.904011964797973633e+00,4.030399620532989502e-01,-6.667316436767578125e+01,-1.826874694824218750e+02,-2.342532396316528320e+00,7.562270355224609375e+01,3.135598182678222656e+01
5.679060220718383789e-01,1.000000000000000000e+00,-3.859921264648437500e+01,4.095044708251953125e+01,3.229362487792968750e+01,1.024117507934570312e+02,9.826654052734375000e+01,-3.904011964797973633e+00,4.030399620532989502e-01,-6.667316436767578125e+01,-1.826874694824218750e+02,-2.342532396316528320e+00,7.562270355224609375e+01,3.135598182678222656e+01
5.718269944190979004e-01,1.000000000000000000e+00,-3.868114089965820312e+01,4.078773880004882812e+01,3.233628463745117188e+01,1.022644653320312500e+02,9.830162048339843750e+01,-3.952772140502929688e+00,4.030399620532989502e-01,-6.667316436767578125e+01,-1.826874694824218750e+02,-2.342603921890258789e+00,7.562241363525390625e+01,3.135598182678222656e+01
5.748479962348937988e-01,1.000000000000000000e+00,-3.872242355346679688e+01,4.070687866210937500e+01,3.235781478881835938e+01,1.021900939941406250e+02,9.831942749023437500e+01,-3.977322101593017578e+00,4.030399620532989502e-01,-6.667316436767578125e+01,-1.826874694824218750e+02,-2.342603921890258789e+00,7.562270355224609375e+01,3.135619926452636719e+01
5.799779891967773438e-01,1.000000000000000000e+00,-3.872242355346679688e+01,4.070687866210937500e+01,3.235781478881835938e+01,1.021900939941406250e+02,9.831942749023437500e+01,-3.977322101593017578e+00,4.030399620532989502e-01,-6.667316436767578125e+01,-1.826874694824218750e+02,-2.342603921890258789e+00,7.562270355224609375e+01,3.135619926452636719e+01
5.837950110435485840e-01,1.000000000000000000e+00,-3.880495452880859375e+01,4.054545974731445312e+01,3.240026473999023438e+01,1.020418701171875000e+02,9.835605621337890625e+01,-4.026692867279052734e+00,4.030399620532989502e-01,-6.667316436767578125e+01,-1.826874694824218750e+02,-2.342532396316528320e+00,7.562241363525390625e+01,3.135598182678222656e+01
5.888329744338989258e-01,1.000000000000000000e+00,-3.880495452880859375e+01,4.054545974731445312e+01,3.240026473999023438e+01,1.020418701171875000e+02,9.835605621337890625e+01,-4.026692867279052734e+00,4.030399620532989502e-01,-6.667316436767578125e+01,-1.826874694824218750e+02,-2.342603921890258789e+00,7.562255859375000000e+01,3.135598182678222656e+01
5.921790003776550293e-01,1.000000000000000000e+00,-3.888757324218750000e+01,4.038368225097656250e+01,3.244304656982421875e+01,1.018938598632812500e+02,9.839348602294921875e+01,-4.078030109405517578e+00,4.030399620532989502e-01,-6.667316436767578125e+01,-1.826874694824218750e+02,-2.342603921890258789e+00,7.562255859375000000e+01,3.135598182678222656e+01
5.948439836502075195e-01,1.000000000000000000e+00,-3.892905426025390625e+01,4.030212402343750000e+01,3.246453475952148438e+01,1.018198547363281250e+02,9.841118621826171875e+01,-4.103596687316894531e+00,4.030399620532989502e-01,-6.667308044433593750e+01,-1.826874694824218750e+02,-2.342532396316528320e+00,7.562241363525390625e+01,3.135598182678222656e+01
5.998790264129638672e-01,1.000000000000000000e+00,-3.892905426025390625e+01,4.030212402343750000e+01,3.246453475952148438e+01,1.018198547363281250e+02,9.841118621826171875e+01,-4.103596687316894531e+00,4.030399620532989502e-01,-6.667308044433593750e+01,-1.826874694824218750e+02,-2.342532396316528320e+00,7.562241363525390625e+01,3.135598182678222656e+01
6.047999858856201172e-01,1.000000000000000000e+00,-3.901221847534179688e+01,4.013821411132812500e+01,3.250749588012695312e+01,1.016713638305664062e+02,9.844647979736328125e+01,-4.152221679687500000e+00,4.030399620532989502e-01,-6.667316436767578125e+01,-1.826875762939453125e+02,-2.342532396316528320e+00,7.562241363525390625e+01,3.135598182678222656e+01
6.082109808921813965e-01,1.000000000000000000e+00,-3.905392837524414062e+01,4.005640792846679688e+01,3.252878189086914062e+01,1.015964584350585938e+02,9.846428680419921875e+01,-4.177517414093017578e+00,4.030399620532989502e-01,-6.667316436767578125e+01,-1.826874694824218750e+02,-2.342532396316528320e+00,7.562255859375000000e+01,3.135598182678222656e+01
6.118440032005310059e-01,1.000000000000000000e+00,-3.909564208984375000e+01,3.997498321533203125e+01,3.255021286010742188e+01,1.015222396850585938e+02,9.848258209228515625e+01,-4.202202796936035156e+00,4.030399620532989502e-01,-6.667316436767578125e+01,-1.826874694824218750e+02,-2.342532396316528320e+00,7.562255859375000000e+01,3.135598182678222656e+01
6.168259978294372559e-01,1.000000000000000000e+00,-3.909564208984375000e+01,3.997498321533203125e+01,3.255021286010742188e+01,1.015222396850585938e+02,9.848258209228515625e+01,-4.202202796936035156e+00,4.030399620532989502e-01,-6.667316436767578125e+01,-1.826874694824218750e+02,-2.342532396316528320e+00,7.562255859375000000e+01,3.135598182678222656e+01
6.197879910469055176e-01,1.000000000000000000e+00,-3.917917633056640625e+01,3.981299972534179688e+01,3.259305572509765625e+01,1.013735427856445312e+02,9.852021789550781250e+01,-4.253336906433105469e+00,4.030399620532989502e-01,-6.667316436767578125e+01,-1.826875762939453125e+02,-2.342532396316528320e+00,7.562270355224609375e+01,3.135598182678222656e+01
6.238330006599426270e-01,1.000000000000000000e+00,-3.917917633056640625e+01,3.981299972534179688e+01,3.259305572509765625e+01,1.013735427856445312e+02,9.852021789550781250e+01,-4.253336906433105469e+00,4.030399620532989502e-01,-6.667316436767578125e+01,-1.826875762939453125e+02,-2.342532396316528320e+00,7.562270355224609375e+01,3.135598182678222656e+01
6.278960108757019043e-01,1.000000000000000000e+00,-3.922117233276367188e+01,3.973173522949218750e+01,3.261464691162109375e+01,1.012989501953125000e+02,9.853861236572265625e+01,-4.278903484344482422e+00,4.030399620532989502e-01,-6.667316436767578125e+01,-1.826874694824218750e+02,-2.342603921890258789e+00,7.562255859375000000e+01,3.135598182678222656e+01
6.318439841270446777e-01,1.000000000000000000e+00,-3.926314544677734375e+01,3.964992904663085938e+01,3.263605499267578125e+01,1.012245254516601562e+02,9.855652618408203125e+01,-4.303927898406982422e+00,4.030399620532989502e-01,-6.667316436767578125e+01,-1.826874694824218750e+02,-2.342532396316528320e+00,7.562270355224609375e+01,3.135598182678222656e+01
6.358460187911987305e-01,1.000000000000000000e+00,-3.930508422851562500e+01,3.956805419921875000e+01,3.265764999389648438e+01,1.011498336791992188e+02,9.857406616210937500e+01,-4.328206539154052734e+00,4.030399620532989502e-01,-6.667316436767578125e+01,-1.826874694824218750e+02,-2.342532396316528320e+00,7.562255859375000000e+01,3.135598182678222656e+01
6.406080126762390137e-01,1.000000000000000000e+00,-3.934716796875000000e+01,3.948579025268554688e+01,3.267927932739257812e+01,1.010753021240234375e+02,9.859214019775390625e+01,-4.353230953216552734e+00,4.030399620532989502e-01,-6.667316436767578125e+01,-1.826874694824218750e+02,-2.342532396316528320e+00,7.562255859375000000e+01,3.135619926452636719e+01
6.438580155372619629e-01,1.000000000000000000e+00,-3.943128204345703125e+01,3.932120513916015625e+01,3.272236251831054688e+01,1.009260253906250000e+02,9.862839508056640625e+01,-4.403957843780517578e+00,4.030399620532989502e-01,-6.667316436767578125e+01,-1.826874694824218750e+02,-2.342532396316528320e+00,7.562255859375000000e+01,3.135598182678222656e+01
6.478670239448547363e-01,1.000000000000000000e+00,-3.943128204345703125e+01,3.932120513916015625e+01,3.272236251831054688e+01,1.009260253906250000e+02,9.862839508056640625e+01,-4.403957843780517578e+00,4.030399620532989502e-01,-6.667316436767578125e+01,-1.826874694824218750e+02,-2.342532396316528320e+00,7.562255859375000000e+01,3.135598182678222656e+01
6.520619988441467285e-01,1.000000000000000000e+00,-3.947336578369140625e+01,3.923926162719726562e+01,3.274391555786132812e+01,1.008510742187500000e+02,9.864710998535156250e+01,-4.429389476776123047e+00,4.030399620532989502e-01,-6.667308044433593750e+01,-1.826874694824218750e+02,-2.342532396316528320e+00,7.562255859375000000e+01,3.135598182678222656e+01
6.555749773979187012e-01,1.000000000000000000e+00,-3.951547622680664062e+01,3.915784072875976562e+01,3.276550674438476562e+01,1.007761154174804688e+02,9.866641235351562500e+01,-4.455702304840087891e+00,4.030399620532989502e-01,-6.667316436767578125e+01,-1.826874694824218750e+02,-2.342532396316528320e+00,7.562255859375000000e+01,3.135619926452636719e+01
6.598439812660217285e-01,1.000000000000000000e+00,-3.955759048461914062e+01,3.907608032226562500e+01,3.278730392456054688e+01,1.007012100219726562e+02,9.868502044677734375e+01,-4.481472492218017578e+00,4.030399620532989502e-01,-6.667316436767578125e+01,-1.826874694824218750e+02,-2.342532396316528320e+00,7.562255859375000000e+01,3.135598182678222656e+01
6.645900011062622070e-01,1.000000000000000000e+00,-3.959955978393554688e+01,3.899436187744140625e+01,3.280885314941406250e+01,1.006262512207031250e+02,9.870261383056640625e+01,-4.505886554718017578e+00,4.030399620532989502e-01,-6.667316436767578125e+01,-1.826874694824218750e+02,-2.342532396316528320e+00,7.562255859375000000e+01,3.135598182678222656e+01
6.677989959716796875e-01,1.000000000000000000e+00,-3.968375778198242188e+01,3.883008956909179688e+01,3.285183715820312500e+01,1.004761352539062500e+02,9.873828125000000000e+01,-4.555935382843017578e+00,4.030399620532989502e-01,-6.667316436767578125e+01,-1.826873016357421875e+02,-2.342603921890258789e+00,7.562255859375000000e+01,3.135619926452636719e+01
6.718320250511169434e-01,1.000000000000000000e+00,-3.968375778198242188e+01,3.883008956909179688e+01,3.285183715820312500e+01,1.004761352539062500e+02,9.873828125000000000e+01,-4.555935382843017578e+00,4.030399620532989502e-01,-6.667316436767578125e+01,-1.826873016357421875e+02,-2.342603921890258789e+00,7.562255859375000000e+01,3.135619926452636719e+01
6.758620142936706543e-01,1.000000000000000000e+00,-3.972584152221679688e+01,3.874726867675781250e+01,3.287342834472656250e+01,1.004013900756835938e+02,9.875619506835937500e+01,-4.581163406372070312e+00,4.030399620532989502e-01,-6.667316436767578125e+01,-1.826874694824218750e+02,-2.342532396316528320e+00,7.562241363525390625e+01,3.135598182678222656e+01
6.798760294914245605e-01,1.000000000000000000e+00,-3.976807022094726562e+01,3.866444015502929688e+01,3.289528274536132812e+01,1.003261718750000000e+02,9.877448272705078125e+01,-4.607069492340087891e+00,4.030399620532989502e-01,-6.667308044433593750e+01,-1.826874694824218750e+02,-2.342532396316528320e+00,7.562255859375000000e+01,3.135598182678222656e+01
6.838510036468505859e-01,1.000000000000000000e+00,-3.981006622314453125e+01,3.858168411254882812e+01,3.291714096069335938e+01,1.002511596679687500e+02,9.879346466064453125e+01,-4.633111000061035156e+00,4.030399620532989502e-01,-6.667316436767578125e+01,-1.826874694824218750e+02,-2.342603921890258789e+00,7.562255859375000000e+01,3.135598182678222656e+01
6.885340213775634766e-01,1.000000000000000000e+00,-3.985209274291992188e+01,3.849930953979492188e+01,3.293871307373046875e+01,1.001759948730468750e+02,9.881260681152343750e+01,-4.658678054809570312e+00,4.030399620532989502e-01,-6.667316436767578125e+01,-1.826874694824218750e+02,-2.342460393905639648e+00,7.562255859375000000e+01,3.135598182678222656e+01
6.928300261497497559e-01,1.000000000000000000e+00,-3.989411926269531250e+01,3.841736602783203125e+01,3.296043014526367188e+01,1.001009902954101562e+02,9.883126831054687500e+01,-4.683702468872070312e+00,4.030399620532989502e-01,-6.667316436767578125e+01,-1.826874694824218750e+02,-2.342603921890258789e+00,7.562255859375000000e+01,3.135598182678222656e+01
6.954839825630187988e-01,1.000000000000000000e+00,-3.997845840454101562e+01,3.825339126586914062e+01,3.300389862060546875e+01,9.995018005371093750e+01,9.886672210693359375e+01,-4.733276367187500000e+00,4.030399620532989502e-01,-6.667316436767578125e+01,-1.826874694824218750e+02,-2.342532396316528320e+00,7.562255859375000000e+01,3.135598182678222656e+01
6.998299956321716309e-01,1.000000000000000000e+00,-3.997845840454101562e+01,3.825339126586914062e+01,3.300389862060546875e+01,9.995018005371093750e+01,9.886672210693359375e+01,-4.733276367187500000e+00,4.030399620532989502e-01,-6.667316436767578125e+01,-1.826874694824218750e+02,-2.342532396316528320e+00,7.562255859375000000e+01,3.135598182678222656e+01
7.039049863815307617e-01,1.000000000000000000e+00,-4.002042770385742188e+01,3.817083740234375000e+01,3.302567291259765625e+01,9.987422943115234375e+01,9.888500976562500000e+01,-4.758843421936035156e+00,4.030399620532989502e-01,-6.667316436767578125e+01,-1.826874694824218750e+02,-2.342532396316528320e+00,7.562255859375000000e+01,3.135598182678222656e+01
7.078920006752014160e-01,1.000000000000000000e+00,-4.006242752075195312e+01,3.808819198608398438e+01,3.304722595214843750e+01,9.979932403564453125e+01,9.890324401855468750e+01,-4.784342765808105469e+00,4.030399620532989502e-01,-6.667316436767578125e+01,-1.826874694824218750e+02,-2.342532396316528320e+00,7.562255859375000000e+01,3.135598182678222656e+01
7.125549912452697754e-01,1.000000000000000000e+00,-4.010474014282226562e+01,3.800502777099609375e+01,3.306881713867187500e+01,9.972347259521484375e+01,9.892147064208984375e+01,-4.810451984405517578e+00,4.030399620532989502e-01,-6.667316436767578125e+01,-1.826874694824218750e+02,-2.342603921890258789e+00,7.562255859375000000e+01,3.135619926452636719e+01
7.168740034103393555e-01,1.000000000000000000e+00,-4.014682388305664062e+01,3.792165756225585938e+01,3.309065628051757812e+01,9.964778137207031250e+01,9.894077301025390625e+01,-4.836358070373535156e+00,4.030399620532989502e-01,-6.667316436767578125e+01,-1.826874694824218750e+02,-2.342603921890258789e+00,7.562241363525390625e+01,3.135598182678222656e+01
7.208380103111267090e-01,1.000000000000000000e+00,-4.023128128051757812e+01,3.775596237182617188e+01,3.313459014892578125e+01,9.949687194824218750e+01,9.897857666015625000e+01,-4.886271476745605469e+00,4.030399620532989502e-01,-6.667316436767578125e+01,-1.826874694824218750e+02,-2.342603921890258789e+00,7.562255859375000000e+01,3.135598182678222656e+01
7.248010039329528809e-01,1.000000000000000000e+00,-4.023128128051757812e+01,3.775596237182617188e+01,3.313459014892578125e+01,9.949687194824218750e+01,9.897857666015625000e+01,-4.886271476745605469e+00,4.030399620532989502e-01,-6.667316436767578125e+01,-1.826874694824218750e+02,-2.342532396316528320e+00,7.562255859375000000e+01,3.135598182678222656e+01
7.297840118408203125e-01,1.000000000000000000e+00,-4.027359771728515625e+01,3.767365646362304688e+01,3.315630722045898438e+01,9.942128753662109375e+01,9.899659729003906250e+01,-4.911499023437500000e+00,4.030399620532989502e-01,-6.667316436767578125e+01,-1.826875762939453125e+02,-2.342603921890258789e+00,7.562255859375000000e+01,3.135598182678222656e+01
7.326400279998779297e-01,1.000000000000000000e+00,-4.035816574096679688e+01,3.750843429565429688e+01,3.319940948486328125e+01,9.926958465576171875e+01,9.903221130371093750e+01,-4.962633132934570312e+00,4.030399620532989502e-01,-6.667308044433593750e+01,-1.826874694824218750e+02,-2.342532396316528320e+00,7.562241363525390625e+01,3.135576248168945312e+01
7.366510033607482910e-01,1.000000000000000000e+00,-4.035816574096679688e+01,3.750843429565429688e+01,3.319940948486328125e+01,9.926958465576171875e+01,9.903221130371093750e+01,-4.962633132934570312e+00,4.030399620532989502e-01,-6.667308044433593750e+01,-1.826874694824218750e+02,-2.342532396316528320e+00,7.562241363525390625e+01,3.135576248168945312e+01
7.398639917373657227e-01,1.000000000000000000e+00,-4.040062332153320312e+01,3.742547607421875000e+01,3.322134780883789062e+01,9.919400024414062500e+01,9.905028533935546875e+01,-4.988674640655517578e+00,4.030399620532989502e-01,-6.667316436767578125e+01,-1.826874694824218750e+02,-2.342532396316528320e+00,7.562255859375000000e+01,3.135598182678222656e+01
7.439380288124084473e-01,1.000000000000000000e+00,-4.044313812255859375e+01,3.734206008911132812e+01,3.324334716796875000e+01,9.911804199218750000e+01,9.906889343261718750e+01,-5.014919757843017578e+00,4.030399620532989502e-01,-6.667316436767578125e+01,-1.826874694824218750e+02,-2.342532396316528320e+00,7.562241363525390625e+01,3.135598182678222656e+01
7.478479743003845215e-01,1.000000000000000000e+00,-4.048545074462890625e+01,3.725835418701171875e+01,3.326534271240234375e+01,9.904176330566406250e+01,9.908814239501953125e+01,-5.040622234344482422e+00,4.030399620532989502e-01,-6.667308044433593750e+01,-1.826874694824218750e+02,-2.342532396316528320e+00,7.562255859375000000e+01,3.135598182678222656e+01
7.523000240325927734e-01,1.000000000000000000e+00,-4.052793884277343750e+01,3.717459869384765625e+01,3.328724288940429688e+01,9.896586608886718750e+01,9.910701751708984375e+01,-5.064629554748535156e+00,4.030399620532989502e-01,-6.667316436767578125e+01,-1.826874694824218750e+02,-2.342603921890258789e+00,7.562255859375000000e+01,3.135598182678222656e+01
7.555450201034545898e-01,1.000000000000000000e+00,-4.057048034667968750e+01,3.709091567993164062e+01,3.330897903442382812e+01,9.888996124267578125e+01,9.912583923339843750e+01,-5.089993000030517578e+00,4.030399620532989502e-01,-6.667316436767578125e+01,-1.826874694824218750e+02,-2.342532396316528320e+00,7.562255859375000000e+01,3.135598182678222656e+01
7.605310082435607910e-01,1.000000000000000000e+00,-4.061325454711914062e+01,3.700767898559570312e+01,3.333099746704101562e+01,9.881427001953125000e+01,9.914353942871093750e+01,-5.115424633026123047e+00,4.030399620532989502e-01,-6.667316436767578125e+01,-1.826874694824218750e+02,-2.342532396316528320e+00,7.562255859375000000e+01,3.135598182678222656e+01
7.638990283012390137e-01,1.000000000000000000e+00,-4.065591430664062500e+01,3.692487716674804688e+01,3.335305786132812500e+01,9.873762512207031250e+01,9.916155242919921875e+01,-5.141058921813964844e+00,4.030399620532989502e-01,-6.667316436767578125e+01,-1.826874694824218750e+02,-2.342460393905639648e+00,7.562255859375000000e+01,3.135598182678222656e+01
7.679039835929870605e-01,1.000000000000000000e+00,-4.069854354858398438e+01,3.684196090698242188e+01,3.337485122680664062e+01,9.866193389892578125e+01,9.917973327636718750e+01,-5.167168617248535156e+00,4.030399620532989502e-01,-6.667326354980468750e+01,-1.826875762939453125e+02,-2.342603921890258789e+00,7.562241363525390625e+01,3.135598182678222656e+01
7.717490196228027344e-01,1.000000000000000000e+00,-4.074137115478515625e+01,3.675904846191406250e+01,3.339662551879882812e+01,9.858560943603515625e+01,9.919802856445312500e+01,-5.193346023559570312e+00,4.030399620532989502e-01,-6.667316436767578125e+01,-1.826874694824218750e+02,-2.342532396316528320e+00,7.562255859375000000e+01,3.135598182678222656e+01
7.763080000877380371e-01,1.000000000000000000e+00,-4.078408813476562500e+01,3.667547225952148438e+01,3.341846466064453125e+01,9.850991821289062500e+01,9.921701049804687500e+01,-5.219455718994140625e+00,4.030399620532989502e-01,-6.667316436767578125e+01,-1.826874694824218750e+02,-2.342532396316528320e+00,7.562255859375000000e+01,3.135598182678222656e+01
7.798860073089599609e-01,1.000000000000000000e+00,-4.082666015625000000e+01,3.659183502197265625e+01,3.344058609008789062e+01,9.843316650390625000e+01,9.923619842529296875e+01,-5.244479656219482422e+00,4.030399620532989502e-01,-6.667316436767578125e+01,-1.826873016357421875e+02,-2.342603921890258789e+00,7.562255859375000000e+01,3.135598182678222656e+01
7.845590114593505859e-01,1.000000000000000000e+00,-4.086943435668945312e+01,3.650776290893554688e+01,3.346290969848632812e+01,9.835747528076171875e+01,9.925566101074218750e+01,-5.269504070281982422e+00,4.030399620532989502e-01,-6.667316436767578125e+01,-1.826874694824218750e+02,-2.342460393905639648e+00,7.562255859375000000e+01,3.135598182678222656e+01
7.878800034523010254e-01,1.000000000000000000e+00,-4.091232299804687500e+01,3.642351531982421875e+01,3.348506927490234375e+01,9.828067779541015625e+01,9.927410888671875000e+01,-5.295139312744140625e+00,4.030399620532989502e-01,-6.667316436767578125e+01,-1.826873016357421875e+02,-2.342532396316528320e+00,7.562255859375000000e+01,3.135598182678222656e+01
7.920399904251098633e-01,1.000000000000000000e+00,-4.095521163940429688e+01,3.633973693847656250e+01,3.350694656372070312e+01,9.820467376708984375e+01,9.929234313964843750e+01,-5.321112632751464844e+00,4.030399620532989502e-01,-6.667316436767578125e+01,-1.826874694824218750e+02,-2.342603921890258789e+00,7.562255859375000000e+01,3.135598182678222656e+01
7.958729863166809082e-01,1.000000000000000000e+00,-4.099783706665039062e+01,3.625621032714843750e+01,3.352876281738281250e+01,9.812750244140625000e+01,9.931015014648437500e+01,-5.347425460815429688e+00,4.030399620532989502e-01,-6.667326354980468750e+01,-1.826874694824218750e+02,-2.342603921890258789e+00,7.562255859375000000e+01,3.135598182678222656e+01
8.008379936218261719e-01,1.000000000000000000e+00,-4.104067230224609375e+01,3.617286300659179688e+01,3.355074310302734375e+01,9.805133819580078125e+01,9.932838439941406250e+01,-5.373738765716552734e+00,4.030399620532989502e-01,-6.667316436767578125e+01,-1.826874694824218750e+02,-2.342603921890258789e+00,7.562255859375000000e+01,3.135619926452636719e+01
8.040440082550048828e-01,1.000000000000000000e+00,-4.108349990844726562e+01,3.608963012695312500e+01,3.357302856445312500e+01,9.797470092773437500e+01,9.934677886962890625e+01,-5.399441242218017578e+00,4.030399620532989502e-01,-6.667316436767578125e+01,-1.826874694824218750e+02,-2.342603921890258789e+00,7.562255859375000000e+01,3.135598182678222656e+01
8.086460232734680176e-01,1.000000000000000000e+00,-4.112630462646484375e+01,3.600608062744140625e+01,3.359508514404296875e+01,9.789826202392578125e+01,9.936560058593750000e+01,-5.424872875213623047e+00,4.030399620532989502e-01,-6.667316436767578125e+01,-1.826874694824218750e+02,-2.342603921890258789e+00,7.562255859375000000e+01,3.135598182678222656e+01
8.119419813156127930e-01,1.000000000000000000e+00,-4.116913223266601562e+01,3.592228317260742188e+01,3.361722946166992188e+01,9.782163238525390625e+01,9.938500213623046875e+01,-5.450304031372070312e+00,4.030399620532989502e-01,-6.667316436767578125e+01,-1.826875762939453125e+02,-2.342532396316528320e+00,7.562255859375000000e+01,3.135598182678222656e+01
8.160300254821777344e-01,1.000000000000000000e+00,-4.121202087402343750e+01,3.583803176879882812e+01,3.363932800292968750e+01,9.774530029296875000e+01,9.940425109863281250e+01,-5.476074218750000000e+00,4.030399620532989502e-01,-6.667316436767578125e+01,-1.826875762939453125e+02,-2.342532396316528320e+00,7.562255859375000000e+01,3.135598182678222656e+01
8.199989795684814453e-01,1.000000000000000000e+00,-4.125470733642578125e+01,3.575341796875000000e+01,3.366138839721679688e+01,9.766866302490234375e+01,9.942275238037109375e+01,-5.502116203308105469e+00,4.030399620532989502e-01,-6.667316436767578125e+01,-1.826874694824218750e+02,-2.342532396316528320e+00,7.562255859375000000e+01,3.135576248168945312e+01
8.245109915733337402e-01,1.000000000000000000e+00,-4.129727935791015625e+01,3.566898727416992188e+01,3.368365097045898438e+01,9.759165191650390625e+01,9.944082641601562500e+01,-5.528225421905517578e+00,4.030399620532989502e-01,-6.667316436767578125e+01,-1.826874694824218750e+02,-2.342532396316528320e+00,7.562241363525390625e+01,3.135598182678222656e+01
8.281400203704833984e-01,1.000000000000000000e+00,-4.134002304077148438e+01,3.558459854125976562e+01,3.370585250854492188e+01,9.751511383056640625e+01,9.945900726318359375e+01,-5.554877758026123047e+00,4.030399620532989502e-01,-6.667316436767578125e+01,-1.826875762939453125e+02,-2.342603921890258789e+00,7.562255859375000000e+01,3.135598182678222656e+01
8.327540159225463867e-01,1.000000000000000000e+00,-4.138291549682617188e+01,3.550059509277343750e+01,3.372781372070312500e+01,9.743811035156250000e+01,9.947734832763671875e+01,-5.581665039062500000e+00,4.030399620532989502e-01,-6.667308044433593750e+01,-1.826874694824218750e+02,-2.342532396316528320e+00,7.562255859375000000e+01,3.135598182678222656e+01
8.360180258750915527e-01,1.000000000000000000e+00,-4.142568588256835938e+01,3.541699981689453125e+01,3.374988937377929688e+01,9.736141204833984375e+01,9.949617004394531250e+01,-5.607232093811035156e+00,4.030399620532989502e-01,-6.667316436767578125e+01,-1.826874694824218750e+02,-2.342603921890258789e+00,7.562255859375000000e+01,3.135598182678222656e+01
8.401060104370117188e-01,1.000000000000000000e+00,-4.146837234497070312e+01,3.533331680297851562e+01,3.377203369140625000e+01,9.728414154052734375e+01,9.951525878906250000e+01,-5.632527828216552734e+00,4.030399620532989502e-01,-6.667316436767578125e+01,-1.826874694824218750e+02,-2.342603921890258789e+00,7.562255859375000000e+01,3.135598182678222656e+01
8.428230285644531250e-01,1.000000000000000000e+00,-4.151100158691406250e+01,3.524908828735351562e+01,3.379427719116210938e+01,9.720734405517578125e+01,9.953508758544921875e+01,-5.658162593841552734e+00,4.030399620532989502e-01,-6.667316436767578125e+01,-1.826874694824218750e+02,-2.342532396316528320e+00,7.562270355224609375e+01,3.135619926452636719e+01
8.468080163002014160e-01,1.000000000000000000e+00,-4.155377578735351562e+01,3.516447448730468750e+01,3.381649780273437500e+01,9.712980651855468750e+01,9.955433654785156250e+01,-5.684136390686035156e+00,4.030399620532989502e-01,-6.667316436767578125e+01,-1.826874694824218750e+02,-2.342532396316528320e+00,7.562255859375000000e+01,3.135598182678222656e+01
8.507769703865051270e-01,1.000000000000000000e+00,-4.159652328491210938e+01,3.507976913452148438e+01,3.383856201171875000e+01,9.705316162109375000e+01,9.957241058349609375e+01,-5.710517406463623047e+00,4.030399620532989502e-01,-6.667316436767578125e+01,-1.826875762939453125e+02,-2.342532396316528320e+00,7.562255859375000000e+01,3.135598182678222656e+01
8.548169732093811035e-01,1.000000000000000000e+00,-4.163937759399414062e+01,3.499477005004882812e+01,3.386063766479492188e+01,9.697605133056640625e+01,9.959075164794921875e+01,-5.737304687500000000e+00,4.030399620532989502e-01,-6.667316436767578125e+01,-1.826874694824218750e+02,-2.342603921890258789e+00,7.562255859375000000e+01,3.135598182678222656e+01
8.602259755134582520e-01,1.000000000000000000e+00,-4.168215179443359375e+01,3.490966033935546875e+01,3.388288116455078125e+01,9.689894104003906250e+01,9.960919952392578125e+01,-5.763957023620605469e+00,4.030399620532989502e-01,-6.667316436767578125e+01,-1.826874694824218750e+02,-2.342603921890258789e+00,7.562255859375000000e+01,3.135598182678222656e+01
8.628469705581665039e-01,1.000000000000000000e+00,-4.172498321533203125e+01,3.482491302490234375e+01,3.390518569946289062e+01,9.682160949707031250e+01,9.962738037109375000e+01,-5.789591789245605469e+00,4.030399620532989502e-01,-6.667308044433593750e+01,-1.826874694824218750e+02,-2.342532396316528320e+00,7.562241363525390625e+01,3.135598182678222656e+01
8.668400049209594727e-01,1.000000000000000000e+00,-4.176792907714843750e+01,3.474063873291015625e+01,3.392747116088867188e+01,9.674443817138671875e+01,9.964614868164062500e+01,-5.814955234527587891e+00,4.030399620532989502e-01,-6.667316436767578125e+01,-1.826874694824218750e+02,-2.342603921890258789e+00,7.562255859375000000e+01,3.135598182678222656e+01
8.707669973373413086e-01,1.000000000000000000e+00,-4.181113433837890625e+01,3.465611648559570312e+01,3.394985580444335938e+01,9.666706848144531250e+01,9.966539764404296875e+01,-5.840657234191894531e+00,4.030399620532989502e-01,-6.667316436767578125e+01,-1.826874694824218750e+02,-2.342603921890258789e+00,7.562255859375000000e+01,3.135598182678222656e+01
8.765169978141784668e-01,1.000000000000000000e+00,-4.185424804687500000e+01,3.457179641723632812e+01,3.397195816040039062e+01,9.659000396728515625e+01,9.968506622314453125e+01,-5.866496086120605469e+00,4.030399620532989502e-01,-6.667316436767578125e+01,-1.826874694824218750e+02,-2.342532396316528320e+00,7.562255859375000000e+01,3.135598182678222656e+01
8.818770051002502441e-01,1.000000000000000000e+00,-4.189745330810546875e+01,3.448718261718750000e+01,3.399431991577148438e+01,9.651215362548828125e+01,9.970416259765625000e+01,-5.892944335937500000e+00,4.030399620532989502e-01,-6.667316436767578125e+01,-1.826874694824218750e+02,-2.342532396316528320e+00,7.562255859375000000e+01,3.135598182678222656e+01
8.845260143280029297e-01,1.000000000000000000e+00,-4.194063186645507812e+01,3.440214157104492188e+01,3.401664352416992188e+01,9.643461608886718750e+01,9.972244262695312500e+01,-5.919596672058105469e+00,4.030399620532989502e-01,-6.667308044433593750e+01,-1.826874694824218750e+02,-2.342532396316528320e+00,7.562255859375000000e+01,3.135598182678222656e+01
8.888239860534667969e-01,1.000000000000000000e+00,-4.198406219482421875e+01,3.431695938110351562e+01,3.403880691528320312e+01,9.635712432861328125e+01,9.974078369140625000e+01,-5.946383953094482422e+00,4.030399620532989502e-01,-6.667316436767578125e+01,-1.826874694824218750e+02,-2.342603921890258789e+00,7.562255859375000000e+01,3.135598182678222656e+01
8.927739858627319336e-01,1.000000000000000000e+00,-4.202746582031250000e+01,3.423139953613281250e+01,3.406111145019531250e+01,9.627922821044921875e+01,9.975949859619140625e+01,-5.972222328186035156e+00,4.030399620532989502e-01,-6.667316436767578125e+01,-1.826874694824218750e+02,-2.342532396316528320e+00,7.562255859375000000e+01,3.135598182678222656e+01
8.968330025672912598e-01,1.000000000000000000e+00,-4.207104110717773438e+01,3.414580917358398438e+01,3.408351516723632812e+01,9.620163726806640625e+01,9.977810668945312500e+01,-5.997721672058105469e+00,4.030399620532989502e-01,-6.667316436767578125e+01,-1.826874694824218750e+02,-2.342532396316528320e+00,7.562255859375000000e+01,3.135598182678222656e+01
9.008359909057617188e-01,1.000000000000000000e+00,-4.211453247070312500e+01,3.406074523925781250e+01,3.410612487792968750e+01,9.612383270263671875e+01,9.979703521728515625e+01,-6.023424148559570312e+00,4.030399620532989502e-01,-6.667308044433593750e+01,-1.826874694824218750e+02,-2.342603921890258789e+00,7.562255859375000000e+01,3.135598182678222656e+01
9.061149954795837402e-01,1.000000000000000000e+00,-4.215822601318359375e+01,3.397601699829101562e+01,3.412867355346679688e+01,9.604645538330078125e+01,9.981655120849609375e+01,-6.049804687500000000e+00,4.030399620532989502e-01,-6.667308044433593750e+01,-1.826874694824218750e+02,-2.342532396316528320e+00,7.562255859375000000e+01,3.135598182678222656e+01
9.086909890174865723e-01,1.000000000000000000e+00,-4.220180130004882812e+01,3.389163208007812500e+01,3.415091705322265625e+01,9.596865844726562500e+01,9.983611297607421875e+01,-6.076253414154052734e+00,4.030399620532989502e-01,-6.667326354980468750e+01,-1.826874694824218750e+02,-2.342532396316528320e+00,7.562255859375000000e+01,3.135598182678222656e+01
9.128879904747009277e-01,1.000000000000000000e+00,-4.224558258056640625e+01,3.380692672729492188e+01,3.417317962646484375e+01,9.589075469970703125e+01,9.985530853271484375e+01,-6.102837562561035156e+00,4.030399620532989502e-01,-6.667326354980468750e+01,-1.826874694824218750e+02,-2.342603921890258789e+00,7.562255859375000000e+01,3.135598182678222656e+01
9.167839884757995605e-01,1.000000000000000000e+00,-4.228941726684570312e+01,3.372192764282226562e+01,3.419550323486328125e+01,9.581285095214843750e+01,9.987354278564453125e+01,-6.129625320434570312e+00,4.030399620532989502e-01,-6.667326354980468750e+01,-1.826874694824218750e+02,-2.342532396316528320e+00,7.562255859375000000e+01,3.135598182678222656e+01
9.207950234413146973e-01,1.000000000000000000e+00,-4.233336639404296875e+01,3.363679504394531250e+01,3.421791076660156250e+01,9.573500061035156250e+01,9.989209747314453125e+01,-6.156005859375000000e+00,4.030399620532989502e-01,-6.667326354980468750e+01,-1.826874694824218750e+02,-2.342603921890258789e+00,7.562255859375000000e+01,3.135598182678222656e+01
9.249889850616455078e-01,1.000000000000000000e+00,-4.237711715698242188e+01,3.355102920532226562e+01,3.424068069458007812e+01,9.565719604492187500e+01,9.991038513183593750e+01,-6.181233882904052734e+00,4.030399620532989502e-01,-6.667316436767578125e+01,-1.826874694824218750e+02,-2.342603921890258789e+00,7.562255859375000000e+01,3.135598182678222656e+01
9.267849922180175781e-01,1.000000000000000000e+00,-4.242103958129882812e+01,3.346512603759765625e+01,3.426314926147460938e+01,9.557839965820312500e+01,9.992920684814453125e+01,-6.207071781158447266e+00,4.030399620532989502e-01,-6.667316436767578125e+01,-1.826874694824218750e+02,-2.342532396316528320e+00,7.562255859375000000e+01,3.135619926452636719e+01
9.329329729080200195e-01,1.000000000000000000e+00,-4.246501922607421875e+01,3.337937927246093750e+01,3.428567504882812500e+01,9.550064849853515625e+01,9.994845581054687500e+01,-6.233384609222412109e+00,4.030399620532989502e-01,-6.667316436767578125e+01,-1.826874694824218750e+02,-2.342532396316528320e+00,7.562255859375000000e+01,3.135598182678222656e+01
9.370340108871459961e-01,1.000000000000000000e+00,-4.250893783569335938e+01,3.329406356811523438e+01,3.430808258056640625e+01,9.542232513427734375e+01,9.996807098388671875e+01,-6.259494304656982422e+00,4.030399620532989502e-01,-6.667316436767578125e+01,-1.826873016357421875e+02,-2.342532396316528320e+00,7.562255859375000000e+01,3.135598182678222656e+01
9.388279914855957031e-01,1.000000000000000000e+00,-4.255268859863281250e+01,3.320890808105468750e+01,3.433066940307617188e+01,9.534473419189453125e+01,9.998752593994140625e+01,-6.286892414093017578e+00,4.030399620532989502e-01,-6.667326354980468750e+01,-1.826874694824218750e+02,-2.342532396316528320e+00,7.562255859375000000e+01,3.135598182678222656e+01
9.451169967651367188e-01,1.000000000000000000e+00,-4.259669494628906250e+01,3.312372970581054688e+01,3.435330200195312500e+01,9.526619720458984375e+01,1.000063552856445312e+02,-6.314222812652587891e+00,4.030399620532989502e-01,-6.667316436767578125e+01,-1.826874694824218750e+02,-2.342532396316528320e+00,7.562255859375000000e+01,3.135598182678222656e+01
9.468799829483032227e-01,1.000000000000000000e+00,-4.264061355590820312e+01,3.303855133056640625e+01,3.437568283081054688e+01,9.518824005126953125e+01,1.000248565673828125e+02,-6.340671062469482422e+00,4.030399620532989502e-01,-6.667316436767578125e+01,-1.826874694824218750e+02,-2.342460393905639648e+00,7.562255859375000000e+01,3.135598182678222656e+01
9.508209824562072754e-01,1.000000000000000000e+00,-4.268445205688476562e+01,3.295296478271484375e+01,3.439794921875000000e+01,9.510970306396484375e+01,1.000434112548828125e+02,-6.366170406341552734e+00,4.030399620532989502e-01,-6.667316436767578125e+01,-1.826874694824218750e+02,-2.342532396316528320e+00,7.562255859375000000e+01,3.135598182678222656e+01
9.569290280342102051e-01,1.000000000000000000e+00,-4.272805404663085938e+01,3.286674499511718750e+01,3.442045593261718750e+01,9.503163909912109375e+01,1.000621185302734375e+02,-6.391940593719482422e+00,4.030399620532989502e-01,-6.667308044433593750e+01,-1.826874694824218750e+02,-2.342603921890258789e+00,7.562255859375000000e+01,3.135598182678222656e+01
9.588400125503540039e-01,1.000000000000000000e+00,-4.277200698852539062e+01,3.278007125854492188e+01,3.444314575195312500e+01,9.495284271240234375e+01,1.000813140869140625e+02,-6.418321609497070312e+00,4.030399620532989502e-01,-6.667316436767578125e+01,-1.826875762939453125e+02,-2.342532396316528320e+00,7.562255859375000000e+01,3.135598182678222656e+01
9.629390239715576172e-01,1.000000000000000000e+00,-4.281589889526367188e+01,3.269347000122070312e+01,3.446601867675781250e+01,9.487483215332031250e+01,1.001007232666015625e+02,-6.445516109466552734e+00,4.030399620532989502e-01,-6.667316436767578125e+01,-1.826874694824218750e+02,-2.342532396316528320e+00,7.562255859375000000e+01,3.135598182678222656e+01
9.667990207672119141e-01,1.000000000000000000e+00,-4.285982131958007812e+01,3.260708999633789062e+01,3.448866653442382812e+01,9.479634857177734375e+01,1.001207656860351562e+02,-6.472371578216552734e+00,4.030399620532989502e-01,-6.667316436767578125e+01,-1.826874694824218750e+02,-2.342603921890258789e+00,7.562241363525390625e+01,3.135598182678222656e+01
9.732670187950134277e-01,1.000000000000000000e+00,-4.290354156494140625e+01,3.252109527587890625e+01,3.451105499267578125e+01,9.471770477294921875e+01,1.001402359008789062e+02,-6.499362468719482422e+00,4.030399620532989502e-01,-6.667316436767578125e+01,-1.826873016357421875e+02,-2.342532396316528320e+00,7.562255859375000000e+01,3.135598182678222656e+01
9.748200178146362305e-01,1.000000000000000000e+00,-4.294737625122070312e+01,3.243553161621093750e+01,3.453337860107421875e+01,9.463879394531250000e+01,1.001590499877929688e+02,-6.525878906250000000e+00,4.030399620532989502e-01,-6.667308044433593750e+01,-1.826874694824218750e+02,-2.342603921890258789e+00,7.562241363525390625e+01,3.135598182678222656e+01
9.818320274353027344e-01,1.000000000000000000e+00,-4.294737625122070312e+01,3.243553161621093750e+01,3.453337860107421875e+01,9.463879394531250000e+01,1.001590499877929688e+02,-6.525878906250000000e+00,4.030399620532989502e-01,-6.667308044433593750e+01,-1.826874694824218750e+02,-2.342603921890258789e+00,7.562241363525390625e+01,3.135598182678222656e+01
9.838309884071350098e-01,1.000000000000000000e+00,-4.303522109985351562e+01,3.226385879516601562e+01,3.457873916625976562e+01,9.448182678222656250e+01,1.001961593627929688e+02,-6.578030109405517578e+00,4.030399620532989502e-01,-6.667316436767578125e+01,-1.826874694824218750e+02,-2.342532396316528320e+00,7.562255859375000000e+01,3.135598182678222656e+01
9.868509769439697266e-01,1.000000000000000000e+00,-4.307908248901367188e+01,3.217741394042968750e+01,3.460150909423828125e+01,9.440319061279296875e+01,1.002151412963867188e+02,-6.604749679565429688e+00,4.030399620532989502e-01,-6.667316436767578125e+01,-1.826874694824218750e+02,-2.342603921890258789e+00,7.562270355224609375e+01,3.135598182678222656e+01
9.935830235481262207e-01,1.000000000000000000e+00,-4.307908248901367188e+01,3.217741394042968750e+01,3.460150909423828125e+01,9.440319061279296875e+01,1.002151412963867188e+02,-6.604749679565429688e+00,4.030399620532989502e-01,-6.667316436767578125e+01,-1.826874694824218750e+02,-2.342603921890258789e+00,7.562270355224609375e+01,3.135598182678222656e+01
9.958450198173522949e-01,1.000000000000000000e+00,-4.316672515869140625e+01,3.200375366210937500e+01,3.464677047729492188e+01,9.424553680419921875e+01,1.002541122436523438e+02,-6.659071445465087891e+00,4.030399620532989502e-01,-6.667316436767578125e+01,-1.826874694824218750e+02,-2.342603921890258789e+00,7.562255859375000000e+01,3.135598182678222656e+01
9.988520145416259766e-01,1.000000000000000000e+00,-4.321064758300781250e+01,3.191676330566406250e+01,3.466963958740234375e+01,9.416663360595703125e+01,1.002741012573242188e+02,-6.686198234558105469e+00,4.030399620532989502e-01,-6.667316436767578125e+01,-1.826874694824218750e+02,-2.342460393905639648e+00,7.562241363525390625e+01,3.135598182678222656e+01
1.003837943077087402e+00,1.000000000000000000e+00,-4.321064758300781250e+01,3.191676330566406250e+01,3.466963958740234375e+01,9.416663360595703125e+01,1.002741012573242188e+02,-6.686198234558105469e+00,4.030399620532989502e-01,-6.667316436767578125e+01,-1.826874694824218750e+02,-2.342460393905639648e+00,7.562241363525390625e+01,3.135598182678222656e+01
1.006775021553039551e+00,1.000000000000000000e+00,-4.329872131347656250e+01,3.174425697326660156e+01,3.471508407592773438e+01,9.400891876220703125e+01,1.003122329711914062e+02,-6.738823890686035156e+00,4.030399620532989502e-01,-6.667316436767578125e+01,-1.826874694824218750e+02,-2.342603921890258789e+00,7.562255859375000000e+01,3.135598182678222656e+01
1.011832952499389648e+00,1.000000000000000000e+00,-4.329872131347656250e+01,3.174425697326660156e+01,3.471508407592773438e+01,9.400891876220703125e+01,1.003122329711914062e+02,-6.738823890686035156e+00,4.030399620532989502e-01,-6.667316436767578125e+01,-1.826874694824218750e+02,-2.342603921890258789e+00,7.562255859375000000e+01,3.135598182678222656e+01
1.014793038368225098e+00,1.000000000000000000e+00,-4.338699340820312500e+01,3.157197570800781250e+01,3.476044464111328125e+01,9.385037231445312500e+01,1.003498687744140625e+02,-6.792195796966552734e+00,4.030399620532989502e-01,-6.667326354980468750e+01,-1.826874694824218750e+02,-2.342603921890258789e+00,7.562255859375000000e+01,3.135598182678222656e+01
1.019925951957702637e+00,1.000000000000000000e+00,-4.338699340820312500e+01,3.157197570800781250e+01,3.476044464111328125e+01,9.385037231445312500e+01,1.003498687744140625e+02,-6.792195796966552734e+00,4.030399620532989502e-01,-6.667326354980468750e+01,-1.826874694824218750e+02,-2.342603921890258789e+00,7.562255859375000000e+01,3.135598182678222656e+01
1.022889971733093262e+00,1.000000000000000000e+00,-4.347575759887695312e+01,3.139890289306640625e+01,3.480637359619140625e+01,9.369197845458984375e+01,1.003887863159179688e+02,-6.846245765686035156e+00,4.030399620532989502e-01,-6.667316436767578125e+01,-1.826874694824218750e+02,-2.342532396316528320e+00,7.562255859375000000e+01,3.135598182678222656e+01
1.027840971946716309e+00,1.000000000000000000e+00,-4.347575759887695312e+01,3.139890289306640625e+01,3.480637359619140625e+01,9.369197845458984375e+01,1.003887863159179688e+02,-6.846245765686035156e+00,4.030399620532989502e-01,-6.667316436767578125e+01,-1.826874694824218750e+02,-2.342532396316528320e+00,7.562255859375000000e+01,3.135598182678222656e+01
1.031841993331909180e+00,1.000000000000000000e+00,-4.356454467773437500e+01,3.122410774230957031e+01,3.485191345214843750e+01,9.353375244140625000e+01,1.004287261962890625e+02,-6.900431156158447266e+00,4.030399620532989502e-01,-6.667316436767578125e+01,-1.826873016357421875e+02,-2.342603921890258789e+00,7.562255859375000000e+01,3.135598182678222656e+01
1.034836053848266602e+00,1.000000000000000000e+00,-4.360887145996093750e+01,3.113686943054199219e+01,3.487462997436523438e+01,9.345484161376953125e+01,1.004478073120117188e+02,-6.926337242126464844e+00,4.030399620532989502e-01,-6.667308044433593750e+01,-1.826874694824218750e+02,-2.342603921890258789e+00,7.562241363525390625e+01,3.135598182678222656e+01
1.039816021919250488e+00,1.000000000000000000e+00,-4.360887145996093750e+01,3.113686943054199219e+01,3.487462997436523438e+01,9.345484161376953125e+01,1.004478073120117188e+02,-6.926337242126464844e+00,4.030399620532989502e-01,-6.667308044433593750e+01,-1.826874694824218750e+02,-2.342603921890258789e+00,7.562241363525390625e+01,3.135598182678222656e+01
1.042781949043273926e+00,1.000000000000000000e+00,-4.369803237915039062e+01,3.096375083923339844e+01,3.492055892944335938e+01,9.329571533203125000e+01,1.004853515625000000e+02,-6.979302406311035156e+00,4.030399620532989502e-01,-6.667316436767578125e+01,-1.826874694824218750e+02,-2.342603921890258789e+00,7.562255859375000000e+01,3.135598182678222656e+01
1.047862052917480469e+00,1.000000000000000000e+00,-4.369803237915039062e+01,3.096375083923339844e+01,3.492055892944335938e+01,9.329571533203125000e+01,1.004853515625000000e+02,-6.979302406311035156e+00,4.030399620532989502e-01,-6.667316436767578125e+01,-1.826874694824218750e+02,-2.342603921890258789e+00,7.562255859375000000e+01,3.135598182678222656e+01
1.051949024200439453e+00,1.000000000000000000e+00,-4.378739547729492188e+01,3.079051780700683594e+01,3.496642684936523438e+01,9.313679504394531250e+01,1.005235671997070312e+02,-7.034166336059570312e+00,4.030399620532989502e-01,-6.667316436767578125e+01,-1.826875762939453125e+02,-2.342532396316528320e+00,7.562255859375000000e+01,3.135598182678222656e+01
1.054762005805969238e+00,1.000000000000000000e+00,-4.383203506469726562e+01,3.070337104797363281e+01,3.498915863037109375e+01,9.305721282958984375e+01,1.005436248779296875e+02,-7.061564445495605469e+00,4.030399620532989502e-01,-6.667316436767578125e+01,-1.826874694824218750e+02,-2.342603921890258789e+00,7.562255859375000000e+01,3.135598182678222656e+01
1.059864044189453125e+00,1.000000000000000000e+00,-4.383203506469726562e+01,3.070337104797363281e+01,3.498915863037109375e+01,9.305721282958984375e+01,1.005436248779296875e+02,-7.061564445495605469e+00,4.030399620532989502e-01,-6.667316436767578125e+01,-1.826874694824218750e+02,-2.342603921890258789e+00,7.562255859375000000e+01,3.135598182678222656e+01
1.062836050987243652e+00,1.000000000000000000e+00,-4.392157363891601562e+01,3.052794456481933594e+01,3.503514862060546875e+01,9.289771270751953125e+01,1.005834960937500000e+02,-7.114190101623535156e+00,4.030399620532989502e-01,-6.667316436767578125e+01,-1.826874694824218750e+02,-2.342603921890258789e+00,7.562255859375000000e+01,3.135598182678222656e+01
1.067854046821594238e+00,1.000000000000000000e+00,-4.392157363891601562e+01,3.052794456481933594e+01,3.503514862060546875e+01,9.289771270751953125e+01,1.005834960937500000e+02,-7.114190101623535156e+00,4.030399620532989502e-01,-6.667316436767578125e+01,-1.826874694824218750e+02,-2.342603921890258789e+00,7.562255859375000000e+01,3.135598182678222656e+01
1.070799946784973145e+00,1.000000000000000000e+00,-4.401110458374023438e+01,3.035233688354492188e+01,3.508099746704101562e+01,9.273795318603515625e+01,1.006209793090820312e+02,-7.167629718780517578e+00,4.030399620532989502e-01,-6.667316436767578125e+01,-1.826874694824218750e+02,-2.342603921890258789e+00,7.562241363525390625e+01,3.135576248168945312e+01
1.075829029083251953e+00,1.000000000000000000e+00,-4.401110458374023438e+01,3.035233688354492188e+01,3.508099746704101562e+01,9.273795318603515625e+01,1.006209793090820312e+02,-7.167629718780517578e+00,4.030399620532989502e-01,-6.667316436767578125e+01,-1.826874694824218750e+02,-2.342603921890258789e+00,7.562241363525390625e+01,3.135576248168945312e+01
1.078776001930236816e+00,1.000000000000000000e+00,-4.410035705566406250e+01,3.017806053161621094e+01,3.512700271606445312e+01,9.257830047607421875e+01,1.006596908569335938e+02,-7.222697257995605469e+00,4.030399620532989502e-01,-6.667316436767578125e+01,-1.826874694824218750e+02,-2.342603921890258789e+00,7.562255859375000000e+01,3.135598182678222656e+01
1.083976030349731445e+00,1.000000000000000000e+00,-4.410035705566406250e+01,3.017806053161621094e+01,3.512700271606445312e+01,9.257830047607421875e+01,1.006596908569335938e+02,-7.222697257995605469e+00,4.030399620532989502e-01,-6.667316436767578125e+01,-1.826874694824218750e+02,-2.342603921890258789e+00,7.562255859375000000e+01,3.135598182678222656e+01
1.086814999580383301e+00,1.000000000000000000e+00,-4.418966293334960938e+01,3.000374412536621094e+01,3.517293548583984375e+01,9.241811370849609375e+01,1.006997299194335938e+02,-7.276272296905517578e+00,4.030399620532989502e-01,-6.667316436767578125e+01,-1.826875762939453125e+02,-2.342603921890258789e+00,7.562255859375000000e+01,3.135598182678222656e+01
1.091848969459533691e+00,1.000000000000000000e+00,-4.418966293334960938e+01,3.000374412536621094e+01,3.517293548583984375e+01,9.241811370849609375e+01,1.006997299194335938e+02,-7.276272296905517578e+00,4.030399620532989502e-01,-6.667316436767578125e+01,-1.826875762939453125e+02,-2.342603921890258789e+00,7.562255859375000000e+01,3.135598182678222656e+01
1.096771001815795898e+00,1.000000000000000000e+00,-4.427905654907226562e+01,2.982738876342773438e+01,3.521886444091796875e+01,9.225819396972656250e+01,1.007391815185546875e+02,-7.329236984252929688e+00,4.030399620532989502e-01,-6.667316436767578125e+01,-1.826874694824218750e+02,-2.342603921890258789e+00,7.562255859375000000e+01,3.135598182678222656e+01
1.100630998611450195e+00,1.000000000000000000e+00,-4.432361221313476562e+01,2.973901939392089844e+01,3.524194335937500000e+01,9.217829132080078125e+01,1.007578964233398438e+02,-7.356296539306640625e+00,4.030399620532989502e-01,-6.667316436767578125e+01,-1.826874694824218750e+02,-2.342532396316528320e+00,7.562255859375000000e+01,3.135598182678222656e+01
1.103768944740295410e+00,1.000000000000000000e+00,-4.436825180053710938e+01,2.965058326721191406e+01,3.526516342163085938e+01,9.209706115722656250e+01,1.007768249511718750e+02,-7.383491039276123047e+00,4.030399620532989502e-01,-6.667316436767578125e+01,-1.826874694824218750e+02,-2.342603921890258789e+00,7.562255859375000000e+01,3.135598182678222656e+01
1.108772039413452148e+00,1.000000000000000000e+00,-4.436825180053710938e+01,2.965058326721191406e+01,3.526516342163085938e+01,9.209706115722656250e+01,1.007768249511718750e+02,-7.383491039276123047e+00,4.030399620532989502e-01,-6.667316436767578125e+01,-1.826874694824218750e+02,-2.342603921890258789e+00,7.562255859375000000e+01,3.135598182678222656e+01
1.111418962478637695e+00,1.000000000000000000e+00,-4.445761489868164062e+01,2.947549438476562500e+01,3.531145858764648438e+01,9.193698883056640625e+01,1.008152694702148438e+02,-7.438693523406982422e+00,4.030399620532989502e-01,-6.667316436767578125e+01,-1.826874694824218750e+02,-2.342603921890258789e+00,7.562255859375000000e+01,3.135598182678222656e+01
1.115807056427001953e+00,1.000000000000000000e+00,-4.445761489868164062e+01,2.947549438476562500e+01,3.531145858764648438e+01,9.193698883056640625e+01,1.008152694702148438e+02,-7.438693523406982422e+00,4.030399620532989502e-01,-6.667316436767578125e+01,-1.826874694824218750e+02,-2.342603921890258789e+00,7.562255859375000000e+01,3.135598182678222656e+01
