rpiRobotics/ARM-21-02-F-19-Robot-Motion-Program/data_performance_abb/curve_1/curve_pose_opt1/100L/grad_result/real/run_1.csv
timestamp,cmd_num,J1,J2,J3,J4,J5,J6
1.659999979892745614e-04,-1.000000000000000000e+00,-3.429591751098632812e+01,4.938357543945312500e+01,3.007497978210449219e+01,1.101246948242187500e+02,9.639295959472656250e+01,-1.301676511764526367e+00,4.030399620532989502e-01,-6.667316436767578125e+01,-1.826873016357421875e+02,-2.342460393905639648e+00,7.562255859375000000e+01,3.135598182678222656e+01
5.348000209778547287e-03,1.000000000000000000e+00,-3.429591751098632812e+01,4.938357543945312500e+01,3.007497978210449219e+01,1.101245956420898438e+02,9.639295959472656250e+01,-1.301744341850280762e+00,4.030399620532989502e-01,-6.667316436767578125e+01,-1.826874694824218750e+02,-2.342460393905639648e+00,7.562270355224609375e+01,3.135598182678222656e+01
9.177999570965766907e-03,1.000000000000000000e+00,-3.429586029052734375e+01,4.938357543945312500e+01,3.007501983642578125e+01,1.101246948242187500e+02,9.639284515380859375e+01,-1.301676511764526367e+00,4.030399620532989502e-01,-6.667316436767578125e+01,-1.826874694824218750e+02,-2.342532396316528320e+00,7.562255859375000000e+01,3.135598182678222656e+01
1.461599953472614288e-02,1.000000000000000000e+00,-3.429580307006835938e+01,4.938359832763671875e+01,3.007497978210449219e+01,1.101246948242187500e+02,9.639284515380859375e+01,-1.301676511764526367e+00,4.030399620532989502e-01,-6.667316436767578125e+01,-1.826875762939453125e+02,-2.342460393905639648e+00,7.562255859375000000e+01,3.135576248168945312e+01
3.898299857974052429e-02,1.000000000000000000e+00,-3.429580307006835938e+01,4.938359832763671875e+01,3.007488059997558594e+01,1.101246948242187500e+02,9.639295959472656250e+01,-1.301676511764526367e+00,4.030399620532989502e-01,-6.667316436767578125e+01,-1.826874694824218750e+02,-2.342460393905639648e+00,7.562255859375000000e+01,3.135598182678222656e+01
4.145099967718124390e-02,1.000000000000000000e+00,-3.429574584960937500e+01,4.938359832763671875e+01,3.007493782043457031e+01,1.101246948242187500e+02,9.639295959472656250e+01,-1.301676511764526367e+00,4.030399620532989502e-01,-6.667316436767578125e+01,-1.826874694824218750e+02,-2.342460393905639648e+00,7.562255859375000000e+01,3.135576248168945312e+01
4.269799962639808655e-02,1.000000000000000000e+00,-3.429574584960937500e+01,4.938359832763671875e+01,3.007493782043457031e+01,1.101246948242187500e+02,9.639295959472656250e+01,-1.301676511764526367e+00,4.030399620532989502e-01,-6.667316436767578125e+01,-1.826874694824218750e+02,-2.342460393905639648e+00,7.562255859375000000e+01,3.135576248168945312e+01
5.028599873185157776e-02,1.000000000000000000e+00,-3.429580307006835938e+01,4.938359832763671875e+01,3.007497978210449219e+01,1.101246948242187500e+02,9.639311218261718750e+01,-1.301676511764526367e+00,4.030399620532989502e-01,-6.667316436767578125e+01,-1.826874694824218750e+02,-2.342532396316528320e+00,7.562241363525390625e+01,3.135598182678222656e+01
5.294999852776527405e-02,1.000000000000000000e+00,-3.429591751098632812e+01,4.938357543945312500e+01,3.007501983642578125e+01,1.101246948242187500e+02,9.639295959472656250e+01,-1.301676511764526367e+00,4.030399620532989502e-01,-6.667316436767578125e+01,-1.826874694824218750e+02,-2.342460393905639648e+00,7.562270355224609375e+01,3.135598182678222656e+01
5.429900065064430237e-02,1.000000000000000000e+00,-3.429591751098632812e+01,4.938357543945312500e+01,3.007501983642578125e+01,1.101246948242187500e+02,9.639295959472656250e+01,-1.301676511764526367e+00,4.030399620532989502e-01,-6.667316436767578125e+01,-1.826874694824218750e+02,-2.342460393905639648e+00,7.562270355224609375e+01,3.135598182678222656e+01
5.674200132489204407e-02,1.000000000000000000e+00,-3.429617691040039062e+01,4.938344192504882812e+01,3.007491874694824219e+01,1.101248092651367188e+02,9.639295959472656250e+01,-1.301744341850280762e+00,4.030399620532989502e-01,-6.667316436767578125e+01,-1.826874694824218750e+02,-2.342460393905639648e+00,7.562241363525390625e+01,3.135598182678222656e+01
6.090499833226203918e-02,1.000000000000000000e+00,-3.429697799682617188e+01,4.938307952880859375e+01,3.007497978210449219e+01,1.101245956420898438e+02,9.639295959472656250e+01,-1.301540851593017578e+00,4.030399620532989502e-01,-6.667316436767578125e+01,-1.826874694824218750e+02,-2.342460393905639648e+00,7.562255859375000000e+01,3.135598182678222656e+01
6.454700231552124023e-02,1.000000000000000000e+00,-3.429697799682617188e+01,4.938307952880859375e+01,3.007497978210449219e+01,1.101245956420898438e+02,9.639295959472656250e+01,-1.301540851593017578e+00,4.030399620532989502e-01,-6.667316436767578125e+01,-1.826874694824218750e+02,-2.342460393905639648e+00,7.562255859375000000e+01,3.135598182678222656e+01
6.595999747514724731e-02,1.000000000000000000e+00,-3.429841613769531250e+01,4.938217163085937500e+01,3.007497978210449219e+01,1.101246948242187500e+02,9.639295959472656250e+01,-1.301676511764526367e+00,4.030399620532989502e-01,-6.667316436767578125e+01,-1.826875762939453125e+02,-2.342460393905639648e+00,7.562270355224609375e+01,3.135598182678222656e+01
6.722100079059600830e-02,1.000000000000000000e+00,-3.429841613769531250e+01,4.938217163085937500e+01,3.007497978210449219e+01,1.101246948242187500e+02,9.639295959472656250e+01,-1.301676511764526367e+00,4.030399620532989502e-01,-6.667316436767578125e+01,-1.826875762939453125e+02,-2.342460393905639648e+00,7.562270355224609375e+01,3.135598182678222656e+01
7.330899685621261597e-02,1.000000000000000000e+00,-3.430022430419921875e+01,4.938029479980468750e+01,3.007497978210449219e+01,1.101246948242187500e+02,9.639295959472656250e+01,-1.301676511764526367e+00,4.030399620532989502e-01,-6.667326354980468750e+01,-1.826874694824218750e+02,-2.342460393905639648e+00,7.562255859375000000e+01,3.135619926452636719e+01
7.468000054359436035e-02,1.000000000000000000e+00,-3.430240631103515625e+01,4.937717437744140625e+01,3.007497978210449219e+01,1.101245956420898438e+02,9.639295959472656250e+01,-1.301540851593017578e+00,4.030399620532989502e-01,-6.667316436767578125e+01,-1.826874694824218750e+02,-2.342460393905639648e+00,7.562255859375000000e+01,3.135619926452636719e+01
7.723599672317504883e-02,1.000000000000000000e+00,-3.430545043945312500e+01,4.937228775024414062e+01,3.007497978210449219e+01,1.101243286132812500e+02,9.639322662353515625e+01,-1.301744341850280762e+00,4.030399620532989502e-01,-6.667316436767578125e+01,-1.826874694824218750e+02,-2.342532396316528320e+00,7.562255859375000000e+01,3.135598182678222656e+01
7.848799973726272583e-02,1.000000000000000000e+00,-3.430545043945312500e+01,4.937228775024414062e+01,3.007497978210449219e+01,1.101243286132812500e+02,9.639322662353515625e+01,-1.301744341850280762e+00,4.030399620532989502e-01,-6.667316436767578125e+01,-1.826874694824218750e+02,-2.342532396316528320e+00,7.562255859375000000e+01,3.135598182678222656e+01
8.220899850130081177e-02,1.000000000000000000e+00,-3.430894851684570312e+01,4.936553955078125000e+01,3.007508277893066406e+01,1.101238555908203125e+02,9.639349365234375000e+01,-1.301744341850280762e+00,4.030399620532989502e-01,-6.667316436767578125e+01,-1.826874694824218750e+02,-2.342460393905639648e+00,7.562255859375000000e+01,3.135598182678222656e+01
8.466800302267074585e-02,1.000000000000000000e+00,-3.430894851684570312e+01,4.936553955078125000e+01,3.007508277893066406e+01,1.101238555908203125e+02,9.639349365234375000e+01,-1.301744341850280762e+00,4.030399620532989502e-01,-6.667316436767578125e+01,-1.826874694824218750e+02,-2.342460393905639648e+00,7.562255859375000000e+01,3.135598182678222656e+01
8.611600100994110107e-02,1.000000000000000000e+00,-3.431314086914062500e+01,4.935687255859375000e+01,3.007538604736328125e+01,1.101220169067382812e+02,9.639385986328125000e+01,-1.302151203155517578e+00,4.030399620532989502e-01,-6.667326354980468750e+01,-1.826874694824218750e+02,-2.342460393905639648e+00,7.562255859375000000e+01,3.135576248168945312e+01
8.929099887609481812e-02,1.000000000000000000e+00,-3.431808090209960938e+01,4.934632873535156250e+01,3.007595634460449219e+01,1.101181716918945312e+02,9.639460754394531250e+01,-1.302693724632263184e+00,4.030399620532989502e-01,-6.667316436767578125e+01,-1.826874694824218750e+02,-2.342460393905639648e+00,7.562255859375000000e+01,3.135598182678222656e+01
9.054300189018249512e-02,1.000000000000000000e+00,-3.431808090209960938e+01,4.934632873535156250e+01,3.007595634460449219e+01,1.101181716918945312e+02,9.639460754394531250e+01,-1.302693724632263184e+00,4.030399620532989502e-01,-6.667316436767578125e+01,-1.826874694824218750e+02,-2.342460393905639648e+00,7.562255859375000000e+01,3.135598182678222656e+01
9.409099817276000977e-02,1.000000000000000000e+00,-3.432393264770507812e+01,4.933388137817382812e+01,3.007709312438964844e+01,1.101128463745117188e+02,9.639572906494140625e+01,-1.304117918014526367e+00,4.030399620532989502e-01,-6.667326354980468750e+01,-1.826874694824218750e+02,-2.342460393905639648e+00,7.562270355224609375e+01,3.135598182678222656e+01
9.547899663448333740e-02,1.000000000000000000e+00,-3.432393264770507812e+01,4.933388137817382812e+01,3.007709312438964844e+01,1.101128463745117188e+02,9.639572906494140625e+01,-1.304117918014526367e+00,4.030399620532989502e-01,-6.667326354980468750e+01,-1.826874694824218750e+02,-2.342460393905639648e+00,7.562270355224609375e+01,3.135598182678222656e+01
1.011129990220069885e-01,1.000000000000000000e+00,-3.433102798461914062e+01,4.931914901733398438e+01,3.007878494262695312e+01,1.101055831909179688e+02,9.639733123779296875e+01,-1.306762814521789551e+00,4.030399620532989502e-01,-6.667316436767578125e+01,-1.826874694824218750e+02,-2.342460393905639648e+00,7.562255859375000000e+01,3.135619926452636719e+01
1.029890030622482300e-01,1.000000000000000000e+00,-3.433943939208984375e+01,4.930176925659179688e+01,3.008105850219726562e+01,1.100964126586914062e+02,9.639967346191406250e+01,-1.310221433639526367e+00,4.030399620532989502e-01,-6.667316436767578125e+01,-1.826874694824218750e+02,-2.342532396316528320e+00,7.562255859375000000e+01,3.135598182678222656e+01
1.071949973702430725e-01,1.000000000000000000e+00,-3.434942626953125000e+01,4.928169631958007812e+01,3.008419036865234375e+01,1.100840835571289062e+02,9.640265655517578125e+01,-1.314019083976745605e+00,4.028751850128173828e-01,-6.667316436767578125e+01,-1.826874694824218750e+02,-2.342460393905639648e+00,7.562255859375000000e+01,3.135598182678222656e+01
1.109749972820281982e-01,1.000000000000000000e+00,-3.436070632934570312e+01,4.925915908813476562e+01,3.008811378479003906e+01,1.100688171386718750e+02,9.640634155273437500e+01,-1.319105505943298340e+00,4.030399620532989502e-01,-6.667316436767578125e+01,-1.826874694824218750e+02,-2.342532396316528320e+00,7.562255859375000000e+01,3.135598182678222656e+01
1.149619966745376587e-01,1.000000000000000000e+00,-3.437377166748046875e+01,4.923392868041992188e+01,3.009287071228027344e+01,1.100502166748046875e+02,9.641097259521484375e+01,-1.325344562530517578e+00,4.030399620532989502e-01,-6.667316436767578125e+01,-1.826874694824218750e+02,-2.342460393905639648e+00,7.562255859375000000e+01,3.135598182678222656e+01
1.189320012927055359e-01,1.000000000000000000e+00,-3.438841247558593750e+01,4.920579528808593750e+01,3.009897041320800781e+01,1.100273056030273438e+02,9.641646575927734375e+01,-1.332668900489807129e+00,4.030399620532989502e-01,-6.667316436767578125e+01,-1.826874694824218750e+02,-2.342316627502441406e+00,7.562255859375000000e+01,3.135598182678222656e+01
1.251100003719329834e-01,1.000000000000000000e+00,-3.440434265136718750e+01,4.917416000366210938e+01,3.010645294189453125e+01,1.099998092651367188e+02,9.642297363281250000e+01,-1.341349363327026367e+00,4.030399620532989502e-01,-6.667316436767578125e+01,-1.826874694824218750e+02,-2.342460393905639648e+00,7.562255859375000000e+01,3.135598182678222656e+01
1.269100010395050049e-01,1.000000000000000000e+00,-3.442142486572265625e+01,4.913908386230468750e+01,3.011497306823730469e+01,1.099683074951171875e+02,9.643054199218750000e+01,-1.351318478584289551e+00,4.030399620532989502e-01,-6.667316436767578125e+01,-1.826874694824218750e+02,-2.342532396316528320e+00,7.562270355224609375e+01,3.135598182678222656e+01
1.309819966554641724e-01,1.000000000000000000e+00,-3.444060134887695312e+01,4.910041046142578125e+01,3.012481307983398438e+01,1.099340209960937500e+02,9.643918609619140625e+01,-1.362982988357543945e+00,4.030399620532989502e-01,-6.667316436767578125e+01,-1.826874694824218750e+02,-2.342460393905639648e+00,7.562255859375000000e+01,3.135598182678222656e+01
1.356540024280548096e-01,1.000000000000000000e+00,-3.446158218383789062e+01,4.905856323242187500e+01,3.013599777221679688e+01,1.098957214355468750e+02,9.644888305664062500e+01,-1.376003742218017578e+00,4.030399620532989502e-01,-6.667316436767578125e+01,-1.826874694824218750e+02,-2.342460393905639648e+00,7.562255859375000000e+01,3.135598182678222656e+01
1.411740034818649292e-01,1.000000000000000000e+00,-3.448443603515625000e+01,4.901332855224609375e+01,3.014864349365234375e+01,1.098520584106445312e+02,9.645960235595703125e+01,-1.390177488327026367e+00,4.030399620532989502e-01,-6.667316436767578125e+01,-1.826875762939453125e+02,-2.342532396316528320e+00,7.562255859375000000e+01,3.135598182678222656e+01
1.429100036621093750e-01,1.000000000000000000e+00,-3.450852203369140625e+01,4.896492385864257812e+01,3.016256904602050781e+01,1.098031768798828125e+02,9.647128295898437500e+01,-1.406046628952026367e+00,4.030399620532989502e-01,-6.667316436767578125e+01,-1.826874694824218750e+02,-2.342460393905639648e+00,7.562255859375000000e+01,3.135598182678222656e+01
1.479260027408599854e-01,1.000000000000000000e+00,-3.453392410278320312e+01,4.891368865966796875e+01,3.017765808105468750e+01,1.097517166137695312e+02,9.648391723632812500e+01,-1.423746824264526367e+00,4.030399620532989502e-01,-6.667316436767578125e+01,-1.826875762939453125e+02,-2.342532396316528320e+00,7.562255859375000000e+01,3.135598182678222656e+01
1.509259939193725586e-01,1.000000000000000000e+00,-3.456085205078125000e+01,4.885960388183593750e+01,3.019353485107421875e+01,1.096973571777343750e+02,9.649681854248046875e+01,-1.442328572273254395e+00,4.030399620532989502e-01,-6.667316436767578125e+01,-1.826874694824218750e+02,-2.342460393905639648e+00,7.562255859375000000e+01,3.135598182678222656e+01
1.572809964418411255e-01,1.000000000000000000e+00,-3.456085205078125000e+01,4.885960388183593750e+01,3.019353485107421875e+01,1.096973571777343750e+02,9.649681854248046875e+01,-1.442328572273254395e+00,4.030399620532989502e-01,-6.667316436767578125e+01,-1.826874694824218750e+02,-2.342460393905639648e+00,7.562255859375000000e+01,3.135598182678222656e+01
1.597930043935775757e-01,1.000000000000000000e+00,-3.461890029907226562e+01,4.874373626708984375e+01,3.022807884216308594e+01,1.095792083740234375e+02,9.652459716796875000e+01,-1.483086585998535156e+00,4.030399620532989502e-01,-6.667316436767578125e+01,-1.826874694824218750e+02,-2.342460393905639648e+00,7.562255859375000000e+01,3.135576248168945312e+01
1.639939993619918823e-01,1.000000000000000000e+00,-3.465013122558593750e+01,4.868173217773437500e+01,3.024635505676269531e+01,1.095156326293945312e+02,9.653936004638671875e+01,-1.504720091819763184e+00,4.030399620532989502e-01,-6.667316436767578125e+01,-1.826874694824218750e+02,-2.342460393905639648e+00,7.562270355224609375e+01,3.135598182678222656e+01
1.669330000877380371e-01,1.000000000000000000e+00,-3.468257141113281250e+01,4.861762237548828125e+01,3.026498222351074219e+01,1.094508972167968750e+02,9.655471801757812500e+01,-1.526489377021789551e+00,4.030399620532989502e-01,-6.667316436767578125e+01,-1.826874694824218750e+02,-2.342460393905639648e+00,7.562255859375000000e+01,3.135598182678222656e+01
1.741330027580261230e-01,1.000000000000000000e+00,-3.468257141113281250e+01,4.861762237548828125e+01,3.026498222351074219e+01,1.094508972167968750e+02,9.655471801757812500e+01,-1.526489377021789551e+00,4.030399620532989502e-01,-6.667316436767578125e+01,-1.826874694824218750e+02,-2.342460393905639648e+00,7.562255859375000000e+01,3.135598182678222656e+01
1.755429953336715698e-01,1.000000000000000000e+00,-3.475065994262695312e+01,4.848326873779296875e+01,3.030363082885742188e+01,1.093166275024414062e+02,9.658660125732421875e+01,-1.571248412132263184e+00,4.030399620532989502e-01,-6.667326354980468750e+01,-1.826874694824218750e+02,-2.342460393905639648e+00,7.562255859375000000e+01,3.135598182678222656e+01
1.800429970026016235e-01,1.000000000000000000e+00,-3.478599929809570312e+01,4.841332244873046875e+01,3.032341384887695312e+01,1.092481994628906250e+02,9.660355377197265625e+01,-1.594306230545043945e+00,4.030399620532989502e-01,-6.667316436767578125e+01,-1.826874694824218750e+02,-2.342460393905639648e+00,7.562255859375000000e+01,3.135598182678222656e+01
1.837289929389953613e-01,1.000000000000000000e+00,-3.482205581665039062e+01,4.834144592285156250e+01,3.034364509582519531e+01,1.091790924072265625e+02,9.662114715576171875e+01,-1.617770791053771973e+00,4.030399620532989502e-01,-6.667316436767578125e+01,-1.826874694824218750e+02,-2.342460393905639648e+00,7.562255859375000000e+01,3.135598182678222656e+01
1.879390031099319458e-01,1.000000000000000000e+00,-3.485903167724609375e+01,4.826803588867187500e+01,3.036379432678222656e+01,1.091089324951171875e+02,9.663837432861328125e+01,-1.642049193382263184e+00,4.030399620532989502e-01,-6.667316436767578125e+01,-1.826874694824218750e+02,-2.342532396316528320e+00,7.562255859375000000e+01,3.135598182678222656e+01
1.909130066633224487e-01,1.000000000000000000e+00,-3.489680862426757812e+01,4.819340133666992188e+01,3.038371849060058594e+01,1.090387725830078125e+02,9.665522003173828125e+01,-1.666327595710754395e+00,4.030399620532989502e-01,-6.667316436767578125e+01,-1.826874694824218750e+02,-2.342532396316528320e+00,7.562255859375000000e+01,3.135598182678222656e+01
1.959740072488784790e-01,1.000000000000000000e+00,-3.489680862426757812e+01,4.819340133666992188e+01,3.038371849060058594e+01,1.090387725830078125e+02,9.665522003173828125e+01,-1.666327595710754395e+00,4.030399620532989502e-01,-6.667316436767578125e+01,-1.826874694824218750e+02,-2.342532396316528320e+00,7.562255859375000000e+01,3.135598182678222656e+01
1.989199966192245483e-01,1.000000000000000000e+00,-3.497451782226562500e+01,4.804196166992187500e+01,3.042383575439453125e+01,1.088991851806640625e+02,9.668843078613281250e+01,-1.713663816452026367e+00,4.030399620532989502e-01,-6.667316436767578125e+01,-1.826874694824218750e+02,-2.342460393905639648e+00,7.562255859375000000e+01,3.135598182678222656e+01
2.040919959545135498e-01,1.000000000000000000e+00,-3.497451782226562500e+01,4.804196166992187500e+01,3.042383575439453125e+01,1.088991851806640625e+02,9.668843078613281250e+01,-1.713663816452026367e+00,4.030399620532989502e-01,-6.667316436767578125e+01,-1.826874694824218750e+02,-2.342460393905639648e+00,7.562255859375000000e+01,3.135598182678222656e+01
2.077289968729019165e-01,1.000000000000000000e+00,-3.505392074584960938e+01,4.788900756835937500e+01,3.046417045593261719e+01,1.087582855224609375e+02,9.672196960449218750e+01,-1.759914875030517578e+00,4.030399620532989502e-01,-6.667316436767578125e+01,-1.826874694824218750e+02,-2.342532396316528320e+00,7.562255859375000000e+01,3.135598182678222656e+01
2.119359970092773438e-01,1.000000000000000000e+00,-3.509353637695312500e+01,4.781226730346679688e+01,3.048427772521972656e+01,1.086881179809570312e+02,9.673919677734375000e+01,-1.783989787101745605e+00,4.030399620532989502e-01,-6.667326354980468750e+01,-1.826874694824218750e+02,-2.342316627502441406e+00,7.562255859375000000e+01,3.135598182678222656e+01
2.149250060319900513e-01,1.000000000000000000e+00,-3.513378143310546875e+01,4.773480606079101562e+01,3.050428771972656250e+01,1.086176452636718750e+02,9.675720977783203125e+01,-1.807725667953491211e+00,4.030399620532989502e-01,-6.667326354980468750e+01,-1.826874694824218750e+02,-2.342532396316528320e+00,7.562255859375000000e+01,3.135598182678222656e+01
2.199860066175460815e-01,1.000000000000000000e+00,-3.513378143310546875e+01,4.773480606079101562e+01,3.050428771972656250e+01,1.086176452636718750e+02,9.675720977783203125e+01,-1.807725667953491211e+00,4.030399620532989502e-01,-6.667326354980468750e+01,-1.826874694824218750e+02,-2.342532396316528320e+00,7.562255859375000000e+01,3.135598182678222656e+01
2.229110002517700195e-01,1.000000000000000000e+00,-3.521378707885742188e+01,4.758017730712890625e+01,3.054448318481445312e+01,1.084763183593750000e+02,9.679224395751953125e+01,-1.857028603553771973e+00,4.030399620532989502e-01,-6.667316436767578125e+01,-1.826874694824218750e+02,-2.342316627502441406e+00,7.562255859375000000e+01,3.135598182678222656e+01
2.280260026454925537e-01,1.000000000000000000e+00,-3.521378707885742188e+01,4.758017730712890625e+01,3.054448318481445312e+01,1.084763183593750000e+02,9.679224395751953125e+01,-1.857028603553771973e+00,4.030399620532989502e-01,-6.667316436767578125e+01,-1.826874694824218750e+02,-2.342316627502441406e+00,7.562255859375000000e+01,3.135598182678222656e+01
2.325160056352615356e-01,1.000000000000000000e+00,-3.529365158081054688e+01,4.742631530761718750e+01,3.058532714843750000e+01,1.083348846435546875e+02,9.682593536376953125e+01,-1.904364824295043945e+00,4.030399620532989502e-01,-6.667316436767578125e+01,-1.826874694824218750e+02,-2.342460393905639648e+00,7.562255859375000000e+01,3.135598182678222656e+01
2.359829992055892944e-01,1.000000000000000000e+00,-3.533358383178710938e+01,4.734993743896484375e+01,3.060572242736816406e+01,1.082646713256835938e+02,9.684288787841796875e+01,-1.927761554718017578e+00,4.030399620532989502e-01,-6.667316436767578125e+01,-1.826874694824218750e+02,-2.342460393905639648e+00,7.562255859375000000e+01,3.135598182678222656e+01
2.389589995145797729e-01,1.000000000000000000e+00,-3.537311172485351562e+01,4.727342605590820312e+01,3.062609481811523438e+01,1.081940917968750000e+02,9.685974121093750000e+01,-1.951361775398254395e+00,4.030399620532989502e-01,-6.667316436767578125e+01,-1.826874694824218750e+02,-2.342460393905639648e+00,7.562270355224609375e+01,3.135598182678222656e+01
2.441309988498687744e-01,1.000000000000000000e+00,-3.537311172485351562e+01,4.727342605590820312e+01,3.062609481811523438e+01,1.081940917968750000e+02,9.685974121093750000e+01,-1.951361775398254395e+00,4.030399620532989502e-01,-6.667316436767578125e+01,-1.826874694824218750e+02,-2.342460393905639648e+00,7.562270355224609375e+01,3.135598182678222656e+01
2.469139993190765381e-01,1.000000000000000000e+00,-3.545274734497070312e+01,4.711956787109375000e+01,3.066673660278320312e+01,1.080524978637695312e+02,9.689466094970703125e+01,-1.999240517616271973e+00,4.030399620532989502e-01,-6.667316436767578125e+01,-1.826874694824218750e+02,-2.342532396316528320e+00,7.562255859375000000e+01,3.135598182678222656e+01
2.520239949226379395e-01,1.000000000000000000e+00,-3.545274734497070312e+01,4.711956787109375000e+01,3.066673660278320312e+01,1.080524978637695312e+02,9.689466094970703125e+01,-1.999240517616271973e+00,4.030399620532989502e-01,-6.667316436767578125e+01,-1.826874694824218750e+02,-2.342532396316528320e+00,7.562255859375000000e+01,3.135598182678222656e+01
2.549839913845062256e-01,1.000000000000000000e+00,-3.553203582763671875e+01,4.696530151367187500e+01,3.070774459838867188e+01,1.079108123779296875e+02,9.693064880371093750e+01,-2.048543453216552734e+00,4.030399620532989502e-01,-6.667316436767578125e+01,-1.826874694824218750e+02,-2.342460393905639648e+00,7.562255859375000000e+01,3.135598182678222656e+01
2.599500119686126709e-01,1.000000000000000000e+00,-3.557164764404296875e+01,4.688799667358398438e+01,3.072816085815429688e+01,1.078401718139648438e+02,9.694776916503906250e+01,-2.072618484497070312e+00,4.030399620532989502e-01,-6.667308044433593750e+01,-1.826874694824218750e+02,-2.342460393905639648e+00,7.562255859375000000e+01,3.135598182678222656e+01
2.629449963569641113e-01,1.000000000000000000e+00,-3.561080169677734375e+01,4.681057739257812500e+01,3.074847030639648438e+01,1.077691192626953125e+02,9.696418762207031250e+01,-2.095811843872070312e+00,4.030399620532989502e-01,-6.667316436767578125e+01,-1.826874694824218750e+02,-2.342460393905639648e+00,7.562255859375000000e+01,3.135598182678222656e+01
2.669799923896789551e-01,1.000000000000000000e+00,-3.561080169677734375e+01,4.681057739257812500e+01,3.074847030639648438e+01,1.077691192626953125e+02,9.696418762207031250e+01,-2.095811843872070312e+00,4.030399620532989502e-01,-6.667316436767578125e+01,-1.826874694824218750e+02,-2.342460393905639648e+00,7.562255859375000000e+01,3.135598182678222656e+01
2.710289955139160156e-01,1.000000000000000000e+00,-3.564987564086914062e+01,4.673338699340820312e+01,3.076892662048339844e+01,1.076980590820312500e+02,9.698135375976562500e+01,-2.119479894638061523e+00,4.030399620532989502e-01,-6.667316436767578125e+01,-1.826874694824218750e+02,-2.342460393905639648e+00,7.562255859375000000e+01,3.135598182678222656e+01
2.749620079994201660e-01,1.000000000000000000e+00,-3.568906021118164062e+01,4.665637588500976562e+01,3.078960227966308594e+01,1.076266860961914062e+02,9.699825286865234375e+01,-2.143554687500000000e+00,4.030399620532989502e-01,-6.667308044433593750e+01,-1.826874694824218750e+02,-2.342460393905639648e+00,7.562255859375000000e+01,3.135598182678222656e+01
2.807340025901794434e-01,1.000000000000000000e+00,-3.572835922241210938e+01,4.657946014404296875e+01,3.081005477905273438e+01,1.075561599731445312e+02,9.701537322998046875e+01,-2.167426347732543945e+00,4.030399620532989502e-01,-6.667316436767578125e+01,-1.826874694824218750e+02,-2.342460393905639648e+00,7.562255859375000000e+01,3.135598182678222656e+01
2.840160131454467773e-01,1.000000000000000000e+00,-3.580644226074218750e+01,4.642453384399414062e+01,3.085079956054687500e+01,1.074137268066406250e+02,9.705098724365234375e+01,-2.216864824295043945e+00,4.030399620532989502e-01,-6.667316436767578125e+01,-1.826874694824218750e+02,-2.342460393905639648e+00,7.562270355224609375e+01,3.135598182678222656e+01
2.879199981689453125e-01,1.000000000000000000e+00,-3.584527969360351562e+01,4.634691619873046875e+01,3.087111282348632812e+01,1.073424530029296875e+02,9.706890106201171875e+01,-2.241278886795043945e+00,4.030399620532989502e-01,-6.667316436767578125e+01,-1.826874694824218750e+02,-2.342460393905639648e+00,7.562255859375000000e+01,3.135598182678222656e+01
2.945089936256408691e-01,1.000000000000000000e+00,-3.584527969360351562e+01,4.634691619873046875e+01,3.087111282348632812e+01,1.073424530029296875e+02,9.706890106201171875e+01,-2.241278886795043945e+00,4.030399620532989502e-01,-6.667316436767578125e+01,-1.826874694824218750e+02,-2.342460393905639648e+00,7.562255859375000000e+01,3.135598182678222656e+01
2.961150109767913818e-01,1.000000000000000000e+00,-3.592341995239257812e+01,4.619092559814453125e+01,3.091248703002929688e+01,1.071999740600585938e+02,9.710296630859375000e+01,-2.289089679718017578e+00,4.030399620532989502e-01,-6.667316436767578125e+01,-1.826874694824218750e+02,-2.342532396316528320e+00,7.562255859375000000e+01,3.135598182678222656e+01
2.999590039253234863e-01,1.000000000000000000e+00,-3.592341995239257812e+01,4.619092559814453125e+01,3.091248703002929688e+01,1.071999740600585938e+02,9.710296630859375000e+01,-2.289089679718017578e+00,4.030399620532989502e-01,-6.667316436767578125e+01,-1.826874694824218750e+02,-2.342460393905639648e+00,7.562255859375000000e+01,3.135598182678222656e+01
3.048309981822967529e-01,1.000000000000000000e+00,-3.596252059936523438e+01,4.611287689208984375e+01,3.093314552307128906e+01,1.071291275024414062e+02,9.711976623535156250e+01,-2.312283039093017578e+00,4.030399620532989502e-01,-6.667316436767578125e+01,-1.826874694824218750e+02,-2.342460393905639648e+00,7.562255859375000000e+01,3.135598182678222656e+01
3.079150021076202393e-01,1.000000000000000000e+00,-3.604094696044921875e+01,4.595677566528320312e+01,3.097431755065917969e+01,1.069865875244140625e+02,9.715415191650390625e+01,-2.360840082168579102e+00,4.030399620532989502e-01,-6.667316436767578125e+01,-1.826874694824218750e+02,-2.342532396316528320e+00,7.562270355224609375e+01,3.135598182678222656e+01
3.130330145359039307e-01,1.000000000000000000e+00,-3.604094696044921875e+01,4.595677566528320312e+01,3.097431755065917969e+01,1.069865875244140625e+02,9.715415191650390625e+01,-2.360840082168579102e+00,4.030399620532989502e-01,-6.667316436767578125e+01,-1.826874694824218750e+02,-2.342532396316528320e+00,7.562270355224609375e+01,3.135598182678222656e+01
3.163959980010986328e-01,1.000000000000000000e+00,-3.611963272094726562e+01,4.580103683471679688e+01,3.101538658142089844e+01,1.068435821533203125e+02,9.718944549560546875e+01,-2.410074949264526367e+00,4.030399620532989502e-01,-6.667316436767578125e+01,-1.826875762939453125e+02,-2.342532396316528320e+00,7.562255859375000000e+01,3.135598182678222656e+01
3.199419975280761719e-01,1.000000000000000000e+00,-3.615913391113281250e+01,4.572282791137695312e+01,3.103586006164550781e+01,1.067714691162109375e+02,9.720757293701171875e+01,-2.434421062469482422e+00,4.030399620532989502e-01,-6.667326354980468750e+01,-1.826874694824218750e+02,-2.342460393905639648e+00,7.562255859375000000e+01,3.135598182678222656e+01
3.240320086479187012e-01,1.000000000000000000e+00,-3.615913391113281250e+01,4.572282791137695312e+01,3.103586006164550781e+01,1.067714691162109375e+02,9.720757293701171875e+01,-2.434421062469482422e+00,4.030399620532989502e-01,-6.667326354980468750e+01,-1.826874694824218750e+02,-2.342460393905639648e+00,7.562255859375000000e+01,3.135598182678222656e+01
3.269869983196258545e-01,1.000000000000000000e+00,-3.619889450073242188e+01,4.564441299438476562e+01,3.105633354187011719e+01,1.067003097534179688e+02,9.722554779052734375e+01,-2.458021402359008789e+00,4.030399620532989502e-01,-6.667316436767578125e+01,-1.826874694824218750e+02,-2.342460393905639648e+00,7.562255859375000000e+01,3.135598182678222656e+01
3.319779932498931885e-01,1.000000000000000000e+00,-3.623865127563476562e+01,4.556618118286132812e+01,3.107693099975585938e+01,1.066285629272460938e+02,9.724250030517578125e+01,-2.481892824172973633e+00,4.030399620532989502e-01,-6.667316436767578125e+01,-1.826874694824218750e+02,-2.342460393905639648e+00,7.562255859375000000e+01,3.135598182678222656e+01
3.359850049018859863e-01,1.000000000000000000e+00,-3.627843856811523438e+01,4.548794937133789062e+01,3.109758949279785156e+01,1.065569305419921875e+02,9.725950622558593750e+01,-2.505696773529052734e+00,4.030399620532989502e-01,-6.667316436767578125e+01,-1.826874694824218750e+02,-2.342460393905639648e+00,7.562255859375000000e+01,3.135598182678222656e+01
3.394730091094970703e-01,1.000000000000000000e+00,-3.631859970092773438e+01,4.540926742553710938e+01,3.111834907531738281e+01,1.064849243164062500e+02,9.727640533447265625e+01,-2.529771566390991211e+00,4.030399620532989502e-01,-6.667316436767578125e+01,-1.826874694824218750e+02,-2.342460393905639648e+00,7.562255859375000000e+01,3.135598182678222656e+01
3.440209925174713135e-01,1.000000000000000000e+00,-3.635887527465820312e+01,4.533074188232421875e+01,3.113912582397460938e+01,1.064138641357421875e+02,9.729351806640625000e+01,-2.553982257843017578e+00,4.030399620532989502e-01,-6.667316436767578125e+01,-1.826874694824218750e+02,-2.342532396316528320e+00,7.562255859375000000e+01,3.135598182678222656e+01
3.479929864406585693e-01,1.000000000000000000e+00,-3.639912414550781250e+01,4.525252914428710938e+01,3.115972328186035156e+01,1.063421783447265625e+02,9.731057739257812500e+01,-2.578667640686035156e+00,4.030399620532989502e-01,-6.667316436767578125e+01,-1.826874694824218750e+02,-2.342460393905639648e+00,7.562270355224609375e+01,3.135598182678222656e+01
3.509649932384490967e-01,1.000000000000000000e+00,-3.643943023681640625e+01,4.517398452758789062e+01,3.118019676208496094e+01,1.062702789306640625e+02,9.732833099365234375e+01,-2.603420734405517578e+00,4.030399620532989502e-01,-6.667316436767578125e+01,-1.826874694824218750e+02,-2.342532396316528320e+00,7.562255859375000000e+01,3.135598182678222656e+01
3.559629917144775391e-01,1.000000000000000000e+00,-3.647990417480468750e+01,4.509570693969726562e+01,3.120081329345703125e+01,1.061983795166015625e+02,9.734646606445312500e+01,-2.627495765686035156e+00,4.030399620532989502e-01,-6.667308044433593750e+01,-1.826874694824218750e+02,-2.342460393905639648e+00,7.562255859375000000e+01,3.135598182678222656e+01
3.599660098552703857e-01,1.000000000000000000e+00,-3.652052307128906250e+01,4.501722335815429688e+01,3.122157287597656250e+01,1.061268463134765625e+02,9.736454010009765625e+01,-2.650960445404052734e+00,4.030399620532989502e-01,-6.667316436767578125e+01,-1.826874694824218750e+02,-2.342460393905639648e+00,7.562255859375000000e+01,3.135598182678222656e+01
3.640289902687072754e-01,1.000000000000000000e+00,-3.656097030639648438e+01,4.493890380859375000e+01,3.124239158630371094e+01,1.060548400878906250e+02,9.738181304931640625e+01,-2.674831867218017578e+00,4.030399620532989502e-01,-6.667316436767578125e+01,-1.826875762939453125e+02,-2.342316627502441406e+00,7.562255859375000000e+01,3.135598182678222656e+01
3.670260012149810791e-01,1.000000000000000000e+00,-3.660168075561523438e+01,4.486066818237304688e+01,3.126307106018066406e+01,1.059831542968750000e+02,9.739871215820312500e+01,-2.699042558670043945e+00,4.030399620532989502e-01,-6.667316436767578125e+01,-1.826874694824218750e+02,-2.342460393905639648e+00,7.562255859375000000e+01,3.135598182678222656e+01
3.712140023708343506e-01,1.000000000000000000e+00,-3.664235687255859375e+01,4.478212356567382812e+01,3.128392982482910156e+01,1.059104614257812500e+02,9.741603851318359375e+01,-2.722981929779052734e+00,4.030399620532989502e-01,-6.667316436767578125e+01,-1.826874694824218750e+02,-2.342532396316528320e+00,7.562270355224609375e+01,3.135598182678222656e+01
3.751110136508941650e-01,1.000000000000000000e+00,-3.668314743041992188e+01,4.470312118530273438e+01,3.130467033386230469e+01,1.058387222290039062e+02,9.743315887451171875e+01,-2.747870683670043945e+00,4.030399620532989502e-01,-6.667316436767578125e+01,-1.826875762939453125e+02,-2.342460393905639648e+00,7.562255859375000000e+01,3.135619926452636719e+01
3.799709975719451904e-01,1.000000000000000000e+00,-3.672373962402343750e+01,4.462393951416015625e+01,3.132546806335449219e+01,1.057666091918945312e+02,9.745032501220703125e+01,-2.772759437561035156e+00,4.030399620532989502e-01,-6.667316436767578125e+01,-1.826875762939453125e+02,-2.342460393905639648e+00,7.562255859375000000e+01,3.135598182678222656e+01
3.840259909629821777e-01,1.000000000000000000e+00,-3.676424407958984375e+01,4.454514312744140625e+01,3.134638786315917969e+01,1.056950302124023438e+02,9.746802520751953125e+01,-2.796969890594482422e+00,4.030399620532989502e-01,-6.667316436767578125e+01,-1.826874694824218750e+02,-2.342460393905639648e+00,7.562255859375000000e+01,3.135598182678222656e+01
3.879869878292083740e-01,1.000000000000000000e+00,-3.680492401123046875e+01,4.446636581420898438e+01,3.136708831787109375e+01,1.056225967407226562e+02,9.748603820800781250e+01,-2.821112871170043945e+00,4.030399620532989502e-01,-6.667316436767578125e+01,-1.826874694824218750e+02,-2.342532396316528320e+00,7.562255859375000000e+01,3.135619926452636719e+01
3.924199938774108887e-01,1.000000000000000000e+00,-3.688616561889648438e+01,4.430918121337890625e+01,3.140842056274414062e+01,1.054785385131835938e+02,9.752224731445312500e+01,-2.868584632873535156e+00,4.030399620532989502e-01,-6.667316436767578125e+01,-1.826874694824218750e+02,-2.342316627502441406e+00,7.562255859375000000e+01,3.135598182678222656e+01
3.952969908714294434e-01,1.000000000000000000e+00,-3.688616561889648438e+01,4.430918121337890625e+01,3.140842056274414062e+01,1.054785385131835938e+02,9.752224731445312500e+01,-2.868584632873535156e+00,4.030399620532989502e-01,-6.667316436767578125e+01,-1.826874694824218750e+02,-2.342316627502441406e+00,7.562255859375000000e+01,3.135598182678222656e+01
3.992539942264556885e-01,1.000000000000000000e+00,-3.692672348022460938e+01,4.423054122924804688e+01,3.142924308776855469e+01,1.054066848754882812e+02,9.753936004638671875e+01,-2.892659664154052734e+00,4.030399620532989502e-01,-6.667316436767578125e+01,-1.826874694824218750e+02,-2.342460393905639648e+00,7.562255859375000000e+01,3.135598182678222656e+01
4.031200110912322998e-01,1.000000000000000000e+00,-3.696731567382812500e+01,4.415160751342773438e+01,3.145036506652832031e+01,1.053338394165039062e+02,9.755620574951171875e+01,-2.917005777359008789e+00,4.030399620532989502e-01,-6.667308044433593750e+01,-1.826874694824218750e+02,-2.342532396316528320e+00,7.562255859375000000e+01,3.135598182678222656e+01
4.073590040206909180e-01,1.000000000000000000e+00,-3.700782394409179688e+01,4.407226562500000000e+01,3.147130584716796875e+01,1.052622070312500000e+02,9.757347869873046875e+01,-2.941759109497070312e+00,4.030399620532989502e-01,-6.667316436767578125e+01,-1.826874694824218750e+02,-2.342532396316528320e+00,7.562255859375000000e+01,3.135598182678222656e+01
4.121209979057312012e-01,1.000000000000000000e+00,-3.704824066162109375e+01,4.399290466308593750e+01,3.149208641052246094e+01,1.051896667480468750e+02,9.759059906005859375e+01,-2.967122554779052734e+00,4.030399620532989502e-01,-6.667316436767578125e+01,-1.826875762939453125e+02,-2.342460393905639648e+00,7.562255859375000000e+01,3.135598182678222656e+01
4.153079986572265625e-01,1.000000000000000000e+00,-3.708880615234375000e+01,4.391313552856445312e+01,3.151290512084960938e+01,1.051177215576171875e+02,9.760819244384765625e+01,-2.991672277450561523e+00,4.030399620532989502e-01,-6.667316436767578125e+01,-1.826874694824218750e+02,-2.342532396316528320e+00,7.562255859375000000e+01,3.135619926452636719e+01
4.193370044231414795e-01,1.000000000000000000e+00,-3.712933731079101562e+01,4.383372497558593750e+01,3.153378868103027344e+01,1.050446090698242188e+02,9.762642669677734375e+01,-3.015475749969482422e+00,4.030399620532989502e-01,-6.667316436767578125e+01,-1.826874694824218750e+02,-2.342460393905639648e+00,7.562255859375000000e+01,3.135598182678222656e+01
4.240590035915374756e-01,1.000000000000000000e+00,-3.716967010498046875e+01,4.375445175170898438e+01,3.155479049682617188e+01,1.049722824096679688e+02,9.764455413818359375e+01,-3.039415121078491211e+00,4.030399620532989502e-01,-6.667316436767578125e+01,-1.826874694824218750e+02,-2.342316627502441406e+00,7.562255859375000000e+01,3.135598182678222656e+01
4.273760020732879639e-01,1.000000000000000000e+00,-3.721003341674804688e+01,4.367531585693359375e+01,3.157581520080566406e+01,1.048997573852539062e+02,9.766268157958984375e+01,-3.063761472702026367e+00,4.030399620532989502e-01,-6.667316436767578125e+01,-1.826874694824218750e+02,-2.342460393905639648e+00,7.562255859375000000e+01,3.135598182678222656e+01
4.315910041332244873e-01,1.000000000000000000e+00,-3.725022506713867188e+01,4.359619903564453125e+01,3.159657096862792969e+01,1.048278503417968750e+02,9.768016815185546875e+01,-3.088039875030517578e+00,4.030399620532989502e-01,-6.667316436767578125e+01,-1.826874694824218750e+02,-2.342532396316528320e+00,7.562255859375000000e+01,3.135598182678222656e+01
4.363029897212982178e-01,1.000000000000000000e+00,-3.729078292846679688e+01,4.351692962646484375e+01,3.161735153198242188e+01,1.047552719116210938e+02,9.769706726074218750e+01,-3.112589597702026367e+00,4.030399620532989502e-01,-6.667316436767578125e+01,-1.826874694824218750e+02,-2.342316627502441406e+00,7.562255859375000000e+01,3.135598182678222656e+01
4.398060142993927002e-01,1.000000000000000000e+00,-3.733123397827148438e+01,4.343772506713867188e+01,3.163825225830078125e+01,1.046827850341796875e+02,9.771450042724609375e+01,-3.137614250183105469e+00,4.030399620532989502e-01,-6.667316436767578125e+01,-1.826874694824218750e+02,-2.342460393905639648e+00,7.562255859375000000e+01,3.135598182678222656e+01
4.441840052604675293e-01,1.000000000000000000e+00,-3.737173843383789062e+01,4.335829544067382812e+01,3.165923500061035156e+01,1.046099395751953125e+02,9.773194122314453125e+01,-3.162435054779052734e+00,4.030399620532989502e-01,-6.667316436767578125e+01,-1.826874694824218750e+02,-2.342460393905639648e+00,7.562255859375000000e+01,3.135598182678222656e+01
4.476290047168731689e-01,1.000000000000000000e+00,-3.741212844848632812e+01,4.327861404418945312e+01,3.168045997619628906e+01,1.045374603271484375e+02,9.774937438964843750e+01,-3.186916828155517578e+00,4.030399620532989502e-01,-6.667316436767578125e+01,-1.826874694824218750e+02,-2.342460393905639648e+00,7.562255859375000000e+01,3.135598182678222656e+01
4.520590007305145264e-01,1.000000000000000000e+00,-3.745274734497070312e+01,4.319850158691406250e+01,3.170138168334960938e+01,1.044646072387695312e+02,9.776750183105468750e+01,-3.210924148559570312e+00,4.030399620532989502e-01,-6.667316436767578125e+01,-1.826874694824218750e+02,-2.342460393905639648e+00,7.562255859375000000e+01,3.135598182678222656e+01
4.557769894599914551e-01,1.000000000000000000e+00,-3.749328231811523438e+01,4.311846160888671875e+01,3.172222328186035156e+01,1.043922882080078125e+02,9.778573608398437500e+01,-3.234998941421508789e+00,4.030399620532989502e-01,-6.667316436767578125e+01,-1.826875762939453125e+02,-2.342460393905639648e+00,7.562255859375000000e+01,3.135598182678222656e+01
4.604859948158264160e-01,1.000000000000000000e+00,-3.753395843505859375e+01,4.303866958618164062e+01,3.174312400817871094e+01,1.043193359375000000e+02,9.780434417724609375e+01,-3.259616374969482422e+00,4.030399620532989502e-01,-6.667308044433593750e+01,-1.826874694824218750e+02,-2.342460393905639648e+00,7.562255859375000000e+01,3.135598182678222656e+01
4.640539884567260742e-01,1.000000000000000000e+00,-3.757460784912109375e+01,4.295903015136718750e+01,3.176420783996582031e+01,1.042463836669921875e+02,9.782193756103515625e+01,-3.284166336059570312e+00,4.030399620532989502e-01,-6.667316436767578125e+01,-1.826874694824218750e+02,-2.342460393905639648e+00,7.562255859375000000e+01,3.135598182678222656e+01
4.676989912986755371e-01,1.000000000000000000e+00,-3.761534500122070312e+01,4.287969207763671875e+01,3.178545379638671875e+01,1.041731109619140625e+02,9.783872985839843750e+01,-3.309190511703491211e+00,4.030399620532989502e-01,-6.667316436767578125e+01,-1.826874694824218750e+02,-2.342460393905639648e+00,7.562255859375000000e+01,3.135598182678222656e+01
4.720579981803894043e-01,1.000000000000000000e+00,-3.765604782104492188e+01,4.280064773559570312e+01,3.180655860900878906e+01,1.041008987426757812e+02,9.785605621337890625e+01,-3.334418535232543945e+00,4.030399620532989502e-01,-6.667316436767578125e+01,-1.826874694824218750e+02,-2.342460393905639648e+00,7.562255859375000000e+01,3.135576248168945312e+01
4.758830070495605469e-01,1.000000000000000000e+00,-3.769681549072265625e+01,4.272128295898437500e+01,3.182745933532714844e+01,1.040274734497070312e+02,9.787339019775390625e+01,-3.359578609466552734e+00,4.030399620532989502e-01,-6.667316436767578125e+01,-1.826874694824218750e+02,-2.342532396316528320e+00,7.562255859375000000e+01,3.135576248168945312e+01
4.799999892711639404e-01,1.000000000000000000e+00,-3.773757934570312500e+01,4.264142227172851562e+01,3.184826087951660156e+01,1.039547271728515625e+02,9.789103698730468750e+01,-3.383653640747070312e+00,4.030399620532989502e-01,-6.667316436767578125e+01,-1.826874694824218750e+02,-2.342460393905639648e+00,7.562255859375000000e+01,3.135576248168945312e+01
4.847019910812377930e-01,1.000000000000000000e+00,-3.777842712402343750e+01,4.256129074096679688e+01,3.186918067932128906e+01,1.038814544677734375e+02,9.790867614746093750e+01,-3.407864332199096680e+00,4.030399620532989502e-01,-6.667316436767578125e+01,-1.826874694824218750e+02,-2.342460393905639648e+00,7.562255859375000000e+01,3.135598182678222656e+01
4.881350100040435791e-01,1.000000000000000000e+00,-3.781950759887695312e+01,4.248109054565429688e+01,3.189048767089843750e+01,1.038087158203125000e+02,9.792707061767578125e+01,-3.432142496109008789e+00,4.030399620532989502e-01,-6.667316436767578125e+01,-1.826874694824218750e+02,-2.342460393905639648e+00,7.562255859375000000e+01,3.135598182678222656e+01
4.920830130577087402e-01,1.000000000000000000e+00,-3.786050033569335938e+01,4.240066528320312500e+01,3.191169548034667969e+01,1.037351760864257812e+02,9.794531250000000000e+01,-3.456624507904052734e+00,4.030399620532989502e-01,-6.667316436767578125e+01,-1.826874694824218750e+02,-2.342460393905639648e+00,7.562255859375000000e+01,3.135598182678222656e+01
4.971930086612701416e-01,1.000000000000000000e+00,-3.790158081054687500e+01,4.232012176513671875e+01,3.193302345275878906e+01,1.036625976562500000e+02,9.796317291259765625e+01,-3.481920242309570312e+00,4.030399620532989502e-01,-6.667316436767578125e+01,-1.826874694824218750e+02,-2.342460393905639648e+00,7.562255859375000000e+01,3.135598182678222656e+01
5.000680088996887207e-01,1.000000000000000000e+00,-3.794251632690429688e+01,4.224005889892578125e+01,3.195404624938964844e+01,1.035891723632812500e+02,9.798028564453125000e+01,-3.507215738296508789e+00,4.030399620532989502e-01,-6.667316436767578125e+01,-1.826875762939453125e+02,-2.342460393905639648e+00,7.562255859375000000e+01,3.135598182678222656e+01
5.042409896850585938e-01,1.000000000000000000e+00,-3.798345184326171875e+01,4.216019821166992188e+01,3.197494697570800781e+01,1.035162200927734375e+02,9.799777221679687500e+01,-3.532511472702026367e+00,4.030399620532989502e-01,-6.667316436767578125e+01,-1.826874694824218750e+02,-2.342460393905639648e+00,7.562255859375000000e+01,3.135598182678222656e+01
5.088049769401550293e-01,1.000000000000000000e+00,-3.802438735961914062e+01,4.208029174804687500e+01,3.199615097045898438e+01,1.034424743652343750e+02,9.801541900634765625e+01,-3.556993246078491211e+00,4.030399620532989502e-01,-6.667316436767578125e+01,-1.826874694824218750e+02,-2.342532396316528320e+00,7.562255859375000000e+01,3.135598182678222656e+01
5.120599865913391113e-01,1.000000000000000000e+00,-3.806543731689453125e+01,4.200038528442382812e+01,3.201737976074218750e+01,1.033694610595703125e+02,9.803290557861328125e+01,-3.581000328063964844e+00,4.030399620532989502e-01,-6.667316436767578125e+01,-1.826874694824218750e+02,-2.342460393905639648e+00,7.562255859375000000e+01,3.135598182678222656e+01
5.162010192871093750e-01,1.000000000000000000e+00,-3.810649108886718750e+01,4.192027664184570312e+01,3.203838348388671875e+01,1.032955627441406250e+02,9.805076599121093750e+01,-3.605346918106079102e+00,4.030399620532989502e-01,-6.667316436767578125e+01,-1.826874694824218750e+02,-2.342460393905639648e+00,7.562255859375000000e+01,3.135598182678222656e+01
5.200399756431579590e-01,1.000000000000000000e+00,-3.814751052856445312e+01,4.183964538574218750e+01,3.205950927734375000e+01,1.032224502563476562e+02,9.806948089599609375e+01,-3.629964351654052734e+00,4.030399620532989502e-01,-6.667316436767578125e+01,-1.826875762939453125e+02,-2.342460393905639648e+00,7.562255859375000000e+01,3.135598182678222656e+01
5.242750048637390137e-01,1.000000000000000000e+00,-3.818856048583984375e+01,4.175867462158203125e+01,3.208067321777343750e+01,1.031488723754882812e+02,9.808814239501953125e+01,-3.654785156250000000e+00,4.030399620532989502e-01,-6.667316436767578125e+01,-1.826874694824218750e+02,-2.342460393905639648e+00,7.562255859375000000e+01,3.135598182678222656e+01
5.281950235366821289e-01,1.000000000000000000e+00,-3.822975921630859375e+01,4.167734527587890625e+01,3.210199737548828125e+01,1.030752258300781250e+02,9.810617065429687500e+01,-3.679470777511596680e+00,4.030399620532989502e-01,-6.667316436767578125e+01,-1.826874694824218750e+02,-2.342532396316528320e+00,7.562255859375000000e+01,3.135598182678222656e+01
5.329329967498779297e-01,1.000000000000000000e+00,-3.827072143554687500e+01,4.159646224975585938e+01,3.212351226806640625e+01,1.030015335083007812e+02,9.812344360351562500e+01,-3.705105304718017578e+00,4.030399620532989502e-01,-6.667326354980468750e+01,-1.826874694824218750e+02,-2.342532396316528320e+00,7.562255859375000000e+01,3.135598182678222656e+01
5.365110039710998535e-01,1.000000000000000000e+00,-3.831174468994140625e+01,4.151567459106445312e+01,3.214477920532226562e+01,1.029284210205078125e+02,9.814076995849609375e+01,-3.730401039123535156e+00,4.030399620532989502e-01,-6.667308044433593750e+01,-1.826874694824218750e+02,-2.342460393905639648e+00,7.562255859375000000e+01,3.135598182678222656e+01
5.403149724006652832e-01,1.000000000000000000e+00,-3.835290908813476562e+01,4.143502044677734375e+01,3.216596221923828125e+01,1.028548431396484375e+02,9.815830993652343750e+01,-3.754815101623535156e+00,4.030399620532989502e-01,-6.667316436767578125e+01,-1.826874694824218750e+02,-2.342460393905639648e+00,7.562241363525390625e+01,3.135598182678222656e+01
5.443710088729858398e-01,1.000000000000000000e+00,-3.839401626586914062e+01,4.135486602783203125e+01,3.218704986572265625e+01,1.027808837890625000e+02,9.817579650878906250e+01,-3.778890132904052734e+00,4.030399620532989502e-01,-6.667316436767578125e+01,-1.826874694824218750e+02,-2.342460393905639648e+00,7.562270355224609375e+01,3.135598182678222656e+01
5.469030141830444336e-01,1.000000000000000000e+00,-3.843498229980468750e+01,4.127457427978515625e+01,3.220819473266601562e+01,1.027074050903320312e+02,9.819349670410156250e+01,-3.803372144699096680e+00,4.030399620532989502e-01,-6.667316436767578125e+01,-1.826874694824218750e+02,-2.342460393905639648e+00,7.562255859375000000e+01,3.135598182678222656e+01
5.509309768676757812e-01,1.000000000000000000e+00,-3.847591781616210938e+01,4.119410324096679688e+01,3.222949981689453125e+01,1.026337738037109375e+02,9.821215820312500000e+01,-3.828057289123535156e+00,4.030399620532989502e-01,-6.667316436767578125e+01,-1.826874694824218750e+02,-2.342460393905639648e+00,7.562255859375000000e+01,3.135598182678222656e+01
5.549330115318298340e-01,1.000000000000000000e+00,-3.851688003540039062e+01,4.111320114135742188e+01,3.225091171264648438e+01,1.025598144531250000e+02,9.823097229003906250e+01,-3.853013992309570312e+00,4.030399620532989502e-01,-6.667316436767578125e+01,-1.826874694824218750e+02,-2.342460393905639648e+00,7.562255859375000000e+01,3.135598182678222656e+01
5.605040192604064941e-01,1.000000000000000000e+00,-3.855799102783203125e+01,4.103216552734375000e+01,3.227225875854492188e+01,1.024854888916015625e+02,9.824900054931640625e+01,-3.878581047058105469e+00,4.030399620532989502e-01,-6.667316436767578125e+01,-1.826874694824218750e+02,-2.342460393905639648e+00,7.562255859375000000e+01,3.135598182678222656e+01
5.645310282707214355e-01,1.000000000000000000e+00,-3.859906768798828125e+01,4.095063018798828125e+01,3.229366683959960938e+01,1.024117507934570312e+02,9.826632690429687500e+01,-3.904351234436035156e+00,4.030399620532989502e-01,-6.667316436767578125e+01,-1.826874694824218750e+02,-2.342532396316528320e+00,7.562255859375000000e+01,3.135598182678222656e+01
5.685179829597473145e-01,1.000000000000000000e+00,-3.864009094238281250e+01,4.086898040771484375e+01,3.231499481201171875e+01,1.023378448486328125e+02,9.828376007080078125e+01,-3.928968667984008789e+00,4.030399620532989502e-01,-6.667316436767578125e+01,-1.826874694824218750e+02,-2.342532396316528320e+00,7.562255859375000000e+01,3.135598182678222656e+01
5.709019899368286133e-01,1.000000000000000000e+00,-3.868105697631835938e+01,4.078787612915039062e+01,3.233636474609375000e+01,1.022642059326171875e+02,9.830152130126953125e+01,-3.952772140502929688e+00,4.030399620532989502e-01,-6.667326354980468750e+01,-1.826874694824218750e+02,-2.342532396316528320e+00,7.562255859375000000e+01,3.135598182678222656e+01
5.749300122261047363e-01,1.000000000000000000e+00,-3.872227859497070312e+01,4.070692825317382812e+01,3.235787582397460938e+01,1.021899871826171875e+02,9.831938171386718750e+01,-3.977457761764526367e+00,4.030399620532989502e-01,-6.667316436767578125e+01,-1.826874694824218750e+02,-2.342460393905639648e+00,7.562255859375000000e+01,3.135598182678222656e+01
5.789470076560974121e-01,1.000000000000000000e+00,-3.876358795166015625e+01,4.062638473510742188e+01,3.237910461425781250e+01,1.021159286499023438e+02,9.833739471435546875e+01,-4.002075195312500000e+00,4.030399620532989502e-01,-6.667316436767578125e+01,-1.826874694824218750e+02,-2.342460393905639648e+00,7.562255859375000000e+01,3.135598182678222656e+01
5.849710106849670410e-01,1.000000000000000000e+00,-3.880478286743164062e+01,4.054557418823242188e+01,3.240032958984375000e+01,1.020417633056640625e+02,9.835600280761718750e+01,-4.026692867279052734e+00,4.030399620532989502e-01,-6.667316436767578125e+01,-1.826874694824218750e+02,-2.342603921890258789e+00,7.562255859375000000e+01,3.135598182678222656e+01
5.869590044021606445e-01,1.000000000000000000e+00,-3.884608840942382812e+01,4.046480560302734375e+01,3.242167663574218750e+01,1.019683380126953125e+02,9.837498474121093750e+01,-4.052395343780517578e+00,4.030399620532989502e-01,-6.667316436767578125e+01,-1.826874694824218750e+02,-2.342603921890258789e+00,7.562255859375000000e+01,3.135598182678222656e+01
5.910159945487976074e-01,1.000000000000000000e+00,-3.888757324218750000e+01,4.038372802734375000e+01,3.244312667846679688e+01,1.018935394287109375e+02,9.839337921142578125e+01,-4.078030109405517578e+00,4.030399620532989502e-01,-6.667316436767578125e+01,-1.826874694824218750e+02,-2.342532396316528320e+00,7.562255859375000000e+01,3.135598182678222656e+01
5.968670248985290527e-01,1.000000000000000000e+00,-3.892890930175781250e+01,4.030216598510742188e+01,3.246459579467773438e+01,1.018198547363281250e+02,9.841118621826171875e+01,-4.103732585906982422e+00,4.030399620532989502e-01,-6.667316436767578125e+01,-1.826874694824218750e+02,-2.342460393905639648e+00,7.562255859375000000e+01,3.135598182678222656e+01
6.009619832038879395e-01,1.000000000000000000e+00,-3.897042083740234375e+01,4.022015762329101562e+01,3.248614883422851562e+01,1.017451553344726562e+02,9.842851257324218750e+01,-4.128214836120605469e+00,4.030399620532989502e-01,-6.667326354980468750e+01,-1.826874694824218750e+02,-2.342460393905639648e+00,7.562255859375000000e+01,3.135598182678222656e+01
6.029120087623596191e-01,1.000000000000000000e+00,-3.901215744018554688e+01,4.013816833496093750e+01,3.250749588012695312e+01,1.016713638305664062e+02,9.844621276855468750e+01,-4.152425289154052734e+00,4.030399620532989502e-01,-6.667316436767578125e+01,-1.826874694824218750e+02,-2.342316627502441406e+00,7.562255859375000000e+01,3.135598182678222656e+01
6.089029908180236816e-01,1.000000000000000000e+00,-3.905364227294921875e+01,4.005631637573242188e+01,3.252878189086914062e+01,1.015963516235351562e+02,9.846423339843750000e+01,-4.177313804626464844e+00,4.030399620532989502e-01,-6.667316436767578125e+01,-1.826874694824218750e+02,-2.342532396316528320e+00,7.562255859375000000e+01,3.135598182678222656e+01
6.129950284957885742e-01,1.000000000000000000e+00,-3.909543991088867188e+01,3.997491455078125000e+01,3.255021286010742188e+01,1.015223999023437500e+02,9.848246765136718750e+01,-4.202610015869140625e+00,4.030399620532989502e-01,-6.667316436767578125e+01,-1.826875762939453125e+02,-2.342460393905639648e+00,7.562255859375000000e+01,3.135598182678222656e+01
6.149250268936157227e-01,1.000000000000000000e+00,-3.913709259033203125e+01,3.989403533935546875e+01,3.257170486450195312e+01,1.014475479125976562e+02,9.850118255615234375e+01,-4.227566242218017578e+00,4.030399620532989502e-01,-6.667316436767578125e+01,-1.826874694824218750e+02,-2.342460393905639648e+00,7.562255859375000000e+01,3.135619926452636719e+01
6.189010143280029297e-01,1.000000000000000000e+00,-3.917908859252929688e+01,3.981299972534179688e+01,3.259311294555664062e+01,1.013734359741210938e+02,9.852021789550781250e+01,-4.253336906433105469e+00,4.030399620532989502e-01,-6.667316436767578125e+01,-1.826874694824218750e+02,-2.342460393905639648e+00,7.562255859375000000e+01,3.135598182678222656e+01
6.229370236396789551e-01,1.000000000000000000e+00,-3.922106170654296875e+01,3.973168945312500000e+01,3.261464691162109375e+01,1.012988510131835938e+02,9.853850555419921875e+01,-4.278903484344482422e+00,4.030399620532989502e-01,-6.667316436767578125e+01,-1.826874694824218750e+02,-2.342460393905639648e+00,7.562255859375000000e+01,3.135598182678222656e+01
6.268960237503051758e-01,1.000000000000000000e+00,-3.926302719116210938e+01,3.964981460571289062e+01,3.263613510131835938e+01,1.012244186401367188e+02,9.855631256103515625e+01,-4.303792476654052734e+00,4.030399620532989502e-01,-6.667316436767578125e+01,-1.826874694824218750e+02,-2.342460393905639648e+00,7.562255859375000000e+01,3.135598182678222656e+01
6.332250237464904785e-01,1.000000000000000000e+00,-3.930502700805664062e+01,3.956787490844726562e+01,3.265764999389648438e+01,1.011498336791992188e+02,9.857406616210937500e+01,-4.328613281250000000e+00,4.030399620532989502e-01,-6.667316436767578125e+01,-1.826874694824218750e+02,-2.342460393905639648e+00,7.562255859375000000e+01,3.135598182678222656e+01
6.349599957466125488e-01,1.000000000000000000e+00,-3.934705352783203125e+01,3.948554611206054688e+01,3.267936325073242188e+01,1.010753021240234375e+02,9.859224700927734375e+01,-4.353366851806640625e+00,4.030399620532989502e-01,-6.667308044433593750e+01,-1.826874694824218750e+02,-2.342460393905639648e+00,7.562255859375000000e+01,3.135576248168945312e+01
6.389399766921997070e-01,1.000000000000000000e+00,-3.938908004760742188e+01,3.940314865112304688e+01,3.270087432861328125e+01,1.010005035400390625e+02,9.861026763916015625e+01,-4.378730297088623047e+00,4.030399620532989502e-01,-6.667316436767578125e+01,-1.826874694824218750e+02,-2.342460393905639648e+00,7.562255859375000000e+01,3.135598182678222656e+01
6.429539918899536133e-01,1.000000000000000000e+00,-3.943116378784179688e+01,3.932111740112304688e+01,3.272232437133789062e+01,1.009260253906250000e+02,9.862850952148437500e+01,-4.403821945190429688e+00,4.030399620532989502e-01,-6.667316436767578125e+01,-1.826875762939453125e+02,-2.342460393905639648e+00,7.562255859375000000e+01,3.135598182678222656e+01
6.469280123710632324e-01,1.000000000000000000e+00,-3.947313690185546875e+01,3.923933029174804688e+01,3.274387741088867188e+01,1.008509063720703125e+02,9.864710998535156250e+01,-4.429253578186035156e+00,4.030399620532989502e-01,-6.667316436767578125e+01,-1.826873016357421875e+02,-2.342460393905639648e+00,7.562255859375000000e+01,3.135598182678222656e+01
6.510530114173889160e-01,1.000000000000000000e+00,-3.951527786254882812e+01,3.915784072875976562e+01,3.276559066772460938e+01,1.007760086059570312e+02,9.866641235351562500e+01,-4.455837726593017578e+00,4.030399620532989502e-01,-6.667316436767578125e+01,-1.826875762939453125e+02,-2.342460393905639648e+00,7.562255859375000000e+01,3.135598182678222656e+01
6.570590138435363770e-01,1.000000000000000000e+00,-3.955736160278320312e+01,3.907612228393554688e+01,3.278734207153320312e+01,1.007012100219726562e+02,9.868475341796875000e+01,-4.481269359588623047e+00,4.030399620532989502e-01,-6.667316436767578125e+01,-1.826875762939453125e+02,-2.342460393905639648e+00,7.562255859375000000e+01,3.135598182678222656e+01
6.589199900627136230e-01,1.000000000000000000e+00,-3.959933090209960938e+01,3.899443054199218750e+01,3.280893707275390625e+01,1.006264114379882812e+02,9.870277404785156250e+01,-4.506022453308105469e+00,4.030399620532989502e-01,-6.667316436767578125e+01,-1.826874694824218750e+02,-2.342460393905639648e+00,7.562255859375000000e+01,3.135598182678222656e+01
6.653919816017150879e-01,1.000000000000000000e+00,-3.959933090209960938e+01,3.899443054199218750e+01,3.280893707275390625e+01,1.006264114379882812e+02,9.870277404785156250e+01,-4.506022453308105469e+00,4.030399620532989502e-01,-6.667316436767578125e+01,-1.826874694824218750e+02,-2.342460393905639648e+00,7.562255859375000000e+01,3.135598182678222656e+01
6.676350235939025879e-01,1.000000000000000000e+00,-3.968355560302734375e+01,3.883002090454101562e+01,3.285179519653320312e+01,1.004760284423828125e+02,9.873817443847656250e+01,-4.556070804595947266e+00,4.030399620532989502e-01,-6.667316436767578125e+01,-1.826874694824218750e+02,-2.342532396316528320e+00,7.562255859375000000e+01,3.135598182678222656e+01
6.719719767570495605e-01,1.000000000000000000e+00,-3.972566986083984375e+01,3.874720001220703125e+01,3.287348937988281250e+01,1.004013900756835938e+02,9.875619506835937500e+01,-4.581367015838623047e+00,4.030399620532989502e-01,-6.667316436767578125e+01,-1.826874694824218750e+02,-2.342532396316528320e+00,7.562255859375000000e+01,3.135598182678222656e+01
6.749650239944458008e-01,1.000000000000000000e+00,-3.976775360107421875e+01,3.866444015502929688e+01,3.289528274536132812e+01,1.003261718750000000e+02,9.877448272705078125e+01,-4.607069492340087891e+00,4.030399620532989502e-01,-6.667316436767578125e+01,-1.826874694824218750e+02,-2.342532396316528320e+00,7.562255859375000000e+01,3.135598182678222656e+01
6.819630265235900879e-01,1.000000000000000000e+00,-3.976775360107421875e+01,3.866444015502929688e+01,3.289528274536132812e+01,1.003261718750000000e+02,9.877448272705078125e+01,-4.607069492340087891e+00,4.030399620532989502e-01,-6.667316436767578125e+01,-1.826874694824218750e+02,-2.342532396316528320e+00,7.562255859375000000e+01,3.135598182678222656e+01
6.839669942855834961e-01,1.000000000000000000e+00,-3.985189437866210938e+01,3.849942398071289062e+01,3.293871307373046875e+01,1.001757812500000000e+02,9.881260681152343750e+01,-4.658813476562500000e+00,4.030399620532989502e-01,-6.667316436767578125e+01,-1.826874694824218750e+02,-2.342460393905639648e+00,7.562255859375000000e+01,3.135598182678222656e+01
6.869760155677795410e-01,1.000000000000000000e+00,-3.989392089843750000e+01,3.841752624511718750e+01,3.296046829223632812e+01,1.001008300781250000e+02,9.883116149902343750e+01,-4.683702468872070312e+00,4.030399620532989502e-01,-6.667316436767578125e+01,-1.826874694824218750e+02,-2.342532396316528320e+00,7.562255859375000000e+01,3.135598182678222656e+01
6.919569969177246094e-01,1.000000000000000000e+00,-3.989392089843750000e+01,3.841752624511718750e+01,3.296046829223632812e+01,1.001008300781250000e+02,9.883116149902343750e+01,-4.683702468872070312e+00,4.030399620532989502e-01,-6.667316436767578125e+01,-1.826874694824218750e+02,-2.342532396316528320e+00,7.562255859375000000e+01,3.135598182678222656e+01
6.949070096015930176e-01,1.000000000000000000e+00,-3.997811508178710938e+01,3.825341415405273438e+01,3.300395965576171875e+01,9.995002746582031250e+01,9.886672210693359375e+01,-4.733547687530517578e+00,4.030399620532989502e-01,-6.667308044433593750e+01,-1.826874694824218750e+02,-2.342460393905639648e+00,7.562270355224609375e+01,3.135598182678222656e+01
6.999660134315490723e-01,1.000000000000000000e+00,-3.997811508178710938e+01,3.825341415405273438e+01,3.300395965576171875e+01,9.995002746582031250e+01,9.886672210693359375e+01,-4.733547687530517578e+00,4.030399620532989502e-01,-6.667308044433593750e+01,-1.826874694824218750e+02,-2.342460393905639648e+00,7.562270355224609375e+01,3.135598182678222656e+01
7.039510011672973633e-01,1.000000000000000000e+00,-4.006228256225585938e+01,3.808814620971679688e+01,3.304728698730468750e+01,9.979906463623046875e+01,9.890324401855468750e+01,-4.784613609313964844e+00,4.030399620532989502e-01,-6.667316436767578125e+01,-1.826874694824218750e+02,-2.342460393905639648e+00,7.562255859375000000e+01,3.135598182678222656e+01
7.069389820098876953e-01,1.000000000000000000e+00,-4.010451126098632812e+01,3.800507354736328125e+01,3.306888198852539062e+01,9.972337341308593750e+01,9.892147064208984375e+01,-4.810587882995605469e+00,4.030399620532989502e-01,-6.667316436767578125e+01,-1.826874694824218750e+02,-2.342460393905639648e+00,7.562255859375000000e+01,3.135598182678222656e+01
7.119569778442382812e-01,1.000000000000000000e+00,-4.010451126098632812e+01,3.800507354736328125e+01,3.306888198852539062e+01,9.972337341308593750e+01,9.892147064208984375e+01,-4.810587882995605469e+00,4.030399620532989502e-01,-6.667316436767578125e+01,-1.826874694824218750e+02,-2.342460393905639648e+00,7.562255859375000000e+01,3.135598182678222656e+01
7.159990072250366211e-01,1.000000000000000000e+00,-4.018885421752929688e+01,3.783871841430664062e+01,3.311265182495117188e+01,9.957198333740234375e+01,9.895996856689453125e+01,-4.861450195312500000e+00,4.030399620532989502e-01,-6.667316436767578125e+01,-1.826874694824218750e+02,-2.342460393905639648e+00,7.562255859375000000e+01,3.135598182678222656e+01
7.188959717750549316e-01,1.000000000000000000e+00,-4.023102188110351562e+01,3.775607299804687500e+01,3.313459014892578125e+01,9.949671173095703125e+01,9.897868347167968750e+01,-4.886271476745605469e+00,4.030399620532989502e-01,-6.667316436767578125e+01,-1.826874694824218750e+02,-2.342532396316528320e+00,7.562255859375000000e+01,3.135598182678222656e+01
7.239509820938110352e-01,1.000000000000000000e+00,-4.023102188110351562e+01,3.775607299804687500e+01,3.313459014892578125e+01,9.949671173095703125e+01,9.897868347167968750e+01,-4.886271476745605469e+00,4.030399620532989502e-01,-6.667316436767578125e+01,-1.826874694824218750e+02,-2.342532396316528320e+00,7.562255859375000000e+01,3.135598182678222656e+01
7.279409766197204590e-01,1.000000000000000000e+00,-4.031568145751953125e+01,3.759087371826171875e+01,3.317787551879882812e+01,9.934532928466796875e+01,9.901429748535156250e+01,-4.936998367309570312e+00,4.030399620532989502e-01,-6.667326354980468750e+01,-1.826874694824218750e+02,-2.342460393905639648e+00,7.562255859375000000e+01,3.135598182678222656e+01
7.309169769287109375e-01,1.000000000000000000e+00,-4.035802078247070312e+01,3.750825500488281250e+01,3.319947052001953125e+01,9.926958465576171875e+01,9.903205108642578125e+01,-4.962633132934570312e+00,4.030399620532989502e-01,-6.667308044433593750e+01,-1.826875762939453125e+02,-2.342460393905639648e+00,7.562255859375000000e+01,3.135598182678222656e+01
7.360209822654724121e-01,1.000000000000000000e+00,-4.035802078247070312e+01,3.750825500488281250e+01,3.319947052001953125e+01,9.926958465576171875e+01,9.903205108642578125e+01,-4.962633132934570312e+00,4.030399620532989502e-01,-6.667308044433593750e+01,-1.826875762939453125e+02,-2.342460393905639648e+00,7.562255859375000000e+01,3.135598182678222656e+01
7.399020195007324219e-01,1.000000000000000000e+00,-4.044299697875976562e+01,3.734194946289062500e+01,3.324344635009765625e+01,9.911804199218750000e+01,9.906846618652343750e+01,-5.014716625213623047e+00,4.030399620532989502e-01,-6.667326354980468750e+01,-1.826874694824218750e+02,-2.342316627502441406e+00,7.562255859375000000e+01,3.135598182678222656e+01
7.429010272026062012e-01,1.000000000000000000e+00,-4.048530960083007812e+01,3.725821685791015625e+01,3.326534271240234375e+01,9.904161071777343750e+01,9.908803558349609375e+01,-5.040418624877929688e+00,4.030399620532989502e-01,-6.667316436767578125e+01,-1.826874694824218750e+02,-2.342460393905639648e+00,7.562255859375000000e+01,3.135598182678222656e+01
7.479479908943176270e-01,1.000000000000000000e+00,-4.048530960083007812e+01,3.725821685791015625e+01,3.326534271240234375e+01,9.904161071777343750e+01,9.908803558349609375e+01,-5.040418624877929688e+00,4.030399620532989502e-01,-6.667316436767578125e+01,-1.826874694824218750e+02,-2.342460393905639648e+00,7.562255859375000000e+01,3.135598182678222656e+01
7.519040107727050781e-01,1.000000000000000000e+00,-4.057039642333984375e+01,3.709077835083007812e+01,3.330905532836914062e+01,9.888980102539062500e+01,9.912583923339843750e+01,-5.090128421783447266e+00,4.030399620532989502e-01,-6.667316436767578125e+01,-1.826874694824218750e+02,-2.342603921890258789e+00,7.562255859375000000e+01,3.135598182678222656e+01
7.559980154037475586e-01,1.000000000000000000e+00,-4.061317062377929688e+01,3.700745391845703125e+01,3.333105850219726562e+01,9.881410980224609375e+01,9.914364624023437500e+01,-5.115424633026123047e+00,4.030399620532989502e-01,-6.667316436767578125e+01,-1.826874694824218750e+02,-2.342316627502441406e+00,7.562255859375000000e+01,3.135598182678222656e+01
7.589859962463378906e-01,1.000000000000000000e+00,-4.065568542480468750e+01,3.692453765869140625e+01,3.335311889648437500e+01,9.873778533935546875e+01,9.916160583496093750e+01,-5.141058921813964844e+00,4.030399620532989502e-01,-6.667316436767578125e+01,-1.826874694824218750e+02,-2.342532396316528320e+00,7.562255859375000000e+01,3.135598182678222656e+01
7.629619836807250977e-01,1.000000000000000000e+00,-4.065568542480468750e+01,3.692453765869140625e+01,3.335311889648437500e+01,9.873778533935546875e+01,9.916160583496093750e+01,-5.141058921813964844e+00,4.030399620532989502e-01,-6.667316436767578125e+01,-1.826874694824218750e+02,-2.342532396316528320e+00,7.562255859375000000e+01,3.135598182678222656e+01
7.669770121574401855e-01,1.000000000000000000e+00,-4.069839859008789062e+01,3.684185028076171875e+01,3.337487411499023438e+01,9.866183471679687500e+01,9.917973327636718750e+01,-5.167033195495605469e+00,4.030399620532989502e-01,-6.667316436767578125e+01,-1.826875762939453125e+02,-2.342316627502441406e+00,7.562255859375000000e+01,3.135619926452636719e+01
7.710239887237548828e-01,1.000000000000000000e+00,-4.074114227294921875e+01,3.675888824462890625e+01,3.339662551879882812e+01,9.858550262451171875e+01,9.919824218750000000e+01,-5.193481445312500000e+00,4.030399620532989502e-01,-6.667316436767578125e+01,-1.826874694824218750e+02,-2.342460393905639648e+00,7.562255859375000000e+01,3.135598182678222656e+01
7.749540209770202637e-01,1.000000000000000000e+00,-4.078391647338867188e+01,3.667552185058593750e+01,3.341846466064453125e+01,9.850981140136718750e+01,9.921678924560546875e+01,-5.219794750213623047e+00,4.030399620532989502e-01,-6.667316436767578125e+01,-1.826874694824218750e+02,-2.342532396316528320e+00,7.562270355224609375e+01,3.135598182678222656e+01
7.800909876823425293e-01,1.000000000000000000e+00,-4.082654953002929688e+01,3.659190368652343750e+01,3.344062423706054688e+01,9.843316650390625000e+01,9.923630523681640625e+01,-5.244615554809570312e+00,4.030399620532989502e-01,-6.667316436767578125e+01,-1.826874694824218750e+02,-2.342460393905639648e+00,7.562255859375000000e+01,3.135598182678222656e+01
7.829790115356445312e-01,1.000000000000000000e+00,-4.091226196289062500e+01,3.642342376708984375e+01,3.348506927490234375e+01,9.828052520751953125e+01,9.927421569824218750e+01,-5.295546054840087891e+00,4.030399620532989502e-01,-6.667316436767578125e+01,-1.826874694824218750e+02,-2.342460393905639648e+00,7.562255859375000000e+01,3.135598182678222656e+01
7.879880070686340332e-01,1.000000000000000000e+00,-4.091226196289062500e+01,3.642342376708984375e+01,3.348506927490234375e+01,9.828052520751953125e+01,9.927421569824218750e+01,-5.295546054840087891e+00,4.030399620532989502e-01,-6.667316436767578125e+01,-1.826874694824218750e+02,-2.342460393905639648e+00,7.562255859375000000e+01,3.135598182678222656e+01
7.929679751396179199e-01,1.000000000000000000e+00,-4.095506668090820312e+01,3.633960342407226562e+01,3.350698852539062500e+01,9.820472717285156250e+01,9.929223632812500000e+01,-5.321587562561035156e+00,4.030399620532989502e-01,-6.667316436767578125e+01,-1.826874694824218750e+02,-2.342460393905639648e+00,7.562255859375000000e+01,3.135598182678222656e+01
7.955830097198486328e-01,1.000000000000000000e+00,-4.104058456420898438e+01,3.617286300659179688e+01,3.355080413818359375e+01,9.805123138427734375e+01,9.932838439941406250e+01,-5.373738765716552734e+00,4.030399620532989502e-01,-6.667316436767578125e+01,-1.826875762939453125e+02,-2.342316627502441406e+00,7.562255859375000000e+01,3.135598182678222656e+01
7.999560236930847168e-01,1.000000000000000000e+00,-4.104058456420898438e+01,3.617286300659179688e+01,3.355080413818359375e+01,9.805123138427734375e+01,9.932838439941406250e+01,-5.373738765716552734e+00,4.030399620532989502e-01,-6.667316436767578125e+01,-1.826875762939453125e+02,-2.342316627502441406e+00,7.562255859375000000e+01,3.135598182678222656e+01
8.049560189247131348e-01,1.000000000000000000e+00,-4.108335494995117188e+01,3.608963012695312500e+01,3.357302856445312500e+01,9.797443389892578125e+01,9.934672546386718750e+01,-5.399983882904052734e+00,4.030399620532989502e-01,-6.667316436767578125e+01,-1.826874694824218750e+02,-2.342460393905639648e+00,7.562255859375000000e+01,3.135598182678222656e+01
8.076699972152709961e-01,1.000000000000000000e+00,-4.116904830932617188e+01,3.592262268066406250e+01,3.361729049682617188e+01,9.782163238525390625e+01,9.938490295410156250e+01,-5.450439453125000000e+00,4.030399620532989502e-01,-6.667316436767578125e+01,-1.826874694824218750e+02,-2.342460393905639648e+00,7.562270355224609375e+01,3.135598182678222656e+01
8.119900226593017578e-01,1.000000000000000000e+00,-4.116904830932617188e+01,3.592262268066406250e+01,3.361729049682617188e+01,9.782163238525390625e+01,9.938490295410156250e+01,-5.450439453125000000e+00,4.030399620532989502e-01,-6.667316436767578125e+01,-1.826874694824218750e+02,-2.342460393905639648e+00,7.562270355224609375e+01,3.135598182678222656e+01
8.159379959106445312e-01,1.000000000000000000e+00,-4.121199417114257812e+01,3.583814239501953125e+01,3.363932800292968750e+01,9.774520111083984375e+01,9.940446472167968750e+01,-5.476413249969482422e+00,4.030399620532989502e-01,-6.667308044433593750e+01,-1.826874694824218750e+02,-2.342532396316528320e+00,7.562255859375000000e+01,3.135598182678222656e+01
8.200320005416870117e-01,1.000000000000000000e+00,-4.125453948974609375e+01,3.575346374511718750e+01,3.366138839721679688e+01,9.766840362548828125e+01,9.942281341552734375e+01,-5.502658843994140625e+00,4.030399620532989502e-01,-6.667316436767578125e+01,-1.826875762939453125e+02,-2.342532396316528320e+00,7.562255859375000000e+01,3.135598182678222656e+01
8.249289989471435547e-01,1.000000000000000000e+00,-4.129724884033203125e+01,3.566898727416992188e+01,3.368365097045898438e+01,9.759154510498046875e+01,9.944114685058593750e+01,-5.528632164001464844e+00,4.030399620532989502e-01,-6.667316436767578125e+01,-1.826874694824218750e+02,-2.342532396316528320e+00,7.562255859375000000e+01,3.135598182678222656e+01
8.277800083160400391e-01,1.000000000000000000e+00,-4.138285827636718750e+01,3.550059509277343750e+01,3.372785186767578125e+01,9.743811035156250000e+01,9.947745513916015625e+01,-5.581936359405517578e+00,4.030399620532989502e-01,-6.667316436767578125e+01,-1.826874694824218750e+02,-2.342460393905639648e+00,7.562255859375000000e+01,3.135598182678222656e+01
8.320999741554260254e-01,1.000000000000000000e+00,-4.138285827636718750e+01,3.550059509277343750e+01,3.372785186767578125e+01,9.743811035156250000e+01,9.947745513916015625e+01,-5.581936359405517578e+00,4.030399620532989502e-01,-6.667316436767578125e+01,-1.826874694824218750e+02,-2.342460393905639648e+00,7.562255859375000000e+01,3.135598182678222656e+01
8.357920050621032715e-01,1.000000000000000000e+00,-4.142554092407226562e+01,3.541693115234375000e+01,3.374993133544921875e+01,9.736115264892578125e+01,9.949617004394531250e+01,-5.607639312744140625e+00,4.030399620532989502e-01,-6.667316436767578125e+01,-1.826874694824218750e+02,-2.342460393905639648e+00,7.562255859375000000e+01,3.135598182678222656e+01
8.400070071220397949e-01,1.000000000000000000e+00,-4.146831512451171875e+01,3.533320236206054688e+01,3.377203369140625000e+01,9.728392791748046875e+01,9.951536560058593750e+01,-5.632866859436035156e+00,4.030399620532989502e-01,-6.667316436767578125e+01,-1.826875762939453125e+02,-2.342460393905639648e+00,7.562255859375000000e+01,3.135598182678222656e+01
8.429520130157470703e-01,1.000000000000000000e+00,-4.151085662841796875e+01,3.524899673461914062e+01,3.379427719116210938e+01,9.720734405517578125e+01,9.953498077392578125e+01,-5.658637046813964844e+00,4.030399620532989502e-01,-6.667316436767578125e+01,-1.826875762939453125e+02,-2.342532396316528320e+00,7.562255859375000000e+01,3.135598182678222656e+01
8.470420241355895996e-01,1.000000000000000000e+00,-4.155363082885742188e+01,3.516440582275390625e+01,3.381653976440429688e+01,9.712980651855468750e+01,9.955422973632812500e+01,-5.684543132781982422e+00,4.030399620532989502e-01,-6.667316436767578125e+01,-1.826874694824218750e+02,-2.342532396316528320e+00,7.562255859375000000e+01,3.135598182678222656e+01
8.509920239448547363e-01,1.000000000000000000e+00,-4.159652328491210938e+01,3.507976913452148438e+01,3.383856201171875000e+01,9.705300903320312500e+01,9.957262420654296875e+01,-5.710991859436035156e+00,4.030399620532989502e-01,-6.667316436767578125e+01,-1.826874694824218750e+02,-2.342316627502441406e+00,7.562255859375000000e+01,3.135598182678222656e+01
8.560469746589660645e-01,1.000000000000000000e+00,-4.163926696777343750e+01,3.499477005004882812e+01,3.386063766479492188e+01,9.697578430175781250e+01,9.959064483642578125e+01,-5.737915039062500000e+00,4.030399620532989502e-01,-6.667316436767578125e+01,-1.826874694824218750e+02,-2.342460393905639648e+00,7.562255859375000000e+01,3.135576248168945312e+01
8.597639799118041992e-01,1.000000000000000000e+00,-4.168198013305664062e+01,3.490957260131835938e+01,3.388288116455078125e+01,9.689882659912109375e+01,9.960909271240234375e+01,-5.764431476593017578e+00,4.030399620532989502e-01,-6.667316436767578125e+01,-1.826874694824218750e+02,-2.342316627502441406e+00,7.562255859375000000e+01,3.135598182678222656e+01
8.639450073242187500e-01,1.000000000000000000e+00,-4.172486877441406250e+01,3.482484436035156250e+01,3.390518569946289062e+01,9.682144927978515625e+01,9.962764739990234375e+01,-5.790133953094482422e+00,4.030399620532989502e-01,-6.667326354980468750e+01,-1.826874694824218750e+02,-2.342532396316528320e+00,7.562255859375000000e+01,3.135598182678222656e+01
8.680179715156555176e-01,1.000000000000000000e+00,-4.176787185668945312e+01,3.474045562744140625e+01,3.392750930786132812e+01,9.674443817138671875e+01,9.964614868164062500e+01,-5.815497398376464844e+00,4.030399620532989502e-01,-6.667316436767578125e+01,-1.826874694824218750e+02,-2.342532396316528320e+00,7.562255859375000000e+01,3.135598182678222656e+01
8.719859719276428223e-01,1.000000000000000000e+00,-4.181107330322265625e+01,3.465597915649414062e+01,3.394975280761718750e+01,9.666716766357421875e+01,9.966539764404296875e+01,-5.840929031372070312e+00,4.030399620532989502e-01,-6.667316436767578125e+01,-1.826874694824218750e+02,-2.342532396316528320e+00,7.562255859375000000e+01,3.135598182678222656e+01
8.759440183639526367e-01,1.000000000000000000e+00,-4.185413742065429688e+01,3.457173156738281250e+01,3.397195816040039062e+01,9.658973693847656250e+01,9.968491363525390625e+01,-5.866902828216552734e+00,4.030399620532989502e-01,-6.667316436767578125e+01,-1.826874694824218750e+02,-2.342532396316528320e+00,7.562241363525390625e+01,3.135598182678222656e+01
8.799710273742675781e-01,1.000000000000000000e+00,-4.189739608764648438e+01,3.448722839355468750e+01,3.399426269531250000e+01,9.651215362548828125e+01,9.970426177978515625e+01,-5.893351554870605469e+00,4.030399620532989502e-01,-6.667326354980468750e+01,-1.826874694824218750e+02,-2.342460393905639648e+00,7.562255859375000000e+01,3.135598182678222656e+01
8.839589953422546387e-01,1.000000000000000000e+00,-4.194054031372070312e+01,3.440209579467773438e+01,3.401670455932617188e+01,9.643440246582031250e+01,9.972261047363281250e+01,-5.919867515563964844e+00,4.030399620532989502e-01,-6.667316436767578125e+01,-1.826874694824218750e+02,-2.342460393905639648e+00,7.562255859375000000e+01,3.135598182678222656e+01
8.879650235176086426e-01,1.000000000000000000e+00,-4.198397445678710938e+01,3.431684875488281250e+01,3.403889083862304688e+01,9.635712432861328125e+01,9.974051666259765625e+01,-5.946858882904052734e+00,4.030399620532989502e-01,-6.667316436767578125e+01,-1.826874694824218750e+02,-2.342460393905639648e+00,7.562255859375000000e+01,3.135598182678222656e+01
8.920050263404846191e-01,1.000000000000000000e+00,-4.202741241455078125e+01,3.423126220703125000e+01,3.406115341186523438e+01,9.627933502197265625e+01,9.975933837890625000e+01,-5.972561359405517578e+00,4.030399620532989502e-01,-6.667316436767578125e+01,-1.826874694824218750e+02,-2.342316627502441406e+00,7.562255859375000000e+01,3.135598182678222656e+01
8.952100276947021484e-01,1.000000000000000000e+00,-4.207093048095703125e+01,3.414576721191406250e+01,3.408355712890625000e+01,9.620173645019531250e+01,9.977810668945312500e+01,-5.997992515563964844e+00,4.030399620532989502e-01,-6.667316436767578125e+01,-1.826874694824218750e+02,-2.342532396316528320e+00,7.562255859375000000e+01,3.135598182678222656e+01
8.990420103073120117e-01,1.000000000000000000e+00,-4.211439132690429688e+01,3.406069946289062500e+01,3.410608673095703125e+01,9.612399291992187500e+01,9.979703521728515625e+01,-6.023966312408447266e+00,4.030399620532989502e-01,-6.667316436767578125e+01,-1.826874694824218750e+02,-2.342532396316528320e+00,7.562255859375000000e+01,3.135598182678222656e+01
9.040439724922180176e-01,1.000000000000000000e+00,-4.215802383422851562e+01,3.397613143920898438e+01,3.412867355346679688e+01,9.604645538330078125e+01,9.981643676757812500e+01,-6.050144195556640625e+00,4.030399620532989502e-01,-6.667316436767578125e+01,-1.826874694824218750e+02,-2.342460393905639648e+00,7.562255859375000000e+01,3.135598182678222656e+01
9.080110192298889160e-01,1.000000000000000000e+00,-4.220166015625000000e+01,3.389181137084960938e+01,3.415099716186523438e+01,9.596855163574218750e+01,9.983627319335937500e+01,-6.076592445373535156e+00,4.030399620532989502e-01,-6.667316436767578125e+01,-1.826873016357421875e+02,-2.342460393905639648e+00,7.562255859375000000e+01,3.135598182678222656e+01
9.119619727134704590e-01,1.000000000000000000e+00,-4.224546432495117188e+01,3.380706405639648438e+01,3.417321777343750000e+01,9.589054107666015625e+01,9.985530853271484375e+01,-6.103176593780517578e+00,4.030399620532989502e-01,-6.667316436767578125e+01,-1.826874694824218750e+02,-2.342460393905639648e+00,7.562255859375000000e+01,3.135598182678222656e+01
9.159470200538635254e-01,1.000000000000000000e+00,-4.228936004638671875e+01,3.372197723388671875e+01,3.419550323486328125e+01,9.581285095214843750e+01,9.987364959716796875e+01,-6.129964351654052734e+00,4.030399620532989502e-01,-6.667316436767578125e+01,-1.826874694824218750e+02,-2.342460393905639648e+00,7.562255859375000000e+01,3.135598182678222656e+01
9.200310111045837402e-01,1.000000000000000000e+00,-4.233330917358398438e+01,3.363679504394531250e+01,3.421794891357421875e+01,9.573504638671875000e+01,9.989209747314453125e+01,-6.156344890594482422e+00,4.030399620532989502e-01,-6.667316436767578125e+01,-1.826874694824218750e+02,-2.342532396316528320e+00,7.562255859375000000e+01,3.135598182678222656e+01
9.239599704742431641e-01,1.000000000000000000e+00,-4.237697219848632812e+01,3.355102920532226562e+01,3.424068069458007812e+01,9.565693664550781250e+01,9.991049194335937500e+01,-6.181437492370605469e+00,4.030399620532989502e-01,-6.667316436767578125e+01,-1.826875762939453125e+02,-2.342460393905639648e+00,7.562255859375000000e+01,3.135598182678222656e+01
9.282249808311462402e-01,1.000000000000000000e+00,-4.242089462280273438e+01,3.346508026123046875e+01,3.426321029663085938e+01,9.557860565185546875e+01,9.992920684814453125e+01,-6.207478523254394531e+00,4.030399620532989502e-01,-6.667316436767578125e+01,-1.826874694824218750e+02,-2.342532396316528320e+00,7.562255859375000000e+01,3.135598182678222656e+01
9.314050078392028809e-01,1.000000000000000000e+00,-4.246478652954101562e+01,3.337951660156250000e+01,3.428573608398437500e+01,9.550048828125000000e+01,9.994834136962890625e+01,-6.233384609222412109e+00,4.030399620532989502e-01,-6.667316436767578125e+01,-1.826874694824218750e+02,-2.342460393905639648e+00,7.562255859375000000e+01,3.135598182678222656e+01
9.360169768333435059e-01,1.000000000000000000e+00,-4.250873947143554688e+01,3.329424667358398438e+01,3.430808258056640625e+01,9.542232513427734375e+01,9.996807098388671875e+01,-6.259833335876464844e+00,4.030399620532989502e-01,-6.667316436767578125e+01,-1.826874694824218750e+02,-2.342460393905639648e+00,7.562255859375000000e+01,3.135619926452636719e+01
9.399530291557312012e-01,1.000000000000000000e+00,-4.255251693725585938e+01,3.320918273925781250e+01,3.433066940307617188e+01,9.534458160400390625e+01,9.998764038085937500e+01,-6.287028312683105469e+00,4.030399620532989502e-01,-6.667316436767578125e+01,-1.826874694824218750e+02,-2.342460393905639648e+00,7.562255859375000000e+01,3.135598182678222656e+01
9.439569711685180664e-01,1.000000000000000000e+00,-4.259654998779296875e+01,3.312395477294921875e+01,3.435334014892578125e+01,9.526619720458984375e+01,1.000063552856445312e+02,-6.314222812652587891e+00,4.030399620532989502e-01,-6.667326354980468750e+01,-1.826874694824218750e+02,-2.342532396316528320e+00,7.562255859375000000e+01,3.135576248168945312e+01
9.481030106544494629e-01,1.000000000000000000e+00,-4.264058685302734375e+01,3.303859710693359375e+01,3.437572479248046875e+01,9.518813323974609375e+01,1.000249557495117188e+02,-6.340874671936035156e+00,4.030399620532989502e-01,-6.667316436767578125e+01,-1.826875762939453125e+02,-2.342532396316528320e+00,7.562270355224609375e+01,3.135598182678222656e+01
9.523739814758300781e-01,1.000000000000000000e+00,-4.268416595458984375e+01,3.295296478271484375e+01,3.439796829223632812e+01,9.510959625244140625e+01,1.000434112548828125e+02,-6.366170406341552734e+00,4.030399620532989502e-01,-6.667316436767578125e+01,-1.826874694824218750e+02,-2.342460393905639648e+00,7.562255859375000000e+01,3.135619926452636719e+01
9.556599855422973633e-01,1.000000000000000000e+00,-4.272800064086914062e+01,3.286667633056640625e+01,3.442049789428710938e+01,9.503163909912109375e+01,1.000622329711914062e+02,-6.392076492309570312e+00,4.030399620532989502e-01,-6.667316436767578125e+01,-1.826874694824218750e+02,-2.342532396316528320e+00,7.562270355224609375e+01,3.135598182678222656e+01
9.599679708480834961e-01,1.000000000000000000e+00,-4.277174758911132812e+01,3.278011703491210938e+01,3.444322586059570312e+01,9.495294189453125000e+01,1.000812072753906250e+02,-6.418931961059570312e+00,4.030399620532989502e-01,-6.667316436767578125e+01,-1.826874694824218750e+02,-2.342532396316528320e+00,7.562255859375000000e+01,3.135576248168945312e+01
9.638860225677490234e-01,1.000000000000000000e+00,-4.281567001342773438e+01,3.269360351562500000e+01,3.446601867675781250e+01,9.487472534179687500e+01,1.001008300781250000e+02,-6.445787429809570312e+00,4.030399620532989502e-01,-6.667316436767578125e+01,-1.826874694824218750e+02,-2.342460393905639648e+00,7.562255859375000000e+01,3.135598182678222656e+01
9.680110216140747070e-01,1.000000000000000000e+00,-4.285967636108398438e+01,3.260704421997070312e+01,3.448866653442382812e+01,9.479618835449218750e+01,1.001208724975585938e+02,-6.472506999969482422e+00,4.030399620532989502e-01,-6.667316436767578125e+01,-1.826874694824218750e+02,-2.342532396316528320e+00,7.562255859375000000e+01,3.135598182678222656e+01
9.719520211219787598e-01,1.000000000000000000e+00,-4.290348434448242188e+01,3.252102661132812500e+01,3.451109695434570312e+01,9.471759796142578125e+01,1.001405487060546875e+02,-6.499498367309570312e+00,4.030399620532989502e-01,-6.667316436767578125e+01,-1.826874694824218750e+02,-2.342460393905639648e+00,7.562255859375000000e+01,3.135598182678222656e+01
9.765459895133972168e-01,1.000000000000000000e+00,-4.294729232788085938e+01,3.243553161621093750e+01,3.453348159790039062e+01,9.463879394531250000e+01,1.001591567993164062e+02,-6.526014804840087891e+00,4.030399620532989502e-01,-6.667316436767578125e+01,-1.826874694824218750e+02,-2.342460393905639648e+00,7.562255859375000000e+01,3.135598182678222656e+01
9.799799919128417969e-01,1.000000000000000000e+00,-4.299118423461914062e+01,3.234981155395507812e+01,3.455602645874023438e+01,9.456005096435546875e+01,1.001776580810546875e+02,-6.552056312561035156e+00,4.030399620532989502e-01,-6.667316436767578125e+01,-1.826874694824218750e+02,-2.342460393905639648e+00,7.562255859375000000e+01,3.135598182678222656e+01
9.839900135993957520e-01,1.000000000000000000e+00,-4.303499221801757812e+01,3.226374816894531250e+01,3.457873916625976562e+01,9.448182678222656250e+01,1.001964263916015625e+02,-6.578301429748535156e+00,4.030399620532989502e-01,-6.667316436767578125e+01,-1.826874694824218750e+02,-2.342460393905639648e+00,7.562241363525390625e+01,3.135598182678222656e+01
9.882159829139709473e-01,1.000000000000000000e+00,-4.307899856567382812e+01,3.217741394042968750e+01,3.460150909423828125e+01,9.440303039550781250e+01,1.002152938842773438e+02,-6.604614734649658203e+00,4.030399620532989502e-01,-6.667316436767578125e+01,-1.826874694824218750e+02,-2.342460393905639648e+00,7.562255859375000000e+01,3.135598182678222656e+01
9.920279979705810547e-01,1.000000000000000000e+00,-4.312285995483398438e+01,3.209074401855468750e+01,3.462419891357421875e+01,9.432433319091796875e+01,1.002344436645507812e+02,-6.631876945495605469e+00,4.030399620532989502e-01,-6.667316436767578125e+01,-1.826874694824218750e+02,-2.342460393905639648e+00,7.562255859375000000e+01,3.135598182678222656e+01
9.959390163421630859e-01,1.000000000000000000e+00,-4.316666793823242188e+01,3.200370788574218750e+01,3.464680862426757812e+01,9.424553680419921875e+01,1.002542190551757812e+02,-6.659139156341552734e+00,4.030399620532989502e-01,-6.667316436767578125e+01,-1.826874694824218750e+02,-2.342532396316528320e+00,7.562255859375000000e+01,3.135598182678222656e+01
1.000839948654174805e+00,1.000000000000000000e+00,-4.321059036254882812e+01,3.191683197021484375e+01,3.466968154907226562e+01,9.416673278808593750e+01,1.002742691040039062e+02,-6.686604976654052734e+00,4.030399620532989502e-01,-6.667316436767578125e+01,-1.826874694824218750e+02,-2.342532396316528320e+00,7.562255859375000000e+01,3.135598182678222656e+01
1.004192948341369629e+00,1.000000000000000000e+00,-4.325459671020507812e+01,3.183018112182617188e+01,3.469249343872070312e+01,9.408772277832031250e+01,1.002937850952148438e+02,-6.713256835937500000e+00,4.030399620532989502e-01,-6.667316436767578125e+01,-1.826874694824218750e+02,-2.342532396316528320e+00,7.562255859375000000e+01,3.135598182678222656e+01
1.008080959320068359e+00,1.000000000000000000e+00,-4.329863357543945312e+01,3.174425697326660156e+01,3.471518325805664062e+01,9.400881958007812500e+01,1.003122329711914062e+02,-6.739095211029052734e+00,4.030399620532989502e-01,-6.667316436767578125e+01,-1.826874694824218750e+02,-2.342460393905639648e+00,7.562255859375000000e+01,3.135598182678222656e+01
1.012089967727661133e+00,1.000000000000000000e+00,-4.334278488159179688e+01,3.165808105468750000e+01,3.473777389526367188e+01,9.393001556396484375e+01,1.003309478759765625e+02,-6.765272617340087891e+00,4.030399620532989502e-01,-6.667316436767578125e+01,-1.826874694824218750e+02,-2.342460393905639648e+00,7.562255859375000000e+01,3.135598182678222656e+01
1.016103029251098633e+00,1.000000000000000000e+00,-4.338693618774414062e+01,3.157199668884277344e+01,3.476048660278320312e+01,9.385042572021484375e+01,1.003498687744140625e+02,-6.792060375213623047e+00,4.030399620532989502e-01,-6.667316436767578125e+01,-1.826874694824218750e+02,-2.342460393905639648e+00,7.562255859375000000e+01,3.135598182678222656e+01
1.020223975181579590e+00,1.000000000000000000e+00,-4.343128967285156250e+01,3.148582267761230469e+01,3.478350067138671875e+01,9.377146911621093750e+01,1.003691635131835938e+02,-6.819593906402587891e+00,4.030399620532989502e-01,-6.667316436767578125e+01,-1.826874694824218750e+02,-2.342460393905639648e+00,7.562255859375000000e+01,3.135619926452636719e+01
1.024711012840270996e+00,1.000000000000000000e+00,-4.347575759887695312e+01,3.139901542663574219e+01,3.480641555786132812e+01,9.369197845458984375e+01,1.003886795043945312e+02,-6.846856117248535156e+00,4.030399620532989502e-01,-6.667316436767578125e+01,-1.826874694824218750e+02,-2.342460393905639648e+00,7.562255859375000000e+01,3.135598182678222656e+01
1.028288960456848145e+00,1.000000000000000000e+00,-4.352013397216796875e+01,3.131161689758300781e+01,3.482926559448242188e+01,9.361313629150390625e+01,1.004089965820312500e+02,-6.873847484588623047e+00,4.030399620532989502e-01,-6.667316436767578125e+01,-1.826874694824218750e+02,-2.342460393905639648e+00,7.562241363525390625e+01,3.135598182678222656e+01
1.030958056449890137e+00,1.000000000000000000e+00,-4.356448745727539062e+01,3.122431182861328125e+01,3.485201644897460938e+01,9.353358459472656250e+01,1.004287261962890625e+02,-6.900973796844482422e+00,4.030399620532989502e-01,-6.667316436767578125e+01,-1.826875762939453125e+02,-2.342532396316528320e+00,7.562255859375000000e+01,3.135598182678222656e+01
1.036329030990600586e+00,1.000000000000000000e+00,-4.360884094238281250e+01,3.113691329956054688e+01,3.487472915649414062e+01,9.345474243164062500e+01,1.004480743408203125e+02,-6.927015781402587891e+00,4.030399620532989502e-01,-6.667316436767578125e+01,-1.826874694824218750e+02,-2.342532396316528320e+00,7.562255859375000000e+01,3.135598182678222656e+01
1.040416002273559570e+00,1.000000000000000000e+00,-4.365333557128906250e+01,3.105010604858398438e+01,3.489772415161132812e+01,9.337499237060546875e+01,1.004666366577148438e+02,-6.952989578247070312e+00,4.030399620532989502e-01,-6.667316436767578125e+01,-1.826874694824218750e+02,-2.342460393905639648e+00,7.562255859375000000e+01,3.135598182678222656e+01
1.042987942695617676e+00,1.000000000000000000e+00,-4.369797134399414062e+01,3.096379470825195312e+01,3.492070007324218750e+01,9.329571533203125000e+01,1.004854507446289062e+02,-6.979912757873535156e+00,4.030399620532989502e-01,-6.667316436767578125e+01,-1.826874694824218750e+02,-2.342460393905639648e+00,7.562255859375000000e+01,3.135598182678222656e+01
1.046883940696716309e+00,1.000000000000000000e+00,-4.374261093139648438e+01,3.087734985351562500e+01,3.494363403320312500e+01,9.321607208251953125e+01,1.005043258666992188e+02,-7.006971836090087891e+00,4.030399620532989502e-01,-6.667316436767578125e+01,-1.826874694824218750e+02,-2.342460393905639648e+00,7.562255859375000000e+01,3.135598182678222656e+01
1.052420020103454590e+00,1.000000000000000000e+00,-4.378733825683593750e+01,3.079051780700683594e+01,3.496654510498046875e+01,9.313679504394531250e+01,1.005238342285156250e+02,-7.034505367279052734e+00,4.030399620532989502e-01,-6.667316436767578125e+01,-1.826874694824218750e+02,-2.342532396316528320e+00,7.562255859375000000e+01,3.135598182678222656e+01
1.054955959320068359e+00,1.000000000000000000e+00,-4.383189392089843750e+01,3.070348358154296875e+01,3.498933792114257812e+01,9.305731201171875000e+01,1.005436248779296875e+02,-7.062039375305175781e+00,4.030399620532989502e-01,-6.667316436767578125e+01,-1.826874694824218750e+02,-2.342460393905639648e+00,7.562255859375000000e+01,3.135598182678222656e+01
1.060510039329528809e+00,1.000000000000000000e+00,-4.387670135498046875e+01,3.061595153808593750e+01,3.501229476928710938e+01,9.297708892822265625e+01,1.005639877319335938e+02,-7.088012695312500000e+00,4.030399620532989502e-01,-6.667316436767578125e+01,-1.826875762939453125e+02,-2.342460393905639648e+00,7.562255859375000000e+01,3.135598182678222656e+01
1.064775943756103516e+00,1.000000000000000000e+00,-4.392142868041992188e+01,3.052812576293945312e+01,3.503526687622070312e+01,9.289744567871093750e+01,1.005834960937500000e+02,-7.114326000213623047e+00,4.030399620532989502e-01,-6.667316436767578125e+01,-1.826874694824218750e+02,-2.342460393905639648e+00,7.562255859375000000e+01,3.135598182678222656e+01
1.068652987480163574e+00,1.000000000000000000e+00,-4.396623992919921875e+01,3.044000244140625000e+01,3.505814361572265625e+01,9.281743621826171875e+01,1.006021118164062500e+02,-7.141045570373535156e+00,4.030399620532989502e-01,-6.667316436767578125e+01,-1.826874694824218750e+02,-2.342460393905639648e+00,7.562270355224609375e+01,3.135598182678222656e+01
1.073439955711364746e+00,1.000000000000000000e+00,-4.401102066040039062e+01,3.035233688354492188e+01,3.508113479614257812e+01,9.273795318603515625e+01,1.006209793090820312e+02,-7.167765140533447266e+00,4.030399620532989502e-01,-6.667316436767578125e+01,-1.826874694824218750e+02,-2.342460393905639648e+00,7.562255859375000000e+01,3.135598182678222656e+01
1.074882030487060547e+00,1.000000000000000000e+00,-4.405577468872070312e+01,3.026523017883300781e+01,3.510409164428710938e+01,9.265788269042968750e+01,1.006401748657226562e+02,-7.195366859436035156e+00,4.030399620532989502e-01,-6.667316436767578125e+01,-1.826874694824218750e+02,-2.342532396316528320e+00,7.562255859375000000e+01,3.135598182678222656e+01
1.080533981323242188e+00,1.000000000000000000e+00,-4.410021209716796875e+01,3.017797279357910156e+01,3.512708663940429688e+01,9.257814025878906250e+01,1.006596908569335938e+02,-7.222900390625000000e+00,4.030399620532989502e-01,-6.667316436767578125e+01,-1.826875762939453125e+02,-2.342460393905639648e+00,7.562270355224609375e+01,3.135598182678222656e+01
1.084893941879272461e+00,1.000000000000000000e+00,-4.414490890502929688e+01,3.009089088439941406e+01,3.515020370483398438e+01,9.249833679199218750e+01,1.006791992187500000e+02,-7.250434398651123047e+00,4.030399620532989502e-01,-6.667316436767578125e+01,-1.826873016357421875e+02,-2.342460393905639648e+00,7.562241363525390625e+01,3.135598182678222656e+01
1.088861942291259766e+00,1.000000000000000000e+00,-4.418972396850585938e+01,3.000365257263183594e+01,3.517307662963867188e+01,9.241811370849609375e+01,1.006995697021484375e+02,-7.276815414428710938e+00,4.030399620532989502e-01,-6.667316436767578125e+01,-1.826874694824218750e+02,-2.342532396316528320e+00,7.562270355224609375e+01,3.135619926452636719e+01
1.092584967613220215e+00,1.000000000000000000e+00,-4.423444747924804688e+01,2.991571235656738281e+01,3.519599151611328125e+01,9.233836364746093750e+01,1.007197723388671875e+02,-7.302721500396728516e+00,4.030399620532989502e-01,-6.667316436767578125e+01,-1.826874694824218750e+02,-2.342460393905639648e+00,7.562255859375000000e+01,3.135598182678222656e+01
1.097537040710449219e+00,1.000000000000000000e+00,-4.427905654907226562e+01,2.982738876342773438e+01,3.521900558471679688e+01,9.225814056396484375e+01,1.007391815185546875e+02,-7.329236984252929688e+00,4.030399620532989502e-01,-6.667316436767578125e+01,-1.826875762939453125e+02,-2.342460393905639648e+00,7.562255859375000000e+01,3.135598182678222656e+01
1.101549983024597168e+00,1.000000000000000000e+00,-4.432361221313476562e+01,2.973910903930664062e+01,3.524210357666015625e+01,9.217823028564453125e+01,1.007578964233398438e+02,-7.356499671936035156e+00,4.030399620532989502e-01,-6.667316436767578125e+01,-1.826875762939453125e+02,-2.342460393905639648e+00,7.562255859375000000e+01,3.135598182678222656e+01
1.104774951934814453e+00,1.000000000000000000e+00,-4.436819076538085938e+01,2.965078353881835938e+01,3.526530075073242188e+01,9.209717559814453125e+01,1.007767181396484375e+02,-7.384033203125000000e+00,4.030399620532989502e-01,-6.667316436767578125e+01,-1.826875762939453125e+02,-2.342460393905639648e+00,7.562255859375000000e+01,3.135598182678222656e+01
1.109056949615478516e+00,1.000000000000000000e+00,-4.441277313232421875e+01,2.956293487548828125e+01,3.528844070434570312e+01,9.201726531982421875e+01,1.007958068847656250e+02,-7.411363124847412109e+00,4.030399620532989502e-01,-6.667308044433593750e+01,-1.826875762939453125e+02,-2.342532396316528320e+00,7.562255859375000000e+01,3.135598182678222656e+01
1.110880017280578613e+00,1.000000000000000000e+00,-4.445750045776367188e+01,2.947553825378417969e+01,3.531157684326171875e+01,9.193677520751953125e+01,1.008152694702148438e+02,-7.439033031463623047e+00,4.030399620532989502e-01,-6.667316436767578125e+01,-1.826874694824218750e+02,-2.342532396316528320e+00,7.562270355224609375e+01,3.135598182678222656e+01
1.114971995353698730e+00,1.000000000000000000e+00,-4.450199508666992188e+01,2.938821029663085938e+01,3.533475494384765625e+01,9.185676574707031250e+01,1.008356857299804688e+02,-7.465753078460693359e+00,4.030399620532989502e-01,-6.667316436767578125e+01,-1.826874694824218750e+02,-2.342460393905639648e+00,7.562255859375000000e+01,3.135598182678222656e+01
