rpiRobotics/ARM-21-02-F-19-Robot-Motion-Program/data_performance_abb/curve_1/curve_pose_opt1/100L/grad_result/real/run_4.csv
timestamp,cmd_num,J1,J2,J3,J4,J5,J6
1.469999988330528140e-04,-1.000000000000000000e+00,-3.429574584960937500e+01,4.938357543945312500e+01,3.007491874694824219e+01,1.101248092651367188e+02,9.639295959472656250e+01,-1.301676511764526367e+00,4.030399620532989502e-01,-6.667308044433593750e+01,-1.826874694824218750e+02,-2.342603921890258789e+00,7.562255859375000000e+01,3.135598182678222656e+01
5.028999876230955124e-03,1.000000000000000000e+00,-3.429580307006835938e+01,4.938357543945312500e+01,3.007493782043457031e+01,1.101246948242187500e+02,9.639311218261718750e+01,-1.301676511764526367e+00,4.030399620532989502e-01,-6.667316436767578125e+01,-1.826874694824218750e+02,-2.342532396316528320e+00,7.562270355224609375e+01,3.135576248168945312e+01
8.630000054836273193e-03,1.000000000000000000e+00,-3.429574584960937500e+01,4.938353347778320312e+01,3.007501983642578125e+01,1.101246948242187500e+02,9.639295959472656250e+01,-1.301676511764526367e+00,4.030399620532989502e-01,-6.667316436767578125e+01,-1.826874694824218750e+02,-2.342747688293457031e+00,7.562255859375000000e+01,3.135598182678222656e+01
1.437400002032518387e-02,1.000000000000000000e+00,-3.429580307006835938e+01,4.938359832763671875e+01,3.007493782043457031e+01,1.101246948242187500e+02,9.639295959472656250e+01,-1.301676511764526367e+00,4.030399620532989502e-01,-6.667316436767578125e+01,-1.826874694824218750e+02,-2.342603921890258789e+00,7.562255859375000000e+01,3.135598182678222656e+01
4.014600068330764771e-02,1.000000000000000000e+00,-3.429580307006835938e+01,4.938357543945312500e+01,3.007491874694824219e+01,1.101246948242187500e+02,9.639295959472656250e+01,-1.301676511764526367e+00,4.030399620532989502e-01,-6.667316436767578125e+01,-1.826874694824218750e+02,-2.342532396316528320e+00,7.562255859375000000e+01,3.135598182678222656e+01
4.177900031208992004e-02,1.000000000000000000e+00,-3.429580307006835938e+01,4.938359832763671875e+01,3.007497978210449219e+01,1.101246948242187500e+02,9.639295959472656250e+01,-1.301540851593017578e+00,4.030399620532989502e-01,-6.667316436767578125e+01,-1.826874694824218750e+02,-2.342603921890258789e+00,7.562255859375000000e+01,3.135598182678222656e+01
4.420800134539604187e-02,1.000000000000000000e+00,-3.429580307006835938e+01,4.938359832763671875e+01,3.007497978210449219e+01,1.101246948242187500e+02,9.639295959472656250e+01,-1.301540851593017578e+00,4.030399620532989502e-01,-6.667316436767578125e+01,-1.826874694824218750e+02,-2.342603921890258789e+00,7.562255859375000000e+01,3.135598182678222656e+01
5.397500097751617432e-02,1.000000000000000000e+00,-3.429580307006835938e+01,4.938357543945312500e+01,3.007491874694824219e+01,1.101248092651367188e+02,9.639295959472656250e+01,-1.301676511764526367e+00,4.030399620532989502e-01,-6.667316436767578125e+01,-1.826874694824218750e+02,-2.342532396316528320e+00,7.562255859375000000e+01,3.135598182678222656e+01
5.709299817681312561e-02,1.000000000000000000e+00,-3.429580307006835938e+01,4.938357543945312500e+01,3.007491874694824219e+01,1.101248092651367188e+02,9.639295959472656250e+01,-1.301676511764526367e+00,4.030399620532989502e-01,-6.667316436767578125e+01,-1.826874694824218750e+02,-2.342532396316528320e+00,7.562255859375000000e+01,3.135598182678222656e+01
5.839499831199645996e-02,1.000000000000000000e+00,-3.429591751098632812e+01,4.938353347778320312e+01,3.007493782043457031e+01,1.101248092651367188e+02,9.639284515380859375e+01,-1.301540851593017578e+00,4.030399620532989502e-01,-6.667316436767578125e+01,-1.826874694824218750e+02,-2.342532396316528320e+00,7.562255859375000000e+01,3.135598182678222656e+01
6.109999865293502808e-02,1.000000000000000000e+00,-3.429623413085937500e+01,4.938339614868164062e+01,3.007497978210449219e+01,1.101248092651367188e+02,9.639295959472656250e+01,-1.301676511764526367e+00,4.030399620532989502e-01,-6.667316436767578125e+01,-1.826874694824218750e+02,-2.342603921890258789e+00,7.562270355224609375e+01,3.135598182678222656e+01
6.511799991130828857e-02,1.000000000000000000e+00,-3.429692077636718750e+01,4.938303375244140625e+01,3.007493782043457031e+01,1.101246948242187500e+02,9.639311218261718750e+01,-1.301676511764526367e+00,4.030399620532989502e-01,-6.667316436767578125e+01,-1.826874694824218750e+02,-2.342747688293457031e+00,7.562255859375000000e+01,3.135598182678222656e+01
6.644999980926513672e-02,1.000000000000000000e+00,-3.429692077636718750e+01,4.938303375244140625e+01,3.007493782043457031e+01,1.101246948242187500e+02,9.639311218261718750e+01,-1.301676511764526367e+00,4.030399620532989502e-01,-6.667316436767578125e+01,-1.826874694824218750e+02,-2.342747688293457031e+00,7.562255859375000000e+01,3.135598182678222656e+01
6.914000213146209717e-02,1.000000000000000000e+00,-3.429821395874023438e+01,4.938217163085937500e+01,3.007493782043457031e+01,1.101246948242187500e+02,9.639295959472656250e+01,-1.301676511764526367e+00,4.030399620532989502e-01,-6.667316436767578125e+01,-1.826875762939453125e+02,-2.342603921890258789e+00,7.562255859375000000e+01,3.135598182678222656e+01
7.039900124073028564e-02,1.000000000000000000e+00,-3.429821395874023438e+01,4.938217163085937500e+01,3.007493782043457031e+01,1.101246948242187500e+02,9.639295959472656250e+01,-1.301676511764526367e+00,4.030399620532989502e-01,-6.667316436767578125e+01,-1.826875762939453125e+02,-2.342603921890258789e+00,7.562255859375000000e+01,3.135598182678222656e+01
7.335700094699859619e-02,1.000000000000000000e+00,-3.430002212524414062e+01,4.938034057617187500e+01,3.007497978210449219e+01,1.101246948242187500e+02,9.639322662353515625e+01,-1.301676511764526367e+00,4.030399620532989502e-01,-6.667316436767578125e+01,-1.826874694824218750e+02,-2.342603921890258789e+00,7.562255859375000000e+01,3.135619926452636719e+01
7.460699975490570068e-02,1.000000000000000000e+00,-3.430002212524414062e+01,4.938034057617187500e+01,3.007497978210449219e+01,1.101246948242187500e+02,9.639322662353515625e+01,-1.301676511764526367e+00,4.030399620532989502e-01,-6.667316436767578125e+01,-1.826874694824218750e+02,-2.342603921890258789e+00,7.562255859375000000e+01,3.135619926452636719e+01
7.791599631309509277e-02,1.000000000000000000e+00,-3.430246353149414062e+01,4.937724304199218750e+01,3.007493782043457031e+01,1.101245956420898438e+02,9.639311218261718750e+01,-1.301676511764526367e+00,4.030399620532989502e-01,-6.667316436767578125e+01,-1.826874694824218750e+02,-2.342603921890258789e+00,7.562270355224609375e+01,3.135598182678222656e+01
7.918599992990493774e-02,1.000000000000000000e+00,-3.430246353149414062e+01,4.937724304199218750e+01,3.007493782043457031e+01,1.101245956420898438e+02,9.639311218261718750e+01,-1.301676511764526367e+00,4.030399620532989502e-01,-6.667316436767578125e+01,-1.826874694824218750e+02,-2.342603921890258789e+00,7.562270355224609375e+01,3.135598182678222656e+01
8.289600163698196411e-02,1.000000000000000000e+00,-3.430545043945312500e+01,4.937235260009765625e+01,3.007501983642578125e+01,1.101243286132812500e+02,9.639322662353515625e+01,-1.301676511764526367e+00,4.030399620532989502e-01,-6.667316436767578125e+01,-1.826874694824218750e+02,-2.342603921890258789e+00,7.562255859375000000e+01,3.135598182678222656e+01
8.558099716901779175e-02,1.000000000000000000e+00,-3.430900573730468750e+01,4.936553955078125000e+01,3.007508277893066406e+01,1.101239624023437500e+02,9.639332580566406250e+01,-1.301676511764526367e+00,4.030399620532989502e-01,-6.667316436767578125e+01,-1.826874694824218750e+02,-2.342603921890258789e+00,7.562255859375000000e+01,3.135598182678222656e+01
8.887299895286560059e-02,1.000000000000000000e+00,-3.430900573730468750e+01,4.936553955078125000e+01,3.007508277893066406e+01,1.101239624023437500e+02,9.639332580566406250e+01,-1.301676511764526367e+00,4.030399620532989502e-01,-6.667316436767578125e+01,-1.826874694824218750e+02,-2.342460393905639648e+00,7.562270355224609375e+01,3.135598182678222656e+01
9.019199758768081665e-02,1.000000000000000000e+00,-3.431325531005859375e+01,4.935683059692382812e+01,3.007538604736328125e+01,1.101218566894531250e+02,9.639385986328125000e+01,-1.302015662193298340e+00,4.030399620532989502e-01,-6.667316436767578125e+01,-1.826874694824218750e+02,-2.342460393905639648e+00,7.562270355224609375e+01,3.135598182678222656e+01
9.261599928140640259e-02,1.000000000000000000e+00,-3.431325531005859375e+01,4.935683059692382812e+01,3.007538604736328125e+01,1.101218566894531250e+02,9.639385986328125000e+01,-1.302015662193298340e+00,4.030399620532989502e-01,-6.667316436767578125e+01,-1.826874694824218750e+02,-2.342603921890258789e+00,7.562255859375000000e+01,3.135598182678222656e+01
9.721300005912780762e-02,1.000000000000000000e+00,-3.432407760620117188e+01,4.933383560180664062e+01,3.007709312438964844e+01,1.101125793457031250e+02,9.639572906494140625e+01,-1.303643226623535156e+00,4.030399620532989502e-01,-6.667316436767578125e+01,-1.826874694824218750e+02,-2.342532396316528320e+00,7.562255859375000000e+01,3.135576248168945312e+01
9.848599880933761597e-02,1.000000000000000000e+00,-3.432407760620117188e+01,4.933383560180664062e+01,3.007709312438964844e+01,1.101125793457031250e+02,9.639572906494140625e+01,-1.303643226623535156e+00,4.030399620532989502e-01,-6.667316436767578125e+01,-1.826874694824218750e+02,-2.342532396316528320e+00,7.562255859375000000e+01,3.135576248168945312e+01
1.015970036387443542e-01,1.000000000000000000e+00,-3.433108139038085938e+01,4.931905746459960938e+01,3.007878494262695312e+01,1.101054687500000000e+02,9.639733123779296875e+01,-1.306355834007263184e+00,4.030399620532989502e-01,-6.667326354980468750e+01,-1.826874694824218750e+02,-2.342603921890258789e+00,7.562270355224609375e+01,3.135598182678222656e+01
1.048230007290840149e-01,1.000000000000000000e+00,-3.433108139038085938e+01,4.931905746459960938e+01,3.007878494262695312e+01,1.101054687500000000e+02,9.639733123779296875e+01,-1.306355834007263184e+00,4.030399620532989502e-01,-6.667326354980468750e+01,-1.826874694824218750e+02,-2.342603921890258789e+00,7.562270355224609375e+01,3.135598182678222656e+01
1.086649969220161438e-01,1.000000000000000000e+00,-3.433949279785156250e+01,4.930176925659179688e+01,3.008109855651855469e+01,1.100964126586914062e+02,9.639994049072265625e+01,-1.309950113296508789e+00,4.030399620532989502e-01,-6.667316436767578125e+01,-1.826873016357421875e+02,-2.342603921890258789e+00,7.562255859375000000e+01,3.135598182678222656e+01
1.129359975457191467e-01,1.000000000000000000e+00,-3.434962844848632812e+01,4.928169631958007812e+01,3.008423042297363281e+01,1.100839843750000000e+02,9.640287780761718750e+01,-1.314019083976745605e+00,4.030399620532989502e-01,-6.667316436767578125e+01,-1.826874694824218750e+02,-2.342603921890258789e+00,7.562255859375000000e+01,3.135598182678222656e+01
1.171149984002113342e-01,1.000000000000000000e+00,-3.436096954345703125e+01,4.925909042358398438e+01,3.008821678161621094e+01,1.100686569213867188e+02,9.640644836425781250e+01,-1.318902015686035156e+00,4.030399620532989502e-01,-6.667316436767578125e+01,-1.826874694824218750e+02,-2.342603921890258789e+00,7.562270355224609375e+01,3.135598182678222656e+01
1.188609972596168518e-01,1.000000000000000000e+00,-3.437400054931640625e+01,4.923386001586914062e+01,3.009299468994140625e+01,1.100499572753906250e+02,9.641114044189453125e+01,-1.324869871139526367e+00,4.030399620532989502e-01,-6.667316436767578125e+01,-1.826874694824218750e+02,-2.342532396316528320e+00,7.562255859375000000e+01,3.135598182678222656e+01
1.229550018906593323e-01,1.000000000000000000e+00,-3.438861465454101562e+01,4.920572662353515625e+01,3.009913444519042969e+01,1.100270385742187500e+02,9.641683959960937500e+01,-1.332397580146789551e+00,4.030399620532989502e-01,-6.667316436767578125e+01,-1.826874694824218750e+02,-2.342603921890258789e+00,7.562255859375000000e+01,3.135598182678222656e+01
1.288699954748153687e-01,1.000000000000000000e+00,-3.440454483032226562e+01,4.917411422729492188e+01,3.010657691955566406e+01,1.099996490478515625e+02,9.642334747314453125e+01,-1.341213703155517578e+00,4.030399620532989502e-01,-6.667316436767578125e+01,-1.826874694824218750e+02,-2.342603921890258789e+00,7.562255859375000000e+01,3.135598182678222656e+01
1.330790072679519653e-01,1.000000000000000000e+00,-3.442173767089843750e+01,4.913899230957031250e+01,3.011519622802734375e+01,1.099682083129882812e+02,9.643075561523437500e+01,-1.350911498069763184e+00,4.030399620532989502e-01,-6.667316436767578125e+01,-1.826874694824218750e+02,-2.342532396316528320e+00,7.562255859375000000e+01,3.135576248168945312e+01
1.349740028381347656e-01,1.000000000000000000e+00,-3.444091415405273438e+01,4.910045623779296875e+01,3.012497711181640625e+01,1.099337539672851562e+02,9.643945312500000000e+01,-1.362440347671508789e+00,4.030399620532989502e-01,-6.667316436767578125e+01,-1.826874694824218750e+02,-2.342747688293457031e+00,7.562270355224609375e+01,3.135598182678222656e+01
1.409460008144378662e-01,1.000000000000000000e+00,-3.446181488037109375e+01,4.905852127075195312e+01,3.013613700866699219e+01,1.098957214355468750e+02,9.644898986816406250e+01,-1.375732421875000000e+00,4.030399620532989502e-01,-6.667316436767578125e+01,-1.826874694824218750e+02,-2.342603921890258789e+00,7.562255859375000000e+01,3.135598182678222656e+01
1.451710015535354614e-01,1.000000000000000000e+00,-3.448466491699218750e+01,4.901342010498046875e+01,3.014878654479980469e+01,1.098519592285156250e+02,9.645980834960937500e+01,-1.389906287193298340e+00,4.030399620532989502e-01,-6.667316436767578125e+01,-1.826874694824218750e+02,-2.342603921890258789e+00,7.562255859375000000e+01,3.135619926452636719e+01
1.469630002975463867e-01,1.000000000000000000e+00,-3.450872039794921875e+01,4.896499252319335938e+01,3.016271400451660156e+01,1.098030166625976562e+02,9.647160339355468750e+01,-1.405639767646789551e+00,4.030399620532989502e-01,-6.667316436767578125e+01,-1.826874694824218750e+02,-2.342747688293457031e+00,7.562270355224609375e+01,3.135598182678222656e+01
1.529999971389770508e-01,1.000000000000000000e+00,-3.453398513793945312e+01,4.891380310058593750e+01,3.017779731750488281e+01,1.097515029907226562e+02,9.648401641845703125e+01,-1.423339962959289551e+00,4.030399620532989502e-01,-6.667316436767578125e+01,-1.826874694824218750e+02,-2.342532396316528320e+00,7.562270355224609375e+01,3.135598182678222656e+01
1.571689993143081665e-01,1.000000000000000000e+00,-3.456079483032226562e+01,4.885976409912109375e+01,3.019363784790039062e+01,1.096973571777343750e+02,9.649703216552734375e+01,-1.441989541053771973e+00,4.030399620532989502e-01,-6.667316436767578125e+01,-1.826874694824218750e+02,-2.342747688293457031e+00,7.562255859375000000e+01,3.135598182678222656e+01
1.589230000972747803e-01,1.000000000000000000e+00,-3.458921432495117188e+01,4.880305099487304688e+01,3.021047019958496094e+01,1.096394119262695312e+02,9.651057434082031250e+01,-1.461859822273254395e+00,4.030399620532989502e-01,-6.667326354980468750e+01,-1.826874694824218750e+02,-2.342603921890258789e+00,7.562255859375000000e+01,3.135598182678222656e+01
1.638509929180145264e-01,1.000000000000000000e+00,-3.461907196044921875e+01,4.874364852905273438e+01,3.022824287414550781e+01,1.095788879394531250e+02,9.652481079101562500e+01,-1.482883095741271973e+00,4.030399620532989502e-01,-6.667316436767578125e+01,-1.826874694824218750e+02,-2.342532396316528320e+00,7.562255859375000000e+01,3.135598182678222656e+01
1.669069975614547729e-01,1.000000000000000000e+00,-3.465024566650390625e+01,4.868191528320312500e+01,3.024645805358886719e+01,1.095154190063476562e+02,9.653957366943359375e+01,-1.504584550857543945e+00,4.030399620532989502e-01,-6.667316436767578125e+01,-1.826874694824218750e+02,-2.342603921890258789e+00,7.562255859375000000e+01,3.135598182678222656e+01
1.709900051355361938e-01,1.000000000000000000e+00,-3.468257141113281250e+01,4.861775970458984375e+01,3.026518249511718750e+01,1.094507369995117188e+02,9.655493164062500000e+01,-1.526014685630798340e+00,4.030399620532989502e-01,-6.667316436767578125e+01,-1.826874694824218750e+02,-2.342532396316528320e+00,7.562270355224609375e+01,3.135598182678222656e+01
1.758970022201538086e-01,1.000000000000000000e+00,-3.471618652343750000e+01,4.855142974853515625e+01,3.028433799743652344e+01,1.093835220336914062e+02,9.657054901123046875e+01,-1.548055171966552734e+00,4.030399620532989502e-01,-6.667316436767578125e+01,-1.826874694824218750e+02,-2.342532396316528320e+00,7.562255859375000000e+01,3.135598182678222656e+01
1.788450032472610474e-01,1.000000000000000000e+00,-3.475065994262695312e+01,4.848326873779296875e+01,3.030385589599609375e+01,1.093163146972656250e+02,9.658681488037109375e+01,-1.570909380912780762e+00,4.030399620532989502e-01,-6.667316436767578125e+01,-1.826874694824218750e+02,-2.342532396316528320e+00,7.562255859375000000e+01,3.135598182678222656e+01
1.862459927797317505e-01,1.000000000000000000e+00,-3.475065994262695312e+01,4.848326873779296875e+01,3.030385589599609375e+01,1.093163146972656250e+02,9.658681488037109375e+01,-1.570909380912780762e+00,4.030399620532989502e-01,-6.667316436767578125e+01,-1.826874694824218750e+02,-2.342532396316528320e+00,7.562255859375000000e+01,3.135598182678222656e+01
1.876630038022994995e-01,1.000000000000000000e+00,-3.482220077514648438e+01,4.834149169921875000e+01,3.034384918212890625e+01,1.091788330078125000e+02,9.662146759033203125e+01,-1.617431759834289551e+00,4.030399620532989502e-01,-6.667316436767578125e+01,-1.826875762939453125e+02,-2.342603921890258789e+00,7.562255859375000000e+01,3.135598182678222656e+01
1.919150054454803467e-01,1.000000000000000000e+00,-3.485903167724609375e+01,4.826805877685546875e+01,3.036393737792968750e+01,1.091088333129882812e+02,9.663853454589843750e+01,-1.641845822334289551e+00,4.030399620532989502e-01,-6.667316436767578125e+01,-1.826874694824218750e+02,-2.342532396316528320e+00,7.562255859375000000e+01,3.135598182678222656e+01
1.949259936809539795e-01,1.000000000000000000e+00,-3.489680862426757812e+01,4.819351577758789062e+01,3.038384056091308594e+01,1.090387725830078125e+02,9.665538024902343750e+01,-1.666327595710754395e+00,4.030399620532989502e-01,-6.667316436767578125e+01,-1.826874694824218750e+02,-2.342747688293457031e+00,7.562255859375000000e+01,3.135598182678222656e+01
1.998900026082992554e-01,1.000000000000000000e+00,-3.489680862426757812e+01,4.819351577758789062e+01,3.038384056091308594e+01,1.090387725830078125e+02,9.665538024902343750e+01,-1.666327595710754395e+00,4.030399620532989502e-01,-6.667316436767578125e+01,-1.826874694824218750e+02,-2.342747688293457031e+00,7.562255859375000000e+01,3.135598182678222656e+01
2.028509974479675293e-01,1.000000000000000000e+00,-3.497463226318359375e+01,4.804196166992187500e+01,3.042393302917480469e+01,1.088990859985351562e+02,9.668880462646484375e+01,-1.713460326194763184e+00,4.030399620532989502e-01,-6.667316436767578125e+01,-1.826874694824218750e+02,-2.342532396316528320e+00,7.562255859375000000e+01,3.135598182678222656e+01
2.079100012779235840e-01,1.000000000000000000e+00,-3.497463226318359375e+01,4.804196166992187500e+01,3.042393302917480469e+01,1.088990859985351562e+02,9.668880462646484375e+01,-1.713460326194763184e+00,4.030399620532989502e-01,-6.667316436767578125e+01,-1.826874694824218750e+02,-2.342532396316528320e+00,7.562255859375000000e+01,3.135598182678222656e+01
2.118449956178665161e-01,1.000000000000000000e+00,-3.505397796630859375e+01,4.788893890380859375e+01,3.046439552307128906e+01,1.087581787109375000e+02,9.672223663330078125e+01,-1.759914875030517578e+00,4.030399620532989502e-01,-6.667316436767578125e+01,-1.826874694824218750e+02,-2.342532396316528320e+00,7.562255859375000000e+01,3.135598182678222656e+01
2.148520052433013916e-01,1.000000000000000000e+00,-3.509371185302734375e+01,4.781215286254882812e+01,3.048452377319335938e+01,1.086879577636718750e+02,9.673956298828125000e+01,-1.783989787101745605e+00,4.030399620532989502e-01,-6.667316436767578125e+01,-1.826874694824218750e+02,-2.342747688293457031e+00,7.562255859375000000e+01,3.135619926452636719e+01
2.198919951915740967e-01,1.000000000000000000e+00,-3.509371185302734375e+01,4.781215286254882812e+01,3.048452377319335938e+01,1.086879577636718750e+02,9.673956298828125000e+01,-1.783989787101745605e+00,4.030399620532989502e-01,-6.667316436767578125e+01,-1.826874694824218750e+02,-2.342747688293457031e+00,7.562255859375000000e+01,3.135619926452636719e+01
2.238419950008392334e-01,1.000000000000000000e+00,-3.517374420166015625e+01,4.765736389160156250e+01,3.052437591552734375e+01,1.085472183227539062e+02,9.677528381347656250e+01,-1.832343220710754395e+00,4.030399620532989502e-01,-6.667316436767578125e+01,-1.826874694824218750e+02,-2.342603921890258789e+00,7.562255859375000000e+01,3.135576248168945312e+01
2.268400043249130249e-01,1.000000000000000000e+00,-3.521390533447265625e+01,4.758010864257812500e+01,3.054462432861328125e+01,1.084761581420898438e+02,9.679251098632812500e+01,-1.856825113296508789e+00,4.030399620532989502e-01,-6.667316436767578125e+01,-1.826874694824218750e+02,-2.342603921890258789e+00,7.562270355224609375e+01,3.135598182678222656e+01
2.309799939393997192e-01,1.000000000000000000e+00,-3.521390533447265625e+01,4.758010864257812500e+01,3.054462432861328125e+01,1.084761581420898438e+02,9.679251098632812500e+01,-1.856825113296508789e+00,4.030399620532989502e-01,-6.667316436767578125e+01,-1.826874694824218750e+02,-2.342603921890258789e+00,7.562270355224609375e+01,3.135598182678222656e+01
2.358939945697784424e-01,1.000000000000000000e+00,-3.525392150878906250e+01,4.750294113159179688e+01,3.056519889831542969e+01,1.084057846069335938e+02,9.680935668945312500e+01,-1.880832433700561523e+00,4.030399620532989502e-01,-6.667316436767578125e+01,-1.826874694824218750e+02,-2.342603921890258789e+00,7.562270355224609375e+01,3.135598182678222656e+01
2.388519942760467529e-01,1.000000000000000000e+00,-3.533364105224609375e+01,4.734993743896484375e+01,3.060596466064453125e+01,1.082646713256835938e+02,9.684300231933593750e+01,-1.927761554718017578e+00,4.030399620532989502e-01,-6.667308044433593750e+01,-1.826874694824218750e+02,-2.342603921890258789e+00,7.562255859375000000e+01,3.135598182678222656e+01
2.439229935407638550e-01,1.000000000000000000e+00,-3.533364105224609375e+01,4.734993743896484375e+01,3.060596466064453125e+01,1.082646713256835938e+02,9.684300231933593750e+01,-1.927761554718017578e+00,4.030399620532989502e-01,-6.667308044433593750e+01,-1.826874694824218750e+02,-2.342603921890258789e+00,7.562255859375000000e+01,3.135598182678222656e+01
2.478590011596679688e-01,1.000000000000000000e+00,-3.541321563720703125e+01,4.719664382934570312e+01,3.064644813537597656e+01,1.081233520507812500e+02,9.687728118896484375e+01,-1.975097775459289551e+00,4.030399620532989502e-01,-6.667316436767578125e+01,-1.826874694824218750e+02,-2.342747688293457031e+00,7.562255859375000000e+01,3.135598182678222656e+01
2.518590092658996582e-01,1.000000000000000000e+00,-3.545274734497070312e+01,4.711965942382812500e+01,3.066696166992187500e+01,1.080523986816406250e+02,9.689476776123046875e+01,-1.999104857444763184e+00,4.030399620532989502e-01,-6.667316436767578125e+01,-1.826874694824218750e+02,-2.342747688293457031e+00,7.562270355224609375e+01,3.135598182678222656e+01
2.548800110816955566e-01,1.000000000000000000e+00,-3.549247360229492188e+01,4.704237365722656250e+01,3.068753814697265625e+01,1.079817047119140625e+02,9.691294860839843750e+01,-2.023654699325561523e+00,4.030399620532989502e-01,-6.667316436767578125e+01,-1.826874694824218750e+02,-2.342603921890258789e+00,7.562255859375000000e+01,3.135598182678222656e+01
2.596409916877746582e-01,1.000000000000000000e+00,-3.549247360229492188e+01,4.704237365722656250e+01,3.068753814697265625e+01,1.079817047119140625e+02,9.691294860839843750e+01,-2.023654699325561523e+00,4.030399620532989502e-01,-6.667316436767578125e+01,-1.826874694824218750e+02,-2.342603921890258789e+00,7.562255859375000000e+01,3.135598182678222656e+01
2.661300003528594971e-01,1.000000000000000000e+00,-3.557173538208007812e+01,4.688790512084960938e+01,3.072836303710937500e+01,1.078401718139648438e+02,9.694792175292968750e+01,-2.072482585906982422e+00,4.030399620532989502e-01,-6.667316436767578125e+01,-1.826874694824218750e+02,-2.342603921890258789e+00,7.562255859375000000e+01,3.135598182678222656e+01
2.675330042839050293e-01,1.000000000000000000e+00,-3.561091995239257812e+01,4.681048583984375000e+01,3.074875640869140625e+01,1.077689056396484375e+02,9.696445465087890625e+01,-2.095811843872070312e+00,4.030399620532989502e-01,-6.667316436767578125e+01,-1.826875762939453125e+02,-2.342532396316528320e+00,7.562255859375000000e+01,3.135598182678222656e+01
2.739030122756958008e-01,1.000000000000000000e+00,-3.561091995239257812e+01,4.681048583984375000e+01,3.074875640869140625e+01,1.077689056396484375e+02,9.696445465087890625e+01,-2.095811843872070312e+00,4.030399620532989502e-01,-6.667316436767578125e+01,-1.826875762939453125e+02,-2.342532396316528320e+00,7.562255859375000000e+01,3.135598182678222656e+01
2.758899927139282227e-01,1.000000000000000000e+00,-3.568911743164062500e+01,4.665644454956054688e+01,3.078982734680175781e+01,1.076265869140625000e+02,9.699825286865234375e+01,-2.143419027328491211e+00,4.030399620532989502e-01,-6.667316436767578125e+01,-1.826874694824218750e+02,-2.342532396316528320e+00,7.562255859375000000e+01,3.135598182678222656e+01
2.789019942283630371e-01,1.000000000000000000e+00,-3.572830200195312500e+01,4.657950210571289062e+01,3.081023979187011719e+01,1.075560455322265625e+02,9.701537322998046875e+01,-2.167155027389526367e+00,4.030399620532989502e-01,-6.667316436767578125e+01,-1.826874694824218750e+02,-2.342747688293457031e+00,7.562270355224609375e+01,3.135598182678222656e+01
2.839219868183135986e-01,1.000000000000000000e+00,-3.572830200195312500e+01,4.657950210571289062e+01,3.081023979187011719e+01,1.075560455322265625e+02,9.701537322998046875e+01,-2.167155027389526367e+00,4.030399620532989502e-01,-6.667316436767578125e+01,-1.826874694824218750e+02,-2.342747688293457031e+00,7.562270355224609375e+01,3.135598182678222656e+01
2.868660092353820801e-01,1.000000000000000000e+00,-3.580652999877929688e+01,4.642460250854492188e+01,3.085094451904296875e+01,1.074137268066406250e+02,9.705098724365234375e+01,-2.216729164123535156e+00,4.030399620532989502e-01,-6.667308044433593750e+01,-1.826873016357421875e+02,-2.342747688293457031e+00,7.562241363525390625e+01,3.135598182678222656e+01
2.919200062751770020e-01,1.000000000000000000e+00,-3.580652999877929688e+01,4.642460250854492188e+01,3.085094451904296875e+01,1.074137268066406250e+02,9.705098724365234375e+01,-2.216729164123535156e+00,4.030399620532989502e-01,-6.667308044433593750e+01,-1.826873016357421875e+02,-2.342747688293457031e+00,7.562241363525390625e+01,3.135598182678222656e+01
2.959420084953308105e-01,1.000000000000000000e+00,-3.588446426391601562e+01,4.626879501342773438e+01,3.089201354980468750e+01,1.072715606689453125e+02,9.708628082275390625e+01,-2.265082597732543945e+00,4.030399620532989502e-01,-6.667316436767578125e+01,-1.826874694824218750e+02,-2.342603921890258789e+00,7.562255859375000000e+01,3.135598182678222656e+01
2.988750040531158447e-01,1.000000000000000000e+00,-3.592353820800781250e+01,4.619083404541015625e+01,3.091279411315917969e+01,1.071997146606445312e+02,9.710307312011718750e+01,-2.288614988327026367e+00,4.030399620532989502e-01,-6.667316436767578125e+01,-1.826874694824218750e+02,-2.342603921890258789e+00,7.562270355224609375e+01,3.135598182678222656e+01
3.039120137691497803e-01,1.000000000000000000e+00,-3.592353820800781250e+01,4.619083404541015625e+01,3.091279411315917969e+01,1.071997146606445312e+02,9.710307312011718750e+01,-2.288614988327026367e+00,4.030399620532989502e-01,-6.667316436767578125e+01,-1.826874694824218750e+02,-2.342603921890258789e+00,7.562270355224609375e+01,3.135598182678222656e+01
3.089280128479003906e-01,1.000000000000000000e+00,-3.596252059936523438e+01,4.611276245117187500e+01,3.093342781066894531e+01,1.071290283203125000e+02,9.711991882324218750e+01,-2.312011718750000000e+00,4.030399620532989502e-01,-6.667316436767578125e+01,-1.826874694824218750e+02,-2.342747688293457031e+00,7.562255859375000000e+01,3.135598182678222656e+01
3.118349909782409668e-01,1.000000000000000000e+00,-3.604091644287109375e+01,4.595677566528320312e+01,3.097451972961425781e+01,1.069865875244140625e+02,9.715425872802734375e+01,-2.360636472702026367e+00,4.030399620532989502e-01,-6.667316436767578125e+01,-1.826874694824218750e+02,-2.342532396316528320e+00,7.562255859375000000e+01,3.135598182678222656e+01
3.168900012969970703e-01,1.000000000000000000e+00,-3.604091644287109375e+01,4.595677566528320312e+01,3.097451972961425781e+01,1.069865875244140625e+02,9.715425872802734375e+01,-2.360636472702026367e+00,4.030399620532989502e-01,-6.667316436767578125e+01,-1.826874694824218750e+02,-2.342532396316528320e+00,7.562255859375000000e+01,3.135598182678222656e+01
3.202809989452362061e-01,1.000000000000000000e+00,-3.611963272094726562e+01,4.580078506469726562e+01,3.101560974121093750e+01,1.068434753417968750e+02,9.718960571289062500e+01,-2.410074949264526367e+00,4.030399620532989502e-01,-6.667316436767578125e+01,-1.826873016357421875e+02,-2.342603921890258789e+00,7.562255859375000000e+01,3.135598182678222656e+01
3.228619992733001709e-01,1.000000000000000000e+00,-3.615901947021484375e+01,4.572264480590820312e+01,3.103608703613281250e+01,1.067713623046875000e+02,9.720768737792968750e+01,-2.434421062469482422e+00,4.030399620532989502e-01,-6.667316436767578125e+01,-1.826873016357421875e+02,-2.342532396316528320e+00,7.562270355224609375e+01,3.135598182678222656e+01
3.279449939727783203e-01,1.000000000000000000e+00,-3.615901947021484375e+01,4.572264480590820312e+01,3.103608703613281250e+01,1.067713623046875000e+02,9.720768737792968750e+01,-2.434421062469482422e+00,4.030399620532989502e-01,-6.667316436767578125e+01,-1.826873016357421875e+02,-2.342532396316528320e+00,7.562270355224609375e+01,3.135598182678222656e+01
3.329040110111236572e-01,1.000000000000000000e+00,-3.619889450073242188e+01,4.564432144165039062e+01,3.105653953552246094e+01,1.067003097534179688e+02,9.722564697265625000e+01,-2.458021402359008789e+00,4.030399620532989502e-01,-6.667316436767578125e+01,-1.826874694824218750e+02,-2.342747688293457031e+00,7.562270355224609375e+01,3.135619926452636719e+01
3.355360031127929688e-01,1.000000000000000000e+00,-3.627843856811523438e+01,4.548788070678710938e+01,3.109775352478027344e+01,1.065569305419921875e+02,9.725961303710937500e+01,-2.505696773529052734e+00,4.030399620532989502e-01,-6.667316436767578125e+01,-1.826874694824218750e+02,-2.342747688293457031e+00,7.562255859375000000e+01,3.135598182678222656e+01
3.399829864501953125e-01,1.000000000000000000e+00,-3.627843856811523438e+01,4.548788070678710938e+01,3.109775352478027344e+01,1.065569305419921875e+02,9.725961303710937500e+01,-2.505696773529052734e+00,4.030399620532989502e-01,-6.667316436767578125e+01,-1.826874694824218750e+02,-2.342747688293457031e+00,7.562255859375000000e+01,3.135598182678222656e+01
3.439170122146606445e-01,1.000000000000000000e+00,-3.631859970092773438e+01,4.540921783447265625e+01,3.111848831176757812e+01,1.064851837158203125e+02,9.727667236328125000e+01,-2.529296875000000000e+00,4.030399620532989502e-01,-6.667316436767578125e+01,-1.826874694824218750e+02,-2.342532396316528320e+00,7.562270355224609375e+01,3.135619926452636719e+01
3.478859961032867432e-01,1.000000000000000000e+00,-3.635873413085937500e+01,4.533067321777343750e+01,3.113916778564453125e+01,1.064138641357421875e+02,9.729362487792968750e+01,-2.553575277328491211e+00,4.030399620532989502e-01,-6.667326354980468750e+01,-1.826874694824218750e+02,-2.342603921890258789e+00,7.562270355224609375e+01,3.135619926452636719e+01
3.519670069217681885e-01,1.000000000000000000e+00,-3.639897918701171875e+01,4.525243759155273438e+01,3.115986633300781250e+01,1.063419113159179688e+02,9.731074523925781250e+01,-2.578396558761596680e+00,4.030399620532989502e-01,-6.667316436767578125e+01,-1.826874694824218750e+02,-2.342747688293457031e+00,7.562255859375000000e+01,3.135598182678222656e+01
3.556770086288452148e-01,1.000000000000000000e+00,-3.643931198120117188e+01,4.517402648925781250e+01,3.118033981323242188e+01,1.062703781127929688e+02,9.732865142822265625e+01,-2.603217363357543945e+00,4.030399620532989502e-01,-6.667316436767578125e+01,-1.826874694824218750e+02,-2.342460393905639648e+00,7.562255859375000000e+01,3.135598182678222656e+01
3.598909974098205566e-01,1.000000000000000000e+00,-3.647982025146484375e+01,4.509577560424804688e+01,3.120097732543945312e+01,1.061982727050781250e+02,9.734667968750000000e+01,-2.627631425857543945e+00,4.030399620532989502e-01,-6.667316436767578125e+01,-1.826873016357421875e+02,-2.342747688293457031e+00,7.562255859375000000e+01,3.135598182678222656e+01
3.640269935131072998e-01,1.000000000000000000e+00,-3.652037811279296875e+01,4.501726913452148438e+01,3.122171401977539062e+01,1.061269989013671875e+02,9.736486053466796875e+01,-2.651231765747070312e+00,4.030399620532989502e-01,-6.667316436767578125e+01,-1.826874694824218750e+02,-2.342532396316528320e+00,7.562255859375000000e+01,3.135598182678222656e+01
3.674429953098297119e-01,1.000000000000000000e+00,-3.656094360351562500e+01,4.493894577026367188e+01,3.124253463745117188e+01,1.060547866821289062e+02,9.738213348388671875e+01,-2.674831867218017578e+00,4.030399620532989502e-01,-6.667316436767578125e+01,-1.826874694824218750e+02,-2.342532396316528320e+00,7.562255859375000000e+01,3.135598182678222656e+01
3.718859851360321045e-01,1.000000000000000000e+00,-3.660165023803710938e+01,4.486062622070312500e+01,3.126321029663085938e+01,1.059829940795898438e+02,9.739871215820312500e+01,-2.698906898498535156e+00,4.030399620532989502e-01,-6.667316436767578125e+01,-1.826874694824218750e+02,-2.342747688293457031e+00,7.562255859375000000e+01,3.135576248168945312e+01
3.758899867534637451e-01,1.000000000000000000e+00,-3.664235687255859375e+01,4.478194046020507812e+01,3.128415107727050781e+01,1.059103546142578125e+02,9.741603851318359375e+01,-2.722642898559570312e+00,4.030399620532989502e-01,-6.667316436767578125e+01,-1.826874694824218750e+02,-2.342532396316528320e+00,7.562270355224609375e+01,3.135598182678222656e+01
3.799670040607452393e-01,1.000000000000000000e+00,-3.668309020996093750e+01,4.470321273803710938e+01,3.130476951599121094e+01,1.058388748168945312e+02,9.743336486816406250e+01,-2.747667074203491211e+00,4.030399620532989502e-01,-6.667308044433593750e+01,-1.826874694824218750e+02,-2.342747688293457031e+00,7.562255859375000000e+01,3.135598182678222656e+01
3.838970065116882324e-01,1.000000000000000000e+00,-3.672351074218750000e+01,4.462414169311523438e+01,3.132559013366699219e+01,1.057667160034179688e+02,9.745059204101562500e+01,-2.772623777389526367e+00,4.030399620532989502e-01,-6.667326354980468750e+01,-1.826874694824218750e+02,-2.342532396316528320e+00,7.562270355224609375e+01,3.135598182678222656e+01
3.879019916057586670e-01,1.000000000000000000e+00,-3.676418685913085938e+01,4.454514312744140625e+01,3.134646987915039062e+01,1.056951293945312500e+02,9.746802520751953125e+01,-2.797512531280517578e+00,4.030399620532989502e-01,-6.667316436767578125e+01,-1.826874694824218750e+02,-2.342747688293457031e+00,7.562255859375000000e+01,3.135598182678222656e+01
3.919639885425567627e-01,1.000000000000000000e+00,-3.680486297607421875e+01,4.446620941162109375e+01,3.136721038818359375e+01,1.056224441528320312e+02,9.748615264892578125e+01,-2.820977210998535156e+00,4.031498432159423828e-01,-6.667316436767578125e+01,-1.826874694824218750e+02,-2.342532396316528320e+00,7.562270355224609375e+01,3.135598182678222656e+01
3.959040045738220215e-01,1.000000000000000000e+00,-3.684560012817382812e+01,4.438763809204101562e+01,3.138786506652832031e+01,1.055507507324218750e+02,9.750460052490234375e+01,-2.844306230545043945e+00,4.030399620532989502e-01,-6.667316436767578125e+01,-1.826874694824218750e+02,-2.342532396316528320e+00,7.562241363525390625e+01,3.135598182678222656e+01
3.998889923095703125e-01,1.000000000000000000e+00,-3.688610458374023438e+01,4.430924606323242188e+01,3.140868759155273438e+01,1.054784317016601562e+02,9.752224731445312500e+01,-2.868109703063964844e+00,4.030399620532989502e-01,-6.667316436767578125e+01,-1.826874694824218750e+02,-2.342603921890258789e+00,7.562255859375000000e+01,3.135619926452636719e+01
4.039140045642852783e-01,1.000000000000000000e+00,-3.692672348022460938e+01,4.423060989379882812e+01,3.142944335937500000e+01,1.054066848754882812e+02,9.753936004638671875e+01,-2.892320394515991211e+00,4.030399620532989502e-01,-6.667316436767578125e+01,-1.826874694824218750e+02,-2.342532396316528320e+00,7.562270355224609375e+01,3.135598182678222656e+01
4.079590141773223877e-01,1.000000000000000000e+00,-3.696737289428710938e+01,4.415178680419921875e+01,3.145048713684082031e+01,1.053338394165039062e+02,9.755637359619140625e+01,-2.916802406311035156e+00,4.030399620532989502e-01,-6.667316436767578125e+01,-1.826874694824218750e+02,-2.342603921890258789e+00,7.562255859375000000e+01,3.135598182678222656e+01
4.112670123577117920e-01,1.000000000000000000e+00,-3.700776672363281250e+01,4.407249450683593750e+01,3.147140884399414062e+01,1.052620925903320312e+02,9.757359313964843750e+01,-2.941759109497070312e+00,4.030399620532989502e-01,-6.667316436767578125e+01,-1.826874694824218750e+02,-2.342603921890258789e+00,7.562270355224609375e+01,3.135598182678222656e+01
4.157699942588806152e-01,1.000000000000000000e+00,-3.704824066162109375e+01,4.399301528930664062e+01,3.149218940734863281e+01,1.051896667480468750e+02,9.759070587158203125e+01,-2.966783523559570312e+00,4.030399620532989502e-01,-6.667316436767578125e+01,-1.826874694824218750e+02,-2.342532396316528320e+00,7.562270355224609375e+01,3.135598182678222656e+01
4.200530052185058594e-01,1.000000000000000000e+00,-3.708868789672851562e+01,4.391326904296875000e+01,3.151310920715332031e+01,1.051176071166992188e+02,9.760851287841796875e+01,-2.991468667984008789e+00,4.030399620532989502e-01,-6.667316436767578125e+01,-1.826874694824218750e+02,-2.342532396316528320e+00,7.562255859375000000e+01,3.135598182678222656e+01
4.233280122280120850e-01,1.000000000000000000e+00,-3.712928009033203125e+01,4.383377075195312500e+01,3.153392791748046875e+01,1.050446090698242188e+02,9.762631988525390625e+01,-3.015136957168579102e+00,4.030399620532989502e-01,-6.667316436767578125e+01,-1.826874694824218750e+02,-2.342603921890258789e+00,7.562255859375000000e+01,3.135598182678222656e+01
4.273189902305603027e-01,1.000000000000000000e+00,-3.716975784301757812e+01,4.375454330444335938e+01,3.155488967895507812e+01,1.049723892211914062e+02,9.764471435546875000e+01,-3.039211750030517578e+00,4.030399620532989502e-01,-6.667316436767578125e+01,-1.826873016357421875e+02,-2.342603921890258789e+00,7.562255859375000000e+01,3.135598182678222656e+01
4.311229884624481201e-01,1.000000000000000000e+00,-3.720997619628906250e+01,4.367524719238281250e+01,3.157591438293457031e+01,1.048997573852539062e+02,9.766268157958984375e+01,-3.063422441482543945e+00,4.030399620532989502e-01,-6.667316436767578125e+01,-1.826874694824218750e+02,-2.342532396316528320e+00,7.562270355224609375e+01,3.135598182678222656e+01
4.354330003261566162e-01,1.000000000000000000e+00,-3.725022506713867188e+01,4.359619903564453125e+01,3.159667396545410156e+01,1.048278503417968750e+02,9.768032836914062500e+01,-3.087700843811035156e+00,4.030399620532989502e-01,-6.667316436767578125e+01,-1.826874694824218750e+02,-2.342603921890258789e+00,7.562270355224609375e+01,3.135598182678222656e+01
4.400829970836639404e-01,1.000000000000000000e+00,-3.729078292846679688e+01,4.351683807373046875e+01,3.161753273010253906e+01,1.047551574707031250e+02,9.769738769531250000e+01,-3.112318277359008789e+00,4.030399620532989502e-01,-6.667316436767578125e+01,-1.826873016357421875e+02,-2.342603921890258789e+00,7.562255859375000000e+01,3.135598182678222656e+01
4.433099925518035889e-01,1.000000000000000000e+00,-3.733123397827148438e+01,4.343765640258789062e+01,3.163837242126464844e+01,1.046826858520507812e+02,9.771461486816406250e+01,-3.137342929840087891e+00,4.030399620532989502e-01,-6.667316436767578125e+01,-1.826874694824218750e+02,-2.342460393905639648e+00,7.562270355224609375e+01,3.135598182678222656e+01
4.474169909954071045e-01,1.000000000000000000e+00,-3.737173843383789062e+01,4.335833740234375000e+01,3.165941619873046875e+01,1.046100997924804688e+02,9.773194122314453125e+01,-3.162435054779052734e+00,4.030399620532989502e-01,-6.667316436767578125e+01,-1.826873016357421875e+02,-2.342747688293457031e+00,7.562255859375000000e+01,3.135598182678222656e+01
4.522930085659027100e-01,1.000000000000000000e+00,-3.741207122802734375e+01,4.327861404418945312e+01,3.168056297302246094e+01,1.045374603271484375e+02,9.774980163574218750e+01,-3.186916828155517578e+00,4.030399620532989502e-01,-6.667316436767578125e+01,-1.826874694824218750e+02,-2.342532396316528320e+00,7.562270355224609375e+01,3.135598182678222656e+01
4.556060135364532471e-01,1.000000000000000000e+00,-3.745274734497070312e+01,4.319850158691406250e+01,3.170162582397460938e+01,1.044644546508789062e+02,9.776760864257812500e+01,-3.210652828216552734e+00,4.030399620532989502e-01,-6.667316436767578125e+01,-1.826873016357421875e+02,-2.342747688293457031e+00,7.562270355224609375e+01,3.135598182678222656e+01
4.599039852619171143e-01,1.000000000000000000e+00,-3.749331283569335938e+01,4.311850738525390625e+01,3.172238349914550781e+01,1.043922882080078125e+02,9.778600311279296875e+01,-3.235134601593017578e+00,4.030399620532989502e-01,-6.667316436767578125e+01,-1.826873016357421875e+02,-2.342603921890258789e+00,7.562255859375000000e+01,3.135598182678222656e+01
4.641549885272979736e-01,1.000000000000000000e+00,-3.753395843505859375e+01,4.303848648071289062e+01,3.174332427978515625e+01,1.043192825317382812e+02,9.780445098876953125e+01,-3.259548902511596680e+00,4.030399620532989502e-01,-6.667316436767578125e+01,-1.826874694824218750e+02,-2.342532396316528320e+00,7.562241363525390625e+01,3.135598182678222656e+01
4.675509929656982422e-01,1.000000000000000000e+00,-3.757460784912109375e+01,4.295891952514648438e+01,3.176441001892089844e+01,1.042462768554687500e+02,9.782183074951171875e+01,-3.284030437469482422e+00,4.030399620532989502e-01,-6.667316436767578125e+01,-1.826874694824218750e+02,-2.342603921890258789e+00,7.562255859375000000e+01,3.135598182678222656e+01
4.720579981803894043e-01,1.000000000000000000e+00,-3.761534500122070312e+01,4.287976074218750000e+01,3.178565788269042969e+01,1.041732177734375000e+02,9.783899688720703125e+01,-3.308919429779052734e+00,4.030399620532989502e-01,-6.667316436767578125e+01,-1.826874694824218750e+02,-2.342603921890258789e+00,7.562255859375000000e+01,3.135598182678222656e+01
4.757499992847442627e-01,1.000000000000000000e+00,-3.765604782104492188e+01,4.280073547363281250e+01,3.180673980712890625e+01,1.041006393432617188e+02,9.785616302490234375e+01,-3.334621906280517578e+00,4.030399620532989502e-01,-6.667316436767578125e+01,-1.826874694824218750e+02,-2.342603921890258789e+00,7.562270355224609375e+01,3.135598182678222656e+01
4.799830019474029541e-01,1.000000000000000000e+00,-3.769687271118164062e+01,4.272137451171875000e+01,3.182762336730957031e+01,1.040274734497070312e+02,9.787359619140625000e+01,-3.359578609466552734e+00,4.030399620532989502e-01,-6.667316436767578125e+01,-1.826875762939453125e+02,-2.342603921890258789e+00,7.562255859375000000e+01,3.135576248168945312e+01
4.838910102844238281e-01,1.000000000000000000e+00,-3.773751831054687500e+01,4.264162445068359375e+01,3.184840011596679688e+01,1.039547271728515625e+02,9.789087677001953125e+01,-3.383653640747070312e+00,4.030399620532989502e-01,-6.667316436767578125e+01,-1.826874694824218750e+02,-2.342603921890258789e+00,7.562255859375000000e+01,3.135619926452636719e+01
4.883779883384704590e-01,1.000000000000000000e+00,-3.777836990356445312e+01,4.256151580810546875e+01,3.186932182312011719e+01,1.038814544677734375e+02,9.790857696533203125e+01,-3.407660722732543945e+00,4.030399620532989502e-01,-6.667316436767578125e+01,-1.826874694824218750e+02,-2.342747688293457031e+00,7.562270355224609375e+01,3.135576248168945312e+01
4.919559955596923828e-01,1.000000000000000000e+00,-3.781939315795898438e+01,4.248124694824218750e+01,3.189063262939453125e+01,1.038087158203125000e+02,9.792707061767578125e+01,-3.432074785232543945e+00,4.030399620532989502e-01,-6.667316436767578125e+01,-1.826874694824218750e+02,-2.342532396316528320e+00,7.562255859375000000e+01,3.135598182678222656e+01
4.960609972476959229e-01,1.000000000000000000e+00,-3.786055755615234375e+01,4.240075302124023438e+01,3.191200065612792969e+01,1.037350234985351562e+02,9.794557952880859375e+01,-3.456692218780517578e+00,4.030399620532989502e-01,-6.667316436767578125e+01,-1.826874694824218750e+02,-2.342603921890258789e+00,7.562255859375000000e+01,3.135598182678222656e+01
5.011849999427795410e-01,1.000000000000000000e+00,-3.790137863159179688e+01,4.232030487060546875e+01,3.193316268920898438e+01,1.036625976562500000e+02,9.796317291259765625e+01,-3.481580972671508789e+00,4.030399620532989502e-01,-6.667316436767578125e+01,-1.826874694824218750e+02,-2.342747688293457031e+00,7.562270355224609375e+01,3.135598182678222656e+01
5.040860176086425781e-01,1.000000000000000000e+00,-3.794240188598632812e+01,4.224017333984375000e+01,3.195426940917968750e+01,1.035893859863281250e+02,9.798044586181640625e+01,-3.507283687591552734e+00,4.030399620532989502e-01,-6.667316436767578125e+01,-1.826874694824218750e+02,-2.342603921890258789e+00,7.562255859375000000e+01,3.135598182678222656e+01
5.080620050430297852e-01,1.000000000000000000e+00,-3.798339462280273438e+01,4.216044616699218750e+01,3.197518920898437500e+01,1.035163192749023438e+02,9.799777221679687500e+01,-3.532443761825561523e+00,4.030399620532989502e-01,-6.667316436767578125e+01,-1.826874694824218750e+02,-2.342747688293457031e+00,7.562255859375000000e+01,3.135598182678222656e+01
5.126010179519653320e-01,1.000000000000000000e+00,-3.802433013916015625e+01,4.208033370971679688e+01,3.199639701843261719e+01,1.034422607421875000e+02,9.801552581787109375e+01,-3.556925535202026367e+00,4.031498432159423828e-01,-6.667316436767578125e+01,-1.826874694824218750e+02,-2.342603921890258789e+00,7.562270355224609375e+01,3.135598182678222656e+01
5.159620046615600586e-01,1.000000000000000000e+00,-3.806538391113281250e+01,4.200045394897460938e+01,3.201755905151367188e+01,1.033693618774414062e+02,9.803307342529296875e+01,-3.580797195434570312e+00,4.030399620532989502e-01,-6.667316436767578125e+01,-1.826874694824218750e+02,-2.342603921890258789e+00,7.562255859375000000e+01,3.135598182678222656e+01
5.201259851455688477e-01,1.000000000000000000e+00,-3.810640335083007812e+01,4.192022705078125000e+01,3.203864669799804688e+01,1.032953567504882812e+02,9.805088043212890625e+01,-3.605211257934570312e+00,4.030399620532989502e-01,-6.667316436767578125e+01,-1.826874694824218750e+02,-2.342603921890258789e+00,7.562270355224609375e+01,3.135598182678222656e+01
5.240430235862731934e-01,1.000000000000000000e+00,-3.814759826660156250e+01,4.183964538574218750e+01,3.205974960327148438e+01,1.032225570678710938e+02,9.806964111328125000e+01,-3.629964351654052734e+00,4.030399620532989502e-01,-6.667316436767578125e+01,-1.826874694824218750e+02,-2.342532396316528320e+00,7.562255859375000000e+01,3.135598182678222656e+01
5.280479788780212402e-01,1.000000000000000000e+00,-3.818856048583984375e+01,4.175856018066406250e+01,3.208091735839843750e+01,1.031488723754882812e+02,9.808814239501953125e+01,-3.654446125030517578e+00,4.030399620532989502e-01,-6.667316436767578125e+01,-1.826874694824218750e+02,-2.342603921890258789e+00,7.562255859375000000e+01,3.135619926452636719e+01
5.319920182228088379e-01,1.000000000000000000e+00,-3.822961425781250000e+01,4.167738723754882812e+01,3.210218429565429688e+01,1.030752258300781250e+02,9.810632324218750000e+01,-3.679470777511596680e+00,4.030399620532989502e-01,-6.667316436767578125e+01,-1.826874694824218750e+02,-2.342532396316528320e+00,7.562255859375000000e+01,3.135598182678222656e+01
5.367789864540100098e-01,1.000000000000000000e+00,-3.827063751220703125e+01,4.159646224975585938e+01,3.212367248535156250e+01,1.030015335083007812e+02,9.812354278564453125e+01,-3.704969644546508789e+00,4.030399620532989502e-01,-6.667316436767578125e+01,-1.826874694824218750e+02,-2.342603921890258789e+00,7.562255859375000000e+01,3.135598182678222656e+01
5.401750206947326660e-01,1.000000000000000000e+00,-3.831174468994140625e+01,4.151549148559570312e+01,3.214506149291992188e+01,1.029283218383789062e+02,9.814066314697265625e+01,-3.730265617370605469e+00,4.030399620532989502e-01,-6.667326354980468750e+01,-1.826874694824218750e+02,-2.342747688293457031e+00,7.562255859375000000e+01,3.135598182678222656e+01
5.440940260887145996e-01,1.000000000000000000e+00,-3.835285186767578125e+01,4.143490982055664062e+01,3.216626739501953125e+01,1.028548431396484375e+02,9.815830993652343750e+01,-3.754476070404052734e+00,4.030399620532989502e-01,-6.667308044433593750e+01,-1.826874694824218750e+02,-2.342532396316528320e+00,7.562270355224609375e+01,3.135598182678222656e+01
5.468789935111999512e-01,1.000000000000000000e+00,-3.839407348632812500e+01,4.135477447509765625e+01,3.218735122680664062e+01,1.027808837890625000e+02,9.817595672607421875e+01,-3.778551101684570312e+00,4.030399620532989502e-01,-6.667308044433593750e+01,-1.826874694824218750e+02,-2.342603921890258789e+00,7.562255859375000000e+01,3.135598182678222656e+01
5.523800253868103027e-01,1.000000000000000000e+00,-3.843492126464843750e+01,4.127437210083007812e+01,3.220839691162109375e+01,1.027074050903320312e+02,9.819376373291015625e+01,-3.803236246109008789e+00,4.030399620532989502e-01,-6.667316436767578125e+01,-1.826874694824218750e+02,-2.342603921890258789e+00,7.562255859375000000e+01,3.135598182678222656e+01
5.548670291900634766e-01,1.000000000000000000e+00,-3.847597503662109375e+01,4.119390106201171875e+01,3.222976303100585938e+01,1.026336593627929688e+02,9.821225738525390625e+01,-3.828192949295043945e+00,4.030399620532989502e-01,-6.667316436767578125e+01,-1.826874694824218750e+02,-2.342603921890258789e+00,7.562255859375000000e+01,3.135598182678222656e+01
5.588340163230895996e-01,1.000000000000000000e+00,-3.851688003540039062e+01,4.111293029785156250e+01,3.225117492675781250e+01,1.025598678588867188e+02,9.823108673095703125e+01,-3.853013992309570312e+00,4.030399620532989502e-01,-6.667316436767578125e+01,-1.826874694824218750e+02,-2.342747688293457031e+00,7.562255859375000000e+01,3.135598182678222656e+01
5.647040009498596191e-01,1.000000000000000000e+00,-3.855813217163085938e+01,4.103198242187500000e+01,3.227254104614257812e+01,1.024854888916015625e+02,9.824909973144531250e+01,-3.878445386886596680e+00,4.030399620532989502e-01,-6.667316436767578125e+01,-1.826874694824218750e+02,-2.342460393905639648e+00,7.562270355224609375e+01,3.135598182678222656e+01
5.683209896087646484e-01,1.000000000000000000e+00,-3.859901046752929688e+01,4.095053482055664062e+01,3.229397201538085938e+01,1.024116363525390625e+02,9.826664733886718750e+01,-3.904011964797973633e+00,4.030399620532989502e-01,-6.667316436767578125e+01,-1.826873016357421875e+02,-2.342603921890258789e+00,7.562255859375000000e+01,3.135598182678222656e+01
5.724160075187683105e-01,1.000000000000000000e+00,-3.864009094238281250e+01,4.086888885498046875e+01,3.231523895263671875e+01,1.023377380371093750e+02,9.828386688232421875e+01,-3.928765296936035156e+00,4.030399620532989502e-01,-6.667326354980468750e+01,-1.826873016357421875e+02,-2.342603921890258789e+00,7.562277984619140625e+01,3.135598182678222656e+01
5.748289823532104492e-01,1.000000000000000000e+00,-3.868099594116210938e+01,4.078769302368164062e+01,3.233666992187500000e+01,1.022642059326171875e+02,9.830167388916015625e+01,-3.952772140502929688e+00,4.030399620532989502e-01,-6.667316436767578125e+01,-1.826874694824218750e+02,-2.342603921890258789e+00,7.562255859375000000e+01,3.135598182678222656e+01
5.805420279502868652e-01,1.000000000000000000e+00,-3.872233581542968750e+01,4.070687866210937500e+01,3.235807800292968750e+01,1.021899871826171875e+02,9.831953430175781250e+01,-3.977322101593017578e+00,4.030399620532989502e-01,-6.667316436767578125e+01,-1.826874694824218750e+02,-2.342532396316528320e+00,7.562255859375000000e+01,3.135598182678222656e+01
5.852010250091552734e-01,1.000000000000000000e+00,-3.876353073120117188e+01,4.062643432617187500e+01,3.237934494018554688e+01,1.021160888671875000e+02,9.833744812011718750e+01,-4.001736164093017578e+00,4.030399620532989502e-01,-6.667316436767578125e+01,-1.826874694824218750e+02,-2.342603921890258789e+00,7.562270355224609375e+01,3.135598182678222656e+01
5.868250131607055664e-01,1.000000000000000000e+00,-3.880478286743164062e+01,4.054573440551757812e+01,3.240055465698242188e+01,1.020417633056640625e+02,9.835616302490234375e+01,-4.026692867279052734e+00,4.030399620532989502e-01,-6.667316436767578125e+01,-1.826874694824218750e+02,-2.342532396316528320e+00,7.562255859375000000e+01,3.135598182678222656e+01
5.909069776535034180e-01,1.000000000000000000e+00,-3.884608840942382812e+01,4.046490097045898438e+01,3.242190170288085938e+01,1.019682312011718750e+02,9.837519836425781250e+01,-4.052192211151123047e+00,4.030399620532989502e-01,-6.667316436767578125e+01,-1.826874694824218750e+02,-2.342532396316528320e+00,7.562270355224609375e+01,3.135598182678222656e+01
5.948429703712463379e-01,1.000000000000000000e+00,-3.888748931884765625e+01,4.038379287719726562e+01,3.244332885742187500e+01,1.018936462402343750e+02,9.839358520507812500e+01,-4.078030109405517578e+00,4.030399620532989502e-01,-6.667316436767578125e+01,-1.826873016357421875e+02,-2.342603921890258789e+00,7.562255859375000000e+01,3.135598182678222656e+01
6.008549928665161133e-01,1.000000000000000000e+00,-3.892890930175781250e+01,4.030205535888671875e+01,3.246490478515625000e+01,1.018196945190429688e+02,9.841129302978515625e+01,-4.103596687316894531e+00,4.030399620532989502e-01,-6.667316436767578125e+01,-1.826874694824218750e+02,-2.342603921890258789e+00,7.562270355224609375e+01,3.135598182678222656e+01
6.047090291976928711e-01,1.000000000000000000e+00,-3.897042083740234375e+01,4.022006988525390625e+01,3.248643112182617188e+01,1.017451553344726562e+02,9.842861938476562500e+01,-4.128078937530517578e+00,4.030399620532989502e-01,-6.667316436767578125e+01,-1.826874694824218750e+02,-2.342603921890258789e+00,7.562255859375000000e+01,3.135598182678222656e+01
6.094589829444885254e-01,1.000000000000000000e+00,-3.901207351684570312e+01,4.013812255859375000e+01,3.250770187377929688e+01,1.016713638305664062e+02,9.844647979736328125e+01,-4.152086257934570312e+00,4.030399620532989502e-01,-6.667316436767578125e+01,-1.826874694824218750e+02,-2.342532396316528320e+00,7.562255859375000000e+01,3.135598182678222656e+01
6.128000020980834961e-01,1.000000000000000000e+00,-3.905372619628906250e+01,4.005649948120117188e+01,3.252904891967773438e+01,1.015963516235351562e+02,9.846440124511718750e+01,-4.177313804626464844e+00,4.030399620532989502e-01,-6.667316436767578125e+01,-1.826874694824218750e+02,-2.342603921890258789e+00,7.562255859375000000e+01,3.135598182678222656e+01
6.165990233421325684e-01,1.000000000000000000e+00,-3.909535598754882812e+01,3.997514343261718750e+01,3.255041885375976562e+01,1.015221328735351562e+02,9.848258209228515625e+01,-4.202610015869140625e+00,4.030399620532989502e-01,-6.667316436767578125e+01,-1.826874694824218750e+02,-2.342532396316528320e+00,7.562255859375000000e+01,3.135598182678222656e+01
6.222230195999145508e-01,1.000000000000000000e+00,-3.913709259033203125e+01,3.989424133300781250e+01,3.257190704345703125e+01,1.014474411010742188e+02,9.850129699707031250e+01,-4.227363109588623047e+00,4.030399620532989502e-01,-6.667316436767578125e+01,-1.826874694824218750e+02,-2.342747688293457031e+00,7.562270355224609375e+01,3.135598182678222656e+01
6.245980262756347656e-01,1.000000000000000000e+00,-3.917903518676757812e+01,3.981311035156250000e+01,3.259336090087890625e+01,1.013734359741210938e+02,9.852021789550781250e+01,-4.252997398376464844e+00,4.030399620532989502e-01,-6.667316436767578125e+01,-1.826874694824218750e+02,-2.342532396316528320e+00,7.562255859375000000e+01,3.135598182678222656e+01
6.307579874992370605e-01,1.000000000000000000e+00,-3.922111892700195312e+01,3.973167037963867188e+01,3.261491012573242188e+01,1.012988510131835938e+02,9.853871917724609375e+01,-4.278768062591552734e+00,4.030399620532989502e-01,-6.667316436767578125e+01,-1.826874694824218750e+02,-2.342747688293457031e+00,7.562255859375000000e+01,3.135598182678222656e+01
6.339259743690490723e-01,1.000000000000000000e+00,-3.930500030517578125e+01,3.956793975830078125e+01,3.265790939331054688e+01,1.011499404907226562e+02,9.857427978515625000e+01,-4.328341960906982422e+00,4.030399620532989502e-01,-6.667316436767578125e+01,-1.826874694824218750e+02,-2.342532396316528320e+00,7.562270355224609375e+01,3.135598182678222656e+01
6.369019746780395508e-01,1.000000000000000000e+00,-3.930500030517578125e+01,3.956793975830078125e+01,3.265790939331054688e+01,1.011499404907226562e+02,9.857427978515625000e+01,-4.328341960906982422e+00,4.030399620532989502e-01,-6.667316436767578125e+01,-1.826874694824218750e+02,-2.342532396316528320e+00,7.562270355224609375e+01,3.135598182678222656e+01
6.410610079765319824e-01,1.000000000000000000e+00,-3.934716796875000000e+01,3.948566055297851562e+01,3.267958831787109375e+01,1.010750885009765625e+02,9.859214019775390625e+01,-4.353366851806640625e+00,4.030399620532989502e-01,-6.667316436767578125e+01,-1.826874694824218750e+02,-2.342532396316528320e+00,7.562255859375000000e+01,3.135598182678222656e+01
6.428390145301818848e-01,1.000000000000000000e+00,-3.938922500610351562e+01,3.940321731567382812e+01,3.270111465454101562e+01,1.010003967285156250e+02,9.861006164550781250e+01,-4.378458499908447266e+00,4.030399620532989502e-01,-6.667316436767578125e+01,-1.826874694824218750e+02,-2.342532396316528320e+00,7.562255859375000000e+01,3.135598182678222656e+01
6.492319703102111816e-01,1.000000000000000000e+00,-3.943128204345703125e+01,3.932111740112304688e+01,3.272262573242187500e+01,1.009257049560546875e+02,9.862850952148437500e+01,-4.403957843780517578e+00,4.030399620532989502e-01,-6.667316436767578125e+01,-1.826874694824218750e+02,-2.342603921890258789e+00,7.562270355224609375e+01,3.135598182678222656e+01
6.508979797363281250e-01,1.000000000000000000e+00,-3.947319412231445312e+01,3.923937606811523438e+01,3.274415969848632812e+01,1.008510131835937500e+02,9.864737701416015625e+01,-4.429389476776123047e+00,4.030399620532989502e-01,-6.667316436767578125e+01,-1.826875762939453125e+02,-2.342603921890258789e+00,7.562270355224609375e+01,3.135598182678222656e+01
6.549040079116821289e-01,1.000000000000000000e+00,-3.951527786254882812e+01,3.915790939331054688e+01,3.276573181152343750e+01,1.007761154174804688e+02,9.866651916503906250e+01,-4.455702304840087891e+00,4.030399620532989502e-01,-6.667316436767578125e+01,-1.826874694824218750e+02,-2.342747688293457031e+00,7.562255859375000000e+01,3.135598182678222656e+01
6.609439849853515625e-01,1.000000000000000000e+00,-3.955736160278320312e+01,3.907616806030273438e+01,3.278750610351562500e+01,1.007011032104492188e+02,9.868511962890625000e+01,-4.481269359588623047e+00,4.030399620532989502e-01,-6.667316436767578125e+01,-1.826874694824218750e+02,-2.342532396316528320e+00,7.562255859375000000e+01,3.135598182678222656e+01
6.650850176811218262e-01,1.000000000000000000e+00,-3.959941482543945312e+01,3.899443054199218750e+01,3.280904006958007812e+01,1.006261520385742188e+02,9.870288085937500000e+01,-4.505954265594482422e+00,4.030399620532989502e-01,-6.667326354980468750e+01,-1.826875762939453125e+02,-2.342747688293457031e+00,7.562255859375000000e+01,3.135598182678222656e+01
6.669679880142211914e-01,1.000000000000000000e+00,-3.964144134521484375e+01,3.891248703002929688e+01,3.283056640625000000e+01,1.005510864257812500e+02,9.872047424316406250e+01,-4.530571937561035156e+00,4.030399620532989502e-01,-6.667316436767578125e+01,-1.826874694824218750e+02,-2.342603921890258789e+00,7.562255859375000000e+01,3.135598182678222656e+01
6.708899736404418945e-01,1.000000000000000000e+00,-3.968370056152343750e+01,3.883002090454101562e+01,3.285203933715820312e+01,1.004760284423828125e+02,9.873828125000000000e+01,-4.555935382843017578e+00,4.030399620532989502e-01,-6.667308044433593750e+01,-1.826874694824218750e+02,-2.342532396316528320e+00,7.562270355224609375e+01,3.135598182678222656e+01
6.759020090103149414e-01,1.000000000000000000e+00,-3.972578430175781250e+01,3.874715042114257812e+01,3.287369537353515625e+01,1.004012374877929688e+02,9.875619506835937500e+01,-4.581367015838623047e+00,4.030399620532989502e-01,-6.667316436767578125e+01,-1.826874694824218750e+02,-2.342603921890258789e+00,7.562255859375000000e+01,3.135576248168945312e+01
6.789010167121887207e-01,1.000000000000000000e+00,-3.976789474487304688e+01,3.866427993774414062e+01,3.289559173583984375e+01,1.003261718750000000e+02,9.877474975585937500e+01,-4.607137203216552734e+00,4.030399620532989502e-01,-6.667326354980468750e+01,-1.826874694824218750e+02,-2.342532396316528320e+00,7.562255859375000000e+01,3.135598182678222656e+01
6.858770251274108887e-01,1.000000000000000000e+00,-3.976789474487304688e+01,3.866427993774414062e+01,3.289559173583984375e+01,1.003261718750000000e+02,9.877474975585937500e+01,-4.607137203216552734e+00,4.030399620532989502e-01,-6.667316436767578125e+01,-1.826874694824218750e+02,-2.342532396316528320e+00,7.562255859375000000e+01,3.135598182678222656e+01
6.878849864006042480e-01,1.000000000000000000e+00,-3.985192108154296875e+01,3.849942398071289062e+01,3.293896102905273438e+01,1.001757812500000000e+02,9.881260681152343750e+01,-4.658813476562500000e+00,4.030399620532989502e-01,-6.667316436767578125e+01,-1.826873016357421875e+02,-2.342747688293457031e+00,7.562255859375000000e+01,3.135598182678222656e+01
6.909059882164001465e-01,1.000000000000000000e+00,-3.989400482177734375e+01,3.841741561889648438e+01,3.296069335937500000e+01,1.001009902954101562e+02,9.883126831054687500e+01,-4.683634281158447266e+00,4.030399620532989502e-01,-6.667316436767578125e+01,-1.826874694824218750e+02,-2.342532396316528320e+00,7.562255859375000000e+01,3.135598182678222656e+01
6.976330280303955078e-01,1.000000000000000000e+00,-3.989400482177734375e+01,3.841741561889648438e+01,3.296069335937500000e+01,1.001009902954101562e+02,9.883126831054687500e+01,-4.683634281158447266e+00,4.030399620532989502e-01,-6.667316436767578125e+01,-1.826874694824218750e+02,-2.342532396316528320e+00,7.562255859375000000e+01,3.135598182678222656e+01
7.000020146369934082e-01,1.000000000000000000e+00,-3.997817230224609375e+01,3.825348281860351562e+01,3.300406265258789062e+01,9.995018005371093750e+01,9.886682891845703125e+01,-4.733276367187500000e+00,4.030399620532989502e-01,-6.667316436767578125e+01,-1.826874694824218750e+02,-2.342532396316528320e+00,7.562255859375000000e+01,3.135598182678222656e+01
7.029259800910949707e-01,1.000000000000000000e+00,-4.002034378051757812e+01,3.817079162597656250e+01,3.302587890625000000e+01,9.987412261962890625e+01,9.888484954833984375e+01,-4.758979320526123047e+00,4.030399620532989502e-01,-6.667316436767578125e+01,-1.826874694824218750e+02,-2.342532396316528320e+00,7.562255859375000000e+01,3.135598182678222656e+01
7.078769803047180176e-01,1.000000000000000000e+00,-4.002034378051757812e+01,3.817079162597656250e+01,3.302587890625000000e+01,9.987412261962890625e+01,9.888484954833984375e+01,-4.758979320526123047e+00,4.030399620532989502e-01,-6.667316436767578125e+01,-1.826874694824218750e+02,-2.342532396316528320e+00,7.562255859375000000e+01,3.135598182678222656e+01
7.108470201492309570e-01,1.000000000000000000e+00,-4.010465621948242188e+01,3.800487136840820312e+01,3.306900024414062500e+01,9.972337341308593750e+01,9.892147064208984375e+01,-4.810451984405517578e+00,4.030399620532989502e-01,-6.667316436767578125e+01,-1.826874694824218750e+02,-2.342532396316528320e+00,7.562270355224609375e+01,3.135598182678222656e+01
7.158769965171813965e-01,1.000000000000000000e+00,-4.010465621948242188e+01,3.800487136840820312e+01,3.306900024414062500e+01,9.972337341308593750e+01,9.892147064208984375e+01,-4.810451984405517578e+00,4.030399620532989502e-01,-6.667316436767578125e+01,-1.826874694824218750e+02,-2.342532396316528320e+00,7.562270355224609375e+01,3.135598182678222656e+01
7.198280096054077148e-01,1.000000000000000000e+00,-4.018893814086914062e+01,3.783876419067382812e+01,3.311281585693359375e+01,9.957198333740234375e+01,9.896013641357421875e+01,-4.861586093902587891e+00,4.030399620532989502e-01,-6.667316436767578125e+01,-1.826875762939453125e+02,-2.342603921890258789e+00,7.562255859375000000e+01,3.135598182678222656e+01
7.239080071449279785e-01,1.000000000000000000e+00,-4.023108291625976562e+01,3.775603103637695312e+01,3.313473510742187500e+01,9.949687194824218750e+01,9.897868347167968750e+01,-4.886271476745605469e+00,4.030399620532989502e-01,-6.667316436767578125e+01,-1.826874694824218750e+02,-2.342603921890258789e+00,7.562270355224609375e+01,3.135598182678222656e+01
7.269170284271240234e-01,1.000000000000000000e+00,-4.027347946166992188e+01,3.767361450195312500e+01,3.315654754638671875e+01,9.942118072509765625e+01,9.899643707275390625e+01,-4.911499023437500000e+00,4.030399620532989502e-01,-6.667316436767578125e+01,-1.826874694824218750e+02,-2.342603921890258789e+00,7.562270355224609375e+01,3.135598182678222656e+01
7.319099903106689453e-01,1.000000000000000000e+00,-4.027347946166992188e+01,3.767361450195312500e+01,3.315654754638671875e+01,9.942118072509765625e+01,9.899643707275390625e+01,-4.911499023437500000e+00,4.030399620532989502e-01,-6.667316436767578125e+01,-1.826874694824218750e+02,-2.342603921890258789e+00,7.562270355224609375e+01,3.135598182678222656e+01
7.348799705505371094e-01,1.000000000000000000e+00,-4.035805130004882812e+01,3.750830078125000000e+01,3.319967269897460938e+01,9.926958465576171875e+01,9.903231811523437500e+01,-4.962633132934570312e+00,4.030399620532989502e-01,-6.667316436767578125e+01,-1.826874694824218750e+02,-2.342532396316528320e+00,7.562255859375000000e+01,3.135598182678222656e+01
7.398779988288879395e-01,1.000000000000000000e+00,-4.035805130004882812e+01,3.750830078125000000e+01,3.319967269897460938e+01,9.926958465576171875e+01,9.903231811523437500e+01,-4.962633132934570312e+00,4.030399620532989502e-01,-6.667316436767578125e+01,-1.826874694824218750e+02,-2.342532396316528320e+00,7.562255859375000000e+01,3.135598182678222656e+01
7.438250184059143066e-01,1.000000000000000000e+00,-4.044299697875976562e+01,3.734194946289062500e+01,3.324350738525390625e+01,9.911788177490234375e+01,9.906878662109375000e+01,-5.014919757843017578e+00,4.030399620532989502e-01,-6.667316436767578125e+01,-1.826874694824218750e+02,-2.342532396316528320e+00,7.562270355224609375e+01,3.135598182678222656e+01
7.468479871749877930e-01,1.000000000000000000e+00,-4.048539352416992188e+01,3.725821685791015625e+01,3.326544570922851562e+01,9.904161071777343750e+01,9.908803558349609375e+01,-5.040418624877929688e+00,4.030399620532989502e-01,-6.667316436767578125e+01,-1.826874694824218750e+02,-2.342603921890258789e+00,7.562270355224609375e+01,3.135598182678222656e+01
7.519289851188659668e-01,1.000000000000000000e+00,-4.048539352416992188e+01,3.725821685791015625e+01,3.326544570922851562e+01,9.904161071777343750e+01,9.908803558349609375e+01,-5.040418624877929688e+00,4.030399620532989502e-01,-6.667316436767578125e+01,-1.826874694824218750e+02,-2.342603921890258789e+00,7.562270355224609375e+01,3.135598182678222656e+01
7.559059858322143555e-01,1.000000000000000000e+00,-4.057039642333984375e+01,3.709086990356445312e+01,3.330918121337890625e+01,9.888980102539062500e+01,9.912594604492187500e+01,-5.090128421783447266e+00,4.030399620532989502e-01,-6.667316436767578125e+01,-1.826874694824218750e+02,-2.342532396316528320e+00,7.562255859375000000e+01,3.135598182678222656e+01
7.588670253753662109e-01,1.000000000000000000e+00,-4.061310958862304688e+01,3.700763702392578125e+01,3.333109664916992188e+01,9.881410980224609375e+01,9.914364624023437500e+01,-5.115560054779052734e+00,4.030399620532989502e-01,-6.667316436767578125e+01,-1.826873016357421875e+02,-2.342603921890258789e+00,7.562270355224609375e+01,3.135598182678222656e+01
7.639380097389221191e-01,1.000000000000000000e+00,-4.061310958862304688e+01,3.700763702392578125e+01,3.333109664916992188e+01,9.881410980224609375e+01,9.914364624023437500e+01,-5.115560054779052734e+00,4.030399620532989502e-01,-6.667316436767578125e+01,-1.826873016357421875e+02,-2.342603921890258789e+00,7.562270355224609375e+01,3.135598182678222656e+01
7.678880095481872559e-01,1.000000000000000000e+00,-4.069848632812500000e+01,3.684185028076171875e+01,3.337493515014648438e+01,9.866167449951171875e+01,9.917973327636718750e+01,-5.167033195495605469e+00,4.030399620532989502e-01,-6.667308044433593750e+01,-1.826874694824218750e+02,-2.342603921890258789e+00,7.562255859375000000e+01,3.135598182678222656e+01
7.708240151405334473e-01,1.000000000000000000e+00,-4.074119949340820312e+01,3.675888824462890625e+01,3.339668655395507812e+01,9.858535003662109375e+01,9.919824218750000000e+01,-5.193346023559570312e+00,4.030399620532989502e-01,-6.667316436767578125e+01,-1.826874694824218750e+02,-2.342532396316528320e+00,7.562255859375000000e+01,3.135598182678222656e+01
7.759199738502502441e-01,1.000000000000000000e+00,-4.074119949340820312e+01,3.675888824462890625e+01,3.339668655395507812e+01,9.858535003662109375e+01,9.919824218750000000e+01,-5.193346023559570312e+00,4.030399620532989502e-01,-6.667316436767578125e+01,-1.826874694824218750e+02,-2.342532396316528320e+00,7.562255859375000000e+01,3.135598182678222656e+01
7.798249721527099609e-01,1.000000000000000000e+00,-4.082666015625000000e+01,3.659178924560546875e+01,3.344066619873046875e+01,9.843316650390625000e+01,9.923619842529296875e+01,-5.244819164276123047e+00,4.030399620532989502e-01,-6.667316436767578125e+01,-1.826874694824218750e+02,-2.342603921890258789e+00,7.562270355224609375e+01,3.135598182678222656e+01
7.838519811630249023e-01,1.000000000000000000e+00,-4.086937713623046875e+01,3.650776290893554688e+01,3.346298980712890625e+01,9.835732269287109375e+01,9.925571441650390625e+01,-5.269504070281982422e+00,4.030399620532989502e-01,-6.667316436767578125e+01,-1.826874694824218750e+02,-2.342532396316528320e+00,7.562270355224609375e+01,3.135598182678222656e+01
7.868679761886596680e-01,1.000000000000000000e+00,-4.091232299804687500e+01,3.642342376708984375e+01,3.348515319824218750e+01,9.828036499023437500e+01,9.927421569824218750e+01,-5.295410156250000000e+00,4.030399620532989502e-01,-6.667316436767578125e+01,-1.826874694824218750e+02,-2.342747688293457031e+00,7.562270355224609375e+01,3.135598182678222656e+01
7.918890118598937988e-01,1.000000000000000000e+00,-4.091232299804687500e+01,3.642342376708984375e+01,3.348515319824218750e+01,9.828036499023437500e+01,9.927421569824218750e+01,-5.295410156250000000e+00,4.030399620532989502e-01,-6.667316436767578125e+01,-1.826874694824218750e+02,-2.342747688293457031e+00,7.562270355224609375e+01,3.135598182678222656e+01
7.980530261993408203e-01,1.000000000000000000e+00,-4.099783706665039062e+01,3.625616455078125000e+01,3.352886581420898438e+01,9.812750244140625000e+01,9.931025695800781250e+01,-5.347154617309570312e+00,4.030399620532989502e-01,-6.667316436767578125e+01,-1.826874694824218750e+02,-2.342603921890258789e+00,7.562270355224609375e+01,3.135598182678222656e+01
7.995430231094360352e-01,1.000000000000000000e+00,-4.104052734375000000e+01,3.617297744750976562e+01,3.355080413818359375e+01,9.805133819580078125e+01,9.932849121093750000e+01,-5.373603343963623047e+00,4.030399620532989502e-01,-6.667316436767578125e+01,-1.826873016357421875e+02,-2.342532396316528320e+00,7.562270355224609375e+01,3.135619926452636719e+01
8.038920164108276367e-01,1.000000000000000000e+00,-4.104052734375000000e+01,3.617297744750976562e+01,3.355080413818359375e+01,9.805133819580078125e+01,9.932849121093750000e+01,-5.373603343963623047e+00,4.030399620532989502e-01,-6.667316436767578125e+01,-1.826873016357421875e+02,-2.342532396316528320e+00,7.562270355224609375e+01,3.135619926452636719e+01
8.089119791984558105e-01,1.000000000000000000e+00,-4.108330154418945312e+01,3.608951950073242188e+01,3.357308959960937500e+01,9.797443389892578125e+01,9.934677886962890625e+01,-5.399847984313964844e+00,4.030399620532989502e-01,-6.667316436767578125e+01,-1.826874694824218750e+02,-2.342603921890258789e+00,7.562255859375000000e+01,3.135598182678222656e+01
8.116040229797363281e-01,1.000000000000000000e+00,-4.116904830932617188e+01,3.592239761352539062e+01,3.361729049682617188e+01,9.782146453857421875e+01,9.938490295410156250e+01,-5.450304031372070312e+00,4.030399620532989502e-01,-6.667316436767578125e+01,-1.826874694824218750e+02,-2.342532396316528320e+00,7.562270355224609375e+01,3.135598182678222656e+01
8.158969879150390625e-01,1.000000000000000000e+00,-4.116904830932617188e+01,3.592239761352539062e+01,3.361729049682617188e+01,9.782146453857421875e+01,9.938490295410156250e+01,-5.450304031372070312e+00,4.030399620532989502e-01,-6.667316436767578125e+01,-1.826874694824218750e+02,-2.342532396316528320e+00,7.562270355224609375e+01,3.135598182678222656e+01
8.208940029144287109e-01,1.000000000000000000e+00,-4.121190643310546875e+01,3.583810043334960938e+01,3.363932800292968750e+01,9.774520111083984375e+01,9.940435791015625000e+01,-5.476210117340087891e+00,4.030399620532989502e-01,-6.667316436767578125e+01,-1.826874694824218750e+02,-2.342603921890258789e+00,7.562270355224609375e+01,3.135598182678222656e+01
8.235570192337036133e-01,1.000000000000000000e+00,-4.129724884033203125e+01,3.566887283325195312e+01,3.368375396728515625e+01,9.759143829345703125e+01,9.944104003906250000e+01,-5.528564929962158203e+00,4.030399620532989502e-01,-6.667316436767578125e+01,-1.826874694824218750e+02,-2.342532396316528320e+00,7.562255859375000000e+01,3.135598182678222656e+01
8.278880119323730469e-01,1.000000000000000000e+00,-4.129724884033203125e+01,3.566887283325195312e+01,3.368375396728515625e+01,9.759143829345703125e+01,9.944104003906250000e+01,-5.528564929962158203e+00,4.030399620532989502e-01,-6.667316436767578125e+01,-1.826874694824218750e+02,-2.342532396316528320e+00,7.562255859375000000e+01,3.135598182678222656e+01
8.329600095748901367e-01,1.000000000000000000e+00,-4.133991241455078125e+01,3.558448791503906250e+01,3.370585250854492188e+01,9.751500701904296875e+01,9.945912170410156250e+01,-5.554945468902587891e+00,4.030399620532989502e-01,-6.667316436767578125e+01,-1.826875762939453125e+02,-2.342603921890258789e+00,7.562270355224609375e+01,3.135598182678222656e+01
8.358330130577087402e-01,1.000000000000000000e+00,-4.142548370361328125e+01,3.541699981689453125e+01,3.374988937377929688e+01,9.736136627197265625e+01,9.949617004394531250e+01,-5.607299804687500000e+00,4.030399620532989502e-01,-6.667316436767578125e+01,-1.826874694824218750e+02,-2.342747688293457031e+00,7.562270355224609375e+01,3.135598182678222656e+01
8.399569988250732422e-01,1.000000000000000000e+00,-4.142548370361328125e+01,3.541699981689453125e+01,3.374988937377929688e+01,9.736136627197265625e+01,9.949617004394531250e+01,-5.607299804687500000e+00,4.030399620532989502e-01,-6.667316436767578125e+01,-1.826874694824218750e+02,-2.342747688293457031e+00,7.562270355224609375e+01,3.135598182678222656e+01
8.438749909400939941e-01,1.000000000000000000e+00,-4.146817398071289062e+01,3.533317947387695312e+01,3.377203369140625000e+01,9.728403472900390625e+01,9.951525878906250000e+01,-5.632663249969482422e+00,4.030399620532989502e-01,-6.667316436767578125e+01,-1.826874694824218750e+02,-2.342532396316528320e+00,7.562255859375000000e+01,3.135598182678222656e+01
8.479530215263366699e-01,1.000000000000000000e+00,-4.151077270507812500e+01,3.524895095825195312e+01,3.379427719116210938e+01,9.720718383789062500e+01,9.953498077392578125e+01,-5.658433914184570312e+00,4.030399620532989502e-01,-6.667316436767578125e+01,-1.826874694824218750e+02,-2.342603921890258789e+00,7.562255859375000000e+01,3.135598182678222656e+01
8.518670201301574707e-01,1.000000000000000000e+00,-4.155357360839843750e+01,3.516447448730468750e+01,3.381649780273437500e+01,9.712996673583984375e+01,9.955433654785156250e+01,-5.684136390686035156e+00,4.030399620532989502e-01,-6.667316436767578125e+01,-1.826874694824218750e+02,-2.342532396316528320e+00,7.562255859375000000e+01,3.135598182678222656e+01
8.558679819107055664e-01,1.000000000000000000e+00,-4.159634780883789062e+01,3.507976913452148438e+01,3.383860015869140625e+01,9.705300903320312500e+01,9.957262420654296875e+01,-5.710788249969482422e+00,4.030399620532989502e-01,-6.667316436767578125e+01,-1.826874694824218750e+02,-2.342747688293457031e+00,7.562270355224609375e+01,3.135598182678222656e+01
8.599479794502258301e-01,1.000000000000000000e+00,-4.163920593261718750e+01,3.499477005004882812e+01,3.386063766479492188e+01,9.697589111328125000e+01,9.959075164794921875e+01,-5.737576484680175781e+00,4.030399620532989502e-01,-6.667316436767578125e+01,-1.826874694824218750e+02,-2.342532396316528320e+00,7.562270355224609375e+01,3.135598182678222656e+01
8.638949990272521973e-01,1.000000000000000000e+00,-4.168198013305664062e+01,3.490961456298828125e+01,3.388292312622070312e+01,9.689882659912109375e+01,9.960919952392578125e+01,-5.763957023620605469e+00,4.030399620532989502e-01,-6.667308044433593750e+01,-1.826874694824218750e+02,-2.342532396316528320e+00,7.562270355224609375e+01,3.135598182678222656e+01
8.678669929504394531e-01,1.000000000000000000e+00,-4.172486877441406250e+01,3.482484436035156250e+01,3.390524673461914062e+01,9.682160949707031250e+01,9.962748718261718750e+01,-5.789998531341552734e+00,4.030399620532989502e-01,-6.667308044433593750e+01,-1.826874694824218750e+02,-2.342603921890258789e+00,7.562270355224609375e+01,3.135598182678222656e+01
8.719580173492431641e-01,1.000000000000000000e+00,-4.176772689819335938e+01,3.474052429199218750e+01,3.392742919921875000e+01,9.674433898925781250e+01,9.964614868164062500e+01,-5.814955234527587891e+00,4.030399620532989502e-01,-6.667316436767578125e+01,-1.826873016357421875e+02,-2.342603921890258789e+00,7.562270355224609375e+01,3.135619926452636719e+01
8.758710026741027832e-01,1.000000000000000000e+00,-4.181095886230468750e+01,3.465602493286132812e+01,3.394981384277343750e+01,9.666706848144531250e+01,9.966539764404296875e+01,-5.840386390686035156e+00,4.030399620532989502e-01,-6.667316436767578125e+01,-1.826874694824218750e+02,-2.342747688293457031e+00,7.562255859375000000e+01,3.135598182678222656e+01
8.798859715461730957e-01,1.000000000000000000e+00,-4.185413742065429688e+01,3.457177352905273438e+01,3.397199630737304688e+01,9.658969116210937500e+01,9.968506622314453125e+01,-5.866766929626464844e+00,4.030399620532989502e-01,-6.667316436767578125e+01,-1.826874694824218750e+02,-2.342532396316528320e+00,7.562270355224609375e+01,3.135598182678222656e+01
8.839809894561767578e-01,1.000000000000000000e+00,-4.189739608764648438e+01,3.448731994628906250e+01,3.399430084228515625e+01,9.651230621337890625e+01,9.970426177978515625e+01,-5.892944335937500000e+00,4.030399620532989502e-01,-6.667316436767578125e+01,-1.826874694824218750e+02,-2.342747688293457031e+00,7.562255859375000000e+01,3.135598182678222656e+01
8.878759741783142090e-01,1.000000000000000000e+00,-4.194063186645507812e+01,3.440225219726562500e+01,3.401660156250000000e+01,9.643450927734375000e+01,9.972244262695312500e+01,-5.919596672058105469e+00,4.030399620532989502e-01,-6.667316436767578125e+01,-1.826874694824218750e+02,-2.342603921890258789e+00,7.562270355224609375e+01,3.135598182678222656e+01
8.918769955635070801e-01,1.000000000000000000e+00,-4.198397445678710938e+01,3.431695938110351562e+01,3.403884887695312500e+01,9.635702514648437500e+01,9.974078369140625000e+01,-5.946519851684570312e+00,4.030399620532989502e-01,-6.667316436767578125e+01,-1.826874694824218750e+02,-2.342747688293457031e+00,7.562255859375000000e+01,3.135598182678222656e+01
8.958669900894165039e-01,1.000000000000000000e+00,-4.202741241455078125e+01,3.423133087158203125e+01,3.406115341186523438e+01,9.627922821044921875e+01,9.975949859619140625e+01,-5.972222328186035156e+00,4.030399620532989502e-01,-6.667316436767578125e+01,-1.826874694824218750e+02,-2.342747688293457031e+00,7.562255859375000000e+01,3.135598182678222656e+01
8.998829722404479980e-01,1.000000000000000000e+00,-4.207093048095703125e+01,3.414572143554687500e+01,3.408351516723632812e+01,9.620163726806640625e+01,9.977810668945312500e+01,-5.997518062591552734e+00,4.030399620532989502e-01,-6.667326354980468750e+01,-1.826874694824218750e+02,-2.342532396316528320e+00,7.562270355224609375e+01,3.135598182678222656e+01
9.039000272750854492e-01,1.000000000000000000e+00,-4.211447906494140625e+01,3.406051635742187500e+01,3.410608673095703125e+01,9.612383270263671875e+01,9.979703521728515625e+01,-6.023627758026123047e+00,4.030399620532989502e-01,-6.667326354980468750e+01,-1.826875762939453125e+02,-2.342747688293457031e+00,7.562270355224609375e+01,3.135598182678222656e+01
9.079359769821166992e-01,1.000000000000000000e+00,-4.215822601318359375e+01,3.397590637207031250e+01,3.412867355346679688e+01,9.604645538330078125e+01,9.981670379638671875e+01,-6.050144195556640625e+00,4.030399620532989502e-01,-6.667316436767578125e+01,-1.826874694824218750e+02,-2.342460393905639648e+00,7.562255859375000000e+01,3.135598182678222656e+01
9.119089841842651367e-01,1.000000000000000000e+00,-4.220174407958984375e+01,3.389154434204101562e+01,3.415099716186523438e+01,9.596855163574218750e+01,9.983654022216796875e+01,-6.076457023620605469e+00,4.030399620532989502e-01,-6.667326354980468750e+01,-1.826874694824218750e+02,-2.342603921890258789e+00,7.562255859375000000e+01,3.135598182678222656e+01
9.158800244331359863e-01,1.000000000000000000e+00,-4.224552154541015625e+01,3.380690765380859375e+01,3.417317962646484375e+01,9.589065551757812500e+01,9.985541534423828125e+01,-6.103040695190429688e+00,4.030399620532989502e-01,-6.667326354980468750e+01,-1.826874694824218750e+02,-2.342747688293457031e+00,7.562270355224609375e+01,3.135598182678222656e+01
9.198989868164062500e-01,1.000000000000000000e+00,-4.228936004638671875e+01,3.372192764282226562e+01,3.419546508789062500e+01,9.581285095214843750e+01,9.987380981445312500e+01,-6.129625320434570312e+00,4.030399620532989502e-01,-6.667316436767578125e+01,-1.826874694824218750e+02,-2.342316627502441406e+00,7.562255859375000000e+01,3.135598182678222656e+01
9.239500164985656738e-01,1.000000000000000000e+00,-4.233336639404296875e+01,3.363668441772460938e+01,3.421791076660156250e+01,9.573500061035156250e+01,9.989209747314453125e+01,-6.156208992004394531e+00,4.030399620532989502e-01,-6.667316436767578125e+01,-1.826874694824218750e+02,-2.342747688293457031e+00,7.562255859375000000e+01,3.135598182678222656e+01
9.278830289840698242e-01,1.000000000000000000e+00,-4.237705993652343750e+01,3.355096054077148438e+01,3.424068069458007812e+01,9.565703582763671875e+01,9.991049194335937500e+01,-6.181572914123535156e+00,4.030399620532989502e-01,-6.667316436767578125e+01,-1.826873016357421875e+02,-2.342603921890258789e+00,7.562255859375000000e+01,3.135598182678222656e+01
9.320089817047119141e-01,1.000000000000000000e+00,-4.242089462280273438e+01,3.346498870849609375e+01,3.426314926147460938e+01,9.557839965820312500e+01,9.992920684814453125e+01,-6.207275390625000000e+00,4.030399620532989502e-01,-6.667316436767578125e+01,-1.826874694824218750e+02,-2.342532396316528320e+00,7.562255859375000000e+01,3.135598182678222656e+01
9.365289807319641113e-01,1.000000000000000000e+00,-4.246501922607421875e+01,3.337929153442382812e+01,3.428567504882812500e+01,9.550038909912109375e+01,9.994845581054687500e+01,-6.233249664306640625e+00,4.030399620532989502e-01,-6.667316436767578125e+01,-1.826873016357421875e+02,-2.342747688293457031e+00,7.562255859375000000e+01,3.135598182678222656e+01
9.398810267448425293e-01,1.000000000000000000e+00,-4.250893783569335938e+01,3.329395294189453125e+01,3.430808258056640625e+01,9.542216491699218750e+01,9.996817779541015625e+01,-6.259833335876464844e+00,4.030399620532989502e-01,-6.667316436767578125e+01,-1.826873016357421875e+02,-2.342603921890258789e+00,7.562277984619140625e+01,3.135576248168945312e+01
9.438740015029907227e-01,1.000000000000000000e+00,-4.255257034301757812e+01,3.320890808105468750e+01,3.433062744140625000e+01,9.534473419189453125e+01,9.998774719238281250e+01,-6.286892414093017578e+00,4.030399620532989502e-01,-6.667316436767578125e+01,-1.826873016357421875e+02,-2.342747688293457031e+00,7.562255859375000000e+01,3.135598182678222656e+01
9.479399919509887695e-01,1.000000000000000000e+00,-4.259669494628906250e+01,3.312377548217773438e+01,3.435330200195312500e+01,9.526603698730468750e+01,1.000064544677734375e+02,-6.314086914062500000e+00,4.030399620532989502e-01,-6.667316436767578125e+01,-1.826874694824218750e+02,-2.342532396316528320e+00,7.562255859375000000e+01,3.135598182678222656e+01
9.519280195236206055e-01,1.000000000000000000e+00,-4.264044570922851562e+01,3.303855133056640625e+01,3.437566375732421875e+01,9.518813323974609375e+01,1.000248565673828125e+02,-6.340671062469482422e+00,4.030399620532989502e-01,-6.667316436767578125e+01,-1.826874694824218750e+02,-2.342603921890258789e+00,7.562270355224609375e+01,3.135598182678222656e+01
9.561889767646789551e-01,1.000000000000000000e+00,-4.268416595458984375e+01,3.295301055908203125e+01,3.439794921875000000e+01,9.510959625244140625e+01,1.000434112548828125e+02,-6.366373538970947266e+00,4.030399620532989502e-01,-6.667316436767578125e+01,-1.826874694824218750e+02,-2.342747688293457031e+00,7.562270355224609375e+01,3.135598182678222656e+01
9.595140218734741211e-01,1.000000000000000000e+00,-4.272788619995117188e+01,3.286674499511718750e+01,3.442045593261718750e+01,9.503174591064453125e+01,1.000622787475585938e+02,-6.391805171966552734e+00,4.030399620532989502e-01,-6.667316436767578125e+01,-1.826874694824218750e+02,-2.342532396316528320e+00,7.562270355224609375e+01,3.135598182678222656e+01
9.635390043258666992e-01,1.000000000000000000e+00,-4.277200698852539062e+01,3.277998352050781250e+01,3.444318771362304688e+01,9.495294189453125000e+01,1.000812072753906250e+02,-6.418660640716552734e+00,4.030399620532989502e-01,-6.667316436767578125e+01,-1.826874694824218750e+02,-2.342747688293457031e+00,7.562255859375000000e+01,3.135598182678222656e+01
9.679009914398193359e-01,1.000000000000000000e+00,-4.281589889526367188e+01,3.269333267211914062e+01,3.446595764160156250e+01,9.487461853027343750e+01,1.001008300781250000e+02,-6.445516109466552734e+00,4.030399620532989502e-01,-6.667316436767578125e+01,-1.826874694824218750e+02,-2.342532396316528320e+00,7.562255859375000000e+01,3.135598182678222656e+01
9.720810055732727051e-01,1.000000000000000000e+00,-4.285967636108398438e+01,3.260692977905273438e+01,3.448862838745117188e+01,9.479618835449218750e+01,1.001208724975585938e+02,-6.472506999969482422e+00,4.030399620532989502e-01,-6.667316436767578125e+01,-1.826874694824218750e+02,-2.342603921890258789e+00,7.562270355224609375e+01,3.135598182678222656e+01
9.755579829216003418e-01,1.000000000000000000e+00,-4.290339660644531250e+01,3.252095794677734375e+01,3.451105499267578125e+01,9.471770477294921875e+01,1.001406021118164062e+02,-6.499362468719482422e+00,4.030399620532989502e-01,-6.667316436767578125e+01,-1.826874694824218750e+02,-2.342603921890258789e+00,7.562270355224609375e+01,3.135598182678222656e+01
9.803310036659240723e-01,1.000000000000000000e+00,-4.294729232788085938e+01,3.243541717529296875e+01,3.453343963623046875e+01,9.463864135742187500e+01,1.001592636108398438e+02,-6.525743484497070312e+00,4.030399620532989502e-01,-6.667316436767578125e+01,-1.826874694824218750e+02,-2.342460393905639648e+00,7.562270355224609375e+01,3.135598182678222656e+01
9.846439957618713379e-01,1.000000000000000000e+00,-4.299127197265625000e+01,3.234972000122070312e+01,3.455602645874023438e+01,9.455979156494140625e+01,1.001776046752929688e+02,-6.551920413970947266e+00,4.030399620532989502e-01,-6.667316436767578125e+01,-1.826874694824218750e+02,-2.342603921890258789e+00,7.562255859375000000e+01,3.135598182678222656e+01
9.879000186920166016e-01,1.000000000000000000e+00,-4.303499221801757812e+01,3.226374816894531250e+01,3.457867813110351562e+01,9.448182678222656250e+01,1.001962661743164062e+02,-6.578166007995605469e+00,4.030399620532989502e-01,-6.667316436767578125e+01,-1.826874694824218750e+02,-2.342532396316528320e+00,7.562255859375000000e+01,3.135598182678222656e+01
9.919350147247314453e-01,1.000000000000000000e+00,-4.307893753051757812e+01,3.217748260498046875e+01,3.460134506225585938e+01,9.440319061279296875e+01,1.002152938842773438e+02,-6.604546546936035156e+00,4.030399620532989502e-01,-6.667316436767578125e+01,-1.826874694824218750e+02,-2.342747688293457031e+00,7.562270355224609375e+01,3.135598182678222656e+01
9.959220290184020996e-01,1.000000000000000000e+00,-4.312280273437500000e+01,3.209085464477539062e+01,3.462407684326171875e+01,9.432433319091796875e+01,1.002345428466796875e+02,-6.631537914276123047e+00,4.030399620532989502e-01,-6.667326354980468750e+01,-1.826874694824218750e+02,-2.342532396316528320e+00,7.562255859375000000e+01,3.135598182678222656e+01
9.999300241470336914e-01,1.000000000000000000e+00,-4.316666793823242188e+01,3.200375366210937500e+01,3.464672851562500000e+01,9.424537658691406250e+01,1.002543258666992188e+02,-6.659139156341552734e+00,4.030399620532989502e-01,-6.667316436767578125e+01,-1.826874694824218750e+02,-2.342532396316528320e+00,7.562270355224609375e+01,3.135598182678222656e+01
1.004623055458068848e+00,1.000000000000000000e+00,-4.321059036254882812e+01,3.191676330566406250e+01,3.466960144042968750e+01,9.416651916503906250e+01,1.002742691040039062e+02,-6.686537265777587891e+00,4.030399620532989502e-01,-6.667316436767578125e+01,-1.826874694824218750e+02,-2.342747688293457031e+00,7.562255859375000000e+01,3.135598182678222656e+01
1.008730053901672363e+00,1.000000000000000000e+00,-4.325453948974609375e+01,3.183018112182617188e+01,3.469237136840820312e+01,9.408772277832031250e+01,1.002936706542968750e+02,-6.712917804718017578e+00,4.030399620532989502e-01,-6.667316436767578125e+01,-1.826874694824218750e+02,-2.342532396316528320e+00,7.562270355224609375e+01,3.135598182678222656e+01
1.011989951133728027e+00,1.000000000000000000e+00,-4.329857635498046875e+01,3.174414062500000000e+01,3.471506118774414062e+01,9.400871276855468750e+01,1.003124389648437500e+02,-6.739095211029052734e+00,4.028751850128173828e-01,-6.667316436767578125e+01,-1.826874694824218750e+02,-2.342603921890258789e+00,7.562255859375000000e+01,3.135598182678222656e+01
1.015984058380126953e+00,1.000000000000000000e+00,-4.334269714355468750e+01,3.165794372558593750e+01,3.473767471313476562e+01,9.392985534667968750e+01,1.003309478759765625e+02,-6.765204906463623047e+00,4.030399620532989502e-01,-6.667316436767578125e+01,-1.826874694824218750e+02,-2.342532396316528320e+00,7.562270355224609375e+01,3.135598182678222656e+01
1.019973993301391602e+00,1.000000000000000000e+00,-4.338685226440429688e+01,3.157185935974121094e+01,3.476036453247070312e+01,9.385037231445312500e+01,1.003498687744140625e+02,-6.791992187500000000e+00,4.030399620532989502e-01,-6.667316436767578125e+01,-1.826874694824218750e+02,-2.342603921890258789e+00,7.562270355224609375e+01,3.135598182678222656e+01
1.023949027061462402e+00,1.000000000000000000e+00,-4.343137359619140625e+01,3.148566246032714844e+01,3.478335571289062500e+01,9.377136230468750000e+01,1.003691635131835938e+02,-6.819051265716552734e+00,4.030399620532989502e-01,-6.667316436767578125e+01,-1.826874694824218750e+02,-2.342603921890258789e+00,7.562255859375000000e+01,3.135598182678222656e+01
1.028830051422119141e+00,1.000000000000000000e+00,-4.347569656372070312e+01,3.139878654479980469e+01,3.480633544921875000e+01,9.369182586669921875e+01,1.003887863159179688e+02,-6.846720218658447266e+00,4.030399620532989502e-01,-6.667316436767578125e+01,-1.826874694824218750e+02,-2.342460393905639648e+00,7.562270355224609375e+01,3.135598182678222656e+01
1.032873988151550293e+00,1.000000000000000000e+00,-4.352013397216796875e+01,3.131143569946289062e+01,3.482906341552734375e+01,9.361296844482421875e+01,1.004089965820312500e+02,-6.873982906341552734e+00,4.030399620532989502e-01,-6.667316436767578125e+01,-1.826874694824218750e+02,-2.342747688293457031e+00,7.562270355224609375e+01,3.135598182678222656e+01
1.036239027976989746e+00,1.000000000000000000e+00,-4.356448745727539062e+01,3.122415161132812500e+01,3.485181427001953125e+01,9.353358459472656250e+01,1.004289932250976562e+02,-6.900431156158447266e+00,4.030399620532989502e-01,-6.667316436767578125e+01,-1.826874694824218750e+02,-2.342532396316528320e+00,7.562270355224609375e+01,3.135598182678222656e+01
1.040120959281921387e+00,1.000000000000000000e+00,-4.360884094238281250e+01,3.113675689697265625e+01,3.487456893920898438e+01,9.345462799072265625e+01,1.004480743408203125e+02,-6.926609039306640625e+00,4.030399620532989502e-01,-6.667308044433593750e+01,-1.826875762939453125e+02,-2.342603921890258789e+00,7.562270355224609375e+01,3.135598182678222656e+01
1.043995022773742676e+00,1.000000000000000000e+00,-4.365333557128906250e+01,3.104987907409667969e+01,3.489762115478515625e+01,9.337472534179687500e+01,1.004666366577148438e+02,-6.952582359313964844e+00,4.030399620532989502e-01,-6.667316436767578125e+01,-1.826874694824218750e+02,-2.342747688293457031e+00,7.562255859375000000e+01,3.135598182678222656e+01
1.046831965446472168e+00,1.000000000000000000e+00,-4.369803237915039062e+01,3.096354675292968750e+01,3.492059707641601562e+01,9.329582214355468750e+01,1.004854507446289062e+02,-6.979573726654052734e+00,4.030399620532989502e-01,-6.667316436767578125e+01,-1.826874694824218750e+02,-2.342460393905639648e+00,7.562270355224609375e+01,3.135598182678222656e+01
1.053014039993286133e+00,1.000000000000000000e+00,-4.374272918701171875e+01,3.087712478637695312e+01,3.494351196289062500e+01,9.321628570556640625e+01,1.005043258666992188e+02,-7.006835937500000000e+00,4.030399620532989502e-01,-6.667316436767578125e+01,-1.826875762939453125e+02,-2.342747688293457031e+00,7.562270355224609375e+01,3.135576248168945312e+01
1.054813981056213379e+00,1.000000000000000000e+00,-4.378733825683593750e+01,3.079038429260253906e+01,3.496634292602539062e+01,9.313674926757812500e+01,1.005238342285156250e+02,-7.034505367279052734e+00,4.030399620532989502e-01,-6.667316436767578125e+01,-1.826874694824218750e+02,-2.342532396316528320e+00,7.562255859375000000e+01,3.135598182678222656e+01
1.060212969779968262e+00,1.000000000000000000e+00,-4.383189392089843750e+01,3.070337104797363281e+01,3.498911666870117188e+01,9.305705261230468750e+01,1.005437774658203125e+02,-7.061699867248535156e+00,4.030399620532989502e-01,-6.667326354980468750e+01,-1.826874694824218750e+02,-2.342460393905639648e+00,7.562255859375000000e+01,3.135598182678222656e+01
1.062873959541320801e+00,1.000000000000000000e+00,-4.387678909301757812e+01,3.061590576171875000e+01,3.501214981079101562e+01,9.297688293457031250e+01,1.005639877319335938e+02,-7.088148593902587891e+00,4.030399620532989502e-01,-6.667316436767578125e+01,-1.826874694824218750e+02,-2.342747688293457031e+00,7.562270355224609375e+01,3.135598182678222656e+01
1.066823005676269531e+00,1.000000000000000000e+00,-4.392157363891601562e+01,3.052787590026855469e+01,3.503518676757812500e+01,9.289744567871093750e+01,1.005834960937500000e+02,-7.114326000213623047e+00,4.030399620532989502e-01,-6.667316436767578125e+01,-1.826874694824218750e+02,-2.342460393905639648e+00,7.562255859375000000e+01,3.135598182678222656e+01
1.072327971458435059e+00,1.000000000000000000e+00,-4.396635437011718750e+01,3.043988990783691406e+01,3.505801773071289062e+01,9.281759643554687500e+01,1.006022109985351562e+02,-7.140841960906982422e+00,4.030399620532989502e-01,-6.667316436767578125e+01,-1.826874694824218750e+02,-2.342747688293457031e+00,7.562270355224609375e+01,3.135598182678222656e+01
1.074903964996337891e+00,1.000000000000000000e+00,-4.401107788085937500e+01,3.035217666625976562e+01,3.508099746704101562e+01,9.273795318603515625e+01,1.006210937500000000e+02,-7.167765140533447266e+00,4.030399620532989502e-01,-6.667316436767578125e+01,-1.826874694824218750e+02,-2.342532396316528320e+00,7.562255859375000000e+01,3.135576248168945312e+01
1.080451965332031250e+00,1.000000000000000000e+00,-4.405577468872070312e+01,3.026502990722656250e+01,3.510392761230468750e+01,9.265762329101562500e+01,1.006404418945312500e+02,-7.195366859436035156e+00,4.030399620532989502e-01,-6.667316436767578125e+01,-1.826874694824218750e+02,-2.342460393905639648e+00,7.562255859375000000e+01,3.135598182678222656e+01
1.082816004753112793e+00,1.000000000000000000e+00,-4.410035705566406250e+01,3.017790412902832031e+01,3.512690353393554688e+01,9.257839965820312500e+01,1.006598434448242188e+02,-7.222900390625000000e+00,4.030399620532989502e-01,-6.667316436767578125e+01,-1.826874694824218750e+02,-2.342747688293457031e+00,7.562270355224609375e+01,3.135598182678222656e+01
1.086923956871032715e+00,1.000000000000000000e+00,-4.414490890502929688e+01,3.009082221984863281e+01,3.515002059936523438e+01,9.249843597412109375e+01,1.006793594360351562e+02,-7.250027179718017578e+00,4.030399620532989502e-01,-6.667316436767578125e+01,-1.826874694824218750e+02,-2.342460393905639648e+00,7.562270355224609375e+01,3.135598182678222656e+01
1.090819954872131348e+00,1.000000000000000000e+00,-4.418972396850585938e+01,3.000370025634765625e+01,3.517293548583984375e+01,9.241800689697265625e+01,1.006997299194335938e+02,-7.276475429534912109e+00,4.030399620532989502e-01,-6.667316436767578125e+01,-1.826874694824218750e+02,-2.342747688293457031e+00,7.562270355224609375e+01,3.135598182678222656e+01
1.094825983047485352e+00,1.000000000000000000e+00,-4.423435974121093750e+01,2.991582679748535156e+01,3.519585037231445312e+01,9.233825683593750000e+01,1.007199401855468750e+02,-7.302517414093017578e+00,4.030399620532989502e-01,-6.667316436767578125e+01,-1.826874694824218750e+02,-2.342460393905639648e+00,7.562255859375000000e+01,3.135598182678222656e+01
1.101274967193603516e+00,1.000000000000000000e+00,-4.427905654907226562e+01,2.982729911804199219e+01,3.521886444091796875e+01,9.225814056396484375e+01,1.007395553588867188e+02,-7.329372882843017578e+00,4.030399620532989502e-01,-6.667308044433593750e+01,-1.826874694824218750e+02,-2.342747688293457031e+00,7.562270355224609375e+01,3.135598182678222656e+01
1.102830052375793457e+00,1.000000000000000000e+00,-4.432361221313476562e+01,2.973895072937011719e+01,3.524194335937500000e+01,9.217829132080078125e+01,1.007578964233398438e+02,-7.356499671936035156e+00,4.030399620532989502e-01,-6.667316436767578125e+01,-1.826874694824218750e+02,-2.342460393905639648e+00,7.562270355224609375e+01,3.135598182678222656e+01
1.108647942543029785e+00,1.000000000000000000e+00,-4.436833572387695312e+01,2.965053367614746094e+01,3.526516342163085938e+01,9.209706115722656250e+01,1.007769317626953125e+02,-7.383694171905517578e+00,4.030399620532989502e-01,-6.667316436767578125e+01,-1.826874694824218750e+02,-2.342532396316528320e+00,7.562255859375000000e+01,3.135598182678222656e+01
1.112864017486572266e+00,1.000000000000000000e+00,-4.441271591186523438e+01,2.956270790100097656e+01,3.528836059570312500e+01,9.201715850830078125e+01,1.007959136962890625e+02,-7.411567211151123047e+00,4.030399620532989502e-01,-6.667316436767578125e+01,-1.826874694824218750e+02,-2.342747688293457031e+00,7.562270355224609375e+01,3.135619926452636719e+01
1.116639018058776855e+00,1.000000000000000000e+00,-4.445744323730468750e+01,2.947540092468261719e+01,3.531141662597656250e+01,9.193688201904296875e+01,1.008155364990234375e+02,-7.438693523406982422e+00,4.030399620532989502e-01,-6.667316436767578125e+01,-1.826874694824218750e+02,-2.342460393905639648e+00,7.562270355224609375e+01,3.135598182678222656e+01
