rpiRobotics/ARM-21-02-F-19-Robot-Motion-Program/data_performance_abb/curve_2/dual_arm/diffevo_pose6_3/30L/grad_result/sim/dual_iteration_7.csv
timestamp,cmd_num,J1,J2,J3,J4,J5,J6,J1_2,J2_2,J3_2,J4_2,J5_2,J6_2
0.000000000000000000e+00,-1.000000000000000000e+00,3.559349060058593750e+01,1.290935325622558594e+01,3.526861953735351562e+01,-1.082146682739257812e+02,9.081444549560546875e+01,-6.397728347778320312e+01,5.345205688476562500e+01,-1.491408348083496094e+01,-1.048122711181640625e+02,-1.142945480346679688e+02,6.411334228515625000e+01,-3.546278381347656250e+01
2.000000094994902611e-03,-1.000000000000000000e+00,3.559349060058593750e+01,1.290935325622558594e+01,3.526861953735351562e+01,-1.082146682739257812e+02,9.081444549560546875e+01,-6.397728347778320312e+01,5.345205688476562500e+01,-1.491408348083496094e+01,-1.048122711181640625e+02,-1.142945480346679688e+02,6.411334228515625000e+01,-3.546278381347656250e+01
4.000000189989805222e-03,-1.000000000000000000e+00,3.559349060058593750e+01,1.290935325622558594e+01,3.526861953735351562e+01,-1.082146682739257812e+02,9.081444549560546875e+01,-6.397728347778320312e+01,5.345205688476562500e+01,-1.491408348083496094e+01,-1.048122711181640625e+02,-1.142945480346679688e+02,6.411334228515625000e+01,-3.546278381347656250e+01
9.999999776482582092e-03,-1.000000000000000000e+00,3.559349060058593750e+01,1.290935325622558594e+01,3.526861953735351562e+01,-1.082146682739257812e+02,9.081444549560546875e+01,-6.397728347778320312e+01,5.345205688476562500e+01,-1.491408348083496094e+01,-1.048122711181640625e+02,-1.142945480346679688e+02,6.411334228515625000e+01,-3.546278381347656250e+01
1.200000010430812836e-02,-1.000000000000000000e+00,3.559349060058593750e+01,1.290935325622558594e+01,3.526861953735351562e+01,-1.082146682739257812e+02,9.081444549560546875e+01,-6.397728347778320312e+01,5.345205688476562500e+01,-1.491408348083496094e+01,-1.048122711181640625e+02,-1.142945480346679688e+02,6.411334228515625000e+01,-3.546278381347656250e+01
1.600000075995922089e-02,-1.000000000000000000e+00,3.559349060058593750e+01,1.290935325622558594e+01,3.526861953735351562e+01,-1.082146682739257812e+02,9.081444549560546875e+01,-6.397728347778320312e+01,5.345205688476562500e+01,-1.491408348083496094e+01,-1.048122711181640625e+02,-1.142945480346679688e+02,6.411334228515625000e+01,-3.546278381347656250e+01
1.999999955296516418e-02,-1.000000000000000000e+00,3.559349060058593750e+01,1.290935325622558594e+01,3.526861953735351562e+01,-1.082146682739257812e+02,9.081444549560546875e+01,-6.397728347778320312e+01,5.345205688476562500e+01,-1.491408348083496094e+01,-1.048122711181640625e+02,-1.142945480346679688e+02,6.411334228515625000e+01,-3.546278381347656250e+01
2.400000020861625671e-02,-1.000000000000000000e+00,3.559349060058593750e+01,1.290935325622558594e+01,3.526861953735351562e+01,-1.082146682739257812e+02,9.081444549560546875e+01,-6.397728347778320312e+01,5.345205688476562500e+01,-1.491408348083496094e+01,-1.048122711181640625e+02,-1.142945480346679688e+02,6.411334228515625000e+01,-3.546278381347656250e+01
2.899999916553497314e-02,2.000000000000000000e+00,3.559349060058593750e+01,1.290935325622558594e+01,3.526861953735351562e+01,-1.082146682739257812e+02,9.081444549560546875e+01,-6.397728347778320312e+01,5.345205688476562500e+01,-1.491408348083496094e+01,-1.048122711181640625e+02,-1.142945480346679688e+02,6.411334228515625000e+01,-3.546278381347656250e+01
3.500000014901161194e-02,2.000000000000000000e+00,3.559349060058593750e+01,1.290935325622558594e+01,3.526861953735351562e+01,-1.082146682739257812e+02,9.081444549560546875e+01,-6.397728347778320312e+01,5.345205688476562500e+01,-1.491408348083496094e+01,-1.048122711181640625e+02,-1.142945480346679688e+02,6.411334228515625000e+01,-3.546278381347656250e+01
3.900000080466270447e-02,2.000000000000000000e+00,3.559349060058593750e+01,1.290935325622558594e+01,3.526861953735351562e+01,-1.082146682739257812e+02,9.081444549560546875e+01,-6.397728347778320312e+01,5.345205688476562500e+01,-1.491408348083496094e+01,-1.048122711181640625e+02,-1.142945480346679688e+02,6.411334228515625000e+01,-3.546278381347656250e+01
4.100000113248825073e-02,2.000000000000000000e+00,3.559349060058593750e+01,1.290935325622558594e+01,3.526861953735351562e+01,-1.082146682739257812e+02,9.081444549560546875e+01,-6.397728347778320312e+01,5.345205688476562500e+01,-1.491408348083496094e+01,-1.048122711181640625e+02,-1.142945480346679688e+02,6.411334228515625000e+01,-3.546278381347656250e+01
4.600000008940696716e-02,2.000000000000000000e+00,3.559349060058593750e+01,1.290935325622558594e+01,3.526861953735351562e+01,-1.082146682739257812e+02,9.081444549560546875e+01,-6.397728347778320312e+01,5.345205688476562500e+01,-1.491408348083496094e+01,-1.048122711181640625e+02,-1.142945480346679688e+02,6.411334228515625000e+01,-3.546278381347656250e+01
4.800000041723251343e-02,2.000000000000000000e+00,3.559349060058593750e+01,1.290935325622558594e+01,3.526861953735351562e+01,-1.082146682739257812e+02,9.081444549560546875e+01,-6.397728347778320312e+01,5.345205688476562500e+01,-1.491408348083496094e+01,-1.048122711181640625e+02,-1.142945480346679688e+02,6.411334228515625000e+01,-3.546278381347656250e+01
5.200000107288360596e-02,2.000000000000000000e+00,3.559349060058593750e+01,1.290935325622558594e+01,3.526861953735351562e+01,-1.082146682739257812e+02,9.081444549560546875e+01,-6.397728347778320312e+01,5.345205688476562500e+01,-1.491408348083496094e+01,-1.048122711181640625e+02,-1.142945480346679688e+02,6.411334228515625000e+01,-3.546278381347656250e+01
5.600000172853469849e-02,2.000000000000000000e+00,3.559349060058593750e+01,1.290935325622558594e+01,3.526861953735351562e+01,-1.082146682739257812e+02,9.081444549560546875e+01,-6.397728347778320312e+01,5.345205688476562500e+01,-1.491408348083496094e+01,-1.048122711181640625e+02,-1.142945480346679688e+02,6.411334228515625000e+01,-3.546278381347656250e+01
5.999999865889549255e-02,2.000000000000000000e+00,3.559349060058593750e+01,1.290935325622558594e+01,3.526861953735351562e+01,-1.082146682739257812e+02,9.081444549560546875e+01,-6.397728347778320312e+01,5.345205688476562500e+01,-1.491408348083496094e+01,-1.048122711181640625e+02,-1.142945480346679688e+02,6.411334228515625000e+01,-3.546278381347656250e+01
6.400000303983688354e-02,2.000000000000000000e+00,3.559349060058593750e+01,1.290935325622558594e+01,3.526861953735351562e+01,-1.082146682739257812e+02,9.081444549560546875e+01,-6.397728347778320312e+01,5.345205688476562500e+01,-1.491408348083496094e+01,-1.048122711181640625e+02,-1.142945480346679688e+02,6.411334228515625000e+01,-3.546278381347656250e+01
6.800000369548797607e-02,2.000000000000000000e+00,3.559349060058593750e+01,1.290935325622558594e+01,3.526861953735351562e+01,-1.082146682739257812e+02,9.081444549560546875e+01,-6.397728347778320312e+01,5.345205688476562500e+01,-1.491408348083496094e+01,-1.048122711181640625e+02,-1.142945480346679688e+02,6.411334228515625000e+01,-3.546278381347656250e+01
7.199999690055847168e-02,2.000000000000000000e+00,3.559352493286132812e+01,1.290932941436767578e+01,3.526861953735351562e+01,-1.082146682739257812e+02,9.081444549560546875e+01,-6.397728347778320312e+01,5.345205688476562500e+01,-1.491408348083496094e+01,-1.048122711181640625e+02,-1.142945480346679688e+02,6.411334228515625000e+01,-3.546278381347656250e+01
7.599999755620956421e-02,2.000000000000000000e+00,3.559370803833007812e+01,1.290918254852294922e+01,3.526862335205078125e+01,-1.082146759033203125e+02,9.081444549560546875e+01,-6.397729110717773438e+01,5.345205688476562500e+01,-1.491408348083496094e+01,-1.048122711181640625e+02,-1.142945480346679688e+02,6.411334228515625000e+01,-3.546278381347656250e+01
7.999999821186065674e-02,2.000000000000000000e+00,3.559424591064453125e+01,1.290872955322265625e+01,3.526863479614257812e+01,-1.082147140502929688e+02,9.081446075439453125e+01,-6.397729492187500000e+01,5.345205688476562500e+01,-1.491408348083496094e+01,-1.048122711181640625e+02,-1.142945480346679688e+02,6.411334228515625000e+01,-3.546278381347656250e+01
8.399999886751174927e-02,2.000000000000000000e+00,3.559532546997070312e+01,1.290776157379150391e+01,3.526865768432617188e+01,-1.082148132324218750e+02,9.081450653076171875e+01,-6.397732925415039062e+01,5.345202255249023438e+01,-1.491408729553222656e+01,-1.048122634887695312e+02,-1.142945480346679688e+02,6.411334228515625000e+01,-3.546278381347656250e+01
8.799999952316284180e-02,2.000000000000000000e+00,3.559703063964843750e+01,1.290611267089843750e+01,3.526868438720703125e+01,-1.082150497436523438e+02,9.081457519531250000e+01,-6.397742080688476562e+01,5.345181274414062500e+01,-1.491410064697265625e+01,-1.048122329711914062e+02,-1.142945632934570312e+02,6.411333465576171875e+01,-3.546279144287109375e+01
9.200000017881393433e-02,2.000000000000000000e+00,3.559938049316406250e+01,1.290365791320800781e+01,3.526871490478515625e+01,-1.082155380249023438e+02,9.081467437744140625e+01,-6.397761154174804688e+01,5.345111083984375000e+01,-1.491414546966552734e+01,-1.048121109008789062e+02,-1.142946243286132812e+02,6.411331939697265625e+01,-3.546281433105468750e+01
9.600000083446502686e-02,2.000000000000000000e+00,3.560239791870117188e+01,1.290026283264160156e+01,3.526872634887695312e+01,-1.082164154052734375e+02,9.081481933593750000e+01,-6.397797393798828125e+01,5.344953155517578125e+01,-1.491423225402832031e+01,-1.048118591308593750e+02,-1.142947921752929688e+02,6.411328887939453125e+01,-3.546289443969726562e+01
1.000000014901161194e-01,2.000000000000000000e+00,3.560610961914062500e+01,1.289576530456542969e+01,3.526869964599609375e+01,-1.082178878784179688e+02,9.081501007080078125e+01,-6.397859954833984375e+01,5.344669342041015625e+01,-1.491435718536376953e+01,-1.048114776611328125e+02,-1.142952346801757812e+02,6.411322784423828125e+01,-3.546311187744140625e+01
1.040000021457672119e-01,2.000000000000000000e+00,3.561053466796875000e+01,1.288996982574462891e+01,3.526861953735351562e+01,-1.082201995849609375e+02,9.081526947021484375e+01,-6.397959899902343750e+01,5.344224166870117188e+01,-1.491448879241943359e+01,-1.048110046386718750e+02,-1.142961349487304688e+02,6.411311340332031250e+01,-3.546357727050781250e+01
1.080000028014183044e-01,2.000000000000000000e+00,3.561575698852539062e+01,1.288264274597167969e+01,3.526845169067382812e+01,-1.082236099243164062e+02,9.081560516357421875e+01,-6.398109436035156250e+01,5.343580627441406250e+01,-1.491457748413085938e+01,-1.048105239868164062e+02,-1.142978057861328125e+02,6.411293029785156250e+01,-3.546446609497070312e+01
1.120000034570693970e-01,2.000000000000000000e+00,3.562194824218750000e+01,1.287351036071777344e+01,3.526816558837890625e+01,-1.082284622192382812e+02,9.081603240966796875e+01,-6.398323822021484375e+01,5.342702484130859375e+01,-1.491454601287841797e+01,-1.048101730346679688e+02,-1.143006286621093750e+02,6.411264038085937500e+01,-3.546598815917968750e+01
1.159999966621398926e-01,2.000000000000000000e+00,3.562933349609375000e+01,1.286225509643554688e+01,3.526773071289062500e+01,-1.082351150512695312e+02,9.081658172607421875e+01,-6.398619079589843750e+01,5.341559219360351562e+01,-1.491430091857910156e+01,-1.048101501464843750e+02,-1.143050384521484375e+02,6.411222839355468750e+01,-3.546838760375976562e+01
1.199999973177909851e-01,2.000000000000000000e+00,3.563808059692382812e+01,1.284862613677978516e+01,3.526710510253906250e+01,-1.082439651489257812e+02,9.081725311279296875e+01,-6.399013900756835938e+01,5.340118408203125000e+01,-1.491373157501220703e+01,-1.048106231689453125e+02,-1.143115158081054688e+02,6.411164093017578125e+01,-3.547193908691406250e+01
1.239999979734420776e-01,2.000000000000000000e+00,3.564816284179687500e+01,1.283263015747070312e+01,3.526623153686523438e+01,-1.082554321289062500e+02,9.081805419921875000e+01,-6.399528121948242188e+01,5.338332748413085938e+01,-1.491273975372314453e+01,-1.048118057250976562e+02,-1.143205718994140625e+02,6.411085510253906250e+01,-3.547692871093750000e+01
1.280000060796737671e-01,2.000000000000000000e+00,3.565937805175781250e+01,1.281456375122070312e+01,3.526504898071289062e+01,-1.082699356079101562e+02,9.081899261474609375e+01,-6.400180816650390625e+01,5.336143112182617188e+01,-1.491123580932617188e+01,-1.048138351440429688e+02,-1.143327026367187500e+02,6.410983276367187500e+01,-3.548363876342773438e+01
1.309999972581863403e-01,2.000000000000000000e+00,3.567148971557617188e+01,1.279476261138916016e+01,3.526350021362304688e+01,-1.082878341674804688e+02,9.082005310058593750e+01,-6.400991058349609375e+01,5.333491516113281250e+01,-1.490912628173828125e+01,-1.048168716430664062e+02,-1.143484115600585938e+02,6.410853576660156250e+01,-3.549234771728515625e+01
1.360000073909759521e-01,2.000000000000000000e+00,3.568441009521484375e+01,1.277335643768310547e+01,3.526154708862304688e+01,-1.083094253540039062e+02,9.082124328613281250e+01,-6.401971435546875000e+01,5.330357360839843750e+01,-1.490630722045898438e+01,-1.048211212158203125e+02,-1.143681564331054688e+02,6.410691070556640625e+01,-3.550331878662109375e+01
1.389999985694885254e-01,2.000000000000000000e+00,3.569817352294921875e+01,1.275029373168945312e+01,3.525916671752929688e+01,-1.083348846435546875e+02,9.082256317138671875e+01,-6.403130340576171875e+01,5.326761627197265625e+01,-1.490264511108398438e+01,-1.048268737792968750e+02,-1.143923416137695312e+02,6.410497283935546875e+01,-3.551678085327148438e+01
1.439999938011169434e-01,2.000000000000000000e+00,3.571286010742187500e+01,1.272547340393066406e+01,3.525634765625000000e+01,-1.083642807006835938e+02,9.082402038574218750e+01,-6.404471588134765625e+01,5.322749710083007812e+01,-1.489802742004394531e+01,-1.048343658447265625e+02,-1.144212265014648438e+02,6.410268402099609375e+01,-3.553289413452148438e+01
1.480000019073486328e-01,2.000000000000000000e+00,3.572857284545898438e+01,1.269873905181884766e+01,3.525310897827148438e+01,-1.083975448608398438e+02,9.082560729980468750e+01,-6.405990600585937500e+01,5.318361663818359375e+01,-1.489240264892578125e+01,-1.048437423706054688e+02,-1.144548950195312500e+02,6.410005950927734375e+01,-3.555170440673828125e+01
1.519999951124191284e-01,2.000000000000000000e+00,3.574544525146484375e+01,1.266988754272460938e+01,3.524948120117187500e+01,-1.084345397949218750e+02,9.082735443115234375e+01,-6.407682037353515625e+01,5.313632583618164062e+01,-1.488577938079833984e+01,-1.048549804687500000e+02,-1.144932022094726562e+02,6.409710693359375000e+01,-3.557313537597656250e+01
1.560000032186508179e-01,2.000000000000000000e+00,3.576355743408203125e+01,1.263879299163818359e+01,3.524549102783203125e+01,-1.084749984741210938e+02,9.082923889160156250e+01,-6.409531402587890625e+01,5.308596801757812500e+01,-1.487823677062988281e+01,-1.048679733276367188e+02,-1.145357589721679688e+02,6.409384918212890625e+01,-3.559697341918945312e+01
1.599999964237213135e-01,2.000000000000000000e+00,3.578284454345703125e+01,1.260553646087646484e+01,3.524118041992187500e+01,-1.085186233520507812e+02,9.083126068115234375e+01,-6.411526489257812500e+01,5.303262710571289062e+01,-1.486993122100830078e+01,-1.048823928833007812e+02,-1.145820007324218750e+02,6.409032440185546875e+01,-3.562288284301757812e+01
1.640000045299530029e-01,2.000000000000000000e+00,3.580309295654296875e+01,1.257038497924804688e+01,3.523658370971679688e+01,-1.085650482177734375e+02,9.083340454101562500e+01,-6.413650512695312500e+01,5.297596740722656250e+01,-1.486109542846679688e+01,-1.048977584838867188e+02,-1.146311874389648438e+02,6.408657073974609375e+01,-3.565044784545898438e+01
1.679999977350234985e-01,2.000000000000000000e+00,3.582406997680664062e+01,1.253361320495605469e+01,3.523174285888671875e+01,-1.086138687133789062e+02,9.083563995361328125e+01,-6.415883636474609375e+01,5.291562271118164062e+01,-1.485196781158447266e+01,-1.049135589599609375e+02,-1.146825790405273438e+02,6.408264923095703125e+01,-3.567923355102539062e+01
1.720000058412551880e-01,2.000000000000000000e+00,3.584568786621093750e+01,1.249531078338623047e+01,3.522670364379882812e+01,-1.086646652221679688e+02,9.083798217773437500e+01,-6.418207550048828125e+01,5.285165786743164062e+01,-1.484274196624755859e+01,-1.049294128417968750e+02,-1.147354888916015625e+02,6.407856750488281250e+01,-3.570883941650390625e+01
1.759999990463256836e-01,2.000000000000000000e+00,3.586809539794921875e+01,1.245536613464355469e+01,3.522152709960937500e+01,-1.087170028686523438e+02,9.084040832519531250e+01,-6.420600891113281250e+01,5.278457641601562500e+01,-1.483353042602539062e+01,-1.049450988769531250e+02,-1.147893066406250000e+02,6.407440185546875000e+01,-3.573894500732421875e+01
1.800000071525573730e-01,2.000000000000000000e+00,3.589154052734375000e+01,1.241365242004394531e+01,3.521627044677734375e+01,-1.087704696655273438e+02,9.084291839599609375e+01,-6.423044586181640625e+01,5.271498489379882812e+01,-1.482439613342285156e+01,-1.049605255126953125e+02,-1.148436355590820312e+02,6.407016754150390625e+01,-3.576930999755859375e+01
1.840000003576278687e-01,2.000000000000000000e+00,3.591613006591796875e+01,1.237020301818847656e+01,3.521097946166992188e+01,-1.088247070312500000e+02,9.084550476074218750e+01,-6.425521850585937500e+01,5.264353561401367188e+01,-1.481535530090332031e+01,-1.049756546020507812e+02,-1.148981933593750000e+02,6.406589508056640625e+01,-3.579978942871093750e+01
1.879999935626983643e-01,2.000000000000000000e+00,3.594186019897460938e+01,1.232519626617431641e+01,3.520567703247070312e+01,-1.088794250488281250e+02,9.084815979003906250e+01,-6.428019714355468750e+01,5.257096099853515625e+01,-1.480638885498046875e+01,-1.049905929565429688e+02,-1.149528503417968750e+02,6.406161499023437500e+01,-3.583030700683593750e+01
1.920000016689300537e-01,2.000000000000000000e+00,3.596866989135742188e+01,1.227886867523193359e+01,3.520038604736328125e+01,-1.089344177246093750e+02,9.085087585449218750e+01,-6.430527496337890625e+01,5.249789810180664062e+01,-1.479745769500732422e+01,-1.050054397583007812e+02,-1.150075225830078125e+02,6.405731964111328125e+01,-3.586082839965820312e+01
1.959999948740005493e-01,2.000000000000000000e+00,3.599641418457031250e+01,1.223153781890869141e+01,3.519511413574218750e+01,-1.089895248413085938e+02,9.085363006591796875e+01,-6.433040618896484375e+01,5.242472076416015625e+01,-1.478853988647460938e+01,-1.050202484130859375e+02,-1.150621871948242188e+02,6.405302429199218750e+01,-3.589134979248046875e+01
2.000000029802322388e-01,2.000000000000000000e+00,3.602479171752929688e+01,1.218360614776611328e+01,3.518985748291015625e+01,-1.090446853637695312e+02,9.085640716552734375e+01,-6.435554504394531250e+01,5.235154342651367188e+01,-1.477962112426757812e+01,-1.050350570678710938e+02,-1.151168594360351562e+02,6.404872894287109375e+01,-3.592186737060546875e+01
2.039999961853027344e-01,2.000000000000000000e+00,3.605345153808593750e+01,1.213543224334716797e+01,3.518460845947265625e+01,-1.090998458862304688e+02,9.085918426513671875e+01,-6.438068389892578125e+01,5.227837371826171875e+01,-1.477070426940917969e+01,-1.050498580932617188e+02,-1.151715087890625000e+02,6.404443359375000000e+01,-3.595238494873046875e+01
2.080000042915344238e-01,2.000000000000000000e+00,3.608217239379882812e+01,1.208720874786376953e+01,3.517936325073242188e+01,-1.091550140380859375e+02,9.086197662353515625e+01,-6.440583038330078125e+01,5.220521163940429688e+01,-1.476178932189941406e+01,-1.050646591186523438e+02,-1.152261657714843750e+02,6.404013824462890625e+01,-3.598289489746093750e+01
2.119999974966049194e-01,2.000000000000000000e+00,3.611089324951171875e+01,1.203898715972900391e+01,3.517411804199218750e+01,-1.092101745605468750e+02,9.086476135253906250e+01,-6.443096160888671875e+01,5.213205718994140625e+01,-1.475287437438964844e+01,-1.050794601440429688e+02,-1.152808227539062500e+02,6.403583526611328125e+01,-3.601340103149414062e+01
2.160000056028366089e-01,2.000000000000000000e+00,3.613961029052734375e+01,1.199077224731445312e+01,3.516887283325195312e+01,-1.092653274536132812e+02,9.086754608154296875e+01,-6.445610046386718750e+01,5.205891418457031250e+01,-1.474396038055419922e+01,-1.050942611694335938e+02,-1.153354492187500000e+02,6.403154754638671875e+01,-3.604390716552734375e+01
2.199999988079071045e-01,2.000000000000000000e+00,3.616832733154296875e+01,1.194256114959716797e+01,3.516362762451171875e+01,-1.093204803466796875e+02,9.087033081054687500e+01,-6.448123168945312500e+01,5.198577499389648438e+01,-1.473504924774169922e+01,-1.051090621948242188e+02,-1.153900909423828125e+02,6.402725219726562500e+01,-3.607440567016601562e+01
2.240000069141387939e-01,2.000000000000000000e+00,3.619704055786132812e+01,1.189435577392578125e+01,3.515838241577148438e+01,-1.093756179809570312e+02,9.087312316894531250e+01,-6.450635528564453125e+01,5.191264724731445312e+01,-1.472613716125488281e+01,-1.051238632202148438e+02,-1.154447174072265625e+02,6.402296447753906250e+01,-3.610490417480468750e+01
2.280000001192092896e-01,2.000000000000000000e+00,3.622574996948242188e+01,1.184615612030029297e+01,3.515314102172851562e+01,-1.094307479858398438e+02,9.087590789794921875e+01,-6.453148651123046875e+01,5.183952713012695312e+01,-1.471722602844238281e+01,-1.051386566162109375e+02,-1.154993362426757812e+02,6.401866912841796875e+01,-3.613539886474609375e+01
2.319999933242797852e-01,2.000000000000000000e+00,3.625445556640625000e+01,1.179796123504638672e+01,3.514789962768554688e+01,-1.094858856201171875e+02,9.087868499755859375e+01,-6.455660247802734375e+01,5.176641464233398438e+01,-1.470831775665283203e+01,-1.051534576416015625e+02,-1.155539627075195312e+02,6.401438140869140625e+01,-3.616588973999023438e+01
2.360000014305114746e-01,2.000000000000000000e+00,3.628316116333007812e+01,1.174977111816406250e+01,3.514265060424804688e+01,-1.095410079956054688e+02,9.088147735595703125e+01,-6.458172607421875000e+01,5.169330978393554688e+01,-1.469940948486328125e+01,-1.051682510375976562e+02,-1.156085586547851562e+02,6.401008605957031250e+01,-3.619637680053710938e+01
2.399999946355819702e-01,2.000000000000000000e+00,3.631185913085937500e+01,1.170158672332763672e+01,3.513740921020507812e+01,-1.095961227416992188e+02,9.088426208496093750e+01,-6.460684967041015625e+01,5.162021255493164062e+01,-1.469050121307373047e+01,-1.051830368041992188e+02,-1.156631774902343750e+02,6.400579071044921875e+01,-3.622686004638671875e+01
2.440000027418136597e-01,2.000000000000000000e+00,3.634055709838867188e+01,1.165340805053710938e+01,3.513217163085937500e+01,-1.096512374877929688e+02,9.088703918457031250e+01,-6.463196563720703125e+01,5.154712295532226562e+01,-1.468159389495849609e+01,-1.051978302001953125e+02,-1.157177658081054688e+02,6.400150299072265625e+01,-3.625734329223632812e+01
2.479999959468841553e-01,2.000000000000000000e+00,3.636925506591796875e+01,1.160523414611816406e+01,3.512693023681640625e+01,-1.097063369750976562e+02,9.088982391357421875e+01,-6.465708160400390625e+01,5.147404098510742188e+01,-1.467268753051757812e+01,-1.052126159667968750e+02,-1.157723617553710938e+02,6.399721527099609375e+01,-3.628781890869140625e+01
2.520000040531158447e-01,2.000000000000000000e+00,3.639794540405273438e+01,1.155706501007080078e+01,3.512168502807617188e+01,-1.097614440917968750e+02,9.089260864257812500e+01,-6.468218231201171875e+01,5.140096664428710938e+01,-1.466378307342529297e+01,-1.052274017333984375e+02,-1.158269500732421875e+02,6.399292373657226562e+01,-3.631829071044921875e+01
2.560000121593475342e-01,2.000000000000000000e+00,3.642663574218750000e+01,1.150890159606933594e+01,3.511644744873046875e+01,-1.098165359497070312e+02,9.089539337158203125e+01,-6.470729064941406250e+01,5.132790374755859375e+01,-1.465487957000732422e+01,-1.052421875000000000e+02,-1.158815231323242188e+02,6.398863601684570312e+01,-3.634876632690429688e+01
2.599999904632568359e-01,2.000000000000000000e+00,3.645531845092773438e+01,1.146074199676513672e+01,3.511120986938476562e+01,-1.098716201782226562e+02,9.089817047119140625e+01,-6.473239135742187500e+01,5.125484466552734375e+01,-1.464597606658935547e+01,-1.052569732666015625e+02,-1.159360961914062500e+02,6.398434448242187500e+01,-3.637923049926757812e+01
2.639999985694885254e-01,2.000000000000000000e+00,3.648400115966796875e+01,1.141258811950683594e+01,3.510597229003906250e+01,-1.099267044067382812e+02,9.090095520019531250e+01,-6.475749969482421875e+01,5.118179321289062500e+01,-1.463707542419433594e+01,-1.052717514038085938e+02,-1.159906692504882812e+02,6.398005676269531250e+01,-3.640969848632812500e+01
2.680000066757202148e-01,2.000000000000000000e+00,3.651268386840820312e+01,1.136443901062011719e+01,3.510073089599609375e+01,-1.099817733764648438e+02,9.090373992919921875e+01,-6.478259277343750000e+01,5.110875320434570312e+01,-1.462817382812500000e+01,-1.052865371704101562e+02,-1.160452423095703125e+02,6.397576522827148438e+01,-3.644015884399414062e+01
2.720000147819519043e-01,2.000000000000000000e+00,3.654135513305664062e+01,1.131629562377929688e+01,3.509549331665039062e+01,-1.100368499755859375e+02,9.090651702880859375e+01,-6.480770111083984375e+01,5.103571319580078125e+01,-1.461927413940429688e+01,-1.053013153076171875e+02,-1.160998001098632812e+02,6.397148513793945312e+01,-3.647061920166015625e+01
2.759999930858612061e-01,2.000000000000000000e+00,3.657003021240234375e+01,1.126815700531005859e+01,3.509025955200195312e+01,-1.100919113159179688e+02,9.090930175781250000e+01,-6.483279418945312500e+01,5.096268463134765625e+01,-1.461037445068359375e+01,-1.053160858154296875e+02,-1.161543502807617188e+02,6.396719360351562500e+01,-3.650107192993164062e+01
2.800000011920928955e-01,2.000000000000000000e+00,3.659870147705078125e+01,1.122002315521240234e+01,3.508501815795898438e+01,-1.101469802856445312e+02,9.091207885742187500e+01,-6.485788726806640625e+01,5.088966751098632812e+01,-1.460147571563720703e+01,-1.053308639526367188e+02,-1.162088928222656250e+02,6.396290588378906250e+01,-3.653152465820312500e+01
2.840000092983245850e-01,2.000000000000000000e+00,3.662736892700195312e+01,1.117189407348632812e+01,3.507978439331054688e+01,-1.102020263671875000e+02,9.091486358642578125e+01,-6.488297271728515625e+01,5.081665420532226562e+01,-1.459257793426513672e+01,-1.053456344604492188e+02,-1.162634429931640625e+02,6.395862197875976562e+01,-3.656197738647460938e+01
2.879999876022338867e-01,2.000000000000000000e+00,3.665603256225585938e+01,1.112376976013183594e+01,3.507454681396484375e+01,-1.102570800781250000e+02,9.091764831542968750e+01,-6.490805816650390625e+01,5.074364852905273438e+01,-1.458368206024169922e+01,-1.053604125976562500e+02,-1.163179702758789062e+02,6.395433425903320312e+01,-3.659242248535156250e+01
2.919999957084655762e-01,2.000000000000000000e+00,3.668469238281250000e+01,1.107565021514892578e+01,3.506931304931640625e+01,-1.103121185302734375e+02,9.092042541503906250e+01,-6.493314361572265625e+01,5.067064666748046875e+01,-1.457478523254394531e+01,-1.053751831054687500e+02,-1.163725051879882812e+02,6.395005035400390625e+01,-3.662286376953125000e+01
2.960000038146972656e-01,2.000000000000000000e+00,3.671335220336914062e+01,1.102753639221191406e+01,3.506407928466796875e+01,-1.103671569824218750e+02,9.092320251464843750e+01,-6.495822906494140625e+01,5.059765625000000000e+01,-1.456589126586914062e+01,-1.053899536132812500e+02,-1.164270401000976562e+02,6.394577026367187500e+01,-3.665330123901367188e+01
3.000000119209289551e-01,2.000000000000000000e+00,3.674200820922851562e+01,1.097942638397216797e+01,3.505884552001953125e+01,-1.104221878051757812e+02,9.092598724365234375e+01,-6.498329925537109375e+01,5.052467346191406250e+01,-1.455699634552001953e+01,-1.054047241210937500e+02,-1.164815521240234375e+02,6.394147872924804688e+01,-3.668374252319335938e+01
3.039999902248382568e-01,2.000000000000000000e+00,3.677066040039062500e+01,1.093132209777832031e+01,3.505361175537109375e+01,-1.104772186279296875e+02,9.092876434326171875e+01,-6.500838470458984375e+01,5.045169448852539062e+01,-1.454810333251953125e+01,-1.054194869995117188e+02,-1.165360641479492188e+02,6.393719482421875000e+01,-3.671417617797851562e+01
3.079999983310699463e-01,2.000000000000000000e+00,3.679931259155273438e+01,1.088322162628173828e+01,3.504837799072265625e+01,-1.105322341918945312e+02,9.093154907226562500e+01,-6.503345489501953125e+01,5.037872695922851562e+01,-1.453921222686767578e+01,-1.054342498779296875e+02,-1.165905761718750000e+02,6.393291473388671875e+01,-3.674460601806640625e+01
3.120000064373016357e-01,2.000000000000000000e+00,3.682796096801757812e+01,1.083512592315673828e+01,3.504314804077148438e+01,-1.105872497558593750e+02,9.093432617187500000e+01,-6.505853271484375000e+01,5.030576324462890625e+01,-1.453032112121582031e+01,-1.054490203857421875e+02,-1.166450805664062500e+02,6.392863082885742188e+01,-3.677503204345703125e+01
3.160000145435333252e-01,2.000000000000000000e+00,3.685660171508789062e+01,1.078703594207763672e+01,3.503791427612304688e+01,-1.106422653198242188e+02,9.093709564208984375e+01,-6.508359527587890625e+01,5.023281097412109375e+01,-1.452143001556396484e+01,-1.054637756347656250e+02,-1.166995773315429688e+02,6.392435073852539062e+01,-3.680545806884765625e+01
3.199999928474426270e-01,2.000000000000000000e+00,3.688524627685546875e+01,1.073895072937011719e+01,3.503268432617187500e+01,-1.106972656250000000e+02,9.093988037109375000e+01,-6.510866546630859375e+01,5.015986251831054688e+01,-1.451253986358642578e+01,-1.054785461425781250e+02,-1.167540664672851562e+02,6.392006683349609375e+01,-3.683588027954101562e+01
3.240000009536743164e-01,2.000000000000000000e+00,3.691388320922851562e+01,1.069086933135986328e+01,3.502745056152343750e+01,-1.107522735595703125e+02,9.094265747070312500e+01,-6.513372802734375000e+01,5.008692169189453125e+01,-1.450365257263183594e+01,-1.054932937622070312e+02,-1.168085556030273438e+02,6.391578292846679688e+01,-3.686629867553710938e+01
3.280000090599060059e-01,2.000000000000000000e+00,3.694252014160156250e+01,1.064279365539550781e+01,3.502222061157226562e+01,-1.108072586059570312e+02,9.094543457031250000e+01,-6.515879058837890625e+01,5.001398849487304688e+01,-1.449476432800292969e+01,-1.055080566406250000e+02,-1.168630371093750000e+02,6.391150283813476562e+01,-3.689671707153320312e+01
3.319999873638153076e-01,2.000000000000000000e+00,3.697115325927734375e+01,1.059472179412841797e+01,3.501699447631835938e+01,-1.108622512817382812e+02,9.094821166992187500e+01,-6.518385314941406250e+01,4.994106292724609375e+01,-1.448587703704833984e+01,-1.055228195190429688e+02,-1.169175109863281250e+02,6.390722656250000000e+01,-3.692712783813476562e+01
3.359999954700469971e-01,2.000000000000000000e+00,3.699978256225585938e+01,1.054665374755859375e+01,3.501176071166992188e+01,-1.109172363281250000e+02,9.095098876953125000e+01,-6.520890045166015625e+01,4.986814498901367188e+01,-1.447699069976806641e+01,-1.055375671386718750e+02,-1.169719924926757812e+02,6.390294265747070312e+01,-3.695753860473632812e+01
3.400000035762786865e-01,2.000000000000000000e+00,3.702841186523437500e+01,1.049859237670898438e+01,3.500653457641601562e+01,-1.109722061157226562e+02,9.095376586914062500e+01,-6.523396301269531250e+01,4.979523086547851562e+01,-1.446810626983642578e+01,-1.055523223876953125e+02,-1.170264511108398438e+02,6.389866256713867188e+01,-3.698794555664062500e+01
3.440000116825103760e-01,2.000000000000000000e+00,3.705703353881835938e+01,1.045053482055664062e+01,3.500130462646484375e+01,-1.110271835327148438e+02,9.095654296875000000e+01,-6.525901031494140625e+01,4.972232818603515625e+01,-1.445922183990478516e+01,-1.055670776367187500e+02,-1.170809173583984375e+02,6.389438629150390625e+01,-3.701834869384765625e+01
3.479999899864196777e-01,2.000000000000000000e+00,3.708565521240234375e+01,1.040248107910156250e+01,3.499607467651367188e+01,-1.110821456909179688e+02,9.095932769775390625e+01,-6.528406524658203125e+01,4.964942932128906250e+01,-1.445033740997314453e+01,-1.055818328857421875e+02,-1.171353683471679688e+02,6.389010238647460938e+01,-3.704874801635742188e+01
3.519999980926513672e-01,2.000000000000000000e+00,3.711427688598632812e+01,1.035443401336669922e+01,3.499085235595703125e+01,-1.111371078491210938e+02,9.096209716796875000e+01,-6.530910491943359375e+01,4.957653808593750000e+01,-1.444145488739013672e+01,-1.055965805053710938e+02,-1.171898193359375000e+02,6.388582611083984375e+01,-3.707914733886718750e+01
3.560000061988830566e-01,2.000000000000000000e+00,3.714289474487304688e+01,1.030638980865478516e+01,3.498562240600585938e+01,-1.111920623779296875e+02,9.096486663818359375e+01,-6.533415222167968750e+01,4.950365447998046875e+01,-1.443257427215576172e+01,-1.056113204956054688e+02,-1.172442703247070312e+02,6.388154602050781250e+01,-3.710954666137695312e+01
3.600000143051147461e-01,2.000000000000000000e+00,3.717150878906250000e+01,1.025835132598876953e+01,3.498039627075195312e+01,-1.112470245361328125e+02,9.096765136718750000e+01,-6.535919189453125000e+01,4.943077468872070312e+01,-1.442369270324707031e+01,-1.056260681152343750e+02,-1.172987060546875000e+02,6.387726974487304688e+01,-3.713993453979492188e+01
3.639999926090240479e-01,2.000000000000000000e+00,3.720011520385742188e+01,1.021031665802001953e+01,3.497517395019531250e+01,-1.113019638061523438e+02,9.097042083740234375e+01,-6.538423156738281250e+01,4.935791015625000000e+01,-1.441481399536132812e+01,-1.056408157348632812e+02,-1.173531417846679688e+02,6.387299346923828125e+01,-3.717032623291015625e+01
3.680000007152557373e-01,2.000000000000000000e+00,3.722872543334960938e+01,1.016228675842285156e+01,3.496994781494140625e+01,-1.113569030761718750e+02,9.097320556640625000e+01,-6.540927124023437500e+01,4.928504562377929688e+01,-1.440593433380126953e+01,-1.056555633544921875e+02,-1.174075622558593750e+02,6.386870956420898438e+01,-3.720071029663085938e+01
3.720000088214874268e-01,2.000000000000000000e+00,3.725733184814453125e+01,1.011426162719726562e+01,3.496472167968750000e+01,-1.114118423461914062e+02,9.097597503662109375e+01,-6.543431091308593750e+01,4.921218872070312500e+01,-1.439705562591552734e+01,-1.056703033447265625e+02,-1.174619903564453125e+02,6.386443328857421875e+01,-3.723109436035156250e+01
3.759999871253967285e-01,2.000000000000000000e+00,3.728593444824218750e+01,1.006624031066894531e+01,3.495949554443359375e+01,-1.114667663574218750e+02,9.097875213623046875e+01,-6.545934295654296875e+01,4.913933944702148438e+01,-1.438817787170410156e+01,-1.056850509643554688e+02,-1.175164108276367188e+02,6.386016082763671875e+01,-3.726147460937500000e+01
3.799999952316284180e-01,2.000000000000000000e+00,3.731453704833984375e+01,1.001822471618652344e+01,3.495427322387695312e+01,-1.115216979980468750e+02,9.098152160644531250e+01,-6.548436737060546875e+01,4.906649780273437500e+01,-1.437930202484130859e+01,-1.056997909545898438e+02,-1.175708236694335938e+02,6.385588455200195312e+01,-3.729185485839843750e+01
3.840000033378601074e-01,2.000000000000000000e+00,3.734313583374023438e+01,9.970212936401367188e+00,3.494905090332031250e+01,-1.115766220092773438e+02,9.098429870605468750e+01,-6.550940704345703125e+01,4.899365997314453125e+01,-1.437042617797851562e+01,-1.057145233154296875e+02,-1.176252288818359375e+02,6.385160827636718750e+01,-3.732223129272460938e+01
3.880000114440917969e-01,2.000000000000000000e+00,3.737172698974609375e+01,9.922205924987792969e+00,3.494382858276367188e+01,-1.116315307617187500e+02,9.098707580566406250e+01,-6.553443145751953125e+01,4.892083358764648438e+01,-1.436155033111572266e+01,-1.057292633056640625e+02,-1.176796417236328125e+02,6.384733200073242188e+01,-3.735260009765625000e+01
3.919999897480010986e-01,2.000000000000000000e+00,3.740031814575195312e+01,9.874202728271484375e+00,3.493860244750976562e+01,-1.116864395141601562e+02,9.098984527587890625e+01,-6.555944824218750000e+01,4.884801101684570312e+01,-1.435267639160156250e+01,-1.057439956665039062e+02,-1.177340316772460938e+02,6.384305572509765625e+01,-3.738297271728515625e+01
3.959999978542327881e-01,2.000000000000000000e+00,3.742890930175781250e+01,9.826204299926757812e+00,3.493338012695312500e+01,-1.117413406372070312e+02,9.099262237548828125e+01,-6.558447265625000000e+01,4.877519607543945312e+01,-1.434380340576171875e+01,-1.057587356567382812e+02,-1.177884292602539062e+02,6.383877944946289062e+01,-3.741333770751953125e+01
4.000000059604644775e-01,2.000000000000000000e+00,3.745749664306640625e+01,9.778210639953613281e+00,3.492816162109375000e+01,-1.117962417602539062e+02,9.099539184570312500e+01,-6.560949707031250000e+01,4.870238876342773438e+01,-1.433492946624755859e+01,-1.057734680175781250e+02,-1.178428115844726562e+02,6.383451080322265625e+01,-3.744370269775390625e+01
4.040000140666961670e-01,2.000000000000000000e+00,3.748608016967773438e+01,9.730220794677734375e+00,3.492294311523437500e+01,-1.118511352539062500e+02,9.099816894531250000e+01,-6.563450622558593750e+01,4.862958908081054688e+01,-1.432605934143066406e+01,-1.057882003784179688e+02,-1.178972091674804688e+02,6.383023452758789062e+01,-3.747406387329101562e+01
4.079999923706054688e-01,2.000000000000000000e+00,3.751465988159179688e+01,9.682236671447753906e+00,3.491772079467773438e+01,-1.119060287475585938e+02,9.100093841552734375e+01,-6.565952301025390625e+01,4.855679321289062500e+01,-1.431718826293945312e+01,-1.058029251098632812e+02,-1.179515762329101562e+02,6.382596206665039062e+01,-3.750442123413085938e+01
4.120000004768371582e-01,2.000000000000000000e+00,3.754324340820312500e+01,9.634255409240722656e+00,3.491249847412109375e+01,-1.119609146118164062e+02,9.100371551513671875e+01,-6.568453979492187500e+01,4.848400115966796875e+01,-1.430831718444824219e+01,-1.058176574707031250e+02,-1.180059585571289062e+02,6.382168960571289062e+01,-3.753477478027343750e+01
4.160000085830688477e-01,2.000000000000000000e+00,3.757181549072265625e+01,9.586278915405273438e+00,3.490727996826171875e+01,-1.120157928466796875e+02,9.100647735595703125e+01,-6.570954132080078125e+01,4.841122436523437500e+01,-1.429944896697998047e+01,-1.058323822021484375e+02,-1.180603256225585938e+02,6.381741714477539062e+01,-3.756512832641601562e+01
4.199999868869781494e-01,2.000000000000000000e+00,3.760039138793945312e+01,9.538307189941406250e+00,3.490206146240234375e+01,-1.120706710815429688e+02,9.100925445556640625e+01,-6.573455047607421875e+01,4.833844757080078125e+01,-1.429058074951171875e+01,-1.058471069335937500e+02,-1.181146850585937500e+02,6.381314849853515625e+01,-3.759547805786132812e+01
4.239999949932098389e-01,2.000000000000000000e+00,3.762895965576171875e+01,9.490340232849121094e+00,3.489684295654296875e+01,-1.121255340576171875e+02,9.101202392578125000e+01,-6.575955200195312500e+01,4.826567840576171875e+01,-1.428171253204345703e+01,-1.058618316650390625e+02,-1.181690521240234375e+02,6.380887222290039062e+01,-3.762582397460937500e+01
4.280000030994415283e-01,2.000000000000000000e+00,3.765753173828125000e+01,9.442377090454101562e+00,3.489162445068359375e+01,-1.121804046630859375e+02,9.101480102539062500e+01,-6.578456115722656250e+01,4.819291687011718750e+01,-1.427284622192382812e+01,-1.058765563964843750e+02,-1.182234039306640625e+02,6.380460357666015625e+01,-3.765616989135742188e+01
4.320000112056732178e-01,2.000000000000000000e+00,3.768609619140625000e+01,9.394417762756347656e+00,3.488640594482421875e+01,-1.122352600097656250e+02,9.101756286621093750e+01,-6.580955505371093750e+01,4.812016296386718750e+01,-1.426397895812988281e+01,-1.058912811279296875e+02,-1.182777481079101562e+02,6.380033493041992188e+01,-3.768651199340820312e+01
4.359999895095825195e-01,2.000000000000000000e+00,3.771466064453125000e+01,9.346463203430175781e+00,3.488118743896484375e+01,-1.122901153564453125e+02,9.102033996582031250e+01,-6.583455657958984375e+01,4.804741287231445312e+01,-1.425511455535888672e+01,-1.059059982299804688e+02,-1.183320846557617188e+02,6.379605865478515625e+01,-3.771685028076171875e+01
4.399999976158142090e-01,2.000000000000000000e+00,3.774322128295898438e+01,9.298513412475585938e+00,3.487597274780273438e+01,-1.123449630737304688e+02,9.102310943603515625e+01,-6.585955047607421875e+01,4.797467041015625000e+01,-1.424625015258789062e+01,-1.059207153320312500e+02,-1.183864288330078125e+02,6.379179000854492188e+01,-3.774718856811523438e+01
4.440000057220458984e-01,2.000000000000000000e+00,3.777177810668945312e+01,9.250567436218261719e+00,3.487075424194335938e+01,-1.123998107910156250e+02,9.102587890625000000e+01,-6.588454437255859375e+01,4.790193557739257812e+01,-1.423738574981689453e+01,-1.059354324340820312e+02,-1.184407653808593750e+02,6.378752136230468750e+01,-3.777751922607421875e+01
4.480000138282775879e-01,2.000000000000000000e+00,3.780033493041992188e+01,9.202626228332519531e+00,3.486553955078125000e+01,-1.124546432495117188e+02,9.102864837646484375e+01,-6.590953826904296875e+01,4.782920837402343750e+01,-1.422852325439453125e+01,-1.059501571655273438e+02,-1.184950942993164062e+02,6.378325271606445312e+01,-3.780784988403320312e+01
4.519999921321868896e-01,2.000000000000000000e+00,3.782888793945312500e+01,9.154688835144042969e+00,3.486032485961914062e+01,-1.125094833374023438e+02,9.103142547607421875e+01,-6.593453216552734375e+01,4.775648498535156250e+01,-1.421966075897216797e+01,-1.059648666381835938e+02,-1.185494232177734375e+02,6.377898025512695312e+01,-3.783818054199218750e+01
4.560000002384185791e-01,2.000000000000000000e+00,3.785743713378906250e+01,9.106756210327148438e+00,3.485511016845703125e+01,-1.125643157958984375e+02,9.103418731689453125e+01,-6.595951080322265625e+01,4.768376922607421875e+01,-1.421079921722412109e+01,-1.059795761108398438e+02,-1.186037368774414062e+02,6.377471160888671875e+01,-3.786850738525390625e+01
4.600000083446502686e-01,2.000000000000000000e+00,3.788598632812500000e+01,9.058827400207519531e+00,3.484989547729492188e+01,-1.126191406250000000e+02,9.103695678710937500e+01,-6.598449707031250000e+01,4.761106109619140625e+01,-1.420193862915039062e+01,-1.059942932128906250e+02,-1.186580505371093750e+02,6.377044296264648438e+01,-3.789882659912109375e+01
4.639999866485595703e-01,2.000000000000000000e+00,3.791453170776367188e+01,9.010902404785156250e+00,3.484468460083007812e+01,-1.126739578247070312e+02,9.103972625732421875e+01,-6.600948333740234375e+01,4.753835678100585938e+01,-1.419307994842529297e+01,-1.060090026855468750e+02,-1.187123641967773438e+02,6.376617431640625000e+01,-3.792914581298828125e+01
4.679999947547912598e-01,2.000000000000000000e+00,3.794307327270507812e+01,8.962981224060058594e+00,3.483946990966796875e+01,-1.127287750244140625e+02,9.104249572753906250e+01,-6.603446197509765625e+01,4.746566009521484375e+01,-1.418422031402587891e+01,-1.060237197875976562e+02,-1.187666625976562500e+02,6.376190567016601562e+01,-3.795946502685546875e+01
4.720000028610229492e-01,2.000000000000000000e+00,3.797161865234375000e+01,8.915064811706542969e+00,3.483425903320312500e+01,-1.127835845947265625e+02,9.104526519775390625e+01,-6.605944824218750000e+01,4.739296722412109375e+01,-1.417536258697509766e+01,-1.060384292602539062e+02,-1.188209762573242188e+02,6.375764465332031250e+01,-3.798978042602539062e+01
4.760000109672546387e-01,2.000000000000000000e+00,3.800015258789062500e+01,8.867153167724609375e+00,3.482904434204101562e+01,-1.128383941650390625e+02,9.104803466796875000e+01,-6.608441925048828125e+01,4.732028579711914062e+01,-1.416650485992431641e+01,-1.060531311035156250e+02,-1.188752670288085938e+02,6.375337600708007812e+01,-3.802009201049804688e+01
4.799999892711639404e-01,2.000000000000000000e+00,3.802869033813476562e+01,8.819245338439941406e+00,3.482383346557617188e+01,-1.128931961059570312e+02,9.105080413818359375e+01,-6.610939788818359375e+01,4.724760818481445312e+01,-1.415764904022216797e+01,-1.060678405761718750e+02,-1.189295654296875000e+02,6.374910736083984375e+01,-3.805039978027343750e+01
4.839999973773956299e-01,2.000000000000000000e+00,3.805722427368164062e+01,8.771342277526855469e+00,3.481862258911132812e+01,-1.129479904174804688e+02,9.105357360839843750e+01,-6.613436889648437500e+01,4.717493438720703125e+01,-1.414879226684570312e+01,-1.060825424194335938e+02,-1.189838485717773438e+02,6.374484634399414062e+01,-3.808070755004882812e+01
4.880000054836273193e-01,2.000000000000000000e+00,3.808575439453125000e+01,8.723442077636718750e+00,3.481340789794921875e+01,-1.130027847290039062e+02,9.105634307861328125e+01,-6.615933990478515625e+01,4.710226821899414062e+01,-1.413993740081787109e+01,-1.060972518920898438e+02,-1.190381240844726562e+02,6.374057769775390625e+01,-3.811101150512695312e+01
4.920000135898590088e-01,2.000000000000000000e+00,3.811428451538085938e+01,8.675546646118164062e+00,3.480819702148437500e+01,-1.130575714111328125e+02,9.105910491943359375e+01,-6.618430328369140625e+01,4.702960968017578125e+01,-1.413108253479003906e+01,-1.061119461059570312e+02,-1.190924072265625000e+02,6.373631286621093750e+01,-3.814131546020507812e+01
4.959999918937683105e-01,2.000000000000000000e+00,3.814281082153320312e+01,8.627655029296875000e+00,3.480298995971679688e+01,-1.131123504638671875e+02,9.106187438964843750e+01,-6.620926666259765625e+01,4.695695877075195312e+01,-1.412222957611083984e+01,-1.061266555786132812e+02,-1.191466827392578125e+02,6.373204421997070312e+01,-3.817161178588867188e+01
5.000000000000000000e-01,2.000000000000000000e+00,3.817133331298828125e+01,8.579768180847167969e+00,3.479777908325195312e+01,-1.131671218872070312e+02,9.106463623046875000e+01,-6.623423004150390625e+01,4.688431167602539062e+01,-1.411337661743164062e+01,-1.061413497924804688e+02,-1.192009429931640625e+02,6.372778320312500000e+01,-3.820190811157226562e+01
5.040000081062316895e-01,2.000000000000000000e+00,3.819985198974609375e+01,8.531884193420410156e+00,3.479257202148437500e+01,-1.132219009399414062e+02,9.106740570068359375e+01,-6.625919342041015625e+01,4.681167221069335938e+01,-1.410452461242675781e+01,-1.061560516357421875e+02,-1.192552108764648438e+02,6.372351455688476562e+01,-3.823220443725585938e+01
5.080000162124633789e-01,2.000000000000000000e+00,3.822837066650390625e+01,8.484004020690917969e+00,3.478736114501953125e+01,-1.132766647338867188e+02,9.107016754150390625e+01,-6.628414916992187500e+01,4.673903656005859375e+01,-1.409567356109619141e+01,-1.061707534790039062e+02,-1.193094711303710938e+02,6.371925354003906250e+01,-3.826249313354492188e+01
5.120000243186950684e-01,2.000000000000000000e+00,3.825688552856445312e+01,8.436128616333007812e+00,3.478215026855468750e+01,-1.133314285278320312e+02,9.107293701171875000e+01,-6.630911254882812500e+01,4.666640853881835938e+01,-1.408682346343994141e+01,-1.061854476928710938e+02,-1.193637161254882812e+02,6.371498870849609375e+01,-3.829278182983398438e+01
5.159999728202819824e-01,2.000000000000000000e+00,3.828540420532226562e+01,8.388257026672363281e+00,3.477694320678710938e+01,-1.133861923217773438e+02,9.107570648193359375e+01,-6.633406829833984375e+01,4.659378433227539062e+01,-1.407797241210937500e+01,-1.062001419067382812e+02,-1.194179763793945312e+02,6.371072769165039062e+01,-3.832306671142578125e+01
5.199999809265136719e-01,2.000000000000000000e+00,3.831391525268554688e+01,8.340389251708984375e+00,3.477173614501953125e+01,-1.134409484863281250e+02,9.107846832275390625e+01,-6.635901641845703125e+01,4.652117156982421875e+01,-1.406912326812744141e+01,-1.062148284912109375e+02,-1.194722213745117188e+02,6.370646667480468750e+01,-3.835335159301757812e+01
5.239999890327453613e-01,2.000000000000000000e+00,3.834242630004882812e+01,8.292526245117187500e+00,3.476652908325195312e+01,-1.134956970214843750e+02,9.108123779296875000e+01,-6.638397216796875000e+01,4.644855880737304688e+01,-1.406027507781982422e+01,-1.062295303344726562e+02,-1.195264511108398438e+02,6.370220565795898438e+01,-3.838363647460937500e+01
5.279999971389770508e-01,2.000000000000000000e+00,3.837092971801757812e+01,8.244666099548339844e+00,3.476132202148437500e+01,-1.135504379272460938e+02,9.108399963378906250e+01,-6.640892028808593750e+01,4.637595367431640625e+01,-1.405142688751220703e+01,-1.062442245483398438e+02,-1.195806961059570312e+02,6.369794082641601562e+01,-3.841391372680664062e+01
5.320000052452087402e-01,2.000000000000000000e+00,3.839943695068359375e+01,8.196809768676757812e+00,3.475611495971679688e+01,-1.136051864624023438e+02,9.108676910400390625e+01,-6.643386077880859375e+01,4.630335617065429688e+01,-1.404258060455322266e+01,-1.062589035034179688e+02,-1.196349334716796875e+02,6.369367980957031250e+01,-3.844418716430664062e+01
5.360000133514404297e-01,2.000000000000000000e+00,3.842794036865234375e+01,8.148957252502441406e+00,3.475091171264648438e+01,-1.136599197387695312e+02,9.108953857421875000e+01,-6.645880889892578125e+01,4.623076248168945312e+01,-1.403373432159423828e+01,-1.062735977172851562e+02,-1.196891479492187500e+02,6.368941879272460938e+01,-3.847446441650390625e+01
5.400000214576721191e-01,2.000000000000000000e+00,3.845643997192382812e+01,8.101109504699707031e+00,3.474570465087890625e+01,-1.137146530151367188e+02,9.109229278564453125e+01,-6.648374938964843750e+01,4.615817260742187500e+01,-1.402488899230957031e+01,-1.062882843017578125e+02,-1.197433776855468750e+02,6.368515396118164062e+01,-3.850473403930664062e+01
5.440000295639038086e-01,2.000000000000000000e+00,3.848493576049804688e+01,8.053263664245605469e+00,3.474050140380859375e+01,-1.137693862915039062e+02,9.109506225585937500e+01,-6.650869750976562500e+01,4.608559036254882812e+01,-1.401604461669921875e+01,-1.063029785156250000e+02,-1.197975997924804688e+02,6.368089294433593750e+01,-3.853500366210937500e+01
5.479999780654907227e-01,2.000000000000000000e+00,3.851343536376953125e+01,8.005423545837402344e+00,3.473529815673828125e+01,-1.138241043090820312e+02,9.109782409667968750e+01,-6.653363037109375000e+01,4.601301574707031250e+01,-1.400720024108886719e+01,-1.063176574707031250e+02,-1.198518142700195312e+02,6.367663192749023438e+01,-3.856526947021484375e+01
5.519999861717224121e-01,2.000000000000000000e+00,3.854192733764648438e+01,7.957585334777832031e+00,3.473009109497070312e+01,-1.138788299560546875e+02,9.110059356689453125e+01,-6.655857086181640625e+01,4.594044494628906250e+01,-1.399835586547851562e+01,-1.063323440551757812e+02,-1.199060211181640625e+02,6.367237472534179688e+01,-3.859553527832031250e+01
5.559999942779541016e-01,2.000000000000000000e+00,3.857041931152343750e+01,7.909751892089843750e+00,3.472488784790039062e+01,-1.139335479736328125e+02,9.110335540771484375e+01,-6.658350372314453125e+01,4.586787796020507812e+01,-1.398951339721679688e+01,-1.063470306396484375e+02,-1.199602279663085938e+02,6.366811370849609375e+01,-3.862579727172851562e+01
5.600000023841857910e-01,2.000000000000000000e+00,3.859890747070312500e+01,7.861921787261962891e+00,3.471968078613281250e+01,-1.139882583618164062e+02,9.110611724853515625e+01,-6.660843658447265625e+01,4.579531860351562500e+01,-1.398067092895507812e+01,-1.063617095947265625e+02,-1.200144271850585938e+02,6.366385269165039062e+01,-3.865605545043945312e+01
5.640000104904174805e-01,2.000000000000000000e+00,3.862739944458007812e+01,7.814095020294189453e+00,3.471448135375976562e+01,-1.140429687500000000e+02,9.110888671875000000e+01,-6.663336944580078125e+01,4.572276687622070312e+01,-1.397182941436767578e+01,-1.063763961791992188e+02,-1.200686340332031250e+02,6.365959548950195312e+01,-3.868631362915039062e+01
5.680000185966491699e-01,2.000000000000000000e+00,3.865588378906250000e+01,7.766272544860839844e+00,3.470927810668945312e+01,-1.140976715087890625e+02,9.111164093017578125e+01,-6.665829467773437500e+01,4.565021514892578125e+01,-1.396298789978027344e+01,-1.063910675048828125e+02,-1.201228256225585938e+02,6.365533447265625000e+01,-3.871657180786132812e+01
5.720000267028808594e-01,2.000000000000000000e+00,3.868436431884765625e+01,7.718453884124755859e+00,3.470407485961914062e+01,-1.141523742675781250e+02,9.111441040039062500e+01,-6.668322753906250000e+01,4.557767105102539062e+01,-1.395414829254150391e+01,-1.064057464599609375e+02,-1.201770172119140625e+02,6.365108108520507812e+01,-3.874682235717773438e+01
5.759999752044677734e-01,2.000000000000000000e+00,3.871284484863281250e+01,7.670637130737304688e+00,3.469887542724609375e+01,-1.142070617675781250e+02,9.111717224121093750e+01,-6.670815277099609375e+01,4.550513458251953125e+01,-1.394530868530273438e+01,-1.064204254150390625e+02,-1.202312088012695312e+02,6.364681625366210938e+01,-3.877707290649414062e+01
5.799999833106994629e-01,2.000000000000000000e+00,3.874132537841796875e+01,7.622825145721435547e+00,3.469366836547851562e+01,-1.142617568969726562e+02,9.111993408203125000e+01,-6.673307800292968750e+01,4.543260192871093750e+01,-1.393647003173828125e+01,-1.064351043701171875e+02,-1.202853851318359375e+02,6.364256286621093750e+01,-3.880732345581054688e+01
5.839999914169311523e-01,2.000000000000000000e+00,3.876980209350585938e+01,7.575016975402832031e+00,3.468846893310546875e+01,-1.143164443969726562e+02,9.112269592285156250e+01,-6.675799560546875000e+01,4.536007690429687500e+01,-1.392763137817382812e+01,-1.064497833251953125e+02,-1.203395614624023438e+02,6.363830947875976562e+01,-3.883757019042968750e+01
5.879999995231628418e-01,2.000000000000000000e+00,3.879827499389648438e+01,7.527211666107177734e+00,3.468326950073242188e+01,-1.143711318969726562e+02,9.112545776367187500e+01,-6.678292083740234375e+01,4.528755187988281250e+01,-1.391879367828369141e+01,-1.064644546508789062e+02,-1.203937377929687500e+02,6.363404464721679688e+01,-3.886781692504882812e+01
5.920000076293945312e-01,2.000000000000000000e+00,3.882674789428710938e+01,7.479409694671630859e+00,3.467807006835937500e+01,-1.144258041381835938e+02,9.112821960449218750e+01,-6.680783843994140625e+01,4.521503829956054688e+01,-1.390995693206787109e+01,-1.064791336059570312e+02,-1.204479141235351562e+02,6.362979125976562500e+01,-3.889805603027343750e+01
5.960000157356262207e-01,2.000000000000000000e+00,3.885521697998046875e+01,7.431612014770507812e+00,3.467286682128906250e+01,-1.144804840087890625e+02,9.113098144531250000e+01,-6.683275604248046875e+01,4.514252471923828125e+01,-1.390112018585205078e+01,-1.064938049316406250e+02,-1.205020751953125000e+02,6.362553405761718750e+01,-3.892829895019531250e+01
6.000000238418579102e-01,2.000000000000000000e+00,3.888368606567382812e+01,7.383817195892333984e+00,3.466766738891601562e+01,-1.145351562500000000e+02,9.113374328613281250e+01,-6.685766601562500000e+01,4.507001876831054688e+01,-1.389228439331054688e+01,-1.065084762573242188e+02,-1.205562438964843750e+02,6.362128067016601562e+01,-3.895853424072265625e+01
6.039999723434448242e-01,2.000000000000000000e+00,3.891215133666992188e+01,7.336026191711425781e+00,3.466246795654296875e+01,-1.145898284912109375e+02,9.113650512695312500e+01,-6.688258361816406250e+01,4.499752044677734375e+01,-1.388344955444335938e+01,-1.065231475830078125e+02,-1.206104049682617188e+02,6.361701965332031250e+01,-3.898877334594726562e+01
6.079999804496765137e-01,2.000000000000000000e+00,3.894061660766601562e+01,7.288238048553466797e+00,3.465727233886718750e+01,-1.146444778442382812e+02,9.113926696777343750e+01,-6.690749359130859375e+01,4.492502212524414062e+01,-1.387461471557617188e+01,-1.065378189086914062e+02,-1.206645584106445312e+02,6.361276245117187500e+01,-3.901900482177734375e+01
6.119999885559082031e-01,2.000000000000000000e+00,3.896907806396484375e+01,7.240454196929931641e+00,3.465206909179687500e+01,-1.146991500854492188e+02,9.114202117919921875e+01,-6.693240356445312500e+01,4.485253143310546875e+01,-1.386578083038330078e+01,-1.065524826049804688e+02,-1.207187042236328125e+02,6.360850906372070312e+01,-3.904923629760742188e+01
6.159999966621398926e-01,2.000000000000000000e+00,3.899753952026367188e+01,7.192672729492187500e+00,3.464687347412109375e+01,-1.147538070678710938e+02,9.114479064941406250e+01,-6.695731353759765625e+01,4.478004455566406250e+01,-1.385694789886474609e+01,-1.065671539306640625e+02,-1.207728576660156250e+02,6.360425186157226562e+01,-3.907946395874023438e+01
6.200000047683715820e-01,2.000000000000000000e+00,3.902599716186523438e+01,7.144895553588867188e+00,3.464167404174804688e+01,-1.148084564208984375e+02,9.114755249023437500e+01,-6.698221588134765625e+01,4.470756912231445312e+01,-1.384811592102050781e+01,-1.065818176269531250e+02,-1.208270034790039062e+02,6.359999847412109375e+01,-3.910969161987304688e+01
6.240000128746032715e-01,2.000000000000000000e+00,3.905445098876953125e+01,7.097121238708496094e+00,3.463647842407226562e+01,-1.148630981445312500e+02,9.115030670166015625e+01,-6.700711822509765625e+01,4.463509368896484375e+01,-1.383928298950195312e+01,-1.065964813232421875e+02,-1.208811416625976562e+02,6.359574890136718750e+01,-3.913991928100585938e+01
6.280000209808349609e-01,2.000000000000000000e+00,3.908290481567382812e+01,7.049349784851074219e+00,3.463128280639648438e+01,-1.149177398681640625e+02,9.115306854248046875e+01,-6.703202056884765625e+01,4.456262207031250000e+01,-1.383045196533203125e+01,-1.066111450195312500e+02,-1.209352798461914062e+02,6.359149169921875000e+01,-3.917013931274414062e+01
6.320000290870666504e-01,2.000000000000000000e+00,3.911135864257812500e+01,7.001582622528076172e+00,3.462608337402343750e+01,-1.149723815917968750e+02,9.115583038330078125e+01,-6.705692291259765625e+01,4.449015426635742188e+01,-1.382162094116210938e+01,-1.066258087158203125e+02,-1.209894104003906250e+02,6.358723831176757812e+01,-3.920035934448242188e+01
6.359999775886535645e-01,2.000000000000000000e+00,3.913980865478515625e+01,6.953818798065185547e+00,3.462088775634765625e+01,-1.150270233154296875e+02,9.115858459472656250e+01,-6.708183288574218750e+01,4.441769790649414062e+01,-1.381279182434082031e+01,-1.066404724121093750e+02,-1.210435333251953125e+02,6.358298492431640625e+01,-3.923057937622070312e+01
6.399999856948852539e-01,2.000000000000000000e+00,3.916825485229492188e+01,6.906057834625244141e+00,3.461569213867187500e+01,-1.150816574096679688e+02,9.116134643554687500e+01,-6.710672760009765625e+01,4.434524154663085938e+01,-1.380396175384521484e+01,-1.066551361083984375e+02,-1.210976562500000000e+02,6.357872772216796875e+01,-3.926079559326171875e+01
6.439999938011169434e-01,2.000000000000000000e+00,3.919670104980468750e+01,6.858300209045410156e+00,3.461049652099609375e+01,-1.151362838745117188e+02,9.116410827636718750e+01,-6.713162231445312500e+01,4.427279281616210938e+01,-1.379513263702392578e+01,-1.066697998046875000e+02,-1.211517791748046875e+02,6.357447814941406250e+01,-3.929100799560546875e+01
6.480000019073486328e-01,2.000000000000000000e+00,3.922514343261718750e+01,6.810545921325683594e+00,3.460530090332031250e+01,-1.151909103393554688e+02,9.116686248779296875e+01,-6.715650939941406250e+01,4.420034790039062500e+01,-1.378630542755126953e+01,-1.066844558715820312e+02,-1.212059020996093750e+02,6.357022476196289062e+01,-3.932122039794921875e+01
6.520000100135803223e-01,2.000000000000000000e+00,3.925358963012695312e+01,6.762795448303222656e+00,3.460010528564453125e+01,-1.152455368041992188e+02,9.116962432861328125e+01,-6.718140411376953125e+01,4.412790679931640625e+01,-1.377747726440429688e+01,-1.066991119384765625e+02,-1.212600097656250000e+02,6.356596755981445312e+01,-3.935143280029296875e+01
6.560000181198120117e-01,2.000000000000000000e+00,3.928203201293945312e+01,6.715047836303710938e+00,3.459491348266601562e+01,-1.153001480102539062e+02,9.117238616943359375e+01,-6.720629882812500000e+01,4.405547332763671875e+01,-1.376865100860595703e+01,-1.067137680053710938e+02,-1.213141174316406250e+02,6.356172180175781250e+01,-3.938163757324218750e+01
6.600000262260437012e-01,2.000000000000000000e+00,3.931046676635742188e+01,6.667303085327148438e+00,3.458971786499023438e+01,-1.153547668457031250e+02,9.117514801025390625e+01,-6.723118591308593750e+01,4.398304367065429688e+01,-1.375982379913330078e+01,-1.067284317016601562e+02,-1.213682250976562500e+02,6.355746459960937500e+01,-3.941184616088867188e+01
6.639999747276306152e-01,2.000000000000000000e+00,3.933890151977539062e+01,6.619562625885009766e+00,3.458452224731445312e+01,-1.154093780517578125e+02,9.117790222167968750e+01,-6.725607299804687500e+01,4.391061782836914062e+01,-1.375099849700927734e+01,-1.067430877685546875e+02,-1.214223251342773438e+02,6.355321884155273438e+01,-3.944204711914062500e+01
6.679999828338623047e-01,2.000000000000000000e+00,3.936733627319335938e+01,6.571824550628662109e+00,3.457933044433593750e+01,-1.154639816284179688e+02,9.118066406250000000e+01,-6.728096008300781250e+01,4.383819961547851562e+01,-1.374217224121093750e+01,-1.067577362060546875e+02,-1.214764328002929688e+02,6.354896926879882812e+01,-3.947225189208984375e+01
6.719999909400939941e-01,2.000000000000000000e+00,3.939577102661132812e+01,6.524089813232421875e+00,3.457413864135742188e+01,-1.155185775756835938e+02,9.118342590332031250e+01,-6.730583953857421875e+01,4.376578140258789062e+01,-1.373334789276123047e+01,-1.067723846435546875e+02,-1.215305252075195312e+02,6.354471206665039062e+01,-3.950244903564453125e+01
6.759999990463256836e-01,2.000000000000000000e+00,3.942420196533203125e+01,6.476358413696289062e+00,3.456894302368164062e+01,-1.155731811523437500e+02,9.118617248535156250e+01,-6.733071899414062500e+01,4.369337463378906250e+01,-1.372452449798583984e+01,-1.067870483398437500e+02,-1.215846099853515625e+02,6.354046630859375000e+01,-3.953264617919921875e+01
6.800000071525573730e-01,2.000000000000000000e+00,3.945262908935546875e+01,6.428630352020263672e+00,3.456375122070312500e+01,-1.156277847290039062e+02,9.118893432617187500e+01,-6.735560607910156250e+01,4.362096786499023438e+01,-1.371570014953613281e+01,-1.068016967773437500e+02,-1.216387023925781250e+02,6.353621673583984375e+01,-3.956284332275390625e+01
6.840000152587890625e-01,2.000000000000000000e+00,3.948105621337890625e+01,6.380905151367187500e+00,3.455855941772460938e+01,-1.156823654174804688e+02,9.119169616699218750e+01,-6.738047790527343750e+01,4.354856491088867188e+01,-1.370687770843505859e+01,-1.068163452148437500e+02,-1.216927871704101562e+02,6.353196334838867188e+01,-3.959304046630859375e+01
6.880000233650207520e-01,2.000000000000000000e+00,3.950947952270507812e+01,6.333183288574218750e+00,3.455336761474609375e+01,-1.157369537353515625e+02,9.119445037841796875e+01,-6.740536499023437500e+01,4.347617340087890625e+01,-1.369805526733398438e+01,-1.068309936523437500e+02,-1.217468643188476562e+02,6.352771377563476562e+01,-3.962322998046875000e+01
6.919999718666076660e-01,2.000000000000000000e+00,3.953790283203125000e+01,6.285464763641357422e+00,3.454817581176757812e+01,-1.157915420532226562e+02,9.119720458984375000e+01,-6.743023681640625000e+01,4.340377807617187500e+01,-1.368923473358154297e+01,-1.068456420898437500e+02,-1.218009490966796875e+02,6.352346420288085938e+01,-3.965341949462890625e+01
6.959999799728393555e-01,2.000000000000000000e+00,3.956632232666015625e+01,6.237749099731445312e+00,3.454298400878906250e+01,-1.158461303710937500e+02,9.119996643066406250e+01,-6.745510864257812500e+01,4.333139801025390625e+01,-1.368041324615478516e+01,-1.068602905273437500e+02,-1.218550186157226562e+02,6.351921463012695312e+01,-3.968360900878906250e+01
6.999999880790710449e-01,2.000000000000000000e+00,3.959474182128906250e+01,6.190037250518798828e+00,3.453779602050781250e+01,-1.159007034301757812e+02,9.120272827148437500e+01,-6.747998046875000000e+01,4.325901412963867188e+01,-1.367159175872802734e+01,-1.068749389648437500e+02,-1.219090805053710938e+02,6.351496887207031250e+01,-3.971379470825195312e+01
7.039999961853027344e-01,2.000000000000000000e+00,3.962316131591796875e+01,6.142327785491943359e+00,3.453260421752929688e+01,-1.159552764892578125e+02,9.120547485351562500e+01,-6.750485229492187500e+01,4.318663787841796875e+01,-1.366277217864990234e+01,-1.068895797729492188e+02,-1.219631500244140625e+02,6.351071929931640625e+01,-3.974397659301757812e+01
7.080000042915344238e-01,2.000000000000000000e+00,3.965157699584960938e+01,6.094621181488037109e+00,3.452741241455078125e+01,-1.160098495483398438e+02,9.120823669433593750e+01,-6.752971649169921875e+01,4.311426544189453125e+01,-1.365395259857177734e+01,-1.069042205810546875e+02,-1.220172195434570312e+02,6.350646972656250000e+01,-3.977415847778320312e+01
7.120000123977661133e-01,2.000000000000000000e+00,3.967999267578125000e+01,6.046918392181396484e+00,3.452222442626953125e+01,-1.160644226074218750e+02,9.121099090576171875e+01,-6.755458831787109375e+01,4.304190063476562500e+01,-1.364513397216796875e+01,-1.069188690185546875e+02,-1.220712738037109375e+02,6.350222396850585938e+01,-3.980433654785156250e+01
7.160000205039978027e-01,2.000000000000000000e+00,3.970840072631835938e+01,5.999217987060546875e+00,3.451703262329101562e+01,-1.161189804077148438e+02,9.121374511718750000e+01,-6.757946014404296875e+01,4.296953582763671875e+01,-1.363631534576416016e+01,-1.069335098266601562e+02,-1.221253280639648438e+02,6.349797439575195312e+01,-3.983451843261718750e+01
7.200000286102294922e-01,2.000000000000000000e+00,3.973681259155273438e+01,5.951521873474121094e+00,3.451184844970703125e+01,-1.161735382080078125e+02,9.121649932861328125e+01,-6.760431671142578125e+01,4.289717864990234375e+01,-1.362749767303466797e+01,-1.069481582641601562e+02,-1.221793823242187500e+02,6.349372482299804688e+01,-3.986469268798828125e+01
7.239999771118164062e-01,2.000000000000000000e+00,3.976522064208984375e+01,5.903827667236328125e+00,3.450665664672851562e+01,-1.162281036376953125e+02,9.121926116943359375e+01,-6.762918090820312500e+01,4.282482528686523438e+01,-1.361868095397949219e+01,-1.069627914428710938e+02,-1.222334365844726562e+02,6.348947906494140625e+01,-3.989486694335937500e+01
7.279999852180480957e-01,2.000000000000000000e+00,3.979362487792968750e+01,5.856136798858642578e+00,3.450146865844726562e+01,-1.162826461791992188e+02,9.122201538085937500e+01,-6.765404510498046875e+01,4.275247573852539062e+01,-1.360986518859863281e+01,-1.069774398803710938e+02,-1.222874755859375000e+02,6.348522949218750000e+01,-3.992503738403320312e+01
7.319999933242797852e-01,2.000000000000000000e+00,3.982203292846679688e+01,5.808448791503906250e+00,3.449628067016601562e+01,-1.163371963500976562e+02,9.122476959228515625e+01,-6.767890167236328125e+01,4.268013000488281250e+01,-1.360104846954345703e+01,-1.069920730590820312e+02,-1.223415145874023438e+02,6.348097991943359375e+01,-3.995520782470703125e+01
7.360000014305114746e-01,2.000000000000000000e+00,3.985043334960937500e+01,5.760764122009277344e+00,3.449109268188476562e+01,-1.163917388916015625e+02,9.122752380371093750e+01,-6.770375823974609375e+01,4.260779190063476562e+01,-1.359223365783691406e+01,-1.070067138671875000e+02,-1.223955535888671875e+02,6.347673797607421875e+01,-3.998537445068359375e+01
7.400000095367431641e-01,2.000000000000000000e+00,3.987883377075195312e+01,5.713082313537597656e+00,3.448590469360351562e+01,-1.164462814331054688e+02,9.123027801513671875e+01,-6.772861480712890625e+01,4.253545761108398438e+01,-1.358341884613037109e+01,-1.070213470458984375e+02,-1.224495849609375000e+02,6.347249221801757812e+01,-4.001554107666015625e+01
7.440000176429748535e-01,2.000000000000000000e+00,3.990723419189453125e+01,5.665403842926025391e+00,3.448071670532226562e+01,-1.165008316040039062e+02,9.123303985595703125e+01,-6.775347137451171875e+01,4.246312713623046875e+01,-1.357460403442382812e+01,-1.070359878540039062e+02,-1.225036239624023438e+02,6.346824264526367188e+01,-4.004570770263671875e+01
7.480000257492065430e-01,2.000000000000000000e+00,3.993563079833984375e+01,5.617727756500244141e+00,3.447552871704101562e+01,-1.165553665161132812e+02,9.123578643798828125e+01,-6.777832794189453125e+01,4.239080047607421875e+01,-1.356579017639160156e+01,-1.070506210327148438e+02,-1.225576477050781250e+02,6.346400070190429688e+01,-4.007587051391601562e+01
7.519999742507934570e-01,2.000000000000000000e+00,3.996402740478515625e+01,5.570055007934570312e+00,3.447034454345703125e+01,-1.166098937988281250e+02,9.123854064941406250e+01,-6.780316925048828125e+01,4.231848144531250000e+01,-1.355697727203369141e+01,-1.070652542114257812e+02,-1.226116790771484375e+02,6.345975112915039062e+01,-4.010602951049804688e+01
7.559999823570251465e-01,2.000000000000000000e+00,3.999242019653320312e+01,5.522385120391845703e+00,3.446516036987304688e+01,-1.166644287109375000e+02,9.124130249023437500e+01,-6.782801818847656250e+01,4.224616622924804688e+01,-1.354816436767578125e+01,-1.070798873901367188e+02,-1.226656875610351562e+02,6.345551300048828125e+01,-4.013618850708007812e+01
7.599999904632568359e-01,2.000000000000000000e+00,4.002081298828125000e+01,5.474718093872070312e+00,3.445997238159179688e+01,-1.167189483642578125e+02,9.124405670166015625e+01,-6.785287475585937500e+01,4.217385101318359375e+01,-1.353935241699218750e+01,-1.070945205688476562e+02,-1.227197189331054688e+02,6.345126342773437500e+01,-4.016634368896484375e+01
7.639999985694885254e-01,2.000000000000000000e+00,4.004920578002929688e+01,5.427053928375244141e+00,3.445478820800781250e+01,-1.167734680175781250e+02,9.124680328369140625e+01,-6.787771606445312500e+01,4.210154342651367188e+01,-1.353054046630859375e+01,-1.071091461181640625e+02,-1.227737274169921875e+02,6.344702148437500000e+01,-4.019649887084960938e+01
7.680000066757202148e-01,2.000000000000000000e+00,4.007759094238281250e+01,5.379393100738525391e+00,3.444960403442382812e+01,-1.168279953002929688e+02,9.124955749511718750e+01,-6.790256500244140625e+01,4.202924346923828125e+01,-1.352172946929931641e+01,-1.071237792968750000e+02,-1.228277435302734375e+02,6.344277191162109375e+01,-4.022665405273437500e+01
7.720000147819519043e-01,2.000000000000000000e+00,4.010597991943359375e+01,5.331735134124755859e+00,3.444441604614257812e+01,-1.168824996948242188e+02,9.125231933593750000e+01,-6.792740631103515625e+01,4.195693969726562500e+01,-1.351291942596435547e+01,-1.071384124755859375e+02,-1.228817443847656250e+02,6.343852996826171875e+01,-4.025680923461914062e+01
7.760000228881835938e-01,2.000000000000000000e+00,4.013436126708984375e+01,5.284080028533935547e+00,3.443923187255859375e+01,-1.169370193481445312e+02,9.125507354736328125e+01,-6.795224761962890625e+01,4.188464736938476562e+01,-1.350410938262939453e+01,-1.071530380249023438e+02,-1.229357604980468750e+02,6.343428421020507812e+01,-4.028695678710937500e+01
7.799999713897705078e-01,2.000000000000000000e+00,4.016274642944335938e+01,5.236427307128906250e+00,3.443404769897460938e+01,-1.169915237426757812e+02,9.125782012939453125e+01,-6.797708892822265625e+01,4.181235504150390625e+01,-1.349529933929443359e+01,-1.071676712036132812e+02,-1.229897537231445312e+02,6.343004226684570312e+01,-4.031710433959960938e+01
7.839999794960021973e-01,2.000000000000000000e+00,4.019112777709960938e+01,5.188777923583984375e+00,3.442886352539062500e+01,-1.170460281372070312e+02,9.126057434082031250e+01,-6.800193023681640625e+01,4.174007034301757812e+01,-1.348649120330810547e+01,-1.071822967529296875e+02,-1.230437545776367188e+02,6.342580032348632812e+01,-4.034724807739257812e+01
7.879999876022338867e-01,2.000000000000000000e+00,4.021950912475585938e+01,5.141130924224853516e+00,3.442367935180664062e+01,-1.171005325317382812e+02,9.126332855224609375e+01,-6.802677154541015625e+01,4.166778945922851562e+01,-1.347768306732177734e+01,-1.071969223022460938e+02,-1.230977554321289062e+02,6.342155838012695312e+01,-4.037739562988281250e+01
7.919999957084655762e-01,2.000000000000000000e+00,4.024788665771484375e+01,5.093486785888671875e+00,3.441849899291992188e+01,-1.171550369262695312e+02,9.126608276367187500e+01,-6.805160522460937500e+01,4.159551239013671875e+01,-1.346887493133544922e+01,-1.072115478515625000e+02,-1.231517410278320312e+02,6.341730880737304688e+01,-4.040753555297851562e+01
7.960000038146972656e-01,2.000000000000000000e+00,4.027626419067382812e+01,5.045845985412597656e+00,3.441331481933593750e+01,-1.172095336914062500e+02,9.126883697509765625e+01,-6.807643890380859375e+01,4.152323913574218750e+01,-1.346006774902343750e+01,-1.072261734008789062e+02,-1.232057266235351562e+02,6.341306686401367188e+01,-4.043767929077148438e+01
8.000000119209289551e-01,2.000000000000000000e+00,4.030463790893554688e+01,4.998208045959472656e+00,3.440813064575195312e+01,-1.172640228271484375e+02,9.127158355712890625e+01,-6.810127258300781250e+01,4.145096969604492188e+01,-1.345126056671142578e+01,-1.072407913208007812e+02,-1.232597122192382812e+02,6.340882873535156250e+01,-4.046781539916992188e+01
8.040000200271606445e-01,2.000000000000000000e+00,4.033301162719726562e+01,4.950572490692138672e+00,3.440295028686523438e+01,-1.173185119628906250e+02,9.127433776855468750e+01,-6.812610626220703125e+01,4.137870407104492188e+01,-1.344245433807373047e+01,-1.072554168701171875e+02,-1.233136978149414062e+02,6.340458679199218750e+01,-4.049795532226562500e+01
8.080000281333923340e-01,2.000000000000000000e+00,4.036138534545898438e+01,4.902939319610595703e+00,3.439776611328125000e+01,-1.173730010986328125e+02,9.127709197998046875e+01,-6.815093994140625000e+01,4.130644226074218750e+01,-1.343364906311035156e+01,-1.072700424194335938e+02,-1.233676834106445312e+02,6.340034484863281250e+01,-4.052808761596679688e+01
8.119999766349792480e-01,2.000000000000000000e+00,4.038975524902343750e+01,4.855309486389160156e+00,3.439258575439453125e+01,-1.174274826049804688e+02,9.127984619140625000e+01,-6.817576599121093750e+01,4.123418807983398438e+01,-1.342484378814697266e+01,-1.072846679687500000e+02,-1.234216537475585938e+02,6.339610290527343750e+01,-4.055821990966796875e+01
8.159999847412109375e-01,2.000000000000000000e+00,4.041812133789062500e+01,4.807682514190673828e+00,3.438740539550781250e+01,-1.174819564819335938e+02,9.128260040283203125e+01,-6.820059204101562500e+01,4.116193771362304688e+01,-1.341603851318359375e+01,-1.072992782592773438e+02,-1.234756317138671875e+02,6.339186096191406250e+01,-4.058835601806640625e+01
8.199999928474426270e-01,2.000000000000000000e+00,4.044648742675781250e+01,4.760057926177978516e+00,3.438222503662109375e+01,-1.175364379882812500e+02,9.128534698486328125e+01,-6.822541809082031250e+01,4.108968734741210938e+01,-1.340723419189453125e+01,-1.073139038085937500e+02,-1.235296020507812500e+02,6.338761901855468750e+01,-4.061848449707031250e+01
8.240000009536743164e-01,2.000000000000000000e+00,4.047485351562500000e+01,4.712436676025390625e+00,3.437704086303710938e+01,-1.175909118652343750e+02,9.128810119628906250e+01,-6.825024414062500000e+01,4.101744461059570312e+01,-1.339843082427978516e+01,-1.073285217285156250e+02,-1.235835571289062500e+02,6.338337707519531250e+01,-4.064861297607421875e+01
8.280000090599060059e-01,2.000000000000000000e+00,4.050321578979492188e+01,4.664817333221435547e+00,3.437186050415039062e+01,-1.176453781127929688e+02,9.129085540771484375e+01,-6.827507019042968750e+01,4.094520568847656250e+01,-1.338962745666503906e+01,-1.073431396484375000e+02,-1.236375350952148438e+02,6.337913513183593750e+01,-4.067873764038085938e+01
8.320000171661376953e-01,2.000000000000000000e+00,4.053157806396484375e+01,4.617201328277587891e+00,3.436668014526367188e+01,-1.176998596191406250e+02,9.129360198974609375e+01,-6.829988861083984375e+01,4.087297058105468750e+01,-1.338082504272460938e+01,-1.073577575683593750e+02,-1.236914901733398438e+02,6.337489318847656250e+01,-4.070886230468750000e+01
8.360000252723693848e-01,2.000000000000000000e+00,4.055993652343750000e+01,4.569587707519531250e+00,3.436149978637695312e+01,-1.177543182373046875e+02,9.129635620117187500e+01,-6.832471466064453125e+01,4.080073547363281250e+01,-1.337202262878417969e+01,-1.073723678588867188e+02,-1.237454452514648438e+02,6.337065124511718750e+01,-4.073898696899414062e+01
8.399999737739562988e-01,2.000000000000000000e+00,4.058829879760742188e+01,4.521976947784423828e+00,3.435631942749023438e+01,-1.178087692260742188e+02,9.129910278320312500e+01,-6.834953308105468750e+01,4.072851181030273438e+01,-1.336322116851806641e+01,-1.073869857788085938e+02,-1.237994079589843750e+02,6.336641311645507812e+01,-4.076910781860351562e+01
8.439999818801879883e-01,2.000000000000000000e+00,4.061665725708007812e+01,4.474368572235107422e+00,3.435114288330078125e+01,-1.178632354736328125e+02,9.130185699462890625e+01,-6.837434387207031250e+01,4.065628814697265625e+01,-1.335441970825195312e+01,-1.074015960693359375e+02,-1.238533554077148438e+02,6.336217117309570312e+01,-4.079922866821289062e+01
8.479999899864196777e-01,2.000000000000000000e+00,4.064501190185546875e+01,4.426763057708740234e+00,3.434596252441406250e+01,-1.179176864624023438e+02,9.130460357666015625e+01,-6.839916992187500000e+01,4.058406829833984375e+01,-1.334561824798583984e+01,-1.074162139892578125e+02,-1.239072952270507812e+02,6.335793685913085938e+01,-4.082934570312500000e+01
8.519999980926513672e-01,2.000000000000000000e+00,4.067336273193359375e+01,4.379159927368164062e+00,3.434078598022460938e+01,-1.179721450805664062e+02,9.130735778808593750e+01,-6.842398071289062500e+01,4.051185226440429688e+01,-1.333681774139404297e+01,-1.074308242797851562e+02,-1.239612579345703125e+02,6.335369491577148438e+01,-4.085946273803710938e+01
8.560000061988830566e-01,2.000000000000000000e+00,4.070171737670898438e+01,4.331560134887695312e+00,3.433560562133789062e+01,-1.180265960693359375e+02,9.131011199951171875e+01,-6.844879913330078125e+01,4.043964004516601562e+01,-1.332801818847656250e+01,-1.074454421997070312e+02,-1.240151824951171875e+02,6.334945297241210938e+01,-4.088957595825195312e+01
8.600000143051147461e-01,2.000000000000000000e+00,4.073006820678710938e+01,4.283962249755859375e+00,3.433042526245117188e+01,-1.180810394287109375e+02,9.131285095214843750e+01,-6.847360229492187500e+01,4.036743545532226562e+01,-1.331921863555908203e+01,-1.074600524902343750e+02,-1.240691299438476562e+02,6.334521865844726562e+01,-4.091969299316406250e+01
8.640000224113464355e-01,2.000000000000000000e+00,4.075841522216796875e+01,4.236367225646972656e+00,3.432524871826171875e+01,-1.181354827880859375e+02,9.131560516357421875e+01,-6.849842071533203125e+01,4.029523086547851562e+01,-1.331042003631591797e+01,-1.074746627807617188e+02,-1.241230621337890625e+02,6.334097671508789062e+01,-4.094980239868164062e+01
8.679999709129333496e-01,2.000000000000000000e+00,4.078676605224609375e+01,4.188774585723876953e+00,3.432007217407226562e+01,-1.181899261474609375e+02,9.131835937500000000e+01,-6.852322387695312500e+01,4.022303390502929688e+01,-1.330162239074707031e+01,-1.074892730712890625e+02,-1.241770095825195312e+02,6.333674240112304688e+01,-4.097991180419921875e+01
8.719999790191650391e-01,2.000000000000000000e+00,4.081510925292968750e+01,4.141184806823730469e+00,3.431489562988281250e+01,-1.182443618774414062e+02,9.132110595703125000e+01,-6.854803466796875000e+01,4.015083694458007812e+01,-1.329282379150390625e+01,-1.075038833618164062e+02,-1.242309417724609375e+02,6.333250045776367188e+01,-4.101002120971679688e+01
8.759999871253967285e-01,2.000000000000000000e+00,4.084345626831054688e+01,4.093596935272216797e+00,3.430971908569335938e+01,-1.182987976074218750e+02,9.132386016845703125e+01,-6.857283782958984375e+01,4.007864379882812500e+01,-1.328402614593505859e+01,-1.075184860229492188e+02,-1.242848587036132812e+02,6.332826614379882812e+01,-4.104012680053710938e+01
8.799999952316284180e-01,2.000000000000000000e+00,4.087179946899414062e+01,4.046012401580810547e+00,3.430453872680664062e+01,-1.183532333374023438e+02,9.132660675048828125e+01,-6.859764862060546875e+01,4.000645828247070312e+01,-1.327523040771484375e+01,-1.075330963134765625e+02,-1.243387832641601562e+02,6.332402420043945312e+01,-4.107023239135742188e+01
8.840000033378601074e-01,2.000000000000000000e+00,4.090013885498046875e+01,3.998430013656616211e+00,3.429936218261718750e+01,-1.184076538085937500e+02,9.132935333251953125e+01,-6.862245178222656250e+01,3.993427276611328125e+01,-1.326643276214599609e+01,-1.075476989746093750e+02,-1.243927078247070312e+02,6.331978988647460938e+01,-4.110033416748046875e+01
8.880000114440917969e-01,2.000000000000000000e+00,4.092848205566406250e+01,3.950850486755371094e+00,3.429418563842773438e+01,-1.184620819091796875e+02,9.133209991455078125e+01,-6.864725494384765625e+01,3.986209487915039062e+01,-1.325763702392578125e+01,-1.075623016357421875e+02,-1.244466247558593750e+02,6.331554794311523438e+01,-4.113043594360351562e+01
8.920000195503234863e-01,2.000000000000000000e+00,4.095682144165039062e+01,3.903273105621337891e+00,3.428901290893554688e+01,-1.185165023803710938e+02,9.133485412597656250e+01,-6.867205810546875000e+01,3.978991699218750000e+01,-1.324884128570556641e+01,-1.075769119262695312e+02,-1.245005416870117188e+02,6.331131362915039062e+01,-4.116053771972656250e+01
8.960000276565551758e-01,2.000000000000000000e+00,4.098515701293945312e+01,3.855698108673095703e+00,3.428383255004882812e+01,-1.185709228515625000e+02,9.133760070800781250e+01,-6.869685363769531250e+01,3.971774673461914062e+01,-1.324004650115966797e+01,-1.075915145874023438e+02,-1.245544586181640625e+02,6.330707931518554688e+01,-4.119063568115234375e+01
8.999999761581420898e-01,2.000000000000000000e+00,4.101349258422851562e+01,3.808125495910644531e+00,3.427865982055664062e+01,-1.186253509521484375e+02,9.134035491943359375e+01,-6.872165679931640625e+01,3.964557266235351562e+01,-1.323125267028808594e+01,-1.076061172485351562e+02,-1.246083755493164062e+02,6.330284118652343750e+01,-4.122072982788085938e+01
9.039999842643737793e-01,2.000000000000000000e+00,4.104182815551757812e+01,3.760555267333984375e+00,3.427348327636718750e+01,-1.186797561645507812e+02,9.134310150146484375e+01,-6.874645233154296875e+01,3.957341003417968750e+01,-1.322245788574218750e+01,-1.076207275390625000e+02,-1.246622772216796875e+02,6.329860305786132812e+01,-4.125082778930664062e+01
9.079999923706054688e-01,2.000000000000000000e+00,4.107015991210937500e+01,3.712987422943115234e+00,3.426831054687500000e+01,-1.187341690063476562e+02,9.134584808349609375e+01,-6.877124786376953125e+01,3.950124740600585938e+01,-1.321366405487060547e+01,-1.076353302001953125e+02,-1.247161788940429688e+02,6.329436492919921875e+01,-4.128092193603515625e+01
9.120000004768371582e-01,2.000000000000000000e+00,4.109849166870117188e+01,3.665421962738037109e+00,3.426313400268554688e+01,-1.187885742187500000e+02,9.134859466552734375e+01,-6.879605102539062500e+01,3.942909240722656250e+01,-1.320487117767333984e+01,-1.076499252319335938e+02,-1.247700881958007812e+02,6.329013061523437500e+01,-4.131101608276367188e+01
9.160000085830688477e-01,2.000000000000000000e+00,4.112682342529296875e+01,3.617858648300170898e+00,3.425795745849609375e+01,-1.188429870605468750e+02,9.135134124755859375e+01,-6.882084655761718750e+01,3.935693740844726562e+01,-1.319607830047607422e+01,-1.076645278930664062e+02,-1.248239898681640625e+02,6.328589630126953125e+01,-4.134110641479492188e+01
9.200000166893005371e-01,2.000000000000000000e+00,4.115515136718750000e+01,3.570297718048095703e+00,3.425278472900390625e+01,-1.188973922729492188e+02,9.135409545898437500e+01,-6.884563446044921875e+01,3.928478622436523438e+01,-1.318728637695312500e+01,-1.076791229248046875e+02,-1.248778762817382812e+02,6.328166198730468750e+01,-4.137119293212890625e+01
9.240000247955322266e-01,2.000000000000000000e+00,4.118347930908203125e+01,3.522738933563232422e+00,3.424761199951171875e+01,-1.189517898559570312e+02,9.135684204101562500e+01,-6.887042236328125000e+01,3.921263504028320312e+01,-1.317849445343017578e+01,-1.076937255859375000e+02,-1.249317855834960938e+02,6.327742767333984375e+01,-4.140128326416015625e+01
9.279999732971191406e-01,2.000000000000000000e+00,4.121180725097656250e+01,3.475182294845581055e+00,3.424243545532226562e+01,-1.190061874389648438e+02,9.135958862304687500e+01,-6.889521789550781250e+01,3.914049148559570312e+01,-1.316970252990722656e+01,-1.077083206176757812e+02,-1.249856719970703125e+02,6.327319335937500000e+01,-4.143136978149414062e+01
9.319999814033508301e-01,2.000000000000000000e+00,4.124013137817382812e+01,3.427628040313720703e+00,3.423726272583007812e+01,-1.190605773925781250e+02,9.136234283447265625e+01,-6.892000579833984375e+01,3.906835174560546875e+01,-1.316091156005859375e+01,-1.077229156494140625e+02,-1.250395660400390625e+02,6.326895904541015625e+01,-4.146145629882812500e+01
9.359999895095825195e-01,2.000000000000000000e+00,4.126845932006835938e+01,3.380075693130493164e+00,3.423209381103515625e+01,-1.191149749755859375e+02,9.136508178710937500e+01,-6.894480133056640625e+01,3.899621582031250000e+01,-1.315212059020996094e+01,-1.077375183105468750e+02,-1.250934371948242188e+02,6.326472473144531250e+01,-4.149153900146484375e+01
9.399999976158142090e-01,2.000000000000000000e+00,4.129677963256835938e+01,3.332525491714477539e+00,3.422691726684570312e+01,-1.191693725585937500e+02,9.136782836914062500e+01,-6.896958160400390625e+01,3.892407608032226562e+01,-1.314332962036132812e+01,-1.077521133422851562e+02,-1.251473312377929688e+02,6.326049041748046875e+01,-4.152162170410156250e+01
9.440000057220458984e-01,2.000000000000000000e+00,4.132509994506835938e+01,3.284977674484252930e+00,3.422174453735351562e+01,-1.192237548828125000e+02,9.137058258056640625e+01,-6.899436950683593750e+01,3.885194778442382812e+01,-1.313454055786132812e+01,-1.077667160034179688e+02,-1.252012176513671875e+02,6.325625228881835938e+01,-4.155170440673828125e+01
9.480000138282775879e-01,2.000000000000000000e+00,4.135342025756835938e+01,3.237431526184082031e+00,3.421657562255859375e+01,-1.192781524658203125e+02,9.137332916259765625e+01,-6.901914978027343750e+01,3.877981567382812500e+01,-1.312575054168701172e+01,-1.077813034057617188e+02,-1.252550964355468750e+02,6.325201797485351562e+01,-4.158178710937500000e+01
9.520000219345092773e-01,2.000000000000000000e+00,4.138174057006835938e+01,3.189888000488281250e+00,3.421139907836914062e+01,-1.193325347900390625e+02,9.137607574462890625e+01,-6.904393768310546875e+01,3.870769500732421875e+01,-1.311696052551269531e+01,-1.077958984375000000e+02,-1.253089752197265625e+02,6.324778366088867188e+01,-4.161186218261718750e+01
9.559999704360961914e-01,2.000000000000000000e+00,4.141005706787109375e+01,3.142345905303955078e+00,3.420622634887695312e+01,-1.193869094848632812e+02,9.137882232666015625e+01,-6.906871795654296875e+01,3.863557052612304688e+01,-1.310817241668701172e+01,-1.078104934692382812e+02,-1.253628540039062500e+02,6.324354934692382812e+01,-4.164194107055664062e+01
9.599999785423278809e-01,2.000000000000000000e+00,4.143837738037109375e+01,3.094806432723999023e+00,3.420105743408203125e+01,-1.194412918090820312e+02,9.138156890869140625e+01,-6.909350585937500000e+01,3.856344985961914062e+01,-1.309938335418701172e+01,-1.078250885009765625e+02,-1.254167251586914062e+02,6.323931503295898438e+01,-4.167201995849609375e+01
9.639999866485595703e-01,2.000000000000000000e+00,4.146669006347656250e+01,3.047268390655517578e+00,3.419588470458984375e+01,-1.194956741333007812e+02,9.138431549072265625e+01,-6.911828613281250000e+01,3.849133300781250000e+01,-1.309059429168701172e+01,-1.078396759033203125e+02,-1.254706039428710938e+02,6.323508071899414062e+01,-4.170209121704101562e+01
9.679999947547912598e-01,2.000000000000000000e+00,4.149500656127929688e+01,2.999732494354248047e+00,3.419071197509765625e+01,-1.195500488281250000e+02,9.138706207275390625e+01,-6.914306640625000000e+01,3.841921997070312500e+01,-1.308180713653564453e+01,-1.078542785644531250e+02,-1.255244674682617188e+02,6.323084640502929688e+01,-4.173216629028320312e+01
9.720000028610229492e-01,2.000000000000000000e+00,4.152331542968750000e+01,2.952198505401611328e+00,3.418554306030273438e+01,-1.196044311523437500e+02,9.138980865478515625e+01,-6.916784667968750000e+01,3.834711074829101562e+01,-1.307301998138427734e+01,-1.078688659667968750e+02,-1.255783309936523438e+02,6.322661972045898438e+01,-4.176223754882812500e+01
9.760000109672546387e-01,2.000000000000000000e+00,4.155162811279296875e+01,2.904666423797607422e+00,3.418037033081054688e+01,-1.196587982177734375e+02,9.139255523681640625e+01,-6.919262695312500000e+01,3.827500152587890625e+01,-1.306423187255859375e+01,-1.078834533691406250e+02,-1.256322097778320312e+02,6.322238159179687500e+01,-4.179231262207031250e+01
9.800000190734863281e-01,2.000000000000000000e+00,4.157993698120117188e+01,2.857136249542236328e+00,3.417520141601562500e+01,-1.197131652832031250e+02,9.139530181884765625e+01,-6.921739959716796875e+01,3.820289611816406250e+01,-1.305544567108154297e+01,-1.078980407714843750e+02,-1.256860656738281250e+02,6.321814727783203125e+01,-4.182238388061523438e+01
9.840000271797180176e-01,2.000000000000000000e+00,4.160824966430664062e+01,2.809607982635498047e+00,3.417002868652343750e+01,-1.197675323486328125e+02,9.139804840087890625e+01,-6.924217987060546875e+01,3.813079452514648438e+01,-1.304665851593017578e+01,-1.079126358032226562e+02,-1.257399291992187500e+02,6.321392059326171875e+01,-4.185245132446289062e+01
9.879999756813049316e-01,2.000000000000000000e+00,4.163655853271484375e+01,2.762081623077392578e+00,3.416485977172851562e+01,-1.198218841552734375e+02,9.140079498291015625e+01,-6.926695251464843750e+01,3.805869674682617188e+01,-1.303787231445312500e+01,-1.079272232055664062e+02,-1.257937774658203125e+02,6.320968627929687500e+01,-4.188251876831054688e+01
9.919999837875366211e-01,2.000000000000000000e+00,4.166486358642578125e+01,2.714557170867919922e+00,3.415968704223632812e+01,-1.198762588500976562e+02,9.140354156494140625e+01,-6.929172515869140625e+01,3.798659896850585938e+01,-1.302908706665039062e+01,-1.079418106079101562e+02,-1.258476409912109375e+02,6.320545196533203125e+01,-4.191258621215820312e+01
9.959999918937683105e-01,2.000000000000000000e+00,4.169316864013671875e+01,2.667034626007080078e+00,3.415451812744140625e+01,-1.199306106567382812e+02,9.140628814697265625e+01,-6.931649780273437500e+01,3.791450500488281250e+01,-1.302030181884765625e+01,-1.079563980102539062e+02,-1.259014968872070312e+02,6.320122146606445312e+01,-4.194265365600585938e+01
1.000000000000000000e+00,2.000000000000000000e+00,4.172147750854492188e+01,2.619513750076293945e+00,3.414934921264648438e+01,-1.199849777221679688e+02,9.140902709960937500e+01,-6.934127044677734375e+01,3.784241485595703125e+01,-1.301151657104492188e+01,-1.079709930419921875e+02,-1.259553451538085938e+02,6.319698715209960938e+01,-4.197271728515625000e+01
1.003999948501586914e+00,2.000000000000000000e+00,4.174977874755859375e+01,2.571994781494140625e+00,3.414417648315429688e+01,-1.200393295288085938e+02,9.141177368164062500e+01,-6.936604309082031250e+01,3.777032852172851562e+01,-1.300273132324218750e+01,-1.079855804443359375e+02,-1.260092086791992188e+02,6.319275283813476562e+01,-4.200278091430664062e+01
1.008000016212463379e+00,2.000000000000000000e+00,4.177808380126953125e+01,2.524477720260620117e+00,3.413900756835937500e+01,-1.200936889648437500e+02,9.141452026367187500e+01,-6.939081573486328125e+01,3.769824218750000000e+01,-1.299394798278808594e+01,-1.080001602172851562e+02,-1.260630569458007812e+02,6.318852615356445312e+01,-4.203284072875976562e+01
1.011999964714050293e+00,2.000000000000000000e+00,4.180638122558593750e+01,2.476962327957153320e+00,3.413383865356445312e+01,-1.201480407714843750e+02,9.141726684570312500e+01,-6.941558074951171875e+01,3.762615966796875000e+01,-1.298516273498535156e+01,-1.080147476196289062e+02,-1.261168899536132812e+02,6.318429183959960938e+01,-4.206290435791015625e+01
1.016000032424926758e+00,2.000000000000000000e+00,4.183468246459960938e+01,2.429448843002319336e+00,3.412866973876953125e+01,-1.202023849487304688e+02,9.142001342773437500e+01,-6.944034576416015625e+01,3.755408096313476562e+01,-1.297637939453125000e+01,-1.080293350219726562e+02,-1.261707382202148438e+02,6.318006515502929688e+01,-4.209296417236328125e+01
1.019999980926513672e+00,2.000000000000000000e+00,4.186298370361328125e+01,2.381937265396118164e+00,3.412350082397460938e+01,-1.202567367553710938e+02,9.142276000976562500e+01,-6.946511840820312500e+01,3.748200225830078125e+01,-1.296759605407714844e+01,-1.080439224243164062e+02,-1.262245712280273438e+02,6.317582702636718750e+01,-4.212302398681640625e+01
1.024000048637390137e+00,2.000000000000000000e+00,4.189128112792968750e+01,2.334427356719970703e+00,3.411833190917968750e+01,-1.203110809326171875e+02,9.142550659179687500e+01,-6.948989105224609375e+01,3.740993118286132812e+01,-1.295881271362304688e+01,-1.080585021972656250e+02,-1.262784271240234375e+02,6.317160034179687500e+01,-4.215307998657226562e+01
1.026999950408935547e+00,2.000000000000000000e+00,4.191957855224609375e+01,2.286919116973876953e+00,3.411316680908203125e+01,-1.203654174804687500e+02,9.142825317382812500e+01,-6.951464843750000000e+01,3.733785629272460938e+01,-1.295003032684326172e+01,-1.080730895996093750e+02,-1.263322601318359375e+02,6.316737365722656250e+01,-4.218313598632812500e+01
1.031999945640563965e+00,2.000000000000000000e+00,4.194787597656250000e+01,2.239412784576416016e+00,3.410799407958984375e+01,-1.204197769165039062e+02,9.143099975585937500e+01,-6.953941345214843750e+01,3.726578903198242188e+01,-1.294124794006347656e+01,-1.080876693725585938e+02,-1.263860931396484375e+02,6.316313934326171875e+01,-4.221319198608398438e+01
1.036000013351440430e+00,2.000000000000000000e+00,4.197616958618164062e+01,2.191908359527587891e+00,3.410282897949218750e+01,-1.204740982055664062e+02,9.143373870849609375e+01,-6.956417846679687500e+01,3.719372558593750000e+01,-1.293246555328369141e+01,-1.081022491455078125e+02,-1.264399337768554688e+02,6.315890884399414062e+01,-4.224324417114257812e+01
1.039999961853027344e+00,2.000000000000000000e+00,4.200446701049804688e+01,2.144405364990234375e+00,3.409766006469726562e+01,-1.205284423828125000e+02,9.143647766113281250e+01,-6.958893585205078125e+01,3.712165832519531250e+01,-1.292368412017822266e+01,-1.081168365478515625e+02,-1.264937667846679688e+02,6.315467453002929688e+01,-4.227330017089843750e+01
1.044000029563903809e+00,2.000000000000000000e+00,4.203276062011718750e+01,2.096904277801513672e+00,3.409249114990234375e+01,-1.205827865600585938e+02,9.143922424316406250e+01,-6.961370849609375000e+01,3.704959869384765625e+01,-1.291490173339843750e+01,-1.081314163208007812e+02,-1.265475845336914062e+02,6.315044784545898438e+01,-4.230335235595703125e+01
1.047999978065490723e+00,2.000000000000000000e+00,4.206105422973632812e+01,2.049404859542846680e+00,3.408732223510742188e+01,-1.206371078491210938e+02,9.144197082519531250e+01,-6.963846588134765625e+01,3.697754287719726562e+01,-1.290612030029296875e+01,-1.081459960937500000e+02,-1.266014251708984375e+02,6.314622116088867188e+01,-4.233340454101562500e+01
1.052000045776367188e+00,2.000000000000000000e+00,4.208934402465820312e+01,2.001907110214233398e+00,3.408215713500976562e+01,-1.206914520263671875e+02,9.144471740722656250e+01,-6.966322326660156250e+01,3.690548706054687500e+01,-1.289734077453613281e+01,-1.081605834960937500e+02,-1.266552429199218750e+02,6.314198684692382812e+01,-4.236345291137695312e+01
1.054999947547912598e+00,2.000000000000000000e+00,4.211763381958007812e+01,1.954411268234252930e+00,3.407698822021484375e+01,-1.207457809448242188e+02,9.144746398925781250e+01,-6.968798065185546875e+01,3.683343124389648438e+01,-1.288855934143066406e+01,-1.081751556396484375e+02,-1.267090682983398438e+02,6.313775634765625000e+01,-4.239350128173828125e+01
1.059999942779541016e+00,2.000000000000000000e+00,4.214592361450195312e+01,1.906916856765747070e+00,3.407182312011718750e+01,-1.208001098632812500e+02,9.145021057128906250e+01,-6.971274566650390625e+01,3.676138305664062500e+01,-1.287977886199951172e+01,-1.081897430419921875e+02,-1.267628860473632812e+02,6.313352966308593750e+01,-4.242354965209960938e+01
1.064000010490417480e+00,2.000000000000000000e+00,4.217421340942382812e+01,1.859424233436584473e+00,3.406665420532226562e+01,-1.208544311523437500e+02,9.145294952392578125e+01,-6.973750305175781250e+01,3.668933486938476562e+01,-1.287099933624267578e+01,-1.082043151855468750e+02,-1.268167114257812500e+02,6.312930297851562500e+01,-4.245359420776367188e+01
1.067999958992004395e+00,2.000000000000000000e+00,4.220249938964843750e+01,1.811933279037475586e+00,3.406148910522460938e+01,-1.209087600708007812e+02,9.145569610595703125e+01,-6.976225280761718750e+01,3.661728668212890625e+01,-1.286221981048583984e+01,-1.082188949584960938e+02,-1.268705368041992188e+02,6.312506484985351562e+01,-4.248363876342773438e+01
1.072000026702880859e+00,2.000000000000000000e+00,4.223078536987304688e+01,1.764443993568420410e+00,3.405632019042968750e+01,-1.209630737304687500e+02,9.145844268798828125e+01,-6.978701782226562500e+01,3.654524612426757812e+01,-1.285344028472900391e+01,-1.082334747314453125e+02,-1.269243545532226562e+02,6.312083816528320312e+01,-4.251368713378906250e+01
1.075999975204467773e+00,2.000000000000000000e+00,4.225907135009765625e+01,1.716956377029418945e+00,3.405115890502929688e+01,-1.210174026489257812e+02,9.146118927001953125e+01,-6.981176757812500000e+01,3.647320556640625000e+01,-1.284466171264648438e+01,-1.082480468750000000e+02,-1.269781646728515625e+02,6.311661148071289062e+01,-4.254372787475585938e+01
1.080000042915344238e+00,2.000000000000000000e+00,4.228735351562500000e+01,1.669470310211181641e+00,3.404598999023437500e+01,-1.210717163085937500e+02,9.146392822265625000e+01,-6.983651733398437500e+01,3.640116500854492188e+01,-1.283588218688964844e+01,-1.082626342773437500e+02,-1.270319824218750000e+02,6.311238479614257812e+01,-4.257377243041992188e+01
1.083999991416931152e+00,2.000000000000000000e+00,4.231563949584960938e+01,1.621985793113708496e+00,3.404082489013671875e+01,-1.211260299682617188e+02,9.146666717529296875e+01,-6.986128234863281250e+01,3.632913208007812500e+01,-1.282710456848144531e+01,-1.082772064208984375e+02,-1.270857925415039062e+02,6.310815429687500000e+01,-4.260381317138671875e+01
1.088000059127807617e+00,2.000000000000000000e+00,4.234391784667968750e+01,1.574503064155578613e+00,3.403565979003906250e+01,-1.211803436279296875e+02,9.146941375732421875e+01,-6.988603210449218750e+01,3.625709915161132812e+01,-1.281832599639892578e+01,-1.082917861938476562e+02,-1.271396026611328125e+02,6.310392761230468750e+01,-4.263385391235351562e+01
1.090999960899353027e+00,2.000000000000000000e+00,4.237220382690429688e+01,1.527021884918212891e+00,3.403049087524414062e+01,-1.212346572875976562e+02,9.147215270996093750e+01,-6.991077423095703125e+01,3.618507003784179688e+01,-1.280954837799072266e+01,-1.083063583374023438e+02,-1.271934127807617188e+02,6.309970092773437500e+01,-4.266389083862304688e+01
1.095999956130981445e+00,2.000000000000000000e+00,4.240048217773437500e+01,1.479542255401611328e+00,3.402532577514648438e+01,-1.212889709472656250e+02,9.147489929199218750e+01,-6.993553161621093750e+01,3.611304092407226562e+01,-1.280077075958251953e+01,-1.083209381103515625e+02,-1.272472152709960938e+02,6.309547042846679688e+01,-4.269393157958984375e+01
1.100000023841857910e+00,2.000000000000000000e+00,4.242876434326171875e+01,1.432064175605773926e+00,3.402016067504882812e+01,-1.213432846069335938e+02,9.147764587402343750e+01,-6.996028137207031250e+01,3.604101181030273438e+01,-1.279199409484863281e+01,-1.083355026245117188e+02,-1.273010101318359375e+02,6.309124374389648438e+01,-4.272397232055664062e+01
1.103999972343444824e+00,2.000000000000000000e+00,4.245703887939453125e+01,1.384587764739990234e+00,3.401499938964843750e+01,-1.213975982666015625e+02,9.148038482666015625e+01,-6.998503112792968750e+01,3.596899032592773438e+01,-1.278321647644042969e+01,-1.083500823974609375e+02,-1.273548202514648438e+02,6.308701705932617188e+01,-4.275400543212890625e+01
1.108000040054321289e+00,2.000000000000000000e+00,4.248531723022460938e+01,1.337112903594970703e+00,3.400983047485351562e+01,-1.214518966674804688e+02,9.148313140869140625e+01,-7.000978088378906250e+01,3.589696884155273438e+01,-1.277444076538085938e+01,-1.083646545410156250e+02,-1.274086303710937500e+02,6.308278656005859375e+01,-4.278404235839843750e+01
1.111999988555908203e+00,2.000000000000000000e+00,4.251359558105468750e+01,1.289639592170715332e+00,3.400466918945312500e+01,-1.215061950683593750e+02,9.148587799072265625e+01,-7.003453063964843750e+01,3.582495117187500000e+01,-1.276566410064697266e+01,-1.083792266845703125e+02,-1.274624252319335938e+02,6.307855987548828125e+01,-4.281407928466796875e+01
