rpiRobotics/ARM-21-02-F-19-Robot-Motion-Program/data_performance_abb/curve_2/dual_arm/diffevo_pose6_3/30L/grad_result/sim/dual_iteration_2.csv
timestamp,cmd_num,J1,J2,J3,J4,J5,J6,J1_2,J2_2,J3_2,J4_2,J5_2,J6_2
0.000000000000000000e+00,-1.000000000000000000e+00,3.544704055786132812e+01,1.218412494659423828e+01,3.614878845214843750e+01,-1.090350799560546875e+02,9.072865295410156250e+01,-6.406788635253906250e+01,5.233615875244140625e+01,-1.255646800994873047e+01,-1.092361831665039062e+02,-1.122981338500976562e+02,6.382033920288085938e+01,-3.782605743408203125e+01
2.000000094994902611e-03,-1.000000000000000000e+00,3.544704055786132812e+01,1.218412494659423828e+01,3.614878845214843750e+01,-1.090350799560546875e+02,9.072865295410156250e+01,-6.406788635253906250e+01,5.233615875244140625e+01,-1.255646800994873047e+01,-1.092361831665039062e+02,-1.122981338500976562e+02,6.382033920288085938e+01,-3.782605743408203125e+01
4.000000189989805222e-03,-1.000000000000000000e+00,3.544704055786132812e+01,1.218412494659423828e+01,3.614878845214843750e+01,-1.090350799560546875e+02,9.072865295410156250e+01,-6.406788635253906250e+01,5.233615875244140625e+01,-1.255646800994873047e+01,-1.092361831665039062e+02,-1.122981338500976562e+02,6.382033920288085938e+01,-3.782605743408203125e+01
9.999999776482582092e-03,-1.000000000000000000e+00,3.544704055786132812e+01,1.218412494659423828e+01,3.614878845214843750e+01,-1.090350799560546875e+02,9.072865295410156250e+01,-6.406788635253906250e+01,5.233615875244140625e+01,-1.255646800994873047e+01,-1.092361831665039062e+02,-1.122981338500976562e+02,6.382033920288085938e+01,-3.782605743408203125e+01
1.200000010430812836e-02,-1.000000000000000000e+00,3.544704055786132812e+01,1.218412494659423828e+01,3.614878845214843750e+01,-1.090350799560546875e+02,9.072865295410156250e+01,-6.406788635253906250e+01,5.233615875244140625e+01,-1.255646800994873047e+01,-1.092361831665039062e+02,-1.122981338500976562e+02,6.382033920288085938e+01,-3.782605743408203125e+01
1.600000075995922089e-02,-1.000000000000000000e+00,3.544704055786132812e+01,1.218412494659423828e+01,3.614878845214843750e+01,-1.090350799560546875e+02,9.072865295410156250e+01,-6.406788635253906250e+01,5.233615875244140625e+01,-1.255646800994873047e+01,-1.092361831665039062e+02,-1.122981338500976562e+02,6.382033920288085938e+01,-3.782605743408203125e+01
1.999999955296516418e-02,-1.000000000000000000e+00,3.544704055786132812e+01,1.218412494659423828e+01,3.614878845214843750e+01,-1.090350799560546875e+02,9.072865295410156250e+01,-6.406788635253906250e+01,5.233615875244140625e+01,-1.255646800994873047e+01,-1.092361831665039062e+02,-1.122981338500976562e+02,6.382033920288085938e+01,-3.782605743408203125e+01
2.400000020861625671e-02,-1.000000000000000000e+00,3.544704055786132812e+01,1.218412494659423828e+01,3.614878845214843750e+01,-1.090350799560546875e+02,9.072865295410156250e+01,-6.406788635253906250e+01,5.233615875244140625e+01,-1.255646800994873047e+01,-1.092361831665039062e+02,-1.122981338500976562e+02,6.382033920288085938e+01,-3.782605743408203125e+01
2.899999916553497314e-02,2.000000000000000000e+00,3.544704055786132812e+01,1.218412494659423828e+01,3.614878845214843750e+01,-1.090350799560546875e+02,9.072865295410156250e+01,-6.406788635253906250e+01,5.233615875244140625e+01,-1.255646800994873047e+01,-1.092361831665039062e+02,-1.122981338500976562e+02,6.382033920288085938e+01,-3.782605743408203125e+01
3.500000014901161194e-02,2.000000000000000000e+00,3.544704055786132812e+01,1.218412494659423828e+01,3.614878845214843750e+01,-1.090350799560546875e+02,9.072865295410156250e+01,-6.406788635253906250e+01,5.233615875244140625e+01,-1.255646800994873047e+01,-1.092361831665039062e+02,-1.122981338500976562e+02,6.382033920288085938e+01,-3.782605743408203125e+01
3.900000080466270447e-02,2.000000000000000000e+00,3.544704055786132812e+01,1.218412494659423828e+01,3.614878845214843750e+01,-1.090350799560546875e+02,9.072865295410156250e+01,-6.406788635253906250e+01,5.233615875244140625e+01,-1.255646800994873047e+01,-1.092361831665039062e+02,-1.122981338500976562e+02,6.382033920288085938e+01,-3.782605743408203125e+01
4.100000113248825073e-02,2.000000000000000000e+00,3.544704055786132812e+01,1.218412494659423828e+01,3.614878845214843750e+01,-1.090350799560546875e+02,9.072865295410156250e+01,-6.406788635253906250e+01,5.233615875244140625e+01,-1.255646800994873047e+01,-1.092361831665039062e+02,-1.122981338500976562e+02,6.382033920288085938e+01,-3.782605743408203125e+01
4.600000008940696716e-02,2.000000000000000000e+00,3.544704055786132812e+01,1.218412494659423828e+01,3.614878845214843750e+01,-1.090350799560546875e+02,9.072865295410156250e+01,-6.406788635253906250e+01,5.233615875244140625e+01,-1.255646800994873047e+01,-1.092361831665039062e+02,-1.122981338500976562e+02,6.382033920288085938e+01,-3.782605743408203125e+01
4.800000041723251343e-02,2.000000000000000000e+00,3.544704055786132812e+01,1.218412494659423828e+01,3.614878845214843750e+01,-1.090350799560546875e+02,9.072865295410156250e+01,-6.406788635253906250e+01,5.233615875244140625e+01,-1.255646800994873047e+01,-1.092361831665039062e+02,-1.122981338500976562e+02,6.382033920288085938e+01,-3.782605743408203125e+01
5.200000107288360596e-02,2.000000000000000000e+00,3.544704055786132812e+01,1.218412494659423828e+01,3.614878845214843750e+01,-1.090350799560546875e+02,9.072865295410156250e+01,-6.406788635253906250e+01,5.233615875244140625e+01,-1.255646800994873047e+01,-1.092361831665039062e+02,-1.122981338500976562e+02,6.382033920288085938e+01,-3.782605743408203125e+01
5.600000172853469849e-02,2.000000000000000000e+00,3.544704055786132812e+01,1.218412494659423828e+01,3.614878845214843750e+01,-1.090350799560546875e+02,9.072865295410156250e+01,-6.406788635253906250e+01,5.233615875244140625e+01,-1.255646800994873047e+01,-1.092361831665039062e+02,-1.122981338500976562e+02,6.382033920288085938e+01,-3.782605743408203125e+01
5.999999865889549255e-02,2.000000000000000000e+00,3.544704055786132812e+01,1.218412494659423828e+01,3.614878845214843750e+01,-1.090350799560546875e+02,9.072865295410156250e+01,-6.406788635253906250e+01,5.233615875244140625e+01,-1.255646800994873047e+01,-1.092361831665039062e+02,-1.122981338500976562e+02,6.382033920288085938e+01,-3.782605743408203125e+01
6.400000303983688354e-02,2.000000000000000000e+00,3.544704055786132812e+01,1.218412494659423828e+01,3.614878845214843750e+01,-1.090350799560546875e+02,9.072865295410156250e+01,-6.406788635253906250e+01,5.233615875244140625e+01,-1.255646800994873047e+01,-1.092361831665039062e+02,-1.122981338500976562e+02,6.382033920288085938e+01,-3.782605743408203125e+01
6.800000369548797607e-02,2.000000000000000000e+00,3.544704055786132812e+01,1.218412494659423828e+01,3.614878845214843750e+01,-1.090350799560546875e+02,9.072865295410156250e+01,-6.406788635253906250e+01,5.233615875244140625e+01,-1.255646800994873047e+01,-1.092361831665039062e+02,-1.122981338500976562e+02,6.382033920288085938e+01,-3.782605743408203125e+01
7.199999690055847168e-02,2.000000000000000000e+00,3.544707107543945312e+01,1.218410110473632812e+01,3.614878845214843750e+01,-1.090350799560546875e+02,9.072865295410156250e+01,-6.406788635253906250e+01,5.233615875244140625e+01,-1.255646800994873047e+01,-1.092361831665039062e+02,-1.122981338500976562e+02,6.382033920288085938e+01,-3.782605743408203125e+01
7.599999755620956421e-02,2.000000000000000000e+00,3.544725418090820312e+01,1.218395519256591797e+01,3.614879226684570312e+01,-1.090350952148437500e+02,9.072866058349609375e+01,-6.406788635253906250e+01,5.233615875244140625e+01,-1.255646800994873047e+01,-1.092361831665039062e+02,-1.122981338500976562e+02,6.382033920288085938e+01,-3.782605743408203125e+01
7.999999821186065674e-02,2.000000000000000000e+00,3.544779205322265625e+01,1.218350410461425781e+01,3.614880371093750000e+01,-1.090351257324218750e+02,9.072867584228515625e+01,-6.406790161132812500e+01,5.233615875244140625e+01,-1.255646800994873047e+01,-1.092361831665039062e+02,-1.122981338500976562e+02,6.382033920288085938e+01,-3.782605743408203125e+01
8.399999886751174927e-02,2.000000000000000000e+00,3.544886779785156250e+01,1.218253898620605469e+01,3.614881896972656250e+01,-1.090352249145507812e+02,9.072871398925781250e+01,-6.406793212890625000e+01,5.233612823486328125e+01,-1.255647182464599609e+01,-1.092361831665039062e+02,-1.122981338500976562e+02,6.382033920288085938e+01,-3.782605743408203125e+01
8.799999952316284180e-02,2.000000000000000000e+00,3.545056533813476562e+01,1.218089580535888672e+01,3.614883804321289062e+01,-1.090354614257812500e+02,9.072877502441406250e+01,-6.406801605224609375e+01,5.233592224121093750e+01,-1.255649280548095703e+01,-1.092361373901367188e+02,-1.122981491088867188e+02,6.382033920288085938e+01,-3.782606124877929688e+01
9.200000017881393433e-02,2.000000000000000000e+00,3.545291137695312500e+01,1.217844772338867188e+01,3.614884948730468750e+01,-1.090359497070312500e+02,9.072888183593750000e+01,-6.406821441650390625e+01,5.233525466918945312e+01,-1.255656051635742188e+01,-1.092359924316406250e+02,-1.122982101440429688e+02,6.382032394409179688e+01,-3.782608413696289062e+01
9.600000083446502686e-02,2.000000000000000000e+00,3.545592498779296875e+01,1.217506217956542969e+01,3.614882659912109375e+01,-1.090368194580078125e+02,9.072902679443359375e+01,-6.406857299804687500e+01,5.233373641967773438e+01,-1.255669975280761719e+01,-1.092356948852539062e+02,-1.122983932495117188e+02,6.382028961181640625e+01,-3.782615661621093750e+01
1.000000014901161194e-01,2.000000000000000000e+00,3.545963287353515625e+01,1.217057991027832031e+01,3.614875793457031250e+01,-1.090382919311523438e+02,9.072921752929687500e+01,-6.406920623779296875e+01,5.233101654052734375e+01,-1.255692005157470703e+01,-1.092352066040039062e+02,-1.122988662719726562e+02,6.382022857666015625e+01,-3.782635116577148438e+01
1.040000021457672119e-01,2.000000000000000000e+00,3.546406173706054688e+01,1.216480636596679688e+01,3.614861679077148438e+01,-1.090405731201171875e+02,9.072947692871093750e+01,-6.407019805908203125e+01,5.232673645019531250e+01,-1.255720520019531250e+01,-1.092345581054687500e+02,-1.122998504638671875e+02,6.382012176513671875e+01,-3.782676696777343750e+01
1.080000028014183044e-01,2.000000000000000000e+00,3.546928405761718750e+01,1.215751171112060547e+01,3.614835739135742188e+01,-1.090439758300781250e+02,9.072981262207031250e+01,-6.407169342041015625e+01,5.232053756713867188e+01,-1.255752182006835938e+01,-1.092338027954101562e+02,-1.123016738891601562e+02,6.381994247436523438e+01,-3.782756042480468750e+01
1.120000034570693970e-01,2.000000000000000000e+00,3.547547531127929688e+01,1.214842605590820312e+01,3.614795303344726562e+01,-1.090488052368164062e+02,9.073023223876953125e+01,-6.407383728027343750e+01,5.231206893920898438e+01,-1.255781269073486328e+01,-1.092330398559570312e+02,-1.123047409057617188e+02,6.381966781616210938e+01,-3.782891464233398438e+01
1.159999966621398926e-01,2.000000000000000000e+00,3.548285675048828125e+01,1.213723468780517578e+01,3.614735794067382812e+01,-1.090554199218750000e+02,9.073076629638671875e+01,-6.407678222656250000e+01,5.230102539062500000e+01,-1.255799961090087891e+01,-1.092323989868164062e+02,-1.123095703125000000e+02,6.381927490234375000e+01,-3.783105087280273438e+01
1.199999973177909851e-01,2.000000000000000000e+00,3.549160385131835938e+01,1.212368583679199219e+01,3.614652252197265625e+01,-1.090642089843750000e+02,9.073143005371093750e+01,-6.408073425292968750e+01,5.228709411621093750e+01,-1.255799198150634766e+01,-1.092320556640625000e+02,-1.123166427612304688e+02,6.381872558593750000e+01,-3.783422088623046875e+01
1.239999979734420776e-01,2.000000000000000000e+00,3.550168609619140625e+01,1.210779285430908203e+01,3.614538955688476562e+01,-1.090755996704101562e+02,9.073222351074218750e+01,-6.408586883544921875e+01,5.226980972290039062e+01,-1.255771255493164062e+01,-1.092321319580078125e+02,-1.123265380859375000e+02,6.381799697875976562e+01,-3.783867263793945312e+01
1.280000060796737671e-01,2.000000000000000000e+00,3.551290893554687500e+01,1.208984470367431641e+01,3.614389038085937500e+01,-1.090899963378906250e+02,9.073313903808593750e+01,-6.409238433837890625e+01,5.224859237670898438e+01,-1.255710315704345703e+01,-1.092327346801757812e+02,-1.123397979736328125e+02,6.381703948974609375e+01,-3.784464645385742188e+01
1.309999972581863403e-01,2.000000000000000000e+00,3.552503204345703125e+01,1.207017326354980469e+01,3.614195632934570312e+01,-1.091077575683593750e+02,9.073418426513671875e+01,-6.410046386718750000e+01,5.222288894653320312e+01,-1.255609798431396484e+01,-1.092339630126953125e+02,-1.123569641113281250e+02,6.381583023071289062e+01,-3.785240173339843750e+01
1.360000073909759521e-01,2.000000000000000000e+00,3.553797912597656250e+01,1.204890632629394531e+01,3.613955307006835938e+01,-1.091291732788085938e+02,9.073534393310546875e+01,-6.411022949218750000e+01,5.219248580932617188e+01,-1.255460548400878906e+01,-1.092360000610351562e+02,-1.123785324096679688e+02,6.381433486938476562e+01,-3.786216354370117188e+01
1.389999985694885254e-01,2.000000000000000000e+00,3.555178451538085938e+01,1.202599239349365234e+01,3.613665008544921875e+01,-1.091544113159179688e+02,9.073663330078125000e+01,-6.412178039550781250e+01,5.215757751464843750e+01,-1.255249786376953125e+01,-1.092390899658203125e+02,-1.124049377441406250e+02,6.381253814697265625e+01,-3.787413787841796875e+01
1.439999938011169434e-01,2.000000000000000000e+00,3.556651687622070312e+01,1.200133037567138672e+01,3.613324356079101562e+01,-1.091835327148437500e+02,9.073805236816406250e+01,-6.413513946533203125e+01,5.211858367919921875e+01,-1.254965782165527344e+01,-1.092434539794921875e+02,-1.124364547729492188e+02,6.381043624877929688e+01,-3.788845825195312500e+01
1.480000019073486328e-01,2.000000000000000000e+00,3.558228683471679688e+01,1.197476673126220703e+01,3.612934494018554688e+01,-1.092164916992187500e+02,9.073960113525390625e+01,-6.415026855468750000e+01,5.207587051391601562e+01,-1.254602146148681641e+01,-1.092492370605468750e+02,-1.124731826782226562e+02,6.380801773071289062e+01,-3.790515899658203125e+01
1.519999951124191284e-01,2.000000000000000000e+00,3.559923171997070312e+01,1.194609451293945312e+01,3.612498855590820312e+01,-1.092531127929687500e+02,9.074130249023437500e+01,-6.416709136962890625e+01,5.202978134155273438e+01,-1.254158782958984375e+01,-1.092564544677734375e+02,-1.125149459838867188e+02,6.380530548095703125e+01,-3.792418289184570312e+01
1.560000032186508179e-01,2.000000000000000000e+00,3.561742019653320312e+01,1.191519641876220703e+01,3.612020492553710938e+01,-1.092931594848632812e+02,9.074314117431640625e+01,-6.418550109863281250e+01,5.198066329956054688e+01,-1.253641796112060547e+01,-1.092649993896484375e+02,-1.125613250732421875e+02,6.380232238769531250e+01,-3.794532394409179688e+01
1.599999964237213135e-01,2.000000000000000000e+00,3.563679122924804688e+01,1.188215065002441406e+01,3.611504364013671875e+01,-1.093363189697265625e+02,9.074510955810546875e+01,-6.420534515380859375e+01,5.192860031127929688e+01,-1.253065681457519531e+01,-1.092746124267578125e+02,-1.126117019653320312e+02,6.379909133911132812e+01,-3.796829986572265625e+01
1.640000045299530029e-01,2.000000000000000000e+00,3.565713119506835938e+01,1.184722518920898438e+01,3.610953903198242188e+01,-1.093822402954101562e+02,9.074720001220703125e+01,-6.422646331787109375e+01,5.187329864501953125e+01,-1.252452754974365234e+01,-1.092848663330078125e+02,-1.126652755737304688e+02,6.379566192626953125e+01,-3.799273300170898438e+01
1.679999977350234985e-01,2.000000000000000000e+00,3.567820358276367188e+01,1.181069278717041016e+01,3.610374832153320312e+01,-1.094305267333984375e+02,9.074938201904296875e+01,-6.424865722656250000e+01,5.181444168090820312e+01,-1.251826858520507812e+01,-1.092952880859375000e+02,-1.127212295532226562e+02,6.379205703735351562e+01,-3.801823806762695312e+01
1.720000058412551880e-01,2.000000000000000000e+00,3.569992065429687500e+01,1.177264022827148438e+01,3.609772491455078125e+01,-1.094807586669921875e+02,9.075165557861328125e+01,-6.427175140380859375e+01,5.175211334228515625e+01,-1.251204967498779297e+01,-1.093055572509765625e+02,-1.127787933349609375e+02,6.378832626342773438e+01,-3.804446411132812500e+01
1.759999990463256836e-01,2.000000000000000000e+00,3.572243881225585938e+01,1.173296070098876953e+01,3.609153366088867188e+01,-1.095324935913085938e+02,9.075402069091796875e+01,-6.429553222656250000e+01,5.168681716918945312e+01,-1.250595760345458984e+01,-1.093155212402343750e+02,-1.128373641967773438e+02,6.378450775146484375e+01,-3.807112503051757812e+01
1.800000071525573730e-01,2.000000000000000000e+00,3.574598693847656250e+01,1.169152832031250000e+01,3.608523559570312500e+01,-1.095853424072265625e+02,9.075646972656250000e+01,-6.431981658935546875e+01,5.161913681030273438e+01,-1.250002670288085938e+01,-1.093251190185546875e+02,-1.128964614868164062e+02,6.378062057495117188e+01,-3.809801864624023438e+01
1.840000003576278687e-01,2.000000000000000000e+00,3.577067947387695312e+01,1.164838314056396484e+01,3.607888031005859375e+01,-1.096389465332031250e+02,9.075898742675781250e+01,-6.434443664550781250e+01,5.154970550537109375e+01,-1.249424839019775391e+01,-1.093343811035156250e+02,-1.129558105468750000e+02,6.377669906616210938e+01,-3.812501144409179688e+01
1.879999935626983643e-01,2.000000000000000000e+00,3.579650115966796875e+01,1.160370063781738281e+01,3.607250213623046875e+01,-1.096930236816406250e+02,9.076157379150390625e+01,-6.436923980712890625e+01,5.147921371459960938e+01,-1.248857784271240234e+01,-1.093434143066406250e+02,-1.130152587890625000e+02,6.377276611328125000e+01,-3.815203475952148438e+01
1.920000016689300537e-01,2.000000000000000000e+00,3.582339477539062500e+01,1.155771636962890625e+01,3.606612777709960938e+01,-1.097473678588867188e+02,9.076422119140625000e+01,-6.439415740966796875e+01,5.140826797485351562e+01,-1.248295688629150391e+01,-1.093523330688476562e+02,-1.130747222900390625e+02,6.376882553100585938e+01,-3.817906570434570312e+01
1.959999948740005493e-01,2.000000000000000000e+00,3.585120773315429688e+01,1.151074504852294922e+01,3.605976486206054688e+01,-1.098018188476562500e+02,9.076689910888671875e+01,-6.441911315917968750e+01,5.133721160888671875e+01,-1.247735023498535156e+01,-1.093612289428710938e+02,-1.131341781616210938e+02,6.376487731933593750e+01,-3.820609283447265625e+01
2.000000029802322388e-01,2.000000000000000000e+00,3.587964630126953125e+01,1.146318626403808594e+01,3.605341339111328125e+01,-1.098563308715820312e+02,9.076960754394531250e+01,-6.444408416748046875e+01,5.126615905761718750e+01,-1.247174549102783203e+01,-1.093701171875000000e+02,-1.131936340332031250e+02,6.376093673706054688e+01,-3.823311614990234375e+01
2.039999961853027344e-01,2.000000000000000000e+00,3.590835571289062500e+01,1.141539001464843750e+01,3.604707336425781250e+01,-1.099108505249023438e+02,9.077232360839843750e+01,-6.446906280517578125e+01,5.119511795043945312e+01,-1.246614074707031250e+01,-1.093790054321289062e+02,-1.132530746459960938e+02,6.375698852539062500e+01,-3.826013946533203125e+01
2.080000042915344238e-01,2.000000000000000000e+00,3.593712615966796875e+01,1.136754798889160156e+01,3.604072570800781250e+01,-1.099653625488281250e+02,9.077503204345703125e+01,-6.449403381347656250e+01,5.112408447265625000e+01,-1.246053600311279297e+01,-1.093878936767578125e+02,-1.133125152587890625e+02,6.375304794311523438e+01,-3.828715515136718750e+01
2.119999974966049194e-01,2.000000000000000000e+00,3.596589660644531250e+01,1.131970882415771484e+01,3.603438568115234375e+01,-1.100198669433593750e+02,9.077774810791015625e+01,-6.451899719238281250e+01,5.105305480957031250e+01,-1.245493221282958984e+01,-1.093967742919921875e+02,-1.133719482421875000e+02,6.374910736083984375e+01,-3.831417083740234375e+01
2.160000056028366089e-01,2.000000000000000000e+00,3.599466323852539062e+01,1.127187442779541016e+01,3.602804183959960938e+01,-1.100743637084960938e+02,9.078047180175781250e+01,-6.454396057128906250e+01,5.098203659057617188e+01,-1.244932937622070312e+01,-1.094056625366210938e+02,-1.134313812255859375e+02,6.374515914916992188e+01,-3.834118652343750000e+01
2.199999988079071045e-01,2.000000000000000000e+00,3.602342987060546875e+01,1.122404575347900391e+01,3.602170562744140625e+01,-1.101288681030273438e+02,9.078318023681640625e+01,-6.456892395019531250e+01,5.091102600097656250e+01,-1.244372749328613281e+01,-1.094145507812500000e+02,-1.134907913208007812e+02,6.374121856689453125e+01,-3.836819076538085938e+01
2.240000069141387939e-01,2.000000000000000000e+00,3.605218887329101562e+01,1.117622184753417969e+01,3.601536178588867188e+01,-1.101833572387695312e+02,9.078588867187500000e+01,-6.459388732910156250e+01,5.084001922607421875e+01,-1.243812561035156250e+01,-1.094234313964843750e+02,-1.135502090454101562e+02,6.373727798461914062e+01,-3.839519882202148438e+01
2.280000001192092896e-01,2.000000000000000000e+00,3.608094787597656250e+01,1.112840366363525391e+01,3.600902557373046875e+01,-1.102378311157226562e+02,9.078861236572265625e+01,-6.461884307861328125e+01,5.076902389526367188e+01,-1.243252372741699219e+01,-1.094323120117187500e+02,-1.136096115112304688e+02,6.373333740234375000e+01,-3.842220687866210938e+01
2.319999933242797852e-01,2.000000000000000000e+00,3.610969924926757812e+01,1.108058929443359375e+01,3.600268554687500000e+01,-1.102923126220703125e+02,9.079132080078125000e+01,-6.464379882812500000e+01,5.069803619384765625e+01,-1.242692375183105469e+01,-1.094411926269531250e+02,-1.136690139770507812e+02,6.372939682006835938e+01,-3.844920349121093750e+01
2.360000014305114746e-01,2.000000000000000000e+00,3.613845443725585938e+01,1.103278160095214844e+01,3.599634552001953125e+01,-1.103467788696289062e+02,9.079403686523437500e+01,-6.466875457763671875e+01,5.062705230712890625e+01,-1.242132377624511719e+01,-1.094500732421875000e+02,-1.137284088134765625e+02,6.372545242309570312e+01,-3.847620010375976562e+01
2.399999946355819702e-01,2.000000000000000000e+00,3.616720581054687500e+01,1.098497867584228516e+01,3.599000930786132812e+01,-1.104012527465820312e+02,9.079675292968750000e+01,-6.469370269775390625e+01,5.055607986450195312e+01,-1.241572475433349609e+01,-1.094589538574218750e+02,-1.137877960205078125e+02,6.372151947021484375e+01,-3.850319290161132812e+01
2.440000027418136597e-01,2.000000000000000000e+00,3.619594955444335938e+01,1.093718051910400391e+01,3.598367309570312500e+01,-1.104557113647460938e+02,9.079946136474609375e+01,-6.471864318847656250e+01,5.048511505126953125e+01,-1.241012573242187500e+01,-1.094678344726562500e+02,-1.138471755981445312e+02,6.371757888793945312e+01,-3.853018569946289062e+01
2.479999959468841553e-01,2.000000000000000000e+00,3.622468948364257812e+01,1.088938808441162109e+01,3.597733688354492188e+01,-1.105101623535156250e+02,9.080217742919921875e+01,-6.474359130859375000e+01,5.041415786743164062e+01,-1.240452861785888672e+01,-1.094767150878906250e+02,-1.139065475463867188e+02,6.371363830566406250e+01,-3.855717468261718750e+01
2.520000040531158447e-01,2.000000000000000000e+00,3.625343322753906250e+01,1.084160041809082031e+01,3.597100067138671875e+01,-1.105646133422851562e+02,9.080488586425781250e+01,-6.476853179931640625e+01,5.034320831298828125e+01,-1.239893150329589844e+01,-1.094855804443359375e+02,-1.139659118652343750e+02,6.370969772338867188e+01,-3.858416366577148438e+01
2.560000121593475342e-01,2.000000000000000000e+00,3.628216934204101562e+01,1.079381847381591797e+01,3.596466827392578125e+01,-1.106190567016601562e+02,9.080760192871093750e+01,-6.479347229003906250e+01,5.027226638793945312e+01,-1.239333438873291016e+01,-1.094944610595703125e+02,-1.140252761840820312e+02,6.370576095581054688e+01,-3.861114501953125000e+01
2.599999904632568359e-01,2.000000000000000000e+00,3.631090164184570312e+01,1.074604034423828125e+01,3.595833206176757812e+01,-1.106734848022460938e+02,9.081031799316406250e+01,-6.481840515136718750e+01,5.020133209228515625e+01,-1.238773727416992188e+01,-1.095033340454101562e+02,-1.140846328735351562e+02,6.370182037353515625e+01,-3.863812255859375000e+01
2.639999985694885254e-01,2.000000000000000000e+00,3.633963394165039062e+01,1.069826793670654297e+01,3.595199966430664062e+01,-1.107279205322265625e+02,9.081302642822265625e+01,-6.484333801269531250e+01,5.013040161132812500e+01,-1.238214206695556641e+01,-1.095122070312500000e+02,-1.141439819335937500e+02,6.369788742065429688e+01,-3.866510391235351562e+01
2.680000066757202148e-01,2.000000000000000000e+00,3.636835861206054688e+01,1.065050029754638672e+01,3.594566726684570312e+01,-1.107823410034179688e+02,9.081574249267578125e+01,-6.486827087402343750e+01,5.005948638916015625e+01,-1.237654685974121094e+01,-1.095210800170898438e+02,-1.142033233642578125e+02,6.369394683837890625e+01,-3.869207763671875000e+01
2.720000147819519043e-01,2.000000000000000000e+00,3.639708328247070312e+01,1.060273838043212891e+01,3.593933486938476562e+01,-1.108367614746093750e+02,9.081844329833984375e+01,-6.489319610595703125e+01,4.998857116699218750e+01,-1.237095260620117188e+01,-1.095299530029296875e+02,-1.142626571655273438e+02,6.369001388549804688e+01,-3.871904754638671875e+01
2.759999930858612061e-01,2.000000000000000000e+00,3.642580413818359375e+01,1.055498123168945312e+01,3.593300247192382812e+01,-1.108911743164062500e+02,9.082115936279296875e+01,-6.491812133789062500e+01,4.991766738891601562e+01,-1.236535835266113281e+01,-1.095388259887695312e+02,-1.143219909667968750e+02,6.368607711791992188e+01,-3.874601745605468750e+01
2.800000011920928955e-01,2.000000000000000000e+00,3.645452499389648438e+01,1.050722885131835938e+01,3.592667388916015625e+01,-1.109455871582031250e+02,9.082386779785156250e+01,-6.494304656982421875e+01,4.984676742553710938e+01,-1.235976505279541016e+01,-1.095476989746093750e+02,-1.143813171386718750e+02,6.368214416503906250e+01,-3.877298355102539062e+01
2.840000092983245850e-01,2.000000000000000000e+00,3.648324203491210938e+01,1.045948028564453125e+01,3.592034530639648438e+01,-1.109999847412109375e+02,9.082657623291015625e+01,-6.496796417236328125e+01,4.977587509155273438e+01,-1.235417270660400391e+01,-1.095565643310546875e+02,-1.144406356811523438e+02,6.367820358276367188e+01,-3.879994964599609375e+01
2.879999876022338867e-01,2.000000000000000000e+00,3.651195144653320312e+01,1.041173839569091797e+01,3.591401672363281250e+01,-1.110543823242187500e+02,9.082929229736328125e+01,-6.499288177490234375e+01,4.970499038696289062e+01,-1.234858036041259766e+01,-1.095654373168945312e+02,-1.144999465942382812e+02,6.367426681518554688e+01,-3.882690811157226562e+01
2.919999957084655762e-01,2.000000000000000000e+00,3.654066085815429688e+01,1.036400032043457031e+01,3.590768432617187500e+01,-1.111087722778320312e+02,9.083200073242187500e+01,-6.501779937744140625e+01,4.963411712646484375e+01,-1.234298896789550781e+01,-1.095743026733398438e+02,-1.145592498779296875e+02,6.367033386230468750e+01,-3.885386657714843750e+01
2.960000038146972656e-01,2.000000000000000000e+00,3.656937026977539062e+01,1.031626701354980469e+01,3.590135574340820312e+01,-1.111631622314453125e+02,9.083470916748046875e+01,-6.504270935058593750e+01,4.956324768066406250e+01,-1.233739757537841797e+01,-1.095831680297851562e+02,-1.146185531616210938e+02,6.366640090942382812e+01,-3.888082122802734375e+01
3.000000119209289551e-01,2.000000000000000000e+00,3.659807205200195312e+01,1.026853942871093750e+01,3.589503097534179688e+01,-1.112175369262695312e+02,9.083741760253906250e+01,-6.506761932373046875e+01,4.949238586425781250e+01,-1.233180713653564453e+01,-1.095920333862304688e+02,-1.146778564453125000e+02,6.366246414184570312e+01,-3.890777206420898438e+01
3.039999902248382568e-01,2.000000000000000000e+00,3.662677383422851562e+01,1.022081565856933594e+01,3.588870239257812500e+01,-1.112719116210937500e+02,9.084012603759765625e+01,-6.509252929687500000e+01,4.942153167724609375e+01,-1.232621669769287109e+01,-1.096008987426757812e+02,-1.147371368408203125e+02,6.365853118896484375e+01,-3.893472671508789062e+01
3.079999983310699463e-01,2.000000000000000000e+00,3.665547180175781250e+01,1.017309761047363281e+01,3.588237762451171875e+01,-1.113262786865234375e+02,9.084283447265625000e+01,-6.511743164062500000e+01,4.935068130493164062e+01,-1.232062721252441406e+01,-1.096097640991210938e+02,-1.147964248657226562e+02,6.365460586547851562e+01,-3.896166992187500000e+01
3.120000064373016357e-01,2.000000000000000000e+00,3.668416595458984375e+01,1.012538337707519531e+01,3.587604904174804688e+01,-1.113806457519531250e+02,9.084555053710937500e+01,-6.514233398437500000e+01,4.927984237670898438e+01,-1.231503868103027344e+01,-1.096186218261718750e+02,-1.148556976318359375e+02,6.365066909790039062e+01,-3.898861694335937500e+01
3.160000145435333252e-01,2.000000000000000000e+00,3.671285629272460938e+01,1.007767486572265625e+01,3.586972427368164062e+01,-1.114350051879882812e+02,9.084825134277343750e+01,-6.516723632812500000e+01,4.920900726318359375e+01,-1.230945110321044922e+01,-1.096274871826171875e+02,-1.149149703979492188e+02,6.364673614501953125e+01,-3.901555633544921875e+01
3.199999928474426270e-01,2.000000000000000000e+00,3.674154663085937500e+01,1.002997016906738281e+01,3.586340332031250000e+01,-1.114893569946289062e+02,9.085095977783203125e+01,-6.519213104248046875e+01,4.913817977905273438e+01,-1.230386257171630859e+01,-1.096363449096679688e+02,-1.149742279052734375e+02,6.364280700683593750e+01,-3.904249572753906250e+01
3.240000009536743164e-01,2.000000000000000000e+00,3.677023315429687500e+01,9.982270240783691406e+00,3.585707855224609375e+01,-1.115437011718750000e+02,9.085366821289062500e+01,-6.521703338623046875e+01,4.906736373901367188e+01,-1.229827594757080078e+01,-1.096452026367187500e+02,-1.150334854125976562e+02,6.363887405395507812e+01,-3.906943511962890625e+01
3.280000090599060059e-01,2.000000000000000000e+00,3.679891967773437500e+01,9.934576034545898438e+00,3.585075378417968750e+01,-1.115980453491210938e+02,9.085636901855468750e+01,-6.524192047119140625e+01,4.899655151367187500e+01,-1.229268836975097656e+01,-1.096540679931640625e+02,-1.150927429199218750e+02,6.363494110107421875e+01,-3.909636688232421875e+01
3.319999873638153076e-01,2.000000000000000000e+00,3.682759857177734375e+01,9.886885643005371094e+00,3.584443283081054688e+01,-1.116523818969726562e+02,9.085908508300781250e+01,-6.526680755615234375e+01,4.892574691772460938e+01,-1.228710365295410156e+01,-1.096629257202148438e+02,-1.151519927978515625e+02,6.363101196289062500e+01,-3.912329483032226562e+01
3.359999954700469971e-01,2.000000000000000000e+00,3.685627365112304688e+01,9.839200019836425781e+00,3.583811187744140625e+01,-1.117067108154296875e+02,9.086178588867187500e+01,-6.529169464111328125e+01,4.885494613647460938e+01,-1.228151702880859375e+01,-1.096717834472656250e+02,-1.152112350463867188e+02,6.362708663940429688e+01,-3.915022659301757812e+01
3.400000035762786865e-01,2.000000000000000000e+00,3.688495254516601562e+01,9.791519165039062500e+00,3.583179092407226562e+01,-1.117610397338867188e+02,9.086449432373046875e+01,-6.531658935546875000e+01,4.878415679931640625e+01,-1.227593231201171875e+01,-1.096806411743164062e+02,-1.152704696655273438e+02,6.362314987182617188e+01,-3.917715072631835938e+01
3.440000116825103760e-01,2.000000000000000000e+00,3.691362380981445312e+01,9.743844032287597656e+00,3.582546997070312500e+01,-1.118153610229492188e+02,9.086719512939453125e+01,-6.534146881103515625e+01,4.871337127685546875e+01,-1.227034759521484375e+01,-1.096894912719726562e+02,-1.153296966552734375e+02,6.361922454833984375e+01,-3.920407485961914062e+01
3.479999899864196777e-01,2.000000000000000000e+00,3.694229507446289062e+01,9.696172714233398438e+00,3.581915283203125000e+01,-1.118696746826171875e+02,9.086991119384765625e+01,-6.536634826660156250e+01,4.864259338378906250e+01,-1.226476383209228516e+01,-1.096983489990234375e+02,-1.153889160156250000e+02,6.361529541015625000e+01,-3.923099517822265625e+01
3.519999980926513672e-01,2.000000000000000000e+00,3.697096252441406250e+01,9.648505210876464844e+00,3.581283187866210938e+01,-1.119239807128906250e+02,9.087261199951171875e+01,-6.539122772216796875e+01,4.857182312011718750e+01,-1.225918006896972656e+01,-1.097072067260742188e+02,-1.154481353759765625e+02,6.361136245727539062e+01,-3.925791168212890625e+01
3.560000061988830566e-01,2.000000000000000000e+00,3.699962234497070312e+01,9.600843429565429688e+00,3.580651092529296875e+01,-1.119782867431640625e+02,9.087532043457031250e+01,-6.541610717773437500e+01,4.850105667114257812e+01,-1.225359725952148438e+01,-1.097160568237304688e+02,-1.155073547363281250e+02,6.360743331909179688e+01,-3.928482818603515625e+01
3.600000143051147461e-01,2.000000000000000000e+00,3.702828598022460938e+01,9.553185462951660156e+00,3.580019378662109375e+01,-1.120325927734375000e+02,9.087802124023437500e+01,-6.544097137451171875e+01,4.843030166625976562e+01,-1.224801540374755859e+01,-1.097249069213867188e+02,-1.155665588378906250e+02,6.360350799560546875e+01,-3.931173706054687500e+01
3.639999926090240479e-01,2.000000000000000000e+00,3.705694198608398438e+01,9.505533218383789062e+00,3.579387664794921875e+01,-1.120868835449218750e+02,9.088072967529296875e+01,-6.546585083007812500e+01,4.835955047607421875e+01,-1.224243354797363281e+01,-1.097337570190429688e+02,-1.156257629394531250e+02,6.359957885742187500e+01,-3.933864974975585938e+01
3.680000007152557373e-01,2.000000000000000000e+00,3.708559799194335938e+01,9.457884788513183594e+00,3.578756332397460938e+01,-1.121411743164062500e+02,9.088343048095703125e+01,-6.549071502685546875e+01,4.828880691528320312e+01,-1.223685264587402344e+01,-1.097426147460937500e+02,-1.156849517822265625e+02,6.359565353393554688e+01,-3.936555480957031250e+01
3.720000088214874268e-01,2.000000000000000000e+00,3.711425018310546875e+01,9.410241127014160156e+00,3.578124237060546875e+01,-1.121954574584960938e+02,9.088613891601562500e+01,-6.551557922363281250e+01,4.821807098388671875e+01,-1.223127269744873047e+01,-1.097514648437500000e+02,-1.157441406250000000e+02,6.359172439575195312e+01,-3.939245986938476562e+01
3.759999871253967285e-01,2.000000000000000000e+00,3.714290237426757812e+01,9.362602233886718750e+00,3.577492904663085938e+01,-1.122497329711914062e+02,9.088883972167968750e+01,-6.554044342041015625e+01,4.814733886718750000e+01,-1.222569179534912109e+01,-1.097603073120117188e+02,-1.158033294677734375e+02,6.358780670166015625e+01,-3.941936492919921875e+01
3.799999952316284180e-01,2.000000000000000000e+00,3.717155075073242188e+01,9.314968109130859375e+00,3.576861572265625000e+01,-1.123040084838867188e+02,9.089154815673828125e+01,-6.556529998779296875e+01,4.807661437988281250e+01,-1.222011280059814453e+01,-1.097691574096679688e+02,-1.158625106811523438e+02,6.358387756347656250e+01,-3.944626617431640625e+01
3.840000033378601074e-01,2.000000000000000000e+00,3.720019531250000000e+01,9.267337799072265625e+00,3.576230239868164062e+01,-1.123582763671875000e+02,9.089424896240234375e+01,-6.559016418457031250e+01,4.800590133666992188e+01,-1.221453285217285156e+01,-1.097780075073242188e+02,-1.159216842651367188e+02,6.357995223999023438e+01,-3.947315979003906250e+01
3.880000114440917969e-01,2.000000000000000000e+00,3.722883605957031250e+01,9.219711303710937500e+00,3.575598526000976562e+01,-1.124125366210937500e+02,9.089694976806640625e+01,-6.561502075195312500e+01,4.793519210815429688e+01,-1.220895481109619141e+01,-1.097868499755859375e+02,-1.159808502197265625e+02,6.357602310180664062e+01,-3.950005722045898438e+01
3.919999897480010986e-01,2.000000000000000000e+00,3.725747680664062500e+01,9.172090530395507812e+00,3.574967193603515625e+01,-1.124667968750000000e+02,9.089965820312500000e+01,-6.563987731933593750e+01,4.786448669433593750e+01,-1.220337677001953125e+01,-1.097956924438476562e+02,-1.160400085449218750e+02,6.357210159301757812e+01,-3.952694702148437500e+01
3.959999978542327881e-01,2.000000000000000000e+00,3.728611373901367188e+01,9.124473571777343750e+00,3.574335861206054688e+01,-1.125210494995117188e+02,9.090235900878906250e+01,-6.566472625732421875e+01,4.779379272460937500e+01,-1.219779968261718750e+01,-1.098045425415039062e+02,-1.160991592407226562e+02,6.356817626953125000e+01,-3.955383682250976562e+01
4.000000059604644775e-01,2.000000000000000000e+00,3.731474685668945312e+01,9.076861381530761719e+00,3.573704910278320312e+01,-1.125753021240234375e+02,9.090505981445312500e+01,-6.568957519531250000e+01,4.772309875488281250e+01,-1.219222259521484375e+01,-1.098133850097656250e+02,-1.161583099365234375e+02,6.356425476074218750e+01,-3.958072662353515625e+01
4.040000140666961670e-01,2.000000000000000000e+00,3.734337997436523438e+01,9.029253959655761719e+00,3.573073959350585938e+01,-1.126295394897460938e+02,9.090776062011718750e+01,-6.571442413330078125e+01,4.765241622924804688e+01,-1.218664646148681641e+01,-1.098222274780273438e+02,-1.162174606323242188e+02,6.356032562255859375e+01,-3.960760879516601562e+01
4.079999923706054688e-01,2.000000000000000000e+00,3.737200927734375000e+01,8.981650352478027344e+00,3.572442626953125000e+01,-1.126837768554687500e+02,9.091046905517578125e+01,-6.573926544189453125e+01,4.758174133300781250e+01,-1.218107032775878906e+01,-1.098310775756835938e+02,-1.162765960693359375e+02,6.355640792846679688e+01,-3.963449096679687500e+01
4.120000004768371582e-01,2.000000000000000000e+00,3.740063476562500000e+01,8.934051513671875000e+00,3.571811676025390625e+01,-1.127380142211914062e+02,9.091316223144531250e+01,-6.576410675048828125e+01,4.751107025146484375e+01,-1.217549419403076172e+01,-1.098399124145507812e+02,-1.163357315063476562e+02,6.355247879028320312e+01,-3.966136932373046875e+01
4.160000085830688477e-01,2.000000000000000000e+00,3.742925643920898438e+01,8.886457443237304688e+00,3.571180343627929688e+01,-1.127922439575195312e+02,9.091587066650390625e+01,-6.578894805908203125e+01,4.744040679931640625e+01,-1.216991996765136719e+01,-1.098487548828125000e+02,-1.163948669433593750e+02,6.354855728149414062e+01,-3.968824768066406250e+01
4.199999868869781494e-01,2.000000000000000000e+00,3.745787811279296875e+01,8.838867187500000000e+00,3.570549774169921875e+01,-1.128464584350585938e+02,9.091857147216796875e+01,-6.581378936767578125e+01,4.736975097656250000e+01,-1.216434574127197266e+01,-1.098575973510742188e+02,-1.164539871215820312e+02,6.354463958740234375e+01,-3.971512222290039062e+01
4.239999949932098389e-01,2.000000000000000000e+00,3.748649597167968750e+01,8.791281700134277344e+00,3.569918823242187500e+01,-1.129006805419921875e+02,9.092127227783203125e+01,-6.583862304687500000e+01,4.729909896850585938e+01,-1.215877151489257812e+01,-1.098664321899414062e+02,-1.165130996704101562e+02,6.354071044921875000e+01,-3.974199676513671875e+01
4.280000030994415283e-01,2.000000000000000000e+00,3.751511001586914062e+01,8.743700027465820312e+00,3.569288253784179688e+01,-1.129548950195312500e+02,9.092397308349609375e+01,-6.586345672607421875e+01,4.722845458984375000e+01,-1.215319824218750000e+01,-1.098752746582031250e+02,-1.165722198486328125e+02,6.353678894042968750e+01,-3.976886367797851562e+01
4.320000112056732178e-01,2.000000000000000000e+00,3.754372406005859375e+01,8.696123123168945312e+00,3.568657302856445312e+01,-1.130091018676757812e+02,9.092667388916015625e+01,-6.588829040527343750e+01,4.715781784057617188e+01,-1.214762592315673828e+01,-1.098841094970703125e+02,-1.166313171386718750e+02,6.353287124633789062e+01,-3.979573059082031250e+01
4.359999895095825195e-01,2.000000000000000000e+00,3.757233428955078125e+01,8.648550033569335938e+00,3.568026733398437500e+01,-1.130633087158203125e+02,9.092937469482421875e+01,-6.591311645507812500e+01,4.708718490600585938e+01,-1.214205265045166016e+01,-1.098929443359375000e+02,-1.166904220581054688e+02,6.352894973754882812e+01,-3.982259368896484375e+01
4.399999976158142090e-01,2.000000000000000000e+00,3.760094070434570312e+01,8.600981712341308594e+00,3.567395782470703125e+01,-1.131175003051757812e+02,9.093206787109375000e+01,-6.593794250488281250e+01,4.701655960083007812e+01,-1.213648128509521484e+01,-1.099017791748046875e+02,-1.167495193481445312e+02,6.352502059936523438e+01,-3.984945678710937500e+01
4.440000057220458984e-01,2.000000000000000000e+00,3.762954711914062500e+01,8.553418159484863281e+00,3.566765594482421875e+01,-1.131716918945312500e+02,9.093476867675781250e+01,-6.596276855468750000e+01,4.694594192504882812e+01,-1.213091087341308594e+01,-1.099106216430664062e+02,-1.168086090087890625e+02,6.352110290527343750e+01,-3.987631988525390625e+01
4.480000138282775879e-01,2.000000000000000000e+00,3.765814971923828125e+01,8.505857467651367188e+00,3.566135025024414062e+01,-1.132258834838867188e+02,9.093747711181640625e+01,-6.598759460449218750e+01,4.687532806396484375e+01,-1.212533950805664062e+01,-1.099194488525390625e+02,-1.168676910400390625e+02,6.351718139648437500e+01,-3.990317535400390625e+01
4.519999921321868896e-01,2.000000000000000000e+00,3.768674850463867188e+01,8.458302497863769531e+00,3.565504455566406250e+01,-1.132800674438476562e+02,9.094017028808593750e+01,-6.601241302490234375e+01,4.680472564697265625e+01,-1.211976909637451172e+01,-1.099282836914062500e+02,-1.169267730712890625e+02,6.351326751708984375e+01,-3.993003082275390625e+01
4.560000002384185791e-01,2.000000000000000000e+00,3.771534729003906250e+01,8.410751342773437500e+00,3.564874267578125000e+01,-1.133342437744140625e+02,9.094287109375000000e+01,-6.603722381591796875e+01,4.673412704467773438e+01,-1.211419963836669922e+01,-1.099371109008789062e+02,-1.169858398437500000e+02,6.350934600830078125e+01,-3.995688247680664062e+01
4.600000083446502686e-01,2.000000000000000000e+00,3.774393844604492188e+01,8.363204002380371094e+00,3.564243698120117188e+01,-1.133884201049804688e+02,9.094557189941406250e+01,-6.606204986572265625e+01,4.666353225708007812e+01,-1.210863018035888672e+01,-1.099459457397460938e+02,-1.170449218750000000e+02,6.350542449951171875e+01,-3.998373413085937500e+01
4.639999866485595703e-01,2.000000000000000000e+00,3.777253341674804688e+01,8.315661430358886719e+00,3.563613510131835938e+01,-1.134425888061523438e+02,9.094826507568359375e+01,-6.608686065673828125e+01,4.659294509887695312e+01,-1.210306167602539062e+01,-1.099547805786132812e+02,-1.171039733886718750e+02,6.350150680541992188e+01,-4.001057815551757812e+01
4.679999947547912598e-01,2.000000000000000000e+00,3.780112075805664062e+01,8.268122673034667969e+00,3.562983322143554688e+01,-1.134967575073242188e+02,9.095096588134765625e+01,-6.611167144775390625e+01,4.652236557006835938e+01,-1.209749317169189453e+01,-1.099636077880859375e+02,-1.171630477905273438e+02,6.349759292602539062e+01,-4.003742599487304688e+01
4.720000028610229492e-01,2.000000000000000000e+00,3.782971191406250000e+01,8.220588684082031250e+00,3.562353134155273438e+01,-1.135509109497070312e+02,9.095365905761718750e+01,-6.613647460937500000e+01,4.645178985595703125e+01,-1.209192466735839844e+01,-1.099724426269531250e+02,-1.172220993041992188e+02,6.349367141723632812e+01,-4.006426620483398438e+01
4.760000109672546387e-01,2.000000000000000000e+00,3.785829544067382812e+01,8.173058509826660156e+00,3.561722946166992188e+01,-1.136050720214843750e+02,9.095635986328125000e+01,-6.616128540039062500e+01,4.638122177124023438e+01,-1.208635807037353516e+01,-1.099812698364257812e+02,-1.172811355590820312e+02,6.348975753784179688e+01,-4.009111022949218750e+01
4.799999892711639404e-01,2.000000000000000000e+00,3.788687515258789062e+01,8.125532150268554688e+00,3.561093139648437500e+01,-1.136592178344726562e+02,9.095906066894531250e+01,-6.618608856201171875e+01,4.631066131591796875e+01,-1.208079051971435547e+01,-1.099900970458984375e+02,-1.173401947021484375e+02,6.348583602905273438e+01,-4.011795043945312500e+01
4.839999973773956299e-01,2.000000000000000000e+00,3.791545486450195312e+01,8.078010559082031250e+00,3.560462951660156250e+01,-1.137133636474609375e+02,9.096175384521484375e+01,-6.621089172363281250e+01,4.624010467529296875e+01,-1.207522487640380859e+01,-1.099989242553710938e+02,-1.173992156982421875e+02,6.348192214965820312e+01,-4.014478683471679688e+01
4.880000054836273193e-01,2.000000000000000000e+00,3.794403457641601562e+01,8.030492782592773438e+00,3.559833145141601562e+01,-1.137675018310546875e+02,9.096445465087890625e+01,-6.623569488525390625e+01,4.616955566406250000e+01,-1.206965827941894531e+01,-1.100077514648437500e+02,-1.174582595825195312e+02,6.347800445556640625e+01,-4.017161941528320312e+01
4.920000135898590088e-01,2.000000000000000000e+00,3.797260665893554688e+01,7.982978343963623047e+00,3.559202957153320312e+01,-1.138216400146484375e+02,9.096714782714843750e+01,-6.626049041748046875e+01,4.609901046752929688e+01,-1.206409358978271484e+01,-1.100165786743164062e+02,-1.175172882080078125e+02,6.347409057617187500e+01,-4.019845199584960938e+01
4.959999918937683105e-01,2.000000000000000000e+00,3.800117874145507812e+01,7.935469150543212891e+00,3.558573150634765625e+01,-1.138757705688476562e+02,9.096984863281250000e+01,-6.628528594970703125e+01,4.602847290039062500e+01,-1.205852794647216797e+01,-1.100253982543945312e+02,-1.175763092041015625e+02,6.347017669677734375e+01,-4.022528076171875000e+01
5.000000000000000000e-01,2.000000000000000000e+00,3.802975082397460938e+01,7.887963771820068359e+00,3.557943725585937500e+01,-1.139298934936523438e+02,9.097254943847656250e+01,-6.631008148193359375e+01,4.595794296264648438e+01,-1.205296325683593750e+01,-1.100342254638671875e+02,-1.176353225708007812e+02,6.346625518798828125e+01,-4.025210571289062500e+01
5.040000081062316895e-01,2.000000000000000000e+00,3.805831527709960938e+01,7.840462207794189453e+00,3.557313919067382812e+01,-1.139840164184570312e+02,9.097524261474609375e+01,-6.633486938476562500e+01,4.588741683959960938e+01,-1.204739952087402344e+01,-1.100430526733398438e+02,-1.176943359375000000e+02,6.346234130859375000e+01,-4.027893066406250000e+01
5.080000162124633789e-01,2.000000000000000000e+00,3.808688354492187500e+01,7.792964935302734375e+00,3.556684112548828125e+01,-1.140381317138671875e+02,9.097793579101562500e+01,-6.635965728759765625e+01,4.581689834594726562e+01,-1.204183578491210938e+01,-1.100518646240234375e+02,-1.177533493041992188e+02,6.345842742919921875e+01,-4.030575180053710938e+01
5.120000243186950684e-01,2.000000000000000000e+00,3.811544418334960938e+01,7.745471477508544922e+00,3.556054306030273438e+01,-1.140922470092773438e+02,9.098063659667968750e+01,-6.638444519042968750e+01,4.574638366699218750e+01,-1.203627300262451172e+01,-1.100606918334960938e+02,-1.178123474121093750e+02,6.345451354980468750e+01,-4.033257293701171875e+01
5.159999728202819824e-01,2.000000000000000000e+00,3.814400482177734375e+01,7.697981834411621094e+00,3.555424880981445312e+01,-1.141463546752929688e+02,9.098332977294921875e+01,-6.640923309326171875e+01,4.567587661743164062e+01,-1.203071117401123047e+01,-1.100695114135742188e+02,-1.178713455200195312e+02,6.345059967041015625e+01,-4.035939025878906250e+01
5.199999809265136719e-01,2.000000000000000000e+00,3.817256546020507812e+01,7.650496482849121094e+00,3.554795074462890625e+01,-1.142004547119140625e+02,9.098602294921875000e+01,-6.643402099609375000e+01,4.560537338256835938e+01,-1.202514839172363281e+01,-1.100783386230468750e+02,-1.179303359985351562e+02,6.344668579101562500e+01,-4.038620376586914062e+01
5.239999890327453613e-01,2.000000000000000000e+00,3.820111846923828125e+01,7.603014945983886719e+00,3.554165649414062500e+01,-1.142545623779296875e+02,9.098872375488281250e+01,-6.645880126953125000e+01,4.553488159179687500e+01,-1.201958656311035156e+01,-1.100871505737304688e+02,-1.179893188476562500e+02,6.344277191162109375e+01,-4.041301727294921875e+01
5.279999971389770508e-01,2.000000000000000000e+00,3.822967147827148438e+01,7.555536746978759766e+00,3.553536224365234375e+01,-1.143086547851562500e+02,9.099140930175781250e+01,-6.648358154296875000e+01,4.546438980102539062e+01,-1.201402664184570312e+01,-1.100959701538085938e+02,-1.180483016967773438e+02,6.343885803222656250e+01,-4.043983078002929688e+01
5.320000052452087402e-01,2.000000000000000000e+00,3.825822067260742188e+01,7.508062362670898438e+00,3.552907180786132812e+01,-1.143627395629882812e+02,9.099411010742187500e+01,-6.650836181640625000e+01,4.539390563964843750e+01,-1.200846576690673828e+01,-1.101047897338867188e+02,-1.181072921752929688e+02,6.343494415283203125e+01,-4.046663665771484375e+01
5.360000133514404297e-01,2.000000000000000000e+00,3.828677368164062500e+01,7.460592746734619141e+00,3.552278137207031250e+01,-1.144168243408203125e+02,9.099680328369140625e+01,-6.653313446044921875e+01,4.532342910766601562e+01,-1.200290489196777344e+01,-1.101136093139648438e+02,-1.181662597656250000e+02,6.343103027343750000e+01,-4.049344253540039062e+01
5.400000214576721191e-01,2.000000000000000000e+00,3.831531906127929688e+01,7.413126468658447266e+00,3.551648712158203125e+01,-1.144709014892578125e+02,9.099949645996093750e+01,-6.655790710449218750e+01,4.525295257568359375e+01,-1.199734497070312500e+01,-1.101224212646484375e+02,-1.182252349853515625e+02,6.342712402343750000e+01,-4.052024841308593750e+01
5.440000295639038086e-01,2.000000000000000000e+00,3.834386444091796875e+01,7.365664005279541016e+00,3.551019668579101562e+01,-1.145249862670898438e+02,9.100218963623046875e+01,-6.658267974853515625e+01,4.518248748779296875e+01,-1.199178600311279297e+01,-1.101312408447265625e+02,-1.182841949462890625e+02,6.342321014404296875e+01,-4.054705047607421875e+01
5.479999780654907227e-01,2.000000000000000000e+00,3.837240600585937500e+01,7.318205356597900391e+00,3.550390243530273438e+01,-1.145790634155273438e+02,9.100489044189453125e+01,-6.660744476318359375e+01,4.511202239990234375e+01,-1.198622703552246094e+01,-1.101400527954101562e+02,-1.183431472778320312e+02,6.341929626464843750e+01,-4.057385253906250000e+01
5.519999861717224121e-01,2.000000000000000000e+00,3.840094757080078125e+01,7.270750045776367188e+00,3.549761199951171875e+01,-1.146331253051757812e+02,9.100757598876953125e+01,-6.663220977783203125e+01,4.504156875610351562e+01,-1.198066806793212891e+01,-1.101488723754882812e+02,-1.184021072387695312e+02,6.341539001464843750e+01,-4.060065078735351562e+01
5.559999942779541016e-01,2.000000000000000000e+00,3.842948150634765625e+01,7.223299026489257812e+00,3.549132156372070312e+01,-1.146871948242187500e+02,9.101027679443359375e+01,-6.665697479248046875e+01,4.497111511230468750e+01,-1.197511005401611328e+01,-1.101576919555664062e+02,-1.184610519409179688e+02,6.341147613525390625e+01,-4.062744522094726562e+01
5.600000023841857910e-01,2.000000000000000000e+00,3.845801544189453125e+01,7.175851345062255859e+00,3.548502731323242188e+01,-1.147412490844726562e+02,9.101296997070312500e+01,-6.668174743652343750e+01,4.490067291259765625e+01,-1.196955299377441406e+01,-1.101664962768554688e+02,-1.185199966430664062e+02,6.340756225585937500e+01,-4.065423965454101562e+01
5.640000104904174805e-01,2.000000000000000000e+00,3.848654937744140625e+01,7.128407478332519531e+00,3.547873687744140625e+01,-1.147953033447265625e+02,9.101566314697265625e+01,-6.670650482177734375e+01,4.483023452758789062e+01,-1.196399593353271484e+01,-1.101753082275390625e+02,-1.185789413452148438e+02,6.340365600585937500e+01,-4.068103027343750000e+01
5.680000185966491699e-01,2.000000000000000000e+00,3.851508331298828125e+01,7.080966949462890625e+00,3.547245025634765625e+01,-1.148493576049804688e+02,9.101834869384765625e+01,-6.673126220703125000e+01,4.475979614257812500e+01,-1.195843887329101562e+01,-1.101841201782226562e+02,-1.186378860473632812e+02,6.339974212646484375e+01,-4.070782089233398438e+01
5.720000267028808594e-01,2.000000000000000000e+00,3.854360961914062500e+01,7.033529758453369141e+00,3.546615982055664062e+01,-1.149034118652343750e+02,9.102104949951171875e+01,-6.675601959228515625e+01,4.468936920166015625e+01,-1.195288276672363281e+01,-1.101929321289062500e+02,-1.186968154907226562e+02,6.339583587646484375e+01,-4.073461151123046875e+01
5.759999752044677734e-01,2.000000000000000000e+00,3.857213592529296875e+01,6.986096858978271484e+00,3.545987319946289062e+01,-1.149574508666992188e+02,9.102374267578125000e+01,-6.678077697753906250e+01,4.461894607543945312e+01,-1.194732666015625000e+01,-1.102017440795898438e+02,-1.187557373046875000e+02,6.339192962646484375e+01,-4.076139450073242188e+01
5.799999833106994629e-01,2.000000000000000000e+00,3.860066223144531250e+01,6.938667297363281250e+00,3.545358657836914062e+01,-1.150114974975585938e+02,9.102642822265625000e+01,-6.680553436279296875e+01,4.454852676391601562e+01,-1.194177055358886719e+01,-1.102105560302734375e+02,-1.188146667480468750e+02,6.338801574707031250e+01,-4.078817749023437500e+01
5.839999914169311523e-01,2.000000000000000000e+00,3.862918090820312500e+01,6.891241550445556641e+00,3.544729995727539062e+01,-1.150655212402343750e+02,9.102912139892578125e+01,-6.683028411865234375e+01,4.447811126708984375e+01,-1.193621635437011719e+01,-1.102193679809570312e+02,-1.188735809326171875e+02,6.338410949707031250e+01,-4.081496047973632812e+01
5.879999995231628418e-01,2.000000000000000000e+00,3.865770339965820312e+01,6.843818664550781250e+00,3.544101333618164062e+01,-1.151195602416992188e+02,9.103181457519531250e+01,-6.685503387451171875e+01,4.440770339965820312e+01,-1.193066120147705078e+01,-1.102281723022460938e+02,-1.189325027465820312e+02,6.338020324707031250e+01,-4.084174346923828125e+01
5.920000076293945312e-01,2.000000000000000000e+00,3.868621826171875000e+01,6.796399593353271484e+00,3.543472290039062500e+01,-1.151735916137695312e+02,9.103450775146484375e+01,-6.687978363037109375e+01,4.433729934692382812e+01,-1.192510700225830078e+01,-1.102369766235351562e+02,-1.189914016723632812e+02,6.337629318237304688e+01,-4.086851882934570312e+01
5.960000157356262207e-01,2.000000000000000000e+00,3.871473693847656250e+01,6.748983860015869141e+00,3.542844009399414062e+01,-1.152276153564453125e+02,9.103719329833984375e+01,-6.690453338623046875e+01,4.426690292358398438e+01,-1.191955280303955078e+01,-1.102457885742187500e+02,-1.190503234863281250e+02,6.337237930297851562e+01,-4.089529418945312500e+01
6.000000238418579102e-01,2.000000000000000000e+00,3.874324798583984375e+01,6.701571941375732422e+00,3.542215347290039062e+01,-1.152816314697265625e+02,9.103988647460937500e+01,-6.692927551269531250e+01,4.419651031494140625e+01,-1.191399860382080078e+01,-1.102545928955078125e+02,-1.191092147827148438e+02,6.336847305297851562e+01,-4.092206954956054688e+01
6.039999723434448242e-01,2.000000000000000000e+00,3.877175903320312500e+01,6.654163360595703125e+00,3.541587066650390625e+01,-1.153356399536132812e+02,9.104257965087890625e+01,-6.695402526855468750e+01,4.412612533569335938e+01,-1.190844631195068359e+01,-1.102633972167968750e+02,-1.191681137084960938e+02,6.336456680297851562e+01,-4.094883728027343750e+01
6.079999804496765137e-01,2.000000000000000000e+00,3.880027008056640625e+01,6.606758117675781250e+00,3.540958404541015625e+01,-1.153896560668945312e+02,9.104526519775390625e+01,-6.697875976562500000e+01,4.405573654174804688e+01,-1.190289306640625000e+01,-1.102722091674804688e+02,-1.192270050048828125e+02,6.336066055297851562e+01,-4.097560882568359375e+01
6.119999885559082031e-01,2.000000000000000000e+00,3.882877731323242188e+01,6.559356689453125000e+00,3.540329742431640625e+01,-1.154436645507812500e+02,9.104795837402343750e+01,-6.700350189208984375e+01,4.398536300659179688e+01,-1.189734077453613281e+01,-1.102810134887695312e+02,-1.192858963012695312e+02,6.335675430297851562e+01,-4.100237655639648438e+01
6.159999966621398926e-01,2.000000000000000000e+00,3.885728073120117188e+01,6.511958122253417969e+00,3.539701461791992188e+01,-1.154976654052734375e+02,9.105065155029296875e+01,-6.702823638916015625e+01,4.391498947143554688e+01,-1.189178848266601562e+01,-1.102898178100585938e+02,-1.193447875976562500e+02,6.335284805297851562e+01,-4.102914428710937500e+01
6.200000047683715820e-01,2.000000000000000000e+00,3.888578796386718750e+01,6.464563369750976562e+00,3.539073562622070312e+01,-1.155516662597656250e+02,9.105334472656250000e+01,-6.705297088623046875e+01,4.384462356567382812e+01,-1.188623809814453125e+01,-1.102986221313476562e+02,-1.194036636352539062e+02,6.334893798828125000e+01,-4.105590820312500000e+01
6.240000128746032715e-01,2.000000000000000000e+00,3.891428756713867188e+01,6.417171955108642578e+00,3.538445281982421875e+01,-1.156056671142578125e+02,9.105603027343750000e+01,-6.707771301269531250e+01,4.377425765991210938e+01,-1.188068675994873047e+01,-1.103074264526367188e+02,-1.194625396728515625e+02,6.334503936767578125e+01,-4.108267211914062500e+01
6.280000209808349609e-01,2.000000000000000000e+00,3.894278335571289062e+01,6.369784355163574219e+00,3.537816619873046875e+01,-1.156596679687500000e+02,9.105872344970703125e+01,-6.710243988037109375e+01,4.370390319824218750e+01,-1.187513637542724609e+01,-1.103162231445312500e+02,-1.195214157104492188e+02,6.334113311767578125e+01,-4.110943222045898438e+01
6.320000290870666504e-01,2.000000000000000000e+00,3.897128295898437500e+01,6.322399139404296875e+00,3.537188720703125000e+01,-1.157136535644531250e+02,9.106141662597656250e+01,-6.712717437744140625e+01,4.363355255126953125e+01,-1.186958599090576172e+01,-1.103250274658203125e+02,-1.195802764892578125e+02,6.333722686767578125e+01,-4.113619232177734375e+01
6.359999775886535645e-01,2.000000000000000000e+00,3.899977874755859375e+01,6.275017738342285156e+00,3.536560821533203125e+01,-1.157676391601562500e+02,9.106410217285156250e+01,-6.715190124511718750e+01,4.356320190429687500e+01,-1.186403560638427734e+01,-1.103338241577148438e+02,-1.196391372680664062e+02,6.333332061767578125e+01,-4.116294860839843750e+01
6.399999856948852539e-01,2.000000000000000000e+00,3.902827072143554688e+01,6.227640151977539062e+00,3.535932159423828125e+01,-1.158216094970703125e+02,9.106678771972656250e+01,-6.717663574218750000e+01,4.349286270141601562e+01,-1.185848617553710938e+01,-1.103426284790039062e+02,-1.196979980468750000e+02,6.332941055297851562e+01,-4.118970108032226562e+01
6.439999938011169434e-01,2.000000000000000000e+00,3.905676269531250000e+01,6.180265426635742188e+00,3.535304260253906250e+01,-1.158755950927734375e+02,9.106948089599609375e+01,-6.720135498046875000e+01,4.342252349853515625e+01,-1.185293674468994141e+01,-1.103514251708984375e+02,-1.197568511962890625e+02,6.332551193237304688e+01,-4.121645736694335938e+01
6.480000019073486328e-01,2.000000000000000000e+00,3.908525085449218750e+01,6.132894039154052734e+00,3.534676361083984375e+01,-1.159295654296875000e+02,9.107216644287109375e+01,-6.722607421875000000e+01,4.335219192504882812e+01,-1.184738826751708984e+01,-1.103602294921875000e+02,-1.198157119750976562e+02,6.332160568237304688e+01,-4.124320602416992188e+01
6.520000100135803223e-01,2.000000000000000000e+00,3.911373901367187500e+01,6.085525989532470703e+00,3.534048461914062500e+01,-1.159835357666015625e+02,9.107485961914062500e+01,-6.725080108642578125e+01,4.328186416625976562e+01,-1.184183979034423828e+01,-1.103690261840820312e+02,-1.198745498657226562e+02,6.331770706176757812e+01,-4.126995468139648438e+01
6.560000181198120117e-01,2.000000000000000000e+00,3.914222335815429688e+01,6.038161277770996094e+00,3.533420562744140625e+01,-1.160374984741210938e+02,9.107754516601562500e+01,-6.727552032470703125e+01,4.321154403686523438e+01,-1.183629226684570312e+01,-1.103778228759765625e+02,-1.199333953857421875e+02,6.331379699707031250e+01,-4.129669952392578125e+01
6.600000262260437012e-01,2.000000000000000000e+00,3.917070770263671875e+01,5.990800380706787109e+00,3.532792663574218750e+01,-1.160914688110351562e+02,9.108023071289062500e+01,-6.730023956298828125e+01,4.314122772216796875e+01,-1.183074378967285156e+01,-1.103866195678710938e+02,-1.199922332763671875e+02,6.330989837646484375e+01,-4.132344818115234375e+01
6.639999747276306152e-01,2.000000000000000000e+00,3.919918823242187500e+01,5.943441867828369141e+00,3.532164764404296875e+01,-1.161454315185546875e+02,9.108292388916015625e+01,-6.732495880126953125e+01,4.307091522216796875e+01,-1.182519721984863281e+01,-1.103954162597656250e+02,-1.200510635375976562e+02,6.330599212646484375e+01,-4.135018920898437500e+01
6.679999828338623047e-01,2.000000000000000000e+00,3.922766876220703125e+01,5.896087646484375000e+00,3.531537246704101562e+01,-1.161993713378906250e+02,9.108560943603515625e+01,-6.734967803955078125e+01,4.300060272216796875e+01,-1.181965065002441406e+01,-1.104042205810546875e+02,-1.201099014282226562e+02,6.330208969116210938e+01,-4.137693023681640625e+01
6.719999909400939941e-01,2.000000000000000000e+00,3.925614547729492188e+01,5.848735809326171875e+00,3.530909347534179688e+01,-1.162533340454101562e+02,9.108829498291015625e+01,-6.737438964843750000e+01,4.293030166625976562e+01,-1.181410408020019531e+01,-1.104130096435546875e+02,-1.201687240600585938e+02,6.329818344116210938e+01,-4.140367126464843750e+01
6.759999990463256836e-01,2.000000000000000000e+00,3.928461837768554688e+01,5.801387310028076172e+00,3.530281829833984375e+01,-1.163072738647460938e+02,9.109098052978515625e+01,-6.739910125732421875e+01,4.286000442504882812e+01,-1.180855751037597656e+01,-1.104218063354492188e+02,-1.202275466918945312e+02,6.329428482055664062e+01,-4.143041229248046875e+01
6.800000071525573730e-01,2.000000000000000000e+00,3.931309509277343750e+01,5.754042148590087891e+00,3.529653930664062500e+01,-1.163612213134765625e+02,9.109367370605468750e+01,-6.742381286621093750e+01,4.278971099853515625e+01,-1.180301189422607422e+01,-1.104306030273437500e+02,-1.202863693237304688e+02,6.329038619995117188e+01,-4.145714950561523438e+01
6.840000152587890625e-01,2.000000000000000000e+00,3.934156417846679688e+01,5.706700325012207031e+00,3.529026412963867188e+01,-1.164151535034179688e+02,9.109635925292968750e+01,-6.744851684570312500e+01,4.271942138671875000e+01,-1.179746627807617188e+01,-1.104393920898437500e+02,-1.203451919555664062e+02,6.328647613525390625e+01,-4.148388290405273438e+01
6.880000233650207520e-01,2.000000000000000000e+00,3.937003326416015625e+01,5.659361839294433594e+00,3.528398513793945312e+01,-1.164691009521484375e+02,9.109905242919921875e+01,-6.747322082519531250e+01,4.264913940429687500e+01,-1.179192256927490234e+01,-1.104481887817382812e+02,-1.204039993286132812e+02,6.328257751464843750e+01,-4.151061630249023438e+01
6.919999718666076660e-01,2.000000000000000000e+00,3.939850234985351562e+01,5.612026214599609375e+00,3.527771377563476562e+01,-1.165230255126953125e+02,9.110173034667968750e+01,-6.749793243408203125e+01,4.257886123657226562e+01,-1.178637790679931641e+01,-1.104569778442382812e+02,-1.204628067016601562e+02,6.327867889404296875e+01,-4.153734588623046875e+01
6.959999799728393555e-01,2.000000000000000000e+00,3.942696762084960938e+01,5.564693927764892578e+00,3.527143478393554688e+01,-1.165769577026367188e+02,9.110441589355468750e+01,-6.752262878417968750e+01,4.250858306884765625e+01,-1.178083324432373047e+01,-1.104657745361328125e+02,-1.205215988159179688e+02,6.327477645874023438e+01,-4.156407546997070312e+01
6.999999880790710449e-01,2.000000000000000000e+00,3.945543289184570312e+01,5.517364501953125000e+00,3.526516342163085938e+01,-1.166308746337890625e+02,9.110710906982421875e+01,-6.754733276367187500e+01,4.243831634521484375e+01,-1.177528953552246094e+01,-1.104745635986328125e+02,-1.205804061889648438e+02,6.327087783813476562e+01,-4.159080123901367188e+01
7.039999961853027344e-01,2.000000000000000000e+00,3.948389434814453125e+01,5.470038414001464844e+00,3.525888824462890625e+01,-1.166848068237304688e+02,9.110979461669921875e+01,-6.757202911376953125e+01,4.236804962158203125e+01,-1.176974582672119141e+01,-1.104833526611328125e+02,-1.206391983032226562e+02,6.326697921752929688e+01,-4.161752319335937500e+01
7.080000042915344238e-01,2.000000000000000000e+00,3.951235580444335938e+01,5.422715663909912109e+00,3.525261306762695312e+01,-1.167387237548828125e+02,9.111248016357421875e+01,-6.759673309326171875e+01,4.229779052734375000e+01,-1.176420307159423828e+01,-1.104921417236328125e+02,-1.206979980468750000e+02,6.326307678222656250e+01,-4.164425277709960938e+01
7.120000123977661133e-01,2.000000000000000000e+00,3.954081344604492188e+01,5.375396251678466797e+00,3.524634170532226562e+01,-1.167926406860351562e+02,9.111516571044921875e+01,-6.762142944335937500e+01,4.222753524780273438e+01,-1.175866031646728516e+01,-1.105009307861328125e+02,-1.207567749023437500e+02,6.325917816162109375e+01,-4.167097091674804688e+01
7.160000205039978027e-01,2.000000000000000000e+00,3.956926727294921875e+01,5.328079700469970703e+00,3.524006652832031250e+01,-1.168465499877929688e+02,9.111785125732421875e+01,-6.764612579345703125e+01,4.215728378295898438e+01,-1.175311851501464844e+01,-1.105097198486328125e+02,-1.208155593872070312e+02,6.325527572631835938e+01,-4.169768905639648438e+01
7.200000286102294922e-01,2.000000000000000000e+00,3.959772109985351562e+01,5.280766010284423828e+00,3.523379898071289062e+01,-1.169004516601562500e+02,9.112053680419921875e+01,-6.767081451416015625e+01,4.208703613281250000e+01,-1.174757575988769531e+01,-1.105185165405273438e+02,-1.208743362426757812e+02,6.325137710571289062e+01,-4.172441101074218750e+01
7.239999771118164062e-01,2.000000000000000000e+00,3.962617111206054688e+01,5.233455181121826172e+00,3.522752380371093750e+01,-1.169543533325195312e+02,9.112322235107421875e+01,-6.769551086425781250e+01,4.201679229736328125e+01,-1.174203491210937500e+01,-1.105272979736328125e+02,-1.209331207275390625e+02,6.324747848510742188e+01,-4.175112533569335938e+01
7.279999852180480957e-01,2.000000000000000000e+00,3.965462493896484375e+01,5.186148166656494141e+00,3.522125244140625000e+01,-1.170082626342773438e+02,9.112590789794921875e+01,-6.772019958496093750e+01,4.194655990600585938e+01,-1.173649215698242188e+01,-1.105360870361328125e+02,-1.209918823242187500e+02,6.324357604980468750e+01,-4.177784347534179688e+01
7.319999933242797852e-01,2.000000000000000000e+00,3.968307113647460938e+01,5.138843536376953125e+00,3.521498107910156250e+01,-1.170621643066406250e+02,9.112859344482421875e+01,-6.774488830566406250e+01,4.187632369995117188e+01,-1.173095226287841797e+01,-1.105448684692382812e+02,-1.210506515502929688e+02,6.323967742919921875e+01,-4.180455398559570312e+01
7.360000014305114746e-01,2.000000000000000000e+00,3.971152114868164062e+01,5.091542243957519531e+00,3.520870971679687500e+01,-1.171160507202148438e+02,9.113127899169921875e+01,-6.776957702636718750e+01,4.180609512329101562e+01,-1.172541141510009766e+01,-1.105536651611328125e+02,-1.211094207763671875e+02,6.323577880859375000e+01,-4.183126449584960938e+01
7.400000095367431641e-01,2.000000000000000000e+00,3.973996734619140625e+01,5.044244289398193359e+00,3.520243835449218750e+01,-1.171699447631835938e+02,9.113396453857421875e+01,-6.779426574707031250e+01,4.173587036132812500e+01,-1.171987152099609375e+01,-1.105624465942382812e+02,-1.211681747436523438e+02,6.323188400268554688e+01,-4.185797500610351562e+01
7.440000176429748535e-01,2.000000000000000000e+00,3.976840972900390625e+01,4.996948719024658203e+00,3.519617080688476562e+01,-1.172238311767578125e+02,9.113665008544921875e+01,-6.781894683837890625e+01,4.166565322875976562e+01,-1.171433162689208984e+01,-1.105712280273437500e+02,-1.212269363403320312e+02,6.322798538208007812e+01,-4.188468551635742188e+01
7.480000257492065430e-01,2.000000000000000000e+00,3.979684829711914062e+01,4.949656486511230469e+00,3.518989944458007812e+01,-1.172777099609375000e+02,9.113933563232421875e+01,-6.784362792968750000e+01,4.159543991088867188e+01,-1.170879173278808594e+01,-1.105800094604492188e+02,-1.212856903076171875e+02,6.322408294677734375e+01,-4.191138839721679688e+01
7.519999742507934570e-01,2.000000000000000000e+00,3.982529067993164062e+01,4.902367591857910156e+00,3.518362808227539062e+01,-1.173315887451171875e+02,9.114202117919921875e+01,-6.786830902099609375e+01,4.152522659301757812e+01,-1.170325279235839844e+01,-1.105887985229492188e+02,-1.213444290161132812e+02,6.322019195556640625e+01,-4.193809509277343750e+01
7.559999823570251465e-01,2.000000000000000000e+00,3.985372924804687500e+01,4.855081081390380859e+00,3.517736434936523438e+01,-1.173854598999023438e+02,9.114469909667968750e+01,-6.789299011230468750e+01,4.145502090454101562e+01,-1.169771385192871094e+01,-1.105975799560546875e+02,-1.214031829833984375e+02,6.321628952026367188e+01,-4.196479797363281250e+01
7.599999904632568359e-01,2.000000000000000000e+00,3.988216400146484375e+01,4.807797908782958984e+00,3.517109298706054688e+01,-1.174393386840820312e+02,9.114738464355468750e+01,-6.791766357421875000e+01,4.138481903076171875e+01,-1.169217586517333984e+01,-1.106063613891601562e+02,-1.214619216918945312e+02,6.321239089965820312e+01,-4.199149703979492188e+01
7.639999985694885254e-01,2.000000000000000000e+00,3.991059875488281250e+01,4.760517597198486328e+00,3.516482543945312500e+01,-1.174932174682617188e+02,9.115007019042968750e+01,-6.794234466552734375e+01,4.131462478637695312e+01,-1.168663692474365234e+01,-1.106151504516601562e+02,-1.215206680297851562e+02,6.320849609375000000e+01,-4.201819992065429688e+01
7.680000066757202148e-01,2.000000000000000000e+00,3.993902969360351562e+01,4.713240623474121094e+00,3.515855789184570312e+01,-1.175470809936523438e+02,9.115275573730468750e+01,-6.796702575683593750e+01,4.124443054199218750e+01,-1.168109989166259766e+01,-1.106239318847656250e+02,-1.215793914794921875e+02,6.320459747314453125e+01,-4.204489517211914062e+01
7.720000147819519043e-01,2.000000000000000000e+00,3.996746063232421875e+01,4.665965557098388672e+00,3.515229415893554688e+01,-1.176009445190429688e+02,9.115543365478515625e+01,-6.799169158935546875e+01,4.117424392700195312e+01,-1.167556190490722656e+01,-1.106327056884765625e+02,-1.216381301879882812e+02,6.320070266723632812e+01,-4.207159042358398438e+01
7.760000228881835938e-01,2.000000000000000000e+00,3.999589157104492188e+01,4.618694305419921875e+00,3.514602661132812500e+01,-1.176548080444335938e+02,9.115811920166015625e+01,-6.801636505126953125e+01,4.110405731201171875e+01,-1.167002582550048828e+01,-1.106414947509765625e+02,-1.216968536376953125e+02,6.319681167602539062e+01,-4.209828948974609375e+01
7.799999713897705078e-01,2.000000000000000000e+00,4.002431869506835938e+01,4.571425437927246094e+00,3.513975906372070312e+01,-1.177086563110351562e+02,9.116080474853515625e+01,-6.804103088378906250e+01,4.103387832641601562e+01,-1.166448879241943359e+01,-1.106502761840820312e+02,-1.217555847167968750e+02,6.319290924072265625e+01,-4.212498092651367188e+01
7.839999794960021973e-01,2.000000000000000000e+00,4.005274200439453125e+01,4.524159908294677734e+00,3.513349151611328125e+01,-1.177625198364257812e+02,9.116348266601562500e+01,-6.806570434570312500e+01,4.096370315551757812e+01,-1.165895175933837891e+01,-1.106590499877929688e+02,-1.218142929077148438e+02,6.318901824951171875e+01,-4.215167236328125000e+01
7.879999876022338867e-01,2.000000000000000000e+00,4.008116531372070312e+01,4.476897239685058594e+00,3.512722778320312500e+01,-1.178163681030273438e+02,9.116616821289062500e+01,-6.809037017822265625e+01,4.089353179931640625e+01,-1.165341663360595703e+01,-1.106678314208984375e+02,-1.218730239868164062e+02,6.318511581420898438e+01,-4.217835998535156250e+01
7.919999957084655762e-01,2.000000000000000000e+00,4.010958862304687500e+01,4.429637432098388672e+00,3.512096405029296875e+01,-1.178702163696289062e+02,9.116884613037109375e+01,-6.811503601074218750e+01,4.082336425781250000e+01,-1.164788055419921875e+01,-1.106766128540039062e+02,-1.219317321777343750e+02,6.318122482299804688e+01,-4.220505142211914062e+01
7.960000038146972656e-01,2.000000000000000000e+00,4.013801193237304688e+01,4.382380008697509766e+00,3.511469650268554688e+01,-1.179240493774414062e+02,9.117153167724609375e+01,-6.813970184326171875e+01,4.075320053100585938e+01,-1.164234542846679688e+01,-1.106853866577148438e+02,-1.219904327392578125e+02,6.317733001708984375e+01,-4.223173522949218750e+01
8.000000119209289551e-01,2.000000000000000000e+00,4.016642761230468750e+01,4.335125923156738281e+00,3.510843276977539062e+01,-1.179778900146484375e+02,9.117421722412109375e+01,-6.816436767578125000e+01,4.068304061889648438e+01,-1.163681030273437500e+01,-1.106941680908203125e+02,-1.220491409301757812e+02,6.317343902587890625e+01,-4.225842285156250000e+01
8.040000200271606445e-01,2.000000000000000000e+00,4.019484329223632812e+01,4.287874221801757812e+00,3.510216522216796875e+01,-1.180317382812500000e+02,9.117690277099609375e+01,-6.818902587890625000e+01,4.061288833618164062e+01,-1.163127517700195312e+01,-1.107029418945312500e+02,-1.221078414916992188e+02,6.316954421997070312e+01,-4.228510284423828125e+01
8.080000281333923340e-01,2.000000000000000000e+00,4.022326278686523438e+01,4.240625381469726562e+00,3.509590148925781250e+01,-1.180855560302734375e+02,9.117958068847656250e+01,-6.821368408203125000e+01,4.054273986816406250e+01,-1.162574100494384766e+01,-1.107117156982421875e+02,-1.221665420532226562e+02,6.316564559936523438e+01,-4.231178665161132812e+01
8.119999766349792480e-01,2.000000000000000000e+00,4.025167465209960938e+01,4.193379878997802734e+00,3.508963775634765625e+01,-1.181393966674804688e+02,9.118225860595703125e+01,-6.823834228515625000e+01,4.047259521484375000e+01,-1.162020683288574219e+01,-1.107204971313476562e+02,-1.222252426147460938e+02,6.316175079345703125e+01,-4.233846664428710938e+01
8.159999847412109375e-01,2.000000000000000000e+00,4.028008651733398438e+01,4.146136760711669922e+00,3.508337783813476562e+01,-1.181932144165039062e+02,9.118494415283203125e+01,-6.826300048828125000e+01,4.040245056152343750e+01,-1.161467266082763672e+01,-1.107292633056640625e+02,-1.222839279174804688e+02,6.315785980224609375e+01,-4.236514663696289062e+01
8.199999928474426270e-01,2.000000000000000000e+00,4.030849456787109375e+01,4.098896503448486328e+00,3.507711410522460938e+01,-1.182470474243164062e+02,9.118762207031250000e+01,-6.828765869140625000e+01,4.033231353759765625e+01,-1.160913944244384766e+01,-1.107380447387695312e+02,-1.223426208496093750e+02,6.315396499633789062e+01,-4.239182281494140625e+01
8.240000009536743164e-01,2.000000000000000000e+00,4.033690643310546875e+01,4.051659107208251953e+00,3.507085418701171875e+01,-1.183008728027343750e+02,9.119030761718750000e+01,-6.831230926513671875e+01,4.026218032836914062e+01,-1.160360717773437500e+01,-1.107468185424804688e+02,-1.224013061523437500e+02,6.315007019042968750e+01,-4.241849899291992188e+01
8.280000090599060059e-01,2.000000000000000000e+00,4.036531066894531250e+01,4.004424095153808594e+00,3.506459045410156250e+01,-1.183546829223632812e+02,9.119298553466796875e+01,-6.833696746826171875e+01,4.019205093383789062e+01,-1.159807395935058594e+01,-1.107555923461914062e+02,-1.224599761962890625e+02,6.314617919921875000e+01,-4.244517135620117188e+01
8.320000171661376953e-01,2.000000000000000000e+00,4.039371871948242188e+01,3.957192182540893555e+00,3.505833053588867188e+01,-1.184085006713867188e+02,9.119567108154296875e+01,-6.836161804199218750e+01,4.012192535400390625e+01,-1.159254169464111328e+01,-1.107643661499023438e+02,-1.225186614990234375e+02,6.314228439331054688e+01,-4.247184371948242188e+01
8.360000252723693848e-01,2.000000000000000000e+00,4.042212295532226562e+01,3.909963130950927734e+00,3.505206680297851562e+01,-1.184623107910156250e+02,9.119834899902343750e+01,-6.838626861572265625e+01,4.005180358886718750e+01,-1.158700942993164062e+01,-1.107731399536132812e+02,-1.225773391723632812e+02,6.313839340209960938e+01,-4.249851608276367188e+01
8.399999737739562988e-01,2.000000000000000000e+00,4.045052337646484375e+01,3.862736701965332031e+00,3.504580688476562500e+01,-1.185161209106445312e+02,9.120103454589843750e+01,-6.841091156005859375e+01,3.998168945312500000e+01,-1.158147716522216797e+01,-1.107819137573242188e+02,-1.226360092163085938e+02,6.313449859619140625e+01,-4.252518463134765625e+01
8.439999818801879883e-01,2.000000000000000000e+00,4.047892379760742188e+01,3.815512657165527344e+00,3.503954696655273438e+01,-1.185699234008789062e+02,9.120370483398437500e+01,-6.843556213378906250e+01,3.991157150268554688e+01,-1.157594680786132812e+01,-1.107906799316406250e+02,-1.226946792602539062e+02,6.313061141967773438e+01,-4.255185317993164062e+01
8.479999899864196777e-01,2.000000000000000000e+00,4.050732040405273438e+01,3.768291473388671875e+00,3.503328704833984375e+01,-1.186237182617187500e+02,9.120639038085937500e+01,-6.846020507812500000e+01,3.984146499633789062e+01,-1.157041454315185547e+01,-1.107994537353515625e+02,-1.227533340454101562e+02,6.312672042846679688e+01,-4.257851791381835938e+01
8.519999980926513672e-01,2.000000000000000000e+00,4.053571701049804688e+01,3.721072912216186523e+00,3.502702713012695312e+01,-1.186775283813476562e+02,9.120906829833984375e+01,-6.848484802246093750e+01,3.977135848999023438e+01,-1.156488418579101562e+01,-1.108082199096679688e+02,-1.228120040893554688e+02,6.312282562255859375e+01,-4.260518264770507812e+01
8.560000061988830566e-01,2.000000000000000000e+00,4.056411361694335938e+01,3.673857212066650391e+00,3.502076721191406250e+01,-1.187313232421875000e+02,9.121174621582031250e+01,-6.850949096679687500e+01,3.970125579833984375e+01,-1.155935382843017578e+01,-1.108169937133789062e+02,-1.228706665039062500e+02,6.311893463134765625e+01,-4.263184356689453125e+01
8.600000143051147461e-01,2.000000000000000000e+00,4.059250640869140625e+01,3.626644372940063477e+00,3.501450729370117188e+01,-1.187851181030273438e+02,9.121443176269531250e+01,-6.853413391113281250e+01,3.963116073608398438e+01,-1.155382347106933594e+01,-1.108257598876953125e+02,-1.229293060302734375e+02,6.311504745483398438e+01,-4.265850830078125000e+01
8.640000224113464355e-01,2.000000000000000000e+00,4.062089920043945312e+01,3.579433679580688477e+00,3.500824737548828125e+01,-1.188388977050781250e+02,9.121710968017578125e+01,-6.855876922607421875e+01,3.956106567382812500e+01,-1.154829406738281250e+01,-1.108345336914062500e+02,-1.229879684448242188e+02,6.311115264892578125e+01,-4.268516921997070312e+01
8.679999709129333496e-01,2.000000000000000000e+00,4.064929199218750000e+01,3.532225847244262695e+00,3.500199127197265625e+01,-1.188926925659179688e+02,9.121978759765625000e+01,-6.858341217041015625e+01,3.949097442626953125e+01,-1.154276371002197266e+01,-1.108432998657226562e+02,-1.230466079711914062e+02,6.310726165771484375e+01,-4.271182632446289062e+01
8.719999790191650391e-01,2.000000000000000000e+00,4.067768096923828125e+01,3.485020637512207031e+00,3.499573135375976562e+01,-1.189464721679687500e+02,9.122247314453125000e+01,-6.860804748535156250e+01,3.942089080810546875e+01,-1.153723430633544922e+01,-1.108520736694335938e+02,-1.231052551269531250e+02,6.310337448120117188e+01,-4.273848342895507812e+01
8.759999871253967285e-01,2.000000000000000000e+00,4.070606613159179688e+01,3.437817811965942383e+00,3.498947525024414062e+01,-1.190002593994140625e+02,9.122515106201171875e+01,-6.863268280029296875e+01,3.935081100463867188e+01,-1.153170585632324219e+01,-1.108608398437500000e+02,-1.231639022827148438e+02,6.309947967529296875e+01,-4.276514053344726562e+01
8.799999952316284180e-01,2.000000000000000000e+00,4.073445129394531250e+01,3.390617609024047852e+00,3.498321914672851562e+01,-1.190540390014648438e+02,9.122782897949218750e+01,-6.865731811523437500e+01,3.928072738647460938e+01,-1.152617645263671875e+01,-1.108696060180664062e+02,-1.232225418090820312e+02,6.309558868408203125e+01,-4.279179382324218750e+01
8.840000033378601074e-01,2.000000000000000000e+00,4.076284027099609375e+01,3.343419790267944336e+00,3.497696304321289062e+01,-1.191078186035156250e+02,9.123050689697265625e+01,-6.868195343017578125e+01,3.921065521240234375e+01,-1.152064800262451172e+01,-1.108783721923828125e+02,-1.232811737060546875e+02,6.309170150756835938e+01,-4.281844711303710938e+01
8.880000114440917969e-01,2.000000000000000000e+00,4.079122161865234375e+01,3.296225070953369141e+00,3.497070693969726562e+01,-1.191615829467773438e+02,9.123318481445312500e+01,-6.870658111572265625e+01,3.914058685302734375e+01,-1.151512050628662109e+01,-1.108871383666992188e+02,-1.233398056030273438e+02,6.308780670166015625e+01,-4.284509658813476562e+01
8.920000195503234863e-01,2.000000000000000000e+00,4.081960296630859375e+01,3.249032735824584961e+00,3.496445083618164062e+01,-1.192153549194335938e+02,9.123586273193359375e+01,-6.873120880126953125e+01,3.907051849365234375e+01,-1.150959300994873047e+01,-1.108959121704101562e+02,-1.233984375000000000e+02,6.308392333984375000e+01,-4.287174987792968750e+01
8.960000276565551758e-01,2.000000000000000000e+00,4.084798431396484375e+01,3.201842784881591797e+00,3.495819091796875000e+01,-1.192691192626953125e+02,9.123854064941406250e+01,-6.875584411621093750e+01,3.900045394897460938e+01,-1.150406455993652344e+01,-1.109046707153320312e+02,-1.234570617675781250e+02,6.308003616333007812e+01,-4.289839553833007812e+01
8.999999761581420898e-01,2.000000000000000000e+00,4.087636184692382812e+01,3.154655456542968750e+00,3.495193481445312500e+01,-1.193228836059570312e+02,9.124121856689453125e+01,-6.878047180175781250e+01,3.893039703369140625e+01,-1.149853801727294922e+01,-1.109134368896484375e+02,-1.235156784057617188e+02,6.307614135742187500e+01,-4.292504501342773438e+01
9.039999842643737793e-01,2.000000000000000000e+00,4.090473937988281250e+01,3.107470273971557617e+00,3.494567871093750000e+01,-1.193766403198242188e+02,9.124389648437500000e+01,-6.880509948730468750e+01,3.886034011840820312e+01,-1.149301052093505859e+01,-1.109221954345703125e+02,-1.235742950439453125e+02,6.307225418090820312e+01,-4.295169067382812500e+01
9.079999923706054688e-01,2.000000000000000000e+00,4.093311691284179688e+01,3.060287952423095703e+00,3.493942642211914062e+01,-1.194304046630859375e+02,9.124658203125000000e+01,-6.882971954345703125e+01,3.879029083251953125e+01,-1.148748397827148438e+01,-1.109309692382812500e+02,-1.236329116821289062e+02,6.306836318969726562e+01,-4.297833251953125000e+01
9.120000004768371582e-01,2.000000000000000000e+00,4.096148681640625000e+01,3.013107538223266602e+00,3.493317031860351562e+01,-1.194841613769531250e+02,9.124925994873046875e+01,-6.885434722900390625e+01,3.872024536132812500e+01,-1.148195838928222656e+01,-1.109397277832031250e+02,-1.236915283203125000e+02,6.306447601318359375e+01,-4.300497436523437500e+01
9.160000085830688477e-01,2.000000000000000000e+00,4.098986053466796875e+01,2.965929508209228516e+00,3.492691802978515625e+01,-1.195379180908203125e+02,9.125193786621093750e+01,-6.887896728515625000e+01,3.865019607543945312e+01,-1.147643184661865234e+01,-1.109484939575195312e+02,-1.237501449584960938e+02,6.306058883666992188e+01,-4.303162002563476562e+01
9.200000166893005371e-01,2.000000000000000000e+00,4.101823425292968750e+01,2.918753862380981445e+00,3.492066192626953125e+01,-1.195916671752929688e+02,9.125461578369140625e+01,-6.890359497070312500e+01,3.858015823364257812e+01,-1.147090625762939453e+01,-1.109572601318359375e+02,-1.238087539672851562e+02,6.305670166015625000e+01,-4.305825805664062500e+01
9.240000247955322266e-01,2.000000000000000000e+00,4.104660415649414062e+01,2.871580600738525391e+00,3.491440582275390625e+01,-1.196454086303710938e+02,9.125729370117187500e+01,-6.892821502685546875e+01,3.851012039184570312e+01,-1.146538066864013672e+01,-1.109660110473632812e+02,-1.238673553466796875e+02,6.305281066894531250e+01,-4.308489990234375000e+01
9.279999732971191406e-01,2.000000000000000000e+00,4.107497024536132812e+01,2.824409484863281250e+00,3.490815353393554688e+01,-1.196991500854492188e+02,9.125997161865234375e+01,-6.895282745361328125e+01,3.844008255004882812e+01,-1.145985507965087891e+01,-1.109747772216796875e+02,-1.239259567260742188e+02,6.304892349243164062e+01,-4.311153793334960938e+01
9.319999814033508301e-01,2.000000000000000000e+00,4.110334014892578125e+01,2.777240753173828125e+00,3.490190124511718750e+01,-1.197528991699218750e+02,9.126264953613281250e+01,-6.897744750976562500e+01,3.837005233764648438e+01,-1.145433044433593750e+01,-1.109835433959960938e+02,-1.239845581054687500e+02,6.304503631591796875e+01,-4.313817214965820312e+01
9.359999895095825195e-01,2.000000000000000000e+00,4.113170623779296875e+01,2.730073928833007812e+00,3.489564895629882812e+01,-1.198066406250000000e+02,9.126531982421875000e+01,-6.900205993652343750e+01,3.830002212524414062e+01,-1.144880580902099609e+01,-1.109923019409179688e+02,-1.240431518554687500e+02,6.304114913940429688e+01,-4.316480636596679688e+01
9.399999976158142090e-01,2.000000000000000000e+00,4.116007232666015625e+01,2.682909727096557617e+00,3.488939666748046875e+01,-1.198603668212890625e+02,9.126799774169921875e+01,-6.902667999267578125e+01,3.822999954223632812e+01,-1.144328212738037109e+01,-1.110010604858398438e+02,-1.241017532348632812e+02,6.303726577758789062e+01,-4.319144058227539062e+01
9.440000057220458984e-01,2.000000000000000000e+00,4.118843460083007812e+01,2.635747194290161133e+00,3.488314437866210938e+01,-1.199141082763671875e+02,9.127067565917968750e+01,-6.905129241943359375e+01,3.815997695922851562e+01,-1.143775749206542969e+01,-1.110098190307617188e+02,-1.241603393554687500e+02,6.303337860107421875e+01,-4.321807479858398438e+01
9.480000138282775879e-01,2.000000000000000000e+00,4.121679687500000000e+01,2.588587045669555664e+00,3.487689208984375000e+01,-1.199678497314453125e+02,9.127335357666015625e+01,-6.907591247558593750e+01,3.808996200561523438e+01,-1.143223285675048828e+01,-1.110185775756835938e+02,-1.242189331054687500e+02,6.302949142456054688e+01,-4.324470520019531250e+01
9.520000219345092773e-01,2.000000000000000000e+00,4.124515914916992188e+01,2.541429042816162109e+00,3.487063980102539062e+01,-1.200215759277343750e+02,9.127603149414062500e+01,-6.910051727294921875e+01,3.801994323730468750e+01,-1.142671012878417969e+01,-1.110273437500000000e+02,-1.242775039672851562e+02,6.302560043334960938e+01,-4.327133560180664062e+01
9.559999704360961914e-01,2.000000000000000000e+00,4.127351760864257812e+01,2.494273185729980469e+00,3.486439132690429688e+01,-1.200753021240234375e+02,9.127870178222656250e+01,-6.912513732910156250e+01,3.794993209838867188e+01,-1.142118644714355469e+01,-1.110361022949218750e+02,-1.243360977172851562e+02,6.302171325683593750e+01,-4.329796218872070312e+01
9.599999785423278809e-01,2.000000000000000000e+00,4.130187606811523438e+01,2.447119235992431641e+00,3.485813903808593750e+01,-1.201290283203125000e+02,9.128137969970703125e+01,-6.914974212646484375e+01,3.787992095947265625e+01,-1.141566371917724609e+01,-1.110448608398437500e+02,-1.243946685791015625e+02,6.301782608032226562e+01,-4.332459259033203125e+01
9.639999866485595703e-01,2.000000000000000000e+00,4.133023452758789062e+01,2.399967670440673828e+00,3.485188674926757812e+01,-1.201827545166015625e+02,9.128405761718750000e+01,-6.917435455322265625e+01,3.780991744995117188e+01,-1.141014003753662109e+01,-1.110536193847656250e+02,-1.244532470703125000e+02,6.301393890380859375e+01,-4.335121917724609375e+01
9.679999947547912598e-01,2.000000000000000000e+00,4.135858917236328125e+01,2.352818012237548828e+00,3.484563446044921875e+01,-1.202364654541015625e+02,9.128673553466796875e+01,-6.919895935058593750e+01,3.773991394042968750e+01,-1.140461730957031250e+01,-1.110623779296875000e+02,-1.245118331909179688e+02,6.301005935668945312e+01,-4.337784576416015625e+01
9.720000028610229492e-01,2.000000000000000000e+00,4.138694381713867188e+01,2.305670022964477539e+00,3.483938598632812500e+01,-1.202901916503906250e+02,9.128941345214843750e+01,-6.922356414794921875e+01,3.766991424560546875e+01,-1.139909458160400391e+01,-1.110711364746093750e+02,-1.245703964233398438e+02,6.300617218017578125e+01,-4.340446853637695312e+01
9.760000109672546387e-01,2.000000000000000000e+00,4.141529464721679688e+01,2.258524179458618164e+00,3.483313369750976562e+01,-1.203439025878906250e+02,9.129209136962890625e+01,-6.924817657470703125e+01,3.759991455078125000e+01,-1.139357185363769531e+01,-1.110798950195312500e+02,-1.246289749145507812e+02,6.300228881835937500e+01,-4.343109512329101562e+01
9.800000190734863281e-01,2.000000000000000000e+00,4.144364929199218750e+01,2.211380243301391602e+00,3.482688522338867188e+01,-1.203976211547851562e+02,9.129476165771484375e+01,-6.927277374267578125e+01,3.752991867065429688e+01,-1.138805007934570312e+01,-1.110886535644531250e+02,-1.246875534057617188e+02,6.299840164184570312e+01,-4.345771789550781250e+01
9.840000271797180176e-01,2.000000000000000000e+00,4.147200012207031250e+01,2.164238214492797852e+00,3.482063674926757812e+01,-1.204513320922851562e+02,9.129743957519531250e+01,-6.929738616943359375e+01,3.745993041992187500e+01,-1.138252830505371094e+01,-1.110974044799804688e+02,-1.247461090087890625e+02,6.299451446533203125e+01,-4.348433685302734375e+01
9.879999756813049316e-01,2.000000000000000000e+00,4.150035095214843750e+01,2.117098331451416016e+00,3.481438827514648438e+01,-1.205050430297851562e+02,9.130011749267578125e+01,-6.932199096679687500e+01,3.738994216918945312e+01,-1.137700653076171875e+01,-1.111061630249023438e+02,-1.248046722412109375e+02,6.299062728881835938e+01,-4.351095962524414062e+01
9.919999837875366211e-01,2.000000000000000000e+00,4.152870178222656250e+01,2.069960117340087891e+00,3.480813598632812500e+01,-1.205587539672851562e+02,9.130279541015625000e+01,-6.934658813476562500e+01,3.731995391845703125e+01,-1.137148475646972656e+01,-1.111149215698242188e+02,-1.248632354736328125e+02,6.298674011230468750e+01,-4.353757476806640625e+01
9.959999918937683105e-01,2.000000000000000000e+00,4.155704498291015625e+01,2.022824048995971680e+00,3.480188751220703125e+01,-1.206124572753906250e+02,9.130546569824218750e+01,-6.937119293212890625e+01,3.724996948242187500e+01,-1.136596393585205078e+01,-1.111236724853515625e+02,-1.249217987060546875e+02,6.298286056518554688e+01,-4.356419754028320312e+01
1.000000000000000000e+00,2.000000000000000000e+00,4.158539581298828125e+01,1.975689649581909180e+00,3.479564285278320312e+01,-1.206661682128906250e+02,9.130814361572265625e+01,-6.939579010009765625e+01,3.717999267578125000e+01,-1.136044311523437500e+01,-1.111324310302734375e+02,-1.249803466796875000e+02,6.297897720336914062e+01,-4.359081268310546875e+01
1.003999948501586914e+00,2.000000000000000000e+00,4.161373901367187500e+01,1.928557038307189941e+00,3.478939056396484375e+01,-1.207198638916015625e+02,9.131082153320312500e+01,-6.942038726806640625e+01,3.711001205444335938e+01,-1.135492229461669922e+01,-1.111411819458007812e+02,-1.250389099121093750e+02,6.297509002685546875e+01,-4.361742782592773438e+01
1.008000016212463379e+00,2.000000000000000000e+00,4.164208221435546875e+01,1.881426692008972168e+00,3.478314208984375000e+01,-1.207735671997070312e+02,9.131349945068359375e+01,-6.944498443603515625e+01,3.704003906250000000e+01,-1.134940147399902344e+01,-1.111499404907226562e+02,-1.250974578857421875e+02,6.297120285034179688e+01,-4.364404678344726562e+01
1.011999964714050293e+00,2.000000000000000000e+00,4.167042922973632812e+01,1.834297895431518555e+00,3.477689743041992188e+01,-1.208272628784179688e+02,9.131616973876953125e+01,-6.946958160400390625e+01,3.697006607055664062e+01,-1.134388160705566406e+01,-1.111586914062500000e+02,-1.251560058593750000e+02,6.296732330322265625e+01,-4.367065811157226562e+01
1.016000032424926758e+00,2.000000000000000000e+00,4.169876861572265625e+01,1.787171006202697754e+00,3.477064895629882812e+01,-1.208809509277343750e+02,9.131884765625000000e+01,-6.949418640136718750e+01,3.690009689331054688e+01,-1.133836078643798828e+01,-1.111674423217773438e+02,-1.252145538330078125e+02,6.296343612670898438e+01,-4.369727325439453125e+01
1.019999980926513672e+00,2.000000000000000000e+00,4.172711181640625000e+01,1.740046024322509766e+00,3.476440048217773438e+01,-1.209346466064453125e+02,9.132152557373046875e+01,-6.951877593994140625e+01,3.683012771606445312e+01,-1.133284091949462891e+01,-1.111762008666992188e+02,-1.252731018066406250e+02,6.295954895019531250e+01,-4.372388458251953125e+01
1.024000048637390137e+00,2.000000000000000000e+00,4.175545120239257812e+01,1.692922830581665039e+00,3.475815200805664062e+01,-1.209883346557617188e+02,9.132419586181640625e+01,-6.954336547851562500e+01,3.676016616821289062e+01,-1.132732200622558594e+01,-1.111849594116210938e+02,-1.253316345214843750e+02,6.295566940307617188e+01,-4.375049209594726562e+01
1.026999950408935547e+00,2.000000000000000000e+00,4.178378677368164062e+01,1.645801424980163574e+00,3.475190734863281250e+01,-1.210420303344726562e+02,9.132687377929687500e+01,-6.956796264648437500e+01,3.669020462036132812e+01,-1.132180213928222656e+01,-1.111937026977539062e+02,-1.253901824951171875e+02,6.295178604125976562e+01,-4.377710342407226562e+01
1.031999945640563965e+00,2.000000000000000000e+00,4.181212615966796875e+01,1.598681926727294922e+00,3.474566268920898438e+01,-1.210957183837890625e+02,9.132954406738281250e+01,-6.959255981445312500e+01,3.662024688720703125e+01,-1.131628227233886719e+01,-1.112024612426757812e+02,-1.254487228393554688e+02,6.294789886474609375e+01,-4.380371475219726562e+01
1.036000013351440430e+00,2.000000000000000000e+00,4.184046173095703125e+01,1.551564097404479980e+00,3.473941040039062500e+01,-1.211494064331054688e+02,9.133222198486328125e+01,-6.961714935302734375e+01,3.655028915405273438e+01,-1.131076335906982422e+01,-1.112112121582031250e+02,-1.255072555541992188e+02,6.294401931762695312e+01,-4.383032226562500000e+01
1.039999961853027344e+00,2.000000000000000000e+00,4.186879730224609375e+01,1.504448056221008301e+00,3.473316574096679688e+01,-1.212030715942382812e+02,9.133489227294921875e+01,-6.964173889160156250e+01,3.648033905029296875e+01,-1.130524444580078125e+01,-1.112199630737304688e+02,-1.255657882690429688e+02,6.294013214111328125e+01,-4.385692977905273438e+01
1.044000029563903809e+00,2.000000000000000000e+00,4.189713287353515625e+01,1.457333922386169434e+00,3.472692108154296875e+01,-1.212567596435546875e+02,9.133756256103515625e+01,-6.966632843017578125e+01,3.641038513183593750e+01,-1.129972553253173828e+01,-1.112287139892578125e+02,-1.256243209838867188e+02,6.293625259399414062e+01,-4.388353347778320312e+01
1.047999978065490723e+00,2.000000000000000000e+00,4.192546844482421875e+01,1.410221457481384277e+00,3.472067642211914062e+01,-1.213104476928710938e+02,9.134024047851562500e+01,-6.969091033935546875e+01,3.634043884277343750e+01,-1.129420757293701172e+01,-1.112374649047851562e+02,-1.256828613281250000e+02,6.293236541748046875e+01,-4.391014099121093750e+01
1.052000045776367188e+00,2.000000000000000000e+00,4.195380020141601562e+01,1.363110780715942383e+00,3.471443176269531250e+01,-1.213641128540039062e+02,9.134291076660156250e+01,-6.971549987792968750e+01,3.627049255371093750e+01,-1.128868961334228516e+01,-1.112462158203125000e+02,-1.257413787841796875e+02,6.292848587036132812e+01,-4.393674468994140625e+01
1.054999947547912598e+00,2.000000000000000000e+00,4.198213195800781250e+01,1.316001892089843750e+00,3.470818328857421875e+01,-1.214177856445312500e+02,9.134558868408203125e+01,-6.974008941650390625e+01,3.620055007934570312e+01,-1.128317165374755859e+01,-1.112549667358398438e+02,-1.257999038696289062e+02,6.292460250854492188e+01,-4.396334457397460938e+01
1.059999942779541016e+00,2.000000000000000000e+00,4.201045989990234375e+01,1.268894791603088379e+00,3.470194244384765625e+01,-1.214714584350585938e+02,9.134825897216796875e+01,-6.976467895507812500e+01,3.613061141967773438e+01,-1.127765369415283203e+01,-1.112637176513671875e+02,-1.258584365844726562e+02,6.292072296142578125e+01,-4.398994827270507812e+01
1.064000010490417480e+00,2.000000000000000000e+00,4.203879165649414062e+01,1.221789240837097168e+00,3.469569396972656250e+01,-1.215251312255859375e+02,9.135093688964843750e+01,-6.978926086425781250e+01,3.606067276000976562e+01,-1.127213668823242188e+01,-1.112724609375000000e+02,-1.259169540405273438e+02,6.291683578491210938e+01,-4.401654815673828125e+01
1.067999958992004395e+00,2.000000000000000000e+00,4.206711959838867188e+01,1.174685478210449219e+00,3.468944931030273438e+01,-1.215788040161132812e+02,9.135360717773437500e+01,-6.981385040283203125e+01,3.599073791503906250e+01,-1.126661872863769531e+01,-1.112812118530273438e+02,-1.259754638671875000e+02,6.291295623779296875e+01,-4.404314804077148438e+01
1.072000026702880859e+00,2.000000000000000000e+00,4.209544372558593750e+01,1.127583503723144531e+00,3.468320465087890625e+01,-1.216324768066406250e+02,9.135627746582031250e+01,-6.983843231201171875e+01,3.592080688476562500e+01,-1.126110076904296875e+01,-1.112899627685546875e+02,-1.260339889526367188e+02,6.290907669067382812e+01,-4.406974792480468750e+01
1.075999975204467773e+00,2.000000000000000000e+00,4.212377166748046875e+01,1.080483078956604004e+00,3.467696380615234375e+01,-1.216861343383789062e+02,9.135895538330078125e+01,-6.986301422119140625e+01,3.585087585449218750e+01,-1.125558376312255859e+01,-1.112987136840820312e+02,-1.260925064086914062e+02,6.290518951416015625e+01,-4.409634399414062500e+01
1.080000042915344238e+00,2.000000000000000000e+00,4.215209579467773438e+01,1.033384323120117188e+00,3.467071533203125000e+01,-1.217397918701171875e+02,9.136162567138671875e+01,-6.988759613037109375e+01,3.578094863891601562e+01,-1.125006675720214844e+01,-1.113074645996093750e+02,-1.261510162353515625e+02,6.290130996704101562e+01,-4.412294006347656250e+01
1.083999991416931152e+00,2.000000000000000000e+00,4.218041992187500000e+01,9.862874150276184082e-01,3.466447448730468750e+01,-1.217934646606445312e+02,9.136430358886718750e+01,-6.991217803955078125e+01,3.571102142333984375e+01,-1.124455070495605469e+01,-1.113162078857421875e+02,-1.262095184326171875e+02,6.289743041992187500e+01,-4.414953613281250000e+01
1.088000059127807617e+00,2.000000000000000000e+00,4.220874404907226562e+01,9.391921162605285645e-01,3.465822982788085938e+01,-1.218471221923828125e+02,9.136697387695312500e+01,-6.993675231933593750e+01,3.564109802246093750e+01,-1.123903465270996094e+01,-1.113249588012695312e+02,-1.262680282592773438e+02,6.289354324340820312e+01,-4.417613220214843750e+01
1.090999960899353027e+00,2.000000000000000000e+00,4.223706436157226562e+01,8.920983672142028809e-01,3.465198898315429688e+01,-1.219007797241210938e+02,9.136964416503906250e+01,-6.996133422851562500e+01,3.557118225097656250e+01,-1.123351860046386719e+01,-1.113337020874023438e+02,-1.263265380859375000e+02,6.288966369628906250e+01,-4.420272827148437500e+01
1.095999956130981445e+00,2.000000000000000000e+00,4.226538467407226562e+01,8.450062870979309082e-01,3.464574432373046875e+01,-1.219544372558593750e+02,9.137232208251953125e+01,-6.998590850830078125e+01,3.550126266479492188e+01,-1.122800254821777344e+01,-1.113424530029296875e+02,-1.263850402832031250e+02,6.288578414916992188e+01,-4.422932052612304688e+01
1.100000023841857910e+00,2.000000000000000000e+00,4.229370498657226562e+01,7.979158759117126465e-01,3.463950347900390625e+01,-1.220080795288085938e+02,9.137499237060546875e+01,-7.001049041748046875e+01,3.543134689331054688e+01,-1.122248554229736328e+01,-1.113512039184570312e+02,-1.264435501098632812e+02,6.288190460205078125e+01,-4.425591278076171875e+01
1.103999972343444824e+00,2.000000000000000000e+00,4.232202529907226562e+01,7.508270740509033203e-01,3.463325881958007812e+01,-1.220617370605468750e+02,9.137766265869140625e+01,-7.003506469726562500e+01,3.536143493652343750e+01,-1.121697044372558594e+01,-1.113599472045898438e+02,-1.265020446777343750e+02,6.287801742553710938e+01,-4.428250503540039062e+01
1.108000040054321289e+00,2.000000000000000000e+00,4.235034179687500000e+01,7.037398815155029297e-01,3.462701797485351562e+01,-1.221153793334960938e+02,9.138034057617187500e+01,-7.005963897705078125e+01,3.529152297973632812e+01,-1.121145534515380859e+01,-1.113686981201171875e+02,-1.265605392456054688e+02,6.287413787841796875e+01,-4.430909347534179688e+01
1.111999988555908203e+00,2.000000000000000000e+00,4.237866210937500000e+01,6.566542983055114746e-01,3.462077331542968750e+01,-1.221690292358398438e+02,9.138301086425781250e+01,-7.008421325683593750e+01,3.522161483764648438e+01,-1.120593929290771484e+01,-1.113774337768554688e+02,-1.266190490722656250e+02,6.287025833129882812e+01,-4.433568572998046875e+01
