rpiRobotics/ARM-21-02-F-19-Robot-Motion-Program/data_performance_abb/curve_2/dual_arm/diffevo_pose6_3/30L/grad_result/sim/dual_iteration_0.csv
timestamp,cmd_num,J1,J2,J3,J4,J5,J6,J1_2,J2_2,J3_2,J4_2,J5_2,J6_2
0.000000000000000000e+00,-1.000000000000000000e+00,3.553023147583007812e+01,1.263674640655517578e+01,3.562285614013671875e+01,-1.085574188232421875e+02,9.078920745849609375e+01,-6.399384689331054688e+01,5.301810455322265625e+01,-1.400297927856445312e+01,-1.065209350585937500e+02,-1.135214385986328125e+02,6.398922348022460938e+01,-3.637181091308593750e+01
2.000000094994902611e-03,-1.000000000000000000e+00,3.553023147583007812e+01,1.263674640655517578e+01,3.562285614013671875e+01,-1.085574188232421875e+02,9.078920745849609375e+01,-6.399384689331054688e+01,5.301810455322265625e+01,-1.400297927856445312e+01,-1.065209350585937500e+02,-1.135214385986328125e+02,6.398922348022460938e+01,-3.637181091308593750e+01
6.000000052154064178e-03,-1.000000000000000000e+00,3.553023147583007812e+01,1.263674640655517578e+01,3.562285614013671875e+01,-1.085574188232421875e+02,9.078920745849609375e+01,-6.399384689331054688e+01,5.301810455322265625e+01,-1.400297927856445312e+01,-1.065209350585937500e+02,-1.135214385986328125e+02,6.398922348022460938e+01,-3.637181091308593750e+01
8.000000379979610443e-03,-1.000000000000000000e+00,3.553023147583007812e+01,1.263674640655517578e+01,3.562285614013671875e+01,-1.085574188232421875e+02,9.078920745849609375e+01,-6.399384689331054688e+01,5.301810455322265625e+01,-1.400297927856445312e+01,-1.065209350585937500e+02,-1.135214385986328125e+02,6.398922348022460938e+01,-3.637181091308593750e+01
1.099999994039535522e-02,-1.000000000000000000e+00,3.553023147583007812e+01,1.263674640655517578e+01,3.562285614013671875e+01,-1.085574188232421875e+02,9.078920745849609375e+01,-6.399384689331054688e+01,5.301810455322265625e+01,-1.400297927856445312e+01,-1.065209350585937500e+02,-1.135214385986328125e+02,6.398922348022460938e+01,-3.637181091308593750e+01
1.600000075995922089e-02,-1.000000000000000000e+00,3.553023147583007812e+01,1.263674640655517578e+01,3.562285614013671875e+01,-1.085574188232421875e+02,9.078920745849609375e+01,-6.399384689331054688e+01,5.301810455322265625e+01,-1.400297927856445312e+01,-1.065209350585937500e+02,-1.135214385986328125e+02,6.398922348022460938e+01,-3.637181091308593750e+01
1.999999955296516418e-02,-1.000000000000000000e+00,3.553023147583007812e+01,1.263674640655517578e+01,3.562285614013671875e+01,-1.085574188232421875e+02,9.078920745849609375e+01,-6.399384689331054688e+01,5.301810455322265625e+01,-1.400297927856445312e+01,-1.065209350585937500e+02,-1.135214385986328125e+02,6.398922348022460938e+01,-3.637181091308593750e+01
2.400000020861625671e-02,-1.000000000000000000e+00,3.553023147583007812e+01,1.263674640655517578e+01,3.562285614013671875e+01,-1.085574188232421875e+02,9.078920745849609375e+01,-6.399384689331054688e+01,5.301810455322265625e+01,-1.400297927856445312e+01,-1.065209350585937500e+02,-1.135214385986328125e+02,6.398922348022460938e+01,-3.637181091308593750e+01
2.800000086426734924e-02,-1.000000000000000000e+00,3.553023147583007812e+01,1.263674640655517578e+01,3.562285614013671875e+01,-1.085574188232421875e+02,9.078920745849609375e+01,-6.399384689331054688e+01,5.301810455322265625e+01,-1.400297927856445312e+01,-1.065209350585937500e+02,-1.135214385986328125e+02,6.398922348022460938e+01,-3.637181091308593750e+01
3.200000151991844177e-02,2.000000000000000000e+00,3.553023147583007812e+01,1.263674640655517578e+01,3.562285614013671875e+01,-1.085574188232421875e+02,9.078920745849609375e+01,-6.399384689331054688e+01,5.301810455322265625e+01,-1.400297927856445312e+01,-1.065209350585937500e+02,-1.135214385986328125e+02,6.398922348022460938e+01,-3.637181091308593750e+01
3.599999845027923584e-02,2.000000000000000000e+00,3.553023147583007812e+01,1.263674640655517578e+01,3.562285614013671875e+01,-1.085574188232421875e+02,9.078920745849609375e+01,-6.399384689331054688e+01,5.301810455322265625e+01,-1.400297927856445312e+01,-1.065209350585937500e+02,-1.135214385986328125e+02,6.398922348022460938e+01,-3.637181091308593750e+01
4.199999943375587463e-02,2.000000000000000000e+00,3.553023147583007812e+01,1.263674640655517578e+01,3.562285614013671875e+01,-1.085574188232421875e+02,9.078920745849609375e+01,-6.399384689331054688e+01,5.301810455322265625e+01,-1.400297927856445312e+01,-1.065209350585937500e+02,-1.135214385986328125e+02,6.398922348022460938e+01,-3.637181091308593750e+01
4.399999976158142090e-02,2.000000000000000000e+00,3.553023147583007812e+01,1.263674640655517578e+01,3.562285614013671875e+01,-1.085574188232421875e+02,9.078920745849609375e+01,-6.399384689331054688e+01,5.301810455322265625e+01,-1.400297927856445312e+01,-1.065209350585937500e+02,-1.135214385986328125e+02,6.398922348022460938e+01,-3.637181091308593750e+01
4.800000041723251343e-02,2.000000000000000000e+00,3.553023147583007812e+01,1.263674640655517578e+01,3.562285614013671875e+01,-1.085574188232421875e+02,9.078920745849609375e+01,-6.399384689331054688e+01,5.301810455322265625e+01,-1.400297927856445312e+01,-1.065209350585937500e+02,-1.135214385986328125e+02,6.398922348022460938e+01,-3.637181091308593750e+01
5.200000107288360596e-02,2.000000000000000000e+00,3.553023147583007812e+01,1.263674640655517578e+01,3.562285614013671875e+01,-1.085574188232421875e+02,9.078920745849609375e+01,-6.399384689331054688e+01,5.301810455322265625e+01,-1.400297927856445312e+01,-1.065209350585937500e+02,-1.135214385986328125e+02,6.398922348022460938e+01,-3.637181091308593750e+01
5.600000172853469849e-02,2.000000000000000000e+00,3.553023147583007812e+01,1.263674640655517578e+01,3.562285614013671875e+01,-1.085574188232421875e+02,9.078920745849609375e+01,-6.399384689331054688e+01,5.301810455322265625e+01,-1.400297927856445312e+01,-1.065209350585937500e+02,-1.135214385986328125e+02,6.398922348022460938e+01,-3.637181091308593750e+01
5.999999865889549255e-02,2.000000000000000000e+00,3.553023147583007812e+01,1.263674640655517578e+01,3.562285614013671875e+01,-1.085574188232421875e+02,9.078920745849609375e+01,-6.399384689331054688e+01,5.301810455322265625e+01,-1.400297927856445312e+01,-1.065209350585937500e+02,-1.135214385986328125e+02,6.398922348022460938e+01,-3.637181091308593750e+01
6.400000303983688354e-02,2.000000000000000000e+00,3.553023147583007812e+01,1.263674640655517578e+01,3.562285614013671875e+01,-1.085574188232421875e+02,9.078920745849609375e+01,-6.399384689331054688e+01,5.301810455322265625e+01,-1.400297927856445312e+01,-1.065209350585937500e+02,-1.135214385986328125e+02,6.398922348022460938e+01,-3.637181091308593750e+01
6.800000369548797607e-02,2.000000000000000000e+00,3.553023147583007812e+01,1.263674640655517578e+01,3.562285614013671875e+01,-1.085574188232421875e+02,9.078920745849609375e+01,-6.399384689331054688e+01,5.301810455322265625e+01,-1.400297927856445312e+01,-1.065209350585937500e+02,-1.135214385986328125e+02,6.398922348022460938e+01,-3.637181091308593750e+01
7.199999690055847168e-02,2.000000000000000000e+00,3.553023147583007812e+01,1.263674640655517578e+01,3.562285614013671875e+01,-1.085574188232421875e+02,9.078920745849609375e+01,-6.399384689331054688e+01,5.301810455322265625e+01,-1.400297927856445312e+01,-1.065209350585937500e+02,-1.135214385986328125e+02,6.398922348022460938e+01,-3.637181091308593750e+01
7.599999755620956421e-02,2.000000000000000000e+00,3.553025817871093750e+01,1.263672256469726562e+01,3.562285614013671875e+01,-1.085574188232421875e+02,9.078920745849609375e+01,-6.399384689331054688e+01,5.301810455322265625e+01,-1.400297927856445312e+01,-1.065209350585937500e+02,-1.135214385986328125e+02,6.398922348022460938e+01,-3.637181091308593750e+01
7.999999821186065674e-02,2.000000000000000000e+00,3.553044128417968750e+01,1.263657665252685547e+01,3.562285995483398438e+01,-1.085574264526367188e+02,9.078921508789062500e+01,-6.399385452270507812e+01,5.301810455322265625e+01,-1.400297927856445312e+01,-1.065209350585937500e+02,-1.135214385986328125e+02,6.398922348022460938e+01,-3.637181091308593750e+01
8.399999886751174927e-02,2.000000000000000000e+00,3.553097534179687500e+01,1.263612461090087891e+01,3.562286758422851562e+01,-1.085574569702148438e+02,9.078923034667968750e+01,-6.399385833740234375e+01,5.301810455322265625e+01,-1.400297927856445312e+01,-1.065209350585937500e+02,-1.135214385986328125e+02,6.398922348022460938e+01,-3.637181091308593750e+01
8.799999952316284180e-02,2.000000000000000000e+00,3.553203964233398438e+01,1.263515758514404297e+01,3.562288665771484375e+01,-1.085575561523437500e+02,9.078926849365234375e+01,-6.399389266967773438e+01,5.301807403564453125e+01,-1.400298118591308594e+01,-1.065209274291992188e+02,-1.135214385986328125e+02,6.398922348022460938e+01,-3.637181472778320312e+01
9.200000017881393433e-02,2.000000000000000000e+00,3.553372955322265625e+01,1.263351154327392578e+01,3.562290954589843750e+01,-1.085577926635742188e+02,9.078933715820312500e+01,-6.399398422241210938e+01,5.301786804199218750e+01,-1.400300025939941406e+01,-1.065208892822265625e+02,-1.135214538574218750e+02,6.398922348022460938e+01,-3.637181472778320312e+01
9.600000083446502686e-02,2.000000000000000000e+00,3.553605270385742188e+01,1.263105964660644531e+01,3.562292861938476562e+01,-1.085582733154296875e+02,9.078942871093750000e+01,-6.399416732788085938e+01,5.301719665527343750e+01,-1.400305557250976562e+01,-1.065207595825195312e+02,-1.135215148925781250e+02,6.398920822143554688e+01,-3.637183761596679688e+01
1.000000014901161194e-01,2.000000000000000000e+00,3.553904724121093750e+01,1.262767028808593750e+01,3.562292098999023438e+01,-1.085591506958007812e+02,9.078957366943359375e+01,-6.399452972412109375e+01,5.301567459106445312e+01,-1.400316905975341797e+01,-1.065204925537109375e+02,-1.135216979980468750e+02,6.398917388916015625e+01,-3.637191390991210938e+01
1.040000021457672119e-01,2.000000000000000000e+00,3.554271697998046875e+01,1.262317848205566406e+01,3.562287139892578125e+01,-1.085606155395507812e+02,9.078976440429687500e+01,-6.399515151977539062e+01,5.301294708251953125e+01,-1.400333976745605469e+01,-1.065200729370117188e+02,-1.135221633911132812e+02,6.398911285400390625e+01,-3.637211227416992188e+01
1.080000028014183044e-01,2.000000000000000000e+00,3.554710388183593750e+01,1.261738777160644531e+01,3.562275695800781250e+01,-1.085629043579101562e+02,9.079001617431640625e+01,-6.399613571166992188e+01,5.300866317749023438e+01,-1.400355148315429688e+01,-1.065195312500000000e+02,-1.135231323242187500e+02,6.398900222778320312e+01,-3.637253952026367188e+01
1.120000034570693970e-01,2.000000000000000000e+00,3.555228424072265625e+01,1.261006736755371094e+01,3.562253952026367188e+01,-1.085662994384765625e+02,9.079034423828125000e+01,-6.399760818481445312e+01,5.300246429443359375e+01,-1.400375843048095703e+01,-1.065189361572265625e+02,-1.135249404907226562e+02,6.398882675170898438e+01,-3.637335586547851562e+01
1.159999966621398926e-01,2.000000000000000000e+00,3.555841445922851562e+01,1.260093975067138672e+01,3.562219238281250000e+01,-1.085711212158203125e+02,9.079075622558593750e+01,-6.399972534179687500e+01,5.299399948120117188e+01,-1.400390148162841797e+01,-1.065184020996093750e+02,-1.135279769897460938e+02,6.398855209350585938e+01,-3.637474822998046875e+01
1.199999973177909851e-01,2.000000000000000000e+00,3.556573867797851562e+01,1.258968925476074219e+01,3.562167739868164062e+01,-1.085777359008789062e+02,9.079127502441406250e+01,-6.400264739990234375e+01,5.298297500610351562e+01,-1.400389480590820312e+01,-1.065180740356445312e+02,-1.135327301025390625e+02,6.398815155029296875e+01,-3.637695312500000000e+01
1.239999979734420776e-01,2.000000000000000000e+00,3.557440948486328125e+01,1.257606124877929688e+01,3.562094116210937500e+01,-1.085865325927734375e+02,9.079191589355468750e+01,-6.400655364990234375e+01,5.296906280517578125e+01,-1.400364398956298828e+01,-1.065181274414062500e+02,-1.135397262573242188e+02,6.398759841918945312e+01,-3.638021469116210938e+01
1.280000060796737671e-01,2.000000000000000000e+00,3.558440780639648438e+01,1.256006622314453125e+01,3.561993789672851562e+01,-1.085979385375976562e+02,9.079268646240234375e+01,-6.401164245605468750e+01,5.295181274414062500e+01,-1.400306320190429688e+01,-1.065187225341796875e+02,-1.135494995117187500e+02,6.398685073852539062e+01,-3.638479232788085938e+01
1.309999972581863403e-01,2.000000000000000000e+00,3.559552764892578125e+01,1.254199600219726562e+01,3.561859893798828125e+01,-1.086123580932617188e+02,9.079357910156250000e+01,-6.401809692382812500e+01,5.293063735961914062e+01,-1.400208187103271484e+01,-1.065199737548828125e+02,-1.135625991821289062e+02,6.398587417602539062e+01,-3.639095306396484375e+01
1.360000073909759521e-01,2.000000000000000000e+00,3.560753250122070312e+01,1.252218723297119141e+01,3.561686325073242188e+01,-1.086301651000976562e+02,9.079457092285156250e+01,-6.402610778808593750e+01,5.290499114990234375e+01,-1.400062465667724609e+01,-1.065220184326171875e+02,-1.135795669555664062e+02,6.398463821411132812e+01,-3.639894866943359375e+01
1.389999985694885254e-01,2.000000000000000000e+00,3.562033843994140625e+01,1.250077152252197266e+01,3.561468505859375000e+01,-1.086516418457031250e+02,9.079569244384765625e+01,-6.403579711914062500e+01,5.287464904785156250e+01,-1.399859237670898438e+01,-1.065250396728515625e+02,-1.136009063720703125e+02,6.398310852050781250e+01,-3.640902328491210938e+01
1.439999938011169434e-01,2.000000000000000000e+00,3.563398361206054688e+01,1.247769641876220703e+01,3.561204528808593750e+01,-1.086769638061523438e+02,9.079692077636718750e+01,-6.404726409912109375e+01,5.283982467651367188e+01,-1.399586009979248047e+01,-1.065292816162109375e+02,-1.136270523071289062e+02,6.398126602172851562e+01,-3.642138671875000000e+01
1.480000019073486328e-01,2.000000000000000000e+00,3.564854431152343750e+01,1.245285892486572266e+01,3.560894012451171875e+01,-1.087062072753906250e+02,9.079827880859375000e+01,-6.406052398681640625e+01,5.280094909667968750e+01,-1.399231624603271484e+01,-1.065349884033203125e+02,-1.136582794189453125e+02,6.397909927368164062e+01,-3.643618392944335938e+01
1.519999951124191284e-01,2.000000000000000000e+00,3.566411972045898438e+01,1.242610549926757812e+01,3.560538101196289062e+01,-1.087393112182617188e+02,9.079975891113281250e+01,-6.407555389404296875e+01,5.275839996337890625e+01,-1.398789978027343750e+01,-1.065422897338867188e+02,-1.136946868896484375e+02,6.397660827636718750e+01,-3.645346450805664062e+01
1.560000032186508179e-01,2.000000000000000000e+00,3.568084716796875000e+01,1.239723014831542969e+01,3.560139083862304688e+01,-1.087761154174804688e+02,9.080136871337890625e+01,-6.409228515625000000e+01,5.271252441406250000e+01,-1.398261356353759766e+01,-1.065512084960937500e+02,-1.137361221313476562e+02,6.397381210327148438e+01,-3.647315216064453125e+01
1.599999964237213135e-01,2.000000000000000000e+00,3.569879913330078125e+01,1.236611175537109375e+01,3.559701156616210938e+01,-1.088163757324218750e+02,9.080310821533203125e+01,-6.411058807373046875e+01,5.266365814208984375e+01,-1.397652530670166016e+01,-1.065616073608398438e+02,-1.137821655273437500e+02,6.397072601318359375e+01,-3.649505233764648438e+01
1.640000045299530029e-01,2.000000000000000000e+00,3.571791839599609375e+01,1.233282852172851562e+01,3.559227752685546875e+01,-1.088597869873046875e+02,9.080498504638671875e+01,-6.413032531738281250e+01,5.261188507080078125e+01,-1.396978092193603516e+01,-1.065732192993164062e+02,-1.138321990966796875e+02,6.396739196777343750e+01,-3.651885986328125000e+01
1.679999977350234985e-01,2.000000000000000000e+00,3.573799133300781250e+01,1.229764747619628906e+01,3.558723449707031250e+01,-1.089059906005859375e+02,9.080696105957031250e+01,-6.415134429931640625e+01,5.255688858032226562e+01,-1.396259975433349609e+01,-1.065856018066406250e+02,-1.138854370117187500e+02,6.396384811401367188e+01,-3.654419326782226562e+01
1.720000058412551880e-01,2.000000000000000000e+00,3.575878143310546875e+01,1.226084327697753906e+01,3.558191680908203125e+01,-1.089545745849609375e+02,9.080903625488281250e+01,-6.417343902587890625e+01,5.249832534790039062e+01,-1.395521831512451172e+01,-1.065982894897460938e+02,-1.139410552978515625e+02,6.396012496948242188e+01,-3.657064819335937500e+01
1.759999990463256836e-01,2.000000000000000000e+00,3.578020858764648438e+01,1.222250652313232422e+01,3.557639312744140625e+01,-1.090051345825195312e+02,9.081119537353515625e+01,-6.419643402099609375e+01,5.243626403808593750e+01,-1.394781208038330078e+01,-1.066109313964843750e+02,-1.139983062744140625e+02,6.395626831054687500e+01,-3.659786224365234375e+01
1.800000071525573730e-01,2.000000000000000000e+00,3.580242538452148438e+01,1.218252754211425781e+01,3.557070922851562500e+01,-1.090572280883789062e+02,9.081344604492187500e+01,-6.422012329101562500e+01,5.237118911743164062e+01,-1.394047927856445312e+01,-1.066233444213867188e+02,-1.140565490722656250e+02,6.395232009887695312e+01,-3.662552642822265625e+01
1.840000003576278687e-01,2.000000000000000000e+00,3.582566833496093750e+01,1.214077758789062500e+01,3.556493377685546875e+01,-1.091104507446289062e+02,9.081577301025390625e+01,-6.424430847167968750e+01,5.230369567871093750e+01,-1.393326854705810547e+01,-1.066354522705078125e+02,-1.141153411865234375e+02,6.394831085205078125e+01,-3.665343856811523438e+01
1.879999935626983643e-01,2.000000000000000000e+00,3.585004806518554688e+01,1.209729099273681641e+01,3.555910491943359375e+01,-1.091644363403320312e+02,9.081816864013671875e+01,-6.426882171630859375e+01,5.223441696166992188e+01,-1.392618274688720703e+01,-1.066472473144531250e+02,-1.141743850708007812e+02,6.394425964355468750e+01,-3.668145370483398438e+01
1.920000016689300537e-01,2.000000000000000000e+00,3.587555694580078125e+01,1.205224704742431641e+01,3.555326461791992188e+01,-1.092189025878906250e+02,9.082064056396484375e+01,-6.429354858398437500e+01,5.216404342651367188e+01,-1.391918849945068359e+01,-1.066588363647460938e+02,-1.142335281372070312e+02,6.394019699096679688e+01,-3.670949935913085938e+01
1.959999948740005493e-01,2.000000000000000000e+00,3.590214157104492188e+01,1.200587940216064453e+01,3.554742813110351562e+01,-1.092736358642578125e+02,9.082316589355468750e+01,-6.431836700439453125e+01,5.209320068359375000e+01,-1.391223812103271484e+01,-1.066703262329101562e+02,-1.142926864624023438e+02,6.393612289428710938e+01,-3.673756027221679688e+01
2.000000029802322388e-01,2.000000000000000000e+00,3.592965316772460938e+01,1.195850753784179688e+01,3.554161071777343750e+01,-1.093284988403320312e+02,9.082572937011718750e+01,-6.434323883056640625e+01,5.202224731445312500e+01,-1.390530014038085938e+01,-1.066817779541015625e+02,-1.143518447875976562e+02,6.393205261230468750e+01,-3.676560974121093750e+01
2.039999961853027344e-01,2.000000000000000000e+00,3.595778656005859375e+01,1.191053295135498047e+01,3.553580093383789062e+01,-1.093834075927734375e+02,9.082831573486328125e+01,-6.436811828613281250e+01,5.195129394531250000e+01,-1.389836311340332031e+01,-1.066932296752929688e+02,-1.144109878540039062e+02,6.392797470092773438e+01,-3.679366302490234375e+01
2.080000042915344238e-01,2.000000000000000000e+00,3.598620605468750000e+01,1.186231517791748047e+01,3.552999877929687500e+01,-1.094383163452148438e+02,9.083090972900390625e+01,-6.439301300048828125e+01,5.188035202026367188e+01,-1.389142704010009766e+01,-1.067046890258789062e+02,-1.144701309204101562e+02,6.392390441894531250e+01,-3.682170867919921875e+01
2.119999974966049194e-01,2.000000000000000000e+00,3.601468276977539062e+01,1.181404781341552734e+01,3.552420043945312500e+01,-1.094932327270507812e+02,9.083350372314453125e+01,-6.441789245605468750e+01,5.180941390991210938e+01,-1.388449192047119141e+01,-1.067161407470703125e+02,-1.145292663574218750e+02,6.391983413696289062e+01,-3.684975051879882812e+01
2.160000056028366089e-01,2.000000000000000000e+00,3.604316329956054688e+01,1.176578330993652344e+01,3.551840209960937500e+01,-1.095481414794921875e+02,9.083609771728515625e+01,-6.444276428222656250e+01,5.173848724365234375e+01,-1.387755680084228516e+01,-1.067275924682617188e+02,-1.145884017944335938e+02,6.391576385498046875e+01,-3.687779235839843750e+01
2.199999988079071045e-01,2.000000000000000000e+00,3.607164001464843750e+01,1.171752357482910156e+01,3.551260375976562500e+01,-1.096030426025390625e+02,9.083869934082031250e+01,-6.446764373779296875e+01,5.166756820678710938e+01,-1.387062358856201172e+01,-1.067390441894531250e+02,-1.146475296020507812e+02,6.391169357299804688e+01,-3.690583038330078125e+01
2.240000069141387939e-01,2.000000000000000000e+00,3.610011672973632812e+01,1.166926956176757812e+01,3.550680541992187500e+01,-1.096579360961914062e+02,9.084129333496093750e+01,-6.449251556396484375e+01,5.159665679931640625e+01,-1.386369037628173828e+01,-1.067504882812500000e+02,-1.147066345214843750e+02,6.390762329101562500e+01,-3.693386459350585938e+01
2.280000001192092896e-01,2.000000000000000000e+00,3.612858581542968750e+01,1.162102127075195312e+01,3.550100708007812500e+01,-1.097128219604492188e+02,9.084388732910156250e+01,-6.451738739013671875e+01,5.152575302124023438e+01,-1.385675811767578125e+01,-1.067619400024414062e+02,-1.147657546997070312e+02,6.390355300903320312e+01,-3.696189880371093750e+01
2.319999933242797852e-01,2.000000000000000000e+00,3.615705490112304688e+01,1.157277774810791016e+01,3.549521255493164062e+01,-1.097677078247070312e+02,9.084648132324218750e+01,-6.454225921630859375e+01,5.145485687255859375e+01,-1.384982776641845703e+01,-1.067733840942382812e+02,-1.148248519897460938e+02,6.389947891235351562e+01,-3.698992538452148438e+01
2.360000014305114746e-01,2.000000000000000000e+00,3.618552017211914062e+01,1.152453994750976562e+01,3.548941802978515625e+01,-1.098225784301757812e+02,9.084907531738281250e+01,-6.456711578369140625e+01,5.138396835327148438e+01,-1.384289646148681641e+01,-1.067848281860351562e+02,-1.148839492797851562e+02,6.389541625976562500e+01,-3.701794815063476562e+01
2.399999946355819702e-01,2.000000000000000000e+00,3.621398162841796875e+01,1.147630786895751953e+01,3.548362350463867188e+01,-1.098774490356445312e+02,9.085167694091796875e+01,-6.459197998046875000e+01,5.131308746337890625e+01,-1.383596706390380859e+01,-1.067962722778320312e+02,-1.149430389404296875e+02,6.389134597778320312e+01,-3.704597091674804688e+01
2.440000027418136597e-01,2.000000000000000000e+00,3.624243927001953125e+01,1.142808055877685547e+01,3.547782516479492188e+01,-1.099323120117187500e+02,9.085427093505859375e+01,-6.461684417724609375e+01,5.124221801757812500e+01,-1.382903766632080078e+01,-1.068077163696289062e+02,-1.150021209716796875e+02,6.388727569580078125e+01,-3.707398605346679688e+01
2.479999959468841553e-01,2.000000000000000000e+00,3.627089309692382812e+01,1.137985897064208984e+01,3.547203445434570312e+01,-1.099871673583984375e+02,9.085686492919921875e+01,-6.464169311523437500e+01,5.117135238647460938e+01,-1.382210922241210938e+01,-1.068191528320312500e+02,-1.150612030029296875e+02,6.388320922851562500e+01,-3.710200500488281250e+01
2.520000040531158447e-01,2.000000000000000000e+00,3.629934692382812500e+01,1.133164215087890625e+01,3.546624374389648438e+01,-1.100420227050781250e+02,9.085945892333984375e+01,-6.466654968261718750e+01,5.110049438476562500e+01,-1.381518268585205078e+01,-1.068305969238281250e+02,-1.151202697753906250e+02,6.387913894653320312e+01,-3.713001632690429688e+01
2.560000121593475342e-01,2.000000000000000000e+00,3.632779693603515625e+01,1.128343105316162109e+01,3.546044921875000000e+01,-1.100968627929687500e+02,9.086205291748046875e+01,-6.469140625000000000e+01,5.102964401245117188e+01,-1.380825614929199219e+01,-1.068420257568359375e+02,-1.151793365478515625e+02,6.387507629394531250e+01,-3.715802764892578125e+01
2.599999904632568359e-01,2.000000000000000000e+00,3.635623931884765625e+01,1.123522377014160156e+01,3.545465850830078125e+01,-1.101517028808593750e+02,9.086464691162109375e+01,-6.471625518798828125e+01,5.095880508422851562e+01,-1.380132961273193359e+01,-1.068534698486328125e+02,-1.152383956909179688e+02,6.387101364135742188e+01,-3.718603134155273438e+01
2.639999985694885254e-01,2.000000000000000000e+00,3.638468551635742188e+01,1.118702316284179688e+01,3.544886779785156250e+01,-1.102065353393554688e+02,9.086724090576171875e+01,-6.474109649658203125e+01,5.088796997070312500e+01,-1.379440498352050781e+01,-1.068648986816406250e+02,-1.152974472045898438e+02,6.386693954467773438e+01,-3.721403503417968750e+01
2.680000066757202148e-01,2.000000000000000000e+00,3.641312408447265625e+01,1.113882732391357422e+01,3.544307327270507812e+01,-1.102613601684570312e+02,9.086983489990234375e+01,-6.476594543457031250e+01,5.081714248657226562e+01,-1.378748035430908203e+01,-1.068763351440429688e+02,-1.153564834594726562e+02,6.386287689208984375e+01,-3.724203872680664062e+01
2.720000147819519043e-01,2.000000000000000000e+00,3.644155883789062500e+01,1.109063720703125000e+01,3.543728637695312500e+01,-1.103161926269531250e+02,9.087242126464843750e+01,-6.479078674316406250e+01,5.074632644653320312e+01,-1.378055667877197266e+01,-1.068877716064453125e+02,-1.154155273437500000e+02,6.385881423950195312e+01,-3.727003479003906250e+01
2.759999930858612061e-01,2.000000000000000000e+00,3.646999359130859375e+01,1.104245185852050781e+01,3.543149566650390625e+01,-1.103710021972656250e+02,9.087502288818359375e+01,-6.481562042236328125e+01,5.067551803588867188e+01,-1.377363300323486328e+01,-1.068992004394531250e+02,-1.154745635986328125e+02,6.385474777221679688e+01,-3.729802703857421875e+01
2.800000011920928955e-01,2.000000000000000000e+00,3.649842453002929688e+01,1.099427127838134766e+01,3.542570877075195312e+01,-1.104258117675781250e+02,9.087760925292968750e+01,-6.484045410156250000e+01,5.060471343994140625e+01,-1.376671123504638672e+01,-1.069106369018554688e+02,-1.155335922241210938e+02,6.385068511962890625e+01,-3.732601928710937500e+01
2.840000092983245850e-01,2.000000000000000000e+00,3.652685165405273438e+01,1.094609546661376953e+01,3.541992187500000000e+01,-1.104806213378906250e+02,9.088020324707031250e+01,-6.486528778076171875e+01,5.053391647338867188e+01,-1.375978946685791016e+01,-1.069220657348632812e+02,-1.155926055908203125e+02,6.384662246704101562e+01,-3.735400772094726562e+01
2.879999876022338867e-01,2.000000000000000000e+00,3.655527877807617188e+01,1.089792537689208984e+01,3.541413116455078125e+01,-1.105354156494140625e+02,9.088278961181640625e+01,-6.489011383056640625e+01,5.046312713623046875e+01,-1.375286865234375000e+01,-1.069334869384765625e+02,-1.156516189575195312e+02,6.384255599975585938e+01,-3.738199615478515625e+01
2.919999957084655762e-01,2.000000000000000000e+00,3.658369827270507812e+01,1.084976005554199219e+01,3.540834808349609375e+01,-1.105902099609375000e+02,9.088538360595703125e+01,-6.491494750976562500e+01,5.039234542846679688e+01,-1.374594879150390625e+01,-1.069449157714843750e+02,-1.157106323242187500e+02,6.383849334716796875e+01,-3.740997314453125000e+01
2.960000038146972656e-01,2.000000000000000000e+00,3.661211776733398438e+01,1.080160045623779297e+01,3.540256118774414062e+01,-1.106449966430664062e+02,9.088797760009765625e+01,-6.493977355957031250e+01,5.032157135009765625e+01,-1.373902893066406250e+01,-1.069563446044921875e+02,-1.157696304321289062e+02,6.383443069458007812e+01,-3.743795776367187500e+01
3.000000119209289551e-01,2.000000000000000000e+00,3.664053344726562500e+01,1.075344467163085938e+01,3.539677429199218750e+01,-1.106997833251953125e+02,9.089056396484375000e+01,-6.496459197998046875e+01,5.025080108642578125e+01,-1.373211097717285156e+01,-1.069677734375000000e+02,-1.158286285400390625e+02,6.383037185668945312e+01,-3.746593475341796875e+01
3.039999902248382568e-01,2.000000000000000000e+00,3.666894531250000000e+01,1.070529460906982422e+01,3.539098739624023438e+01,-1.107545547485351562e+02,9.089315795898437500e+01,-6.498941802978515625e+01,5.018004608154296875e+01,-1.372519302368164062e+01,-1.069791946411132812e+02,-1.158876190185546875e+02,6.382630920410156250e+01,-3.749390792846679688e+01
3.079999983310699463e-01,2.000000000000000000e+00,3.669735717773437500e+01,1.065714836120605469e+01,3.538520431518554688e+01,-1.108093261718750000e+02,9.089575195312500000e+01,-6.501423645019531250e+01,5.010929107666015625e+01,-1.371827507019042969e+01,-1.069906158447265625e+02,-1.159466018676757812e+02,6.382224273681640625e+01,-3.752187728881835938e+01
3.120000064373016357e-01,2.000000000000000000e+00,3.672576522827148438e+01,1.060900878906250000e+01,3.537942123413085938e+01,-1.108640975952148438e+02,9.089833831787109375e+01,-6.503904724121093750e+01,5.003854751586914062e+01,-1.371135902404785156e+01,-1.070020370483398438e+02,-1.160055770874023438e+02,6.381818771362304688e+01,-3.754984664916992188e+01
3.160000145435333252e-01,2.000000000000000000e+00,3.675416564941406250e+01,1.056087303161621094e+01,3.537363815307617188e+01,-1.109188537597656250e+02,9.090092468261718750e+01,-6.506386566162109375e+01,4.996780776977539062e+01,-1.370444297790527344e+01,-1.070134582519531250e+02,-1.160645446777343750e+02,6.381412506103515625e+01,-3.757781219482421875e+01
3.199999928474426270e-01,2.000000000000000000e+00,3.678256988525390625e+01,1.051274204254150391e+01,3.536785507202148438e+01,-1.109736022949218750e+02,9.090351104736328125e+01,-6.508866882324218750e+01,4.989707565307617188e+01,-1.369752788543701172e+01,-1.070248794555664062e+02,-1.161235198974609375e+02,6.381006622314453125e+01,-3.760577392578125000e+01
3.240000009536743164e-01,2.000000000000000000e+00,3.681096649169921875e+01,1.046461677551269531e+01,3.536207199096679688e+01,-1.110283508300781250e+02,9.090610504150390625e+01,-6.511347961425781250e+01,4.982635498046875000e+01,-1.369061279296875000e+01,-1.070363006591796875e+02,-1.161824722290039062e+02,6.380600357055664062e+01,-3.763373565673828125e+01
3.280000090599060059e-01,2.000000000000000000e+00,3.683936309814453125e+01,1.041649532318115234e+01,3.535628890991210938e+01,-1.110830993652343750e+02,9.090869903564453125e+01,-6.513828277587890625e+01,4.975563812255859375e+01,-1.368369960784912109e+01,-1.070477218627929688e+02,-1.162414321899414062e+02,6.380194473266601562e+01,-3.766168975830078125e+01
3.319999873638153076e-01,2.000000000000000000e+00,3.686775588989257812e+01,1.036837959289550781e+01,3.535051345825195312e+01,-1.111378326416015625e+02,9.091128540039062500e+01,-6.516308593750000000e+01,4.968492889404296875e+01,-1.367678642272949219e+01,-1.070591354370117188e+02,-1.163003768920898438e+02,6.379788970947265625e+01,-3.768964767456054688e+01
3.359999954700469971e-01,2.000000000000000000e+00,3.689614486694335938e+01,1.032026863098144531e+01,3.534473037719726562e+01,-1.111925659179687500e+02,9.091387939453125000e+01,-6.518788909912109375e+01,4.961422729492187500e+01,-1.366987419128417969e+01,-1.070705490112304688e+02,-1.163593215942382812e+02,6.379382324218750000e+01,-3.771759414672851562e+01
3.400000035762786865e-01,2.000000000000000000e+00,3.692453384399414062e+01,1.027216243743896484e+01,3.533895111083984375e+01,-1.112472915649414062e+02,9.091645812988281250e+01,-6.521267700195312500e+01,4.954353332519531250e+01,-1.366296291351318359e+01,-1.070819549560546875e+02,-1.164182510375976562e+02,6.378976821899414062e+01,-3.774554443359375000e+01
3.440000116825103760e-01,2.000000000000000000e+00,3.695291519165039062e+01,1.022406101226806641e+01,3.533317184448242188e+01,-1.113020095825195312e+02,9.091904449462890625e+01,-6.523748016357421875e+01,4.947284317016601562e+01,-1.365605163574218750e+01,-1.070933685302734375e+02,-1.164771881103515625e+02,6.378570938110351562e+01,-3.777349090576171875e+01
3.479999899864196777e-01,2.000000000000000000e+00,3.698129653930664062e+01,1.017596340179443359e+01,3.532739257812500000e+01,-1.113567276000976562e+02,9.092163848876953125e+01,-6.526226806640625000e+01,4.940216445922851562e+01,-1.364914131164550781e+01,-1.071047821044921875e+02,-1.165361175537109375e+02,6.378165435791015625e+01,-3.780143356323242188e+01
3.519999980926513672e-01,2.000000000000000000e+00,3.700967407226562500e+01,1.012787246704101562e+01,3.532161331176757812e+01,-1.114114379882812500e+02,9.092422485351562500e+01,-6.528706359863281250e+01,4.933148956298828125e+01,-1.364223194122314453e+01,-1.071161880493164062e+02,-1.165950317382812500e+02,6.377759552001953125e+01,-3.782937622070312500e+01
3.560000061988830566e-01,2.000000000000000000e+00,3.703805160522460938e+01,1.007978534698486328e+01,3.531583786010742188e+01,-1.114661407470703125e+02,9.092681121826171875e+01,-6.531184387207031250e+01,4.926082229614257812e+01,-1.363532257080078125e+01,-1.071276016235351562e+02,-1.166539382934570312e+02,6.377353668212890625e+01,-3.785731124877929688e+01
3.600000143051147461e-01,2.000000000000000000e+00,3.706642150878906250e+01,1.003170204162597656e+01,3.531005859375000000e+01,-1.115208358764648438e+02,9.092939758300781250e+01,-6.533663177490234375e+01,4.919016265869140625e+01,-1.362841415405273438e+01,-1.071390075683593750e+02,-1.167128524780273438e+02,6.376948165893554688e+01,-3.788524627685546875e+01
3.639999926090240479e-01,2.000000000000000000e+00,3.709479522705078125e+01,9.983624458312988281e+00,3.530428695678710938e+01,-1.115755310058593750e+02,9.093198394775390625e+01,-6.536141204833984375e+01,4.911951065063476562e+01,-1.362150669097900391e+01,-1.071504211425781250e+02,-1.167717437744140625e+02,6.376542282104492188e+01,-3.791317749023437500e+01
3.680000007152557373e-01,2.000000000000000000e+00,3.712316131591796875e+01,9.935551643371582031e+00,3.529850769042968750e+01,-1.116302261352539062e+02,9.093457031250000000e+01,-6.538619232177734375e+01,4.904886245727539062e+01,-1.361460018157958984e+01,-1.071618270874023438e+02,-1.168306503295898438e+02,6.376137542724609375e+01,-3.794110870361328125e+01
3.720000088214874268e-01,2.000000000000000000e+00,3.715152740478515625e+01,9.887483596801757812e+00,3.529273223876953125e+01,-1.116849060058593750e+02,9.093715667724609375e+01,-6.541097259521484375e+01,4.897822570800781250e+01,-1.360769367218017578e+01,-1.071732254028320312e+02,-1.168895339965820312e+02,6.375731658935546875e+01,-3.796903610229492188e+01
3.759999871253967285e-01,2.000000000000000000e+00,3.717988586425781250e+01,9.839419364929199219e+00,3.528696060180664062e+01,-1.117395782470703125e+02,9.093974304199218750e+01,-6.543574523925781250e+01,4.890759277343750000e+01,-1.360078811645507812e+01,-1.071846313476562500e+02,-1.169484100341796875e+02,6.375326156616210938e+01,-3.799695587158203125e+01
3.799999952316284180e-01,2.000000000000000000e+00,3.720824432373046875e+01,9.791360855102539062e+00,3.528118515014648438e+01,-1.117942581176757812e+02,9.094232940673828125e+01,-6.546051788330078125e+01,4.883696746826171875e+01,-1.359388351440429688e+01,-1.071960296630859375e+02,-1.170072860717773438e+02,6.374921035766601562e+01,-3.802487945556640625e+01
3.840000033378601074e-01,2.000000000000000000e+00,3.723659896850585938e+01,9.743307113647460938e+00,3.527540969848632812e+01,-1.118489151000976562e+02,9.094491577148437500e+01,-6.548529052734375000e+01,4.876634979248046875e+01,-1.358697986602783203e+01,-1.072074356079101562e+02,-1.170661621093750000e+02,6.374515151977539062e+01,-3.805279922485351562e+01
3.880000114440917969e-01,2.000000000000000000e+00,3.726495742797851562e+01,9.695257186889648438e+00,3.526963806152343750e+01,-1.119035797119140625e+02,9.094750213623046875e+01,-6.551006317138671875e+01,4.869573974609375000e+01,-1.358007621765136719e+01,-1.072188339233398438e+02,-1.171250305175781250e+02,6.374110031127929688e+01,-3.808071136474609375e+01
3.919999897480010986e-01,2.000000000000000000e+00,3.729330444335937500e+01,9.647212028503417969e+00,3.526386642456054688e+01,-1.119582443237304688e+02,9.095008087158203125e+01,-6.553482818603515625e+01,4.862512969970703125e+01,-1.357317352294921875e+01,-1.072302322387695312e+02,-1.171838912963867188e+02,6.373705291748046875e+01,-3.810862350463867188e+01
3.959999978542327881e-01,2.000000000000000000e+00,3.732165145874023438e+01,9.599171638488769531e+00,3.525809097290039062e+01,-1.120128936767578125e+02,9.095267486572265625e+01,-6.555959320068359375e+01,4.855453491210937500e+01,-1.356627082824707031e+01,-1.072416305541992188e+02,-1.172427520751953125e+02,6.373299407958984375e+01,-3.813653564453125000e+01
4.000000059604644775e-01,2.000000000000000000e+00,3.734999847412109375e+01,9.551136016845703125e+00,3.525232315063476562e+01,-1.120675354003906250e+02,9.095525360107421875e+01,-6.558435058593750000e+01,4.848394393920898438e+01,-1.355936908721923828e+01,-1.072530288696289062e+02,-1.173016052246093750e+02,6.372894287109375000e+01,-3.816444396972656250e+01
4.040000140666961670e-01,2.000000000000000000e+00,3.737834167480468750e+01,9.503105163574218750e+00,3.524655151367187500e+01,-1.121221771240234375e+02,9.095783233642578125e+01,-6.560910797119140625e+01,4.841335678100585938e+01,-1.355246829986572266e+01,-1.072644195556640625e+02,-1.173604354858398438e+02,6.372489547729492188e+01,-3.819234848022460938e+01
4.079999923706054688e-01,2.000000000000000000e+00,3.740668106079101562e+01,9.455079078674316406e+00,3.524077987670898438e+01,-1.121768188476562500e+02,9.096042633056640625e+01,-6.563386535644531250e+01,4.834278106689453125e+01,-1.354556846618652344e+01,-1.072758178710937500e+02,-1.174192733764648438e+02,6.372084426879882812e+01,-3.822024917602539062e+01
4.120000004768371582e-01,2.000000000000000000e+00,3.743501663208007812e+01,9.407056808471679688e+00,3.523501205444335938e+01,-1.122314453125000000e+02,9.096300506591796875e+01,-6.565861511230468750e+01,4.827221298217773438e+01,-1.353866863250732422e+01,-1.072872161865234375e+02,-1.174781112670898438e+02,6.371679306030273438e+01,-3.824814987182617188e+01
4.160000085830688477e-01,2.000000000000000000e+00,3.746335220336914062e+01,9.359038352966308594e+00,3.522924041748046875e+01,-1.122860641479492188e+02,9.096558380126953125e+01,-6.568337249755859375e+01,4.820164489746093750e+01,-1.353176975250244141e+01,-1.072986068725585938e+02,-1.175369415283203125e+02,6.371274185180664062e+01,-3.827604675292968750e+01
4.199999868869781494e-01,2.000000000000000000e+00,3.749168395996093750e+01,9.311025619506835938e+00,3.522347259521484375e+01,-1.123406829833984375e+02,9.096817016601562500e+01,-6.570812225341796875e+01,4.813109207153320312e+01,-1.352487182617187500e+01,-1.073099899291992188e+02,-1.175957641601562500e+02,6.370869445800781250e+01,-3.830393981933593750e+01
4.239999949932098389e-01,2.000000000000000000e+00,3.752001190185546875e+01,9.263017654418945312e+00,3.521770477294921875e+01,-1.123953018188476562e+02,9.097075653076171875e+01,-6.573286437988281250e+01,4.806053924560546875e+01,-1.351797389984130859e+01,-1.073213806152343750e+02,-1.176545715332031250e+02,6.370464324951171875e+01,-3.833183288574218750e+01
4.280000030994415283e-01,2.000000000000000000e+00,3.754833984375000000e+01,9.215013504028320312e+00,3.521194076538085938e+01,-1.124499130249023438e+02,9.097334289550781250e+01,-6.575761413574218750e+01,4.798999404907226562e+01,-1.351107692718505859e+01,-1.073327789306640625e+02,-1.177133789062500000e+02,6.370059204101562500e+01,-3.835972213745117188e+01
4.320000112056732178e-01,2.000000000000000000e+00,3.757666397094726562e+01,9.167014122009277344e+00,3.520617294311523438e+01,-1.125045166015625000e+02,9.097592163085937500e+01,-6.578234863281250000e+01,4.791945648193359375e+01,-1.350418090820312500e+01,-1.073441619873046875e+02,-1.177721862792968750e+02,6.369654083251953125e+01,-3.838760757446289062e+01
4.359999895095825195e-01,2.000000000000000000e+00,3.760498428344726562e+01,9.119018554687500000e+00,3.520040512084960938e+01,-1.125591125488281250e+02,9.097850036621093750e+01,-6.580709075927734375e+01,4.784892654418945312e+01,-1.349728488922119141e+01,-1.073555450439453125e+02,-1.178309936523437500e+02,6.369248962402343750e+01,-3.841548919677734375e+01
4.399999976158142090e-01,2.000000000000000000e+00,3.763330459594726562e+01,9.071029663085937500e+00,3.519464111328125000e+01,-1.126137084960937500e+02,9.098108673095703125e+01,-6.583183288574218750e+01,4.777840042114257812e+01,-1.349038982391357422e+01,-1.073669357299804688e+02,-1.178897933959960938e+02,6.368844985961914062e+01,-3.844337081909179688e+01
4.440000057220458984e-01,2.000000000000000000e+00,3.766161727905273438e+01,9.023042678833007812e+00,3.518887710571289062e+01,-1.126683044433593750e+02,9.098366546630859375e+01,-6.585656738281250000e+01,4.770788192749023438e+01,-1.348349571228027344e+01,-1.073783187866210938e+02,-1.179485702514648438e+02,6.368439865112304688e+01,-3.847125244140625000e+01
4.480000138282775879e-01,2.000000000000000000e+00,3.768993377685546875e+01,8.975060462951660156e+00,3.518310928344726562e+01,-1.127228851318359375e+02,9.098625183105468750e+01,-6.588130187988281250e+01,4.763737106323242188e+01,-1.347660160064697266e+01,-1.073897094726562500e+02,-1.180073547363281250e+02,6.368035507202148438e+01,-3.849912643432617188e+01
4.519999921321868896e-01,2.000000000000000000e+00,3.771824264526367188e+01,8.927083969116210938e+00,3.517734527587890625e+01,-1.127774658203125000e+02,9.098883056640625000e+01,-6.590603637695312500e+01,4.756686401367187500e+01,-1.346970844268798828e+01,-1.074010848999023438e+02,-1.180661315917968750e+02,6.367630386352539062e+01,-3.852700042724609375e+01
4.560000002384185791e-01,2.000000000000000000e+00,3.774655151367187500e+01,8.879111289978027344e+00,3.517158126831054688e+01,-1.128320388793945312e+02,9.099140930175781250e+01,-6.593075561523437500e+01,4.749636459350585938e+01,-1.346281623840332031e+01,-1.074124679565429688e+02,-1.181249008178710938e+02,6.367226028442382812e+01,-3.855487060546875000e+01
4.600000083446502686e-01,2.000000000000000000e+00,3.777485656738281250e+01,8.831142425537109375e+00,3.516582107543945312e+01,-1.128866119384765625e+02,9.099399566650390625e+01,-6.595548248291015625e+01,4.742587280273437500e+01,-1.345592403411865234e+01,-1.074238510131835938e+02,-1.181836624145507812e+02,6.366820907592773438e+01,-3.858274078369140625e+01
4.639999866485595703e-01,2.000000000000000000e+00,3.780316162109375000e+01,8.783178329467773438e+00,3.516005706787109375e+01,-1.129411697387695312e+02,9.099656677246093750e+01,-6.598020935058593750e+01,4.735538864135742188e+01,-1.344903278350830078e+01,-1.074352264404296875e+02,-1.182424316406250000e+02,6.366416549682617188e+01,-3.861060714721679688e+01
4.679999947547912598e-01,2.000000000000000000e+00,3.783145904541015625e+01,8.735219001770019531e+00,3.515429306030273438e+01,-1.129957275390625000e+02,9.099915313720703125e+01,-6.600493621826171875e+01,4.728490829467773438e+01,-1.344214248657226562e+01,-1.074466094970703125e+02,-1.183011856079101562e+02,6.366011810302734375e+01,-3.863846969604492188e+01
4.720000028610229492e-01,2.000000000000000000e+00,3.785975646972656250e+01,8.687263488769531250e+00,3.514853286743164062e+01,-1.130502853393554688e+02,9.100173187255859375e+01,-6.602965545654296875e+01,4.721443557739257812e+01,-1.343525314331054688e+01,-1.074579849243164062e+02,-1.183599395751953125e+02,6.365607452392578125e+01,-3.866632843017578125e+01
4.760000109672546387e-01,2.000000000000000000e+00,3.788805389404296875e+01,8.639312744140625000e+00,3.514277267456054688e+01,-1.131048355102539062e+02,9.100431823730468750e+01,-6.605437469482421875e+01,4.714396667480468750e+01,-1.342836284637451172e+01,-1.074693603515625000e+02,-1.184186935424804688e+02,6.365203094482421875e+01,-3.869419097900390625e+01
4.799999892711639404e-01,2.000000000000000000e+00,3.791634368896484375e+01,8.591365814208984375e+00,3.513700866699218750e+01,-1.131593780517578125e+02,9.100688934326171875e+01,-6.607908630371093750e+01,4.707350540161132812e+01,-1.342147445678710938e+01,-1.074807357788085938e+02,-1.184774322509765625e+02,6.364798736572265625e+01,-3.872204208374023438e+01
4.839999973773956299e-01,2.000000000000000000e+00,3.794463348388671875e+01,8.543423652648925781e+00,3.513125228881835938e+01,-1.132139205932617188e+02,9.100946807861328125e+01,-6.610379791259765625e+01,4.700305557250976562e+01,-1.341458606719970703e+01,-1.074921112060546875e+02,-1.185361557006835938e+02,6.364394378662109375e+01,-3.874989700317382812e+01
4.880000054836273193e-01,2.000000000000000000e+00,3.797292327880859375e+01,8.495485305786132812e+00,3.512549209594726562e+01,-1.132684478759765625e+02,9.101205444335937500e+01,-6.612850952148437500e+01,4.693260574340820312e+01,-1.340769863128662109e+01,-1.075034866333007812e+02,-1.185948944091796875e+02,6.363990020751953125e+01,-3.877775192260742188e+01
4.920000135898590088e-01,2.000000000000000000e+00,3.800120925903320312e+01,8.447550773620605469e+00,3.511973190307617188e+01,-1.133229827880859375e+02,9.101462554931640625e+01,-6.615322113037109375e+01,4.686216354370117188e+01,-1.340081119537353516e+01,-1.075148544311523438e+02,-1.186536102294921875e+02,6.363585662841796875e+01,-3.880559539794921875e+01
4.959999918937683105e-01,2.000000000000000000e+00,3.802949142456054688e+01,8.399621963500976562e+00,3.511397552490234375e+01,-1.133775100708007812e+02,9.101721191406250000e+01,-6.617792510986328125e+01,4.679172897338867188e+01,-1.339392566680908203e+01,-1.075262298583984375e+02,-1.187123336791992188e+02,6.363181304931640625e+01,-3.883344268798828125e+01
5.000000000000000000e-01,2.000000000000000000e+00,3.805776977539062500e+01,8.351696014404296875e+00,3.510821914672851562e+01,-1.134320297241210938e+02,9.101978302001953125e+01,-6.620262908935546875e+01,4.672129821777343750e+01,-1.338704013824462891e+01,-1.075375976562500000e+02,-1.187710494995117188e+02,6.362776947021484375e+01,-3.886128616333007812e+01
5.040000081062316895e-01,2.000000000000000000e+00,3.808604812622070312e+01,8.303774833679199219e+00,3.510245895385742188e+01,-1.134865417480468750e+02,9.102236938476562500e+01,-6.622732543945312500e+01,4.665087509155273438e+01,-1.338015460968017578e+01,-1.075489730834960938e+02,-1.188297576904296875e+02,6.362372589111328125e+01,-3.888912582397460938e+01
5.080000162124633789e-01,2.000000000000000000e+00,3.811432266235351562e+01,8.255857467651367188e+00,3.509670257568359375e+01,-1.135410537719726562e+02,9.102494049072265625e+01,-6.625202941894531250e+01,4.658045959472656250e+01,-1.337327098846435547e+01,-1.075603408813476562e+02,-1.188884582519531250e+02,6.361968231201171875e+01,-3.891696548461914062e+01
5.120000243186950684e-01,2.000000000000000000e+00,3.814259719848632812e+01,8.207943916320800781e+00,3.509094238281250000e+01,-1.135955581665039062e+02,9.102752685546875000e+01,-6.627672576904296875e+01,4.651005172729492188e+01,-1.336638641357421875e+01,-1.075717010498046875e+02,-1.189471588134765625e+02,6.361564636230468750e+01,-3.894480514526367188e+01
5.159999728202819824e-01,2.000000000000000000e+00,3.817086791992187500e+01,8.160036087036132812e+00,3.508518981933593750e+01,-1.136500625610351562e+02,9.103009796142578125e+01,-6.630142211914062500e+01,4.643964385986328125e+01,-1.335950374603271484e+01,-1.075830688476562500e+02,-1.190058593750000000e+02,6.361160278320312500e+01,-3.897263717651367188e+01
5.199999809265136719e-01,2.000000000000000000e+00,3.819913482666015625e+01,8.112131118774414062e+00,3.507943344116210938e+01,-1.137045593261718750e+02,9.103267669677734375e+01,-6.632611846923828125e+01,4.636924743652343750e+01,-1.335262012481689453e+01,-1.075944442749023438e+02,-1.190645446777343750e+02,6.360755920410156250e+01,-3.900046539306640625e+01
5.239999890327453613e-01,2.000000000000000000e+00,3.822740173339843750e+01,8.064229965209960938e+00,3.507367706298828125e+01,-1.137590484619140625e+02,9.103525543212890625e+01,-6.635080718994140625e+01,4.629885482788085938e+01,-1.334573936462402344e+01,-1.076057968139648438e+02,-1.191232299804687500e+02,6.360352325439453125e+01,-3.902829742431640625e+01
5.279999971389770508e-01,2.000000000000000000e+00,3.825566482543945312e+01,8.016333580017089844e+00,3.506792449951171875e+01,-1.138135375976562500e+02,9.103782653808593750e+01,-6.637549591064453125e+01,4.622846603393554688e+01,-1.333885669708251953e+01,-1.076171646118164062e+02,-1.191819152832031250e+02,6.359947967529296875e+01,-3.905612182617187500e+01
5.320000052452087402e-01,2.000000000000000000e+00,3.828392410278320312e+01,7.968440055847167969e+00,3.506217193603515625e+01,-1.138680191040039062e+02,9.104040527343750000e+01,-6.640018463134765625e+01,4.615808868408203125e+01,-1.333197593688964844e+01,-1.076285324096679688e+02,-1.192405853271484375e+02,6.359543991088867188e+01,-3.908394622802734375e+01
5.360000133514404297e-01,2.000000000000000000e+00,3.831218338012695312e+01,7.920552253723144531e+00,3.505641937255859375e+01,-1.139225006103515625e+02,9.104298400878906250e+01,-6.642486572265625000e+01,4.608771133422851562e+01,-1.332509517669677734e+01,-1.076398925781250000e+02,-1.192992553710937500e+02,6.359139633178710938e+01,-3.911176681518554688e+01
5.400000214576721191e-01,2.000000000000000000e+00,3.834044265747070312e+01,7.872666358947753906e+00,3.505066299438476562e+01,-1.139769744873046875e+02,9.104556274414062500e+01,-6.644955444335937500e+01,4.601734161376953125e+01,-1.331821632385253906e+01,-1.076512451171875000e+02,-1.193579101562500000e+02,6.358736038208007812e+01,-3.913959121704101562e+01
5.440000295639038086e-01,2.000000000000000000e+00,3.836869430541992188e+01,7.824786186218261719e+00,3.504491043090820312e+01,-1.140314407348632812e+02,9.104813385009765625e+01,-6.647422790527343750e+01,4.594697952270507812e+01,-1.331133747100830078e+01,-1.076626129150390625e+02,-1.194165725708007812e+02,6.358332443237304688e+01,-3.916740417480468750e+01
5.479999780654907227e-01,2.000000000000000000e+00,3.839694595336914062e+01,7.776908874511718750e+00,3.503915786743164062e+01,-1.140859069824218750e+02,9.105071258544921875e+01,-6.649890899658203125e+01,4.587662124633789062e+01,-1.330445861816406250e+01,-1.076739730834960938e+02,-1.194752273559570312e+02,6.357928085327148438e+01,-3.919522094726562500e+01
5.519999861717224121e-01,2.000000000000000000e+00,3.842519760131835938e+01,7.729035377502441406e+00,3.503340530395507812e+01,-1.141403656005859375e+02,9.105328369140625000e+01,-6.652358245849609375e+01,4.580626678466796875e+01,-1.329757976531982422e+01,-1.076853332519531250e+02,-1.195338745117187500e+02,6.357524490356445312e+01,-3.922303390502929688e+01
5.559999942779541016e-01,2.000000000000000000e+00,3.845344161987304688e+01,7.681166648864746094e+00,3.502765655517578125e+01,-1.141948242187500000e+02,9.105586242675781250e+01,-6.654826354980468750e+01,4.573592376708984375e+01,-1.329070281982421875e+01,-1.076966857910156250e+02,-1.195925140380859375e+02,6.357120895385742188e+01,-3.925084304809570312e+01
5.600000023841857910e-01,2.000000000000000000e+00,3.848168945312500000e+01,7.633300781250000000e+00,3.502190399169921875e+01,-1.142492828369140625e+02,9.105843353271484375e+01,-6.657292938232421875e+01,4.566558456420898438e+01,-1.328382587432861328e+01,-1.077080383300781250e+02,-1.196511611938476562e+02,6.356717300415039062e+01,-3.927865219116210938e+01
5.640000104904174805e-01,2.000000000000000000e+00,3.850993347167968750e+01,7.585439205169677734e+00,3.501615524291992188e+01,-1.143037261962890625e+02,9.106101226806640625e+01,-6.659761047363281250e+01,4.559524536132812500e+01,-1.327694892883300781e+01,-1.077193984985351562e+02,-1.197098007202148438e+02,6.356313323974609375e+01,-3.930645751953125000e+01
5.680000185966491699e-01,2.000000000000000000e+00,3.853816986083984375e+01,7.537581920623779297e+00,3.501040649414062500e+01,-1.143581695556640625e+02,9.106358337402343750e+01,-6.662227630615234375e+01,4.552491760253906250e+01,-1.327007293701171875e+01,-1.077307510375976562e+02,-1.197684326171875000e+02,6.355909729003906250e+01,-3.933426284790039062e+01
5.720000267028808594e-01,2.000000000000000000e+00,3.856640625000000000e+01,7.489727020263671875e+00,3.500465393066406250e+01,-1.144126129150390625e+02,9.106616210937500000e+01,-6.664694213867187500e+01,4.545459365844726562e+01,-1.326319789886474609e+01,-1.077421035766601562e+02,-1.198270492553710938e+02,6.355506134033203125e+01,-3.936206817626953125e+01
5.759999752044677734e-01,2.000000000000000000e+00,3.859464263916015625e+01,7.441876888275146484e+00,3.499890899658203125e+01,-1.144670410156250000e+02,9.106873321533203125e+01,-6.667160797119140625e+01,4.538427352905273438e+01,-1.325632286071777344e+01,-1.077534561157226562e+02,-1.198856811523437500e+02,6.355102539062500000e+01,-3.938986587524414062e+01
5.799999833106994629e-01,2.000000000000000000e+00,3.862287902832031250e+01,7.394030094146728516e+00,3.499316024780273438e+01,-1.145214767456054688e+02,9.107131195068359375e+01,-6.669627380371093750e+01,4.531396102905273438e+01,-1.324944877624511719e+01,-1.077648086547851562e+02,-1.199442977905273438e+02,6.354698944091796875e+01,-3.941766357421875000e+01
5.839999914169311523e-01,2.000000000000000000e+00,3.865110778808593750e+01,7.346187114715576172e+00,3.498740768432617188e+01,-1.145758972167968750e+02,9.107389068603515625e+01,-6.672093963623046875e+01,4.524365234375000000e+01,-1.324257469177246094e+01,-1.077761611938476562e+02,-1.200029144287109375e+02,6.354294967651367188e+01,-3.944546127319335938e+01
5.879999995231628418e-01,2.000000000000000000e+00,3.867933654785156250e+01,7.298347473144531250e+00,3.498166275024414062e+01,-1.146303253173828125e+02,9.107646179199218750e+01,-6.674559020996093750e+01,4.517334747314453125e+01,-1.323570156097412109e+01,-1.077875137329101562e+02,-1.200615158081054688e+02,6.353891372680664062e+01,-3.947325134277343750e+01
5.920000076293945312e-01,2.000000000000000000e+00,3.870756530761718750e+01,7.250511646270751953e+00,3.497591400146484375e+01,-1.146847381591796875e+02,9.107903289794921875e+01,-6.677024841308593750e+01,4.510305404663085938e+01,-1.322882843017578125e+01,-1.077988586425781250e+02,-1.201201171875000000e+02,6.353487777709960938e+01,-3.950104522705078125e+01
5.960000157356262207e-01,2.000000000000000000e+00,3.873579406738281250e+01,7.202679634094238281e+00,3.497016906738281250e+01,-1.147391586303710938e+02,9.108160400390625000e+01,-6.679490661621093750e+01,4.503276062011718750e+01,-1.322195625305175781e+01,-1.078102035522460938e+02,-1.201787261962890625e+02,6.353084945678710938e+01,-3.952883148193359375e+01
6.000000238418579102e-01,2.000000000000000000e+00,3.876401519775390625e+01,7.154850959777832031e+00,3.496442031860351562e+01,-1.147935714721679688e+02,9.108418273925781250e+01,-6.681956481933593750e+01,4.496247482299804688e+01,-1.321508407592773438e+01,-1.078215560913085938e+02,-1.202373123168945312e+02,6.352680969238281250e+01,-3.955662155151367188e+01
6.039999723434448242e-01,2.000000000000000000e+00,3.879223251342773438e+01,7.107026100158691406e+00,3.495867919921875000e+01,-1.148479690551757812e+02,9.108675384521484375e+01,-6.684421539306640625e+01,4.489219284057617188e+01,-1.320821285247802734e+01,-1.078329010009765625e+02,-1.202959136962890625e+02,6.352277374267578125e+01,-3.958440780639648438e+01
6.079999804496765137e-01,2.000000000000000000e+00,3.882045364379882812e+01,7.059205055236816406e+00,3.495293045043945312e+01,-1.149023742675781250e+02,9.108932495117187500e+01,-6.686886596679687500e+01,4.482191467285156250e+01,-1.320134162902832031e+01,-1.078442459106445312e+02,-1.203544921875000000e+02,6.351874542236328125e+01,-3.961218643188476562e+01
6.119999885559082031e-01,2.000000000000000000e+00,3.884867095947265625e+01,7.011387348175048828e+00,3.494718551635742188e+01,-1.149567718505859375e+02,9.109189605712890625e+01,-6.689351654052734375e+01,4.475164413452148438e+01,-1.319447231292724609e+01,-1.078555908203125000e+02,-1.204130783081054688e+02,6.351470947265625000e+01,-3.963996887207031250e+01
6.159999966621398926e-01,2.000000000000000000e+00,3.887688446044921875e+01,6.963572978973388672e+00,3.494144058227539062e+01,-1.150111694335937500e+02,9.109447479248046875e+01,-6.691815948486328125e+01,4.468138122558593750e+01,-1.318760204315185547e+01,-1.078669357299804688e+02,-1.204716567993164062e+02,6.351067733764648438e+01,-3.966774749755859375e+01
6.200000047683715820e-01,2.000000000000000000e+00,3.890509796142578125e+01,6.915762424468994141e+00,3.493569564819335938e+01,-1.150655517578125000e+02,9.109703826904296875e+01,-6.694281005859375000e+01,4.461111831665039062e+01,-1.318073368072509766e+01,-1.078782806396484375e+02,-1.205302352905273438e+02,6.350664138793945312e+01,-3.969552230834960938e+01
6.240000128746032715e-01,2.000000000000000000e+00,3.893330764770507812e+01,6.867955684661865234e+00,3.492995452880859375e+01,-1.151199417114257812e+02,9.109961700439453125e+01,-6.696745300292968750e+01,4.454086303710937500e+01,-1.317386531829833984e+01,-1.078896179199218750e+02,-1.205887908935546875e+02,6.350261306762695312e+01,-3.972329711914062500e+01
6.280000209808349609e-01,2.000000000000000000e+00,3.896151733398437500e+01,6.820151805877685547e+00,3.492420959472656250e+01,-1.151743240356445312e+02,9.110218811035156250e+01,-6.699208831787109375e+01,4.447061538696289062e+01,-1.316699600219726562e+01,-1.079009628295898438e+02,-1.206473693847656250e+02,6.349857711791992188e+01,-3.975107192993164062e+01
6.320000290870666504e-01,2.000000000000000000e+00,3.898972320556640625e+01,6.772351741790771484e+00,3.491846847534179688e+01,-1.152286911010742188e+02,9.110475921630859375e+01,-6.701673126220703125e+01,4.440036773681640625e+01,-1.316012859344482422e+01,-1.079123077392578125e+02,-1.207059173583984375e+02,6.349454498291015625e+01,-3.977884292602539062e+01
6.359999775886535645e-01,2.000000000000000000e+00,3.901792907714843750e+01,6.724555015563964844e+00,3.491272354125976562e+01,-1.152830734252929688e+02,9.110733032226562500e+01,-6.704136657714843750e+01,4.433013153076171875e+01,-1.315326213836669922e+01,-1.079236526489257812e+02,-1.207644805908203125e+02,6.349051666259765625e+01,-3.980661392211914062e+01
6.399999856948852539e-01,2.000000000000000000e+00,3.904612731933593750e+01,6.676762104034423828e+00,3.490698242187500000e+01,-1.153374481201171875e+02,9.110990142822265625e+01,-6.706600189208984375e+01,4.425989532470703125e+01,-1.314639472961425781e+01,-1.079349899291992188e+02,-1.208230285644531250e+02,6.348648071289062500e+01,-3.983437728881835938e+01
6.439999938011169434e-01,2.000000000000000000e+00,3.907432937622070312e+01,6.628972530364990234e+00,3.490123748779296875e+01,-1.153918151855468750e+02,9.111247253417968750e+01,-6.709063720703125000e+01,4.418966293334960938e+01,-1.313952922821044922e+01,-1.079463272094726562e+02,-1.208815765380859375e+02,6.348244857788085938e+01,-3.986214065551757812e+01
6.480000019073486328e-01,2.000000000000000000e+00,3.910252761840820312e+01,6.581186294555664062e+00,3.489550018310546875e+01,-1.154461669921875000e+02,9.111504364013671875e+01,-6.711527252197265625e+01,4.411944198608398438e+01,-1.313266277313232422e+01,-1.079576644897460938e+02,-1.209401245117187500e+02,6.347842025756835938e+01,-3.988990402221679688e+01
6.520000100135803223e-01,2.000000000000000000e+00,3.913072204589843750e+01,6.533403873443603516e+00,3.488975906372070312e+01,-1.155005340576171875e+02,9.111761474609375000e+01,-6.713990020751953125e+01,4.404922103881835938e+01,-1.312579727172851562e+01,-1.079689941406250000e+02,-1.209986572265625000e+02,6.347438812255859375e+01,-3.991766357421875000e+01
6.560000181198120117e-01,2.000000000000000000e+00,3.915891647338867188e+01,6.485624790191650391e+00,3.488401794433593750e+01,-1.155548782348632812e+02,9.112018585205078125e+01,-6.716452789306640625e+01,4.397900772094726562e+01,-1.311893272399902344e+01,-1.079803314208984375e+02,-1.210571975708007812e+02,6.347035980224609375e+01,-3.994542312622070312e+01
6.600000262260437012e-01,2.000000000000000000e+00,3.918710708618164062e+01,6.437848567962646484e+00,3.487828063964843750e+01,-1.156092300415039062e+02,9.112275695800781250e+01,-6.718915557861328125e+01,4.390879821777343750e+01,-1.311206912994384766e+01,-1.079916687011718750e+02,-1.211157302856445312e+02,6.346633148193359375e+01,-3.997317886352539062e+01
6.639999747276306152e-01,2.000000000000000000e+00,3.921529769897460938e+01,6.390076160430908203e+00,3.487253952026367188e+01,-1.156635894775390625e+02,9.112532806396484375e+01,-6.721378326416015625e+01,4.383859252929687500e+01,-1.310520553588867188e+01,-1.080030059814453125e+02,-1.211742477416992188e+02,6.346229934692382812e+01,-4.000093460083007812e+01
6.679999828338623047e-01,2.000000000000000000e+00,3.924348449707031250e+01,6.342307090759277344e+00,3.486679840087890625e+01,-1.157179260253906250e+02,9.112789154052734375e+01,-6.723840332031250000e+01,4.376839447021484375e+01,-1.309834194183349609e+01,-1.080143356323242188e+02,-1.212327880859375000e+02,6.345827102661132812e+01,-4.002868652343750000e+01
6.719999909400939941e-01,2.000000000000000000e+00,3.927167129516601562e+01,6.294541358947753906e+00,3.486106109619140625e+01,-1.157722549438476562e+02,9.113047027587890625e+01,-6.726303100585937500e+01,4.369820022583007812e+01,-1.309147930145263672e+01,-1.080256729125976562e+02,-1.212912902832031250e+02,6.345424270629882812e+01,-4.005643844604492188e+01
6.759999990463256836e-01,2.000000000000000000e+00,3.929985427856445312e+01,6.246779441833496094e+00,3.485532379150390625e+01,-1.158265914916992188e+02,9.113303375244140625e+01,-6.728764343261718750e+01,4.362800979614257812e+01,-1.308461666107177734e+01,-1.080370025634765625e+02,-1.213498153686523438e+02,6.345021057128906250e+01,-4.008418655395507812e+01
6.800000071525573730e-01,2.000000000000000000e+00,3.932803344726562500e+01,6.199020385742187500e+00,3.484958267211914062e+01,-1.158809204101562500e+02,9.113560485839843750e+01,-6.731226348876953125e+01,4.355782699584960938e+01,-1.307775497436523438e+01,-1.080483322143554688e+02,-1.214083251953125000e+02,6.344618225097656250e+01,-4.011193084716796875e+01
6.840000152587890625e-01,2.000000000000000000e+00,3.935621643066406250e+01,6.151264667510986328e+00,3.484384536743164062e+01,-1.159352493286132812e+02,9.113817596435546875e+01,-6.733688354492187500e+01,4.348764801025390625e+01,-1.307089424133300781e+01,-1.080596694946289062e+02,-1.214668273925781250e+02,6.344215011596679688e+01,-4.013967895507812500e+01
6.880000233650207520e-01,2.000000000000000000e+00,3.938439559936523438e+01,6.103512763977050781e+00,3.483810806274414062e+01,-1.159895782470703125e+02,9.114074707031250000e+01,-6.736149597167968750e+01,4.341746902465820312e+01,-1.306403255462646484e+01,-1.080709915161132812e+02,-1.215253372192382812e+02,6.343812942504882812e+01,-4.016741943359375000e+01
6.919999718666076660e-01,2.000000000000000000e+00,3.941256713867187500e+01,6.055763721466064453e+00,3.483237457275390625e+01,-1.160438919067382812e+02,9.114331817626953125e+01,-6.738610839843750000e+01,4.334730148315429688e+01,-1.305717277526855469e+01,-1.080823211669921875e+02,-1.215838317871093750e+02,6.343409729003906250e+01,-4.019515991210937500e+01
6.959999799728393555e-01,2.000000000000000000e+00,3.944074249267578125e+01,6.008018016815185547e+00,3.482663726806640625e+01,-1.160982208251953125e+02,9.114588165283203125e+01,-6.741072082519531250e+01,4.327713775634765625e+01,-1.305031299591064453e+01,-1.080936431884765625e+02,-1.216423263549804688e+02,6.343006896972656250e+01,-4.022290420532226562e+01
6.999999880790710449e-01,2.000000000000000000e+00,3.946891784667968750e+01,5.960275650024414062e+00,3.482089996337890625e+01,-1.161525192260742188e+02,9.114845275878906250e+01,-6.743533325195312500e+01,4.320697784423828125e+01,-1.304345321655273438e+01,-1.081049804687500000e+02,-1.217008209228515625e+02,6.342604446411132812e+01,-4.025064086914062500e+01
7.039999961853027344e-01,2.000000000000000000e+00,3.949708557128906250e+01,5.912536144256591797e+00,3.481516647338867188e+01,-1.162068328857421875e+02,9.115102386474609375e+01,-6.745994567871093750e+01,4.313682174682617188e+01,-1.303659439086914062e+01,-1.081163024902343750e+02,-1.217593002319335938e+02,6.342201614379882812e+01,-4.027837371826171875e+01
7.080000042915344238e-01,2.000000000000000000e+00,3.952525329589843750e+01,5.864800453186035156e+00,3.480942916870117188e+01,-1.162611312866210938e+02,9.115358734130859375e+01,-6.748454284667968750e+01,4.306667327880859375e+01,-1.302973556518554688e+01,-1.081276245117187500e+02,-1.218177795410156250e+02,6.341799163818359375e+01,-4.030610656738281250e+01
7.120000123977661133e-01,2.000000000000000000e+00,3.955342102050781250e+01,5.817068099975585938e+00,3.480369567871093750e+01,-1.163154296875000000e+02,9.115615844726562500e+01,-6.750915527343750000e+01,4.299652481079101562e+01,-1.302287864685058594e+01,-1.081389541625976562e+02,-1.218762588500976562e+02,6.341396331787109375e+01,-4.033383941650390625e+01
7.160000205039978027e-01,2.000000000000000000e+00,3.958158493041992188e+01,5.769338607788085938e+00,3.479795837402343750e+01,-1.163697280883789062e+02,9.115872192382812500e+01,-6.753375244140625000e+01,4.292638397216796875e+01,-1.301602077484130859e+01,-1.081502761840820312e+02,-1.219347381591796875e+02,6.340993881225585938e+01,-4.036156845092773438e+01
7.200000286102294922e-01,2.000000000000000000e+00,3.960974502563476562e+01,5.721612930297851562e+00,3.479222488403320312e+01,-1.164240341186523438e+02,9.116129302978515625e+01,-6.755834960937500000e+01,4.285624694824218750e+01,-1.300916385650634766e+01,-1.081615982055664062e+02,-1.219932022094726562e+02,6.340591049194335938e+01,-4.038929748535156250e+01
7.239999771118164062e-01,2.000000000000000000e+00,3.963790893554687500e+01,5.673889636993408203e+00,3.478649139404296875e+01,-1.164783172607421875e+02,9.116386413574218750e+01,-6.758295440673828125e+01,4.278611755371093750e+01,-1.300230693817138672e+01,-1.081729278564453125e+02,-1.220516738891601562e+02,6.340188598632812500e+01,-4.041701889038085938e+01
7.279999852180480957e-01,2.000000000000000000e+00,3.966606903076171875e+01,5.626169681549072266e+00,3.478075790405273438e+01,-1.165326080322265625e+02,9.116642761230468750e+01,-6.760755157470703125e+01,4.271598815917968750e+01,-1.299545097351074219e+01,-1.081842422485351562e+02,-1.221101379394531250e+02,6.339786529541015625e+01,-4.044474411010742188e+01
7.319999933242797852e-01,2.000000000000000000e+00,3.969422531127929688e+01,5.578453540802001953e+00,3.477502822875976562e+01,-1.165868911743164062e+02,9.116899108886718750e+01,-6.763214874267578125e+01,4.264586639404296875e+01,-1.298859500885009766e+01,-1.081955642700195312e+02,-1.221685867309570312e+02,6.339383316040039062e+01,-4.047246551513671875e+01
7.360000014305114746e-01,2.000000000000000000e+00,3.972237777709960938e+01,5.530740261077880859e+00,3.476929473876953125e+01,-1.166411666870117188e+02,9.117156219482421875e+01,-6.765674591064453125e+01,4.257575225830078125e+01,-1.298173999786376953e+01,-1.082068862915039062e+02,-1.222270431518554688e+02,6.338981246948242188e+01,-4.050018692016601562e+01
7.400000095367431641e-01,2.000000000000000000e+00,3.975053405761718750e+01,5.483029842376708984e+00,3.476356124877929688e+01,-1.166954345703125000e+02,9.117412567138671875e+01,-6.768133544921875000e+01,4.250563812255859375e+01,-1.297488498687744141e+01,-1.082182083129882812e+02,-1.222854919433593750e+02,6.338578796386718750e+01,-4.052790451049804688e+01
7.440000176429748535e-01,2.000000000000000000e+00,3.977868270874023438e+01,5.435323238372802734e+00,3.475782775878906250e+01,-1.167497100830078125e+02,9.117669677734375000e+01,-6.770593261718750000e+01,4.243553161621093750e+01,-1.296803092956542969e+01,-1.082295227050781250e+02,-1.223439331054687500e+02,6.338176727294921875e+01,-4.055562210083007812e+01
7.480000257492065430e-01,2.000000000000000000e+00,3.980683135986328125e+01,5.387619018554687500e+00,3.475209808349609375e+01,-1.168039779663085938e+02,9.117926025390625000e+01,-6.773052215576171875e+01,4.236542892456054688e+01,-1.296117687225341797e+01,-1.082408447265625000e+02,-1.224023895263671875e+02,6.337773513793945312e+01,-4.058333969116210938e+01
7.519999742507934570e-01,2.000000000000000000e+00,3.983498001098632812e+01,5.339918136596679688e+00,3.474636840820312500e+01,-1.168582534790039062e+02,9.118182373046875000e+01,-6.775511169433593750e+01,4.229533004760742188e+01,-1.295432376861572266e+01,-1.082521591186523438e+02,-1.224608230590820312e+02,6.337371444702148438e+01,-4.061104965209960938e+01
7.559999823570251465e-01,2.000000000000000000e+00,3.986312484741210938e+01,5.292221069335937500e+00,3.474063873291015625e+01,-1.169125137329101562e+02,9.118439483642578125e+01,-6.777969360351562500e+01,4.222523498535156250e+01,-1.294747066497802734e+01,-1.082634811401367188e+02,-1.225192489624023438e+02,6.336968994140625000e+01,-4.063876342773437500e+01
7.599999904632568359e-01,2.000000000000000000e+00,3.989126968383789062e+01,5.244526386260986328e+00,3.473490524291992188e+01,-1.169667739868164062e+02,9.118695831298828125e+01,-6.780427551269531250e+01,4.215514373779296875e+01,-1.294061851501464844e+01,-1.082747879028320312e+02,-1.225776901245117188e+02,6.336566543579101562e+01,-4.066647338867187500e+01
7.639999985694885254e-01,2.000000000000000000e+00,3.991941070556640625e+01,5.196835041046142578e+00,3.472917556762695312e+01,-1.170210189819335938e+02,9.118952941894531250e+01,-6.782885742187500000e+01,4.208505630493164062e+01,-1.293376636505126953e+01,-1.082861099243164062e+02,-1.226361160278320312e+02,6.336164474487304688e+01,-4.069417953491210938e+01
7.680000066757202148e-01,2.000000000000000000e+00,3.994755172729492188e+01,5.149146556854248047e+00,3.472344589233398438e+01,-1.170752792358398438e+02,9.119209289550781250e+01,-6.785343933105468750e+01,4.201497650146484375e+01,-1.292691421508789062e+01,-1.082974166870117188e+02,-1.226945419311523438e+02,6.335762023925781250e+01,-4.072188186645507812e+01
7.720000147819519043e-01,2.000000000000000000e+00,3.997568893432617188e+01,5.101460933685302734e+00,3.471772003173828125e+01,-1.171295242309570312e+02,9.119465637207031250e+01,-6.787802124023437500e+01,4.194490432739257812e+01,-1.292006301879882812e+01,-1.083087387084960938e+02,-1.227529678344726562e+02,6.335359954833984375e+01,-4.074958801269531250e+01
7.760000228881835938e-01,2.000000000000000000e+00,4.000382614135742188e+01,5.053778648376464844e+00,3.471198654174804688e+01,-1.171837692260742188e+02,9.119721984863281250e+01,-6.790260314941406250e+01,4.187482833862304688e+01,-1.291321182250976562e+01,-1.083200454711914062e+02,-1.228113784790039062e+02,6.334957504272460938e+01,-4.077729034423828125e+01
7.799999713897705078e-01,2.000000000000000000e+00,4.003195953369140625e+01,5.006099700927734375e+00,3.470626068115234375e+01,-1.172379989624023438e+02,9.119979095458984375e+01,-6.792718505859375000e+01,4.180475997924804688e+01,-1.290636253356933594e+01,-1.083313598632812500e+02,-1.228697891235351562e+02,6.334555816650390625e+01,-4.080499267578125000e+01
7.839999794960021973e-01,2.000000000000000000e+00,4.006009292602539062e+01,4.958423137664794922e+00,3.470053482055664062e+01,-1.172922439575195312e+02,9.120235443115234375e+01,-6.795175933837890625e+01,4.173469924926757812e+01,-1.289951229095458984e+01,-1.083426666259765625e+02,-1.229281997680664062e+02,6.334153747558593750e+01,-4.083268737792968750e+01
7.879999876022338867e-01,2.000000000000000000e+00,4.008822631835937500e+01,4.910750389099121094e+00,3.469480514526367188e+01,-1.173464736938476562e+02,9.120491790771484375e+01,-6.797633361816406250e+01,4.166463851928710938e+01,-1.289266300201416016e+01,-1.083539810180664062e+02,-1.229866027832031250e+02,6.333751296997070312e+01,-4.086038589477539062e+01
7.919999957084655762e-01,2.000000000000000000e+00,4.011635589599609375e+01,4.863080024719238281e+00,3.468907546997070312e+01,-1.174007110595703125e+02,9.120748901367187500e+01,-6.800090026855468750e+01,4.159458541870117188e+01,-1.288581371307373047e+01,-1.083652877807617188e+02,-1.230450134277343750e+02,6.333348846435546875e+01,-4.088808059692382812e+01
7.960000038146972656e-01,2.000000000000000000e+00,4.014448165893554688e+01,4.815412998199462891e+00,3.468334960937500000e+01,-1.174549255371093750e+02,9.121004486083984375e+01,-6.802547454833984375e+01,4.152453994750976562e+01,-1.287896442413330078e+01,-1.083766021728515625e+02,-1.231034088134765625e+02,6.332947540283203125e+01,-4.091577529907226562e+01
8.000000119209289551e-01,2.000000000000000000e+00,4.017260742187500000e+01,4.767748355865478516e+00,3.467762374877929688e+01,-1.175091552734375000e+02,9.121261596679687500e+01,-6.805004119873046875e+01,4.145449066162109375e+01,-1.287211704254150391e+01,-1.083879089355468750e+02,-1.231617965698242188e+02,6.332545089721679688e+01,-4.094346618652343750e+01
8.040000200271606445e-01,2.000000000000000000e+00,4.020073318481445312e+01,4.720086574554443359e+00,3.467189788818359375e+01,-1.175633773803710938e+02,9.121517944335937500e+01,-6.807460784912109375e+01,4.138445281982421875e+01,-1.286526966094970703e+01,-1.083992156982421875e+02,-1.232201919555664062e+02,6.332142639160156250e+01,-4.097115707397460938e+01
8.080000281333923340e-01,2.000000000000000000e+00,4.022885513305664062e+01,4.672428607940673828e+00,3.466617202758789062e+01,-1.176175918579101562e+02,9.121773529052734375e+01,-6.809918212890625000e+01,4.131441497802734375e+01,-1.285842227935791016e+01,-1.084105224609375000e+02,-1.232785797119140625e+02,6.331741333007812500e+01,-4.099884796142578125e+01
8.119999766349792480e-01,2.000000000000000000e+00,4.025697326660156250e+01,4.624773025512695312e+00,3.466044616699218750e+01,-1.176717987060546875e+02,9.122030639648437500e+01,-6.812374114990234375e+01,4.124438095092773438e+01,-1.285157489776611328e+01,-1.084218292236328125e+02,-1.233369598388671875e+02,6.331338882446289062e+01,-4.102653121948242188e+01
8.159999847412109375e-01,2.000000000000000000e+00,4.028509521484375000e+01,4.577120780944824219e+00,3.465472030639648438e+01,-1.177260131835937500e+02,9.122286987304687500e+01,-6.814830780029296875e+01,4.117435455322265625e+01,-1.284472846984863281e+01,-1.084331359863281250e+02,-1.233953475952148438e+02,6.330937194824218750e+01,-4.105421447753906250e+01
8.199999928474426270e-01,2.000000000000000000e+00,4.031320953369140625e+01,4.529471397399902344e+00,3.464899826049804688e+01,-1.177802200317382812e+02,9.122542572021484375e+01,-6.817286682128906250e+01,4.110432815551757812e+01,-1.283788204193115234e+01,-1.084444427490234375e+02,-1.234537200927734375e+02,6.330535125732421875e+01,-4.108189773559570312e+01
8.240000009536743164e-01,2.000000000000000000e+00,4.034132766723632812e+01,4.481824398040771484e+00,3.464327239990234375e+01,-1.178344268798828125e+02,9.122799682617187500e+01,-6.819743347167968750e+01,4.103430938720703125e+01,-1.283103656768798828e+01,-1.084557495117187500e+02,-1.235120849609375000e+02,6.330133438110351562e+01,-4.110958099365234375e+01
8.280000090599060059e-01,2.000000000000000000e+00,4.036944198608398438e+01,4.434180259704589844e+00,3.463754653930664062e+01,-1.178886260986328125e+02,9.123056030273437500e+01,-6.822198486328125000e+01,4.096429443359375000e+01,-1.282419204711914062e+01,-1.084670562744140625e+02,-1.235704574584960938e+02,6.329730987548828125e+01,-4.113726043701171875e+01
8.320000171661376953e-01,2.000000000000000000e+00,4.039755249023437500e+01,4.386538982391357422e+00,3.463182067871093750e+01,-1.179428176879882812e+02,9.123311614990234375e+01,-6.824654388427734375e+01,4.089428329467773438e+01,-1.281734657287597656e+01,-1.084783554077148438e+02,-1.236288299560546875e+02,6.329329299926757812e+01,-4.116493988037109375e+01
8.360000252723693848e-01,2.000000000000000000e+00,4.042566299438476562e+01,4.338901042938232422e+00,3.462609863281250000e+01,-1.179970092773437500e+02,9.123568725585937500e+01,-6.827110290527343750e+01,4.082427597045898438e+01,-1.281050205230712891e+01,-1.084896545410156250e+02,-1.236871871948242188e+02,6.328927993774414062e+01,-4.119261550903320312e+01
8.399999737739562988e-01,2.000000000000000000e+00,4.045377349853515625e+01,4.291265964508056641e+00,3.462037658691406250e+01,-1.180512008666992188e+02,9.123825073242187500e+01,-6.829565429687500000e+01,4.075427246093750000e+01,-1.280365848541259766e+01,-1.085009613037109375e+02,-1.237455444335937500e+02,6.328525543212890625e+01,-4.122029113769531250e+01
8.439999818801879883e-01,2.000000000000000000e+00,4.048188018798828125e+01,4.243633270263671875e+00,3.461465454101562500e+01,-1.181053924560546875e+02,9.124080657958984375e+01,-6.832021331787109375e+01,4.068427658081054688e+01,-1.279681491851806641e+01,-1.085122604370117188e+02,-1.238039016723632812e+02,6.328123855590820312e+01,-4.124796295166015625e+01
8.479999899864196777e-01,2.000000000000000000e+00,4.050998687744140625e+01,4.196003913879394531e+00,3.460893249511718750e+01,-1.181595687866210938e+02,9.124337005615234375e+01,-6.834475708007812500e+01,4.061428070068359375e+01,-1.278997135162353516e+01,-1.085235595703125000e+02,-1.238622589111328125e+02,6.327722167968750000e+01,-4.127563476562500000e+01
8.519999980926513672e-01,2.000000000000000000e+00,4.053808975219726562e+01,4.148376941680908203e+00,3.460321044921875000e+01,-1.182137603759765625e+02,9.124593353271484375e+01,-6.836931610107421875e+01,4.054428863525390625e+01,-1.278312873840332031e+01,-1.085348587036132812e+02,-1.239206008911132812e+02,6.327320480346679688e+01,-4.130330657958984375e+01
8.560000061988830566e-01,2.000000000000000000e+00,4.056619262695312500e+01,4.100752830505371094e+00,3.459748840332031250e+01,-1.182679367065429688e+02,9.124849700927734375e+01,-6.839385986328125000e+01,4.047430419921875000e+01,-1.277628612518310547e+01,-1.085461578369140625e+02,-1.239789428710937500e+02,6.326918411254882812e+01,-4.133097457885742188e+01
8.600000143051147461e-01,2.000000000000000000e+00,4.059429550170898438e+01,4.053131580352783203e+00,3.459176635742187500e+01,-1.183221130371093750e+02,9.125106048583984375e+01,-6.841841125488281250e+01,4.040432357788085938e+01,-1.276944446563720703e+01,-1.085574569702148438e+02,-1.240372848510742188e+02,6.326516723632812500e+01,-4.135863876342773438e+01
8.640000224113464355e-01,2.000000000000000000e+00,4.062239074707031250e+01,4.005512714385986328e+00,3.458604812622070312e+01,-1.183762741088867188e+02,9.125362396240234375e+01,-6.844295501708984375e+01,4.033434295654296875e+01,-1.276260185241699219e+01,-1.085687561035156250e+02,-1.240956344604492188e+02,6.326115036010742188e+01,-4.138630676269531250e+01
8.679999709129333496e-01,2.000000000000000000e+00,4.065048980712890625e+01,3.957897424697875977e+00,3.458032608032226562e+01,-1.184304428100585938e+02,9.125618743896484375e+01,-6.846749877929687500e+01,4.026436996459960938e+01,-1.275576210021972656e+01,-1.085800476074218750e+02,-1.241539611816406250e+02,6.325713348388671875e+01,-4.141396713256835938e+01
8.719999790191650391e-01,2.000000000000000000e+00,4.067858505249023438e+01,3.910284280776977539e+00,3.457460403442382812e+01,-1.184846191406250000e+02,9.125874328613281250e+01,-6.849203491210937500e+01,4.019440078735351562e+01,-1.274892044067382812e+01,-1.085913467407226562e+02,-1.242122955322265625e+02,6.325312042236328125e+01,-4.144163131713867188e+01
8.759999871253967285e-01,2.000000000000000000e+00,4.070667648315429688e+01,3.862673997879028320e+00,3.456888580322265625e+01,-1.185387649536132812e+02,9.126130676269531250e+01,-6.851658630371093750e+01,4.012443542480468750e+01,-1.274207973480224609e+01,-1.086026458740234375e+02,-1.242706222534179688e+02,6.324910354614257812e+01,-4.146929168701171875e+01
8.799999952316284180e-01,2.000000000000000000e+00,4.073477172851562500e+01,3.815066337585449219e+00,3.456316375732421875e+01,-1.185929336547851562e+02,9.126387023925781250e+01,-6.854112243652343750e+01,4.005447006225585938e+01,-1.273524093627929688e+01,-1.086139373779296875e+02,-1.243289489746093750e+02,6.324508666992187500e+01,-4.149695205688476562e+01
8.840000033378601074e-01,2.000000000000000000e+00,4.076286315917968750e+01,3.767461061477661133e+00,3.455744552612304688e+01,-1.186470947265625000e+02,9.126643371582031250e+01,-6.856565856933593750e+01,3.998451232910156250e+01,-1.272840023040771484e+01,-1.086252365112304688e+02,-1.243872680664062500e+02,6.324106979370117188e+01,-4.152460861206054688e+01
8.880000114440917969e-01,2.000000000000000000e+00,4.079095077514648438e+01,3.719858884811401367e+00,3.455172348022460938e+01,-1.187012405395507812e+02,9.126898956298828125e+01,-6.859020233154296875e+01,3.991456222534179688e+01,-1.272156143188476562e+01,-1.086365280151367188e+02,-1.244455871582031250e+02,6.323705291748046875e+01,-4.155226135253906250e+01
8.920000195503234863e-01,2.000000000000000000e+00,4.081903839111328125e+01,3.672258853912353516e+00,3.454600906372070312e+01,-1.187553939819335938e+02,9.127155303955078125e+01,-6.861473846435546875e+01,3.984460830688476562e+01,-1.271472263336181641e+01,-1.086478195190429688e+02,-1.245038986206054688e+02,6.323304367065429688e+01,-4.157991790771484375e+01
8.960000276565551758e-01,2.000000000000000000e+00,4.084712219238281250e+01,3.624662399291992188e+00,3.454028701782226562e+01,-1.188095474243164062e+02,9.127411651611328125e+01,-6.863926696777343750e+01,3.977466201782226562e+01,-1.270788383483886719e+01,-1.086591110229492188e+02,-1.245622177124023438e+02,6.322903060913085938e+01,-4.160757064819335938e+01
8.999999761581420898e-01,2.000000000000000000e+00,4.087520980834960938e+01,3.577067852020263672e+00,3.453456878662109375e+01,-1.188636779785156250e+02,9.127667236328125000e+01,-6.866380310058593750e+01,3.970471954345703125e+01,-1.270104598999023438e+01,-1.086704101562500000e+02,-1.246205215454101562e+02,6.322501373291015625e+01,-4.163522338867187500e+01
9.039999842643737793e-01,2.000000000000000000e+00,4.090329360961914062e+01,3.529476165771484375e+00,3.452885437011718750e+01,-1.189178161621093750e+02,9.127923583984375000e+01,-6.868833923339843750e+01,3.963478088378906250e+01,-1.269420814514160156e+01,-1.086817016601562500e+02,-1.246788177490234375e+02,6.322099685668945312e+01,-4.166286849975585938e+01
9.079999923706054688e-01,2.000000000000000000e+00,4.093137359619140625e+01,3.481886863708496094e+00,3.452313232421875000e+01,-1.189719619750976562e+02,9.128179168701171875e+01,-6.871286773681640625e+01,3.956484985351562500e+01,-1.268737030029296875e+01,-1.086929855346679688e+02,-1.247371215820312500e+02,6.321697998046875000e+01,-4.169051742553710938e+01
9.120000004768371582e-01,2.000000000000000000e+00,4.095945739746093750e+01,3.434299945831298828e+00,3.451741790771484375e+01,-1.190260848999023438e+02,9.128435516357421875e+01,-6.873739624023437500e+01,3.949491882324218750e+01,-1.268053340911865234e+01,-1.087042770385742188e+02,-1.247954254150390625e+02,6.321297073364257812e+01,-4.171816253662109375e+01
9.160000085830688477e-01,2.000000000000000000e+00,4.098753356933593750e+01,3.386715650558471680e+00,3.451169967651367188e+01,-1.190802230834960938e+02,9.128691101074218750e+01,-6.876192474365234375e+01,3.942498779296875000e+01,-1.267369747161865234e+01,-1.087155685424804688e+02,-1.248537292480468750e+02,6.320895385742187500e+01,-4.174580764770507812e+01
9.200000166893005371e-01,2.000000000000000000e+00,4.101560974121093750e+01,3.339133739471435547e+00,3.450598144531250000e+01,-1.191343612670898438e+02,9.128947448730468750e+01,-6.878645324707031250e+01,3.935506439208984375e+01,-1.266686058044433594e+01,-1.087268524169921875e+02,-1.249120178222656250e+02,6.320494079589843750e+01,-4.177345275878906250e+01
9.240000247955322266e-01,2.000000000000000000e+00,4.104368972778320312e+01,3.291554212570190430e+00,3.450026702880859375e+01,-1.191884841918945312e+02,9.129203796386718750e+01,-6.881097412109375000e+01,3.928514480590820312e+01,-1.266002464294433594e+01,-1.087381439208984375e+02,-1.249703063964843750e+02,6.320092773437500000e+01,-4.180109786987304688e+01
9.279999732971191406e-01,2.000000000000000000e+00,4.107176589965820312e+01,3.243977069854736328e+00,3.449455261230468750e+01,-1.192426071166992188e+02,9.129459381103515625e+01,-6.883550262451171875e+01,3.921522903442382812e+01,-1.265318965911865234e+01,-1.087494354248046875e+02,-1.250285949707031250e+02,6.319691467285156250e+01,-4.182873916625976562e+01
9.319999814033508301e-01,2.000000000000000000e+00,4.109983825683593750e+01,3.196402311325073242e+00,3.448883438110351562e+01,-1.192967300415039062e+02,9.129714965820312500e+01,-6.886002349853515625e+01,3.914531326293945312e+01,-1.264635372161865234e+01,-1.087607192993164062e+02,-1.250868682861328125e+02,6.319290542602539062e+01,-4.185637664794921875e+01
9.359999895095825195e-01,2.000000000000000000e+00,4.112791061401367188e+01,3.148829698562622070e+00,3.448311996459960938e+01,-1.193508529663085938e+02,9.129971313476562500e+01,-6.888455200195312500e+01,3.907540512084960938e+01,-1.263951969146728516e+01,-1.087720031738281250e+02,-1.251451568603515625e+02,6.318888854980468750e+01,-4.188401412963867188e+01
9.399999976158142090e-01,2.000000000000000000e+00,4.115598297119140625e+01,3.101259708404541016e+00,3.447740554809570312e+01,-1.194049606323242188e+02,9.130227661132812500e+01,-6.890906524658203125e+01,3.900549697875976562e+01,-1.263268470764160156e+01,-1.087832870483398438e+02,-1.252034378051757812e+02,6.318487930297851562e+01,-4.191165161132812500e+01
9.440000057220458984e-01,2.000000000000000000e+00,4.118405151367187500e+01,3.053691864013671875e+00,3.447168731689453125e+01,-1.194590682983398438e+02,9.130483245849609375e+01,-6.893358612060546875e+01,3.893559265136718750e+01,-1.262585067749023438e+01,-1.087945709228515625e+02,-1.252617111206054688e+02,6.318086242675781250e+01,-4.193928527832031250e+01
9.480000138282775879e-01,2.000000000000000000e+00,4.121211624145507812e+01,3.006126403808593750e+00,3.446597671508789062e+01,-1.195131912231445312e+02,9.130738830566406250e+01,-6.895809936523437500e+01,3.886569213867187500e+01,-1.261901664733886719e+01,-1.088058624267578125e+02,-1.253199844360351562e+02,6.317685317993164062e+01,-4.196691894531250000e+01
9.520000219345092773e-01,2.000000000000000000e+00,4.124018478393554688e+01,2.958563089370727539e+00,3.446026229858398438e+01,-1.195672988891601562e+02,9.130995178222656250e+01,-6.898262023925781250e+01,3.879579544067382812e+01,-1.261218261718750000e+01,-1.088171463012695312e+02,-1.253782577514648438e+02,6.317283630371093750e+01,-4.199455642700195312e+01
9.559999704360961914e-01,2.000000000000000000e+00,4.126824951171875000e+01,2.911001920700073242e+00,3.445454406738281250e+01,-1.196213912963867188e+02,9.131250762939453125e+01,-6.900713348388671875e+01,3.872590255737304688e+01,-1.260534954071044922e+01,-1.088284301757812500e+02,-1.254365234375000000e+02,6.316882705688476562e+01,-4.202218627929687500e+01
9.599999785423278809e-01,2.000000000000000000e+00,4.129631042480468750e+01,2.863443136215209961e+00,3.444882965087890625e+01,-1.196754989624023438e+02,9.131507110595703125e+01,-6.903165435791015625e+01,3.865601348876953125e+01,-1.259851646423339844e+01,-1.088397140502929688e+02,-1.254947814941406250e+02,6.316481781005859375e+01,-4.204981613159179688e+01
9.639999866485595703e-01,2.000000000000000000e+00,4.132437515258789062e+01,2.815886259078979492e+00,3.444311904907226562e+01,-1.197295989990234375e+02,9.131762695312500000e+01,-6.905616760253906250e+01,3.858612442016601562e+01,-1.259168338775634766e+01,-1.088509979248046875e+02,-1.255530471801757812e+02,6.316080093383789062e+01,-4.207744598388671875e+01
9.679999947547912598e-01,2.000000000000000000e+00,4.135243606567382812e+01,2.768331527709960938e+00,3.443740463256835938e+01,-1.197837066650390625e+02,9.132018280029296875e+01,-6.908068084716796875e+01,3.851624298095703125e+01,-1.258485126495361328e+01,-1.088622817993164062e+02,-1.256113052368164062e+02,6.315679168701171875e+01,-4.210507202148437500e+01
9.720000028610229492e-01,2.000000000000000000e+00,4.138049697875976562e+01,2.720779180526733398e+00,3.443169021606445312e+01,-1.198377990722656250e+02,9.132274627685546875e+01,-6.910519409179687500e+01,3.844636154174804688e+01,-1.257802009582519531e+01,-1.088735656738281250e+02,-1.256695709228515625e+02,6.315278244018554688e+01,-4.213269805908203125e+01
9.760000109672546387e-01,2.000000000000000000e+00,4.140855407714843750e+01,2.673228740692138672e+00,3.442597961425781250e+01,-1.198918991088867188e+02,9.132530212402343750e+01,-6.912970733642578125e+01,3.837648391723632812e+01,-1.257118797302246094e+01,-1.088848419189453125e+02,-1.257278289794921875e+02,6.314877319335937500e+01,-4.216032791137695312e+01
9.800000190734863281e-01,2.000000000000000000e+00,4.143661499023437500e+01,2.625680446624755859e+00,3.442026901245117188e+01,-1.199459762573242188e+02,9.132785797119140625e+01,-6.915421295166015625e+01,3.830660629272460938e+01,-1.256435585021972656e+01,-1.088961257934570312e+02,-1.257860794067382812e+02,6.314475631713867188e+01,-4.218795013427734375e+01
9.840000271797180176e-01,2.000000000000000000e+00,4.146466827392578125e+01,2.578133821487426758e+00,3.441455459594726562e+01,-1.200000762939453125e+02,9.133041381835937500e+01,-6.917872619628906250e+01,3.823673629760742188e+01,-1.255752468109130859e+01,-1.089074096679687500e+02,-1.258443222045898438e+02,6.314074707031250000e+01,-4.221557235717773438e+01
9.879999756813049316e-01,2.000000000000000000e+00,4.149272537231445312e+01,2.530589580535888672e+00,3.440884017944335938e+01,-1.200541534423828125e+02,9.133297729492187500e+01,-6.920323181152343750e+01,3.816686630249023438e+01,-1.255069351196289062e+01,-1.089186859130859375e+02,-1.259025726318359375e+02,6.313673782348632812e+01,-4.224319458007812500e+01
9.919999837875366211e-01,2.000000000000000000e+00,4.152077865600585938e+01,2.483047485351562500e+00,3.440312957763671875e+01,-1.201082458496093750e+02,9.133553314208984375e+01,-6.922773742675781250e+01,3.809700012207031250e+01,-1.254386329650878906e+01,-1.089299697875976562e+02,-1.259608230590820312e+02,6.313272857666015625e+01,-4.227081680297851562e+01
9.959999918937683105e-01,2.000000000000000000e+00,4.154883193969726562e+01,2.435507059097290039e+00,3.439741516113281250e+01,-1.201623306274414062e+02,9.133808898925781250e+01,-6.925224304199218750e+01,3.802713775634765625e+01,-1.253703308105468750e+01,-1.089412460327148438e+02,-1.260190505981445312e+02,6.312871932983398438e+01,-4.229843521118164062e+01
1.000000000000000000e+00,2.000000000000000000e+00,4.157688140869140625e+01,2.387969017028808594e+00,3.439170837402343750e+01,-1.202164154052734375e+02,9.134064483642578125e+01,-6.927674865722656250e+01,3.795727920532226562e+01,-1.253020286560058594e+01,-1.089525222778320312e+02,-1.260773010253906250e+02,6.312471008300781250e+01,-4.232605361938476562e+01
1.003999948501586914e+00,2.000000000000000000e+00,4.160493469238281250e+01,2.340432882308959961e+00,3.438599777221679688e+01,-1.202704772949218750e+02,9.134320831298828125e+01,-6.930125427246093750e+01,3.788742065429687500e+01,-1.252337265014648438e+01,-1.089637985229492188e+02,-1.261355361938476562e+02,6.312069702148437500e+01,-4.235367202758789062e+01
1.008000016212463379e+00,2.000000000000000000e+00,4.163298034667968750e+01,2.292898654937744141e+00,3.438028335571289062e+01,-1.203245620727539062e+02,9.134576416015625000e+01,-6.932575225830078125e+01,3.781756591796875000e+01,-1.251654338836669922e+01,-1.089750823974609375e+02,-1.261937713623046875e+02,6.311668777465820312e+01,-4.238128662109375000e+01
1.011999964714050293e+00,2.000000000000000000e+00,4.166102981567382812e+01,2.245366334915161133e+00,3.437457275390625000e+01,-1.203786315917968750e+02,9.134832763671875000e+01,-6.935025787353515625e+01,3.774771499633789062e+01,-1.250971412658691406e+01,-1.089863586425781250e+02,-1.262520065307617188e+02,6.311267852783203125e+01,-4.240890121459960938e+01
1.016000032424926758e+00,2.000000000000000000e+00,4.168907928466796875e+01,2.197835922241210938e+00,3.436886215209960938e+01,-1.204326934814453125e+02,9.135087585449218750e+01,-6.937475585937500000e+01,3.767786407470703125e+01,-1.250288486480712891e+01,-1.089976348876953125e+02,-1.263102416992187500e+02,6.310866928100585938e+01,-4.243651580810546875e+01
1.019999980926513672e+00,2.000000000000000000e+00,4.171712112426757812e+01,2.150307655334472656e+00,3.436315155029296875e+01,-1.204867630004882812e+02,9.135343170166015625e+01,-6.939926147460937500e+01,3.760802078247070312e+01,-1.249605655670166016e+01,-1.090089111328125000e+02,-1.263684616088867188e+02,6.310465621948242188e+01,-4.246413040161132812e+01
1.024000048637390137e+00,2.000000000000000000e+00,4.174516677856445312e+01,2.102781295776367188e+00,3.435744476318359375e+01,-1.205408325195312500e+02,9.135599517822265625e+01,-6.942375183105468750e+01,3.753817749023437500e+01,-1.248922824859619141e+01,-1.090201873779296875e+02,-1.264266967773437500e+02,6.310064697265625000e+01,-4.249174118041992188e+01
1.026999950408935547e+00,2.000000000000000000e+00,4.177321243286132812e+01,2.055256843566894531e+00,3.435173416137695312e+01,-1.205949020385742188e+02,9.135855102539062500e+01,-6.944824981689453125e+01,3.746833801269531250e+01,-1.248239994049072266e+01,-1.090314559936523438e+02,-1.264849166870117188e+02,6.309664535522460938e+01,-4.251935195922851562e+01
1.031999945640563965e+00,2.000000000000000000e+00,4.180125427246093750e+01,2.007734298706054688e+00,3.434602355957031250e+01,-1.206489715576171875e+02,9.136110687255859375e+01,-6.947274780273437500e+01,3.739849853515625000e+01,-1.247557163238525391e+01,-1.090427322387695312e+02,-1.265431365966796875e+02,6.309263610839843750e+01,-4.254695892333984375e+01
1.036000013351440430e+00,2.000000000000000000e+00,4.182929611206054688e+01,1.960213899612426758e+00,3.434031295776367188e+01,-1.207030258178710938e+02,9.136366271972656250e+01,-6.949724578857421875e+01,3.732866668701171875e+01,-1.246874427795410156e+01,-1.090540084838867188e+02,-1.266013565063476562e+02,6.308862686157226562e+01,-4.257456970214843750e+01
1.039999961853027344e+00,2.000000000000000000e+00,4.185733795166015625e+01,1.912695288658142090e+00,3.433460617065429688e+01,-1.207570800781250000e+02,9.136621856689453125e+01,-6.952173614501953125e+01,3.725883483886718750e+01,-1.246191787719726562e+01,-1.090652847290039062e+02,-1.266595611572265625e+02,6.308461761474609375e+01,-4.260217666625976562e+01
1.044000029563903809e+00,2.000000000000000000e+00,4.188537216186523438e+01,1.865178227424621582e+00,3.432889556884765625e+01,-1.208111419677734375e+02,9.136877441406250000e+01,-6.954622650146484375e+01,3.718900680541992188e+01,-1.245508956909179688e+01,-1.090765609741210938e+02,-1.267177810668945312e+02,6.308060836791992188e+01,-4.262978363037109375e+01
1.047999978065490723e+00,2.000000000000000000e+00,4.191341018676757812e+01,1.817663431167602539e+00,3.432318496704101562e+01,-1.208651885986328125e+02,9.137133789062500000e+01,-6.957072448730468750e+01,3.711918258666992188e+01,-1.244826412200927734e+01,-1.090878372192382812e+02,-1.267759933471679688e+02,6.307659912109375000e+01,-4.265738677978515625e+01
1.052000045776367188e+00,2.000000000000000000e+00,4.194144821166992188e+01,1.770150423049926758e+00,3.431747817993164062e+01,-1.209192352294921875e+02,9.137388610839843750e+01,-6.959521484375000000e+01,3.704935836791992188e+01,-1.244143772125244141e+01,-1.090991058349609375e+02,-1.268341979980468750e+02,6.307258987426757812e+01,-4.268498992919921875e+01
1.054999947547912598e+00,2.000000000000000000e+00,4.196948623657226562e+01,1.722639203071594238e+00,3.431177139282226562e+01,-1.209732894897460938e+02,9.137644195556640625e+01,-6.961970520019531250e+01,3.697953414916992188e+01,-1.243461132049560547e+01,-1.091103744506835938e+02,-1.268924026489257812e+02,6.306858825683593750e+01,-4.271259689331054688e+01
1.059999942779541016e+00,2.000000000000000000e+00,4.199752044677734375e+01,1.675129890441894531e+00,3.430606460571289062e+01,-1.210273361206054688e+02,9.137900543212890625e+01,-6.964419555664062500e+01,3.690972137451171875e+01,-1.242778587341308594e+01,-1.091216506958007812e+02,-1.269506072998046875e+02,6.306457901000976562e+01,-4.274019622802734375e+01
1.064000010490417480e+00,2.000000000000000000e+00,4.202555465698242188e+01,1.627622365951538086e+00,3.430035781860351562e+01,-1.210813903808593750e+02,9.138156127929687500e+01,-6.966867828369140625e+01,3.683990478515625000e+01,-1.242095947265625000e+01,-1.091329193115234375e+02,-1.270088195800781250e+02,6.306056976318359375e+01,-4.276779556274414062e+01
1.067999958992004395e+00,2.000000000000000000e+00,4.205358505249023438e+01,1.580116629600524902e+00,3.429464721679687500e+01,-1.211354293823242188e+02,9.138411712646484375e+01,-6.969317626953125000e+01,3.677009201049804688e+01,-1.241413402557373047e+01,-1.091441879272460938e+02,-1.270670089721679688e+02,6.305656814575195312e+01,-4.279539871215820312e+01
1.072000026702880859e+00,2.000000000000000000e+00,4.208161544799804688e+01,1.532612800598144531e+00,3.428894042968750000e+01,-1.211894683837890625e+02,9.138666534423828125e+01,-6.971765899658203125e+01,3.670028305053710938e+01,-1.240730857849121094e+01,-1.091554641723632812e+02,-1.271252136230468750e+02,6.305255889892578125e+01,-4.282299423217773438e+01
1.075999975204467773e+00,2.000000000000000000e+00,4.210964584350585938e+01,1.485110759735107422e+00,3.428323364257812500e+01,-1.212435073852539062e+02,9.138922119140625000e+01,-6.974214935302734375e+01,3.663047409057617188e+01,-1.240048408508300781e+01,-1.091667327880859375e+02,-1.271834106445312500e+02,6.304854965209960938e+01,-4.285059356689453125e+01
1.080000042915344238e+00,2.000000000000000000e+00,4.213767623901367188e+01,1.437610507011413574e+00,3.427752685546875000e+01,-1.212975463867187500e+02,9.139178466796875000e+01,-6.976662445068359375e+01,3.656067276000976562e+01,-1.239365959167480469e+01,-1.091780014038085938e+02,-1.272416000366210938e+02,6.304454421997070312e+01,-4.287818908691406250e+01
1.083999991416931152e+00,2.000000000000000000e+00,4.216570281982421875e+01,1.390112161636352539e+00,3.427182006835937500e+01,-1.213515777587890625e+02,9.139434051513671875e+01,-6.979111480712890625e+01,3.649087142944335938e+01,-1.238683509826660156e+01,-1.091892700195312500e+02,-1.272997970581054688e+02,6.304053497314453125e+01,-4.290578460693359375e+01
1.088000059127807617e+00,2.000000000000000000e+00,4.219372940063476562e+01,1.342615365982055664e+00,3.426611328125000000e+01,-1.214056167602539062e+02,9.139689636230468750e+01,-6.981559753417968750e+01,3.642107391357421875e+01,-1.238001060485839844e+01,-1.092005386352539062e+02,-1.273579788208007812e+02,6.303652572631835938e+01,-4.293337631225585938e+01
1.090999960899353027e+00,2.000000000000000000e+00,4.222175598144531250e+01,1.295120477676391602e+00,3.426040649414062500e+01,-1.214596405029296875e+02,9.139944458007812500e+01,-6.984008026123046875e+01,3.635127639770507812e+01,-1.237318706512451172e+01,-1.092118072509765625e+02,-1.274161682128906250e+02,6.303252410888671875e+01,-4.296097183227539062e+01
1.095999956130981445e+00,2.000000000000000000e+00,4.224978256225585938e+01,1.247627377510070801e+00,3.425469970703125000e+01,-1.215136718750000000e+02,9.140200042724609375e+01,-6.986455535888671875e+01,3.628147888183593750e+01,-1.236636352539062500e+01,-1.092230758666992188e+02,-1.274743499755859375e+02,6.302851486206054688e+01,-4.298856735229492188e+01
1.100000023841857910e+00,2.000000000000000000e+00,4.227780532836914062e+01,1.200135827064514160e+00,3.424899291992187500e+01,-1.215676956176757812e+02,9.140455627441406250e+01,-6.988904571533203125e+01,3.621168899536132812e+01,-1.235953998565673828e+01,-1.092343444824218750e+02,-1.275325393676757812e+02,6.302451324462890625e+01,-4.301615524291992188e+01
1.103999972343444824e+00,2.000000000000000000e+00,4.230582809448242188e+01,1.152646183967590332e+00,3.424328994750976562e+01,-1.216217269897460938e+02,9.140711212158203125e+01,-6.991352081298828125e+01,3.614189910888671875e+01,-1.235271644592285156e+01,-1.092456130981445312e+02,-1.275907211303710938e+02,6.302050399780273438e+01,-4.304374694824218750e+01
1.108000040054321289e+00,2.000000000000000000e+00,4.233385086059570312e+01,1.105158209800720215e+00,3.423758316040039062e+01,-1.216757507324218750e+02,9.140966796875000000e+01,-6.993799591064453125e+01,3.607211303710937500e+01,-1.234589385986328125e+01,-1.092568740844726562e+02,-1.276488876342773438e+02,6.301650238037109375e+01,-4.307133483886718750e+01
1.111999988555908203e+00,2.000000000000000000e+00,4.236187362670898438e+01,1.057671904563903809e+00,3.423187637329101562e+01,-1.217297668457031250e+02,9.141222381591796875e+01,-6.996247863769531250e+01,3.600233078002929688e+01,-1.233907127380371094e+01,-1.092681427001953125e+02,-1.277070693969726562e+02,6.301249313354492188e+01,-4.309892272949218750e+01
