rpiRobotics/ARM-21-02-F-19-Robot-Motion-Program/data_performance_abb/curve_2/dual_arm/diffevo_pose6_3/30L/grad_result/sim/dual_iteration_3.csv
timestamp,cmd_num,J1,J2,J3,J4,J5,J6,J1_2,J2_2,J3_2,J4_2,J5_2,J6_2
0.000000000000000000e+00,-1.000000000000000000e+00,3.547376251220703125e+01,1.229220199584960938e+01,3.602223205566406250e+01,-1.089089050292968750e+02,9.074765014648437500e+01,-6.405023193359375000e+01,5.250484466552734375e+01,-1.286631011962890625e+01,-1.086405715942382812e+02,-1.125881042480468750e+02,6.384762573242187500e+01,-3.749411773681640625e+01
2.000000094994902611e-03,-1.000000000000000000e+00,3.547376251220703125e+01,1.229220199584960938e+01,3.602223205566406250e+01,-1.089089050292968750e+02,9.074765014648437500e+01,-6.405023193359375000e+01,5.250484466552734375e+01,-1.286631011962890625e+01,-1.086405715942382812e+02,-1.125881042480468750e+02,6.384762573242187500e+01,-3.749411773681640625e+01
4.000000189989805222e-03,-1.000000000000000000e+00,3.547376251220703125e+01,1.229220199584960938e+01,3.602223205566406250e+01,-1.089089050292968750e+02,9.074765014648437500e+01,-6.405023193359375000e+01,5.250484466552734375e+01,-1.286631011962890625e+01,-1.086405715942382812e+02,-1.125881042480468750e+02,6.384762573242187500e+01,-3.749411773681640625e+01
9.999999776482582092e-03,-1.000000000000000000e+00,3.547376251220703125e+01,1.229220199584960938e+01,3.602223205566406250e+01,-1.089089050292968750e+02,9.074765014648437500e+01,-6.405023193359375000e+01,5.250484466552734375e+01,-1.286631011962890625e+01,-1.086405715942382812e+02,-1.125881042480468750e+02,6.384762573242187500e+01,-3.749411773681640625e+01
1.200000010430812836e-02,-1.000000000000000000e+00,3.547376251220703125e+01,1.229220199584960938e+01,3.602223205566406250e+01,-1.089089050292968750e+02,9.074765014648437500e+01,-6.405023193359375000e+01,5.250484466552734375e+01,-1.286631011962890625e+01,-1.086405715942382812e+02,-1.125881042480468750e+02,6.384762573242187500e+01,-3.749411773681640625e+01
1.600000075995922089e-02,-1.000000000000000000e+00,3.547376251220703125e+01,1.229220199584960938e+01,3.602223205566406250e+01,-1.089089050292968750e+02,9.074765014648437500e+01,-6.405023193359375000e+01,5.250484466552734375e+01,-1.286631011962890625e+01,-1.086405715942382812e+02,-1.125881042480468750e+02,6.384762573242187500e+01,-3.749411773681640625e+01
1.999999955296516418e-02,-1.000000000000000000e+00,3.547376251220703125e+01,1.229220199584960938e+01,3.602223205566406250e+01,-1.089089050292968750e+02,9.074765014648437500e+01,-6.405023193359375000e+01,5.250484466552734375e+01,-1.286631011962890625e+01,-1.086405715942382812e+02,-1.125881042480468750e+02,6.384762573242187500e+01,-3.749411773681640625e+01
2.400000020861625671e-02,-1.000000000000000000e+00,3.547376251220703125e+01,1.229220199584960938e+01,3.602223205566406250e+01,-1.089089050292968750e+02,9.074765014648437500e+01,-6.405023193359375000e+01,5.250484466552734375e+01,-1.286631011962890625e+01,-1.086405715942382812e+02,-1.125881042480468750e+02,6.384762573242187500e+01,-3.749411773681640625e+01
2.800000086426734924e-02,-1.000000000000000000e+00,3.547376251220703125e+01,1.229220199584960938e+01,3.602223205566406250e+01,-1.089089050292968750e+02,9.074765014648437500e+01,-6.405023193359375000e+01,5.250484466552734375e+01,-1.286631011962890625e+01,-1.086405715942382812e+02,-1.125881042480468750e+02,6.384762573242187500e+01,-3.749411773681640625e+01
3.200000151991844177e-02,2.000000000000000000e+00,3.547376251220703125e+01,1.229220199584960938e+01,3.602223205566406250e+01,-1.089089050292968750e+02,9.074765014648437500e+01,-6.405023193359375000e+01,5.250484466552734375e+01,-1.286631011962890625e+01,-1.086405715942382812e+02,-1.125881042480468750e+02,6.384762573242187500e+01,-3.749411773681640625e+01
3.700000047683715820e-02,2.000000000000000000e+00,3.547376251220703125e+01,1.229220199584960938e+01,3.602223205566406250e+01,-1.089089050292968750e+02,9.074765014648437500e+01,-6.405023193359375000e+01,5.250484466552734375e+01,-1.286631011962890625e+01,-1.086405715942382812e+02,-1.125881042480468750e+02,6.384762573242187500e+01,-3.749411773681640625e+01
4.300000146031379700e-02,2.000000000000000000e+00,3.547376251220703125e+01,1.229220199584960938e+01,3.602223205566406250e+01,-1.089089050292968750e+02,9.074765014648437500e+01,-6.405023193359375000e+01,5.250484466552734375e+01,-1.286631011962890625e+01,-1.086405715942382812e+02,-1.125881042480468750e+02,6.384762573242187500e+01,-3.749411773681640625e+01
4.399999976158142090e-02,2.000000000000000000e+00,3.547376251220703125e+01,1.229220199584960938e+01,3.602223205566406250e+01,-1.089089050292968750e+02,9.074765014648437500e+01,-6.405023193359375000e+01,5.250484466552734375e+01,-1.286631011962890625e+01,-1.086405715942382812e+02,-1.125881042480468750e+02,6.384762573242187500e+01,-3.749411773681640625e+01
5.000000074505805969e-02,2.000000000000000000e+00,3.547376251220703125e+01,1.229220199584960938e+01,3.602223205566406250e+01,-1.089089050292968750e+02,9.074765014648437500e+01,-6.405023193359375000e+01,5.250484466552734375e+01,-1.286631011962890625e+01,-1.086405715942382812e+02,-1.125881042480468750e+02,6.384762573242187500e+01,-3.749411773681640625e+01
5.200000107288360596e-02,2.000000000000000000e+00,3.547376251220703125e+01,1.229220199584960938e+01,3.602223205566406250e+01,-1.089089050292968750e+02,9.074765014648437500e+01,-6.405023193359375000e+01,5.250484466552734375e+01,-1.286631011962890625e+01,-1.086405715942382812e+02,-1.125881042480468750e+02,6.384762573242187500e+01,-3.749411773681640625e+01
5.600000172853469849e-02,2.000000000000000000e+00,3.547376251220703125e+01,1.229220199584960938e+01,3.602223205566406250e+01,-1.089089050292968750e+02,9.074765014648437500e+01,-6.405023193359375000e+01,5.250484466552734375e+01,-1.286631011962890625e+01,-1.086405715942382812e+02,-1.125881042480468750e+02,6.384762573242187500e+01,-3.749411773681640625e+01
5.999999865889549255e-02,2.000000000000000000e+00,3.547376251220703125e+01,1.229220199584960938e+01,3.602223205566406250e+01,-1.089089050292968750e+02,9.074765014648437500e+01,-6.405023193359375000e+01,5.250484466552734375e+01,-1.286631011962890625e+01,-1.086405715942382812e+02,-1.125881042480468750e+02,6.384762573242187500e+01,-3.749411773681640625e+01
6.400000303983688354e-02,2.000000000000000000e+00,3.547376251220703125e+01,1.229220199584960938e+01,3.602223205566406250e+01,-1.089089050292968750e+02,9.074765014648437500e+01,-6.405023193359375000e+01,5.250484466552734375e+01,-1.286631011962890625e+01,-1.086405715942382812e+02,-1.125881042480468750e+02,6.384762573242187500e+01,-3.749411773681640625e+01
6.800000369548797607e-02,2.000000000000000000e+00,3.547376251220703125e+01,1.229220199584960938e+01,3.602223205566406250e+01,-1.089089050292968750e+02,9.074765014648437500e+01,-6.405023193359375000e+01,5.250484466552734375e+01,-1.286631011962890625e+01,-1.086405715942382812e+02,-1.125881042480468750e+02,6.384762573242187500e+01,-3.749411773681640625e+01
7.199999690055847168e-02,2.000000000000000000e+00,3.547376251220703125e+01,1.229220199584960938e+01,3.602223205566406250e+01,-1.089089050292968750e+02,9.074765014648437500e+01,-6.405023193359375000e+01,5.250484466552734375e+01,-1.286631011962890625e+01,-1.086405715942382812e+02,-1.125881042480468750e+02,6.384762573242187500e+01,-3.749411773681640625e+01
7.599999755620956421e-02,2.000000000000000000e+00,3.547379302978515625e+01,1.229217815399169922e+01,3.602223205566406250e+01,-1.089089050292968750e+02,9.074765014648437500e+01,-6.405023193359375000e+01,5.250484466552734375e+01,-1.286631011962890625e+01,-1.086405715942382812e+02,-1.125881042480468750e+02,6.384762573242187500e+01,-3.749411773681640625e+01
7.999999821186065674e-02,2.000000000000000000e+00,3.547397613525390625e+01,1.229203224182128906e+01,3.602223205566406250e+01,-1.089089126586914062e+02,9.074765777587890625e+01,-6.405023193359375000e+01,5.250484466552734375e+01,-1.286631011962890625e+01,-1.086405715942382812e+02,-1.125881042480468750e+02,6.384762573242187500e+01,-3.749411773681640625e+01
8.399999886751174927e-02,2.000000000000000000e+00,3.547451400756835938e+01,1.229157924652099609e+01,3.602224349975585938e+01,-1.089089431762695312e+02,9.074768066406250000e+01,-6.405023956298828125e+01,5.250484466552734375e+01,-1.286631011962890625e+01,-1.086405715942382812e+02,-1.125881042480468750e+02,6.384762573242187500e+01,-3.749411773681640625e+01
8.799999952316284180e-02,2.000000000000000000e+00,3.547558975219726562e+01,1.229061508178710938e+01,3.602226257324218750e+01,-1.089090499877929688e+02,9.074771118164062500e+01,-6.405027008056640625e+01,5.250481414794921875e+01,-1.286631298065185547e+01,-1.086405639648437500e+02,-1.125881042480468750e+02,6.384762573242187500e+01,-3.749411773681640625e+01
9.200000017881393433e-02,2.000000000000000000e+00,3.547729492187500000e+01,1.228896999359130859e+01,3.602228164672851562e+01,-1.089092864990234375e+02,9.074777984619140625e+01,-6.405036163330078125e+01,5.250461196899414062e+01,-1.286633396148681641e+01,-1.086405181884765625e+02,-1.125881118774414062e+02,6.384762573242187500e+01,-3.749412536621093750e+01
9.600000083446502686e-02,2.000000000000000000e+00,3.547964477539062500e+01,1.228652000427246094e+01,3.602229690551757812e+01,-1.089097671508789062e+02,9.074787902832031250e+01,-6.405055236816406250e+01,5.250393295288085938e+01,-1.286639785766601562e+01,-1.086403808593750000e+02,-1.125881805419921875e+02,6.384761047363281250e+01,-3.749414443969726562e+01
1.000000014901161194e-01,2.000000000000000000e+00,3.548266220092773438e+01,1.228313446044921875e+01,3.602228164672851562e+01,-1.089106445312500000e+02,9.074802398681640625e+01,-6.405091857910156250e+01,5.250240325927734375e+01,-1.286652946472167969e+01,-1.086400909423828125e+02,-1.125883636474609375e+02,6.384757614135742188e+01,-3.749422073364257812e+01
1.040000021457672119e-01,2.000000000000000000e+00,3.548637771606445312e+01,1.227864933013916016e+01,3.602222061157226562e+01,-1.089121170043945312e+02,9.074821472167968750e+01,-6.405154418945312500e+01,5.249965286254882812e+01,-1.286673450469970703e+01,-1.086396179199218750e+02,-1.125888214111328125e+02,6.384751510620117188e+01,-3.749441909790039062e+01
1.080000028014183044e-01,2.000000000000000000e+00,3.549080657958984375e+01,1.227287197113037109e+01,3.602208709716796875e+01,-1.089144058227539062e+02,9.074847412109375000e+01,-6.405254364013671875e+01,5.249533081054687500e+01,-1.286699581146240234e+01,-1.086389923095703125e+02,-1.125897903442382812e+02,6.384740829467773438e+01,-3.749484634399414062e+01
1.120000034570693970e-01,2.000000000000000000e+00,3.549604034423828125e+01,1.226557350158691406e+01,3.602184295654296875e+01,-1.089178161621093750e+02,9.074880981445312500e+01,-6.405404663085937500e+01,5.248907852172851562e+01,-1.286727523803710938e+01,-1.086382751464843750e+02,-1.125915756225585938e+02,6.384722137451171875e+01,-3.749565887451171875e+01
1.159999966621398926e-01,2.000000000000000000e+00,3.550223922729492188e+01,1.225648307800292969e+01,3.602145767211914062e+01,-1.089226455688476562e+02,9.074924468994140625e+01,-6.405619049072265625e+01,5.248053359985351562e+01,-1.286751461029052734e+01,-1.086375656127929688e+02,-1.125945968627929688e+02,6.384695053100585938e+01,-3.749704742431640625e+01
1.199999973177909851e-01,2.000000000000000000e+00,3.550963211059570312e+01,1.224528408050537109e+01,3.602088928222656250e+01,-1.089292755126953125e+02,9.074977111816406250e+01,-6.405915069580078125e+01,5.246939849853515625e+01,-1.286763095855712891e+01,-1.086370315551757812e+02,-1.125993270874023438e+02,6.384655380249023438e+01,-3.749924087524414062e+01
1.239999979734420776e-01,2.000000000000000000e+00,3.551838684082031250e+01,1.223172855377197266e+01,3.602008819580078125e+01,-1.089380798339843750e+02,9.075044250488281250e+01,-6.406310272216796875e+01,5.245534515380859375e+01,-1.286753082275390625e+01,-1.086368103027343750e+02,-1.126062698364257812e+02,6.384600067138671875e+01,-3.750248718261718750e+01
1.280000060796737671e-01,2.000000000000000000e+00,3.552848815917968750e+01,1.221582508087158203e+01,3.601899719238281250e+01,-1.089494857788085938e+02,9.075123596191406250e+01,-6.406825256347656250e+01,5.243791580200195312e+01,-1.286713314056396484e+01,-1.086370697021484375e+02,-1.126159744262695312e+02,6.384526062011718750e+01,-3.750704574584960938e+01
1.309999972581863403e-01,2.000000000000000000e+00,3.553972244262695312e+01,1.219786548614501953e+01,3.601754760742187500e+01,-1.089638977050781250e+02,9.075216674804687500e+01,-6.407478332519531250e+01,5.241652679443359375e+01,-1.286637115478515625e+01,-1.086379013061523438e+02,-1.126289825439453125e+02,6.384429168701171875e+01,-3.751316833496093750e+01
1.360000073909759521e-01,2.000000000000000000e+00,3.555186080932617188e+01,1.217818260192871094e+01,3.601567840576171875e+01,-1.089816970825195312e+02,9.075321960449218750e+01,-6.408288574218750000e+01,5.239061737060546875e+01,-1.286517906188964844e+01,-1.086394424438476562e+02,-1.126458206176757812e+02,6.384307098388671875e+01,-3.752111434936523438e+01
1.389999985694885254e-01,2.000000000000000000e+00,3.556481933593750000e+01,1.215690326690673828e+01,3.601334762573242188e+01,-1.090031433105468750e+02,9.075439453125000000e+01,-6.409268188476562500e+01,5.235997009277343750e+01,-1.286345672607421875e+01,-1.086418457031250000e+02,-1.126669845581054688e+02,6.384156036376953125e+01,-3.753112030029296875e+01
1.439999938011169434e-01,2.000000000000000000e+00,3.557863616943359375e+01,1.213397598266601562e+01,3.601052856445312500e+01,-1.090284194946289062e+02,9.075569915771484375e+01,-6.410425567626953125e+01,5.232479476928710938e+01,-1.286108016967773438e+01,-1.086453781127929688e+02,-1.126928863525390625e+02,6.383973693847656250e+01,-3.754339218139648438e+01
1.480000019073486328e-01,2.000000000000000000e+00,3.559338760375976562e+01,1.210930156707763672e+01,3.600721359252929688e+01,-1.090575942993164062e+02,9.075713348388671875e+01,-6.411765289306640625e+01,5.228550338745117188e+01,-1.285793113708496094e+01,-1.086502761840820312e+02,-1.127238006591796875e+02,6.383760452270507812e+01,-3.755807113647460938e+01
1.519999951124191284e-01,2.000000000000000000e+00,3.560917282104492188e+01,1.208272266387939453e+01,3.600342178344726562e+01,-1.090905990600585938e+02,9.075869750976562500e+01,-6.413281250000000000e+01,5.224246978759765625e+01,-1.285394859313964844e+01,-1.086566696166992188e+02,-1.127598342895507812e+02,6.383515930175781250e+01,-3.757519149780273438e+01
1.560000032186508179e-01,2.000000000000000000e+00,3.562613296508789062e+01,1.205403709411621094e+01,3.599918365478515625e+01,-1.091272888183593750e+02,9.076041412353515625e+01,-6.414968109130859375e+01,5.219604873657226562e+01,-1.284913349151611328e+01,-1.086645736694335938e+02,-1.128008041381835938e+02,6.383241653442382812e+01,-3.759468841552734375e+01
1.599999964237213135e-01,2.000000000000000000e+00,3.564434432983398438e+01,1.202312088012695312e+01,3.599452590942382812e+01,-1.091674041748046875e+02,9.076227569580078125e+01,-6.416813659667968750e+01,5.214658355712890625e+01,-1.284354972839355469e+01,-1.086738815307617188e+02,-1.128463058471679688e+02,6.382938766479492188e+01,-3.761636352539062500e+01
1.640000045299530029e-01,2.000000000000000000e+00,3.566373443603515625e+01,1.199005794525146484e+01,3.598949813842773438e+01,-1.092106475830078125e+02,9.076425933837890625e+01,-6.418803405761718750e+01,5.209415054321289062e+01,-1.283734416961669922e+01,-1.086843261718750000e+02,-1.128957214355468750e+02,6.382611846923828125e+01,-3.763990783691406250e+01
1.679999977350234985e-01,2.000000000000000000e+00,3.568408966064453125e+01,1.195511436462402344e+01,3.598414611816406250e+01,-1.092566528320312500e+02,9.076637268066406250e+01,-6.420920562744140625e+01,5.203845596313476562e+01,-1.283074188232421875e+01,-1.086954574584960938e+02,-1.129482879638671875e+02,6.382263946533203125e+01,-3.766495513916015625e+01
1.720000058412551880e-01,2.000000000000000000e+00,3.570517730712890625e+01,1.191856193542480469e+01,3.597850418090820312e+01,-1.093050231933593750e+02,9.076858520507812500e+01,-6.423146057128906250e+01,5.197917938232421875e+01,-1.282398128509521484e+01,-1.087068023681640625e+02,-1.130031814575195312e+02,6.381899261474609375e+01,-3.769110107421875000e+01
1.759999990463256836e-01,2.000000000000000000e+00,3.572691345214843750e+01,1.188048839569091797e+01,3.597264099121093750e+01,-1.093553390502929688e+02,9.077088928222656250e+01,-6.425461578369140625e+01,5.191640090942382812e+01,-1.281723690032958984e+01,-1.087180252075195312e+02,-1.130596618652343750e+02,6.381521606445312500e+01,-3.771798706054687500e+01
1.800000071525573730e-01,2.000000000000000000e+00,3.574945068359375000e+01,1.184078598022460938e+01,3.596661376953125000e+01,-1.094071731567382812e+02,9.077326965332031250e+01,-6.427845764160156250e+01,5.185062408447265625e+01,-1.281060123443603516e+01,-1.087289733886718750e+02,-1.131171112060546875e+02,6.381134414672851562e+01,-3.774532318115234375e+01
1.840000003576278687e-01,2.000000000000000000e+00,3.577302551269531250e+01,1.179933166503906250e+01,3.596048355102539062e+01,-1.094601211547851562e+02,9.077574920654296875e+01,-6.430280303955078125e+01,5.178244018554687500e+01,-1.280411529541015625e+01,-1.087395553588867188e+02,-1.131751022338867188e+02,6.380741119384765625e+01,-3.777288818359375000e+01
1.879999935626983643e-01,2.000000000000000000e+00,3.579773712158203125e+01,1.175616073608398438e+01,3.595429611206054688e+01,-1.095138244628906250e+02,9.077829742431640625e+01,-6.432748413085937500e+01,5.171248245239257812e+01,-1.279777336120605469e+01,-1.087498168945312500e+02,-1.132333450317382812e+02,6.380344009399414062e+01,-3.780056381225585938e+01
1.920000016689300537e-01,2.000000000000000000e+00,3.582358551025390625e+01,1.171145248413085938e+01,3.594809722900390625e+01,-1.095680007934570312e+02,9.078091430664062500e+01,-6.435236358642578125e+01,5.164145278930664062e+01,-1.279153442382812500e+01,-1.087598419189453125e+02,-1.132916641235351562e+02,6.379945373535156250e+01,-3.782826614379882812e+01
1.959999948740005493e-01,2.000000000000000000e+00,3.585050582885742188e+01,1.166543865203857422e+01,3.594189453125000000e+01,-1.096224441528320312e+02,9.078358459472656250e+01,-6.437734222412109375e+01,5.156996536254882812e+01,-1.278534412384033203e+01,-1.087697601318359375e+02,-1.133500061035156250e+02,6.379546356201171875e+01,-3.785597610473632812e+01
2.000000029802322388e-01,2.000000000000000000e+00,3.587834930419921875e+01,1.161843776702880859e+01,3.593570709228515625e+01,-1.096770019531250000e+02,9.078629302978515625e+01,-6.440236663818359375e+01,5.149836730957031250e+01,-1.277916622161865234e+01,-1.087796478271484375e+02,-1.134083480834960938e+02,6.379146957397460938e+01,-3.788368225097656250e+01
2.039999961853027344e-01,2.000000000000000000e+00,3.590681838989257812e+01,1.157084751129150391e+01,3.592953872680664062e+01,-1.097316055297851562e+02,9.078902435302734375e+01,-6.442740631103515625e+01,5.142677307128906250e+01,-1.277299022674560547e+01,-1.087895431518554688e+02,-1.134666824340820312e+02,6.378747177124023438e+01,-3.791138458251953125e+01
2.080000042915344238e-01,2.000000000000000000e+00,3.593555831909179688e+01,1.152302074432373047e+01,3.592337036132812500e+01,-1.097862319946289062e+02,9.079176330566406250e+01,-6.445244598388671875e+01,5.135518646240234375e+01,-1.276681423187255859e+01,-1.087994232177734375e+02,-1.135250091552734375e+02,6.378347778320312500e+01,-3.793908691406250000e+01
2.119999974966049194e-01,2.000000000000000000e+00,3.596435928344726562e+01,1.147514724731445312e+01,3.591720199584960938e+01,-1.098408432006835938e+02,9.079450988769531250e+01,-6.447748565673828125e+01,5.128360366821289062e+01,-1.276063919067382812e+01,-1.088093109130859375e+02,-1.135833358764648438e+02,6.377947998046875000e+01,-3.796678924560546875e+01
2.160000056028366089e-01,2.000000000000000000e+00,3.599316024780273438e+01,1.142727661132812500e+01,3.591103744506835938e+01,-1.098954467773437500e+02,9.079725646972656250e+01,-6.450251770019531250e+01,5.121203613281250000e+01,-1.275446510314941406e+01,-1.088191986083984375e+02,-1.136416549682617188e+02,6.377549362182617188e+01,-3.799448013305664062e+01
2.199999988079071045e-01,2.000000000000000000e+00,3.602196502685546875e+01,1.137941074371337891e+01,3.590487289428710938e+01,-1.099500503540039062e+02,9.079999542236328125e+01,-6.452754974365234375e+01,5.114047241210937500e+01,-1.274829101562500000e+01,-1.088290786743164062e+02,-1.136999511718750000e+02,6.377149581909179688e+01,-3.802217483520507812e+01
2.240000069141387939e-01,2.000000000000000000e+00,3.605075836181640625e+01,1.133154964447021484e+01,3.589870834350585938e+01,-1.100046463012695312e+02,9.080274200439453125e+01,-6.455258178710937500e+01,5.106892013549804688e+01,-1.274211883544921875e+01,-1.088389663696289062e+02,-1.137582550048828125e+02,6.376750564575195312e+01,-3.804986572265625000e+01
2.280000001192092896e-01,2.000000000000000000e+00,3.607955169677734375e+01,1.128369426727294922e+01,3.589254760742187500e+01,-1.100592346191406250e+02,9.080548095703125000e+01,-6.457760620117187500e+01,5.099736785888671875e+01,-1.273594665527343750e+01,-1.088488464355468750e+02,-1.138165512084960938e+02,6.376351165771484375e+01,-3.807754898071289062e+01
2.319999933242797852e-01,2.000000000000000000e+00,3.610834503173828125e+01,1.123584365844726562e+01,3.588638687133789062e+01,-1.101138153076171875e+02,9.080822753906250000e+01,-6.460263824462890625e+01,5.092583465576171875e+01,-1.272977447509765625e+01,-1.088587265014648438e+02,-1.138748474121093750e+02,6.375952148437500000e+01,-3.810523223876953125e+01
2.360000014305114746e-01,2.000000000000000000e+00,3.613713073730468750e+01,1.118799972534179688e+01,3.588022232055664062e+01,-1.101683959960937500e+02,9.081096649169921875e+01,-6.462765502929687500e+01,5.085430145263671875e+01,-1.272360324859619141e+01,-1.088686065673828125e+02,-1.139331283569335938e+02,6.375553512573242188e+01,-3.813291168212890625e+01
2.399999946355819702e-01,2.000000000000000000e+00,3.616591644287109375e+01,1.114015865325927734e+01,3.587406158447265625e+01,-1.102229690551757812e+02,9.081371307373046875e+01,-6.465267181396484375e+01,5.078277587890625000e+01,-1.271743392944335938e+01,-1.088784790039062500e+02,-1.139914016723632812e+02,6.375154495239257812e+01,-3.816058731079101562e+01
2.440000027418136597e-01,2.000000000000000000e+00,3.619469451904296875e+01,1.109232425689697266e+01,3.586790466308593750e+01,-1.102775344848632812e+02,9.081645202636718750e+01,-6.467768859863281250e+01,5.071125793457031250e+01,-1.271126461029052734e+01,-1.088883590698242188e+02,-1.140496749877929688e+02,6.374755096435546875e+01,-3.818826293945312500e+01
2.479999959468841553e-01,2.000000000000000000e+00,3.622347640991210938e+01,1.104449558258056641e+01,3.586174392700195312e+01,-1.103320999145507812e+02,9.081919097900390625e+01,-6.470270538330078125e+01,5.063975143432617188e+01,-1.270509529113769531e+01,-1.088982391357421875e+02,-1.141079406738281250e+02,6.374356079101562500e+01,-3.821593475341796875e+01
2.520000040531158447e-01,2.000000000000000000e+00,3.625225067138671875e+01,1.099667072296142578e+01,3.585558700561523438e+01,-1.103866500854492188e+02,9.082193756103515625e+01,-6.472771453857421875e+01,5.056825256347656250e+01,-1.269892787933349609e+01,-1.089081115722656250e+02,-1.141661987304687500e+02,6.373957061767578125e+01,-3.824360275268554688e+01
2.560000121593475342e-01,2.000000000000000000e+00,3.628102111816406250e+01,1.094885158538818359e+01,3.584943008422851562e+01,-1.104411926269531250e+02,9.082467651367187500e+01,-6.475272369384765625e+01,5.049675750732421875e+01,-1.269276046752929688e+01,-1.089179840087890625e+02,-1.142244415283203125e+02,6.373558425903320312e+01,-3.827126693725585938e+01
2.599999904632568359e-01,2.000000000000000000e+00,3.630979156494140625e+01,1.090103626251220703e+01,3.584327316284179688e+01,-1.104957427978515625e+02,9.082741546630859375e+01,-6.477772521972656250e+01,5.042527389526367188e+01,-1.268659305572509766e+01,-1.089278564453125000e+02,-1.142826919555664062e+02,6.373159408569335938e+01,-3.829893112182617188e+01
2.639999985694885254e-01,2.000000000000000000e+00,3.633856201171875000e+01,1.085322761535644531e+01,3.583711624145507812e+01,-1.105502777099609375e+02,9.083015441894531250e+01,-6.480273437500000000e+01,5.035379409790039062e+01,-1.268042755126953125e+01,-1.089377288818359375e+02,-1.143409347534179688e+02,6.372760391235351562e+01,-3.832658767700195312e+01
2.680000066757202148e-01,2.000000000000000000e+00,3.636732101440429688e+01,1.080542373657226562e+01,3.583095932006835938e+01,-1.106048049926757812e+02,9.083289337158203125e+01,-6.482772827148437500e+01,5.028232192993164062e+01,-1.267426109313964844e+01,-1.089476013183593750e+02,-1.143991699218750000e+02,6.372362518310546875e+01,-3.835424423217773438e+01
2.720000147819519043e-01,2.000000000000000000e+00,3.639608001708984375e+01,1.075762462615966797e+01,3.582480239868164062e+01,-1.106593322753906250e+02,9.083563232421875000e+01,-6.485272979736328125e+01,5.021086120605468750e+01,-1.266809654235839844e+01,-1.089574737548828125e+02,-1.144573974609375000e+02,6.371963500976562500e+01,-3.838190078735351562e+01
2.759999930858612061e-01,2.000000000000000000e+00,3.642483901977539062e+01,1.070983028411865234e+01,3.581864929199218750e+01,-1.107138595581054688e+02,9.083837127685546875e+01,-6.487772369384765625e+01,5.013940429687500000e+01,-1.266193199157714844e+01,-1.089673385620117188e+02,-1.145156173706054688e+02,6.371564483642578125e+01,-3.840954971313476562e+01
2.800000011920928955e-01,2.000000000000000000e+00,3.645359039306640625e+01,1.066204166412353516e+01,3.581249618530273438e+01,-1.107683715820312500e+02,9.084111022949218750e+01,-6.490270996093750000e+01,5.006795883178710938e+01,-1.265576839447021484e+01,-1.089772033691406250e+02,-1.145738296508789062e+02,6.371166229248046875e+01,-3.843719863891601562e+01
2.840000092983245850e-01,2.000000000000000000e+00,3.648234176635742188e+01,1.061425685882568359e+01,3.580634307861328125e+01,-1.108228836059570312e+02,9.084384918212890625e+01,-6.492770385742187500e+01,4.999651718139648438e+01,-1.264960479736328125e+01,-1.089870758056640625e+02,-1.146320343017578125e+02,6.370767593383789062e+01,-3.846484375000000000e+01
2.879999876022338867e-01,2.000000000000000000e+00,3.651108932495117188e+01,1.056647777557373047e+01,3.580018615722656250e+01,-1.108773803710937500e+02,9.084658813476562500e+01,-6.495269012451171875e+01,4.992508316040039062e+01,-1.264344310760498047e+01,-1.089969406127929688e+02,-1.146902465820312500e+02,6.370369338989257812e+01,-3.849248504638671875e+01
2.919999957084655762e-01,2.000000000000000000e+00,3.653983688354492188e+01,1.051870346069335938e+01,3.579403305053710938e+01,-1.109318771362304688e+02,9.084932708740234375e+01,-6.497767639160156250e+01,4.985365676879882812e+01,-1.263728141784667969e+01,-1.090068054199218750e+02,-1.147484359741210938e+02,6.369970321655273438e+01,-3.852012252807617188e+01
2.960000038146972656e-01,2.000000000000000000e+00,3.656857681274414062e+01,1.047093391418457031e+01,3.578788375854492188e+01,-1.109863662719726562e+02,9.085206604003906250e+01,-6.500265502929687500e+01,4.978223800659179688e+01,-1.263112068176269531e+01,-1.090166702270507812e+02,-1.148066329956054688e+02,6.369572067260742188e+01,-3.854776000976562500e+01
3.000000119209289551e-01,2.000000000000000000e+00,3.659731674194335938e+01,1.042316818237304688e+01,3.578173065185546875e+01,-1.110408554077148438e+02,9.085480499267578125e+01,-6.502763366699218750e+01,4.971082305908203125e+01,-1.262495899200439453e+01,-1.090265350341796875e+02,-1.148648223876953125e+02,6.369173431396484375e+01,-3.857539749145507812e+01
3.039999902248382568e-01,2.000000000000000000e+00,3.662605285644531250e+01,1.037540817260742188e+01,3.577558135986328125e+01,-1.110953369140625000e+02,9.085753631591796875e+01,-6.505261230468750000e+01,4.963942337036132812e+01,-1.261879920959472656e+01,-1.090363998413085938e+02,-1.149230041503906250e+02,6.368775177001953125e+01,-3.860302352905273438e+01
3.079999983310699463e-01,2.000000000000000000e+00,3.665478897094726562e+01,1.032765293121337891e+01,3.576943206787109375e+01,-1.111498107910156250e+02,9.086027526855468750e+01,-6.507759094238281250e+01,4.956802368164062500e+01,-1.261264038085937500e+01,-1.090462493896484375e+02,-1.149811706542968750e+02,6.368376922607421875e+01,-3.863065338134765625e+01
3.120000064373016357e-01,2.000000000000000000e+00,3.668351745605468750e+01,1.027990245819091797e+01,3.576328277587890625e+01,-1.112042846679687500e+02,9.086301422119140625e+01,-6.510256195068359375e+01,4.949663162231445312e+01,-1.260648155212402344e+01,-1.090561141967773438e+02,-1.150393371582031250e+02,6.367978668212890625e+01,-3.865827941894531250e+01
3.160000145435333252e-01,2.000000000000000000e+00,3.671224594116210938e+01,1.023215675354003906e+01,3.575713348388671875e+01,-1.112587509155273438e+02,9.086574554443359375e+01,-6.512752532958984375e+01,4.942525100708007812e+01,-1.260032367706298828e+01,-1.090659713745117188e+02,-1.150974960327148438e+02,6.367580413818359375e+01,-3.868590164184570312e+01
3.199999928474426270e-01,2.000000000000000000e+00,3.674097061157226562e+01,1.018441581726074219e+01,3.575098800659179688e+01,-1.113132095336914062e+02,9.086848449707031250e+01,-6.515249633789062500e+01,4.935387039184570312e+01,-1.259416675567626953e+01,-1.090758361816406250e+02,-1.151556549072265625e+02,6.367182159423828125e+01,-3.871352386474609375e+01
3.240000009536743164e-01,2.000000000000000000e+00,3.676969146728515625e+01,1.013667964935302734e+01,3.574483871459960938e+01,-1.113676605224609375e+02,9.087121582031250000e+01,-6.517745971679687500e+01,4.928250122070312500e+01,-1.258800983428955078e+01,-1.090856933593750000e+02,-1.152138061523437500e+02,6.366784286499023438e+01,-3.874113845825195312e+01
3.280000090599060059e-01,2.000000000000000000e+00,3.679841232299804688e+01,1.008894824981689453e+01,3.573869323730468750e+01,-1.114221115112304688e+02,9.087395477294921875e+01,-6.520243072509765625e+01,4.921113967895507812e+01,-1.258185291290283203e+01,-1.090955429077148438e+02,-1.152719573974609375e+02,6.366386032104492188e+01,-3.876875305175781250e+01
3.319999873638153076e-01,2.000000000000000000e+00,3.682712554931640625e+01,1.004122161865234375e+01,3.573254394531250000e+01,-1.114765548706054688e+02,9.087668609619140625e+01,-6.522738647460937500e+01,4.913978576660156250e+01,-1.257569789886474609e+01,-1.091054000854492188e+02,-1.153300933837890625e+02,6.365987777709960938e+01,-3.879636764526367188e+01
3.359999954700469971e-01,2.000000000000000000e+00,3.685584259033203125e+01,9.993498802185058594e+00,3.572640228271484375e+01,-1.115309906005859375e+02,9.087942504882812500e+01,-6.525234222412109375e+01,4.906843948364257812e+01,-1.256954288482666016e+01,-1.091152496337890625e+02,-1.153882369995117188e+02,6.365589523315429688e+01,-3.882397460937500000e+01
3.400000035762786865e-01,2.000000000000000000e+00,3.688455200195312500e+01,9.945781707763671875e+00,3.572025680541992188e+01,-1.115854263305664062e+02,9.088215637207031250e+01,-6.527729034423828125e+01,4.899710083007812500e+01,-1.256338882446289062e+01,-1.091251068115234375e+02,-1.154463577270507812e+02,6.365191268920898438e+01,-3.885158157348632812e+01
3.440000116825103760e-01,2.000000000000000000e+00,3.691325759887695312e+01,9.898069381713867188e+00,3.571411132812500000e+01,-1.116398544311523438e+02,9.088489532470703125e+01,-6.530225372314453125e+01,4.892576599121093750e+01,-1.255723476409912109e+01,-1.091349563598632812e+02,-1.155044860839843750e+02,6.364793777465820312e+01,-3.887918090820312500e+01
3.479999899864196777e-01,2.000000000000000000e+00,3.694196319580078125e+01,9.850361824035644531e+00,3.570796585083007812e+01,-1.116942749023437500e+02,9.088762664794921875e+01,-6.532720184326171875e+01,4.885443878173828125e+01,-1.255108165740966797e+01,-1.091448135375976562e+02,-1.155625915527343750e+02,6.364395523071289062e+01,-3.890678405761718750e+01
3.519999980926513672e-01,2.000000000000000000e+00,3.697066879272460938e+01,9.802658081054687500e+00,3.570182418823242188e+01,-1.117486953735351562e+02,9.089035797119140625e+01,-6.535214233398437500e+01,4.878311538696289062e+01,-1.254492855072021484e+01,-1.091546630859375000e+02,-1.156207046508789062e+02,6.363998031616210938e+01,-3.893438339233398438e+01
3.560000061988830566e-01,2.000000000000000000e+00,3.699936676025390625e+01,9.754959106445312500e+00,3.569568252563476562e+01,-1.118031005859375000e+02,9.089308929443359375e+01,-6.537709045410156250e+01,4.871180343627929688e+01,-1.253877735137939453e+01,-1.091645126342773438e+02,-1.156788024902343750e+02,6.363599777221679688e+01,-3.896197891235351562e+01
3.600000143051147461e-01,2.000000000000000000e+00,3.702806472778320312e+01,9.707264900207519531e+00,3.568954086303710938e+01,-1.118575134277343750e+02,9.089582824707031250e+01,-6.540203094482421875e+01,4.864049911499023438e+01,-1.253262519836425781e+01,-1.091743621826171875e+02,-1.157369155883789062e+02,6.363202285766601562e+01,-3.898957061767578125e+01
3.639999926090240479e-01,2.000000000000000000e+00,3.705675888061523438e+01,9.659575462341308594e+00,3.568339920043945312e+01,-1.119119033813476562e+02,9.089855957031250000e+01,-6.542697906494140625e+01,4.856919860839843750e+01,-1.252647399902343750e+01,-1.091842041015625000e+02,-1.157949981689453125e+02,6.362804031372070312e+01,-3.901716232299804688e+01
3.680000007152557373e-01,2.000000000000000000e+00,3.708544921875000000e+01,9.611890792846679688e+00,3.567725753784179688e+01,-1.119663009643554688e+02,9.090129852294921875e+01,-6.545191192626953125e+01,4.849790573120117188e+01,-1.252032470703125000e+01,-1.091940536499023438e+02,-1.158530960083007812e+02,6.362406539916992188e+01,-3.904475021362304688e+01
3.720000088214874268e-01,2.000000000000000000e+00,3.711413574218750000e+01,9.564209938049316406e+00,3.567111587524414062e+01,-1.120206985473632812e+02,9.090402984619140625e+01,-6.547684478759765625e+01,4.842662048339843750e+01,-1.251417446136474609e+01,-1.092039031982421875e+02,-1.159111785888671875e+02,6.362009048461914062e+01,-3.907233428955078125e+01
3.759999871253967285e-01,2.000000000000000000e+00,3.714282226562500000e+01,9.516533851623535156e+00,3.566497802734375000e+01,-1.120750808715820312e+02,9.090676116943359375e+01,-6.550177764892578125e+01,4.835534286499023438e+01,-1.250802612304687500e+01,-1.092137451171875000e+02,-1.159692535400390625e+02,6.361610794067382812e+01,-3.909991836547851562e+01
3.799999952316284180e-01,2.000000000000000000e+00,3.717150497436523438e+01,9.468862533569335938e+00,3.565884017944335938e+01,-1.121294631958007812e+02,9.090949249267578125e+01,-6.552671051025390625e+01,4.828406906127929688e+01,-1.250187683105468750e+01,-1.092235870361328125e+02,-1.160273208618164062e+02,6.361213302612304688e+01,-3.912749862670898438e+01
3.840000033378601074e-01,2.000000000000000000e+00,3.720018386840820312e+01,9.421195983886718750e+00,3.565269851684570312e+01,-1.121838378906250000e+02,9.091222381591796875e+01,-6.555164337158203125e+01,4.821280288696289062e+01,-1.249572849273681641e+01,-1.092334289550781250e+02,-1.160853881835937500e+02,6.360815811157226562e+01,-3.915507507324218750e+01
3.880000114440917969e-01,2.000000000000000000e+00,3.722886276245117188e+01,9.373533248901367188e+00,3.564656448364257812e+01,-1.122382049560546875e+02,9.091495513916015625e+01,-6.557656860351562500e+01,4.814154434204101562e+01,-1.248958206176757812e+01,-1.092432708740234375e+02,-1.161434478759765625e+02,6.360418319702148438e+01,-3.918264770507812500e+01
3.919999897480010986e-01,2.000000000000000000e+00,3.725753784179687500e+01,9.325875282287597656e+00,3.564042663574218750e+01,-1.122925643920898438e+02,9.091768646240234375e+01,-6.560148620605468750e+01,4.807029342651367188e+01,-1.248343563079833984e+01,-1.092531127929687500e+02,-1.162015075683593750e+02,6.360020828247070312e+01,-3.921022033691406250e+01
3.959999978542327881e-01,2.000000000000000000e+00,3.728620910644531250e+01,9.278222084045410156e+00,3.563428878784179688e+01,-1.123469314575195312e+02,9.092041778564453125e+01,-6.562641143798828125e+01,4.799905014038085938e+01,-1.247728919982910156e+01,-1.092629470825195312e+02,-1.162595596313476562e+02,6.359623336791992188e+01,-3.923778915405273438e+01
4.000000059604644775e-01,2.000000000000000000e+00,3.731487655639648438e+01,9.230572700500488281e+00,3.562815093994140625e+01,-1.124012832641601562e+02,9.092314147949218750e+01,-6.565132904052734375e+01,4.792781066894531250e+01,-1.247114372253417969e+01,-1.092727890014648438e+02,-1.163176040649414062e+02,6.359225845336914062e+01,-3.926535415649414062e+01
4.040000140666961670e-01,2.000000000000000000e+00,3.734354400634765625e+01,9.182929039001464844e+00,3.562201690673828125e+01,-1.124556274414062500e+02,9.092588043212890625e+01,-6.567624664306640625e+01,4.785657882690429688e+01,-1.246499824523925781e+01,-1.092826232910156250e+02,-1.163756484985351562e+02,6.358828353881835938e+01,-3.929291915893554688e+01
4.079999923706054688e-01,2.000000000000000000e+00,3.737221145629882812e+01,9.135288238525390625e+00,3.561588287353515625e+01,-1.125099792480468750e+02,9.092861175537109375e+01,-6.570116424560546875e+01,4.778535461425781250e+01,-1.245885467529296875e+01,-1.092924652099609375e+02,-1.164336776733398438e+02,6.358431625366210938e+01,-3.932048034667968750e+01
4.120000004768371582e-01,2.000000000000000000e+00,3.740087127685546875e+01,9.087653160095214844e+00,3.560974884033203125e+01,-1.125643157958984375e+02,9.093134307861328125e+01,-6.572607421875000000e+01,4.771413421630859375e+01,-1.245271015167236328e+01,-1.093022994995117188e+02,-1.164917068481445312e+02,6.358034133911132812e+01,-3.934804153442382812e+01
4.160000085830688477e-01,2.000000000000000000e+00,3.742953109741210938e+01,9.040021896362304688e+00,3.560361480712890625e+01,-1.126186523437500000e+02,9.093406677246093750e+01,-6.575098419189453125e+01,4.764292144775390625e+01,-1.244656658172607422e+01,-1.093121414184570312e+02,-1.165497207641601562e+02,6.357636642456054688e+01,-3.937559890747070312e+01
4.199999868869781494e-01,2.000000000000000000e+00,3.745818710327148438e+01,8.992395401000976562e+00,3.559748077392578125e+01,-1.126729812622070312e+02,9.093679809570312500e+01,-6.577589416503906250e+01,4.757171630859375000e+01,-1.244042396545410156e+01,-1.093219757080078125e+02,-1.166077346801757812e+02,6.357238769531250000e+01,-3.940314865112304688e+01
4.239999949932098389e-01,2.000000000000000000e+00,3.748683929443359375e+01,8.944772720336914062e+00,3.559134674072265625e+01,-1.127273025512695312e+02,9.093952178955078125e+01,-6.580079650878906250e+01,4.750051879882812500e+01,-1.243428230285644531e+01,-1.093318023681640625e+02,-1.166657485961914062e+02,6.356842041015625000e+01,-3.943070220947265625e+01
4.280000030994415283e-01,2.000000000000000000e+00,3.751549148559570312e+01,8.897153854370117188e+00,3.558521652221679688e+01,-1.127816238403320312e+02,9.094225311279296875e+01,-6.582569885253906250e+01,4.742932510375976562e+01,-1.242813968658447266e+01,-1.093416366577148438e+02,-1.167237701416015625e+02,6.356444549560546875e+01,-3.945825195312500000e+01
4.320000112056732178e-01,2.000000000000000000e+00,3.754413986206054688e+01,8.849540710449218750e+00,3.557908248901367188e+01,-1.128359375000000000e+02,9.094498443603515625e+01,-6.585060119628906250e+01,4.735813903808593750e+01,-1.242199897766113281e+01,-1.093514633178710938e+02,-1.167817687988281250e+02,6.356047821044921875e+01,-3.948579788208007812e+01
4.359999895095825195e-01,2.000000000000000000e+00,3.757278442382812500e+01,8.801930427551269531e+00,3.557295227050781250e+01,-1.128902511596679688e+02,9.094771575927734375e+01,-6.587549591064453125e+01,4.728695678710937500e+01,-1.241585826873779297e+01,-1.093613052368164062e+02,-1.168397598266601562e+02,6.355650329589843750e+01,-3.951333999633789062e+01
4.399999976158142090e-01,2.000000000000000000e+00,3.760142898559570312e+01,8.754325866699218750e+00,3.556682586669921875e+01,-1.129445495605468750e+02,9.095043945312500000e+01,-6.590039062500000000e+01,4.721578598022460938e+01,-1.240971851348876953e+01,-1.093711318969726562e+02,-1.168977432250976562e+02,6.355253219604492188e+01,-3.954088592529296875e+01
4.440000057220458984e-01,2.000000000000000000e+00,3.763006591796875000e+01,8.706725120544433594e+00,3.556069564819335938e+01,-1.129988479614257812e+02,9.095317077636718750e+01,-6.592528533935546875e+01,4.714461898803710938e+01,-1.240357971191406250e+01,-1.093809585571289062e+02,-1.169557342529296875e+02,6.354856491088867188e+01,-3.956842041015625000e+01
4.480000138282775879e-01,2.000000000000000000e+00,3.765870666503906250e+01,8.659128189086914062e+00,3.555456542968750000e+01,-1.130531463623046875e+02,9.095589447021484375e+01,-6.595018005371093750e+01,4.707345962524414062e+01,-1.239744091033935547e+01,-1.093907852172851562e+02,-1.170137252807617188e+02,6.354459762573242188e+01,-3.959595870971679688e+01
4.519999921321868896e-01,2.000000000000000000e+00,3.768733978271484375e+01,8.611536026000976562e+00,3.554843902587890625e+01,-1.131074371337890625e+02,9.095861816406250000e+01,-6.597506713867187500e+01,4.700230407714843750e+01,-1.239130210876464844e+01,-1.094006195068359375e+02,-1.170717010498046875e+02,6.354062271118164062e+01,-3.962349319458007812e+01
4.560000002384185791e-01,2.000000000000000000e+00,3.771597290039062500e+01,8.563948631286621094e+00,3.554230880737304688e+01,-1.131617202758789062e+02,9.096134948730468750e+01,-6.599995422363281250e+01,4.693115615844726562e+01,-1.238516426086425781e+01,-1.094104385375976562e+02,-1.171296615600585938e+02,6.353665542602539062e+01,-3.965102386474609375e+01
4.600000083446502686e-01,2.000000000000000000e+00,3.774460220336914062e+01,8.516364097595214844e+00,3.553617858886718750e+01,-1.132160034179687500e+02,9.096408081054687500e+01,-6.602483367919921875e+01,4.686001586914062500e+01,-1.237902736663818359e+01,-1.094202651977539062e+02,-1.171876296997070312e+02,6.353268432617187500e+01,-3.967855453491210938e+01
4.639999866485595703e-01,2.000000000000000000e+00,3.777323150634765625e+01,8.468785285949707031e+00,3.553005218505859375e+01,-1.132702713012695312e+02,9.096680450439453125e+01,-6.604972076416015625e+01,4.678888320922851562e+01,-1.237289047241210938e+01,-1.094300918579101562e+02,-1.172455978393554688e+02,6.352871704101562500e+01,-3.970607757568359375e+01
4.679999947547912598e-01,2.000000000000000000e+00,3.780185699462890625e+01,8.421209335327148438e+00,3.552392578125000000e+01,-1.133245468139648438e+02,9.096952819824218750e+01,-6.607460021972656250e+01,4.671775436401367188e+01,-1.236675453186035156e+01,-1.094399108886718750e+02,-1.173035430908203125e+02,6.352474975585937500e+01,-3.973360061645507812e+01
4.720000028610229492e-01,2.000000000000000000e+00,3.783047866821289062e+01,8.373638153076171875e+00,3.551779937744140625e+01,-1.133788146972656250e+02,9.097225952148437500e+01,-6.609948730468750000e+01,4.664662933349609375e+01,-1.236061954498291016e+01,-1.094497375488281250e+02,-1.173614883422851562e+02,6.352077865600585938e+01,-3.976112365722656250e+01
4.760000109672546387e-01,2.000000000000000000e+00,3.785910034179687500e+01,8.326071739196777344e+00,3.551167297363281250e+01,-1.134330749511718750e+02,9.097498321533203125e+01,-6.612435913085937500e+01,4.657551574707031250e+01,-1.235448360443115234e+01,-1.094595642089843750e+02,-1.174194335937500000e+02,6.351681137084960938e+01,-3.978864288330078125e+01
4.799999892711639404e-01,2.000000000000000000e+00,3.788771438598632812e+01,8.278509140014648438e+00,3.550555038452148438e+01,-1.134873275756835938e+02,9.097771453857421875e+01,-6.614923095703125000e+01,4.650440597534179688e+01,-1.234834957122802734e+01,-1.094693832397460938e+02,-1.174773864746093750e+02,6.351284408569335938e+01,-3.981616210937500000e+01
4.839999973773956299e-01,2.000000000000000000e+00,3.791633224487304688e+01,8.230950355529785156e+00,3.549942398071289062e+01,-1.135415802001953125e+02,9.098043823242187500e+01,-6.617410278320312500e+01,4.643330001831054688e+01,-1.234221553802490234e+01,-1.094791946411132812e+02,-1.175353164672851562e+02,6.350888061523437500e+01,-3.984367752075195312e+01
4.880000054836273193e-01,2.000000000000000000e+00,3.794494628906250000e+01,8.183394432067871094e+00,3.549330139160156250e+01,-1.135958251953125000e+02,9.098316192626953125e+01,-6.619897460937500000e+01,4.636220550537109375e+01,-1.233608245849609375e+01,-1.094890213012695312e+02,-1.175932388305664062e+02,6.350491333007812500e+01,-3.987118911743164062e+01
4.920000135898590088e-01,2.000000000000000000e+00,3.797355270385742188e+01,8.135845184326171875e+00,3.548717880249023438e+01,-1.136500701904296875e+02,9.098588562011718750e+01,-6.622383880615234375e+01,4.629111099243164062e+01,-1.232994937896728516e+01,-1.094988327026367188e+02,-1.176511688232421875e+02,6.350094604492187500e+01,-3.989869689941406250e+01
4.959999918937683105e-01,2.000000000000000000e+00,3.800216293334960938e+01,8.088297843933105469e+00,3.548105239868164062e+01,-1.137043075561523438e+02,9.098860931396484375e+01,-6.624870300292968750e+01,4.622002792358398438e+01,-1.232381725311279297e+01,-1.095086593627929688e+02,-1.177090911865234375e+02,6.349697875976562500e+01,-3.992620468139648438e+01
5.000000000000000000e-01,2.000000000000000000e+00,3.803076553344726562e+01,8.040756225585937500e+00,3.547492980957031250e+01,-1.137585372924804688e+02,9.099134063720703125e+01,-6.627356719970703125e+01,4.614894866943359375e+01,-1.231768512725830078e+01,-1.095184707641601562e+02,-1.177669982910156250e+02,6.349301528930664062e+01,-3.995371246337890625e+01
5.040000081062316895e-01,2.000000000000000000e+00,3.805937194824218750e+01,7.993217468261718750e+00,3.546881103515625000e+01,-1.138127670288085938e+02,9.099406433105468750e+01,-6.629842376708984375e+01,4.607787322998046875e+01,-1.231155395507812500e+01,-1.095282897949218750e+02,-1.178249053955078125e+02,6.348904800415039062e+01,-3.998121261596679688e+01
5.080000162124633789e-01,2.000000000000000000e+00,3.808797073364257812e+01,7.945683956146240234e+00,3.546268844604492188e+01,-1.138669967651367188e+02,9.099678039550781250e+01,-6.632328796386718750e+01,4.600680923461914062e+01,-1.230542373657226562e+01,-1.095381011962890625e+02,-1.178828125000000000e+02,6.348508453369140625e+01,-4.000871276855468750e+01
5.120000243186950684e-01,2.000000000000000000e+00,3.811656951904296875e+01,7.898153305053710938e+00,3.545656585693359375e+01,-1.139212112426757812e+02,9.099950408935546875e+01,-6.634814453125000000e+01,4.593574905395507812e+01,-1.229929256439208984e+01,-1.095479125976562500e+02,-1.179407196044921875e+02,6.348111724853515625e+01,-4.003620910644531250e+01
5.159999728202819824e-01,2.000000000000000000e+00,3.814516448974609375e+01,7.850627422332763672e+00,3.545044708251953125e+01,-1.139754257202148438e+02,9.100222778320312500e+01,-6.637300109863281250e+01,4.586469268798828125e+01,-1.229316329956054688e+01,-1.095577316284179688e+02,-1.179986114501953125e+02,6.347715759277343750e+01,-4.006370544433593750e+01
5.199999809265136719e-01,2.000000000000000000e+00,3.817375564575195312e+01,7.803105354309082031e+00,3.544432830810546875e+01,-1.140296325683593750e+02,9.100495910644531250e+01,-6.639785766601562500e+01,4.579364395141601562e+01,-1.228703403472900391e+01,-1.095675430297851562e+02,-1.180565032958984375e+02,6.347319412231445312e+01,-4.009119796752929688e+01
5.239999890327453613e-01,2.000000000000000000e+00,3.820234680175781250e+01,7.755586624145507812e+00,3.543820953369140625e+01,-1.140838394165039062e+02,9.100767517089843750e+01,-6.642269897460937500e+01,4.572260284423828125e+01,-1.228090572357177734e+01,-1.095773544311523438e+02,-1.181143798828125000e+02,6.346922683715820312e+01,-4.011869049072265625e+01
5.279999971389770508e-01,2.000000000000000000e+00,3.823093795776367188e+01,7.708072662353515625e+00,3.543209075927734375e+01,-1.141380462646484375e+02,9.101039886474609375e+01,-6.644754791259765625e+01,4.565156555175781250e+01,-1.227477741241455078e+01,-1.095871658325195312e+02,-1.181722564697265625e+02,6.346526336669921875e+01,-4.014617919921875000e+01
5.320000052452087402e-01,2.000000000000000000e+00,3.825952529907226562e+01,7.660562038421630859e+00,3.542597198486328125e+01,-1.141922302246093750e+02,9.101312255859375000e+01,-6.647239685058593750e+01,4.558053207397460938e+01,-1.226865005493164062e+01,-1.095969772338867188e+02,-1.182301406860351562e+02,6.346129608154296875e+01,-4.017366409301757812e+01
5.360000133514404297e-01,2.000000000000000000e+00,3.828810882568359375e+01,7.613054275512695312e+00,3.541985702514648438e+01,-1.142464294433593750e+02,9.101584625244140625e+01,-6.649723815917968750e+01,4.550950622558593750e+01,-1.226252174377441406e+01,-1.096067886352539062e+02,-1.182880020141601562e+02,6.345733642578125000e+01,-4.020114898681640625e+01
5.400000214576721191e-01,2.000000000000000000e+00,3.831668853759765625e+01,7.565552234649658203e+00,3.541373443603515625e+01,-1.143006134033203125e+02,9.101856994628906250e+01,-6.652207946777343750e+01,4.543848800659179688e+01,-1.225639533996582031e+01,-1.096165924072265625e+02,-1.183458862304687500e+02,6.345337295532226562e+01,-4.022863006591796875e+01
5.440000295639038086e-01,2.000000000000000000e+00,3.834526824951171875e+01,7.518052577972412109e+00,3.540761947631835938e+01,-1.143547973632812500e+02,9.102129364013671875e+01,-6.654692077636718750e+01,4.536747360229492188e+01,-1.225026988983154297e+01,-1.096264038085937500e+02,-1.184037322998046875e+02,6.344941329956054688e+01,-4.025611114501953125e+01
5.479999780654907227e-01,2.000000000000000000e+00,3.837384796142578125e+01,7.470557212829589844e+00,3.540150451660156250e+01,-1.144089736938476562e+02,9.102400970458984375e+01,-6.657176208496093750e+01,4.529646301269531250e+01,-1.224414348602294922e+01,-1.096362075805664062e+02,-1.184616012573242188e+02,6.344544982910156250e+01,-4.028358840942382812e+01
5.519999861717224121e-01,2.000000000000000000e+00,3.840242004394531250e+01,7.423065185546875000e+00,3.539538574218750000e+01,-1.144631500244140625e+02,9.102674102783203125e+01,-6.659659576416015625e+01,4.522546005249023438e+01,-1.223801898956298828e+01,-1.096460189819335938e+02,-1.185194549560546875e+02,6.344149017333984375e+01,-4.031106185913085938e+01
5.559999942779541016e-01,2.000000000000000000e+00,3.843099594116210938e+01,7.375577449798583984e+00,3.538927459716796875e+01,-1.145173263549804688e+02,9.102945709228515625e+01,-6.662143707275390625e+01,4.515446472167968750e+01,-1.223189353942871094e+01,-1.096558227539062500e+02,-1.185772933959960938e+02,6.343752670288085938e+01,-4.033853912353515625e+01
5.600000023841857910e-01,2.000000000000000000e+00,3.845956802368164062e+01,7.328093051910400391e+00,3.538315582275390625e+01,-1.145714874267578125e+02,9.103217315673828125e+01,-6.664627075195312500e+01,4.508346939086914062e+01,-1.222576999664306641e+01,-1.096656265258789062e+02,-1.186351394653320312e+02,6.343356704711914062e+01,-4.036600875854492188e+01
5.640000104904174805e-01,2.000000000000000000e+00,3.848813247680664062e+01,7.280611991882324219e+00,3.537704467773437500e+01,-1.146256561279296875e+02,9.103489685058593750e+01,-6.667109680175781250e+01,4.501248550415039062e+01,-1.221964550018310547e+01,-1.096754302978515625e+02,-1.186929779052734375e+02,6.342960357666015625e+01,-4.039347839355468750e+01
5.680000185966491699e-01,2.000000000000000000e+00,3.851670074462890625e+01,7.233135223388671875e+00,3.537092971801757812e+01,-1.146798095703125000e+02,9.103762054443359375e+01,-6.669593048095703125e+01,4.494150161743164062e+01,-1.221352291107177734e+01,-1.096852340698242188e+02,-1.187508163452148438e+02,6.342564392089843750e+01,-4.042094802856445312e+01
5.720000267028808594e-01,2.000000000000000000e+00,3.854526519775390625e+01,7.185662269592285156e+00,3.536481475830078125e+01,-1.147339706420898438e+02,9.104034423828125000e+01,-6.672075653076171875e+01,4.487052536010742188e+01,-1.220739936828613281e+01,-1.096950378417968750e+02,-1.188086395263671875e+02,6.342168045043945312e+01,-4.044841003417968750e+01
5.759999752044677734e-01,2.000000000000000000e+00,3.857382583618164062e+01,7.138192176818847656e+00,3.535869979858398438e+01,-1.147881164550781250e+02,9.104306030273437500e+01,-6.674558258056640625e+01,4.479955291748046875e+01,-1.220127677917480469e+01,-1.097048416137695312e+02,-1.188664703369140625e+02,6.341772842407226562e+01,-4.047587203979492188e+01
5.799999833106994629e-01,2.000000000000000000e+00,3.860238647460937500e+01,7.090725898742675781e+00,3.535259246826171875e+01,-1.148422546386718750e+02,9.104578399658203125e+01,-6.677040863037109375e+01,4.472859191894531250e+01,-1.219515419006347656e+01,-1.097146377563476562e+02,-1.189242935180664062e+02,6.341376495361328125e+01,-4.050333786010742188e+01
5.839999914169311523e-01,2.000000000000000000e+00,3.863094329833984375e+01,7.043263435363769531e+00,3.534647750854492188e+01,-1.148964080810546875e+02,9.104850006103515625e+01,-6.679522705078125000e+01,4.465762710571289062e+01,-1.218903255462646484e+01,-1.097244415283203125e+02,-1.189821166992187500e+02,6.340980529785156250e+01,-4.053079223632812500e+01
5.879999995231628418e-01,2.000000000000000000e+00,3.865949630737304688e+01,6.995804309844970703e+00,3.534036636352539062e+01,-1.149505386352539062e+02,9.105122375488281250e+01,-6.682004547119140625e+01,4.458667373657226562e+01,-1.218291187286376953e+01,-1.097342453002929688e+02,-1.190399246215820312e+02,6.340584945678710938e+01,-4.055825042724609375e+01
5.920000076293945312e-01,2.000000000000000000e+00,3.868804931640625000e+01,6.948348522186279297e+00,3.533425521850585938e+01,-1.150046768188476562e+02,9.105393981933593750e+01,-6.684486389160156250e+01,4.451572418212890625e+01,-1.217679119110107422e+01,-1.097440414428710938e+02,-1.190977401733398438e+02,6.340188598632812500e+01,-4.058570480346679688e+01
5.960000157356262207e-01,2.000000000000000000e+00,3.871659851074218750e+01,6.900896072387695312e+00,3.532814407348632812e+01,-1.150587997436523438e+02,9.105666351318359375e+01,-6.686967468261718750e+01,4.444477844238281250e+01,-1.217067050933837891e+01,-1.097538375854492188e+02,-1.191555328369140625e+02,6.339793395996093750e+01,-4.061315917968750000e+01
6.000000238418579102e-01,2.000000000000000000e+00,3.874515151977539062e+01,6.853447914123535156e+00,3.532203292846679688e+01,-1.151129379272460938e+02,9.105937957763671875e+01,-6.689449310302734375e+01,4.437384033203125000e+01,-1.216455173492431641e+01,-1.097636337280273438e+02,-1.192133407592773438e+02,6.339397048950195312e+01,-4.064060974121093750e+01
6.039999723434448242e-01,2.000000000000000000e+00,3.877369689941406250e+01,6.806002140045166016e+00,3.531592559814453125e+01,-1.151670608520507812e+02,9.106209564208984375e+01,-6.691930389404296875e+01,4.430290603637695312e+01,-1.215843200683593750e+01,-1.097734375000000000e+02,-1.192711410522460938e+02,6.339001464843750000e+01,-4.066806030273437500e+01
6.079999804496765137e-01,2.000000000000000000e+00,3.880224227905273438e+01,6.758560657501220703e+00,3.530981445312500000e+01,-1.152211685180664062e+02,9.106481933593750000e+01,-6.694412231445312500e+01,4.423197937011718750e+01,-1.215231323242187500e+01,-1.097832336425781250e+02,-1.193289260864257812e+02,6.338606262207031250e+01,-4.069550323486328125e+01
6.119999885559082031e-01,2.000000000000000000e+00,3.883078384399414062e+01,6.711122512817382812e+00,3.530370330810546875e+01,-1.152752914428710938e+02,9.106753540039062500e+01,-6.696892547607421875e+01,4.416105270385742188e+01,-1.214619445800781250e+01,-1.097930221557617188e+02,-1.193867187500000000e+02,6.338209915161132812e+01,-4.072294998168945312e+01
6.159999966621398926e-01,2.000000000000000000e+00,3.885932540893554688e+01,6.663687229156494141e+00,3.529759979248046875e+01,-1.153293991088867188e+02,9.107025146484375000e+01,-6.699373626708984375e+01,4.409013366699218750e+01,-1.214007663726806641e+01,-1.098028182983398438e+02,-1.194445037841796875e+02,6.337814712524414062e+01,-4.075039291381835938e+01
6.200000047683715820e-01,2.000000000000000000e+00,3.888786315917968750e+01,6.616255760192871094e+00,3.529148864746093750e+01,-1.153835067749023438e+02,9.107297515869140625e+01,-6.701853942871093750e+01,4.401922225952148438e+01,-1.213395881652832031e+01,-1.098126144409179688e+02,-1.195022735595703125e+02,6.337419128417968750e+01,-4.077783584594726562e+01
6.240000128746032715e-01,2.000000000000000000e+00,3.891640090942382812e+01,6.568827629089355469e+00,3.528538131713867188e+01,-1.154375991821289062e+02,9.107569122314453125e+01,-6.704334259033203125e+01,4.394831466674804688e+01,-1.212784194946289062e+01,-1.098224105834960938e+02,-1.195600585937500000e+02,6.337022781372070312e+01,-4.080527114868164062e+01
6.280000209808349609e-01,2.000000000000000000e+00,3.894493484497070312e+01,6.521402835845947266e+00,3.527927398681640625e+01,-1.154916992187500000e+02,9.107840728759765625e+01,-6.706813812255859375e+01,4.387740707397460938e+01,-1.212172508239746094e+01,-1.098321990966796875e+02,-1.196178283691406250e+02,6.336627578735351562e+01,-4.083271026611328125e+01
6.320000290870666504e-01,2.000000000000000000e+00,3.897346496582031250e+01,6.473981857299804688e+00,3.527316665649414062e+01,-1.155457916259765625e+02,9.108112335205078125e+01,-6.709294128417968750e+01,4.380651092529296875e+01,-1.211560916900634766e+01,-1.098419876098632812e+02,-1.196755981445312500e+02,6.336231994628906250e+01,-4.086014556884765625e+01
6.359999775886535645e-01,2.000000000000000000e+00,3.900199890136718750e+01,6.426563262939453125e+00,3.526705932617187500e+01,-1.155998840332031250e+02,9.108384704589843750e+01,-6.711774444580078125e+01,4.373561859130859375e+01,-1.210949325561523438e+01,-1.098517837524414062e+02,-1.197333526611328125e+02,6.335836410522460938e+01,-4.088758087158203125e+01
6.399999856948852539e-01,2.000000000000000000e+00,3.903052520751953125e+01,6.379148960113525391e+00,3.526095581054687500e+01,-1.156539840698242188e+02,9.108656311035156250e+01,-6.714253997802734375e+01,4.366473007202148438e+01,-1.210337829589843750e+01,-1.098615722656250000e+02,-1.197911071777343750e+02,6.335441207885742188e+01,-4.091500854492187500e+01
6.439999938011169434e-01,2.000000000000000000e+00,3.905905151367187500e+01,6.331737995147705078e+00,3.525484848022460938e+01,-1.157080612182617188e+02,9.108927917480468750e+01,-6.716732788085937500e+01,4.359384536743164062e+01,-1.209726333618164062e+01,-1.098713684082031250e+02,-1.198488693237304688e+02,6.335045623779296875e+01,-4.094244003295898438e+01
6.480000019073486328e-01,2.000000000000000000e+00,3.908757781982421875e+01,6.284329414367675781e+00,3.524874496459960938e+01,-1.157621459960937500e+02,9.109199523925781250e+01,-6.719212341308593750e+01,4.352296829223632812e+01,-1.209114837646484375e+01,-1.098811569213867188e+02,-1.199066238403320312e+02,6.334650039672851562e+01,-4.096986389160156250e+01
6.520000100135803223e-01,2.000000000000000000e+00,3.911610031127929688e+01,6.236925125122070312e+00,3.524263763427734375e+01,-1.158162155151367188e+02,9.109471130371093750e+01,-6.721691894531250000e+01,4.345209121704101562e+01,-1.208503437042236328e+01,-1.098909454345703125e+02,-1.199643630981445312e+02,6.334254837036132812e+01,-4.099729156494140625e+01
6.560000181198120117e-01,2.000000000000000000e+00,3.914461898803710938e+01,6.189523696899414062e+00,3.523653793334960938e+01,-1.158702774047851562e+02,9.109742736816406250e+01,-6.724170684814453125e+01,4.338122558593750000e+01,-1.207892036437988281e+01,-1.099007263183593750e+02,-1.200221099853515625e+02,6.333859252929687500e+01,-4.102471542358398438e+01
6.600000262260437012e-01,2.000000000000000000e+00,3.917314147949218750e+01,6.142125606536865234e+00,3.523043441772460938e+01,-1.159243469238281250e+02,9.110015106201171875e+01,-6.726649475097656250e+01,4.331036376953125000e+01,-1.207280731201171875e+01,-1.099105148315429688e+02,-1.200798492431640625e+02,6.333463668823242188e+01,-4.105213546752929688e+01
6.639999747276306152e-01,2.000000000000000000e+00,3.920165634155273438e+01,6.094730854034423828e+00,3.522432708740234375e+01,-1.159784164428710938e+02,9.110285949707031250e+01,-6.729127502441406250e+01,4.323950195312500000e+01,-1.206669425964355469e+01,-1.099203033447265625e+02,-1.201375885009765625e+02,6.333068847656250000e+01,-4.107955551147460938e+01
6.679999828338623047e-01,2.000000000000000000e+00,3.923016738891601562e+01,6.047338962554931641e+00,3.521822357177734375e+01,-1.160324859619140625e+02,9.110557556152343750e+01,-6.731606292724609375e+01,4.316865158081054688e+01,-1.206058216094970703e+01,-1.099300842285156250e+02,-1.201953201293945312e+02,6.332673645019531250e+01,-4.110697555541992188e+01
6.719999909400939941e-01,2.000000000000000000e+00,3.925868225097656250e+01,5.999950885772705078e+00,3.521212387084960938e+01,-1.160865402221679688e+02,9.110829162597656250e+01,-6.734084320068359375e+01,4.309780120849609375e+01,-1.205447006225585938e+01,-1.099398727416992188e+02,-1.202530517578125000e+02,6.332278060913085938e+01,-4.113439178466796875e+01
6.759999990463256836e-01,2.000000000000000000e+00,3.928719329833984375e+01,5.952565670013427734e+00,3.520602416992187500e+01,-1.161405944824218750e+02,9.111100769042968750e+01,-6.736563110351562500e+01,4.302695846557617188e+01,-1.204835891723632812e+01,-1.099496612548828125e+02,-1.203107681274414062e+02,6.331883239746093750e+01,-4.116180419921875000e+01
6.800000071525573730e-01,2.000000000000000000e+00,3.931570434570312500e+01,5.905183792114257812e+00,3.519992065429687500e+01,-1.161946487426757812e+02,9.111372375488281250e+01,-6.739041137695312500e+01,4.295611953735351562e+01,-1.204224777221679688e+01,-1.099594421386718750e+02,-1.203684768676757812e+02,6.331487655639648438e+01,-4.118921661376953125e+01
6.840000152587890625e-01,2.000000000000000000e+00,3.934420776367187500e+01,5.857805252075195312e+00,3.519381713867187500e+01,-1.162486877441406250e+02,9.111643981933593750e+01,-6.741518402099609375e+01,4.288528442382812500e+01,-1.203613662719726562e+01,-1.099692230224609375e+02,-1.204261932373046875e+02,6.331092453002929688e+01,-4.121662521362304688e+01
6.880000233650207520e-01,2.000000000000000000e+00,3.937271499633789062e+01,5.810429573059082031e+00,3.518771743774414062e+01,-1.163027267456054688e+02,9.111915588378906250e+01,-6.743996429443359375e+01,4.281445312500000000e+01,-1.203002643585205078e+01,-1.099790115356445312e+02,-1.204839096069335938e+02,6.330697631835937500e+01,-4.124403762817382812e+01
6.919999718666076660e-01,2.000000000000000000e+00,3.940121841430664062e+01,5.763057708740234375e+00,3.518161773681640625e+01,-1.163567657470703125e+02,9.112187194824218750e+01,-6.746473693847656250e+01,4.274362945556640625e+01,-1.202391624450683594e+01,-1.099887924194335938e+02,-1.205416259765625000e+02,6.330302047729492188e+01,-4.127144241333007812e+01
6.959999799728393555e-01,2.000000000000000000e+00,3.942971420288085938e+01,5.715688705444335938e+00,3.517551422119140625e+01,-1.164108123779296875e+02,9.112458801269531250e+01,-6.748950958251953125e+01,4.267280960083007812e+01,-1.201780700683593750e+01,-1.099985733032226562e+02,-1.205993270874023438e+02,6.329907226562500000e+01,-4.129884338378906250e+01
6.999999880790710449e-01,2.000000000000000000e+00,3.945821380615234375e+01,5.668322563171386719e+00,3.516941452026367188e+01,-1.164648361206054688e+02,9.112729644775390625e+01,-6.751427459716796875e+01,4.260199356079101562e+01,-1.201169776916503906e+01,-1.100083541870117188e+02,-1.206570281982421875e+02,6.329511642456054688e+01,-4.132625198364257812e+01
7.039999961853027344e-01,2.000000000000000000e+00,3.948671340942382812e+01,5.620959758758544922e+00,3.516331863403320312e+01,-1.165188598632812500e+02,9.113001251220703125e+01,-6.753904724121093750e+01,4.253118133544921875e+01,-1.200558948516845703e+01,-1.100181350708007812e+02,-1.207147140502929688e+02,6.329116821289062500e+01,-4.135364913940429688e+01
7.080000042915344238e-01,2.000000000000000000e+00,3.951520919799804688e+01,5.573600292205810547e+00,3.515721893310546875e+01,-1.165728912353515625e+02,9.113272857666015625e+01,-6.756381225585937500e+01,4.246037673950195312e+01,-1.199948024749755859e+01,-1.100279083251953125e+02,-1.207724151611328125e+02,6.328721618652343750e+01,-4.138105010986328125e+01
7.120000123977661133e-01,2.000000000000000000e+00,3.954370117187500000e+01,5.526243209838867188e+00,3.515112304687500000e+01,-1.166269149780273438e+02,9.113543701171875000e+01,-6.758858489990234375e+01,4.238957595825195312e+01,-1.199337291717529297e+01,-1.100376892089843750e+02,-1.208301086425781250e+02,6.328326797485351562e+01,-4.140845108032226562e+01
7.160000205039978027e-01,2.000000000000000000e+00,3.957219314575195312e+01,5.478889942169189453e+00,3.514502334594726562e+01,-1.166809310913085938e+02,9.113816070556640625e+01,-6.761334991455078125e+01,4.231877517700195312e+01,-1.198726558685302734e+01,-1.100474700927734375e+02,-1.208877792358398438e+02,6.327931976318359375e+01,-4.143584442138671875e+01
7.200000286102294922e-01,2.000000000000000000e+00,3.960068130493164062e+01,5.431539535522460938e+00,3.513892745971679688e+01,-1.167349395751953125e+02,9.114086914062500000e+01,-6.763810729980468750e+01,4.224798583984375000e+01,-1.198115825653076172e+01,-1.100572433471679688e+02,-1.209454650878906250e+02,6.327537155151367188e+01,-4.146323776245117188e+01
7.239999771118164062e-01,2.000000000000000000e+00,3.962916946411132812e+01,5.384191989898681641e+00,3.513282775878906250e+01,-1.167889556884765625e+02,9.114358520507812500e+01,-6.766287231445312500e+01,4.217719650268554688e+01,-1.197505187988281250e+01,-1.100670242309570312e+02,-1.210031433105468750e+02,6.327141571044921875e+01,-4.149063110351562500e+01
7.279999852180480957e-01,2.000000000000000000e+00,3.965765762329101562e+01,5.336848258972167969e+00,3.512673187255859375e+01,-1.168429565429687500e+02,9.114629364013671875e+01,-6.768762969970703125e+01,4.210641098022460938e+01,-1.196894550323486328e+01,-1.100767974853515625e+02,-1.210608139038085938e+02,6.326746749877929688e+01,-4.151802062988281250e+01
7.319999933242797852e-01,2.000000000000000000e+00,3.968614196777343750e+01,5.289506912231445312e+00,3.512063598632812500e+01,-1.168969650268554688e+02,9.114900970458984375e+01,-6.771238708496093750e+01,4.203563308715820312e+01,-1.196283912658691406e+01,-1.100865707397460938e+02,-1.211184921264648438e+02,6.326352310180664062e+01,-4.154540634155273438e+01
7.360000014305114746e-01,2.000000000000000000e+00,3.971462249755859375e+01,5.242168426513671875e+00,3.511454010009765625e+01,-1.169509658813476562e+02,9.115172576904296875e+01,-6.773714447021484375e+01,4.196485900878906250e+01,-1.195673370361328125e+01,-1.100963439941406250e+02,-1.211761474609375000e+02,6.325957489013671875e+01,-4.157279586791992188e+01
7.400000095367431641e-01,2.000000000000000000e+00,3.974310684204101562e+01,5.194833755493164062e+00,3.510844421386718750e+01,-1.170049514770507812e+02,9.115443420410156250e+01,-6.776189422607421875e+01,4.189409255981445312e+01,-1.195062828063964844e+01,-1.101061172485351562e+02,-1.212338104248046875e+02,6.325562667846679688e+01,-4.160017776489257812e+01
7.440000176429748535e-01,2.000000000000000000e+00,3.977158355712890625e+01,5.147501468658447266e+00,3.510234832763671875e+01,-1.170589523315429688e+02,9.115715026855468750e+01,-6.778665161132812500e+01,4.182332992553710938e+01,-1.194452381134033203e+01,-1.101158981323242188e+02,-1.212914733886718750e+02,6.325167846679687500e+01,-4.162756347656250000e+01
7.480000257492065430e-01,2.000000000000000000e+00,3.980006027221679688e+01,5.100172519683837891e+00,3.509625244140625000e+01,-1.171129379272460938e+02,9.115985870361328125e+01,-6.781140136718750000e+01,4.175256729125976562e+01,-1.193841934204101562e+01,-1.101256713867187500e+02,-1.213491287231445312e+02,6.324773025512695312e+01,-4.165494918823242188e+01
7.519999742507934570e-01,2.000000000000000000e+00,3.982853698730468750e+01,5.052846431732177734e+00,3.509016036987304688e+01,-1.171669235229492188e+02,9.116256713867187500e+01,-6.783615875244140625e+01,4.168181228637695312e+01,-1.193231582641601562e+01,-1.101354446411132812e+02,-1.214067764282226562e+02,6.324378204345703125e+01,-4.168232727050781250e+01
7.559999823570251465e-01,2.000000000000000000e+00,3.985700988769531250e+01,5.005523204803466797e+00,3.508406448364257812e+01,-1.172209091186523438e+02,9.116528320312500000e+01,-6.786090087890625000e+01,4.161106109619140625e+01,-1.192621231079101562e+01,-1.101452102661132812e+02,-1.214644241333007812e+02,6.323983383178710938e+01,-4.170970535278320312e+01
7.599999904632568359e-01,2.000000000000000000e+00,3.988548278808593750e+01,4.958202838897705078e+00,3.507796859741210938e+01,-1.172748794555664062e+02,9.116799163818359375e+01,-6.788565063476562500e+01,4.154031372070312500e+01,-1.192010974884033203e+01,-1.101549835205078125e+02,-1.215220718383789062e+02,6.323588562011718750e+01,-4.173707962036132812e+01
7.639999985694885254e-01,2.000000000000000000e+00,3.991394805908203125e+01,4.910885810852050781e+00,3.507187652587890625e+01,-1.173288650512695312e+02,9.117070770263671875e+01,-6.791039276123046875e+01,4.146957015991210938e+01,-1.191400623321533203e+01,-1.101647491455078125e+02,-1.215797042846679688e+02,6.323193740844726562e+01,-4.176445388793945312e+01
7.680000066757202148e-01,2.000000000000000000e+00,3.994241714477539062e+01,4.863571643829345703e+00,3.506578063964843750e+01,-1.173828430175781250e+02,9.117341613769531250e+01,-6.793513488769531250e+01,4.139883041381835938e+01,-1.190790367126464844e+01,-1.101745223999023438e+02,-1.216373519897460938e+02,6.322798919677734375e+01,-4.179182815551757812e+01
7.720000147819519043e-01,2.000000000000000000e+00,3.997088623046875000e+01,4.816260337829589844e+00,3.505968856811523438e+01,-1.174368133544921875e+02,9.117612457275390625e+01,-6.795988464355468750e+01,4.132809829711914062e+01,-1.190180206298828125e+01,-1.101842956542968750e+02,-1.216949844360351562e+02,6.322404861450195312e+01,-4.181919860839843750e+01
7.760000228881835938e-01,2.000000000000000000e+00,3.999935150146484375e+01,4.768951892852783203e+00,3.505360031127929688e+01,-1.174907684326171875e+02,9.117884063720703125e+01,-6.798462677001953125e+01,4.125736999511718750e+01,-1.189570045471191406e+01,-1.101940612792968750e+02,-1.217526168823242188e+02,6.322010040283203125e+01,-4.184657287597656250e+01
7.799999713897705078e-01,2.000000000000000000e+00,4.002781295776367188e+01,4.721646308898925781e+00,3.504750823974609375e+01,-1.175447311401367188e+02,9.118154907226562500e+01,-6.800936126708984375e+01,4.118664169311523438e+01,-1.188959884643554688e+01,-1.102038269042968750e+02,-1.218102340698242188e+02,6.321615219116210938e+01,-4.187393569946289062e+01
7.839999794960021973e-01,2.000000000000000000e+00,4.005627441406250000e+01,4.674343109130859375e+00,3.504141616821289062e+01,-1.175987014770507812e+02,9.118426513671875000e+01,-6.803410339355468750e+01,4.111592102050781250e+01,-1.188349819183349609e+01,-1.102135925292968750e+02,-1.218678588867187500e+02,6.321221160888671875e+01,-4.190130615234375000e+01
7.879999876022338867e-01,2.000000000000000000e+00,4.008473205566406250e+01,4.627043724060058594e+00,3.503532409667968750e+01,-1.176526489257812500e+02,9.118697357177734375e+01,-6.805883789062500000e+01,4.104520797729492188e+01,-1.187739658355712891e+01,-1.102233581542968750e+02,-1.219254760742187500e+02,6.320826339721679688e+01,-4.192866897583007812e+01
7.919999957084655762e-01,2.000000000000000000e+00,4.011318969726562500e+01,4.579746723175048828e+00,3.502923202514648438e+01,-1.177066040039062500e+02,9.118968963623046875e+01,-6.808357238769531250e+01,4.097449493408203125e+01,-1.187129688262939453e+01,-1.102331314086914062e+02,-1.219830932617187500e+02,6.320431900024414062e+01,-4.195603179931640625e+01
7.960000038146972656e-01,2.000000000000000000e+00,4.014164733886718750e+01,4.532452583312988281e+00,3.502314376831054688e+01,-1.177605514526367188e+02,9.119239807128906250e+01,-6.810830688476562500e+01,4.090378189086914062e+01,-1.186519718170166016e+01,-1.102428970336914062e+02,-1.220407028198242188e+02,6.320037460327148438e+01,-4.198339462280273438e+01
8.000000119209289551e-01,2.000000000000000000e+00,4.017010116577148438e+01,4.485161304473876953e+00,3.501705169677734375e+01,-1.178144912719726562e+02,9.119510650634765625e+01,-6.813303375244140625e+01,4.083308029174804688e+01,-1.185909748077392578e+01,-1.102526626586914062e+02,-1.220983200073242188e+02,6.319643020629882812e+01,-4.201075363159179688e+01
8.040000200271606445e-01,2.000000000000000000e+00,4.019855117797851562e+01,4.437872886657714844e+00,3.501096343994140625e+01,-1.178684387207031250e+02,9.119781494140625000e+01,-6.815776824951171875e+01,4.076238250732421875e+01,-1.185299873352050781e+01,-1.102624206542968750e+02,-1.221559295654296875e+02,6.319248580932617188e+01,-4.203810882568359375e+01
8.080000281333923340e-01,2.000000000000000000e+00,4.022700500488281250e+01,4.390587329864501953e+00,3.500487518310546875e+01,-1.179223861694335938e+02,9.120052337646484375e+01,-6.818249511718750000e+01,4.069168472290039062e+01,-1.184689998626708984e+01,-1.102721862792968750e+02,-1.222135162353515625e+02,6.318854141235351562e+01,-4.206546783447265625e+01
8.119999766349792480e-01,2.000000000000000000e+00,4.025545120239257812e+01,4.343304634094238281e+00,3.499878311157226562e+01,-1.179763183593750000e+02,9.120323944091796875e+01,-6.820722961425781250e+01,4.062099456787109375e+01,-1.184080123901367188e+01,-1.102819519042968750e+02,-1.222711257934570312e+02,6.318459701538085938e+01,-4.209282302856445312e+01
8.159999847412109375e-01,2.000000000000000000e+00,4.028390121459960938e+01,4.296024799346923828e+00,3.499269485473632812e+01,-1.180302581787109375e+02,9.120594787597656250e+01,-6.823194885253906250e+01,4.055030822753906250e+01,-1.183470344543457031e+01,-1.102917175292968750e+02,-1.223287200927734375e+02,6.318065261840820312e+01,-4.212017440795898438e+01
8.199999928474426270e-01,2.000000000000000000e+00,4.031234359741210938e+01,4.248747348785400391e+00,3.498661041259765625e+01,-1.180841903686523438e+02,9.120865631103515625e+01,-6.825667572021484375e+01,4.047962570190429688e+01,-1.182860565185546875e+01,-1.103014755249023438e+02,-1.223863067626953125e+02,6.317670822143554688e+01,-4.214752578735351562e+01
8.240000009536743164e-01,2.000000000000000000e+00,4.034078979492187500e+01,4.201472759246826172e+00,3.498052215576171875e+01,-1.181381072998046875e+02,9.121136474609375000e+01,-6.828139495849609375e+01,4.040894699096679688e+01,-1.182250881195068359e+01,-1.103112411499023438e+02,-1.224439010620117188e+02,6.317276763916015625e+01,-4.217487716674804688e+01
8.280000090599060059e-01,2.000000000000000000e+00,4.036923217773437500e+01,4.154201030731201172e+00,3.497443008422851562e+01,-1.181920394897460938e+02,9.121407318115234375e+01,-6.830612182617187500e+01,4.033827209472656250e+01,-1.181641197204589844e+01,-1.103209991455078125e+02,-1.225014801025390625e+02,6.316881942749023438e+01,-4.220222473144531250e+01
8.320000171661376953e-01,2.000000000000000000e+00,4.039767456054687500e+01,4.106932163238525391e+00,3.496834564208984375e+01,-1.182459564208984375e+02,9.121678161621093750e+01,-6.833084106445312500e+01,4.026760101318359375e+01,-1.181031513214111328e+01,-1.103307571411132812e+02,-1.225590591430664062e+02,6.316487884521484375e+01,-4.222957611083984375e+01
8.360000252723693848e-01,2.000000000000000000e+00,4.042610931396484375e+01,4.059665679931640625e+00,3.496226119995117188e+01,-1.182998733520507812e+02,9.121949005126953125e+01,-6.835556030273437500e+01,4.019693374633789062e+01,-1.180421829223632812e+01,-1.103405151367187500e+02,-1.226166381835937500e+02,6.316093826293945312e+01,-4.225691986083984375e+01
8.399999737739562988e-01,2.000000000000000000e+00,4.045454788208007812e+01,4.012402057647705078e+00,3.495616912841796875e+01,-1.183537902832031250e+02,9.122219848632812500e+01,-6.838027954101562500e+01,4.012627410888671875e+01,-1.179812335968017578e+01,-1.103502807617187500e+02,-1.226742172241210938e+02,6.315699768066406250e+01,-4.228426361083984375e+01
8.439999818801879883e-01,2.000000000000000000e+00,4.048298645019531250e+01,3.965141296386718750e+00,3.495008468627929688e+01,-1.184076995849609375e+02,9.122490692138671875e+01,-6.840499114990234375e+01,4.005561447143554688e+01,-1.179202747344970703e+01,-1.103600387573242188e+02,-1.227317962646484375e+02,6.315305709838867188e+01,-4.231160354614257812e+01
8.479999899864196777e-01,2.000000000000000000e+00,4.051142120361328125e+01,3.917882680892944336e+00,3.494400024414062500e+01,-1.184616165161132812e+02,9.122761535644531250e+01,-6.842970275878906250e+01,3.998495864868164062e+01,-1.178593254089355469e+01,-1.103697967529296875e+02,-1.227893600463867188e+02,6.314910888671875000e+01,-4.233894729614257812e+01
8.519999980926513672e-01,2.000000000000000000e+00,4.053985214233398438e+01,3.870627164840698242e+00,3.493791198730468750e+01,-1.185155181884765625e+02,9.123032379150390625e+01,-6.845441436767578125e+01,3.991430664062500000e+01,-1.177983665466308594e+01,-1.103795547485351562e+02,-1.228469238281250000e+02,6.314516830444335938e+01,-4.236628341674804688e+01
8.560000061988830566e-01,2.000000000000000000e+00,4.056828308105468750e+01,3.823374748229980469e+00,3.493183135986328125e+01,-1.185694198608398438e+02,9.123303222656250000e+01,-6.847912597656250000e+01,3.984366226196289062e+01,-1.177374267578125000e+01,-1.103893127441406250e+02,-1.229044876098632812e+02,6.314122772216796875e+01,-4.239362335205078125e+01
8.600000143051147461e-01,2.000000000000000000e+00,4.059671020507812500e+01,3.776124238967895508e+00,3.492574691772460938e+01,-1.186233291625976562e+02,9.123574066162109375e+01,-6.850383758544921875e+01,3.977301788330078125e+01,-1.176764869689941406e+01,-1.103990707397460938e+02,-1.229620361328125000e+02,6.313728713989257812e+01,-4.242095947265625000e+01
8.640000224113464355e-01,2.000000000000000000e+00,4.062513732910156250e+01,3.728876829147338867e+00,3.491965866088867188e+01,-1.186772155761718750e+02,9.123844909667968750e+01,-6.852854919433593750e+01,3.970238113403320312e+01,-1.176155471801757812e+01,-1.104088287353515625e+02,-1.230196075439453125e+02,6.313334655761718750e+01,-4.244829559326171875e+01
8.679999709129333496e-01,2.000000000000000000e+00,4.065356826782226562e+01,3.681631565093994141e+00,3.491357803344726562e+01,-1.187311096191406250e+02,9.124115753173828125e+01,-6.855326080322265625e+01,3.963174438476562500e+01,-1.175546073913574219e+01,-1.104185791015625000e+02,-1.230771560668945312e+02,6.312940216064453125e+01,-4.247562408447265625e+01
8.719999790191650391e-01,2.000000000000000000e+00,4.068199157714843750e+01,3.634389400482177734e+00,3.490749359130859375e+01,-1.187849960327148438e+02,9.124386596679687500e+01,-6.857797241210937500e+01,3.956111526489257812e+01,-1.174936771392822266e+01,-1.104283370971679688e+02,-1.231347045898437500e+02,6.312546157836914062e+01,-4.250295639038085938e+01
8.759999871253967285e-01,2.000000000000000000e+00,4.071041488647460938e+01,3.587149620056152344e+00,3.490140914916992188e+01,-1.188388824462890625e+02,9.124656677246093750e+01,-6.860267639160156250e+01,3.949048614501953125e+01,-1.174327468872070312e+01,-1.104380874633789062e+02,-1.231922454833984375e+02,6.312152099609375000e+01,-4.253028869628906250e+01
8.799999952316284180e-01,2.000000000000000000e+00,4.073883438110351562e+01,3.539912223815917969e+00,3.489532852172851562e+01,-1.188927764892578125e+02,9.124928283691406250e+01,-6.862737274169921875e+01,3.941986465454101562e+01,-1.173718261718750000e+01,-1.104478378295898438e+02,-1.232497940063476562e+02,6.311758804321289062e+01,-4.255761337280273438e+01
8.840000033378601074e-01,2.000000000000000000e+00,4.076725387573242188e+01,3.492677450180053711e+00,3.488924407958984375e+01,-1.189466552734375000e+02,9.125198364257812500e+01,-6.865207672119140625e+01,3.934924697875976562e+01,-1.173108959197998047e+01,-1.104575958251953125e+02,-1.233073348999023438e+02,6.311364746093750000e+01,-4.258494186401367188e+01
8.880000114440917969e-01,2.000000000000000000e+00,4.079567718505859375e+01,3.445445299148559570e+00,3.488316345214843750e+01,-1.190005264282226562e+02,9.125469207763671875e+01,-6.867678070068359375e+01,3.927862930297851562e+01,-1.172499847412109375e+01,-1.104673461914062500e+02,-1.233648681640625000e+02,6.310970687866210938e+01,-4.261227035522460938e+01
8.920000195503234863e-01,2.000000000000000000e+00,4.082409286499023438e+01,3.398215770721435547e+00,3.487707901000976562e+01,-1.190544052124023438e+02,9.125740051269531250e+01,-6.870147705078125000e+01,3.920801925659179688e+01,-1.171890640258789062e+01,-1.104771041870117188e+02,-1.234224090576171875e+02,6.310576629638671875e+01,-4.263959503173828125e+01
8.960000276565551758e-01,2.000000000000000000e+00,4.085250473022460938e+01,3.350988864898681641e+00,3.487099838256835938e+01,-1.191082839965820312e+02,9.126010894775390625e+01,-6.872617340087890625e+01,3.913741302490234375e+01,-1.171281623840332031e+01,-1.104868545532226562e+02,-1.234799346923828125e+02,6.310182189941406250e+01,-4.266691589355468750e+01
8.999999761581420898e-01,2.000000000000000000e+00,4.088092422485351562e+01,3.303764343261718750e+00,3.486491775512695312e+01,-1.191621627807617188e+02,9.126280975341796875e+01,-6.875087738037109375e+01,3.906680679321289062e+01,-1.170672512054443359e+01,-1.104966049194335938e+02,-1.235374526977539062e+02,6.309788894653320312e+01,-4.269423675537109375e+01
9.039999842643737793e-01,2.000000000000000000e+00,4.090933227539062500e+01,3.256541967391967773e+00,3.485883331298828125e+01,-1.192160186767578125e+02,9.126551818847656250e+01,-6.877556610107421875e+01,3.899620819091796875e+01,-1.170063400268554688e+01,-1.105063552856445312e+02,-1.235949783325195312e+02,6.309394836425781250e+01,-4.272155761718750000e+01
9.079999923706054688e-01,2.000000000000000000e+00,4.093774795532226562e+01,3.209322452545166016e+00,3.485275650024414062e+01,-1.192698822021484375e+02,9.126822662353515625e+01,-6.880026245117187500e+01,3.892560958862304688e+01,-1.169454383850097656e+01,-1.105161056518554688e+02,-1.236525039672851562e+02,6.309000778198242188e+01,-4.274887466430664062e+01
9.120000004768371582e-01,2.000000000000000000e+00,4.096615600585937500e+01,3.162105083465576172e+00,3.484667205810546875e+01,-1.193237457275390625e+02,9.127092742919921875e+01,-6.882495880126953125e+01,3.885501861572265625e+01,-1.168845462799072266e+01,-1.105258560180664062e+02,-1.237100296020507812e+02,6.308607482910156250e+01,-4.277619171142578125e+01
9.160000085830688477e-01,2.000000000000000000e+00,4.099456405639648438e+01,3.114889860153198242e+00,3.484059524536132812e+01,-1.193776092529296875e+02,9.127363586425781250e+01,-6.884964752197265625e+01,3.878442764282226562e+01,-1.168236541748046875e+01,-1.105356063842773438e+02,-1.237675399780273438e+02,6.308213043212890625e+01,-4.280350875854492188e+01
9.200000166893005371e-01,2.000000000000000000e+00,4.102297210693359375e+01,3.067677259445190430e+00,3.483451461791992188e+01,-1.194314575195312500e+02,9.127634429931640625e+01,-6.887433624267578125e+01,3.871384048461914062e+01,-1.167627620697021484e+01,-1.105453567504882812e+02,-1.238250503540039062e+02,6.307819747924804688e+01,-4.283082199096679688e+01
9.240000247955322266e-01,2.000000000000000000e+00,4.105137634277343750e+01,3.020466804504394531e+00,3.482843399047851562e+01,-1.194853057861328125e+02,9.127904510498046875e+01,-6.889902496337890625e+01,3.864325714111328125e+01,-1.167018699645996094e+01,-1.105550994873046875e+02,-1.238825607299804688e+02,6.307425689697265625e+01,-4.285813140869140625e+01
9.279999732971191406e-01,2.000000000000000000e+00,4.107978057861328125e+01,2.973258733749389648e+00,3.482235336303710938e+01,-1.195391693115234375e+02,9.128175354003906250e+01,-6.892372131347656250e+01,3.857268142700195312e+01,-1.166409778594970703e+01,-1.105648498535156250e+02,-1.239400711059570312e+02,6.307031631469726562e+01,-4.288544464111328125e+01
9.319999814033508301e-01,2.000000000000000000e+00,4.110818481445312500e+01,2.926052570343017578e+00,3.481627655029296875e+01,-1.195930175781250000e+02,9.128446197509765625e+01,-6.894840240478515625e+01,3.850210571289062500e+01,-1.165800952911376953e+01,-1.105745925903320312e+02,-1.239975814819335938e+02,6.306638336181640625e+01,-4.291275405883789062e+01
9.359999895095825195e-01,2.000000000000000000e+00,4.113658905029296875e+01,2.878849029541015625e+00,3.481019592285156250e+01,-1.196468582153320312e+02,9.128716278076171875e+01,-6.897309112548828125e+01,3.843152999877929688e+01,-1.165192222595214844e+01,-1.105843429565429688e+02,-1.240550765991210938e+02,6.306244659423828125e+01,-4.294006347656250000e+01
9.399999976158142090e-01,2.000000000000000000e+00,4.116498565673828125e+01,2.831647157669067383e+00,3.480411911010742188e+01,-1.197007064819335938e+02,9.128987121582031250e+01,-6.899777221679687500e+01,3.836096191406250000e+01,-1.164583396911621094e+01,-1.105940933227539062e+02,-1.241125717163085938e+02,6.305850601196289062e+01,-4.296737289428710938e+01
9.440000057220458984e-01,2.000000000000000000e+00,4.119338607788085938e+01,2.784447908401489258e+00,3.479804229736328125e+01,-1.197545394897460938e+02,9.129257965087890625e+01,-6.902245330810546875e+01,3.829039764404296875e+01,-1.163974666595458984e+01,-1.106038360595703125e+02,-1.241700668334960938e+02,6.305457305908203125e+01,-4.299467849731445312e+01
9.480000138282775879e-01,2.000000000000000000e+00,4.122178268432617188e+01,2.737250804901123047e+00,3.479196166992187500e+01,-1.198083877563476562e+02,9.129528045654296875e+01,-6.904714202880859375e+01,3.821983337402343750e+01,-1.163365936279296875e+01,-1.106135864257812500e+02,-1.242275619506835938e+02,6.305063247680664062e+01,-4.302198410034179688e+01
9.520000219345092773e-01,2.000000000000000000e+00,4.125017929077148438e+01,2.690055847167968750e+00,3.478588485717773438e+01,-1.198622283935546875e+02,9.129798889160156250e+01,-6.907182312011718750e+01,3.814927291870117188e+01,-1.162757205963134766e+01,-1.106233291625976562e+02,-1.242850570678710938e+02,6.304669570922851562e+01,-4.304928588867187500e+01
9.559999704360961914e-01,2.000000000000000000e+00,4.127857589721679688e+01,2.642862558364868164e+00,3.477980804443359375e+01,-1.199160614013671875e+02,9.130068969726562500e+01,-6.909650421142578125e+01,3.807871627807617188e+01,-1.162148475646972656e+01,-1.106330718994140625e+02,-1.243425445556640625e+02,6.304276275634765625e+01,-4.307659149169921875e+01
9.599999785423278809e-01,2.000000000000000000e+00,4.130696868896484375e+01,2.595671653747558594e+00,3.477373123168945312e+01,-1.199698867797851562e+02,9.130339813232421875e+01,-6.912117767333984375e+01,3.800816345214843750e+01,-1.161539840698242188e+01,-1.106428146362304688e+02,-1.244000244140625000e+02,6.303882217407226562e+01,-4.310388946533203125e+01
9.639999866485595703e-01,2.000000000000000000e+00,4.133536148071289062e+01,2.548482656478881836e+00,3.476765441894531250e+01,-1.200237197875976562e+02,9.130609893798828125e+01,-6.914585876464843750e+01,3.793761444091796875e+01,-1.160931301116943359e+01,-1.106525650024414062e+02,-1.244575119018554688e+02,6.303488922119140625e+01,-4.313119506835937500e+01
9.679999947547912598e-01,2.000000000000000000e+00,4.136375427246093750e+01,2.501296043395996094e+00,3.476157760620117188e+01,-1.200775375366210938e+02,9.130880737304687500e+01,-6.917053222656250000e+01,3.786706542968750000e+01,-1.160322666168212891e+01,-1.106623001098632812e+02,-1.245149917602539062e+02,6.303095245361328125e+01,-4.315848922729492188e+01
9.720000028610229492e-01,2.000000000000000000e+00,4.139214324951171875e+01,2.454111099243164062e+00,3.475550079345703125e+01,-1.201313781738281250e+02,9.131150054931640625e+01,-6.919521331787109375e+01,3.779652023315429688e+01,-1.159714031219482422e+01,-1.106720504760742188e+02,-1.245724716186523438e+02,6.302701950073242188e+01,-4.318579101562500000e+01
9.760000109672546387e-01,2.000000000000000000e+00,4.142053222656250000e+01,2.406928062438964844e+00,3.474942398071289062e+01,-1.201851959228515625e+02,9.131420898437500000e+01,-6.921988677978515625e+01,3.772597503662109375e+01,-1.159105491638183594e+01,-1.106817855834960938e+02,-1.246299591064453125e+02,6.302307891845703125e+01,-4.321308898925781250e+01
9.800000190734863281e-01,2.000000000000000000e+00,4.144892120361328125e+01,2.359747171401977539e+00,3.474334716796875000e+01,-1.202390213012695312e+02,9.131690979003906250e+01,-6.924456024169921875e+01,3.765543746948242188e+01,-1.158497047424316406e+01,-1.106915283203125000e+02,-1.246874237060546875e+02,6.301914596557617188e+01,-4.324038314819335938e+01
9.840000271797180176e-01,2.000000000000000000e+00,4.147730636596679688e+01,2.312567949295043945e+00,3.473727416992187500e+01,-1.202928314208984375e+02,9.131961822509765625e+01,-6.926924133300781250e+01,3.758490371704101562e+01,-1.157888507843017578e+01,-1.107012786865234375e+02,-1.247448959350585938e+02,6.301520919799804688e+01,-4.326767730712890625e+01
9.879999756813049316e-01,2.000000000000000000e+00,4.150569534301757812e+01,2.265390872955322266e+00,3.473119735717773438e+01,-1.203466491699218750e+02,9.132231903076171875e+01,-6.929390716552734375e+01,3.751436614990234375e+01,-1.157280063629150391e+01,-1.107110137939453125e+02,-1.248023681640625000e+02,6.301127624511718750e+01,-4.329497146606445312e+01
9.919999837875366211e-01,2.000000000000000000e+00,4.153407669067382812e+01,2.218215703964233398e+00,3.472512435913085938e+01,-1.204004592895507812e+02,9.132502746582031250e+01,-6.931858062744140625e+01,3.744384002685546875e+01,-1.156671524047851562e+01,-1.107207565307617188e+02,-1.248598327636718750e+02,6.300734329223632812e+01,-4.332226562500000000e+01
9.959999918937683105e-01,2.000000000000000000e+00,4.156245803833007812e+01,2.171042203903198242e+00,3.471904754638671875e+01,-1.204542770385742188e+02,9.132772827148437500e+01,-6.934325408935546875e+01,3.737331008911132812e+01,-1.156063175201416016e+01,-1.107304916381835938e+02,-1.249173049926757812e+02,6.300340652465820312e+01,-4.334955596923828125e+01
1.000000000000000000e+00,2.000000000000000000e+00,4.159084320068359375e+01,2.123870849609375000e+00,3.471297073364257812e+01,-1.205080871582031250e+02,9.133042907714843750e+01,-6.936791992187500000e+01,3.730278396606445312e+01,-1.155454730987548828e+01,-1.107402343750000000e+02,-1.249747619628906250e+02,6.299947357177734375e+01,-4.337685012817382812e+01
1.003999948501586914e+00,2.000000000000000000e+00,4.161922073364257812e+01,2.076701164245605469e+00,3.470690155029296875e+01,-1.205618972778320312e+02,9.133312988281250000e+01,-6.939259338378906250e+01,3.723226165771484375e+01,-1.154846382141113281e+01,-1.107499771118164062e+02,-1.250322265625000000e+02,6.299554061889648438e+01,-4.340413665771484375e+01
1.008000016212463379e+00,2.000000000000000000e+00,4.164760589599609375e+01,2.029533386230468750e+00,3.470082473754882812e+01,-1.206156921386718750e+02,9.133583831787109375e+01,-6.941725921630859375e+01,3.716174316406250000e+01,-1.154237937927246094e+01,-1.107597122192382812e+02,-1.250896835327148438e+02,6.299160385131835938e+01,-4.343142318725585938e+01
1.011999964714050293e+00,2.000000000000000000e+00,4.167597961425781250e+01,1.982367396354675293e+00,3.469475173950195312e+01,-1.206695022583007812e+02,9.133854675292968750e+01,-6.944191741943359375e+01,3.709122848510742188e+01,-1.153629589080810547e+01,-1.107694549560546875e+02,-1.251471405029296875e+02,6.298767089843750000e+01,-4.345870971679687500e+01
1.016000032424926758e+00,2.000000000000000000e+00,4.170436096191406250e+01,1.935203552246093750e+00,3.468867492675781250e+01,-1.207233047485351562e+02,9.134123992919921875e+01,-6.946659088134765625e+01,3.702071380615234375e+01,-1.153021335601806641e+01,-1.107791976928710938e+02,-1.252045974731445312e+02,6.298373794555664062e+01,-4.348599624633789062e+01
1.019999980926513672e+00,2.000000000000000000e+00,4.173273468017578125e+01,1.888041257858276367e+00,3.468260574340820312e+01,-1.207770996093750000e+02,9.134394836425781250e+01,-6.949125671386718750e+01,3.695020294189453125e+01,-1.152413082122802734e+01,-1.107889328002929688e+02,-1.252620544433593750e+02,6.297980117797851562e+01,-4.351328659057617188e+01
1.024000048637390137e+00,2.000000000000000000e+00,4.176111221313476562e+01,1.840880751609802246e+00,3.467652893066406250e+01,-1.208308944702148438e+02,9.134664916992187500e+01,-6.951591491699218750e+01,3.687969589233398438e+01,-1.151804733276367188e+01,-1.107986755371093750e+02,-1.253194961547851562e+02,6.297586822509765625e+01,-4.354056930541992188e+01
1.026999950408935547e+00,2.000000000000000000e+00,4.178948593139648438e+01,1.793722152709960938e+00,3.467045593261718750e+01,-1.208846893310546875e+02,9.134935760498046875e+01,-6.954058074951171875e+01,3.680919265747070312e+01,-1.151196575164794922e+01,-1.108084106445312500e+02,-1.253769454956054688e+02,6.297193527221679688e+01,-4.356785202026367188e+01
1.031999945640563965e+00,2.000000000000000000e+00,4.181785964965820312e+01,1.746565461158752441e+00,3.466438674926757812e+01,-1.209384841918945312e+02,9.135205078125000000e+01,-6.956523895263671875e+01,3.673868560791015625e+01,-1.150588321685791016e+01,-1.108181457519531250e+02,-1.254343872070312500e+02,6.296799850463867188e+01,-4.359513092041015625e+01
1.036000013351440430e+00,2.000000000000000000e+00,4.184622955322265625e+01,1.699410319328308105e+00,3.465831375122070312e+01,-1.209922790527343750e+02,9.135475921630859375e+01,-6.958990478515625000e+01,3.666818618774414062e+01,-1.149980163574218750e+01,-1.108278884887695312e+02,-1.254918289184570312e+02,6.296406555175781250e+01,-4.362241363525390625e+01
1.039999961853027344e+00,2.000000000000000000e+00,4.187460327148437500e+01,1.652257084846496582e+00,3.465224075317382812e+01,-1.210460586547851562e+02,9.135746002197265625e+01,-6.961456298828125000e+01,3.659768676757812500e+01,-1.149371910095214844e+01,-1.108376235961914062e+02,-1.255492706298828125e+02,6.296013259887695312e+01,-4.364969253540039062e+01
1.044000029563903809e+00,2.000000000000000000e+00,4.190297317504882812e+01,1.605105638504028320e+00,3.464616775512695312e+01,-1.210998535156250000e+02,9.136016082763671875e+01,-6.963921356201171875e+01,3.652719116210937500e+01,-1.148763847351074219e+01,-1.108473587036132812e+02,-1.256067123413085938e+02,6.295619583129882812e+01,-4.367697525024414062e+01
1.047999978065490723e+00,2.000000000000000000e+00,4.193134307861328125e+01,1.557955980300903320e+00,3.464009857177734375e+01,-1.211536407470703125e+02,9.136286163330078125e+01,-6.966387939453125000e+01,3.645670318603515625e+01,-1.148155784606933594e+01,-1.108570938110351562e+02,-1.256641464233398438e+02,6.295226287841796875e+01,-4.370425033569335938e+01
1.052000045776367188e+00,2.000000000000000000e+00,4.195970916748046875e+01,1.510807991027832031e+00,3.463402557373046875e+01,-1.212074203491210938e+02,9.136556243896484375e+01,-6.968853759765625000e+01,3.638621139526367188e+01,-1.147547626495361328e+01,-1.108668289184570312e+02,-1.257215881347656250e+02,6.294833374023437500e+01,-4.373152542114257812e+01
1.054999947547912598e+00,2.000000000000000000e+00,4.198807525634765625e+01,1.463661670684814453e+00,3.462795257568359375e+01,-1.212611999511718750e+02,9.136827087402343750e+01,-6.971319580078125000e+01,3.631572341918945312e+01,-1.146939563751220703e+01,-1.108765640258789062e+02,-1.257790145874023438e+02,6.294440078735351562e+01,-4.375880432128906250e+01
1.059999942779541016e+00,2.000000000000000000e+00,4.201644134521484375e+01,1.416517138481140137e+00,3.462187957763671875e+01,-1.213149795532226562e+02,9.137097167968750000e+01,-6.973784637451171875e+01,3.624523925781250000e+01,-1.146331501007080078e+01,-1.108862991333007812e+02,-1.258364410400390625e+02,6.294046783447265625e+01,-4.378607940673828125e+01
1.064000010490417480e+00,2.000000000000000000e+00,4.204480743408203125e+01,1.369374394416809082e+00,3.461581420898437500e+01,-1.213687591552734375e+02,9.137367248535156250e+01,-6.976250457763671875e+01,3.617475891113281250e+01,-1.145723438262939453e+01,-1.108960342407226562e+02,-1.258938674926757812e+02,6.293653106689453125e+01,-4.381335067749023438e+01
1.067999958992004395e+00,2.000000000000000000e+00,4.207316970825195312e+01,1.322233319282531738e+00,3.460974121093750000e+01,-1.214225387573242188e+02,9.137637329101562500e+01,-6.978714752197265625e+01,3.610427856445312500e+01,-1.145115470886230469e+01,-1.109057617187500000e+02,-1.259513015747070312e+02,6.293260574340820312e+01,-4.384062576293945312e+01
1.072000026702880859e+00,2.000000000000000000e+00,4.210153579711914062e+01,1.275093793869018555e+00,3.460367202758789062e+01,-1.214763107299804688e+02,9.137907409667968750e+01,-6.981180572509765625e+01,3.603380203247070312e+01,-1.144507408142089844e+01,-1.109155044555664062e+02,-1.260087280273437500e+02,6.292867279052734375e+01,-4.386789703369140625e+01
1.075999975204467773e+00,2.000000000000000000e+00,4.212989425659179688e+01,1.227956056594848633e+00,3.459759902954101562e+01,-1.215300750732421875e+02,9.138177490234375000e+01,-6.983645629882812500e+01,3.596332550048828125e+01,-1.143899440765380859e+01,-1.109252395629882812e+02,-1.260661392211914062e+02,6.292473602294921875e+01,-4.389516830444335938e+01
1.080000042915344238e+00,2.000000000000000000e+00,4.215825653076171875e+01,1.180819988250732422e+00,3.459152984619140625e+01,-1.215838470458984375e+02,9.138447570800781250e+01,-6.986110687255859375e+01,3.589285659790039062e+01,-1.143291568756103516e+01,-1.109349670410156250e+02,-1.261235580444335938e+02,6.292081069946289062e+01,-4.392243576049804688e+01
1.083999991416931152e+00,2.000000000000000000e+00,4.218661499023437500e+01,1.133685588836669922e+00,3.458546066284179688e+01,-1.216376113891601562e+02,9.138718414306640625e+01,-6.988575744628906250e+01,3.582238388061523438e+01,-1.142683601379394531e+01,-1.109447021484375000e+02,-1.261809844970703125e+02,6.291687393188476562e+01,-4.394970703125000000e+01
1.088000059127807617e+00,2.000000000000000000e+00,4.221497344970703125e+01,1.086552858352661133e+00,3.457939147949218750e+01,-1.216913757324218750e+02,9.138987731933593750e+01,-6.991040802001953125e+01,3.575191879272460938e+01,-1.142075729370117188e+01,-1.109544296264648438e+02,-1.262383956909179688e+02,6.291294860839843750e+01,-4.397697448730468750e+01
1.090999960899353027e+00,2.000000000000000000e+00,4.224333572387695312e+01,1.039421677589416504e+00,3.457332229614257812e+01,-1.217451477050781250e+02,9.139258575439453125e+01,-6.993505859375000000e+01,3.568145370483398438e+01,-1.141467761993408203e+01,-1.109641647338867188e+02,-1.262958145141601562e+02,6.290901565551757812e+01,-4.400424194335937500e+01
1.095999956130981445e+00,2.000000000000000000e+00,4.227169036865234375e+01,9.922922253608703613e-01,3.456725311279296875e+01,-1.217989120483398438e+02,9.139527893066406250e+01,-6.995970153808593750e+01,3.561099243164062500e+01,-1.140859889984130859e+01,-1.109738922119140625e+02,-1.263532257080078125e+02,6.290507888793945312e+01,-4.403150939941406250e+01
1.100000023841857910e+00,2.000000000000000000e+00,4.230004501342773438e+01,9.451643824577331543e-01,3.456118392944335938e+01,-1.218526687622070312e+02,9.139798736572265625e+01,-6.998435211181640625e+01,3.554053497314453125e+01,-1.140252113342285156e+01,-1.109836273193359375e+02,-1.264106292724609375e+02,6.290115356445312500e+01,-4.405877304077148438e+01
1.103999972343444824e+00,2.000000000000000000e+00,4.232839965820312500e+01,8.980380892753601074e-01,3.455511474609375000e+01,-1.219064331054687500e+02,9.140068054199218750e+01,-7.000899505615234375e+01,3.547007751464843750e+01,-1.139644336700439453e+01,-1.109933624267578125e+02,-1.264680404663085938e+02,6.289721679687500000e+01,-4.408603668212890625e+01
1.108000040054321289e+00,2.000000000000000000e+00,4.235675430297851562e+01,8.509133458137512207e-01,3.454904556274414062e+01,-1.219601898193359375e+02,9.140338134765625000e+01,-7.003363800048828125e+01,3.539962005615234375e+01,-1.139036464691162109e+01,-1.110030899047851562e+02,-1.265254440307617188e+02,6.289329147338867188e+01,-4.411330413818359375e+01
1.111999988555908203e+00,2.000000000000000000e+00,4.238510894775390625e+01,8.037902116775512695e-01,3.454298019409179688e+01,-1.220139389038085938e+02,9.140608978271484375e+01,-7.005828094482421875e+01,3.532916641235351562e+01,-1.138428688049316406e+01,-1.110128250122070312e+02,-1.265828475952148438e+02,6.288935852050781250e+01,-4.414056777954101562e+01
