rpiRobotics/ARM-21-02-F-19-Robot-Motion-Program/data_performance_abb/curve_2/dual_arm/diffevo_pose6_3/30L/grad_result/sim/dual_iteration_1.csv
timestamp,cmd_num,J1,J2,J3,J4,J5,J6,J1_2,J2_2,J3_2,J4_2,J5_2,J6_2
0.000000000000000000e+00,-1.000000000000000000e+00,3.541399002075195312e+01,1.200967121124267578e+01,3.633749389648437500e+01,-1.092045745849609375e+02,9.069828033447265625e+01,-6.410494232177734375e+01,5.206952285766601562e+01,-1.204180908203125000e+01,-1.102147903442382812e+02,-1.118343582153320312e+02,6.377708435058593750e+01,-3.836444473266601562e+01
2.000000094994902611e-03,-1.000000000000000000e+00,3.541399002075195312e+01,1.200967121124267578e+01,3.633749389648437500e+01,-1.092045745849609375e+02,9.069828033447265625e+01,-6.410494232177734375e+01,5.206952285766601562e+01,-1.204180908203125000e+01,-1.102147903442382812e+02,-1.118343582153320312e+02,6.377708435058593750e+01,-3.836444473266601562e+01
6.000000052154064178e-03,-1.000000000000000000e+00,3.541399002075195312e+01,1.200967121124267578e+01,3.633749389648437500e+01,-1.092045745849609375e+02,9.069828033447265625e+01,-6.410494232177734375e+01,5.206952285766601562e+01,-1.204180908203125000e+01,-1.102147903442382812e+02,-1.118343582153320312e+02,6.377708435058593750e+01,-3.836444473266601562e+01
8.000000379979610443e-03,-1.000000000000000000e+00,3.541399002075195312e+01,1.200967121124267578e+01,3.633749389648437500e+01,-1.092045745849609375e+02,9.069828033447265625e+01,-6.410494232177734375e+01,5.206952285766601562e+01,-1.204180908203125000e+01,-1.102147903442382812e+02,-1.118343582153320312e+02,6.377708435058593750e+01,-3.836444473266601562e+01
1.099999994039535522e-02,-1.000000000000000000e+00,3.541399002075195312e+01,1.200967121124267578e+01,3.633749389648437500e+01,-1.092045745849609375e+02,9.069828033447265625e+01,-6.410494232177734375e+01,5.206952285766601562e+01,-1.204180908203125000e+01,-1.102147903442382812e+02,-1.118343582153320312e+02,6.377708435058593750e+01,-3.836444473266601562e+01
1.600000075995922089e-02,-1.000000000000000000e+00,3.541399002075195312e+01,1.200967121124267578e+01,3.633749389648437500e+01,-1.092045745849609375e+02,9.069828033447265625e+01,-6.410494232177734375e+01,5.206952285766601562e+01,-1.204180908203125000e+01,-1.102147903442382812e+02,-1.118343582153320312e+02,6.377708435058593750e+01,-3.836444473266601562e+01
1.999999955296516418e-02,-1.000000000000000000e+00,3.541399002075195312e+01,1.200967121124267578e+01,3.633749389648437500e+01,-1.092045745849609375e+02,9.069828033447265625e+01,-6.410494232177734375e+01,5.206952285766601562e+01,-1.204180908203125000e+01,-1.102147903442382812e+02,-1.118343582153320312e+02,6.377708435058593750e+01,-3.836444473266601562e+01
2.400000020861625671e-02,-1.000000000000000000e+00,3.541399002075195312e+01,1.200967121124267578e+01,3.633749389648437500e+01,-1.092045745849609375e+02,9.069828033447265625e+01,-6.410494232177734375e+01,5.206952285766601562e+01,-1.204180908203125000e+01,-1.102147903442382812e+02,-1.118343582153320312e+02,6.377708435058593750e+01,-3.836444473266601562e+01
2.800000086426734924e-02,-1.000000000000000000e+00,3.541399002075195312e+01,1.200967121124267578e+01,3.633749389648437500e+01,-1.092045745849609375e+02,9.069828033447265625e+01,-6.410494232177734375e+01,5.206952285766601562e+01,-1.204180908203125000e+01,-1.102147903442382812e+02,-1.118343582153320312e+02,6.377708435058593750e+01,-3.836444473266601562e+01
3.200000151991844177e-02,2.000000000000000000e+00,3.541399002075195312e+01,1.200967121124267578e+01,3.633749389648437500e+01,-1.092045745849609375e+02,9.069828033447265625e+01,-6.410494232177734375e+01,5.206952285766601562e+01,-1.204180908203125000e+01,-1.102147903442382812e+02,-1.118343582153320312e+02,6.377708435058593750e+01,-3.836444473266601562e+01
3.599999845027923584e-02,2.000000000000000000e+00,3.541399002075195312e+01,1.200967121124267578e+01,3.633749389648437500e+01,-1.092045745849609375e+02,9.069828033447265625e+01,-6.410494232177734375e+01,5.206952285766601562e+01,-1.204180908203125000e+01,-1.102147903442382812e+02,-1.118343582153320312e+02,6.377708435058593750e+01,-3.836444473266601562e+01
4.199999943375587463e-02,2.000000000000000000e+00,3.541399002075195312e+01,1.200967121124267578e+01,3.633749389648437500e+01,-1.092045745849609375e+02,9.069828033447265625e+01,-6.410494232177734375e+01,5.206952285766601562e+01,-1.204180908203125000e+01,-1.102147903442382812e+02,-1.118343582153320312e+02,6.377708435058593750e+01,-3.836444473266601562e+01
4.399999976158142090e-02,2.000000000000000000e+00,3.541399002075195312e+01,1.200967121124267578e+01,3.633749389648437500e+01,-1.092045745849609375e+02,9.069828033447265625e+01,-6.410494232177734375e+01,5.206952285766601562e+01,-1.204180908203125000e+01,-1.102147903442382812e+02,-1.118343582153320312e+02,6.377708435058593750e+01,-3.836444473266601562e+01
4.800000041723251343e-02,2.000000000000000000e+00,3.541399002075195312e+01,1.200967121124267578e+01,3.633749389648437500e+01,-1.092045745849609375e+02,9.069828033447265625e+01,-6.410494232177734375e+01,5.206952285766601562e+01,-1.204180908203125000e+01,-1.102147903442382812e+02,-1.118343582153320312e+02,6.377708435058593750e+01,-3.836444473266601562e+01
5.200000107288360596e-02,2.000000000000000000e+00,3.541399002075195312e+01,1.200967121124267578e+01,3.633749389648437500e+01,-1.092045745849609375e+02,9.069828033447265625e+01,-6.410494232177734375e+01,5.206952285766601562e+01,-1.204180908203125000e+01,-1.102147903442382812e+02,-1.118343582153320312e+02,6.377708435058593750e+01,-3.836444473266601562e+01
5.600000172853469849e-02,2.000000000000000000e+00,3.541399002075195312e+01,1.200967121124267578e+01,3.633749389648437500e+01,-1.092045745849609375e+02,9.069828033447265625e+01,-6.410494232177734375e+01,5.206952285766601562e+01,-1.204180908203125000e+01,-1.102147903442382812e+02,-1.118343582153320312e+02,6.377708435058593750e+01,-3.836444473266601562e+01
5.999999865889549255e-02,2.000000000000000000e+00,3.541399002075195312e+01,1.200967121124267578e+01,3.633749389648437500e+01,-1.092045745849609375e+02,9.069828033447265625e+01,-6.410494232177734375e+01,5.206952285766601562e+01,-1.204180908203125000e+01,-1.102147903442382812e+02,-1.118343582153320312e+02,6.377708435058593750e+01,-3.836444473266601562e+01
6.400000303983688354e-02,2.000000000000000000e+00,3.541399002075195312e+01,1.200967121124267578e+01,3.633749389648437500e+01,-1.092045745849609375e+02,9.069828033447265625e+01,-6.410494232177734375e+01,5.206952285766601562e+01,-1.204180908203125000e+01,-1.102147903442382812e+02,-1.118343582153320312e+02,6.377708435058593750e+01,-3.836444473266601562e+01
6.800000369548797607e-02,2.000000000000000000e+00,3.541399002075195312e+01,1.200967121124267578e+01,3.633749389648437500e+01,-1.092045745849609375e+02,9.069828033447265625e+01,-6.410494232177734375e+01,5.206952285766601562e+01,-1.204180908203125000e+01,-1.102147903442382812e+02,-1.118343582153320312e+02,6.377708435058593750e+01,-3.836444473266601562e+01
7.199999690055847168e-02,2.000000000000000000e+00,3.541399002075195312e+01,1.200967121124267578e+01,3.633749389648437500e+01,-1.092045745849609375e+02,9.069828033447265625e+01,-6.410494232177734375e+01,5.206952285766601562e+01,-1.204180908203125000e+01,-1.102147903442382812e+02,-1.118343582153320312e+02,6.377708435058593750e+01,-3.836444473266601562e+01
7.599999755620956421e-02,2.000000000000000000e+00,3.541402053833007812e+01,1.200964736938476562e+01,3.633749389648437500e+01,-1.092045745849609375e+02,9.069828033447265625e+01,-6.410494232177734375e+01,5.206952285766601562e+01,-1.204180908203125000e+01,-1.102147903442382812e+02,-1.118343582153320312e+02,6.377708435058593750e+01,-3.836444473266601562e+01
7.999999821186065674e-02,2.000000000000000000e+00,3.541420364379882812e+01,1.200950145721435547e+01,3.633749771118164062e+01,-1.092045822143554688e+02,9.069828796386718750e+01,-6.410494232177734375e+01,5.206952285766601562e+01,-1.204180908203125000e+01,-1.102147903442382812e+02,-1.118343582153320312e+02,6.377708435058593750e+01,-3.836444473266601562e+01
8.399999886751174927e-02,2.000000000000000000e+00,3.541473770141601562e+01,1.200904941558837891e+01,3.633750915527343750e+01,-1.092046203613281250e+02,9.069831085205078125e+01,-6.410494995117187500e+01,5.206952285766601562e+01,-1.204180908203125000e+01,-1.102147903442382812e+02,-1.118343582153320312e+02,6.377708435058593750e+01,-3.836444473266601562e+01
8.799999952316284180e-02,2.000000000000000000e+00,3.541581344604492188e+01,1.200808525085449219e+01,3.633752059936523438e+01,-1.092047195434570312e+02,9.069834136962890625e+01,-6.410498809814453125e+01,5.206949234008789062e+01,-1.204181194305419922e+01,-1.102147827148437500e+02,-1.118343658447265625e+02,6.377708435058593750e+01,-3.836444473266601562e+01
9.200000017881393433e-02,2.000000000000000000e+00,3.541751098632812500e+01,1.200644302368164062e+01,3.633753967285156250e+01,-1.092049484252929688e+02,9.069841003417968750e+01,-6.410507965087890625e+01,5.206929016113281250e+01,-1.204183578491210938e+01,-1.102147369384765625e+02,-1.118343734741210938e+02,6.377708435058593750e+01,-3.836444854736328125e+01
9.600000083446502686e-02,2.000000000000000000e+00,3.541985702514648438e+01,1.200399684906005859e+01,3.633754348754882812e+01,-1.092054367065429688e+02,9.069851684570312500e+01,-6.410527038574218750e+01,5.206863021850585938e+01,-1.204190826416015625e+01,-1.102145843505859375e+02,-1.118344421386718750e+02,6.377706909179687500e+01,-3.836446762084960938e+01
1.000000014901161194e-01,2.000000000000000000e+00,3.542287063598632812e+01,1.200061416625976562e+01,3.633751678466796875e+01,-1.092063140869140625e+02,9.069865417480468750e+01,-6.410563659667968750e+01,5.206713104248046875e+01,-1.204205799102783203e+01,-1.102142715454101562e+02,-1.118346328735351562e+02,6.377703475952148438e+01,-3.836454010009765625e+01
1.040000021457672119e-01,2.000000000000000000e+00,3.542657470703125000e+01,1.199613475799560547e+01,3.633744049072265625e+01,-1.092077789306640625e+02,9.069884490966796875e+01,-6.410625457763671875e+01,5.206443405151367188e+01,-1.204229927062988281e+01,-1.102137680053710938e+02,-1.118351058959960938e+02,6.377697372436523438e+01,-3.836473083496093750e+01
1.080000028014183044e-01,2.000000000000000000e+00,3.543100357055664062e+01,1.199036693572998047e+01,3.633727645874023438e+01,-1.092100753784179688e+02,9.069910430908203125e+01,-6.410725402832031250e+01,5.206020355224609375e+01,-1.204261875152587891e+01,-1.102130813598632812e+02,-1.118361129760742188e+02,6.377686309814453125e+01,-3.836513137817382812e+01
1.120000034570693970e-01,2.000000000000000000e+00,3.543622207641601562e+01,1.198308086395263672e+01,3.633699798583984375e+01,-1.092134704589843750e+02,9.069944000244140625e+01,-6.410874938964843750e+01,5.205406951904296875e+01,-1.204298591613769531e+01,-1.102122650146484375e+02,-1.118379745483398438e+02,6.377668762207031250e+01,-3.836590194702148438e+01
1.159999966621398926e-01,2.000000000000000000e+00,3.544241333007812500e+01,1.197400665283203125e+01,3.633656692504882812e+01,-1.092182922363281250e+02,9.069986724853515625e+01,-6.411088562011718750e+01,5.204568481445312500e+01,-1.204335117340087891e+01,-1.102113952636718750e+02,-1.118411254882812500e+02,6.377642059326171875e+01,-3.836721038818359375e+01
1.199999973177909851e-01,2.000000000000000000e+00,3.544978713989257812e+01,1.196283054351806641e+01,3.633592987060546875e+01,-1.092248992919921875e+02,9.070040130615234375e+01,-6.411383056640625000e+01,5.203475189208984375e+01,-1.204363536834716797e+01,-1.102106246948242188e+02,-1.118460540771484375e+02,6.377603149414062500e+01,-3.836928558349609375e+01
1.239999979734420776e-01,2.000000000000000000e+00,3.545853424072265625e+01,1.194930362701416016e+01,3.633504486083984375e+01,-1.092336883544921875e+02,9.070105743408203125e+01,-6.411777496337890625e+01,5.202094268798828125e+01,-1.204375743865966797e+01,-1.102100830078125000e+02,-1.118533020019531250e+02,6.377549362182617188e+01,-3.837235641479492188e+01
1.280000060796737671e-01,2.000000000000000000e+00,3.546861648559570312e+01,1.193343639373779297e+01,3.633385086059570312e+01,-1.092450637817382812e+02,9.070185089111328125e+01,-6.412289428710937500e+01,5.200382232666015625e+01,-1.204364395141601562e+01,-1.102099075317382812e+02,-1.118634338378906250e+02,6.377476882934570312e+01,-3.837666320800781250e+01
1.309999972581863403e-01,2.000000000000000000e+00,3.547983169555664062e+01,1.191551876068115234e+01,3.633227539062500000e+01,-1.092594528198242188e+02,9.070276641845703125e+01,-6.412940216064453125e+01,5.198279190063476562e+01,-1.204323959350585938e+01,-1.102101745605468750e+02,-1.118770065307617188e+02,6.377382659912109375e+01,-3.838245010375976562e+01
1.360000073909759521e-01,2.000000000000000000e+00,3.549195480346679688e+01,1.189588165283203125e+01,3.633025360107421875e+01,-1.092771911621093750e+02,9.070381164550781250e+01,-6.413746643066406250e+01,5.195731735229492188e+01,-1.204249095916748047e+01,-1.102109832763671875e+02,-1.118945693969726562e+02,6.377263641357421875e+01,-3.838995742797851562e+01
1.389999985694885254e-01,2.000000000000000000e+00,3.550489807128906250e+01,1.187465190887451172e+01,3.632774353027343750e+01,-1.092985687255859375e+02,9.070497131347656250e+01,-6.414721679687500000e+01,5.192718124389648438e+01,-1.204130554199218750e+01,-1.102125015258789062e+02,-1.119166488647460938e+02,6.377116775512695312e+01,-3.839941024780273438e+01
1.439999938011169434e-01,2.000000000000000000e+00,3.551870346069335938e+01,1.185177803039550781e+01,3.632471847534179688e+01,-1.093237686157226562e+02,9.070626831054687500e+01,-6.415873718261718750e+01,5.189257431030273438e+01,-1.203955841064453125e+01,-1.102149429321289062e+02,-1.119436645507812500e+02,6.376939773559570312e+01,-3.841099548339843750e+01
1.480000019073486328e-01,2.000000000000000000e+00,3.553343963623046875e+01,1.182715892791748047e+01,3.632117462158203125e+01,-1.093528518676757812e+02,9.070768737792968750e+01,-6.417206573486328125e+01,5.185390472412109375e+01,-1.203713321685791016e+01,-1.102185745239257812e+02,-1.119759216308593750e+02,6.376733779907226562e+01,-3.842485046386718750e+01
1.519999951124191284e-01,2.000000000000000000e+00,3.554921722412109375e+01,1.180064010620117188e+01,3.631711959838867188e+01,-1.093857498168945312e+02,9.070924377441406250e+01,-6.418715667724609375e+01,5.181153488159179688e+01,-1.203396320343017578e+01,-1.102234954833984375e+02,-1.120134887695312500e+02,6.376496124267578125e+01,-3.844101715087890625e+01
1.560000032186508179e-01,2.000000000000000000e+00,3.556616592407226562e+01,1.177201843261718750e+01,3.631259155273437500e+01,-1.094223098754882812e+02,9.071094512939453125e+01,-6.420393371582031250e+01,5.176580810546875000e+01,-1.203004837036132812e+01,-1.102297439575195312e+02,-1.120562057495117188e+02,6.376229476928710938e+01,-3.845941543579101562e+01
1.599999964237213135e-01,2.000000000000000000e+00,3.558436203002929688e+01,1.174117183685302734e+01,3.630762481689453125e+01,-1.094622802734375000e+02,9.071278381347656250e+01,-6.422229766845703125e+01,5.171706390380859375e+01,-1.202544021606445312e+01,-1.102372283935546875e+02,-1.121036605834960938e+02,6.375937271118164062e+01,-3.847986984252929688e+01
1.640000045299530029e-01,2.000000000000000000e+00,3.560374069213867188e+01,1.170818424224853516e+01,3.630226135253906250e+01,-1.095053634643554688e+02,9.071475219726562500e+01,-6.424208068847656250e+01,5.166538619995117188e+01,-1.202028179168701172e+01,-1.102456893920898438e+02,-1.121551742553710938e+02,6.375620269775390625e+01,-3.850208663940429688e+01
1.679999977350234985e-01,2.000000000000000000e+00,3.562408828735351562e+01,1.167331981658935547e+01,3.629655075073242188e+01,-1.095511932373046875e+02,9.071684265136718750e+01,-6.426313781738281250e+01,5.161049652099609375e+01,-1.201479434967041016e+01,-1.102547073364257812e+02,-1.122099609375000000e+02,6.375284194946289062e+01,-3.852571487426757812e+01
1.720000058412551880e-01,2.000000000000000000e+00,3.564516448974609375e+01,1.163685226440429688e+01,3.629053878784179688e+01,-1.095993804931640625e+02,9.071903228759765625e+01,-6.428527832031250000e+01,5.155208587646484375e+01,-1.200921154022216797e+01,-1.102638397216796875e+02,-1.122671813964843750e+02,6.374930572509765625e+01,-3.855037689208984375e+01
1.759999990463256836e-01,2.000000000000000000e+00,3.566689300537109375e+01,1.159886837005615234e+01,3.628428268432617188e+01,-1.096494979858398438e+02,9.072131347656250000e+01,-6.430830383300781250e+01,5.149024963378906250e+01,-1.200370025634765625e+01,-1.102727737426757812e+02,-1.123260421752929688e+02,6.374565124511718750e+01,-3.857573699951171875e+01
1.800000071525573730e-01,2.000000000000000000e+00,3.568942642211914062e+01,1.155925941467285156e+01,3.627785873413085938e+01,-1.097011260986328125e+02,9.072367858886718750e+01,-6.433201599121093750e+01,5.142547988891601562e+01,-1.199833869934082031e+01,-1.102813796997070312e+02,-1.123859176635742188e+02,6.374190139770507812e+01,-3.860151290893554688e+01
1.840000003576278687e-01,2.000000000000000000e+00,3.571298599243164062e+01,1.151790428161621094e+01,3.627131271362304688e+01,-1.097538604736328125e+02,9.072611999511718750e+01,-6.435622406005859375e+01,5.135836029052734375e+01,-1.199315929412841797e+01,-1.102895889282226562e+02,-1.124463424682617188e+02,6.373809051513671875e+01,-3.862751770019531250e+01
1.879999935626983643e-01,2.000000000000000000e+00,3.573768615722656250e+01,1.147484111785888672e+01,3.626471328735351562e+01,-1.098073577880859375e+02,9.072864532470703125e+01,-6.438076019287109375e+01,5.128951644897460938e+01,-1.198814582824707031e+01,-1.102974548339843750e+02,-1.125070114135742188e+02,6.373424530029296875e+01,-3.865361022949218750e+01
1.920000016689300537e-01,2.000000000000000000e+00,3.576351547241210938e+01,1.143024539947509766e+01,3.625808334350585938e+01,-1.098613052368164062e+02,9.073123931884765625e+01,-6.440549468994140625e+01,5.121962738037109375e+01,-1.198324584960937500e+01,-1.103050765991210938e+02,-1.125677795410156250e+02,6.373038482666015625e+01,-3.867974090576171875e+01
1.959999948740005493e-01,2.000000000000000000e+00,3.579041290283203125e+01,1.138435173034667969e+01,3.625145721435546875e+01,-1.099155273437500000e+02,9.073387908935546875e+01,-6.443033599853515625e+01,5.114928817749023438e+01,-1.197840023040771484e+01,-1.103125915527343750e+02,-1.126285781860351562e+02,6.372651290893554688e+01,-3.870587539672851562e+01
2.000000029802322388e-01,2.000000000000000000e+00,3.581823348999023438e+01,1.133747673034667969e+01,3.624483871459960938e+01,-1.099698638916015625e+02,9.073656463623046875e+01,-6.445521545410156250e+01,5.107884979248046875e+01,-1.197356796264648438e+01,-1.103200759887695312e+02,-1.126893615722656250e+02,6.372264099121093750e+01,-3.873200607299804688e+01
2.039999961853027344e-01,2.000000000000000000e+00,3.584666442871093750e+01,1.129001522064208984e+01,3.623823547363281250e+01,-1.100242462158203125e+02,9.073926544189453125e+01,-6.448011779785156250e+01,5.100841522216796875e+01,-1.196873664855957031e+01,-1.103275604248046875e+02,-1.127501449584960938e+02,6.371877288818359375e+01,-3.875813293457031250e+01
2.080000042915344238e-01,2.000000000000000000e+00,3.587537002563476562e+01,1.124232006072998047e+01,3.623163223266601562e+01,-1.100786437988281250e+02,9.074198150634765625e+01,-6.450501251220703125e+01,5.093798446655273438e+01,-1.196390724182128906e+01,-1.103350448608398438e+02,-1.128109130859375000e+02,6.371490097045898438e+01,-3.878425979614257812e+01
2.119999974966049194e-01,2.000000000000000000e+00,3.590413665771484375e+01,1.119457817077636719e+01,3.622503662109375000e+01,-1.101330337524414062e+02,9.074469757080078125e+01,-6.452989959716796875e+01,5.086756134033203125e+01,-1.195907783508300781e+01,-1.103425216674804688e+02,-1.128716812133789062e+02,6.371103668212890625e+01,-3.881038284301757812e+01
2.160000056028366089e-01,2.000000000000000000e+00,3.593290328979492188e+01,1.114684009552001953e+01,3.621843719482421875e+01,-1.101874237060546875e+02,9.074742126464843750e+01,-6.455479431152343750e+01,5.079714965820312500e+01,-1.195424747467041016e+01,-1.103500061035156250e+02,-1.129324417114257812e+02,6.370716094970703125e+01,-3.883650207519531250e+01
2.199999988079071045e-01,2.000000000000000000e+00,3.596166229248046875e+01,1.109910583496093750e+01,3.621184158325195312e+01,-1.102417984008789062e+02,9.075013732910156250e+01,-6.457968902587890625e+01,5.072674179077148438e+01,-1.194941997528076172e+01,-1.103574829101562500e+02,-1.129931945800781250e+02,6.370329666137695312e+01,-3.886261749267578125e+01
2.240000069141387939e-01,2.000000000000000000e+00,3.599042129516601562e+01,1.105137729644775391e+01,3.620524597167968750e+01,-1.102961730957031250e+02,9.075284576416015625e+01,-6.460456848144531250e+01,5.065634536743164062e+01,-1.194459152221679688e+01,-1.103649597167968750e+02,-1.130539321899414062e+02,6.369942474365234375e+01,-3.888873291015625000e+01
2.280000001192092896e-01,2.000000000000000000e+00,3.601917648315429688e+01,1.100365543365478516e+01,3.619864654541015625e+01,-1.103505325317382812e+02,9.075556945800781250e+01,-6.462944793701171875e+01,5.058595657348632812e+01,-1.193976306915283203e+01,-1.103724365234375000e+02,-1.131146774291992188e+02,6.369555664062500000e+01,-3.891484451293945312e+01
2.319999933242797852e-01,2.000000000000000000e+00,3.604793167114257812e+01,1.095593643188476562e+01,3.619205093383789062e+01,-1.104048919677734375e+02,9.075827789306640625e+01,-6.465433502197265625e+01,5.051557540893554688e+01,-1.193493652343750000e+01,-1.103799133300781250e+02,-1.131754074096679688e+02,6.369169235229492188e+01,-3.894095230102539062e+01
2.360000014305114746e-01,2.000000000000000000e+00,3.607667922973632812e+01,1.090822505950927734e+01,3.618546295166015625e+01,-1.104592514038085938e+02,9.076099395751953125e+01,-6.467920684814453125e+01,5.044519805908203125e+01,-1.193010997772216797e+01,-1.103873901367187500e+02,-1.132361373901367188e+02,6.368782806396484375e+01,-3.896705627441406250e+01
2.399999946355819702e-01,2.000000000000000000e+00,3.610543060302734375e+01,1.086051654815673828e+01,3.617886734008789062e+01,-1.105135955810546875e+02,9.076371002197265625e+01,-6.470408630371093750e+01,5.037483215332031250e+01,-1.192528438568115234e+01,-1.103948669433593750e+02,-1.132968521118164062e+02,6.368395996093750000e+01,-3.899315643310546875e+01
2.440000027418136597e-01,2.000000000000000000e+00,3.613417434692382812e+01,1.081281471252441406e+01,3.617227172851562500e+01,-1.105679397583007812e+02,9.076642608642578125e+01,-6.472895812988281250e+01,5.030447006225585938e+01,-1.192045879364013672e+01,-1.104023361206054688e+02,-1.133575668334960938e+02,6.368009567260742188e+01,-3.901926040649414062e+01
2.479999959468841553e-01,2.000000000000000000e+00,3.616291046142578125e+01,1.076511764526367188e+01,3.616567993164062500e+01,-1.106222763061523438e+02,9.076913452148437500e+01,-6.475382995605468750e+01,5.023411941528320312e+01,-1.191563415527343750e+01,-1.104098129272460938e+02,-1.134182739257812500e+02,6.367622756958007812e+01,-3.904535293579101562e+01
2.520000040531158447e-01,2.000000000000000000e+00,3.619165039062500000e+01,1.071742630004882812e+01,3.615909194946289062e+01,-1.106766052246093750e+02,9.077185821533203125e+01,-6.477869415283203125e+01,5.016377639770507812e+01,-1.191080951690673828e+01,-1.104172821044921875e+02,-1.134789733886718750e+02,6.367236328125000000e+01,-3.907144927978515625e+01
2.560000121593475342e-01,2.000000000000000000e+00,3.622038269042968750e+01,1.066973876953125000e+01,3.615250015258789062e+01,-1.107309341430664062e+02,9.077456665039062500e+01,-6.480355834960937500e+01,5.009343719482421875e+01,-1.190598583221435547e+01,-1.104247589111328125e+02,-1.135396652221679688e+02,6.366849517822265625e+01,-3.909754180908203125e+01
2.599999904632568359e-01,2.000000000000000000e+00,3.624911499023437500e+01,1.062205696105957031e+01,3.614591217041015625e+01,-1.107852554321289062e+02,9.077728271484375000e+01,-6.482842254638671875e+01,5.002310943603515625e+01,-1.190116214752197266e+01,-1.104322280883789062e+02,-1.136003494262695312e+02,6.366463088989257812e+01,-3.912362670898437500e+01
2.639999985694885254e-01,2.000000000000000000e+00,3.627784347534179688e+01,1.057437992095947266e+01,3.613932037353515625e+01,-1.108395690917968750e+02,9.077999114990234375e+01,-6.485327911376953125e+01,4.995278930664062500e+01,-1.189633941650390625e+01,-1.104396972656250000e+02,-1.136610260009765625e+02,6.366076660156250000e+01,-3.914971160888671875e+01
2.680000066757202148e-01,2.000000000000000000e+00,3.630657196044921875e+01,1.052670860290527344e+01,3.613273239135742188e+01,-1.108938751220703125e+02,9.078270721435546875e+01,-6.487813568115234375e+01,4.988247299194335938e+01,-1.189151763916015625e+01,-1.104471664428710938e+02,-1.137217025756835938e+02,6.365690612792968750e+01,-3.917579650878906250e+01
2.720000147819519043e-01,2.000000000000000000e+00,3.633529281616210938e+01,1.047904205322265625e+01,3.612614440917968750e+01,-1.109481735229492188e+02,9.078542327880859375e+01,-6.490298461914062500e+01,4.981216812133789062e+01,-1.188669490814208984e+01,-1.104546356201171875e+02,-1.137823638916015625e+02,6.365304183959960938e+01,-3.920187377929687500e+01
2.759999930858612061e-01,2.000000000000000000e+00,3.636401367187500000e+01,1.043138027191162109e+01,3.611955642700195312e+01,-1.110024719238281250e+02,9.078813171386718750e+01,-6.492784118652343750e+01,4.974186706542968750e+01,-1.188187408447265625e+01,-1.104621047973632812e+02,-1.138430252075195312e+02,6.364918136596679688e+01,-3.922795104980468750e+01
2.800000011920928955e-01,2.000000000000000000e+00,3.639272689819335938e+01,1.038372421264648438e+01,3.611297225952148438e+01,-1.110567626953125000e+02,9.079084014892578125e+01,-6.495269012451171875e+01,4.967157363891601562e+01,-1.187705326080322266e+01,-1.104695663452148438e+02,-1.139036865234375000e+02,6.364531707763671875e+01,-3.925402832031250000e+01
2.840000092983245850e-01,2.000000000000000000e+00,3.642144012451171875e+01,1.033607292175292969e+01,3.610638427734375000e+01,-1.111110458374023438e+02,9.079355621337890625e+01,-6.497753906250000000e+01,4.960129165649414062e+01,-1.187223243713378906e+01,-1.104770355224609375e+02,-1.139643325805664062e+02,6.364145660400390625e+01,-3.928010177612304688e+01
2.879999876022338867e-01,2.000000000000000000e+00,3.645015335083007812e+01,1.028842544555664062e+01,3.609980010986328125e+01,-1.111653289794921875e+02,9.079626464843750000e+01,-6.500238037109375000e+01,4.953101348876953125e+01,-1.186741256713867188e+01,-1.104844970703125000e+02,-1.140249710083007812e+02,6.363759231567382812e+01,-3.930616760253906250e+01
2.919999957084655762e-01,2.000000000000000000e+00,3.647885894775390625e+01,1.024078369140625000e+01,3.609321594238281250e+01,-1.112195968627929688e+02,9.079898071289062500e+01,-6.502722167968750000e+01,4.946074295043945312e+01,-1.186259365081787109e+01,-1.104919662475585938e+02,-1.140856094360351562e+02,6.363373184204101562e+01,-3.933223724365234375e+01
2.960000038146972656e-01,2.000000000000000000e+00,3.650756454467773438e+01,1.019314670562744141e+01,3.608663177490234375e+01,-1.112738723754882812e+02,9.080168914794921875e+01,-6.505205535888671875e+01,4.939048004150390625e+01,-1.185777473449707031e+01,-1.104994277954101562e+02,-1.141462402343750000e+02,6.362987136840820312e+01,-3.935829925537109375e+01
3.000000119209289551e-01,2.000000000000000000e+00,3.653626251220703125e+01,1.014551448822021484e+01,3.608004760742187500e+01,-1.113281326293945312e+02,9.080439758300781250e+01,-6.507689666748046875e+01,4.932022094726562500e+01,-1.185295581817626953e+01,-1.105068969726562500e+02,-1.142068634033203125e+02,6.362600708007812500e+01,-3.938436126708984375e+01
3.039999902248382568e-01,2.000000000000000000e+00,3.656496047973632812e+01,1.009788703918457031e+01,3.607346725463867188e+01,-1.113823928833007812e+02,9.080710601806640625e+01,-6.510172271728515625e+01,4.924997329711914062e+01,-1.184813785552978516e+01,-1.105143508911132812e+02,-1.142674789428710938e+02,6.362214660644531250e+01,-3.941041946411132812e+01
3.079999983310699463e-01,2.000000000000000000e+00,3.659365844726562500e+01,1.005026435852050781e+01,3.606688690185546875e+01,-1.114366378784179688e+02,9.080981445312500000e+01,-6.512655639648437500e+01,4.917973327636718750e+01,-1.184332084655761719e+01,-1.105218200683593750e+02,-1.143280944824218750e+02,6.361828994750976562e+01,-3.943647384643554688e+01
3.120000064373016357e-01,2.000000000000000000e+00,3.662235260009765625e+01,1.000264644622802734e+01,3.606030654907226562e+01,-1.114908828735351562e+02,9.081253051757812500e+01,-6.515138244628906250e+01,4.910949707031250000e+01,-1.183850383758544922e+01,-1.105292816162109375e+02,-1.143886947631835938e+02,6.361442947387695312e+01,-3.946252822875976562e+01
3.160000145435333252e-01,2.000000000000000000e+00,3.665104293823242188e+01,9.955033302307128906e+00,3.605372238159179688e+01,-1.115451278686523438e+02,9.081523132324218750e+01,-6.517621612548828125e+01,4.903926849365234375e+01,-1.183368778228759766e+01,-1.105367355346679688e+02,-1.144492950439453125e+02,6.361056900024414062e+01,-3.948857879638671875e+01
3.199999928474426270e-01,2.000000000000000000e+00,3.667972946166992188e+01,9.907424926757812500e+00,3.604714202880859375e+01,-1.115993652343750000e+02,9.081794738769531250e+01,-6.520103454589843750e+01,4.896904754638671875e+01,-1.182887172698974609e+01,-1.105442047119140625e+02,-1.145098876953125000e+02,6.360671234130859375e+01,-3.951462936401367188e+01
3.240000009536743164e-01,2.000000000000000000e+00,3.670841217041015625e+01,9.859822273254394531e+00,3.604056549072265625e+01,-1.116535949707031250e+02,9.082065582275390625e+01,-6.522585296630859375e+01,4.889883422851562500e+01,-1.182405567169189453e+01,-1.105516586303710938e+02,-1.145704727172851562e+02,6.360285186767578125e+01,-3.954067230224609375e+01
3.280000090599060059e-01,2.000000000000000000e+00,3.673709106445312500e+01,9.812223434448242188e+00,3.603398513793945312e+01,-1.117078170776367188e+02,9.082336425781250000e+01,-6.525067901611328125e+01,4.882862854003906250e+01,-1.181924152374267578e+01,-1.105591125488281250e+02,-1.146310501098632812e+02,6.359899902343750000e+01,-3.956671524047851562e+01
3.319999873638153076e-01,2.000000000000000000e+00,3.676576995849609375e+01,9.764629364013671875e+00,3.602740859985351562e+01,-1.117620391845703125e+02,9.082607269287109375e+01,-6.527548980712890625e+01,4.875843048095703125e+01,-1.181442642211914062e+01,-1.105665740966796875e+02,-1.146916198730468750e+02,6.359514236450195312e+01,-3.959275436401367188e+01
3.359999954700469971e-01,2.000000000000000000e+00,3.679444503784179688e+01,9.717040061950683594e+00,3.602082824707031250e+01,-1.118162460327148438e+02,9.082878112792968750e+01,-6.530030059814453125e+01,4.868823623657226562e+01,-1.180961227416992188e+01,-1.105740280151367188e+02,-1.147521896362304688e+02,6.359128189086914062e+01,-3.961879348754882812e+01
3.400000035762786865e-01,2.000000000000000000e+00,3.682311630249023438e+01,9.669455528259277344e+00,3.601425552368164062e+01,-1.118704605102539062e+02,9.083148956298828125e+01,-6.532511138916015625e+01,4.861804962158203125e+01,-1.180479907989501953e+01,-1.105814895629882812e+02,-1.148127593994140625e+02,6.358742141723632812e+01,-3.964482879638671875e+01
3.440000116825103760e-01,2.000000000000000000e+00,3.685178756713867188e+01,9.621876716613769531e+00,3.600767898559570312e+01,-1.119246673583984375e+02,9.083419799804687500e+01,-6.534992218017578125e+01,4.854787063598632812e+01,-1.179998588562011719e+01,-1.105889434814453125e+02,-1.148733215332031250e+02,6.358356475830078125e+01,-3.967086410522460938e+01
3.479999899864196777e-01,2.000000000000000000e+00,3.688045501708984375e+01,9.574300765991210938e+00,3.600110626220703125e+01,-1.119788589477539062e+02,9.083689880371093750e+01,-6.537472534179687500e+01,4.847769927978515625e+01,-1.179517364501953125e+01,-1.105963897705078125e+02,-1.149338607788085938e+02,6.357971191406250000e+01,-3.969689178466796875e+01
3.519999980926513672e-01,2.000000000000000000e+00,3.690911865234375000e+01,9.526729583740234375e+00,3.599452972412109375e+01,-1.120330505371093750e+02,9.083961486816406250e+01,-6.539953613281250000e+01,4.840753173828125000e+01,-1.179036045074462891e+01,-1.106038513183593750e+02,-1.149944152832031250e+02,6.357585144042968750e+01,-3.972291946411132812e+01
3.560000061988830566e-01,2.000000000000000000e+00,3.693777847290039062e+01,9.479164123535156250e+00,3.598795700073242188e+01,-1.120872421264648438e+02,9.084231567382812500e+01,-6.542433166503906250e+01,4.833737564086914062e+01,-1.178554916381835938e+01,-1.106113052368164062e+02,-1.150549468994140625e+02,6.357199859619140625e+01,-3.974894714355468750e+01
3.600000143051147461e-01,2.000000000000000000e+00,3.696643829345703125e+01,9.431603431701660156e+00,3.598138046264648438e+01,-1.121414184570312500e+02,9.084502410888671875e+01,-6.544913482666015625e+01,4.826722335815429688e+01,-1.178073787689208984e+01,-1.106187515258789062e+02,-1.151154937744140625e+02,6.356814193725585938e+01,-3.977496337890625000e+01
3.639999926090240479e-01,2.000000000000000000e+00,3.699509429931640625e+01,9.384046554565429688e+00,3.597480773925781250e+01,-1.121955947875976562e+02,9.084773254394531250e+01,-6.547393035888671875e+01,4.819707489013671875e+01,-1.177592754364013672e+01,-1.106262054443359375e+02,-1.151760025024414062e+02,6.356428909301757812e+01,-3.980098342895507812e+01
3.680000007152557373e-01,2.000000000000000000e+00,3.702374649047851562e+01,9.336494445800781250e+00,3.596823883056640625e+01,-1.122497711181640625e+02,9.085044097900390625e+01,-6.549871826171875000e+01,4.812694168090820312e+01,-1.177111721038818359e+01,-1.106336593627929688e+02,-1.152365341186523438e+02,6.356043624877929688e+01,-3.982700347900390625e+01
3.720000088214874268e-01,2.000000000000000000e+00,3.705239868164062500e+01,9.288947105407714844e+00,3.596166610717773438e+01,-1.123039398193359375e+02,9.085314178466796875e+01,-6.552351379394531250e+01,4.805680847167968750e+01,-1.176630687713623047e+01,-1.106411056518554688e+02,-1.152970504760742188e+02,6.355658340454101562e+01,-3.985301589965820312e+01
3.759999871253967285e-01,2.000000000000000000e+00,3.708104705810546875e+01,9.241403579711914062e+00,3.595509719848632812e+01,-1.123581008911132812e+02,9.085585021972656250e+01,-6.554830169677734375e+01,4.798668670654296875e+01,-1.176149749755859375e+01,-1.106485519409179688e+02,-1.153575515747070312e+02,6.355273056030273438e+01,-3.987902832031250000e+01
3.799999952316284180e-01,2.000000000000000000e+00,3.710968780517578125e+01,9.193865776062011719e+00,3.594852447509765625e+01,-1.124122543334960938e+02,9.085855102539062500e+01,-6.557308959960937500e+01,4.791656875610351562e+01,-1.175668907165527344e+01,-1.106560058593750000e+02,-1.154180679321289062e+02,6.354887390136718750e+01,-3.990504074096679688e+01
3.840000033378601074e-01,2.000000000000000000e+00,3.713833236694335938e+01,9.146331787109375000e+00,3.594195556640625000e+01,-1.124664077758789062e+02,9.086125946044921875e+01,-6.559787750244140625e+01,4.784645462036132812e+01,-1.175188064575195312e+01,-1.106634521484375000e+02,-1.154785537719726562e+02,6.354502105712890625e+01,-3.993104934692382812e+01
3.880000114440917969e-01,2.000000000000000000e+00,3.716696929931640625e+01,9.098803520202636719e+00,3.593538665771484375e+01,-1.125205535888671875e+02,9.086396026611328125e+01,-6.562265777587890625e+01,4.777635192871093750e+01,-1.174707221984863281e+01,-1.106708984375000000e+02,-1.155390548706054688e+02,6.354116821289062500e+01,-3.995705413818359375e+01
3.919999897480010986e-01,2.000000000000000000e+00,3.719561004638671875e+01,9.051278114318847656e+00,3.592882156372070312e+01,-1.125746917724609375e+02,9.086666870117187500e+01,-6.564743804931640625e+01,4.770625305175781250e+01,-1.174226474761962891e+01,-1.106783447265625000e+02,-1.155995330810546875e+02,6.353731536865234375e+01,-3.998305511474609375e+01
3.959999978542327881e-01,2.000000000000000000e+00,3.722423934936523438e+01,9.003757476806640625e+00,3.592224884033203125e+01,-1.126288299560546875e+02,9.086936950683593750e+01,-6.567221832275390625e+01,4.763616180419921875e+01,-1.173745822906494141e+01,-1.106857910156250000e+02,-1.156600189208984375e+02,6.353347015380859375e+01,-4.000905609130859375e+01
4.000000059604644775e-01,2.000000000000000000e+00,3.725287246704101562e+01,8.956241607666015625e+00,3.591568374633789062e+01,-1.126829605102539062e+02,9.087207794189453125e+01,-6.569699096679687500e+01,4.756607818603515625e+01,-1.173265171051025391e+01,-1.106932373046875000e+02,-1.157204971313476562e+02,6.352961730957031250e+01,-4.003505325317382812e+01
4.040000140666961670e-01,2.000000000000000000e+00,3.728150177001953125e+01,8.908731460571289062e+00,3.590911865234375000e+01,-1.127370834350585938e+02,9.087477874755859375e+01,-6.572176361083984375e+01,4.749599838256835938e+01,-1.172784519195556641e+01,-1.107006835937500000e+02,-1.157809677124023438e+02,6.352576828002929688e+01,-4.006104660034179688e+01
4.079999923706054688e-01,2.000000000000000000e+00,3.731012725830078125e+01,8.861224174499511719e+00,3.590255355834960938e+01,-1.127912063598632812e+02,9.087747955322265625e+01,-6.574653625488281250e+01,4.742592620849609375e+01,-1.172303962707519531e+01,-1.107081222534179688e+02,-1.158414306640625000e+02,6.352191543579101562e+01,-4.008703994750976562e+01
4.120000004768371582e-01,2.000000000000000000e+00,3.733874893188476562e+01,8.813721656799316406e+00,3.589598846435546875e+01,-1.128453216552734375e+02,9.088018035888671875e+01,-6.577130126953125000e+01,4.735586547851562500e+01,-1.171823406219482422e+01,-1.107155609130859375e+02,-1.159018936157226562e+02,6.351807022094726562e+01,-4.011303329467773438e+01
4.160000085830688477e-01,2.000000000000000000e+00,3.736737060546875000e+01,8.766223907470703125e+00,3.588942337036132812e+01,-1.128994293212890625e+02,9.088288879394531250e+01,-6.579606628417968750e+01,4.728580474853515625e+01,-1.171342945098876953e+01,-1.107230072021484375e+02,-1.159623413085937500e+02,6.351421737670898438e+01,-4.013901901245117188e+01
4.199999868869781494e-01,2.000000000000000000e+00,3.739598846435546875e+01,8.718729972839355469e+00,3.588286209106445312e+01,-1.129535293579101562e+02,9.088558959960937500e+01,-6.582083129882812500e+01,4.721575164794921875e+01,-1.170862483978271484e+01,-1.107304458618164062e+02,-1.160227890014648438e+02,6.351036453247070312e+01,-4.016500473022460938e+01
4.239999949932098389e-01,2.000000000000000000e+00,3.742460632324218750e+01,8.671240806579589844e+00,3.587629699707031250e+01,-1.130076293945312500e+02,9.088829040527343750e+01,-6.584559631347656250e+01,4.714570999145507812e+01,-1.170382118225097656e+01,-1.107378921508789062e+02,-1.160832290649414062e+02,6.350651931762695312e+01,-4.019098663330078125e+01
4.280000030994415283e-01,2.000000000000000000e+00,3.745321655273437500e+01,8.623756408691406250e+00,3.586973190307617188e+01,-1.130617294311523438e+02,9.089099121093750000e+01,-6.587035369873046875e+01,4.707566833496093750e+01,-1.169901752471923828e+01,-1.107453308105468750e+02,-1.161436691284179688e+02,6.350267410278320312e+01,-4.021696853637695312e+01
4.320000112056732178e-01,2.000000000000000000e+00,3.748182296752929688e+01,8.576275825500488281e+00,3.586317062377929688e+01,-1.131158142089843750e+02,9.089369201660156250e+01,-6.589511108398437500e+01,4.700563812255859375e+01,-1.169421482086181641e+01,-1.107527694702148438e+02,-1.162041015625000000e+02,6.349882125854492188e+01,-4.024294662475585938e+01
4.359999895095825195e-01,2.000000000000000000e+00,3.751043319702148438e+01,8.528799057006835938e+00,3.585660934448242188e+01,-1.131699066162109375e+02,9.089640045166015625e+01,-6.591986083984375000e+01,4.693561172485351562e+01,-1.168941211700439453e+01,-1.107602081298828125e+02,-1.162645187377929688e+02,6.349497604370117188e+01,-4.026892089843750000e+01
4.399999976158142090e-01,2.000000000000000000e+00,3.753903961181640625e+01,8.481328010559082031e+00,3.585004806518554688e+01,-1.132239837646484375e+02,9.089910125732421875e+01,-6.594461822509765625e+01,4.686559295654296875e+01,-1.168460941314697266e+01,-1.107676467895507812e+02,-1.163249359130859375e+02,6.349112319946289062e+01,-4.029489517211914062e+01
4.440000057220458984e-01,2.000000000000000000e+00,3.756763839721679688e+01,8.433860778808593750e+00,3.584348678588867188e+01,-1.132780609130859375e+02,9.090180206298828125e+01,-6.596936035156250000e+01,4.679558181762695312e+01,-1.167980766296386719e+01,-1.107750854492187500e+02,-1.163853454589843750e+02,6.348727798461914062e+01,-4.032086563110351562e+01
4.480000138282775879e-01,2.000000000000000000e+00,3.759623718261718750e+01,8.386397361755371094e+00,3.583692550659179688e+01,-1.133321304321289062e+02,9.090449523925781250e+01,-6.599411773681640625e+01,4.672557067871093750e+01,-1.167500686645507812e+01,-1.107825241088867188e+02,-1.164457626342773438e+02,6.348343276977539062e+01,-4.034683609008789062e+01
4.519999921321868896e-01,2.000000000000000000e+00,3.762483596801757812e+01,8.338938713073730469e+00,3.583037185668945312e+01,-1.133861923217773438e+02,9.090720367431640625e+01,-6.601885986328125000e+01,4.665557098388671875e+01,-1.167020606994628906e+01,-1.107899627685546875e+02,-1.165061569213867188e+02,6.347958755493164062e+01,-4.037280273437500000e+01
4.560000002384185791e-01,2.000000000000000000e+00,3.765343093872070312e+01,8.291483879089355469e+00,3.582381057739257812e+01,-1.134402542114257812e+02,9.090990447998046875e+01,-6.604360198974609375e+01,4.658557891845703125e+01,-1.166540527343750000e+01,-1.107973937988281250e+02,-1.165665664672851562e+02,6.347574234008789062e+01,-4.039876556396484375e+01
4.600000083446502686e-01,2.000000000000000000e+00,3.768202209472656250e+01,8.244033813476562500e+00,3.581725311279296875e+01,-1.134943084716796875e+02,9.091260528564453125e+01,-6.606834411621093750e+01,4.651559066772460938e+01,-1.166060543060302734e+01,-1.108048248291015625e+02,-1.166269531250000000e+02,6.347189712524414062e+01,-4.042472839355468750e+01
4.639999866485595703e-01,2.000000000000000000e+00,3.771061325073242188e+01,8.196587562561035156e+00,3.581069564819335938e+01,-1.135483551025390625e+02,9.091530609130859375e+01,-6.609307861328125000e+01,4.644560623168945312e+01,-1.165580558776855469e+01,-1.108122558593750000e+02,-1.166873321533203125e+02,6.346805191040039062e+01,-4.045068740844726562e+01
4.679999947547912598e-01,2.000000000000000000e+00,3.773919677734375000e+01,8.149146080017089844e+00,3.580413818359375000e+01,-1.136024017333984375e+02,9.091799926757812500e+01,-6.611781311035156250e+01,4.637563323974609375e+01,-1.165100669860839844e+01,-1.108196945190429688e+02,-1.167477111816406250e+02,6.346420669555664062e+01,-4.047664260864257812e+01
4.720000028610229492e-01,2.000000000000000000e+00,3.776778030395507812e+01,8.101708412170410156e+00,3.579758071899414062e+01,-1.136564483642578125e+02,9.092070007324218750e+01,-6.614254760742187500e+01,4.630566406250000000e+01,-1.164620780944824219e+01,-1.108271255493164062e+02,-1.168080902099609375e+02,6.346036148071289062e+01,-4.050259780883789062e+01
4.760000109672546387e-01,2.000000000000000000e+00,3.779636001586914062e+01,8.054275512695312500e+00,3.579102706909179688e+01,-1.137104873657226562e+02,9.092340087890625000e+01,-6.616728210449218750e+01,4.623569869995117188e+01,-1.164140987396240234e+01,-1.108345565795898438e+02,-1.168684616088867188e+02,6.345651626586914062e+01,-4.052854919433593750e+01
4.799999892711639404e-01,2.000000000000000000e+00,3.782494354248046875e+01,8.006845474243164062e+00,3.578446960449218750e+01,-1.137645187377929688e+02,9.092610168457031250e+01,-6.619201660156250000e+01,4.616574478149414062e+01,-1.163661193847656250e+01,-1.108419876098632812e+02,-1.169288253784179688e+02,6.345267105102539062e+01,-4.055450057983398438e+01
4.839999973773956299e-01,2.000000000000000000e+00,3.785351562500000000e+01,7.959421157836914062e+00,3.577791595458984375e+01,-1.138185501098632812e+02,9.092880249023437500e+01,-6.621674346923828125e+01,4.609579467773437500e+01,-1.163181400299072266e+01,-1.108494262695312500e+02,-1.169891891479492188e+02,6.344882965087890625e+01,-4.058044815063476562e+01
4.880000054836273193e-01,2.000000000000000000e+00,3.788209152221679688e+01,7.911999702453613281e+00,3.577136611938476562e+01,-1.138725662231445312e+02,9.093149566650390625e+01,-6.624147033691406250e+01,4.602584838867187500e+01,-1.162701797485351562e+01,-1.108568572998046875e+02,-1.170495376586914062e+02,6.344498443603515625e+01,-4.060639190673828125e+01
4.920000135898590088e-01,2.000000000000000000e+00,3.791066360473632812e+01,7.864583015441894531e+00,3.576481246948242188e+01,-1.139265823364257812e+02,9.093419647216796875e+01,-6.626618957519531250e+01,4.595590972900390625e+01,-1.162222099304199219e+01,-1.108642807006835938e+02,-1.171098937988281250e+02,6.344113922119140625e+01,-4.063233947753906250e+01
4.959999918937683105e-01,2.000000000000000000e+00,3.793923187255859375e+01,7.817170143127441406e+00,3.575825881958007812e+01,-1.139805908203125000e+02,9.093689727783203125e+01,-6.629091644287109375e+01,4.588597488403320312e+01,-1.161742496490478516e+01,-1.108717117309570312e+02,-1.171702270507812500e+02,6.343730163574218750e+01,-4.065827941894531250e+01
5.000000000000000000e-01,2.000000000000000000e+00,3.796780014038085938e+01,7.769762039184570312e+00,3.575170516967773438e+01,-1.140346069335937500e+02,9.093959045410156250e+01,-6.631563568115234375e+01,4.581605148315429688e+01,-1.161262893676757812e+01,-1.108791427612304688e+02,-1.172305831909179688e+02,6.343345642089843750e+01,-4.068421554565429688e+01
5.040000081062316895e-01,2.000000000000000000e+00,3.799636459350585938e+01,7.722357749938964844e+00,3.574515151977539062e+01,-1.140886077880859375e+02,9.094229125976562500e+01,-6.634034729003906250e+01,4.574613189697265625e+01,-1.160783290863037109e+01,-1.108865661621093750e+02,-1.172909088134765625e+02,6.342961883544921875e+01,-4.071015548706054688e+01
5.080000162124633789e-01,2.000000000000000000e+00,3.802492523193359375e+01,7.674957275390625000e+00,3.573860168457031250e+01,-1.141426086425781250e+02,9.094498443603515625e+01,-6.636505889892578125e+01,4.567621612548828125e+01,-1.160303878784179688e+01,-1.108939895629882812e+02,-1.173512268066406250e+02,6.342577362060546875e+01,-4.073608779907226562e+01
5.120000243186950684e-01,2.000000000000000000e+00,3.805348587036132812e+01,7.627561092376708984e+00,3.573205184936523438e+01,-1.141965942382812500e+02,9.094768524169921875e+01,-6.638977050781250000e+01,4.560630798339843750e+01,-1.159824371337890625e+01,-1.109014205932617188e+02,-1.174115524291992188e+02,6.342193222045898438e+01,-4.076202011108398438e+01
5.159999728202819824e-01,2.000000000000000000e+00,3.808204269409179688e+01,7.580168724060058594e+00,3.572550201416015625e+01,-1.142505874633789062e+02,9.095038604736328125e+01,-6.641448211669921875e+01,4.553640747070312500e+01,-1.159344959259033203e+01,-1.109088439941406250e+02,-1.174718780517578125e+02,6.341808700561523438e+01,-4.078794860839843750e+01
5.199999809265136719e-01,2.000000000000000000e+00,3.811059570312500000e+01,7.532780170440673828e+00,3.571895217895507812e+01,-1.143045730590820312e+02,9.095307159423828125e+01,-6.643919372558593750e+01,4.546651077270507812e+01,-1.158865547180175781e+01,-1.109162673950195312e+02,-1.175321884155273438e+02,6.341424942016601562e+01,-4.081387710571289062e+01
5.239999890327453613e-01,2.000000000000000000e+00,3.813914871215820312e+01,7.485395431518554688e+00,3.571240615844726562e+01,-1.143585586547851562e+02,9.095577239990234375e+01,-6.646390533447265625e+01,4.539662170410156250e+01,-1.158386230468750000e+01,-1.109236907958984375e+02,-1.175924987792968750e+02,6.341041183471679688e+01,-4.083980560302734375e+01
5.279999971389770508e-01,2.000000000000000000e+00,3.816769790649414062e+01,7.438015460968017578e+00,3.570585632324218750e+01,-1.144125289916992188e+02,9.095847320556640625e+01,-6.648860931396484375e+01,4.532673263549804688e+01,-1.157907009124755859e+01,-1.109311218261718750e+02,-1.176527938842773438e+02,6.340657424926757812e+01,-4.086572647094726562e+01
5.320000052452087402e-01,2.000000000000000000e+00,3.819624710083007812e+01,7.390638828277587891e+00,3.569931030273437500e+01,-1.144664993286132812e+02,9.096116638183593750e+01,-6.651331329345703125e+01,4.525685882568359375e+01,-1.157427692413330078e+01,-1.109385452270507812e+02,-1.177130966186523438e+02,6.340272903442382812e+01,-4.089164733886718750e+01
5.360000133514404297e-01,2.000000000000000000e+00,3.822478866577148438e+01,7.343265533447265625e+00,3.569276428222656250e+01,-1.145204696655273438e+02,9.096385955810546875e+01,-6.653800964355468750e+01,4.518698120117187500e+01,-1.156948471069335938e+01,-1.109459609985351562e+02,-1.177733917236328125e+02,6.339888763427734375e+01,-4.091756820678710938e+01
5.400000214576721191e-01,2.000000000000000000e+00,3.825333023071289062e+01,7.295897006988525391e+00,3.568621444702148438e+01,-1.145744323730468750e+02,9.096656036376953125e+01,-6.656270599365234375e+01,4.511711502075195312e+01,-1.156469345092773438e+01,-1.109533843994140625e+02,-1.178336715698242188e+02,6.339505004882812500e+01,-4.094348526000976562e+01
5.440000295639038086e-01,2.000000000000000000e+00,3.828187179565429688e+01,7.248531341552734375e+00,3.567966842651367188e+01,-1.146283874511718750e+02,9.096925354003906250e+01,-6.658740234375000000e+01,4.504725265502929688e+01,-1.155990219116210938e+01,-1.109608001708984375e+02,-1.178939590454101562e+02,6.339121246337890625e+01,-4.096939849853515625e+01
5.479999780654907227e-01,2.000000000000000000e+00,3.831041336059570312e+01,7.201169967651367188e+00,3.567312240600585938e+01,-1.146823501586914062e+02,9.097194671630859375e+01,-6.661209869384765625e+01,4.497739791870117188e+01,-1.155511188507080078e+01,-1.109682235717773438e+02,-1.179542388916015625e+02,6.338737487792968750e+01,-4.099531173706054688e+01
5.519999861717224121e-01,2.000000000000000000e+00,3.833894729614257812e+01,7.153812408447265625e+00,3.566658020019531250e+01,-1.147362899780273438e+02,9.097464752197265625e+01,-6.663679504394531250e+01,4.490754318237304688e+01,-1.155032157897949219e+01,-1.109756469726562500e+02,-1.180145111083984375e+02,6.338353347778320312e+01,-4.102122116088867188e+01
5.559999942779541016e-01,2.000000000000000000e+00,3.836748123168945312e+01,7.106458663940429688e+00,3.566003036499023438e+01,-1.147902374267578125e+02,9.097733306884765625e+01,-6.666147613525390625e+01,4.483769989013671875e+01,-1.154553031921386719e+01,-1.109830703735351562e+02,-1.180747756958007812e+02,6.337969589233398438e+01,-4.104713058471679688e+01
5.600000023841857910e-01,2.000000000000000000e+00,3.839601516723632812e+01,7.059108734130859375e+00,3.565348815917968750e+01,-1.148441848754882812e+02,9.098003387451171875e+01,-6.668617248535156250e+01,4.476786041259765625e+01,-1.154074096679687500e+01,-1.109904861450195312e+02,-1.181350479125976562e+02,6.337586593627929688e+01,-4.107304000854492188e+01
5.640000104904174805e-01,2.000000000000000000e+00,3.842454147338867188e+01,7.011762142181396484e+00,3.564694595336914062e+01,-1.148981094360351562e+02,9.098272705078125000e+01,-6.671085357666015625e+01,4.469802474975585938e+01,-1.153595161437988281e+01,-1.109979019165039062e+02,-1.181953048706054688e+02,6.337202453613281250e+01,-4.109894180297851562e+01
5.680000185966491699e-01,2.000000000000000000e+00,3.845307159423828125e+01,6.964419364929199219e+00,3.564040374755859375e+01,-1.149520568847656250e+02,9.098542022705078125e+01,-6.673554229736328125e+01,4.462819671630859375e+01,-1.153116226196289062e+01,-1.110053253173828125e+02,-1.182555618286132812e+02,6.336818695068359375e+01,-4.112484741210937500e+01
5.720000267028808594e-01,2.000000000000000000e+00,3.848159408569335938e+01,6.917080402374267578e+00,3.563385772705078125e+01,-1.150059738159179688e+02,9.098811340332031250e+01,-6.676022338867187500e+01,4.455837249755859375e+01,-1.152637386322021484e+01,-1.110127410888671875e+02,-1.183158187866210938e+02,6.336434936523437500e+01,-4.115074539184570312e+01
5.759999752044677734e-01,2.000000000000000000e+00,3.851011657714843750e+01,6.869744777679443359e+00,3.562731933593750000e+01,-1.150599060058593750e+02,9.099080657958984375e+01,-6.678490447998046875e+01,4.448855209350585938e+01,-1.152158546447753906e+01,-1.110201568603515625e+02,-1.183760604858398438e+02,6.336051559448242188e+01,-4.117664718627929688e+01
5.799999833106994629e-01,2.000000000000000000e+00,3.853863525390625000e+01,6.822412490844726562e+00,3.562077713012695312e+01,-1.151138229370117188e+02,9.099349975585937500e+01,-6.680958557128906250e+01,4.441873931884765625e+01,-1.151679706573486328e+01,-1.110275726318359375e+02,-1.184363021850585938e+02,6.335667800903320312e+01,-4.120254135131835938e+01
5.839999914169311523e-01,2.000000000000000000e+00,3.856715393066406250e+01,6.775084495544433594e+00,3.561423492431640625e+01,-1.151677398681640625e+02,9.099619293212890625e+01,-6.683425903320312500e+01,4.434893035888671875e+01,-1.151200866699218750e+01,-1.110349884033203125e+02,-1.184965286254882812e+02,6.335284042358398438e+01,-4.122843551635742188e+01
5.879999995231628418e-01,2.000000000000000000e+00,3.859567260742187500e+01,6.727759361267089844e+00,3.560769653320312500e+01,-1.152216567993164062e+02,9.099888610839843750e+01,-6.685894012451171875e+01,4.427912902832031250e+01,-1.150722217559814453e+01,-1.110424041748046875e+02,-1.185567703247070312e+02,6.334900665283203125e+01,-4.125432968139648438e+01
5.920000076293945312e-01,2.000000000000000000e+00,3.862418365478515625e+01,6.680438041687011719e+00,3.560115432739257812e+01,-1.152755661010742188e+02,9.100157928466796875e+01,-6.688361358642578125e+01,4.420933151245117188e+01,-1.150243473052978516e+01,-1.110498199462890625e+02,-1.186170043945312500e+02,6.334516906738281250e+01,-4.128022384643554688e+01
5.960000157356262207e-01,2.000000000000000000e+00,3.865269851684570312e+01,6.633120536804199219e+00,3.559461593627929688e+01,-1.153294677734375000e+02,9.100427246093750000e+01,-6.690828704833984375e+01,4.413953781127929688e+01,-1.149764823913574219e+01,-1.110572280883789062e+02,-1.186772155761718750e+02,6.334133911132812500e+01,-4.130611419677734375e+01
6.000000238418579102e-01,2.000000000000000000e+00,3.868120574951171875e+01,6.585806369781494141e+00,3.558807754516601562e+01,-1.153833694458007812e+02,9.100696563720703125e+01,-6.693295288085937500e+01,4.406975173950195312e+01,-1.149286270141601562e+01,-1.110646438598632812e+02,-1.187374343872070312e+02,6.333749771118164062e+01,-4.133200073242187500e+01
6.039999723434448242e-01,2.000000000000000000e+00,3.870971679687500000e+01,6.538495540618896484e+00,3.558153533935546875e+01,-1.154372634887695312e+02,9.100965881347656250e+01,-6.695761871337890625e+01,4.399996948242187500e+01,-1.148807621002197266e+01,-1.110720596313476562e+02,-1.187976455688476562e+02,6.333366775512695312e+01,-4.135788345336914062e+01
6.079999804496765137e-01,2.000000000000000000e+00,3.873822021484375000e+01,6.491188049316406250e+00,3.557500076293945312e+01,-1.154911651611328125e+02,9.101234436035156250e+01,-6.698229217529296875e+01,4.393019104003906250e+01,-1.148329067230224609e+01,-1.110794677734375000e+02,-1.188578567504882812e+02,6.332983398437500000e+01,-4.138376998901367188e+01
6.119999885559082031e-01,2.000000000000000000e+00,3.876672363281250000e+01,6.443884372711181641e+00,3.556846237182617188e+01,-1.155450515747070312e+02,9.101503753662109375e+01,-6.700695800781250000e+01,4.386042404174804688e+01,-1.147850513458251953e+01,-1.110868835449218750e+02,-1.189180603027343750e+02,6.332599639892578125e+01,-4.140964889526367188e+01
6.159999966621398926e-01,2.000000000000000000e+00,3.879522705078125000e+01,6.396583557128906250e+00,3.556192398071289062e+01,-1.155989303588867188e+02,9.101773834228515625e+01,-6.703162384033203125e+01,4.379065704345703125e+01,-1.147372055053710938e+01,-1.110942916870117188e+02,-1.189782638549804688e+02,6.332216644287109375e+01,-4.143552780151367188e+01
6.200000047683715820e-01,2.000000000000000000e+00,3.882372283935546875e+01,6.349286556243896484e+00,3.555538558959960938e+01,-1.156528244018554688e+02,9.102042388916015625e+01,-6.705627441406250000e+01,4.372089004516601562e+01,-1.146893596649169922e+01,-1.111016998291015625e+02,-1.190384674072265625e+02,6.331833267211914062e+01,-4.146140670776367188e+01
6.240000128746032715e-01,2.000000000000000000e+00,3.885221862792968750e+01,6.301993370056152344e+00,3.554885101318359375e+01,-1.157066955566406250e+02,9.102311706542968750e+01,-6.708093261718750000e+01,4.365113449096679688e+01,-1.146415233612060547e+01,-1.111091156005859375e+02,-1.190986557006835938e+02,6.331450271606445312e+01,-4.148728179931640625e+01
6.280000209808349609e-01,2.000000000000000000e+00,3.888071441650390625e+01,6.254703044891357422e+00,3.554231643676757812e+01,-1.157605590820312500e+02,9.102581024169921875e+01,-6.710559844970703125e+01,4.358138656616210938e+01,-1.145936775207519531e+01,-1.111165237426757812e+02,-1.191588363647460938e+02,6.331066894531250000e+01,-4.151315689086914062e+01
6.320000290870666504e-01,2.000000000000000000e+00,3.890921020507812500e+01,6.207416534423828125e+00,3.553578186035156250e+01,-1.158144378662109375e+02,9.102850341796875000e+01,-6.713024902343750000e+01,4.351163482666015625e+01,-1.145458507537841797e+01,-1.111239318847656250e+02,-1.192190246582031250e+02,6.330683135986328125e+01,-4.153902816772460938e+01
6.359999775886535645e-01,2.000000000000000000e+00,3.893769836425781250e+01,6.160133361816406250e+00,3.552924346923828125e+01,-1.158683013916015625e+02,9.103118896484375000e+01,-6.715490722656250000e+01,4.344189453125000000e+01,-1.144980144500732422e+01,-1.111313400268554688e+02,-1.192792129516601562e+02,6.330300140380859375e+01,-4.156489944458007812e+01
6.399999856948852539e-01,2.000000000000000000e+00,3.896619033813476562e+01,6.112853527069091797e+00,3.552271270751953125e+01,-1.159221649169921875e+02,9.103387451171875000e+01,-6.717955780029296875e+01,4.337215805053710938e+01,-1.144501876831054688e+01,-1.111387481689453125e+02,-1.193393859863281250e+02,6.329916763305664062e+01,-4.159076690673828125e+01
6.439999938011169434e-01,2.000000000000000000e+00,3.899467849731445312e+01,6.065577030181884766e+00,3.551617813110351562e+01,-1.159760284423828125e+02,9.103656768798828125e+01,-6.720420837402343750e+01,4.330242538452148438e+01,-1.144023704528808594e+01,-1.111461563110351562e+02,-1.193995513916015625e+02,6.329533767700195312e+01,-4.161663436889648438e+01
6.480000019073486328e-01,2.000000000000000000e+00,3.902316284179687500e+01,6.018303394317626953e+00,3.550964355468750000e+01,-1.160298767089843750e+02,9.103926086425781250e+01,-6.722885894775390625e+01,4.323270034790039062e+01,-1.143545436859130859e+01,-1.111535644531250000e+02,-1.194597244262695312e+02,6.329150390625000000e+01,-4.164249801635742188e+01
6.520000100135803223e-01,2.000000000000000000e+00,3.905164337158203125e+01,5.971034049987792969e+00,3.550311279296875000e+01,-1.160837249755859375e+02,9.104194641113281250e+01,-6.725350952148437500e+01,4.316297912597656250e+01,-1.143067264556884766e+01,-1.111609649658203125e+02,-1.195198822021484375e+02,6.328767395019531250e+01,-4.166836166381835938e+01
6.560000181198120117e-01,2.000000000000000000e+00,3.908012771606445312e+01,5.923767089843750000e+00,3.549657821655273438e+01,-1.161375732421875000e+02,9.104463958740234375e+01,-6.727815246582031250e+01,4.309326171875000000e+01,-1.142589187622070312e+01,-1.111683807373046875e+02,-1.195800399780273438e+02,6.328384780883789062e+01,-4.169422531127929688e+01
6.600000262260437012e-01,2.000000000000000000e+00,3.910860443115234375e+01,5.876503944396972656e+00,3.549004745483398438e+01,-1.161914062500000000e+02,9.104733276367187500e+01,-6.730279541015625000e+01,4.302354812622070312e+01,-1.142111015319824219e+01,-1.111757812500000000e+02,-1.196401901245117188e+02,6.328001785278320312e+01,-4.172008514404296875e+01
6.639999747276306152e-01,2.000000000000000000e+00,3.913708496093750000e+01,5.829243659973144531e+00,3.548351669311523438e+01,-1.162452621459960938e+02,9.105001831054687500e+01,-6.732743835449218750e+01,4.295384216308593750e+01,-1.141632938385009766e+01,-1.111831893920898438e+02,-1.197003479003906250e+02,6.327618408203125000e+01,-4.174593734741210938e+01
6.679999828338623047e-01,2.000000000000000000e+00,3.916555786132812500e+01,5.781987190246582031e+00,3.547698211669921875e+01,-1.162990951538085938e+02,9.105270385742187500e+01,-6.735207366943359375e+01,4.288414001464843750e+01,-1.141154861450195312e+01,-1.111905899047851562e+02,-1.197604980468750000e+02,6.327235412597656250e+01,-4.177179336547851562e+01
6.719999909400939941e-01,2.000000000000000000e+00,3.919403076171875000e+01,5.734734058380126953e+00,3.547045516967773438e+01,-1.163529129028320312e+02,9.105539703369140625e+01,-6.737670898437500000e+01,4.281444549560546875e+01,-1.140676879882812500e+01,-1.111979980468750000e+02,-1.198206329345703125e+02,6.326852798461914062e+01,-4.179764938354492188e+01
6.759999990463256836e-01,2.000000000000000000e+00,3.922250366210937500e+01,5.687483787536621094e+00,3.546392440795898438e+01,-1.164067535400390625e+02,9.105808258056640625e+01,-6.740134429931640625e+01,4.274474716186523438e+01,-1.140198898315429688e+01,-1.112053985595703125e+02,-1.198807601928710938e+02,6.326469802856445312e+01,-4.182350158691406250e+01
6.800000071525573730e-01,2.000000000000000000e+00,3.925096893310546875e+01,5.640236854553222656e+00,3.545739364624023438e+01,-1.164605712890625000e+02,9.106077575683593750e+01,-6.742597961425781250e+01,4.267506027221679688e+01,-1.139721012115478516e+01,-1.112127990722656250e+02,-1.199408950805664062e+02,6.326086425781250000e+01,-4.184934997558593750e+01
6.840000152587890625e-01,2.000000000000000000e+00,3.927943801879882812e+01,5.592993259429931641e+00,3.545086288452148438e+01,-1.165143966674804688e+02,9.106346130371093750e+01,-6.745061492919921875e+01,4.260537719726562500e+01,-1.139243030548095703e+01,-1.112202072143554688e+02,-1.200010299682617188e+02,6.325703811645507812e+01,-4.187520217895507812e+01
6.880000233650207520e-01,2.000000000000000000e+00,3.930790328979492188e+01,5.545753002166748047e+00,3.544433593750000000e+01,-1.165682067871093750e+02,9.106614685058593750e+01,-6.747525024414062500e+01,4.253570175170898438e+01,-1.138765144348144531e+01,-1.112276000976562500e+02,-1.200611648559570312e+02,6.325320816040039062e+01,-4.190105056762695312e+01
6.919999718666076660e-01,2.000000000000000000e+00,3.933636474609375000e+01,5.498515129089355469e+00,3.543780517578125000e+01,-1.166220245361328125e+02,9.106884002685546875e+01,-6.749987792968750000e+01,4.246602630615234375e+01,-1.138287353515625000e+01,-1.112350082397460938e+02,-1.201212844848632812e+02,6.324938201904296875e+01,-4.192689514160156250e+01
6.959999799728393555e-01,2.000000000000000000e+00,3.936482620239257812e+01,5.451281547546386719e+00,3.543127822875976562e+01,-1.166758346557617188e+02,9.107152557373046875e+01,-6.752450561523437500e+01,4.239635848999023438e+01,-1.137809467315673828e+01,-1.112424011230468750e+02,-1.201813888549804688e+02,6.324555206298828125e+01,-4.195273590087890625e+01
6.999999880790710449e-01,2.000000000000000000e+00,3.939328765869140625e+01,5.404050827026367188e+00,3.542474746704101562e+01,-1.167296447753906250e+02,9.107421112060546875e+01,-6.754913330078125000e+01,4.232669448852539062e+01,-1.137331676483154297e+01,-1.112498092651367188e+02,-1.202415084838867188e+02,6.324172592163085938e+01,-4.197858047485351562e+01
7.039999961853027344e-01,2.000000000000000000e+00,3.942174530029296875e+01,5.356822967529296875e+00,3.541822433471679688e+01,-1.167834396362304688e+02,9.107689666748046875e+01,-6.757376098632812500e+01,4.225703048706054688e+01,-1.136853981018066406e+01,-1.112572021484375000e+02,-1.203016128540039062e+02,6.323789596557617188e+01,-4.200441741943359375e+01
7.080000042915344238e-01,2.000000000000000000e+00,3.945019912719726562e+01,5.309598922729492188e+00,3.541169738769531250e+01,-1.168372344970703125e+02,9.107958984375000000e+01,-6.759838104248046875e+01,4.218737792968750000e+01,-1.136376190185546875e+01,-1.112646102905273438e+02,-1.203617172241210938e+02,6.323406982421875000e+01,-4.203025436401367188e+01
7.120000123977661133e-01,2.000000000000000000e+00,3.947865295410156250e+01,5.262377262115478516e+00,3.540517044067382812e+01,-1.168910217285156250e+02,9.108227539062500000e+01,-6.762300872802734375e+01,4.211772537231445312e+01,-1.135898590087890625e+01,-1.112720031738281250e+02,-1.204218215942382812e+02,6.323024368286132812e+01,-4.205609512329101562e+01
7.160000205039978027e-01,2.000000000000000000e+00,3.950710678100585938e+01,5.215158939361572266e+00,3.539864349365234375e+01,-1.169448165893554688e+02,9.108496856689453125e+01,-6.764762115478515625e+01,4.204808425903320312e+01,-1.135420989990234375e+01,-1.112794036865234375e+02,-1.204819183349609375e+02,6.322641372680664062e+01,-4.208192825317382812e+01
7.200000286102294922e-01,2.000000000000000000e+00,3.953555679321289062e+01,5.167943954467773438e+00,3.539211654663085938e+01,-1.169986114501953125e+02,9.108764648437500000e+01,-6.767224121093750000e+01,4.197844314575195312e+01,-1.134943294525146484e+01,-1.112868041992187500e+02,-1.205420074462890625e+02,6.322258758544921875e+01,-4.210776138305664062e+01
7.239999771118164062e-01,2.000000000000000000e+00,3.956400299072265625e+01,5.120731830596923828e+00,3.538559341430664062e+01,-1.170523986816406250e+02,9.109033203125000000e+01,-6.769686126708984375e+01,4.190880584716796875e+01,-1.134465694427490234e+01,-1.112941970825195312e+02,-1.206020965576171875e+02,6.321876144409179688e+01,-4.213359451293945312e+01
7.279999852180480957e-01,2.000000000000000000e+00,3.959244918823242188e+01,5.073523044586181641e+00,3.537907028198242188e+01,-1.171061782836914062e+02,9.109302520751953125e+01,-6.772147369384765625e+01,4.183917617797851562e+01,-1.133988189697265625e+01,-1.113015975952148438e+02,-1.206621780395507812e+02,6.321493911743164062e+01,-4.215942001342773438e+01
7.319999933242797852e-01,2.000000000000000000e+00,3.962089157104492188e+01,5.026317119598388672e+00,3.537254714965820312e+01,-1.171599578857421875e+02,9.109571075439453125e+01,-6.774608612060546875e+01,4.176954269409179688e+01,-1.133510589599609375e+01,-1.113089904785156250e+02,-1.207222595214843750e+02,6.321111297607421875e+01,-4.218524932861328125e+01
7.360000014305114746e-01,2.000000000000000000e+00,3.964933776855468750e+01,4.979114532470703125e+00,3.536602401733398438e+01,-1.172137222290039062e+02,9.109839630126953125e+01,-6.777069854736328125e+01,4.169992446899414062e+01,-1.133033084869384766e+01,-1.113163909912109375e+02,-1.207823333740234375e+02,6.320728302001953125e+01,-4.221107482910156250e+01
7.400000095367431641e-01,2.000000000000000000e+00,3.967778015136718750e+01,4.931914806365966797e+00,3.535950088500976562e+01,-1.172674942016601562e+02,9.110107421875000000e+01,-6.779531097412109375e+01,4.163030242919921875e+01,-1.132555675506591797e+01,-1.113237838745117188e+02,-1.208424148559570312e+02,6.320345687866210938e+01,-4.223690032958984375e+01
7.440000176429748535e-01,2.000000000000000000e+00,3.970621490478515625e+01,4.884718418121337891e+00,3.535297775268554688e+01,-1.173212585449218750e+02,9.110376739501953125e+01,-6.781992340087890625e+01,4.156069183349609375e+01,-1.132078266143798828e+01,-1.113311767578125000e+02,-1.209024810791015625e+02,6.319963073730468750e+01,-4.226272583007812500e+01
7.480000257492065430e-01,2.000000000000000000e+00,3.973465347290039062e+01,4.837524414062500000e+00,3.534645462036132812e+01,-1.173750228881835938e+02,9.110645294189453125e+01,-6.784452056884765625e+01,4.149108123779296875e+01,-1.131600856781005859e+01,-1.113385696411132812e+02,-1.209625396728515625e+02,6.319580841064453125e+01,-4.228854751586914062e+01
7.519999742507934570e-01,2.000000000000000000e+00,3.976308822631835938e+01,4.790334224700927734e+00,3.533993148803710938e+01,-1.174287796020507812e+02,9.110913848876953125e+01,-6.786913299560546875e+01,4.142147827148437500e+01,-1.131123352050781250e+01,-1.113459701538085938e+02,-1.210226058959960938e+02,6.319198226928710938e+01,-4.231436538696289062e+01
7.559999823570251465e-01,2.000000000000000000e+00,3.979152297973632812e+01,4.743146419525146484e+00,3.533340835571289062e+01,-1.174825439453125000e+02,9.111182403564453125e+01,-6.789373779296875000e+01,4.135187530517578125e+01,-1.130646038055419922e+01,-1.113533630371093750e+02,-1.210826721191406250e+02,6.318815612792968750e+01,-4.234018325805664062e+01
7.599999904632568359e-01,2.000000000000000000e+00,3.981995391845703125e+01,4.695961952209472656e+00,3.532688903808593750e+01,-1.175363006591796875e+02,9.111450958251953125e+01,-6.791833496093750000e+01,4.128227996826171875e+01,-1.130168819427490234e+01,-1.113607559204101562e+02,-1.211427230834960938e+02,6.318433761596679688e+01,-4.236600112915039062e+01
7.639999985694885254e-01,2.000000000000000000e+00,3.984838104248046875e+01,4.648779869079589844e+00,3.532036590576171875e+01,-1.175900421142578125e+02,9.111718750000000000e+01,-6.794293975830078125e+01,4.121268844604492188e+01,-1.129691505432128906e+01,-1.113681488037109375e+02,-1.212027740478515625e+02,6.318051528930664062e+01,-4.239181518554687500e+01
7.680000066757202148e-01,2.000000000000000000e+00,3.987680816650390625e+01,4.601601600646972656e+00,3.531384658813476562e+01,-1.176437911987304688e+02,9.111987304687500000e+01,-6.796754455566406250e+01,4.114310073852539062e+01,-1.129214286804199219e+01,-1.113755416870117188e+02,-1.212628097534179688e+02,6.317668914794921875e+01,-4.241762542724609375e+01
7.720000147819519043e-01,2.000000000000000000e+00,3.990523910522460938e+01,4.554425716400146484e+00,3.530732727050781250e+01,-1.176975326538085938e+02,9.112255859375000000e+01,-6.799213409423828125e+01,4.107351684570312500e+01,-1.128736972808837891e+01,-1.113829269409179688e+02,-1.213228607177734375e+02,6.317286300659179688e+01,-4.244343948364257812e+01
7.760000228881835938e-01,2.000000000000000000e+00,3.993366241455078125e+01,4.507253170013427734e+00,3.530080795288085938e+01,-1.177512741088867188e+02,9.112524414062500000e+01,-6.801673126220703125e+01,4.100393676757812500e+01,-1.128259849548339844e+01,-1.113903274536132812e+02,-1.213828964233398438e+02,6.316904067993164062e+01,-4.246924972534179688e+01
7.799999713897705078e-01,2.000000000000000000e+00,3.996208572387695312e+01,4.460083484649658203e+00,3.529428863525390625e+01,-1.178050155639648438e+02,9.112792968750000000e+01,-6.804132843017578125e+01,4.093436431884765625e+01,-1.127782630920410156e+01,-1.113977127075195312e+02,-1.214429397583007812e+02,6.316522216796875000e+01,-4.249505615234375000e+01
7.839999794960021973e-01,2.000000000000000000e+00,3.999050521850585938e+01,4.412916183471679688e+00,3.528776931762695312e+01,-1.178587417602539062e+02,9.113061523437500000e+01,-6.806592559814453125e+01,4.086479568481445312e+01,-1.127305507659912109e+01,-1.114051055908203125e+02,-1.215029602050781250e+02,6.316139602661132812e+01,-4.252086639404296875e+01
7.879999876022338867e-01,2.000000000000000000e+00,4.001892089843750000e+01,4.365752220153808594e+00,3.528125000000000000e+01,-1.179124679565429688e+02,9.113329315185546875e+01,-6.809051513671875000e+01,4.079523086547851562e+01,-1.126828384399414062e+01,-1.114124984741210938e+02,-1.215629806518554688e+02,6.315756988525390625e+01,-4.254666900634765625e+01
7.919999957084655762e-01,2.000000000000000000e+00,4.004734420776367188e+01,4.318591117858886719e+00,3.527473449707031250e+01,-1.179661941528320312e+02,9.113597869873046875e+01,-6.811509704589843750e+01,4.072566986083984375e+01,-1.126351356506347656e+01,-1.114198837280273438e+02,-1.216230087280273438e+02,6.315375518798828125e+01,-4.257247161865234375e+01
7.960000038146972656e-01,2.000000000000000000e+00,4.007575607299804688e+01,4.271432876586914062e+00,3.526821517944335938e+01,-1.180199203491210938e+02,9.113866424560546875e+01,-6.813968658447265625e+01,4.065610885620117188e+01,-1.125874328613281250e+01,-1.114272689819335938e+02,-1.216830291748046875e+02,6.314992904663085938e+01,-4.259827423095703125e+01
8.000000119209289551e-01,2.000000000000000000e+00,4.010417175292968750e+01,4.224277496337890625e+00,3.526169967651367188e+01,-1.180736465454101562e+02,9.114134979248046875e+01,-6.816427612304687500e+01,4.058655929565429688e+01,-1.125397300720214844e+01,-1.114346618652343750e+02,-1.217430572509765625e+02,6.314611053466796875e+01,-4.262407302856445312e+01
8.040000200271606445e-01,2.000000000000000000e+00,4.013258361816406250e+01,4.177124977111816406e+00,3.525518417358398438e+01,-1.181273574829101562e+02,9.114403533935546875e+01,-6.818886566162109375e+01,4.051700973510742188e+01,-1.124920272827148438e+01,-1.114420471191406250e+02,-1.218030624389648438e+02,6.314228439331054688e+01,-4.264987182617187500e+01
8.080000281333923340e-01,2.000000000000000000e+00,4.016099548339843750e+01,4.129975318908691406e+00,3.524866867065429688e+01,-1.181810684204101562e+02,9.114672088623046875e+01,-6.821344757080078125e+01,4.044746398925781250e+01,-1.124443340301513672e+01,-1.114494323730468750e+02,-1.218630752563476562e+02,6.313846588134765625e+01,-4.267567062377929688e+01
8.119999766349792480e-01,2.000000000000000000e+00,4.018940353393554688e+01,4.082828521728515625e+00,3.524214935302734375e+01,-1.182347869873046875e+02,9.114939880371093750e+01,-6.823802947998046875e+01,4.037792205810546875e+01,-1.123966407775878906e+01,-1.114568252563476562e+02,-1.219230880737304688e+02,6.313464355468750000e+01,-4.270146560668945312e+01
8.159999847412109375e-01,2.000000000000000000e+00,4.021781158447265625e+01,4.035684585571289062e+00,3.523563385009765625e+01,-1.182884826660156250e+02,9.115207672119140625e+01,-6.826261138916015625e+01,4.030838775634765625e+01,-1.123489475250244141e+01,-1.114642105102539062e+02,-1.219830856323242188e+02,6.313082504272460938e+01,-4.272726058959960938e+01
8.199999928474426270e-01,2.000000000000000000e+00,4.024621582031250000e+01,3.988543272018432617e+00,3.522911834716796875e+01,-1.183421936035156250e+02,9.115476226806640625e+01,-6.828719329833984375e+01,4.023885726928710938e+01,-1.123012638092041016e+01,-1.114715957641601562e+02,-1.220430755615234375e+02,6.312699890136718750e+01,-4.275305557250976562e+01
8.240000009536743164e-01,2.000000000000000000e+00,4.027461624145507812e+01,3.941405057907104492e+00,3.522260284423828125e+01,-1.183958969116210938e+02,9.115744781494140625e+01,-6.831176757812500000e+01,4.016933059692382812e+01,-1.122535800933837891e+01,-1.114789810180664062e+02,-1.221030731201171875e+02,6.312318038940429688e+01,-4.277884292602539062e+01
8.280000090599060059e-01,2.000000000000000000e+00,4.030302047729492188e+01,3.894269227981567383e+00,3.521609115600585938e+01,-1.184495925903320312e+02,9.116013336181640625e+01,-6.833634948730468750e+01,4.009980392456054688e+01,-1.122058963775634766e+01,-1.114863662719726562e+02,-1.221630706787109375e+02,6.311936187744140625e+01,-4.280463027954101562e+01
8.320000171661376953e-01,2.000000000000000000e+00,4.033142089843750000e+01,3.847136497497558594e+00,3.520957946777343750e+01,-1.185032806396484375e+02,9.116281127929687500e+01,-6.836092376708984375e+01,4.003028488159179688e+01,-1.121582126617431641e+01,-1.114937591552734375e+02,-1.222230529785156250e+02,6.311553955078125000e+01,-4.283042144775390625e+01
8.360000252723693848e-01,2.000000000000000000e+00,4.035982131958007812e+01,3.800006628036499023e+00,3.520306015014648438e+01,-1.185569763183593750e+02,9.116549682617187500e+01,-6.838549804687500000e+01,3.996076965332031250e+01,-1.121105384826660156e+01,-1.115011367797851562e+02,-1.222830352783203125e+02,6.311172103881835938e+01,-4.285620498657226562e+01
8.399999737739562988e-01,2.000000000000000000e+00,4.038821792602539062e+01,3.752879142761230469e+00,3.519654846191406250e+01,-1.186106643676757812e+02,9.116817474365234375e+01,-6.841007232666015625e+01,3.989125823974609375e+01,-1.120628643035888672e+01,-1.115085220336914062e+02,-1.223430175781250000e+02,6.310790252685546875e+01,-4.288199234008789062e+01
8.439999818801879883e-01,2.000000000000000000e+00,4.041661453247070312e+01,3.705754280090332031e+00,3.519003677368164062e+01,-1.186643447875976562e+02,9.117085266113281250e+01,-6.843464660644531250e+01,3.982174682617187500e+01,-1.120151996612548828e+01,-1.115159072875976562e+02,-1.224029998779296875e+02,6.310408401489257812e+01,-4.290777969360351562e+01
8.479999899864196777e-01,2.000000000000000000e+00,4.044500732421875000e+01,3.658632278442382812e+00,3.518352508544921875e+01,-1.187180328369140625e+02,9.117353820800781250e+01,-6.845921325683593750e+01,3.975224685668945312e+01,-1.119675254821777344e+01,-1.115232925415039062e+02,-1.224629745483398438e+02,6.310026550292968750e+01,-4.293355941772460938e+01
8.519999980926513672e-01,2.000000000000000000e+00,4.047339630126953125e+01,3.611513376235961914e+00,3.517700958251953125e+01,-1.187717056274414062e+02,9.117621612548828125e+01,-6.848377990722656250e+01,3.968274688720703125e+01,-1.119198608398437500e+01,-1.115306701660156250e+02,-1.225229415893554688e+02,6.309644317626953125e+01,-4.295933914184570312e+01
8.560000061988830566e-01,2.000000000000000000e+00,4.050178909301757812e+01,3.564396619796752930e+00,3.517049789428710938e+01,-1.188253860473632812e+02,9.117890167236328125e+01,-6.850834655761718750e+01,3.961325073242187500e+01,-1.118721961975097656e+01,-1.115380554199218750e+02,-1.225829086303710938e+02,6.309262466430664062e+01,-4.298511886596679688e+01
8.600000143051147461e-01,2.000000000000000000e+00,4.053017425537109375e+01,3.517282724380493164e+00,3.516399002075195312e+01,-1.188790588378906250e+02,9.118157958984375000e+01,-6.853291320800781250e+01,3.954375839233398438e+01,-1.118245410919189453e+01,-1.115454406738281250e+02,-1.226428756713867188e+02,6.308880615234375000e+01,-4.301089859008789062e+01
8.640000224113464355e-01,2.000000000000000000e+00,4.055856704711914062e+01,3.470171451568603516e+00,3.515747833251953125e+01,-1.189327163696289062e+02,9.118426513671875000e+01,-6.855747985839843750e+01,3.947427368164062500e+01,-1.117768859863281250e+01,-1.115528182983398438e+02,-1.227028350830078125e+02,6.308498764038085938e+01,-4.303667068481445312e+01
8.679999709129333496e-01,2.000000000000000000e+00,4.058695220947265625e+01,3.423063039779663086e+00,3.515096664428710938e+01,-1.189863891601562500e+02,9.118694305419921875e+01,-6.858203887939453125e+01,3.940478897094726562e+01,-1.117292308807373047e+01,-1.115601959228515625e+02,-1.227627868652343750e+02,6.308116912841796875e+01,-4.306244659423828125e+01
8.719999790191650391e-01,2.000000000000000000e+00,4.061533355712890625e+01,3.375957250595092773e+00,3.514445495605468750e+01,-1.190400466918945312e+02,9.118962097167968750e+01,-6.860659790039062500e+01,3.933530807495117188e+01,-1.116815757751464844e+01,-1.115675811767578125e+02,-1.228227462768554688e+02,6.307735061645507812e+01,-4.308822250366210938e+01
8.759999871253967285e-01,2.000000000000000000e+00,4.064371871948242188e+01,3.328853845596313477e+00,3.513794708251953125e+01,-1.190937194824218750e+02,9.119229888916015625e+01,-6.863116455078125000e+01,3.926583099365234375e+01,-1.116339302062988281e+01,-1.115749588012695312e+02,-1.228826980590820312e+02,6.307353210449218750e+01,-4.311399078369140625e+01
8.799999952316284180e-01,2.000000000000000000e+00,4.067209625244140625e+01,3.281753063201904297e+00,3.513143539428710938e+01,-1.191473770141601562e+02,9.119498443603515625e+01,-6.865571594238281250e+01,3.919635772705078125e+01,-1.115862751007080078e+01,-1.115823440551757812e+02,-1.229426422119140625e+02,6.306972122192382812e+01,-4.313976287841796875e+01
8.840000033378601074e-01,2.000000000000000000e+00,4.070047760009765625e+01,3.234655141830444336e+00,3.512492752075195312e+01,-1.192010192871093750e+02,9.119766235351562500e+01,-6.868027496337890625e+01,3.912688827514648438e+01,-1.115386390686035156e+01,-1.115897216796875000e+02,-1.230025863647460938e+02,6.306590270996093750e+01,-4.316553115844726562e+01
8.880000114440917969e-01,2.000000000000000000e+00,4.072885513305664062e+01,3.187559366226196289e+00,3.511841964721679688e+01,-1.192546844482421875e+02,9.120034027099609375e+01,-6.870483398437500000e+01,3.905742645263671875e+01,-1.114909934997558594e+01,-1.115970993041992188e+02,-1.230625228881835938e+02,6.306208419799804688e+01,-4.319129943847656250e+01
8.920000195503234863e-01,2.000000000000000000e+00,4.075723266601562500e+01,3.140466690063476562e+00,3.511190795898437500e+01,-1.193083267211914062e+02,9.120302581787109375e+01,-6.872938537597656250e+01,3.898796844482421875e+01,-1.114433574676513672e+01,-1.116044769287109375e+02,-1.231224670410156250e+02,6.305826568603515625e+01,-4.321706771850585938e+01
8.960000276565551758e-01,2.000000000000000000e+00,4.078560256958007812e+01,3.093376159667968750e+00,3.510540390014648438e+01,-1.193619689941406250e+02,9.120570373535156250e+01,-6.875394439697265625e+01,3.891850662231445312e+01,-1.113957118988037109e+01,-1.116118545532226562e+02,-1.231823959350585938e+02,6.305445098876953125e+01,-4.324282836914062500e+01
8.999999761581420898e-01,2.000000000000000000e+00,4.081398010253906250e+01,3.046288490295410156e+00,3.509889602661132812e+01,-1.194156112670898438e+02,9.120838165283203125e+01,-6.877848815917968750e+01,3.884905624389648438e+01,-1.113480854034423828e+01,-1.116192321777343750e+02,-1.232423248291015625e+02,6.305063629150390625e+01,-4.326859283447265625e+01
9.039999842643737793e-01,2.000000000000000000e+00,4.084235000610351562e+01,2.999203205108642578e+00,3.509238433837890625e+01,-1.194692611694335938e+02,9.121106719970703125e+01,-6.880304718017578125e+01,3.877960586547851562e+01,-1.113004493713378906e+01,-1.116266098022460938e+02,-1.233022537231445312e+02,6.304682159423828125e+01,-4.329435729980468750e+01
9.079999923706054688e-01,2.000000000000000000e+00,4.087072372436523438e+01,2.952120304107666016e+00,3.508588027954101562e+01,-1.195228881835937500e+02,9.121374511718750000e+01,-6.882759094238281250e+01,3.871015930175781250e+01,-1.112528324127197266e+01,-1.116339874267578125e+02,-1.233621826171875000e+02,6.304300308227539062e+01,-4.332011795043945312e+01
9.120000004768371582e-01,2.000000000000000000e+00,4.089908981323242188e+01,2.905039787292480469e+00,3.507937240600585938e+01,-1.195765304565429688e+02,9.121642303466796875e+01,-6.885214233398437500e+01,3.864072036743164062e+01,-1.112051963806152344e+01,-1.116413650512695312e+02,-1.234220962524414062e+02,6.303919219970703125e+01,-4.334587860107421875e+01
9.160000085830688477e-01,2.000000000000000000e+00,4.092745590209960938e+01,2.857961654663085938e+00,3.507286834716796875e+01,-1.196301651000976562e+02,9.121910095214843750e+01,-6.887668609619140625e+01,3.857128143310546875e+01,-1.111575794219970703e+01,-1.116487426757812500e+02,-1.234820251464843750e+02,6.303537368774414062e+01,-4.337163162231445312e+01
9.200000166893005371e-01,2.000000000000000000e+00,4.095582199096679688e+01,2.810885906219482422e+00,3.506636047363281250e+01,-1.196837768554687500e+02,9.122177886962890625e+01,-6.890123748779296875e+01,3.850184631347656250e+01,-1.111099624633789062e+01,-1.116561126708984375e+02,-1.235419387817382812e+02,6.303155517578125000e+01,-4.339738845825195312e+01
9.240000247955322266e-01,2.000000000000000000e+00,4.098418807983398438e+01,2.763812303543090820e+00,3.505985260009765625e+01,-1.197374114990234375e+02,9.122445678710937500e+01,-6.892577362060546875e+01,3.843241119384765625e+01,-1.110623455047607422e+01,-1.116634902954101562e+02,-1.236018371582031250e+02,6.302774429321289062e+01,-4.342314147949218750e+01
9.279999732971191406e-01,2.000000000000000000e+00,4.101255035400390625e+01,2.716741323471069336e+00,3.505335235595703125e+01,-1.197910385131835938e+02,9.122713470458984375e+01,-6.895032501220703125e+01,3.836298370361328125e+01,-1.110147285461425781e+01,-1.116708679199218750e+02,-1.236617507934570312e+02,6.302392578125000000e+01,-4.344889831542968750e+01
9.319999814033508301e-01,2.000000000000000000e+00,4.104091262817382812e+01,2.669672489166259766e+00,3.504684448242187500e+01,-1.198446578979492188e+02,9.122981262207031250e+01,-6.897486114501953125e+01,3.829356002807617188e+01,-1.109671115875244141e+01,-1.116782455444335938e+02,-1.237216491699218750e+02,6.302011489868164062e+01,-4.347465133666992188e+01
9.359999895095825195e-01,2.000000000000000000e+00,4.106927490234375000e+01,2.622605800628662109e+00,3.504034042358398438e+01,-1.198982772827148438e+02,9.123249053955078125e+01,-6.899940490722656250e+01,3.822413635253906250e+01,-1.109194946289062500e+01,-1.116856155395507812e+02,-1.237815551757812500e+02,6.301629638671875000e+01,-4.350040435791015625e+01
9.399999976158142090e-01,2.000000000000000000e+00,4.109763336181640625e+01,2.575541496276855469e+00,3.503383255004882812e+01,-1.199518966674804688e+02,9.123516845703125000e+01,-6.902394866943359375e+01,3.815471649169921875e+01,-1.108718967437744141e+01,-1.116929931640625000e+02,-1.238414535522460938e+02,6.301248550415039062e+01,-4.352615356445312500e+01
9.440000057220458984e-01,2.000000000000000000e+00,4.112599182128906250e+01,2.528479337692260742e+00,3.502733230590820312e+01,-1.200055084228515625e+02,9.123785400390625000e+01,-6.904847717285156250e+01,3.808530426025390625e+01,-1.108242893218994141e+01,-1.117003631591796875e+02,-1.239013519287109375e+02,6.300866699218750000e+01,-4.355190277099609375e+01
9.480000138282775879e-01,2.000000000000000000e+00,4.115435028076171875e+01,2.481419324874877930e+00,3.502082443237304688e+01,-1.200591125488281250e+02,9.124053192138671875e+01,-6.907302093505859375e+01,3.801589202880859375e+01,-1.107766819000244141e+01,-1.117077407836914062e+02,-1.239612579345703125e+02,6.300485610961914062e+01,-4.357764816284179688e+01
9.520000219345092773e-01,2.000000000000000000e+00,4.118270492553710938e+01,2.434361457824707031e+00,3.501432418823242188e+01,-1.201127166748046875e+02,9.124320983886718750e+01,-6.909755706787109375e+01,3.794648361206054688e+01,-1.107290840148925781e+01,-1.117151107788085938e+02,-1.240211410522460938e+02,6.300104522705078125e+01,-4.360339736938476562e+01
9.559999704360961914e-01,2.000000000000000000e+00,4.121105957031250000e+01,2.387305736541748047e+00,3.500782012939453125e+01,-1.201663360595703125e+02,9.124588775634765625e+01,-6.912208557128906250e+01,3.787707519531250000e+01,-1.106814765930175781e+01,-1.117224884033203125e+02,-1.240810317993164062e+02,6.299722671508789062e+01,-4.362914276123046875e+01
9.599999785423278809e-01,2.000000000000000000e+00,4.123941040039062500e+01,2.340252161026000977e+00,3.500131607055664062e+01,-1.202199401855468750e+02,9.124856567382812500e+01,-6.914662170410156250e+01,3.780767059326171875e+01,-1.106338787078857422e+01,-1.117298507690429688e+02,-1.241409149169921875e+02,6.299341583251953125e+01,-4.365488815307617188e+01
9.639999866485595703e-01,2.000000000000000000e+00,4.126776504516601562e+01,2.293200492858886719e+00,3.499481201171875000e+01,-1.202735366821289062e+02,9.125123596191406250e+01,-6.917115783691406250e+01,3.773826980590820312e+01,-1.105862808227539062e+01,-1.117372283935546875e+02,-1.242008056640625000e+02,6.298960494995117188e+01,-4.368062973022460938e+01
9.679999947547912598e-01,2.000000000000000000e+00,4.129611206054687500e+01,2.246151208877563477e+00,3.498831176757812500e+01,-1.203271331787109375e+02,9.125391387939453125e+01,-6.919569396972656250e+01,3.766887283325195312e+01,-1.105386924743652344e+01,-1.117445983886718750e+02,-1.242606887817382812e+02,6.298578643798828125e+01,-4.370637512207031250e+01
9.720000028610229492e-01,2.000000000000000000e+00,4.132446289062500000e+01,2.199103832244873047e+00,3.498180770874023438e+01,-1.203807296752929688e+02,9.125659179687500000e+01,-6.922021484375000000e+01,3.759947967529296875e+01,-1.104910945892333984e+01,-1.117519683837890625e+02,-1.243205642700195312e+02,6.298197555541992188e+01,-4.373211288452148438e+01
9.760000109672546387e-01,2.000000000000000000e+00,4.135280990600585938e+01,2.152058362960815430e+00,3.497530746459960938e+01,-1.204343261718750000e+02,9.125926971435546875e+01,-6.924475097656250000e+01,3.753009033203125000e+01,-1.104435062408447266e+01,-1.117593460083007812e+02,-1.243804397583007812e+02,6.297816467285156250e+01,-4.375785827636718750e+01
9.800000190734863281e-01,2.000000000000000000e+00,4.138115692138671875e+01,2.105015039443969727e+00,3.496880722045898438e+01,-1.204879150390625000e+02,9.126194763183593750e+01,-6.926927947998046875e+01,3.746070098876953125e+01,-1.103959178924560547e+01,-1.117667160034179688e+02,-1.244403076171875000e+02,6.297434997558593750e+01,-4.378359222412109375e+01
9.840000271797180176e-01,2.000000000000000000e+00,4.140950012207031250e+01,2.057973623275756836e+00,3.496230316162109375e+01,-1.205415039062500000e+02,9.126462554931640625e+01,-6.929380798339843750e+01,3.739131927490234375e+01,-1.103483200073242188e+01,-1.117740859985351562e+02,-1.245001831054687500e+02,6.297053527832031250e+01,-4.380933380126953125e+01
9.879999756813049316e-01,2.000000000000000000e+00,4.143784713745117188e+01,2.010933876037597656e+00,3.495580291748046875e+01,-1.205950927734375000e+02,9.126730346679687500e+01,-6.931833648681640625e+01,3.732193374633789062e+01,-1.103007411956787109e+01,-1.117814559936523438e+02,-1.245600585937500000e+02,6.296672058105468750e+01,-4.383506774902343750e+01
9.919999837875366211e-01,2.000000000000000000e+00,4.146618652343750000e+01,1.963896274566650391e+00,3.494930267333984375e+01,-1.206486816406250000e+02,9.126997375488281250e+01,-6.934285736083984375e+01,3.725255584716796875e+01,-1.102531623840332031e+01,-1.117888259887695312e+02,-1.246199188232421875e+02,6.296290969848632812e+01,-4.386080551147460938e+01
9.959999918937683105e-01,2.000000000000000000e+00,4.149452972412109375e+01,1.916860580444335938e+00,3.494280242919921875e+01,-1.207022552490234375e+02,9.127265167236328125e+01,-6.936737823486328125e+01,3.718317794799804688e+01,-1.102055835723876953e+01,-1.117961959838867188e+02,-1.246797943115234375e+02,6.295909881591796875e+01,-4.388653945922851562e+01
1.000000000000000000e+00,2.000000000000000000e+00,4.152287292480468750e+01,1.869826793670654297e+00,3.493630218505859375e+01,-1.207558441162109375e+02,9.127532958984375000e+01,-6.939190673828125000e+01,3.711380386352539062e+01,-1.101580047607421875e+01,-1.118035659790039062e+02,-1.247396469116210938e+02,6.295528793334960938e+01,-4.391227340698242188e+01
1.003999948501586914e+00,2.000000000000000000e+00,4.155121231079101562e+01,1.822795033454895020e+00,3.492979812622070312e+01,-1.208094253540039062e+02,9.127800750732421875e+01,-6.941642761230468750e+01,3.704443359375000000e+01,-1.101104164123535156e+01,-1.118109359741210938e+02,-1.247995071411132812e+02,6.295147705078125000e+01,-4.393800735473632812e+01
1.008000016212463379e+00,2.000000000000000000e+00,4.157954788208007812e+01,1.775765180587768555e+00,3.492330169677734375e+01,-1.208629989624023438e+02,9.128068542480468750e+01,-6.944095611572265625e+01,3.697506713867187500e+01,-1.100628471374511719e+01,-1.118183059692382812e+02,-1.248593673706054688e+02,6.294766616821289062e+01,-4.396373748779296875e+01
1.011999964714050293e+00,2.000000000000000000e+00,4.160788726806640625e+01,1.728737115859985352e+00,3.491680145263671875e+01,-1.209165725708007812e+02,9.128336334228515625e+01,-6.946547698974609375e+01,3.690570068359375000e+01,-1.100152778625488281e+01,-1.118256759643554688e+02,-1.249192199707031250e+02,6.294385528564453125e+01,-4.398946762084960938e+01
1.016000032424926758e+00,2.000000000000000000e+00,4.163622283935546875e+01,1.681710958480834961e+00,3.491030120849609375e+01,-1.209701538085937500e+02,9.128603363037109375e+01,-6.948999786376953125e+01,3.683633804321289062e+01,-1.099676990509033203e+01,-1.118330383300781250e+02,-1.249790725708007812e+02,6.294004440307617188e+01,-4.401519775390625000e+01
1.019999980926513672e+00,2.000000000000000000e+00,4.166455841064453125e+01,1.634686708450317383e+00,3.490380477905273438e+01,-1.210237121582031250e+02,9.128871154785156250e+01,-6.951451110839843750e+01,3.676697921752929688e+01,-1.099201297760009766e+01,-1.118404083251953125e+02,-1.250389251708984375e+02,6.293623352050781250e+01,-4.404092788696289062e+01
1.024000048637390137e+00,2.000000000000000000e+00,4.169289398193359375e+01,1.587664127349853516e+00,3.489730453491210938e+01,-1.210772857666015625e+02,9.129138946533203125e+01,-6.953903198242187500e+01,3.669762420654296875e+01,-1.098725700378417969e+01,-1.118477783203125000e+02,-1.250987701416015625e+02,6.293242263793945312e+01,-4.406665802001953125e+01
1.026999950408935547e+00,2.000000000000000000e+00,4.172122573852539062e+01,1.540643692016601562e+00,3.489080429077148438e+01,-1.211308517456054688e+02,9.129406738281250000e+01,-6.956355285644531250e+01,3.662826538085937500e+01,-1.098250007629394531e+01,-1.118551406860351562e+02,-1.251586151123046875e+02,6.292861175537109375e+01,-4.409238052368164062e+01
1.031999945640563965e+00,2.000000000000000000e+00,4.174955749511718750e+01,1.493624806404113770e+00,3.488430786132812500e+01,-1.211844177246093750e+02,9.129673767089843750e+01,-6.958806610107421875e+01,3.655891418457031250e+01,-1.097774314880371094e+01,-1.118625106811523438e+02,-1.252184600830078125e+02,6.292479705810546875e+01,-4.411810684204101562e+01
1.036000013351440430e+00,2.000000000000000000e+00,4.177788543701171875e+01,1.446607947349548340e+00,3.487781143188476562e+01,-1.212379760742187500e+02,9.129941558837890625e+01,-6.961257934570312500e+01,3.648957061767578125e+01,-1.097298717498779297e+01,-1.118698806762695312e+02,-1.252782897949218750e+02,6.292098617553710938e+01,-4.414382934570312500e+01
1.039999961853027344e+00,2.000000000000000000e+00,4.180621719360351562e+01,1.399592757225036621e+00,3.487131118774414062e+01,-1.212915420532226562e+02,9.130209350585937500e+01,-6.963709259033203125e+01,3.642022323608398438e+01,-1.096823120117187500e+01,-1.118772430419921875e+02,-1.253381423950195312e+02,6.291717529296875000e+01,-4.416955566406250000e+01
1.044000029563903809e+00,2.000000000000000000e+00,4.183454513549804688e+01,1.352579355239868164e+00,3.486481475830078125e+01,-1.213451004028320312e+02,9.130477142333984375e+01,-6.966160583496093750e+01,3.635087966918945312e+01,-1.096347618103027344e+01,-1.118846130371093750e+02,-1.253979721069335938e+02,6.291336441040039062e+01,-4.419527816772460938e+01
1.047999978065490723e+00,2.000000000000000000e+00,4.186287307739257812e+01,1.305567860603332520e+00,3.485831832885742188e+01,-1.213986511230468750e+02,9.130744171142578125e+01,-6.968611907958984375e+01,3.628153991699218750e+01,-1.095872020721435547e+01,-1.118919754028320312e+02,-1.254578018188476562e+02,6.290955352783203125e+01,-4.422100067138671875e+01
1.052000045776367188e+00,2.000000000000000000e+00,4.189119720458984375e+01,1.258558154106140137e+00,3.485181808471679688e+01,-1.214522094726562500e+02,9.131011962890625000e+01,-6.971063232421875000e+01,3.621220016479492188e+01,-1.095396423339843750e+01,-1.118993453979492188e+02,-1.255176391601562500e+02,6.290574264526367188e+01,-4.424671936035156250e+01
1.054999947547912598e+00,2.000000000000000000e+00,4.191952133178710938e+01,1.211550116539001465e+00,3.484532546997070312e+01,-1.215057601928710938e+02,9.131278991699218750e+01,-6.973513793945312500e+01,3.614286041259765625e+01,-1.094920921325683594e+01,-1.119067077636718750e+02,-1.255774688720703125e+02,6.290193939208984375e+01,-4.427243804931640625e+01
1.059999942779541016e+00,2.000000000000000000e+00,4.194784545898437500e+01,1.164543986320495605e+00,3.483882904052734375e+01,-1.215593109130859375e+02,9.131546020507812500e+01,-6.975965118408203125e+01,3.607353210449218750e+01,-1.094445323944091797e+01,-1.119140701293945312e+02,-1.256372909545898438e+02,6.289812850952148438e+01,-4.429816055297851562e+01
1.064000010490417480e+00,2.000000000000000000e+00,4.197616958618164062e+01,1.117539405822753906e+00,3.483232879638671875e+01,-1.216128616333007812e+02,9.131813812255859375e+01,-6.978415679931640625e+01,3.600419998168945312e+01,-1.093969917297363281e+01,-1.119214401245117188e+02,-1.256971206665039062e+02,6.289431381225585938e+01,-4.432387924194335938e+01
1.067999958992004395e+00,2.000000000000000000e+00,4.200449371337890625e+01,1.070536732673645020e+00,3.482583236694335938e+01,-1.216664047241210938e+02,9.132080841064453125e+01,-6.980867004394531250e+01,3.593487167358398438e+01,-1.093494415283203125e+01,-1.119288024902343750e+02,-1.257569427490234375e+02,6.289050292968750000e+01,-4.434959411621093750e+01
1.072000026702880859e+00,2.000000000000000000e+00,4.203281402587890625e+01,1.023535728454589844e+00,3.481933975219726562e+01,-1.217199401855468750e+02,9.132348632812500000e+01,-6.983317565917968750e+01,3.586554718017578125e+01,-1.093019008636474609e+01,-1.119361648559570312e+02,-1.258167572021484375e+02,6.288669967651367188e+01,-4.437530899047851562e+01
1.075999975204467773e+00,2.000000000000000000e+00,4.206113052368164062e+01,9.765365123748779297e-01,3.481284332275390625e+01,-1.217734909057617188e+02,9.132616424560546875e+01,-6.985768127441406250e+01,3.579622268676757812e+01,-1.092543506622314453e+01,-1.119435272216796875e+02,-1.258765792846679688e+02,6.288288879394531250e+01,-4.440102386474609375e+01
1.080000042915344238e+00,2.000000000000000000e+00,4.208945465087890625e+01,9.295389056205749512e-01,3.480634689331054688e+01,-1.218270263671875000e+02,9.132883453369140625e+01,-6.988218688964843750e+01,3.572690200805664062e+01,-1.092068099975585938e+01,-1.119508895874023438e+02,-1.259363937377929688e+02,6.287907791137695312e+01,-4.442673873901367188e+01
1.083999991416931152e+00,2.000000000000000000e+00,4.211776733398437500e+01,8.825430274009704590e-01,3.479985046386718750e+01,-1.218805618286132812e+02,9.133151245117187500e+01,-6.990668487548828125e+01,3.565758514404296875e+01,-1.091592693328857422e+01,-1.119582595825195312e+02,-1.259962005615234375e+02,6.287527465820312500e+01,-4.445245361328125000e+01
1.088000059127807617e+00,2.000000000000000000e+00,4.214608764648437500e+01,8.355488181114196777e-01,3.479335784912109375e+01,-1.219341125488281250e+02,9.133418273925781250e+01,-6.993119049072265625e+01,3.558827209472656250e+01,-1.091117286682128906e+01,-1.119656219482421875e+02,-1.260560226440429688e+02,6.287145996093750000e+01,-4.447816467285156250e+01
1.090999960899353027e+00,2.000000000000000000e+00,4.217440032958984375e+01,7.885562777519226074e-01,3.478686523437500000e+01,-1.219876327514648438e+02,9.133686065673828125e+01,-6.995569610595703125e+01,3.551895904541015625e+01,-1.090641880035400391e+01,-1.119729843139648438e+02,-1.261158218383789062e+02,6.286764907836914062e+01,-4.450387573242187500e+01
1.095999956130981445e+00,2.000000000000000000e+00,4.220271682739257812e+01,7.415654659271240234e-01,3.478036880493164062e+01,-1.220411682128906250e+02,9.133953094482421875e+01,-6.998019409179687500e+01,3.544964981079101562e+01,-1.090166568756103516e+01,-1.119803466796875000e+02,-1.261756286621093750e+02,6.286384582519531250e+01,-4.452958679199218750e+01
1.100000023841857910e+00,2.000000000000000000e+00,4.223102951049804688e+01,6.945762634277343750e-01,3.477387237548828125e+01,-1.220947036743164062e+02,9.134220886230468750e+01,-7.000469207763671875e+01,3.538034057617187500e+01,-1.089691257476806641e+01,-1.119877090454101562e+02,-1.262354354858398438e+02,6.286003494262695312e+01,-4.455529403686523438e+01
1.103999972343444824e+00,2.000000000000000000e+00,4.225934219360351562e+01,6.475887298583984375e-01,3.476737976074218750e+01,-1.221482238769531250e+02,9.134487915039062500e+01,-7.002919006347656250e+01,3.531103515625000000e+01,-1.089215946197509766e+01,-1.119950714111328125e+02,-1.262952423095703125e+02,6.285623168945312500e+01,-4.458100509643554688e+01
1.108000040054321289e+00,2.000000000000000000e+00,4.228765487670898438e+01,6.006027460098266602e-01,3.476088714599609375e+01,-1.222017593383789062e+02,9.134755706787109375e+01,-7.005369567871093750e+01,3.524172973632812500e+01,-1.088740634918212891e+01,-1.120024337768554688e+02,-1.263550415039062500e+02,6.285242080688476562e+01,-4.460671234130859375e+01
1.111999988555908203e+00,2.000000000000000000e+00,4.231596755981445312e+01,5.536184906959533691e-01,3.475439453125000000e+01,-1.222552795410156250e+02,9.135022735595703125e+01,-7.007819366455078125e+01,3.517243194580078125e+01,-1.088265323638916016e+01,-1.120097961425781250e+02,-1.264148330688476562e+02,6.284861373901367188e+01,-4.463241958618164062e+01
