rpiRobotics/ARM-21-02-F-19-Robot-Motion-Program/data_performance_abb/curve_2/dual_arm/diffevo_pose6_3/30L/grad_result/sim/dual_iteration_5.csv
timestamp,cmd_num,J1,J2,J3,J4,J5,J6,J1_2,J2_2,J3_2,J4_2,J5_2,J6_2
0.000000000000000000e+00,-1.000000000000000000e+00,3.555050659179687500e+01,1.269018745422363281e+01,3.554406738281250000e+01,-1.084718246459960938e+02,9.079343414306640625e+01,-6.399903869628906250e+01,5.311926651000976562e+01,-1.414733791351318359e+01,-1.062450561523437500e+02,-1.136774520874023438e+02,6.399488449096679688e+01,-3.621487045288085938e+01
2.000000094994902611e-03,-1.000000000000000000e+00,3.555050659179687500e+01,1.269018745422363281e+01,3.554406738281250000e+01,-1.084718246459960938e+02,9.079343414306640625e+01,-6.399903869628906250e+01,5.311926651000976562e+01,-1.414733791351318359e+01,-1.062450561523437500e+02,-1.136774520874023438e+02,6.399488449096679688e+01,-3.621487045288085938e+01
4.000000189989805222e-03,-1.000000000000000000e+00,3.555050659179687500e+01,1.269018745422363281e+01,3.554406738281250000e+01,-1.084718246459960938e+02,9.079343414306640625e+01,-6.399903869628906250e+01,5.311926651000976562e+01,-1.414733791351318359e+01,-1.062450561523437500e+02,-1.136774520874023438e+02,6.399488449096679688e+01,-3.621487045288085938e+01
9.999999776482582092e-03,-1.000000000000000000e+00,3.555050659179687500e+01,1.269018745422363281e+01,3.554406738281250000e+01,-1.084718246459960938e+02,9.079343414306640625e+01,-6.399903869628906250e+01,5.311926651000976562e+01,-1.414733791351318359e+01,-1.062450561523437500e+02,-1.136774520874023438e+02,6.399488449096679688e+01,-3.621487045288085938e+01
1.200000010430812836e-02,-1.000000000000000000e+00,3.555050659179687500e+01,1.269018745422363281e+01,3.554406738281250000e+01,-1.084718246459960938e+02,9.079343414306640625e+01,-6.399903869628906250e+01,5.311926651000976562e+01,-1.414733791351318359e+01,-1.062450561523437500e+02,-1.136774520874023438e+02,6.399488449096679688e+01,-3.621487045288085938e+01
1.600000075995922089e-02,-1.000000000000000000e+00,3.555050659179687500e+01,1.269018745422363281e+01,3.554406738281250000e+01,-1.084718246459960938e+02,9.079343414306640625e+01,-6.399903869628906250e+01,5.311926651000976562e+01,-1.414733791351318359e+01,-1.062450561523437500e+02,-1.136774520874023438e+02,6.399488449096679688e+01,-3.621487045288085938e+01
1.999999955296516418e-02,-1.000000000000000000e+00,3.555050659179687500e+01,1.269018745422363281e+01,3.554406738281250000e+01,-1.084718246459960938e+02,9.079343414306640625e+01,-6.399903869628906250e+01,5.311926651000976562e+01,-1.414733791351318359e+01,-1.062450561523437500e+02,-1.136774520874023438e+02,6.399488449096679688e+01,-3.621487045288085938e+01
2.400000020861625671e-02,-1.000000000000000000e+00,3.555050659179687500e+01,1.269018745422363281e+01,3.554406738281250000e+01,-1.084718246459960938e+02,9.079343414306640625e+01,-6.399903869628906250e+01,5.311926651000976562e+01,-1.414733791351318359e+01,-1.062450561523437500e+02,-1.136774520874023438e+02,6.399488449096679688e+01,-3.621487045288085938e+01
2.800000086426734924e-02,-1.000000000000000000e+00,3.555050659179687500e+01,1.269018745422363281e+01,3.554406738281250000e+01,-1.084718246459960938e+02,9.079343414306640625e+01,-6.399903869628906250e+01,5.311926651000976562e+01,-1.414733791351318359e+01,-1.062450561523437500e+02,-1.136774520874023438e+02,6.399488449096679688e+01,-3.621487045288085938e+01
3.200000151991844177e-02,2.000000000000000000e+00,3.555050659179687500e+01,1.269018745422363281e+01,3.554406738281250000e+01,-1.084718246459960938e+02,9.079343414306640625e+01,-6.399903869628906250e+01,5.311926651000976562e+01,-1.414733791351318359e+01,-1.062450561523437500e+02,-1.136774520874023438e+02,6.399488449096679688e+01,-3.621487045288085938e+01
3.700000047683715820e-02,2.000000000000000000e+00,3.555050659179687500e+01,1.269018745422363281e+01,3.554406738281250000e+01,-1.084718246459960938e+02,9.079343414306640625e+01,-6.399903869628906250e+01,5.311926651000976562e+01,-1.414733791351318359e+01,-1.062450561523437500e+02,-1.136774520874023438e+02,6.399488449096679688e+01,-3.621487045288085938e+01
4.300000146031379700e-02,2.000000000000000000e+00,3.555050659179687500e+01,1.269018745422363281e+01,3.554406738281250000e+01,-1.084718246459960938e+02,9.079343414306640625e+01,-6.399903869628906250e+01,5.311926651000976562e+01,-1.414733791351318359e+01,-1.062450561523437500e+02,-1.136774520874023438e+02,6.399488449096679688e+01,-3.621487045288085938e+01
4.399999976158142090e-02,2.000000000000000000e+00,3.555050659179687500e+01,1.269018745422363281e+01,3.554406738281250000e+01,-1.084718246459960938e+02,9.079343414306640625e+01,-6.399903869628906250e+01,5.311926651000976562e+01,-1.414733791351318359e+01,-1.062450561523437500e+02,-1.136774520874023438e+02,6.399488449096679688e+01,-3.621487045288085938e+01
5.000000074505805969e-02,2.000000000000000000e+00,3.555050659179687500e+01,1.269018745422363281e+01,3.554406738281250000e+01,-1.084718246459960938e+02,9.079343414306640625e+01,-6.399903869628906250e+01,5.311926651000976562e+01,-1.414733791351318359e+01,-1.062450561523437500e+02,-1.136774520874023438e+02,6.399488449096679688e+01,-3.621487045288085938e+01
5.200000107288360596e-02,2.000000000000000000e+00,3.555050659179687500e+01,1.269018745422363281e+01,3.554406738281250000e+01,-1.084718246459960938e+02,9.079343414306640625e+01,-6.399903869628906250e+01,5.311926651000976562e+01,-1.414733791351318359e+01,-1.062450561523437500e+02,-1.136774520874023438e+02,6.399488449096679688e+01,-3.621487045288085938e+01
5.600000172853469849e-02,2.000000000000000000e+00,3.555050659179687500e+01,1.269018745422363281e+01,3.554406738281250000e+01,-1.084718246459960938e+02,9.079343414306640625e+01,-6.399903869628906250e+01,5.311926651000976562e+01,-1.414733791351318359e+01,-1.062450561523437500e+02,-1.136774520874023438e+02,6.399488449096679688e+01,-3.621487045288085938e+01
5.999999865889549255e-02,2.000000000000000000e+00,3.555050659179687500e+01,1.269018745422363281e+01,3.554406738281250000e+01,-1.084718246459960938e+02,9.079343414306640625e+01,-6.399903869628906250e+01,5.311926651000976562e+01,-1.414733791351318359e+01,-1.062450561523437500e+02,-1.136774520874023438e+02,6.399488449096679688e+01,-3.621487045288085938e+01
6.400000303983688354e-02,2.000000000000000000e+00,3.555050659179687500e+01,1.269018745422363281e+01,3.554406738281250000e+01,-1.084718246459960938e+02,9.079343414306640625e+01,-6.399903869628906250e+01,5.311926651000976562e+01,-1.414733791351318359e+01,-1.062450561523437500e+02,-1.136774520874023438e+02,6.399488449096679688e+01,-3.621487045288085938e+01
6.800000369548797607e-02,2.000000000000000000e+00,3.555050659179687500e+01,1.269018745422363281e+01,3.554406738281250000e+01,-1.084718246459960938e+02,9.079343414306640625e+01,-6.399903869628906250e+01,5.311926651000976562e+01,-1.414733791351318359e+01,-1.062450561523437500e+02,-1.136774520874023438e+02,6.399488449096679688e+01,-3.621487045288085938e+01
7.199999690055847168e-02,2.000000000000000000e+00,3.555050659179687500e+01,1.269018745422363281e+01,3.554406738281250000e+01,-1.084718246459960938e+02,9.079343414306640625e+01,-6.399903869628906250e+01,5.311926651000976562e+01,-1.414733791351318359e+01,-1.062450561523437500e+02,-1.136774520874023438e+02,6.399488449096679688e+01,-3.621487045288085938e+01
7.599999755620956421e-02,2.000000000000000000e+00,3.555053710937500000e+01,1.269016456604003906e+01,3.554406738281250000e+01,-1.084718246459960938e+02,9.079343414306640625e+01,-6.399903869628906250e+01,5.311926651000976562e+01,-1.414733791351318359e+01,-1.062450561523437500e+02,-1.136774520874023438e+02,6.399488449096679688e+01,-3.621487045288085938e+01
7.999999821186065674e-02,2.000000000000000000e+00,3.555072021484375000e+01,1.269001770019531250e+01,3.554407119750976562e+01,-1.084718399047851562e+02,9.079344177246093750e+01,-6.399903869628906250e+01,5.311926651000976562e+01,-1.414733791351318359e+01,-1.062450561523437500e+02,-1.136774520874023438e+02,6.399488449096679688e+01,-3.621487045288085938e+01
8.399999886751174927e-02,2.000000000000000000e+00,3.555126190185546875e+01,1.268956565856933594e+01,3.554408645629882812e+01,-1.084718780517578125e+02,9.079344940185546875e+01,-6.399904251098632812e+01,5.311926651000976562e+01,-1.414733791351318359e+01,-1.062450561523437500e+02,-1.136774520874023438e+02,6.399488449096679688e+01,-3.621487045288085938e+01
8.799999952316284180e-02,2.000000000000000000e+00,3.555234146118164062e+01,1.268859767913818359e+01,3.554410552978515625e+01,-1.084719696044921875e+02,9.079349517822265625e+01,-6.399907684326171875e+01,5.311923599243164062e+01,-1.414733982086181641e+01,-1.062450485229492188e+02,-1.136774520874023438e+02,6.399488449096679688e+01,-3.621487045288085938e+01
9.200000017881393433e-02,2.000000000000000000e+00,3.555404663085937500e+01,1.268694972991943359e+01,3.554413223266601562e+01,-1.084722061157226562e+02,9.079356384277343750e+01,-6.399916839599609375e+01,5.311902236938476562e+01,-1.414735603332519531e+01,-1.062450103759765625e+02,-1.136774673461914062e+02,6.399487686157226562e+01,-3.621487426757812500e+01
9.600000083446502686e-02,2.000000000000000000e+00,3.555640411376953125e+01,1.268449687957763672e+01,3.554415512084960938e+01,-1.084726943969726562e+02,9.079366302490234375e+01,-6.399935913085937500e+01,5.311832809448242188e+01,-1.414740753173828125e+01,-1.062448806762695312e+02,-1.136775283813476562e+02,6.399486541748046875e+01,-3.621490097045898438e+01
1.000000014901161194e-01,2.000000000000000000e+00,3.555942535400390625e+01,1.268110561370849609e+01,3.554415893554687500e+01,-1.084735717773437500e+02,9.079380798339843750e+01,-6.399972534179687500e+01,5.311676025390625000e+01,-1.414751052856445312e+01,-1.062446136474609375e+02,-1.136777114868164062e+02,6.399483489990234375e+01,-3.621497726440429688e+01
1.040000021457672119e-01,2.000000000000000000e+00,3.556314468383789062e+01,1.267661190032958984e+01,3.554412460327148438e+01,-1.084750518798828125e+02,9.079399871826171875e+01,-6.400035858154296875e+01,5.311393737792968750e+01,-1.414766120910644531e+01,-1.062441940307617188e+02,-1.136781463623046875e+02,6.399477005004882812e+01,-3.621519088745117188e+01
1.080000028014183044e-01,2.000000000000000000e+00,3.556758499145507812e+01,1.267082405090332031e+01,3.554402160644531250e+01,-1.084773559570312500e+02,9.079425811767578125e+01,-6.400135803222656250e+01,5.310951232910156250e+01,-1.414783668518066406e+01,-1.062436599731445312e+02,-1.136790618896484375e+02,6.399465942382812500e+01,-3.621564865112304688e+01
1.120000034570693970e-01,2.000000000000000000e+00,3.557282257080078125e+01,1.266350936889648438e+01,3.554383087158203125e+01,-1.084807662963867188e+02,9.079460144042968750e+01,-6.400286102294921875e+01,5.310311126708984375e+01,-1.414798831939697266e+01,-1.062431030273437500e+02,-1.136807632446289062e+02,6.399447631835937500e+01,-3.621651458740234375e+01
1.159999966621398926e-01,2.000000000000000000e+00,3.557902908325195312e+01,1.265439510345458984e+01,3.554351425170898438e+01,-1.084856185913085938e+02,9.079502868652343750e+01,-6.400500488281250000e+01,5.309437179565429688e+01,-1.414804553985595703e+01,-1.062426223754882812e+02,-1.136836318969726562e+02,6.399419403076171875e+01,-3.621800231933593750e+01
1.199999973177909851e-01,2.000000000000000000e+00,3.558642959594726562e+01,1.264316654205322266e+01,3.554302978515625000e+01,-1.084922637939453125e+02,9.079557800292968750e+01,-6.400797271728515625e+01,5.308299255371093750e+01,-1.414791679382324219e+01,-1.062424163818359375e+02,-1.136881179809570312e+02,6.399378585815429688e+01,-3.622034835815429688e+01
1.239999979734420776e-01,2.000000000000000000e+00,3.559519958496093750e+01,1.262957096099853516e+01,3.554234313964843750e+01,-1.085010986328125000e+02,9.079625701904296875e+01,-6.401194000244140625e+01,5.306864166259765625e+01,-1.414749717712402344e+01,-1.062426605224609375e+02,-1.136947021484375000e+02,6.399320983886718750e+01,-3.622381591796875000e+01
1.280000060796737671e-01,2.000000000000000000e+00,3.560531234741210938e+01,1.261361885070800781e+01,3.554139709472656250e+01,-1.085125579833984375e+02,9.079706573486328125e+01,-6.401709747314453125e+01,5.305085754394531250e+01,-1.414669322967529297e+01,-1.062435302734375000e+02,-1.137039108276367188e+02,6.399244689941406250e+01,-3.622869491577148438e+01
1.309999972581863403e-01,2.000000000000000000e+00,3.561655426025390625e+01,1.259560298919677734e+01,3.554012298583984375e+01,-1.085270385742187500e+02,9.079801177978515625e+01,-6.402364349365234375e+01,5.302904129028320312e+01,-1.414542007446289062e+01,-1.062451705932617188e+02,-1.137162475585937500e+02,6.399144744873046875e+01,-3.623524856567382812e+01
1.360000073909759521e-01,2.000000000000000000e+00,3.562870025634765625e+01,1.257585906982421875e+01,3.553846740722656250e+01,-1.085449066162109375e+02,9.079907989501953125e+01,-6.403176116943359375e+01,5.300262832641601562e+01,-1.414359569549560547e+01,-1.062477188110351562e+02,-1.137322082519531250e+02,6.399017333984375000e+01,-3.624375152587890625e+01
1.389999985694885254e-01,2.000000000000000000e+00,3.564165878295898438e+01,1.255451583862304688e+01,3.553638076782226562e+01,-1.085664443969726562e+02,9.080028533935546875e+01,-6.404158782958984375e+01,5.297139739990234375e+01,-1.414111328125000000e+01,-1.062513732910156250e+02,-1.137522811889648438e+02,6.398860168457031250e+01,-3.625446319580078125e+01
1.439999938011169434e-01,2.000000000000000000e+00,3.565547180175781250e+01,1.253152084350585938e+01,3.553384780883789062e+01,-1.085918502807617188e+02,9.080161285400390625e+01,-6.405319976806640625e+01,5.293556594848632812e+01,-1.413784408569335938e+01,-1.062564163208007812e+02,-1.137768554687500000e+02,6.398670959472656250e+01,-3.626760482788085938e+01
1.480000019073486328e-01,2.000000000000000000e+00,3.567021560668945312e+01,1.250677299499511719e+01,3.553086090087890625e+01,-1.086211776733398438e+02,9.080308532714843750e+01,-6.406663513183593750e+01,5.289556884765625000e+01,-1.413367652893066406e+01,-1.062630767822265625e+02,-1.138061904907226562e+02,6.398448944091796875e+01,-3.628332138061523438e+01
1.519999951124191284e-01,2.000000000000000000e+00,3.568598937988281250e+01,1.248011779785156250e+01,3.552743148803710938e+01,-1.086543579101562500e+02,9.080469512939453125e+01,-6.408185577392578125e+01,5.285179901123046875e+01,-1.412855243682861328e+01,-1.062714996337890625e+02,-1.138403778076171875e+02,6.398193359375000000e+01,-3.630166625976562500e+01
1.560000032186508179e-01,2.000000000000000000e+00,3.570293426513671875e+01,1.245134925842285156e+01,3.552359008789062500e+01,-1.086912384033203125e+02,9.080645751953125000e+01,-6.409878540039062500e+01,5.280461502075195312e+01,-1.412248039245605469e+01,-1.062817001342773438e+02,-1.138792572021484375e+02,6.397906494140625000e+01,-3.632255935668945312e+01
1.599999964237213135e-01,2.000000000000000000e+00,3.572112655639648438e+01,1.242034530639648438e+01,3.551937103271484375e+01,-1.087315750122070312e+02,9.080836486816406250e+01,-6.411730957031250000e+01,5.275435638427734375e+01,-1.411553192138671875e+01,-1.062935256958007812e+02,-1.139224548339843750e+02,6.397590255737304688e+01,-3.634579849243164062e+01
1.640000045299530029e-01,2.000000000000000000e+00,3.574049377441406250e+01,1.238718795776367188e+01,3.551481246948242188e+01,-1.087750625610351562e+02,9.081040191650390625e+01,-6.413728332519531250e+01,5.270110702514648438e+01,-1.410786533355712891e+01,-1.063066940307617188e+02,-1.139693679809570312e+02,6.397248840332031250e+01,-3.637104415893554688e+01
1.679999977350234985e-01,2.000000000000000000e+00,3.576083374023437500e+01,1.235214233398437500e+01,3.550995635986328125e+01,-1.088213348388671875e+02,9.081256866455078125e+01,-6.415853881835937500e+01,5.264454269409179688e+01,-1.409970855712890625e+01,-1.063207168579101562e+02,-1.140192794799804688e+02,6.396884918212890625e+01,-3.639790344238281250e+01
1.720000058412551880e-01,2.000000000000000000e+00,3.578189468383789062e+01,1.231548213958740234e+01,3.550483703613281250e+01,-1.088699874877929688e+02,9.081484222412109375e+01,-6.418089294433593750e+01,5.258432006835937500e+01,-1.409130191802978516e+01,-1.063351135253906250e+02,-1.140714111328125000e+02,6.396503829956054688e+01,-3.642594528198242188e+01
1.759999990463256836e-01,2.000000000000000000e+00,3.580360794067382812e+01,1.227729606628417969e+01,3.549951553344726562e+01,-1.089206008911132812e+02,9.081720733642578125e+01,-6.420413970947265625e+01,5.252050781250000000e+01,-1.408283233642578125e+01,-1.063494949340820312e+02,-1.141250686645507812e+02,6.396108245849609375e+01,-3.645478439331054688e+01
1.800000071525573730e-01,2.000000000000000000e+00,3.582611465454101562e+01,1.223747444152832031e+01,3.549404907226562500e+01,-1.089727554321289062e+02,9.081966400146484375e+01,-6.422808837890625000e+01,5.245360565185546875e+01,-1.407441043853759766e+01,-1.063636703491210938e+02,-1.141796493530273438e+02,6.395703887939453125e+01,-3.648410415649414062e+01
1.840000003576278687e-01,2.000000000000000000e+00,3.584966278076171875e+01,1.219589233398437500e+01,3.548848724365234375e+01,-1.090260238647460938e+02,9.082219696044921875e+01,-6.425254058837890625e+01,5.238422775268554688e+01,-1.406608867645263672e+01,-1.063775405883789062e+02,-1.142347412109375000e+02,6.395293426513671875e+01,-3.651367950439453125e+01
1.879999935626983643e-01,2.000000000000000000e+00,3.587435150146484375e+01,1.215258312225341797e+01,3.548288726806640625e+01,-1.090800552368164062e+02,9.082481384277343750e+01,-6.427732849121093750e+01,5.231301879882812500e+01,-1.405787944793701172e+01,-1.063911209106445312e+02,-1.142900772094726562e+02,6.394878768920898438e+01,-3.654336166381835938e+01
1.920000016689300537e-01,2.000000000000000000e+00,3.590018081665039062e+01,1.210772800445556641e+01,3.547727584838867188e+01,-1.091345748901367188e+02,9.082749176025390625e+01,-6.430231475830078125e+01,5.224070358276367188e+01,-1.404975414276123047e+01,-1.064044799804687500e+02,-1.143454895019531250e+02,6.394462966918945312e+01,-3.657308197021484375e+01
1.959999948740005493e-01,2.000000000000000000e+00,3.592709350585937500e+01,1.206155967712402344e+01,3.547167587280273438e+01,-1.091893463134765625e+02,9.083023071289062500e+01,-6.432740783691406250e+01,5.216790390014648438e+01,-1.404166889190673828e+01,-1.064177398681640625e+02,-1.144009246826171875e+02,6.394045639038085938e+01,-3.660280990600585938e+01
2.000000029802322388e-01,2.000000000000000000e+00,3.595493316650390625e+01,1.201439476013183594e+01,3.546609115600585938e+01,-1.092442474365234375e+02,9.083301544189453125e+01,-6.435254669189453125e+01,5.209499359130859375e+01,-1.403359508514404297e+01,-1.064309692382812500e+02,-1.144563598632812500e+02,6.393628311157226562e+01,-3.663253402709960938e+01
2.039999961853027344e-01,2.000000000000000000e+00,3.598339843750000000e+01,1.196663570404052734e+01,3.546052169799804688e+01,-1.092991943359375000e+02,9.083581542968750000e+01,-6.437769317626953125e+01,5.202208709716796875e+01,-1.402552413940429688e+01,-1.064441986083984375e+02,-1.145117874145507812e+02,6.393211364746093750e+01,-3.666225433349609375e+01
2.080000042915344238e-01,2.000000000000000000e+00,3.601214599609375000e+01,1.191863632202148438e+01,3.545495986938476562e+01,-1.093541564941406250e+02,9.083863067626953125e+01,-6.440285491943359375e+01,5.194918823242187500e+01,-1.401745319366455078e+01,-1.064574203491210938e+02,-1.145672073364257812e+02,6.392794036865234375e+01,-3.669197082519531250e+01
2.119999974966049194e-01,2.000000000000000000e+00,3.604095077514648438e+01,1.187058925628662109e+01,3.544939804077148438e+01,-1.094091110229492188e+02,9.084143829345703125e+01,-6.442800140380859375e+01,5.187629318237304688e+01,-1.400938320159912109e+01,-1.064706420898437500e+02,-1.146226272583007812e+02,6.392377471923828125e+01,-3.672168731689453125e+01
2.160000056028366089e-01,2.000000000000000000e+00,3.606976318359375000e+01,1.182254505157470703e+01,3.544383621215820312e+01,-1.094640655517578125e+02,9.084424591064453125e+01,-6.445314788818359375e+01,5.180340957641601562e+01,-1.400131416320800781e+01,-1.064838638305664062e+02,-1.146780319213867188e+02,6.391960144042968750e+01,-3.675139617919921875e+01
2.199999988079071045e-01,2.000000000000000000e+00,3.609856796264648438e+01,1.177450656890869141e+01,3.543827819824218750e+01,-1.095190048217773438e+02,9.084706115722656250e+01,-6.447829437255859375e+01,5.173053359985351562e+01,-1.399324607849121094e+01,-1.064970932006835938e+02,-1.147334365844726562e+02,6.391543579101562500e+01,-3.678110504150390625e+01
2.240000069141387939e-01,2.000000000000000000e+00,3.612736892700195312e+01,1.172647285461425781e+01,3.543271636962890625e+01,-1.095739364624023438e+02,9.084987640380859375e+01,-6.450343322753906250e+01,5.165766906738281250e+01,-1.398517894744873047e+01,-1.065103149414062500e+02,-1.147888336181640625e+02,6.391127014160156250e+01,-3.681081008911132812e+01
2.280000001192092896e-01,2.000000000000000000e+00,3.615617370605468750e+01,1.167844390869140625e+01,3.542715835571289062e+01,-1.096288681030273438e+02,9.085268402099609375e+01,-6.452857208251953125e+01,5.158480834960937500e+01,-1.397711277008056641e+01,-1.065235290527343750e+02,-1.148442230224609375e+02,6.390710449218750000e+01,-3.684051132202148438e+01
2.319999933242797852e-01,2.000000000000000000e+00,3.618497085571289062e+01,1.163042068481445312e+01,3.542160034179687500e+01,-1.096837997436523438e+02,9.085549926757812500e+01,-6.455371093750000000e+01,5.151195526123046875e+01,-1.396904754638671875e+01,-1.065367431640625000e+02,-1.148996124267578125e+02,6.390293502807617188e+01,-3.687020874023437500e+01
2.360000014305114746e-01,2.000000000000000000e+00,3.621376419067382812e+01,1.158240222930908203e+01,3.541604232788085938e+01,-1.097387084960937500e+02,9.085831451416015625e+01,-6.457884216308593750e+01,5.143911361694335938e+01,-1.396098327636718750e+01,-1.065499649047851562e+02,-1.149549942016601562e+02,6.389876174926757812e+01,-3.689990234375000000e+01
2.399999946355819702e-01,2.000000000000000000e+00,3.624255371093750000e+01,1.153438949584960938e+01,3.541048431396484375e+01,-1.097936248779296875e+02,9.086112213134765625e+01,-6.460398101806640625e+01,5.136627960205078125e+01,-1.395291996002197266e+01,-1.065631713867187500e+02,-1.150103607177734375e+02,6.389459609985351562e+01,-3.692959594726562500e+01
2.440000027418136597e-01,2.000000000000000000e+00,3.627133941650390625e+01,1.148638153076171875e+01,3.540492630004882812e+01,-1.098485336303710938e+02,9.086392974853515625e+01,-6.462911224365234375e+01,5.129344558715820312e+01,-1.394485664367675781e+01,-1.065763854980468750e+02,-1.150657272338867188e+02,6.389043807983398438e+01,-3.695928573608398438e+01
2.479999959468841553e-01,2.000000000000000000e+00,3.630012512207031250e+01,1.143837833404541016e+01,3.539937210083007812e+01,-1.099034347534179688e+02,9.086673736572265625e+01,-6.465422821044921875e+01,5.122062683105468750e+01,-1.393679428100585938e+01,-1.065895996093750000e+02,-1.151210937500000000e+02,6.388627243041992188e+01,-3.698896789550781250e+01
2.520000040531158447e-01,2.000000000000000000e+00,3.632891082763671875e+01,1.139038085937500000e+01,3.539381790161132812e+01,-1.099583282470703125e+02,9.086954498291015625e+01,-6.467935943603515625e+01,5.114781570434570312e+01,-1.392873382568359375e+01,-1.066028060913085938e+02,-1.151764450073242188e+02,6.388210296630859375e+01,-3.701865386962890625e+01
2.560000121593475342e-01,2.000000000000000000e+00,3.635768890380859375e+01,1.134238719940185547e+01,3.538826370239257812e+01,-1.100132141113281250e+02,9.087236022949218750e+01,-6.470447540283203125e+01,5.107501220703125000e+01,-1.392067337036132812e+01,-1.066160202026367188e+02,-1.152317962646484375e+02,6.387793731689453125e+01,-3.704832839965820312e+01
2.599999904632568359e-01,2.000000000000000000e+00,3.638646316528320312e+01,1.129440021514892578e+01,3.538270950317382812e+01,-1.100680999755859375e+02,9.087516784667968750e+01,-6.472959136962890625e+01,5.100221633911132812e+01,-1.391261386871337891e+01,-1.066292190551757812e+02,-1.152871475219726562e+02,6.387377929687500000e+01,-3.707800674438476562e+01
2.639999985694885254e-01,2.000000000000000000e+00,3.641523742675781250e+01,1.124641704559326172e+01,3.537715530395507812e+01,-1.101229782104492188e+02,9.087797546386718750e+01,-6.475470733642578125e+01,5.092942047119140625e+01,-1.390455627441406250e+01,-1.066424255371093750e+02,-1.153424835205078125e+02,6.386961364746093750e+01,-3.710767745971679688e+01
2.680000066757202148e-01,2.000000000000000000e+00,3.644400405883789062e+01,1.119843959808349609e+01,3.537160491943359375e+01,-1.101778488159179688e+02,9.088078308105468750e+01,-6.477982330322265625e+01,5.085664367675781250e+01,-1.389649772644042969e+01,-1.066556320190429688e+02,-1.153978118896484375e+02,6.386544418334960938e+01,-3.713734817504882812e+01
2.720000147819519043e-01,2.000000000000000000e+00,3.647277450561523438e+01,1.115046691894531250e+01,3.536605072021484375e+01,-1.102327194213867188e+02,9.088359069824218750e+01,-6.480493164062500000e+01,5.078386688232421875e+01,-1.388844108581542969e+01,-1.066688308715820312e+02,-1.154531326293945312e+02,6.386128616333007812e+01,-3.716701507568359375e+01
2.759999930858612061e-01,2.000000000000000000e+00,3.650153350830078125e+01,1.110249900817871094e+01,3.536049652099609375e+01,-1.102875747680664062e+02,9.088640594482421875e+01,-6.483003997802734375e+01,5.071109771728515625e+01,-1.388038444519042969e+01,-1.066820373535156250e+02,-1.155084609985351562e+02,6.385712051391601562e+01,-3.719667816162109375e+01
2.800000011920928955e-01,2.000000000000000000e+00,3.653029632568359375e+01,1.105453681945800781e+01,3.535494613647460938e+01,-1.103424301147460938e+02,9.088921356201171875e+01,-6.485514831542968750e+01,5.063833999633789062e+01,-1.387232971191406250e+01,-1.066952438354492188e+02,-1.155637664794921875e+02,6.385295867919921875e+01,-3.722633743286132812e+01
2.840000092983245850e-01,2.000000000000000000e+00,3.655905532836914062e+01,1.100657844543457031e+01,3.534939575195312500e+01,-1.103972854614257812e+02,9.089202117919921875e+01,-6.488024902343750000e+01,5.056558990478515625e+01,-1.386427593231201172e+01,-1.067084350585937500e+02,-1.156190795898437500e+02,6.384880065917968750e+01,-3.725599670410156250e+01
2.879999876022338867e-01,2.000000000000000000e+00,3.658780670166015625e+01,1.095862579345703125e+01,3.534384536743164062e+01,-1.104521255493164062e+02,9.089482879638671875e+01,-6.490534973144531250e+01,5.049284362792968750e+01,-1.385622215270996094e+01,-1.067216339111328125e+02,-1.156743927001953125e+02,6.384464263916015625e+01,-3.728565216064453125e+01
2.919999957084655762e-01,2.000000000000000000e+00,3.661656188964843750e+01,1.091067790985107422e+01,3.533829498291015625e+01,-1.105069656372070312e+02,9.089763641357421875e+01,-6.493044281005859375e+01,5.042010498046875000e+01,-1.384816932678222656e+01,-1.067348251342773438e+02,-1.157296905517578125e+02,6.384047317504882812e+01,-3.731529998779296875e+01
2.960000038146972656e-01,2.000000000000000000e+00,3.664530944824218750e+01,1.086273384094238281e+01,3.533274841308593750e+01,-1.105617980957031250e+02,9.090043640136718750e+01,-6.495553588867187500e+01,5.034737396240234375e+01,-1.384011745452880859e+01,-1.067480239868164062e+02,-1.157849884033203125e+02,6.383631515502929688e+01,-3.734495162963867188e+01
3.000000119209289551e-01,2.000000000000000000e+00,3.667405700683593750e+01,1.081479549407958984e+01,3.532719802856445312e+01,-1.106166305541992188e+02,9.090324401855468750e+01,-6.498062896728515625e+01,5.027465438842773438e+01,-1.383206558227539062e+01,-1.067612228393554688e+02,-1.158402709960937500e+02,6.383215332031250000e+01,-3.737459564208984375e+01
3.039999902248382568e-01,2.000000000000000000e+00,3.670280075073242188e+01,1.076686191558837891e+01,3.532165145874023438e+01,-1.106714477539062500e+02,9.090605163574218750e+01,-6.500572204589843750e+01,5.020193481445312500e+01,-1.382401561737060547e+01,-1.067744064331054688e+02,-1.158955535888671875e+02,6.382799530029296875e+01,-3.740423965454101562e+01
3.079999983310699463e-01,2.000000000000000000e+00,3.673153686523437500e+01,1.071893310546875000e+01,3.531610107421875000e+01,-1.107262649536132812e+02,9.090885925292968750e+01,-6.503080749511718750e+01,5.012922668457031250e+01,-1.381596565246582031e+01,-1.067876052856445312e+02,-1.159508209228515625e+02,6.382383728027343750e+01,-3.743387985229492188e+01
3.120000064373016357e-01,2.000000000000000000e+00,3.676027679443359375e+01,1.067100906372070312e+01,3.531055450439453125e+01,-1.107810821533203125e+02,9.091166687011718750e+01,-6.505589294433593750e+01,5.005652236938476562e+01,-1.380791759490966797e+01,-1.068007965087890625e+02,-1.160060958862304688e+02,6.381968307495117188e+01,-3.746351623535156250e+01
3.160000145435333252e-01,2.000000000000000000e+00,3.678901290893554688e+01,1.062308883666992188e+01,3.530500793457031250e+01,-1.108358840942382812e+02,9.091446685791015625e+01,-6.508097076416015625e+01,4.998382949829101562e+01,-1.379986858367919922e+01,-1.068139801025390625e+02,-1.160613632202148438e+02,6.381552505493164062e+01,-3.749314880371093750e+01
3.199999928474426270e-01,2.000000000000000000e+00,3.681774139404296875e+01,1.057517433166503906e+01,3.529946136474609375e+01,-1.108906860351562500e+02,9.091726684570312500e+01,-6.510605621337890625e+01,4.991114425659179688e+01,-1.379182243347167969e+01,-1.068271636962890625e+02,-1.161166152954101562e+02,6.381136322021484375e+01,-3.752278137207031250e+01
3.240000009536743164e-01,2.000000000000000000e+00,3.684647369384765625e+01,1.052726459503173828e+01,3.529391860961914062e+01,-1.109454727172851562e+02,9.092007446289062500e+01,-6.513113403320312500e+01,4.983846282958984375e+01,-1.378377532958984375e+01,-1.068403549194335938e+02,-1.161718750000000000e+02,6.380720520019531250e+01,-3.755240631103515625e+01
3.280000090599060059e-01,2.000000000000000000e+00,3.687519836425781250e+01,1.047935962677001953e+01,3.528837585449218750e+01,-1.110002670288085938e+02,9.092287445068359375e+01,-6.515620422363281250e+01,4.976579284667968750e+01,-1.377573013305664062e+01,-1.068535385131835938e+02,-1.162271347045898438e+02,6.380305099487304688e+01,-3.758203506469726562e+01
3.319999873638153076e-01,2.000000000000000000e+00,3.690392303466796875e+01,1.043145847320556641e+01,3.528283309936523438e+01,-1.110550537109375000e+02,9.092568206787109375e+01,-6.518128204345703125e+01,4.969312667846679688e+01,-1.376768493652343750e+01,-1.068667221069335938e+02,-1.162823715209960938e+02,6.379889297485351562e+01,-3.761165618896484375e+01
3.359999954700469971e-01,2.000000000000000000e+00,3.693264389038085938e+01,1.038356304168701172e+01,3.527728652954101562e+01,-1.111098327636718750e+02,9.092848205566406250e+01,-6.520634460449218750e+01,4.962046813964843750e+01,-1.375964164733886719e+01,-1.068798980712890625e+02,-1.163376159667968750e+02,6.379473876953125000e+01,-3.764127731323242188e+01
3.400000035762786865e-01,2.000000000000000000e+00,3.696136093139648438e+01,1.033567142486572266e+01,3.527174377441406250e+01,-1.111646041870117188e+02,9.093128967285156250e+01,-6.523142242431640625e+01,4.954781723022460938e+01,-1.375159835815429688e+01,-1.068930816650390625e+02,-1.163928451538085938e+02,6.379058074951171875e+01,-3.767089080810546875e+01
3.440000116825103760e-01,2.000000000000000000e+00,3.699007415771484375e+01,1.028778457641601562e+01,3.526620101928710938e+01,-1.112193756103515625e+02,9.093408966064453125e+01,-6.525648498535156250e+01,4.947517395019531250e+01,-1.374355602264404297e+01,-1.069062652587890625e+02,-1.164480743408203125e+02,6.378642654418945312e+01,-3.770050430297851562e+01
3.479999899864196777e-01,2.000000000000000000e+00,3.701878738403320312e+01,1.023990249633789062e+01,3.526065826416015625e+01,-1.112741394042968750e+02,9.093689727783203125e+01,-6.528154754638671875e+01,4.940253448486328125e+01,-1.373551368713378906e+01,-1.069194412231445312e+02,-1.165032882690429688e+02,6.378226852416992188e+01,-3.773011398315429688e+01
3.519999980926513672e-01,2.000000000000000000e+00,3.704749679565429688e+01,1.019202518463134766e+01,3.525511932373046875e+01,-1.113288955688476562e+02,9.093969726562500000e+01,-6.530661010742187500e+01,4.932990646362304688e+01,-1.372747325897216797e+01,-1.069326171875000000e+02,-1.165585021972656250e+02,6.377811431884765625e+01,-3.775972366333007812e+01
3.560000061988830566e-01,2.000000000000000000e+00,3.707620239257812500e+01,1.014415264129638672e+01,3.524957656860351562e+01,-1.113836441040039062e+02,9.094250488281250000e+01,-6.533166503906250000e+01,4.925728225708007812e+01,-1.371943283081054688e+01,-1.069457931518554688e+02,-1.166137161254882812e+02,6.377396011352539062e+01,-3.778932571411132812e+01
3.600000143051147461e-01,2.000000000000000000e+00,3.710490798950195312e+01,1.009628391265869141e+01,3.524403762817382812e+01,-1.114383926391601562e+02,9.094530487060546875e+01,-6.535671997070312500e+01,4.918466567993164062e+01,-1.371139335632324219e+01,-1.069589691162109375e+02,-1.166689224243164062e+02,6.376980972290039062e+01,-3.781892776489257812e+01
3.639999926090240479e-01,2.000000000000000000e+00,3.713360977172851562e+01,1.004842090606689453e+01,3.523849868774414062e+01,-1.114931335449218750e+02,9.094811248779296875e+01,-6.538177490234375000e+01,4.911205673217773438e+01,-1.370335483551025391e+01,-1.069721450805664062e+02,-1.167241210937500000e+02,6.376565551757812500e+01,-3.784852981567382812e+01
3.680000007152557373e-01,2.000000000000000000e+00,3.716230392456054688e+01,1.000056171417236328e+01,3.523295593261718750e+01,-1.115478744506835938e+02,9.095091247558593750e+01,-6.540682983398437500e+01,4.903945541381835938e+01,-1.369531631469726562e+01,-1.069853134155273438e+02,-1.167793273925781250e+02,6.376150512695312500e+01,-3.787812423706054688e+01
3.720000088214874268e-01,2.000000000000000000e+00,3.719100189208984375e+01,9.952706336975097656e+00,3.522741699218750000e+01,-1.116026000976562500e+02,9.095371246337890625e+01,-6.543187713623046875e+01,4.896685791015625000e+01,-1.368727970123291016e+01,-1.069984817504882812e+02,-1.168345108032226562e+02,6.375735092163085938e+01,-3.790772247314453125e+01
3.759999871253967285e-01,2.000000000000000000e+00,3.721969604492187500e+01,9.904856681823730469e+00,3.522187805175781250e+01,-1.116573333740234375e+02,9.095651245117187500e+01,-6.545691680908203125e+01,4.889426803588867188e+01,-1.367924308776855469e+01,-1.070116577148437500e+02,-1.168897018432617188e+02,6.375319671630859375e+01,-3.793730926513671875e+01
3.799999952316284180e-01,2.000000000000000000e+00,3.724838638305664062e+01,9.857011795043945312e+00,3.521634292602539062e+01,-1.117120513916015625e+02,9.095931243896484375e+01,-6.548195648193359375e+01,4.882168579101562500e+01,-1.367120742797851562e+01,-1.070248184204101562e+02,-1.169448776245117188e+02,6.374904632568359375e+01,-3.796689605712890625e+01
3.840000033378601074e-01,2.000000000000000000e+00,3.727707290649414062e+01,9.809170722961425781e+00,3.521080398559570312e+01,-1.117667617797851562e+02,9.096211242675781250e+01,-6.550700378417968750e+01,4.874911117553710938e+01,-1.366317272186279297e+01,-1.070379867553710938e+02,-1.170000610351562500e+02,6.374489212036132812e+01,-3.799648284912109375e+01
3.880000114440917969e-01,2.000000000000000000e+00,3.730575561523437500e+01,9.761333465576171875e+00,3.520526885986328125e+01,-1.118214797973632812e+02,9.096491241455078125e+01,-6.553204345703125000e+01,4.867654418945312500e+01,-1.365513896942138672e+01,-1.070511550903320312e+02,-1.170552215576171875e+02,6.374074172973632812e+01,-3.802606964111328125e+01
3.919999897480010986e-01,2.000000000000000000e+00,3.733443832397460938e+01,9.713501930236816406e+00,3.519973373413085938e+01,-1.118761825561523438e+02,9.096771240234375000e+01,-6.555707550048828125e+01,4.860398101806640625e+01,-1.364710617065429688e+01,-1.070643157958984375e+02,-1.171103973388671875e+02,6.373659515380859375e+01,-3.805564498901367188e+01
3.959999978542327881e-01,2.000000000000000000e+00,3.736312103271484375e+01,9.665674209594726562e+00,3.519419479370117188e+01,-1.119308853149414062e+02,9.097051239013671875e+01,-6.558210754394531250e+01,4.853142547607421875e+01,-1.363907337188720703e+01,-1.070774765014648438e+02,-1.171655426025390625e+02,6.373244094848632812e+01,-3.808522415161132812e+01
4.000000059604644775e-01,2.000000000000000000e+00,3.739179611206054688e+01,9.617850303649902344e+00,3.518865966796875000e+01,-1.119855804443359375e+02,9.097331237792968750e+01,-6.560714721679687500e+01,4.845887756347656250e+01,-1.363104152679443359e+01,-1.070906372070312500e+02,-1.172207031250000000e+02,6.372828674316406250e+01,-3.811479949951171875e+01
4.040000140666961670e-01,2.000000000000000000e+00,3.742046737670898438e+01,9.570032119750976562e+00,3.518312835693359375e+01,-1.120402755737304688e+02,9.097611236572265625e+01,-6.563217926025390625e+01,4.838633728027343750e+01,-1.362301063537597656e+01,-1.071037979125976562e+02,-1.172758483886718750e+02,6.372414398193359375e+01,-3.814437103271484375e+01
4.079999923706054688e-01,2.000000000000000000e+00,3.744914245605468750e+01,9.522217750549316406e+00,3.517759323120117188e+01,-1.120949554443359375e+02,9.097890472412109375e+01,-6.565720367431640625e+01,4.831380081176757812e+01,-1.361497974395751953e+01,-1.071169662475585938e+02,-1.173310012817382812e+02,6.371998977661132812e+01,-3.817393875122070312e+01
4.120000004768371582e-01,2.000000000000000000e+00,3.747781372070312500e+01,9.474407196044921875e+00,3.517205810546875000e+01,-1.121496353149414062e+02,9.098170471191406250e+01,-6.568222808837890625e+01,4.824127578735351562e+01,-1.360694980621337891e+01,-1.071301193237304688e+02,-1.173861312866210938e+02,6.371584320068359375e+01,-3.820350646972656250e+01
4.160000085830688477e-01,2.000000000000000000e+00,3.750647735595703125e+01,9.426602363586425781e+00,3.516652679443359375e+01,-1.122043151855468750e+02,9.098450469970703125e+01,-6.570725250244140625e+01,4.816875076293945312e+01,-1.359892177581787109e+01,-1.071432800292968750e+02,-1.174412765502929688e+02,6.371169662475585938e+01,-3.823306655883789062e+01
4.199999868869781494e-01,2.000000000000000000e+00,3.753514099121093750e+01,9.378801345825195312e+00,3.516099548339843750e+01,-1.122589797973632812e+02,9.098730468750000000e+01,-6.573226928710937500e+01,4.809624099731445312e+01,-1.359089374542236328e+01,-1.071564331054687500e+02,-1.174963989257812500e+02,6.370754623413085938e+01,-3.826262664794921875e+01
4.239999949932098389e-01,2.000000000000000000e+00,3.756380081176757812e+01,9.331004142761230469e+00,3.515546035766601562e+01,-1.123136520385742188e+02,9.099010467529296875e+01,-6.575729370117187500e+01,4.802373123168945312e+01,-1.358286571502685547e+01,-1.071695861816406250e+02,-1.175515289306640625e+02,6.370339965820312500e+01,-3.829218673706054688e+01
4.280000030994415283e-01,2.000000000000000000e+00,3.759246063232421875e+01,9.283211708068847656e+00,3.514992904663085938e+01,-1.123683166503906250e+02,9.099290466308593750e+01,-6.578230285644531250e+01,4.795122909545898438e+01,-1.357483959197998047e+01,-1.071827468872070312e+02,-1.176066513061523438e+02,6.369925308227539062e+01,-3.832174301147460938e+01
4.320000112056732178e-01,2.000000000000000000e+00,3.762111663818359375e+01,9.235423088073730469e+00,3.514439773559570312e+01,-1.124229660034179688e+02,9.099569702148437500e+01,-6.580731964111328125e+01,4.787873077392578125e+01,-1.356681346893310547e+01,-1.071958923339843750e+02,-1.176617584228515625e+02,6.369510650634765625e+01,-3.835129547119140625e+01
4.359999895095825195e-01,2.000000000000000000e+00,3.764976882934570312e+01,9.187639236450195312e+00,3.513886642456054688e+01,-1.124776153564453125e+02,9.099849700927734375e+01,-6.583232879638671875e+01,4.780624389648437500e+01,-1.355878829956054688e+01,-1.072090454101562500e+02,-1.177168655395507812e+02,6.369095993041992188e+01,-3.838084411621093750e+01
4.399999976158142090e-01,2.000000000000000000e+00,3.767842102050781250e+01,9.139859199523925781e+00,3.513333892822265625e+01,-1.125322647094726562e+02,9.100128936767578125e+01,-6.585733795166015625e+01,4.773376083374023438e+01,-1.355076408386230469e+01,-1.072221984863281250e+02,-1.177719726562500000e+02,6.368681716918945312e+01,-3.841039276123046875e+01
4.440000057220458984e-01,2.000000000000000000e+00,3.770706558227539062e+01,9.092083930969238281e+00,3.512780761718750000e+01,-1.125869064331054688e+02,9.100408935546875000e+01,-6.588234710693359375e+01,4.766128540039062500e+01,-1.354274082183837891e+01,-1.072353439331054688e+02,-1.178270721435546875e+02,6.368267059326171875e+01,-3.843993759155273438e+01
4.480000138282775879e-01,2.000000000000000000e+00,3.773571395874023438e+01,9.044312477111816406e+00,3.512227630615234375e+01,-1.126415405273437500e+02,9.100688171386718750e+01,-6.590734863281250000e+01,4.758881759643554688e+01,-1.353471660614013672e+01,-1.072484893798828125e+02,-1.178821716308593750e+02,6.367852401733398438e+01,-3.846947860717773438e+01
4.519999921321868896e-01,2.000000000000000000e+00,3.776435470581054688e+01,8.996545791625976562e+00,3.511675262451171875e+01,-1.126961669921875000e+02,9.100968170166015625e+01,-6.593235778808593750e+01,4.751635360717773438e+01,-1.352669429779052734e+01,-1.072616424560546875e+02,-1.179372634887695312e+02,6.367437744140625000e+01,-3.849901580810546875e+01
4.560000002384185791e-01,2.000000000000000000e+00,3.779299926757812500e+01,8.948782920837402344e+00,3.511122131347656250e+01,-1.127507934570312500e+02,9.101247406005859375e+01,-6.595735168457031250e+01,4.744389724731445312e+01,-1.351867294311523438e+01,-1.072747802734375000e+02,-1.179923400878906250e+02,6.367023086547851562e+01,-3.852855300903320312e+01
4.600000083446502686e-01,2.000000000000000000e+00,3.782163619995117188e+01,8.901024818420410156e+00,3.510569381713867188e+01,-1.128054199218750000e+02,9.101526641845703125e+01,-6.598235321044921875e+01,4.737144851684570312e+01,-1.351065254211425781e+01,-1.072879333496093750e+02,-1.180474166870117188e+02,6.366608428955078125e+01,-3.855808639526367188e+01
4.639999866485595703e-01,2.000000000000000000e+00,3.785027313232421875e+01,8.853269577026367188e+00,3.510017013549804688e+01,-1.128600387573242188e+02,9.101807403564453125e+01,-6.600735473632812500e+01,4.729900741577148438e+01,-1.350263214111328125e+01,-1.073010711669921875e+02,-1.181024932861328125e+02,6.366194534301757812e+01,-3.858762359619140625e+01
4.679999947547912598e-01,2.000000000000000000e+00,3.787890625000000000e+01,8.805520057678222656e+00,3.509463882446289062e+01,-1.129146499633789062e+02,9.102086639404296875e+01,-6.603234100341796875e+01,4.722657012939453125e+01,-1.349461269378662109e+01,-1.073142089843750000e+02,-1.181575622558593750e+02,6.365780258178710938e+01,-3.861714935302734375e+01
4.720000028610229492e-01,2.000000000000000000e+00,3.790753173828125000e+01,8.757774353027343750e+00,3.508911514282226562e+01,-1.129692535400390625e+02,9.102365875244140625e+01,-6.605733489990234375e+01,4.715413665771484375e+01,-1.348659420013427734e+01,-1.073273544311523438e+02,-1.182126235961914062e+02,6.365365600585937500e+01,-3.864667510986328125e+01
4.760000109672546387e-01,2.000000000000000000e+00,3.793616104125976562e+01,8.710032463073730469e+00,3.508358764648437500e+01,-1.130238647460937500e+02,9.102645111083984375e+01,-6.608232879638671875e+01,4.708171081542968750e+01,-1.347857475280761719e+01,-1.073404922485351562e+02,-1.182676925659179688e+02,6.364951705932617188e+01,-3.867620086669921875e+01
4.799999892711639404e-01,2.000000000000000000e+00,3.796478652954101562e+01,8.662294387817382812e+00,3.507806396484375000e+01,-1.130784530639648438e+02,9.102924346923828125e+01,-6.610731506347656250e+01,4.700929260253906250e+01,-1.347055816650390625e+01,-1.073536300659179688e+02,-1.183227462768554688e+02,6.364537048339843750e+01,-3.870572280883789062e+01
4.839999973773956299e-01,2.000000000000000000e+00,3.799340820312500000e+01,8.614561080932617188e+00,3.507254028320312500e+01,-1.131330490112304688e+02,9.103204345703125000e+01,-6.613229370117187500e+01,4.693688201904296875e+01,-1.346254158020019531e+01,-1.073667678833007812e+02,-1.183777923583984375e+02,6.364123153686523438e+01,-3.873524093627929688e+01
4.880000054836273193e-01,2.000000000000000000e+00,3.802202987670898438e+01,8.566831588745117188e+00,3.506701278686523438e+01,-1.131876373291015625e+02,9.103483581542968750e+01,-6.615727996826171875e+01,4.686447525024414062e+01,-1.345452499389648438e+01,-1.073799057006835938e+02,-1.184328460693359375e+02,6.363709259033203125e+01,-3.876475524902343750e+01
4.920000135898590088e-01,2.000000000000000000e+00,3.805064773559570312e+01,8.519105911254882812e+00,3.506149291992187500e+01,-1.132422256469726562e+02,9.103763580322265625e+01,-6.618225860595703125e+01,4.679207611083984375e+01,-1.344651031494140625e+01,-1.073930358886718750e+02,-1.184878845214843750e+02,6.363294601440429688e+01,-3.879426956176757812e+01
4.959999918937683105e-01,2.000000000000000000e+00,3.807926559448242188e+01,8.471385955810546875e+00,3.505596542358398438e+01,-1.132967987060546875e+02,9.104042816162109375e+01,-6.620723724365234375e+01,4.671968460083007812e+01,-1.343849468231201172e+01,-1.074061737060546875e+02,-1.185429229736328125e+02,6.362880706787109375e+01,-3.882378387451171875e+01
5.000000000000000000e-01,2.000000000000000000e+00,3.810787963867187500e+01,8.423667907714843750e+00,3.505044555664062500e+01,-1.133513793945312500e+02,9.104322052001953125e+01,-6.623221588134765625e+01,4.664729690551757812e+01,-1.343048095703125000e+01,-1.074193115234375000e+02,-1.185979614257812500e+02,6.362466812133789062e+01,-3.885329055786132812e+01
5.040000081062316895e-01,2.000000000000000000e+00,3.813648986816406250e+01,8.375954627990722656e+00,3.504492187500000000e+01,-1.134059524536132812e+02,9.104601287841796875e+01,-6.625718688964843750e+01,4.657491302490234375e+01,-1.342246723175048828e+01,-1.074324340820312500e+02,-1.186529846191406250e+02,6.362052154541015625e+01,-3.888279724121093750e+01
5.080000162124633789e-01,2.000000000000000000e+00,3.816509628295898438e+01,8.328245162963867188e+00,3.503940200805664062e+01,-1.134605102539062500e+02,9.104879760742187500e+01,-6.628216552734375000e+01,4.650253677368164062e+01,-1.341445541381835938e+01,-1.074455718994140625e+02,-1.187080078125000000e+02,6.361638259887695312e+01,-3.891230010986328125e+01
5.120000243186950684e-01,2.000000000000000000e+00,3.819370269775390625e+01,8.280540466308593750e+00,3.503387832641601562e+01,-1.135150756835937500e+02,9.105158996582031250e+01,-6.630712890625000000e+01,4.643017196655273438e+01,-1.340644359588623047e+01,-1.074586944580078125e+02,-1.187630310058593750e+02,6.361224365234375000e+01,-3.894180297851562500e+01
5.159999728202819824e-01,2.000000000000000000e+00,3.822230911254882812e+01,8.232838630676269531e+00,3.502835845947265625e+01,-1.135696258544921875e+02,9.105438995361328125e+01,-6.633209991455078125e+01,4.635780715942382812e+01,-1.339843177795410156e+01,-1.074718246459960938e+02,-1.188180389404296875e+02,6.360810470581054688e+01,-3.897130203247070312e+01
5.199999809265136719e-01,2.000000000000000000e+00,3.825091171264648438e+01,8.185141563415527344e+00,3.502283859252929688e+01,-1.136241836547851562e+02,9.105718231201171875e+01,-6.635706329345703125e+01,4.628544998168945312e+01,-1.339042091369628906e+01,-1.074849548339843750e+02,-1.188730545043945312e+02,6.360396575927734375e+01,-3.900079727172851562e+01
5.239999890327453613e-01,2.000000000000000000e+00,3.827951049804687500e+01,8.137448310852050781e+00,3.501731872558593750e+01,-1.136787261962890625e+02,9.105997467041015625e+01,-6.638202667236328125e+01,4.621309661865234375e+01,-1.338241100311279297e+01,-1.074980773925781250e+02,-1.189280471801757812e+02,6.359982681274414062e+01,-3.903028869628906250e+01
5.279999971389770508e-01,2.000000000000000000e+00,3.830810546875000000e+01,8.089757919311523438e+00,3.501179504394531250e+01,-1.137332687377929688e+02,9.106275939941406250e+01,-6.640699005126953125e+01,4.614075088500976562e+01,-1.337440204620361328e+01,-1.075111999511718750e+02,-1.189830551147460938e+02,6.359568786621093750e+01,-3.905978393554687500e+01
5.320000052452087402e-01,2.000000000000000000e+00,3.833670043945312500e+01,8.042072296142578125e+00,3.500627899169921875e+01,-1.137878112792968750e+02,9.106555175781250000e+01,-6.643195343017578125e+01,4.606841278076171875e+01,-1.336639308929443359e+01,-1.075243301391601562e+02,-1.190380554199218750e+02,6.359155654907226562e+01,-3.908927154541015625e+01
5.360000133514404297e-01,2.000000000000000000e+00,3.836529159545898438e+01,7.994390010833740234e+00,3.500075912475585938e+01,-1.138423461914062500e+02,9.106834411621093750e+01,-6.645690917968750000e+01,4.599607849121093750e+01,-1.335838508605957031e+01,-1.075374526977539062e+02,-1.190930404663085938e+02,6.358741760253906250e+01,-3.911875915527343750e+01
5.400000214576721191e-01,2.000000000000000000e+00,3.839388275146484375e+01,7.946711540222167969e+00,3.499523925781250000e+01,-1.138968658447265625e+02,9.107113647460937500e+01,-6.648186492919921875e+01,4.592375564575195312e+01,-1.335037708282470703e+01,-1.075505676269531250e+02,-1.191480178833007812e+02,6.358327484130859375e+01,-3.914824295043945312e+01
5.440000295639038086e-01,2.000000000000000000e+00,3.842247009277343750e+01,7.899036884307861328e+00,3.498972320556640625e+01,-1.139513931274414062e+02,9.107392883300781250e+01,-6.650682067871093750e+01,4.585142898559570312e+01,-1.334237098693847656e+01,-1.075636901855468750e+02,-1.192030029296875000e+02,6.357913589477539062e+01,-3.917772293090820312e+01
5.479999780654907227e-01,2.000000000000000000e+00,3.845105743408203125e+01,7.851366519927978516e+00,3.498420715332031250e+01,-1.140059204101562500e+02,9.107672119140625000e+01,-6.653177642822265625e+01,4.577911376953125000e+01,-1.333436489105224609e+01,-1.075768127441406250e+02,-1.192579879760742188e+02,6.357500457763671875e+01,-3.920720672607421875e+01
5.519999861717224121e-01,2.000000000000000000e+00,3.847964096069335938e+01,7.803699493408203125e+00,3.497869110107421875e+01,-1.140604400634765625e+02,9.107950592041015625e+01,-6.655672454833984375e+01,4.570680236816406250e+01,-1.332635879516601562e+01,-1.075899353027343750e+02,-1.193129577636718750e+02,6.357086563110351562e+01,-3.923668289184570312e+01
5.559999942779541016e-01,2.000000000000000000e+00,3.850822067260742188e+01,7.756035804748535156e+00,3.497317123413085938e+01,-1.141149520874023438e+02,9.108229827880859375e+01,-6.658166503906250000e+01,4.563449478149414062e+01,-1.331835460662841797e+01,-1.076030502319335938e+02,-1.193679428100585938e+02,6.356673431396484375e+01,-3.926615524291992188e+01
5.600000023841857910e-01,2.000000000000000000e+00,3.853680038452148438e+01,7.708375930786132812e+00,3.496765518188476562e+01,-1.141694564819335938e+02,9.108509063720703125e+01,-6.660662078857421875e+01,4.556219863891601562e+01,-1.331035041809082031e+01,-1.076161651611328125e+02,-1.194228973388671875e+02,6.356259536743164062e+01,-3.929562759399414062e+01
5.640000104904174805e-01,2.000000000000000000e+00,3.856538009643554688e+01,7.660719871520996094e+00,3.496213912963867188e+01,-1.142239608764648438e+02,9.108787536621093750e+01,-6.663156127929687500e+01,4.548989868164062500e+01,-1.330234718322753906e+01,-1.076292800903320312e+02,-1.194778671264648438e+02,6.355846405029296875e+01,-3.932509994506835938e+01
5.680000185966491699e-01,2.000000000000000000e+00,3.859395217895507812e+01,7.613067150115966797e+00,3.495662689208984375e+01,-1.142784652709960938e+02,9.109066772460937500e+01,-6.665650939941406250e+01,4.541761398315429688e+01,-1.329434394836425781e+01,-1.076423950195312500e+02,-1.195328216552734375e+02,6.355432510375976562e+01,-3.935456848144531250e+01
5.720000267028808594e-01,2.000000000000000000e+00,3.862252426147460938e+01,7.565418243408203125e+00,3.495111083984375000e+01,-1.143329544067382812e+02,9.109345245361328125e+01,-6.668144226074218750e+01,4.534532928466796875e+01,-1.328634071350097656e+01,-1.076555099487304688e+02,-1.195877761840820312e+02,6.355018997192382812e+01,-3.938403701782226562e+01
5.759999752044677734e-01,2.000000000000000000e+00,3.865109634399414062e+01,7.517772674560546875e+00,3.494559478759765625e+01,-1.143874511718750000e+02,9.109625244140625000e+01,-6.670639038085937500e+01,4.527305221557617188e+01,-1.327833843231201172e+01,-1.076686248779296875e+02,-1.196427154541015625e+02,6.354605865478515625e+01,-3.941350173950195312e+01
5.799999833106994629e-01,2.000000000000000000e+00,3.867966079711914062e+01,7.470130920410156250e+00,3.494008255004882812e+01,-1.144419403076171875e+02,9.109903717041015625e+01,-6.673132324218750000e+01,4.520077896118164062e+01,-1.327033710479736328e+01,-1.076817398071289062e+02,-1.196976699829101562e+02,6.354191970825195312e+01,-3.944296264648437500e+01
5.839999914169311523e-01,2.000000000000000000e+00,3.870822906494140625e+01,7.422492027282714844e+00,3.493456649780273438e+01,-1.144964218139648438e+02,9.110182189941406250e+01,-6.675625610351562500e+01,4.512850952148437500e+01,-1.326233673095703125e+01,-1.076948471069335938e+02,-1.197526016235351562e+02,6.353778839111328125e+01,-3.947242355346679688e+01
5.879999995231628418e-01,2.000000000000000000e+00,3.873679351806640625e+01,7.374857425689697266e+00,3.492905426025390625e+01,-1.145509033203125000e+02,9.110460662841796875e+01,-6.678118896484375000e+01,4.505624771118164062e+01,-1.325433635711669922e+01,-1.077079620361328125e+02,-1.198075408935546875e+02,6.353365707397460938e+01,-3.950188064575195312e+01
5.920000076293945312e-01,2.000000000000000000e+00,3.876535415649414062e+01,7.327226161956787109e+00,3.492353820800781250e+01,-1.146053848266601562e+02,9.110739898681640625e+01,-6.680612182617187500e+01,4.498398971557617188e+01,-1.324633693695068359e+01,-1.077210693359375000e+02,-1.198624725341796875e+02,6.352952194213867188e+01,-3.953133392333984375e+01
5.960000157356262207e-01,2.000000000000000000e+00,3.879391479492187500e+01,7.279597759246826172e+00,3.491802597045898438e+01,-1.146598510742187500e+02,9.111019134521484375e+01,-6.683105468750000000e+01,4.491173934936523438e+01,-1.323833751678466797e+01,-1.077341766357421875e+02,-1.199174118041992188e+02,6.352539062500000000e+01,-3.956079101562500000e+01
6.000000238418579102e-01,2.000000000000000000e+00,3.882247161865234375e+01,7.231973648071289062e+00,3.491251754760742188e+01,-1.147143249511718750e+02,9.111297607421875000e+01,-6.685597991943359375e+01,4.483949279785156250e+01,-1.323034000396728516e+01,-1.077472839355468750e+02,-1.199723281860351562e+02,6.352125930786132812e+01,-3.959024429321289062e+01
6.039999723434448242e-01,2.000000000000000000e+00,3.885102844238281250e+01,7.184352397918701172e+00,3.490700531005859375e+01,-1.147687911987304688e+02,9.111576080322265625e+01,-6.688090515136718750e+01,4.476725006103515625e+01,-1.322234153747558594e+01,-1.077603912353515625e+02,-1.200272598266601562e+02,6.351712799072265625e+01,-3.961968994140625000e+01
6.079999804496765137e-01,2.000000000000000000e+00,3.887958145141601562e+01,7.136734962463378906e+00,3.490149307250976562e+01,-1.148232421875000000e+02,9.111855316162109375e+01,-6.690583038330078125e+01,4.469501495361328125e+01,-1.321434402465820312e+01,-1.077734909057617188e+02,-1.200821685791015625e+02,6.351299285888671875e+01,-3.964913940429687500e+01
6.119999885559082031e-01,2.000000000000000000e+00,3.890813064575195312e+01,7.089120388031005859e+00,3.489598464965820312e+01,-1.148777008056640625e+02,9.112133789062500000e+01,-6.693075561523437500e+01,4.462277984619140625e+01,-1.320634746551513672e+01,-1.077865982055664062e+02,-1.201370849609375000e+02,6.350886154174804688e+01,-3.967858505249023438e+01
6.159999966621398926e-01,2.000000000000000000e+00,3.893668365478515625e+01,7.041509628295898438e+00,3.489047241210937500e+01,-1.149321517944335938e+02,9.112412261962890625e+01,-6.695567321777343750e+01,4.455055618286132812e+01,-1.319835090637207031e+01,-1.077997055053710938e+02,-1.201920013427734375e+02,6.350473022460937500e+01,-3.970802688598632812e+01
6.200000047683715820e-01,2.000000000000000000e+00,3.896522903442382812e+01,6.993902206420898438e+00,3.488496398925781250e+01,-1.149866027832031250e+02,9.112690734863281250e+01,-6.698059082031250000e+01,4.447833633422851562e+01,-1.319035530090332031e+01,-1.078128051757812500e+02,-1.202469024658203125e+02,6.350059890747070312e+01,-3.973746871948242188e+01
6.240000128746032715e-01,2.000000000000000000e+00,3.899377441406250000e+01,6.946297645568847656e+00,3.487945175170898438e+01,-1.150410537719726562e+02,9.112969970703125000e+01,-6.700550842285156250e+01,4.440612030029296875e+01,-1.318236064910888672e+01,-1.078259048461914062e+02,-1.203018035888671875e+02,6.349646377563476562e+01,-3.976690673828125000e+01
6.280000209808349609e-01,2.000000000000000000e+00,3.902231979370117188e+01,6.898697376251220703e+00,3.487394332885742188e+01,-1.150954895019531250e+02,9.113248443603515625e+01,-6.703042602539062500e+01,4.433390808105468750e+01,-1.317436599731445312e+01,-1.078390045166015625e+02,-1.203567047119140625e+02,6.349233245849609375e+01,-3.979634475708007812e+01
6.320000290870666504e-01,2.000000000000000000e+00,3.905086135864257812e+01,6.851099967956542969e+00,3.486843490600585938e+01,-1.151499252319335938e+02,9.113526916503906250e+01,-6.705534362792968750e+01,4.426170349121093750e+01,-1.316637229919433594e+01,-1.078521041870117188e+02,-1.204115905761718750e+02,6.348820877075195312e+01,-3.982577896118164062e+01
6.359999775886535645e-01,2.000000000000000000e+00,3.907939910888671875e+01,6.803505897521972656e+00,3.486292648315429688e+01,-1.152043685913085938e+02,9.113805389404296875e+01,-6.708025360107421875e+01,4.418949890136718750e+01,-1.315837955474853516e+01,-1.078652038574218750e+02,-1.204664916992187500e+02,6.348407363891601562e+01,-3.985520935058593750e+01
6.399999856948852539e-01,2.000000000000000000e+00,3.910794067382812500e+01,6.755914688110351562e+00,3.485741806030273438e+01,-1.152587890625000000e+02,9.114084625244140625e+01,-6.710516357421875000e+01,4.411730575561523438e+01,-1.315038585662841797e+01,-1.078783035278320312e+02,-1.205213699340820312e+02,6.347994232177734375e+01,-3.988463973999023438e+01
6.439999938011169434e-01,2.000000000000000000e+00,3.913647079467773438e+01,6.708327770233154297e+00,3.485190963745117188e+01,-1.153132247924804688e+02,9.114363098144531250e+01,-6.713007354736328125e+01,4.404511642456054688e+01,-1.314239406585693359e+01,-1.078913955688476562e+02,-1.205762557983398438e+02,6.347581863403320312e+01,-3.991407012939453125e+01
6.480000019073486328e-01,2.000000000000000000e+00,3.916500854492187500e+01,6.660743236541748047e+00,3.484640121459960938e+01,-1.153676452636718750e+02,9.114641571044921875e+01,-6.715498352050781250e+01,4.397293090820312500e+01,-1.313440227508544922e+01,-1.079044952392578125e+02,-1.206311264038085938e+02,6.347168350219726562e+01,-3.994349670410156250e+01
6.520000100135803223e-01,2.000000000000000000e+00,3.919353866577148438e+01,6.613162040710449219e+00,3.484089279174804688e+01,-1.154220581054687500e+02,9.114920043945312500e+01,-6.717988586425781250e+01,4.390075302124023438e+01,-1.312641048431396484e+01,-1.079175949096679688e+02,-1.206860122680664062e+02,6.346755981445312500e+01,-3.997291946411132812e+01
6.560000181198120117e-01,2.000000000000000000e+00,3.922206878662109375e+01,6.565584659576416016e+00,3.483538436889648438e+01,-1.154764785766601562e+02,9.115198516845703125e+01,-6.720478820800781250e+01,4.382857131958007812e+01,-1.311841964721679688e+01,-1.079306869506835938e+02,-1.207408752441406250e+02,6.346342849731445312e+01,-4.000234222412109375e+01
6.600000262260437012e-01,2.000000000000000000e+00,3.925059509277343750e+01,6.518010139465332031e+00,3.482987976074218750e+01,-1.155308914184570312e+02,9.115476989746093750e+01,-6.722969055175781250e+01,4.375640106201171875e+01,-1.311043071746826172e+01,-1.079437789916992188e+02,-1.207957458496093750e+02,6.345930099487304688e+01,-4.003176498413085938e+01
6.639999747276306152e-01,2.000000000000000000e+00,3.927912139892578125e+01,6.470438957214355469e+00,3.482437515258789062e+01,-1.155852966308593750e+02,9.115755462646484375e+01,-6.725458526611328125e+01,4.368423843383789062e+01,-1.310244083404541016e+01,-1.079568710327148438e+02,-1.208506088256835938e+02,6.345516967773437500e+01,-4.006118011474609375e+01
6.679999828338623047e-01,2.000000000000000000e+00,3.930764770507812500e+01,6.422871112823486328e+00,3.481887054443359375e+01,-1.156396942138671875e+02,9.116034698486328125e+01,-6.727948760986328125e+01,4.361207580566406250e+01,-1.309445190429687500e+01,-1.079699630737304688e+02,-1.209054718017578125e+02,6.345104598999023438e+01,-4.009059906005859375e+01
6.719999909400939941e-01,2.000000000000000000e+00,3.933616638183593750e+01,6.375306129455566406e+00,3.481336593627929688e+01,-1.156940994262695312e+02,9.116312408447265625e+01,-6.730438232421875000e+01,4.353992080688476562e+01,-1.308646297454833984e+01,-1.079830551147460938e+02,-1.209603271484375000e+02,6.344691848754882812e+01,-4.012001419067382812e+01
6.759999990463256836e-01,2.000000000000000000e+00,3.936468505859375000e+01,6.327744960784912109e+00,3.480786132812500000e+01,-1.157484970092773438e+02,9.116590881347656250e+01,-6.732927703857421875e+01,4.346776962280273438e+01,-1.307847499847412109e+01,-1.079961471557617188e+02,-1.210151748657226562e+02,6.344279479980468750e+01,-4.014942550659179688e+01
6.800000071525573730e-01,2.000000000000000000e+00,3.939320373535156250e+01,6.280186653137207031e+00,3.480235671997070312e+01,-1.158028945922851562e+02,9.116869354248046875e+01,-6.735417175292968750e+01,4.339562606811523438e+01,-1.307048797607421875e+01,-1.080092315673828125e+02,-1.210700378417968750e+02,6.343865966796875000e+01,-4.017883300781250000e+01
6.840000152587890625e-01,2.000000000000000000e+00,3.942172241210937500e+01,6.232631206512451172e+00,3.479684829711914062e+01,-1.158572769165039062e+02,9.117147827148437500e+01,-6.737906646728515625e+01,4.332347869873046875e+01,-1.306250095367431641e+01,-1.080223159790039062e+02,-1.211248855590820312e+02,6.343453598022460938e+01,-4.020824432373046875e+01
6.880000233650207520e-01,2.000000000000000000e+00,3.945023345947265625e+01,6.185079574584960938e+00,3.479134750366210938e+01,-1.159116592407226562e+02,9.117426300048828125e+01,-6.740395355224609375e+01,4.325134277343750000e+01,-1.305451488494873047e+01,-1.080354080200195312e+02,-1.211797180175781250e+02,6.343040847778320312e+01,-4.023765182495117188e+01
6.919999718666076660e-01,2.000000000000000000e+00,3.947874832153320312e+01,6.137530326843261719e+00,3.478584289550781250e+01,-1.159660415649414062e+02,9.117704010009765625e+01,-6.742884063720703125e+01,4.317921447753906250e+01,-1.304652976989746094e+01,-1.080484924316406250e+02,-1.212345581054687500e+02,6.342628479003906250e+01,-4.026705551147460938e+01
6.959999799728393555e-01,2.000000000000000000e+00,3.950725936889648438e+01,6.089984893798828125e+00,3.478034210205078125e+01,-1.160204238891601562e+02,9.117983245849609375e+01,-6.745372772216796875e+01,4.310708618164062500e+01,-1.303854465484619141e+01,-1.080615768432617188e+02,-1.212893905639648438e+02,6.342216110229492188e+01,-4.029645538330078125e+01
6.999999880790710449e-01,2.000000000000000000e+00,3.953576660156250000e+01,6.042442321777343750e+00,3.477483749389648438e+01,-1.160748062133789062e+02,9.118260955810546875e+01,-6.747861480712890625e+01,4.303496170043945312e+01,-1.303055953979492188e+01,-1.080746612548828125e+02,-1.213442306518554688e+02,6.341803359985351562e+01,-4.032585906982421875e+01
7.039999961853027344e-01,2.000000000000000000e+00,3.956427383422851562e+01,5.994902610778808594e+00,3.476933288574218750e+01,-1.161291732788085938e+02,9.118538665771484375e+01,-6.750349426269531250e+01,4.296284484863281250e+01,-1.302257537841796875e+01,-1.080877456665039062e+02,-1.213990478515625000e+02,6.341390991210937500e+01,-4.035525894165039062e+01
7.080000042915344238e-01,2.000000000000000000e+00,3.959277725219726562e+01,5.947366237640380859e+00,3.476383209228515625e+01,-1.161835403442382812e+02,9.118817901611328125e+01,-6.752838134765625000e+01,4.289073181152343750e+01,-1.301459217071533203e+01,-1.081008300781250000e+02,-1.214538803100585938e+02,6.340978240966796875e+01,-4.038465499877929688e+01
7.120000123977661133e-01,2.000000000000000000e+00,3.962128067016601562e+01,5.899832725524902344e+00,3.475833129882812500e+01,-1.162378921508789062e+02,9.119095611572265625e+01,-6.755326080322265625e+01,4.281862258911132812e+01,-1.300660800933837891e+01,-1.081139144897460938e+02,-1.215086975097656250e+02,6.340565872192382812e+01,-4.041404724121093750e+01
7.160000205039978027e-01,2.000000000000000000e+00,3.964978027343750000e+01,5.852302551269531250e+00,3.475283050537109375e+01,-1.162922668457031250e+02,9.119374084472656250e+01,-6.757814025878906250e+01,4.274652099609375000e+01,-1.299862575531005859e+01,-1.081269989013671875e+02,-1.215635070800781250e+02,6.340153121948242188e+01,-4.044344329833984375e+01
7.200000286102294922e-01,2.000000000000000000e+00,3.967827987670898438e+01,5.804775714874267578e+00,3.474732971191406250e+01,-1.163466186523437500e+02,9.119652557373046875e+01,-6.760301208496093750e+01,4.267442321777343750e+01,-1.299064350128173828e+01,-1.081400756835937500e+02,-1.216183242797851562e+02,6.339740753173828125e+01,-4.047283172607421875e+01
7.239999771118164062e-01,2.000000000000000000e+00,3.970677947998046875e+01,5.757251262664794922e+00,3.474182891845703125e+01,-1.164009704589843750e+02,9.119930267333984375e+01,-6.762789154052734375e+01,4.260232543945312500e+01,-1.298266220092773438e+01,-1.081531600952148438e+02,-1.216731262207031250e+02,6.339328765869140625e+01,-4.050222396850585938e+01
7.279999852180480957e-01,2.000000000000000000e+00,3.973527526855468750e+01,5.709730625152587891e+00,3.473632812500000000e+01,-1.164553298950195312e+02,9.120208740234375000e+01,-6.765276336669921875e+01,4.253023529052734375e+01,-1.297468090057373047e+01,-1.081662292480468750e+02,-1.217279357910156250e+02,6.338916397094726562e+01,-4.053160858154296875e+01
7.319999933242797852e-01,2.000000000000000000e+00,3.976376724243164062e+01,5.662211894989013672e+00,3.473083114624023438e+01,-1.165096664428710938e+02,9.120487213134765625e+01,-6.767764282226562500e+01,4.245814895629882812e+01,-1.296670055389404297e+01,-1.081793136596679688e+02,-1.217827377319335938e+02,6.338503646850585938e+01,-4.056099700927734375e+01
7.360000014305114746e-01,2.000000000000000000e+00,3.979225921630859375e+01,5.614696979522705078e+00,3.472533035278320312e+01,-1.165640106201171875e+02,9.120764923095703125e+01,-6.770250701904296875e+01,4.238607025146484375e+01,-1.295872020721435547e+01,-1.081923904418945312e+02,-1.218375473022460938e+02,6.338091278076171875e+01,-4.059038162231445312e+01
7.400000095367431641e-01,2.000000000000000000e+00,3.982075119018554688e+01,5.567184925079345703e+00,3.471982955932617188e+01,-1.166183471679687500e+02,9.121042633056640625e+01,-6.772737884521484375e+01,4.231399536132812500e+01,-1.295074081420898438e+01,-1.082054595947265625e+02,-1.218923339843750000e+02,6.337679290771484375e+01,-4.061976242065429688e+01
7.440000176429748535e-01,2.000000000000000000e+00,3.984923934936523438e+01,5.519675731658935547e+00,3.471433258056640625e+01,-1.166726913452148438e+02,9.121321105957031250e+01,-6.775224304199218750e+01,4.224192428588867188e+01,-1.294276142120361328e+01,-1.082185440063476562e+02,-1.219471282958984375e+02,6.337266921997070312e+01,-4.064914321899414062e+01
7.480000257492065430e-01,2.000000000000000000e+00,3.987772369384765625e+01,5.472169399261474609e+00,3.470883178710937500e+01,-1.167270202636718750e+02,9.121599578857421875e+01,-6.777710723876953125e+01,4.216985321044921875e+01,-1.293478298187255859e+01,-1.082316131591796875e+02,-1.220019226074218750e+02,6.336854934692382812e+01,-4.067852020263671875e+01
7.519999742507934570e-01,2.000000000000000000e+00,3.990621185302734375e+01,5.424666404724121094e+00,3.470333480834960938e+01,-1.167813568115234375e+02,9.121877288818359375e+01,-6.780197906494140625e+01,4.209779357910156250e+01,-1.292680549621582031e+01,-1.082446899414062500e+02,-1.220566940307617188e+02,6.336442565917968750e+01,-4.070789718627929688e+01
7.559999823570251465e-01,2.000000000000000000e+00,3.993469619750976562e+01,5.377165794372558594e+00,3.469783782958984375e+01,-1.168356704711914062e+02,9.122155761718750000e+01,-6.782683563232421875e+01,4.202573394775390625e+01,-1.291882705688476562e+01,-1.082577590942382812e+02,-1.221114883422851562e+02,6.336030578613281250e+01,-4.073727035522460938e+01
7.599999904632568359e-01,2.000000000000000000e+00,3.996317291259765625e+01,5.329668998718261719e+00,3.469234085083007812e+01,-1.168899993896484375e+02,9.122433471679687500e+01,-6.785169982910156250e+01,4.195368194580078125e+01,-1.291085052490234375e+01,-1.082708358764648438e+02,-1.221662673950195312e+02,6.335617828369140625e+01,-4.076664352416992188e+01
7.639999985694885254e-01,2.000000000000000000e+00,3.999165725708007812e+01,5.282174110412597656e+00,3.468684387207031250e+01,-1.169443283081054688e+02,9.122711181640625000e+01,-6.787656402587890625e+01,4.188162994384765625e+01,-1.290287399291992188e+01,-1.082839050292968750e+02,-1.222210464477539062e+02,6.335206222534179688e+01,-4.079601669311523438e+01
7.680000066757202148e-01,2.000000000000000000e+00,4.002013397216796875e+01,5.234682559967041016e+00,3.468134307861328125e+01,-1.169986419677734375e+02,9.122989654541015625e+01,-6.790142059326171875e+01,4.180958557128906250e+01,-1.289489746093750000e+01,-1.082969741821289062e+02,-1.222758102416992188e+02,6.334793472290039062e+01,-4.082538223266601562e+01
7.720000147819519043e-01,2.000000000000000000e+00,4.004861068725585938e+01,5.187193870544433594e+00,3.467584991455078125e+01,-1.170529556274414062e+02,9.123267364501953125e+01,-6.792626953125000000e+01,4.173754501342773438e+01,-1.288692188262939453e+01,-1.083100433349609375e+02,-1.223305740356445312e+02,6.334381866455078125e+01,-4.085475158691406250e+01
7.760000228881835938e-01,2.000000000000000000e+00,4.007708358764648438e+01,5.139708518981933594e+00,3.467035293579101562e+01,-1.171072540283203125e+02,9.123545837402343750e+01,-6.795112609863281250e+01,4.166551208496093750e+01,-1.287894725799560547e+01,-1.083231124877929688e+02,-1.223853530883789062e+02,6.333969879150390625e+01,-4.088411712646484375e+01
7.799999713897705078e-01,2.000000000000000000e+00,4.010555648803710938e+01,5.092225551605224609e+00,3.466485595703125000e+01,-1.171615676879882812e+02,9.123823547363281250e+01,-6.797598266601562500e+01,4.159347915649414062e+01,-1.287097167968750000e+01,-1.083361892700195312e+02,-1.224401016235351562e+02,6.333557891845703125e+01,-4.091348266601562500e+01
7.839999794960021973e-01,2.000000000000000000e+00,4.013402938842773438e+01,5.044745445251464844e+00,3.465936279296875000e+01,-1.172158660888671875e+02,9.124101257324218750e+01,-6.800083923339843750e+01,4.152145004272460938e+01,-1.286299705505371094e+01,-1.083492507934570312e+02,-1.224948654174804688e+02,6.333145523071289062e+01,-4.094284057617187500e+01
7.879999876022338867e-01,2.000000000000000000e+00,4.016249465942382812e+01,4.997268199920654297e+00,3.465386581420898438e+01,-1.172701721191406250e+02,9.124379730224609375e+01,-6.802568817138671875e+01,4.144942855834960938e+01,-1.285502433776855469e+01,-1.083623199462890625e+02,-1.225496215820312500e+02,6.332733535766601562e+01,-4.097220611572265625e+01
7.919999957084655762e-01,2.000000000000000000e+00,4.019096374511718750e+01,4.949793815612792969e+00,3.464837265014648438e+01,-1.173244705200195312e+02,9.124657440185546875e+01,-6.805053710937500000e+01,4.137741088867187500e+01,-1.284705066680908203e+01,-1.083753814697265625e+02,-1.226043701171875000e+02,6.332321548461914062e+01,-4.100156021118164062e+01
7.960000038146972656e-01,2.000000000000000000e+00,4.021942901611328125e+01,4.902322292327880859e+00,3.464287567138671875e+01,-1.173787536621093750e+02,9.124934387207031250e+01,-6.807538604736328125e+01,4.130539321899414062e+01,-1.283907794952392578e+01,-1.083884506225585938e+02,-1.226591186523437500e+02,6.331909179687500000e+01,-4.103092193603515625e+01
8.000000119209289551e-01,2.000000000000000000e+00,4.024789428710937500e+01,4.854853153228759766e+00,3.463738632202148438e+01,-1.174330520629882812e+02,9.125212860107421875e+01,-6.810022735595703125e+01,4.123337936401367188e+01,-1.283110523223876953e+01,-1.084015121459960938e+02,-1.227138748168945312e+02,6.331497192382812500e+01,-4.106027221679687500e+01
8.040000200271606445e-01,2.000000000000000000e+00,4.027635955810546875e+01,4.807387351989746094e+00,3.463188934326171875e+01,-1.174873428344726562e+02,9.125490570068359375e+01,-6.812507629394531250e+01,4.116137695312500000e+01,-1.282313346862792969e+01,-1.084145736694335938e+02,-1.227686080932617188e+02,6.331085586547851562e+01,-4.108963012695312500e+01
8.080000281333923340e-01,2.000000000000000000e+00,4.030481719970703125e+01,4.759923934936523438e+00,3.462639617919921875e+01,-1.175416259765625000e+02,9.125769042968750000e+01,-6.814991760253906250e+01,4.108937454223632812e+01,-1.281516265869140625e+01,-1.084276428222656250e+02,-1.228233489990234375e+02,6.330673599243164062e+01,-4.111898040771484375e+01
8.119999766349792480e-01,2.000000000000000000e+00,4.033327865600585938e+01,4.712463378906250000e+00,3.462090301513671875e+01,-1.175959014892578125e+02,9.126046752929687500e+01,-6.817475891113281250e+01,4.101737594604492188e+01,-1.280719184875488281e+01,-1.084407043457031250e+02,-1.228780822753906250e+02,6.330261611938476562e+01,-4.114832687377929688e+01
8.159999847412109375e-01,2.000000000000000000e+00,4.036173629760742188e+01,4.665006160736083984e+00,3.461540985107421875e+01,-1.176501846313476562e+02,9.126323699951171875e+01,-6.819960021972656250e+01,4.094538116455078125e+01,-1.279922103881835938e+01,-1.084537582397460938e+02,-1.229328231811523438e+02,6.329850006103515625e+01,-4.117767715454101562e+01
8.199999928474426270e-01,2.000000000000000000e+00,4.039019012451171875e+01,4.617550849914550781e+00,3.460991668701171875e+01,-1.177044601440429688e+02,9.126602172851562500e+01,-6.822444152832031250e+01,4.087339401245117188e+01,-1.279125118255615234e+01,-1.084668197631835938e+02,-1.229875564575195312e+02,6.329438018798828125e+01,-4.120702362060546875e+01
8.240000009536743164e-01,2.000000000000000000e+00,4.041864395141601562e+01,4.570098400115966797e+00,3.460442733764648438e+01,-1.177587356567382812e+02,9.126879882812500000e+01,-6.824928283691406250e+01,4.080141067504882812e+01,-1.278328132629394531e+01,-1.084798889160156250e+02,-1.230422821044921875e+02,6.329026031494140625e+01,-4.123637008666992188e+01
8.280000090599060059e-01,2.000000000000000000e+00,4.044709777832031250e+01,4.522649288177490234e+00,3.459893417358398438e+01,-1.178129882812500000e+02,9.127158355712890625e+01,-6.827411651611328125e+01,4.072942733764648438e+01,-1.277531242370605469e+01,-1.084929428100585938e+02,-1.230970001220703125e+02,6.328614425659179688e+01,-4.126571273803710938e+01
8.320000171661376953e-01,2.000000000000000000e+00,4.047554779052734375e+01,4.475202083587646484e+00,3.459344482421875000e+01,-1.178672637939453125e+02,9.127435302734375000e+01,-6.829895782470703125e+01,4.065744781494140625e+01,-1.276734447479248047e+01,-1.085059967041015625e+02,-1.231517257690429688e+02,6.328203201293945312e+01,-4.129505538940429688e+01
8.360000252723693848e-01,2.000000000000000000e+00,4.050399780273437500e+01,4.427757740020751953e+00,3.458795166015625000e+01,-1.179215240478515625e+02,9.127713012695312500e+01,-6.832378387451171875e+01,4.058547592163085938e+01,-1.275937557220458984e+01,-1.085190582275390625e+02,-1.232064361572265625e+02,6.327791213989257812e+01,-4.132439422607421875e+01
8.399999737739562988e-01,2.000000000000000000e+00,4.053244781494140625e+01,4.380316257476806641e+00,3.458246231079101562e+01,-1.179757843017578125e+02,9.127990722656250000e+01,-6.834861755371093750e+01,4.051350784301757812e+01,-1.275140857696533203e+01,-1.085321197509765625e+02,-1.232611618041992188e+02,6.327379226684570312e+01,-4.135373306274414062e+01
8.439999818801879883e-01,2.000000000000000000e+00,4.056089401245117188e+01,4.332877635955810547e+00,3.457696914672851562e+01,-1.180300445556640625e+02,9.128268432617187500e+01,-6.837345123291015625e+01,4.044153976440429688e+01,-1.274344062805175781e+01,-1.085451660156250000e+02,-1.233158721923828125e+02,6.326967620849609375e+01,-4.138306808471679688e+01
8.479999899864196777e-01,2.000000000000000000e+00,4.058934020996093750e+01,4.285441398620605469e+00,3.457147598266601562e+01,-1.180842971801757812e+02,9.128546905517578125e+01,-6.839827728271484375e+01,4.036957931518554688e+01,-1.273547363281250000e+01,-1.085582275390625000e+02,-1.233705825805664062e+02,6.326556396484375000e+01,-4.141240310668945312e+01
8.519999980926513672e-01,2.000000000000000000e+00,4.061777877807617188e+01,4.238007545471191406e+00,3.456599044799804688e+01,-1.181385421752929688e+02,9.128823852539062500e+01,-6.842311096191406250e+01,4.029762649536132812e+01,-1.272750759124755859e+01,-1.085712814331054688e+02,-1.234252777099609375e+02,6.326144409179687500e+01,-4.144173431396484375e+01
8.560000061988830566e-01,2.000000000000000000e+00,4.064622497558593750e+01,4.190577030181884766e+00,3.456049728393554688e+01,-1.181927947998046875e+02,9.129101562500000000e+01,-6.844793701171875000e+01,4.022566986083984375e+01,-1.271954154968261719e+01,-1.085843353271484375e+02,-1.234799880981445312e+02,6.325733184814453125e+01,-4.147106933593750000e+01
8.600000143051147461e-01,2.000000000000000000e+00,4.067465972900390625e+01,4.143148422241210938e+00,3.455501174926757812e+01,-1.182470397949218750e+02,9.129379272460937500e+01,-6.847275543212890625e+01,4.015372085571289062e+01,-1.271157646179199219e+01,-1.085973892211914062e+02,-1.235346832275390625e+02,6.325321578979492188e+01,-4.150040054321289062e+01
8.640000224113464355e-01,2.000000000000000000e+00,4.070310211181640625e+01,4.095722675323486328e+00,3.454952239990234375e+01,-1.183012847900390625e+02,9.129656982421875000e+01,-6.849758148193359375e+01,4.008177566528320312e+01,-1.270361042022705078e+01,-1.086104354858398438e+02,-1.235893783569335938e+02,6.324909591674804688e+01,-4.152972793579101562e+01
8.679999709129333496e-01,2.000000000000000000e+00,4.073153686523437500e+01,4.048299312591552734e+00,3.454402923583984375e+01,-1.183555145263671875e+02,9.129934692382812500e+01,-6.852240753173828125e+01,4.000983428955078125e+01,-1.269564628601074219e+01,-1.086234893798828125e+02,-1.236440734863281250e+02,6.324498367309570312e+01,-4.155905532836914062e+01
8.719999790191650391e-01,2.000000000000000000e+00,4.075997543334960938e+01,4.000878334045410156e+00,3.453854370117187500e+01,-1.184097442626953125e+02,9.130211639404296875e+01,-6.854722595214843750e+01,3.993789672851562500e+01,-1.268768215179443359e+01,-1.086365432739257812e+02,-1.236987533569335938e+02,6.324087142944335938e+01,-4.158837890625000000e+01
8.759999871253967285e-01,2.000000000000000000e+00,4.078840637207031250e+01,3.953460454940795898e+00,3.453305435180664062e+01,-1.184639739990234375e+02,9.130490112304687500e+01,-6.857204437255859375e+01,3.986596298217773438e+01,-1.267971801757812500e+01,-1.086495971679687500e+02,-1.237534561157226562e+02,6.323675537109375000e+01,-4.161770629882812500e+01
8.799999952316284180e-01,2.000000000000000000e+00,4.081683731079101562e+01,3.906044721603393555e+00,3.452756500244140625e+01,-1.185182113647460938e+02,9.130767059326171875e+01,-6.859687042236328125e+01,3.979403305053710938e+01,-1.267175483703613281e+01,-1.086626434326171875e+02,-1.238081359863281250e+02,6.323264312744140625e+01,-4.164702606201171875e+01
8.840000033378601074e-01,2.000000000000000000e+00,4.084526824951171875e+01,3.858631849288940430e+00,3.452208328247070312e+01,-1.185724411010742188e+02,9.131044769287109375e+01,-6.862168121337890625e+01,3.972210693359375000e+01,-1.266379165649414062e+01,-1.086756973266601562e+02,-1.238628158569335938e+02,6.322852325439453125e+01,-4.167634582519531250e+01
8.880000114440917969e-01,2.000000000000000000e+00,4.087369918823242188e+01,3.811221361160278320e+00,3.451659393310546875e+01,-1.186266555786132812e+02,9.131322479248046875e+01,-6.864649963378906250e+01,3.965018463134765625e+01,-1.265582942962646484e+01,-1.086887435913085938e+02,-1.239174880981445312e+02,6.322441101074218750e+01,-4.170566558837890625e+01
8.920000195503234863e-01,2.000000000000000000e+00,4.090212631225585938e+01,3.763813018798828125e+00,3.451110458374023438e+01,-1.186808929443359375e+02,9.131599426269531250e+01,-6.867131805419921875e+01,3.957826614379882812e+01,-1.264786720275878906e+01,-1.087017822265625000e+02,-1.239721679687500000e+02,6.322029876708984375e+01,-4.173498535156250000e+01
8.960000276565551758e-01,2.000000000000000000e+00,4.093055343627929688e+01,3.716407537460327148e+00,3.450561904907226562e+01,-1.187351074218750000e+02,9.131877136230468750e+01,-6.869612121582031250e+01,3.950635528564453125e+01,-1.263990592956542969e+01,-1.087148361206054688e+02,-1.240268402099609375e+02,6.321618270874023438e+01,-4.176429748535156250e+01
8.999999761581420898e-01,2.000000000000000000e+00,4.095897674560546875e+01,3.669004440307617188e+00,3.450013351440429688e+01,-1.187893142700195312e+02,9.132154846191406250e+01,-6.872093963623046875e+01,3.943444442749023438e+01,-1.263194370269775391e+01,-1.087278823852539062e+02,-1.240815048217773438e+02,6.321207046508789062e+01,-4.179361343383789062e+01
9.039999842643737793e-01,2.000000000000000000e+00,4.098740386962890625e+01,3.621603727340698242e+00,3.449464416503906250e+01,-1.188435287475585938e+02,9.132432556152343750e+01,-6.874575042724609375e+01,3.936253356933593750e+01,-1.262398338317871094e+01,-1.087409286499023438e+02,-1.241361770629882812e+02,6.320795822143554688e+01,-4.182292556762695312e+01
9.079999923706054688e-01,2.000000000000000000e+00,4.101582717895507812e+01,3.574205160140991211e+00,3.448915863037109375e+01,-1.188977355957031250e+02,9.132709503173828125e+01,-6.877056121826171875e+01,3.929063415527343750e+01,-1.261602306365966797e+01,-1.087539749145507812e+02,-1.241908416748046875e+02,6.320384597778320312e+01,-4.185223770141601562e+01
9.120000004768371582e-01,2.000000000000000000e+00,4.104424667358398438e+01,3.526808977127075195e+00,3.448367691040039062e+01,-1.189519424438476562e+02,9.132987213134765625e+01,-6.879536437988281250e+01,3.921873092651367188e+01,-1.260806274414062500e+01,-1.087670135498046875e+02,-1.242454986572265625e+02,6.319973373413085938e+01,-4.188154983520507812e+01
9.160000085830688477e-01,2.000000000000000000e+00,4.107266616821289062e+01,3.479415178298950195e+00,3.447818756103515625e+01,-1.190061416625976562e+02,9.133264923095703125e+01,-6.882017517089843750e+01,3.914683532714843750e+01,-1.260010337829589844e+01,-1.087800598144531250e+02,-1.243001708984375000e+02,6.319561386108398438e+01,-4.191085815429687500e+01
9.200000166893005371e-01,2.000000000000000000e+00,4.110108566284179688e+01,3.432023525238037109e+00,3.447270202636718750e+01,-1.190603485107421875e+02,9.133541870117187500e+01,-6.884497833251953125e+01,3.907494354248046875e+01,-1.259214496612548828e+01,-1.087931060791015625e+02,-1.243548278808593750e+02,6.319150543212890625e+01,-4.194016265869140625e+01
9.240000247955322266e-01,2.000000000000000000e+00,4.112950134277343750e+01,3.384634017944335938e+00,3.446721649169921875e+01,-1.191145553588867188e+02,9.133819580078125000e+01,-6.886978912353515625e+01,3.900305175781250000e+01,-1.258418560028076172e+01,-1.088061447143554688e+02,-1.244094619750976562e+02,6.318739318847656250e+01,-4.196947097778320312e+01
9.279999732971191406e-01,2.000000000000000000e+00,4.115791702270507812e+01,3.337246894836425781e+00,3.446173477172851562e+01,-1.191687469482421875e+02,9.134096527099609375e+01,-6.889459228515625000e+01,3.893116760253906250e+01,-1.257622718811035156e+01,-1.088191909790039062e+02,-1.244641189575195312e+02,6.318328094482421875e+01,-4.199877166748046875e+01
9.319999814033508301e-01,2.000000000000000000e+00,4.118633270263671875e+01,3.289862155914306641e+00,3.445624923706054688e+01,-1.192229461669921875e+02,9.134374237060546875e+01,-6.891938781738281250e+01,3.885928344726562500e+01,-1.256826877593994141e+01,-1.088322296142578125e+02,-1.245187759399414062e+02,6.317916870117187500e+01,-4.202807617187500000e+01
9.359999895095825195e-01,2.000000000000000000e+00,4.121474456787109375e+01,3.242479085922241211e+00,3.445076370239257812e+01,-1.192771377563476562e+02,9.134651184082031250e+01,-6.894419097900390625e+01,3.878740692138671875e+01,-1.256031131744384766e+01,-1.088452682495117188e+02,-1.245734176635742188e+02,6.317505645751953125e+01,-4.205737686157226562e+01
9.399999976158142090e-01,2.000000000000000000e+00,4.124315643310546875e+01,3.195098400115966797e+00,3.444528198242187500e+01,-1.193313293457031250e+02,9.134928894042968750e+01,-6.896898651123046875e+01,3.871552658081054688e+01,-1.255235385894775391e+01,-1.088583068847656250e+02,-1.246280593872070312e+02,6.317094421386718750e+01,-4.208668136596679688e+01
9.440000057220458984e-01,2.000000000000000000e+00,4.127156448364257812e+01,3.147719860076904297e+00,3.443980026245117188e+01,-1.193855056762695312e+02,9.135205841064453125e+01,-6.899378967285156250e+01,3.864365386962890625e+01,-1.254439640045166016e+01,-1.088713455200195312e+02,-1.246827011108398438e+02,6.316683197021484375e+01,-4.211597824096679688e+01
9.480000138282775879e-01,2.000000000000000000e+00,4.129997634887695312e+01,3.100343465805053711e+00,3.443431472778320312e+01,-1.194396972656250000e+02,9.135483551025390625e+01,-6.901859283447265625e+01,3.857178115844726562e+01,-1.253643989562988281e+01,-1.088843841552734375e+02,-1.247373428344726562e+02,6.316272735595703125e+01,-4.214527511596679688e+01
9.520000219345092773e-01,2.000000000000000000e+00,4.132838058471679688e+01,3.052968978881835938e+00,3.442883300781250000e+01,-1.194938735961914062e+02,9.135760498046875000e+01,-6.904338836669921875e+01,3.849991989135742188e+01,-1.252848339080810547e+01,-1.088974227905273438e+02,-1.247919845581054688e+02,6.315861511230468750e+01,-4.217457199096679688e+01
9.559999704360961914e-01,2.000000000000000000e+00,4.135678863525390625e+01,3.005596876144409180e+00,3.442334747314453125e+01,-1.195480499267578125e+02,9.136038208007812500e+01,-6.906818389892578125e+01,3.842805099487304688e+01,-1.252052783966064453e+01,-1.089104614257812500e+02,-1.248466110229492188e+02,6.315450668334960938e+01,-4.220386886596679688e+01
9.599999785423278809e-01,2.000000000000000000e+00,4.138519668579101562e+01,2.958226442337036133e+00,3.441786575317382812e+01,-1.196022262573242188e+02,9.136315155029296875e+01,-6.909297943115234375e+01,3.835618972778320312e+01,-1.251257228851318359e+01,-1.089235000610351562e+02,-1.249012374877929688e+02,6.315039443969726562e+01,-4.223316192626953125e+01
9.639999866485595703e-01,2.000000000000000000e+00,4.141360092163085938e+01,2.910858154296875000e+00,3.441238021850585938e+01,-1.196564025878906250e+02,9.136592864990234375e+01,-6.911777496337890625e+01,3.828433609008789062e+01,-1.250461673736572266e+01,-1.089365386962890625e+02,-1.249558792114257812e+02,6.314628219604492188e+01,-4.226245498657226562e+01
9.679999947547912598e-01,2.000000000000000000e+00,4.144200134277343750e+01,2.863491773605346680e+00,3.440690231323242188e+01,-1.197105789184570312e+02,9.136869812011718750e+01,-6.914256286621093750e+01,3.821247863769531250e+01,-1.249666118621826172e+01,-1.089495697021484375e+02,-1.250105056762695312e+02,6.314216995239257812e+01,-4.229174804687500000e+01
9.720000028610229492e-01,2.000000000000000000e+00,4.147040176391601562e+01,2.816127061843872070e+00,3.440142059326171875e+01,-1.197647628784179688e+02,9.137147521972656250e+01,-6.916735839843750000e+01,3.814062881469726562e+01,-1.248870658874511719e+01,-1.089626083374023438e+02,-1.250651245117187500e+02,6.313806533813476562e+01,-4.232103729248046875e+01
9.760000109672546387e-01,2.000000000000000000e+00,4.149880218505859375e+01,2.768764734268188477e+00,3.439593887329101562e+01,-1.198189239501953125e+02,9.137424468994140625e+01,-6.919214630126953125e+01,3.806877517700195312e+01,-1.248075199127197266e+01,-1.089756393432617188e+02,-1.251197509765625000e+02,6.313395309448242188e+01,-4.235032653808593750e+01
9.800000190734863281e-01,2.000000000000000000e+00,4.152720260620117188e+01,2.721403837203979492e+00,3.439045715332031250e+01,-1.198730850219726562e+02,9.137701416015625000e+01,-6.921694183349609375e+01,3.799692916870117188e+01,-1.247279739379882812e+01,-1.089886779785156250e+02,-1.251743774414062500e+02,6.312984085083007812e+01,-4.237961196899414062e+01
9.840000271797180176e-01,2.000000000000000000e+00,4.155560302734375000e+01,2.674045324325561523e+00,3.438497543334960938e+01,-1.199272460937500000e+02,9.137979125976562500e+01,-6.924172973632812500e+01,3.792508697509765625e+01,-1.246484375000000000e+01,-1.090017166137695312e+02,-1.252289962768554688e+02,6.312573623657226562e+01,-4.240890121459960938e+01
9.879999756813049316e-01,2.000000000000000000e+00,4.158399963378906250e+01,2.626688480377197266e+00,3.437949371337890625e+01,-1.199814147949218750e+02,9.138256072998046875e+01,-6.926651000976562500e+01,3.785324859619140625e+01,-1.245689105987548828e+01,-1.090147476196289062e+02,-1.252836074829101562e+02,6.312162399291992188e+01,-4.243819046020507812e+01
9.919999837875366211e-01,2.000000000000000000e+00,4.161239624023437500e+01,2.579333305358886719e+00,3.437401199340820312e+01,-1.200355758666992188e+02,9.138533782958984375e+01,-6.929129791259765625e+01,3.778140640258789062e+01,-1.244893646240234375e+01,-1.090277786254882812e+02,-1.253382186889648438e+02,6.311751174926757812e+01,-4.246747207641601562e+01
9.959999918937683105e-01,2.000000000000000000e+00,4.164078903198242188e+01,2.531980276107788086e+00,3.436853027343750000e+01,-1.200897369384765625e+02,9.138810729980468750e+01,-6.931608581542968750e+01,3.770957565307617188e+01,-1.244098377227783203e+01,-1.090408096313476562e+02,-1.253928375244140625e+02,6.311340713500976562e+01,-4.249675750732421875e+01
1.000000000000000000e+00,2.000000000000000000e+00,4.166918563842773438e+01,2.484628915786743164e+00,3.436305236816406250e+01,-1.201438903808593750e+02,9.139087677001953125e+01,-6.934087371826171875e+01,3.763774108886718750e+01,-1.243303203582763672e+01,-1.090538406372070312e+02,-1.254474487304687500e+02,6.310929489135742188e+01,-4.252603912353515625e+01
1.003999948501586914e+00,2.000000000000000000e+00,4.169757843017578125e+01,2.437279224395751953e+00,3.435757064819335938e+01,-1.201980361938476562e+02,9.139364624023437500e+01,-6.936566162109375000e+01,3.756591033935546875e+01,-1.242507934570312500e+01,-1.090668716430664062e+02,-1.255020523071289062e+02,6.310519027709960938e+01,-4.255532073974609375e+01
1.008000016212463379e+00,2.000000000000000000e+00,4.172596740722656250e+01,2.389931678771972656e+00,3.435209274291992188e+01,-1.202522048950195312e+02,9.139642333984375000e+01,-6.939044189453125000e+01,3.749408340454101562e+01,-1.241712665557861328e+01,-1.090799026489257812e+02,-1.255566635131835938e+02,6.310107803344726562e+01,-4.258460235595703125e+01
1.011999964714050293e+00,2.000000000000000000e+00,4.175435638427734375e+01,2.342585563659667969e+00,3.434661102294921875e+01,-1.203063507080078125e+02,9.139919281005859375e+01,-6.941522216796875000e+01,3.742226028442382812e+01,-1.240917587280273438e+01,-1.090929336547851562e+02,-1.256112670898437500e+02,6.309696578979492188e+01,-4.261388015747070312e+01
1.016000032424926758e+00,2.000000000000000000e+00,4.178274536132812500e+01,2.295241594314575195e+00,3.434112930297851562e+01,-1.203605041503906250e+02,9.140196990966796875e+01,-6.944001007080078125e+01,3.735044097900390625e+01,-1.240122413635253906e+01,-1.091059722900390625e+02,-1.256658630371093750e+02,6.309286117553710938e+01,-4.264315795898437500e+01
1.019999980926513672e+00,2.000000000000000000e+00,4.181113815307617188e+01,2.247899293899536133e+00,3.433565139770507812e+01,-1.204146347045898438e+02,9.140473175048828125e+01,-6.946479034423828125e+01,3.727861785888671875e+01,-1.239327335357666016e+01,-1.091189956665039062e+02,-1.257204666137695312e+02,6.308874893188476562e+01,-4.267243194580078125e+01
1.024000048637390137e+00,2.000000000000000000e+00,4.183952331542968750e+01,2.200558662414550781e+00,3.433017349243164062e+01,-1.204687881469726562e+02,9.140750885009765625e+01,-6.948956298828125000e+01,3.720680236816406250e+01,-1.238532257080078125e+01,-1.091320266723632812e+02,-1.257750625610351562e+02,6.308464431762695312e+01,-4.270170974731445312e+01
1.026999950408935547e+00,2.000000000000000000e+00,4.186790847778320312e+01,2.153219938278198242e+00,3.432469177246093750e+01,-1.205229263305664062e+02,9.141027832031250000e+01,-6.951434326171875000e+01,3.713499069213867188e+01,-1.237737178802490234e+01,-1.091450500488281250e+02,-1.258296661376953125e+02,6.308053970336914062e+01,-4.273098373413085938e+01
1.031999945640563965e+00,2.000000000000000000e+00,4.189629364013671875e+01,2.105883121490478516e+00,3.431921386718750000e+01,-1.205770568847656250e+02,9.141305541992187500e+01,-6.953912353515625000e+01,3.706318283081054688e+01,-1.236942195892333984e+01,-1.091580810546875000e+02,-1.258842544555664062e+02,6.307642745971679688e+01,-4.276026153564453125e+01
1.036000013351440430e+00,2.000000000000000000e+00,4.192468261718750000e+01,2.058547735214233398e+00,3.431373596191406250e+01,-1.206312103271484375e+02,9.141581726074218750e+01,-6.956389617919921875e+01,3.699137115478515625e+01,-1.236147212982177734e+01,-1.091711120605468750e+02,-1.259388427734375000e+02,6.307232284545898438e+01,-4.278953170776367188e+01
1.039999961853027344e+00,2.000000000000000000e+00,4.195306396484375000e+01,2.011214017868041992e+00,3.430825424194335938e+01,-1.206853485107421875e+02,9.141859436035156250e+01,-6.958867645263671875e+01,3.691956710815429688e+01,-1.235352134704589844e+01,-1.091841430664062500e+02,-1.259934387207031250e+02,6.306821060180664062e+01,-4.281880569458007812e+01
1.044000029563903809e+00,2.000000000000000000e+00,4.198144531250000000e+01,1.963882446289062500e+00,3.430277633666992188e+01,-1.207394714355468750e+02,9.142136383056640625e+01,-6.961344909667968750e+01,3.684776306152343750e+01,-1.234557342529296875e+01,-1.091971664428710938e+02,-1.260480270385742188e+02,6.306410598754882812e+01,-4.284807205200195312e+01
1.047999978065490723e+00,2.000000000000000000e+00,4.200982666015625000e+01,1.916552424430847168e+00,3.429729843139648438e+01,-1.207936019897460938e+02,9.142413330078125000e+01,-6.963822174072265625e+01,3.677596664428710938e+01,-1.233762359619140625e+01,-1.092101898193359375e+02,-1.261026153564453125e+02,6.306000137329101562e+01,-4.287734222412109375e+01
1.052000045776367188e+00,2.000000000000000000e+00,4.203820800781250000e+01,1.869223833084106445e+00,3.429182052612304688e+01,-1.208477401733398438e+02,9.142690277099609375e+01,-6.966299438476562500e+01,3.670416641235351562e+01,-1.232967472076416016e+01,-1.092232131958007812e+02,-1.261571884155273438e+02,6.305589675903320312e+01,-4.290660858154296875e+01
1.054999947547912598e+00,2.000000000000000000e+00,4.206658554077148438e+01,1.821897268295288086e+00,3.428634262084960938e+01,-1.209018630981445312e+02,9.142967224121093750e+01,-6.968776702880859375e+01,3.663236999511718750e+01,-1.232172584533691406e+01,-1.092362442016601562e+02,-1.262117767333984375e+02,6.305178451538085938e+01,-4.293587875366210938e+01
1.059999942779541016e+00,2.000000000000000000e+00,4.209496688842773438e+01,1.774572134017944336e+00,3.428086853027343750e+01,-1.209559860229492188e+02,9.143244171142578125e+01,-6.971253967285156250e+01,3.656057739257812500e+01,-1.231377887725830078e+01,-1.092492675781250000e+02,-1.262663650512695312e+02,6.304767990112304688e+01,-4.296514511108398438e+01
1.064000010490417480e+00,2.000000000000000000e+00,4.212334060668945312e+01,1.727248787879943848e+00,3.427539062500000000e+01,-1.210101089477539062e+02,9.143521881103515625e+01,-6.973730468750000000e+01,3.648878860473632812e+01,-1.230583095550537109e+01,-1.092622909545898438e+02,-1.263209381103515625e+02,6.304357528686523438e+01,-4.299440765380859375e+01
1.067999958992004395e+00,2.000000000000000000e+00,4.215171813964843750e+01,1.679927110671997070e+00,3.426991271972656250e+01,-1.210642318725585938e+02,9.143798065185546875e+01,-6.976207733154296875e+01,3.641699981689453125e+01,-1.229788303375244141e+01,-1.092753143310546875e+02,-1.263755111694335938e+02,6.303947067260742188e+01,-4.302367401123046875e+01
1.072000026702880859e+00,2.000000000000000000e+00,4.218009185791015625e+01,1.632606983184814453e+00,3.426443481445312500e+01,-1.211183547973632812e+02,9.144075775146484375e+01,-6.978684234619140625e+01,3.634521484375000000e+01,-1.228993511199951172e+01,-1.092883377075195312e+02,-1.264300842285156250e+02,6.303535842895507812e+01,-4.305293655395507812e+01
1.075999975204467773e+00,2.000000000000000000e+00,4.220846557617187500e+01,1.585288643836975098e+00,3.425896072387695312e+01,-1.211724777221679688e+02,9.144351959228515625e+01,-6.981160736083984375e+01,3.627343368530273438e+01,-1.228198814392089844e+01,-1.093013610839843750e+02,-1.264846572875976562e+02,6.303125381469726562e+01,-4.308219909667968750e+01
1.080000042915344238e+00,2.000000000000000000e+00,4.223683929443359375e+01,1.537971854209899902e+00,3.425348281860351562e+01,-1.212266006469726562e+02,9.144629669189453125e+01,-6.983638000488281250e+01,3.620165634155273438e+01,-1.227404117584228516e+01,-1.093143844604492188e+02,-1.265392303466796875e+02,6.302714920043945312e+01,-4.311146163940429688e+01
1.083999991416931152e+00,2.000000000000000000e+00,4.226520919799804688e+01,1.490656733512878418e+00,3.424800491333007812e+01,-1.212807083129882812e+02,9.144906616210937500e+01,-6.986115264892578125e+01,3.612987899780273438e+01,-1.226609516143798828e+01,-1.093274002075195312e+02,-1.265938034057617188e+02,6.302304458618164062e+01,-4.314072036743164062e+01
1.088000059127807617e+00,2.000000000000000000e+00,4.229358291625976562e+01,1.443343043327331543e+00,3.424253082275390625e+01,-1.213348159790039062e+02,9.145183563232421875e+01,-6.988591003417968750e+01,3.605810165405273438e+01,-1.225814914703369141e+01,-1.093404312133789062e+02,-1.266483612060546875e+02,6.301893997192382812e+01,-4.316997909545898438e+01
1.090999960899353027e+00,2.000000000000000000e+00,4.232195281982421875e+01,1.396031022071838379e+00,3.423705291748046875e+01,-1.213889389038085938e+02,9.145460510253906250e+01,-6.991067504882812500e+01,3.598633193969726562e+01,-1.225020313262939453e+01,-1.093534469604492188e+02,-1.267029342651367188e+02,6.301483535766601562e+01,-4.319923782348632812e+01
1.095999956130981445e+00,2.000000000000000000e+00,4.235032272338867188e+01,1.348720669746398926e+00,3.423157882690429688e+01,-1.214430465698242188e+02,9.145737457275390625e+01,-6.993544006347656250e+01,3.591455841064453125e+01,-1.224225711822509766e+01,-1.093664703369140625e+02,-1.267574920654296875e+02,6.301073074340820312e+01,-4.322849655151367188e+01
1.100000023841857910e+00,2.000000000000000000e+00,4.237869262695312500e+01,1.301411747932434082e+00,3.422610092163085938e+01,-1.214971389770507812e+02,9.146014404296875000e+01,-6.996019744873046875e+01,3.584279251098632812e+01,-1.223431205749511719e+01,-1.093794937133789062e+02,-1.268120498657226562e+02,6.300662612915039062e+01,-4.325775527954101562e+01
1.103999972343444824e+00,2.000000000000000000e+00,4.240705871582031250e+01,1.254104495048522949e+00,3.422062683105468750e+01,-1.215512466430664062e+02,9.146291351318359375e+01,-6.998497009277343750e+01,3.577102661132812500e+01,-1.222636699676513672e+01,-1.093925094604492188e+02,-1.268666152954101562e+02,6.300251770019531250e+01,-4.328700637817382812e+01
1.108000040054321289e+00,2.000000000000000000e+00,4.243542098999023438e+01,1.206798791885375977e+00,3.421515274047851562e+01,-1.216053619384765625e+02,9.146568298339843750e+01,-7.000972747802734375e+01,3.569926071166992188e+01,-1.221842098236083984e+01,-1.094055252075195312e+02,-1.269211730957031250e+02,6.299841308593750000e+01,-4.331626129150390625e+01
1.111999988555908203e+00,2.000000000000000000e+00,4.246378707885742188e+01,1.159494638442993164e+00,3.420967864990234375e+01,-1.216594543457031250e+02,9.146845245361328125e+01,-7.003448486328125000e+01,3.562750244140625000e+01,-1.221047687530517578e+01,-1.094185485839843750e+02,-1.269757308959960938e+02,6.299430847167968750e+01,-4.334551620483398438e+01
