rpiRobotics/ARM-21-02-F-19-Robot-Motion-Program/data_performance_abb/curve_2/dual_arm/diffevo_pose6_3/30L/grad_result/sim/dual_iteration_4.csv
timestamp,cmd_num,J1,J2,J3,J4,J5,J6,J1_2,J2_2,J3_2,J4_2,J5_2,J6_2
0.000000000000000000e+00,-1.000000000000000000e+00,3.550883102416992188e+01,1.246706676483154297e+01,3.581433486938476562e+01,-1.087173080444335938e+02,9.076969146728515625e+01,-6.402635955810546875e+01,5.277691650390625000e+01,-1.340852165222167969e+01,-1.076234436035156250e+02,-1.130622024536132812e+02,6.390169143676757812e+01,-3.694556045532226562e+01
2.000000094994902611e-03,-1.000000000000000000e+00,3.550883102416992188e+01,1.246706676483154297e+01,3.581433486938476562e+01,-1.087173080444335938e+02,9.076969146728515625e+01,-6.402635955810546875e+01,5.277691650390625000e+01,-1.340852165222167969e+01,-1.076234436035156250e+02,-1.130622024536132812e+02,6.390169143676757812e+01,-3.694556045532226562e+01
4.000000189989805222e-03,-1.000000000000000000e+00,3.550883102416992188e+01,1.246706676483154297e+01,3.581433486938476562e+01,-1.087173080444335938e+02,9.076969146728515625e+01,-6.402635955810546875e+01,5.277691650390625000e+01,-1.340852165222167969e+01,-1.076234436035156250e+02,-1.130622024536132812e+02,6.390169143676757812e+01,-3.694556045532226562e+01
9.999999776482582092e-03,-1.000000000000000000e+00,3.550883102416992188e+01,1.246706676483154297e+01,3.581433486938476562e+01,-1.087173080444335938e+02,9.076969146728515625e+01,-6.402635955810546875e+01,5.277691650390625000e+01,-1.340852165222167969e+01,-1.076234436035156250e+02,-1.130622024536132812e+02,6.390169143676757812e+01,-3.694556045532226562e+01
1.200000010430812836e-02,-1.000000000000000000e+00,3.550883102416992188e+01,1.246706676483154297e+01,3.581433486938476562e+01,-1.087173080444335938e+02,9.076969146728515625e+01,-6.402635955810546875e+01,5.277691650390625000e+01,-1.340852165222167969e+01,-1.076234436035156250e+02,-1.130622024536132812e+02,6.390169143676757812e+01,-3.694556045532226562e+01
1.600000075995922089e-02,-1.000000000000000000e+00,3.550883102416992188e+01,1.246706676483154297e+01,3.581433486938476562e+01,-1.087173080444335938e+02,9.076969146728515625e+01,-6.402635955810546875e+01,5.277691650390625000e+01,-1.340852165222167969e+01,-1.076234436035156250e+02,-1.130622024536132812e+02,6.390169143676757812e+01,-3.694556045532226562e+01
1.999999955296516418e-02,-1.000000000000000000e+00,3.550883102416992188e+01,1.246706676483154297e+01,3.581433486938476562e+01,-1.087173080444335938e+02,9.076969146728515625e+01,-6.402635955810546875e+01,5.277691650390625000e+01,-1.340852165222167969e+01,-1.076234436035156250e+02,-1.130622024536132812e+02,6.390169143676757812e+01,-3.694556045532226562e+01
2.400000020861625671e-02,-1.000000000000000000e+00,3.550883102416992188e+01,1.246706676483154297e+01,3.581433486938476562e+01,-1.087173080444335938e+02,9.076969146728515625e+01,-6.402635955810546875e+01,5.277691650390625000e+01,-1.340852165222167969e+01,-1.076234436035156250e+02,-1.130622024536132812e+02,6.390169143676757812e+01,-3.694556045532226562e+01
2.899999916553497314e-02,2.000000000000000000e+00,3.550883102416992188e+01,1.246706676483154297e+01,3.581433486938476562e+01,-1.087173080444335938e+02,9.076969146728515625e+01,-6.402635955810546875e+01,5.277691650390625000e+01,-1.340852165222167969e+01,-1.076234436035156250e+02,-1.130622024536132812e+02,6.390169143676757812e+01,-3.694556045532226562e+01
3.500000014901161194e-02,2.000000000000000000e+00,3.550883102416992188e+01,1.246706676483154297e+01,3.581433486938476562e+01,-1.087173080444335938e+02,9.076969146728515625e+01,-6.402635955810546875e+01,5.277691650390625000e+01,-1.340852165222167969e+01,-1.076234436035156250e+02,-1.130622024536132812e+02,6.390169143676757812e+01,-3.694556045532226562e+01
3.799999877810478210e-02,2.000000000000000000e+00,3.550883102416992188e+01,1.246706676483154297e+01,3.581433486938476562e+01,-1.087173080444335938e+02,9.076969146728515625e+01,-6.402635955810546875e+01,5.277691650390625000e+01,-1.340852165222167969e+01,-1.076234436035156250e+02,-1.130622024536132812e+02,6.390169143676757812e+01,-3.694556045532226562e+01
3.999999910593032837e-02,2.000000000000000000e+00,3.550883102416992188e+01,1.246706676483154297e+01,3.581433486938476562e+01,-1.087173080444335938e+02,9.076969146728515625e+01,-6.402635955810546875e+01,5.277691650390625000e+01,-1.340852165222167969e+01,-1.076234436035156250e+02,-1.130622024536132812e+02,6.390169143676757812e+01,-3.694556045532226562e+01
4.399999976158142090e-02,2.000000000000000000e+00,3.550883102416992188e+01,1.246706676483154297e+01,3.581433486938476562e+01,-1.087173080444335938e+02,9.076969146728515625e+01,-6.402635955810546875e+01,5.277691650390625000e+01,-1.340852165222167969e+01,-1.076234436035156250e+02,-1.130622024536132812e+02,6.390169143676757812e+01,-3.694556045532226562e+01
4.800000041723251343e-02,2.000000000000000000e+00,3.550883102416992188e+01,1.246706676483154297e+01,3.581433486938476562e+01,-1.087173080444335938e+02,9.076969146728515625e+01,-6.402635955810546875e+01,5.277691650390625000e+01,-1.340852165222167969e+01,-1.076234436035156250e+02,-1.130622024536132812e+02,6.390169143676757812e+01,-3.694556045532226562e+01
5.200000107288360596e-02,2.000000000000000000e+00,3.550883102416992188e+01,1.246706676483154297e+01,3.581433486938476562e+01,-1.087173080444335938e+02,9.076969146728515625e+01,-6.402635955810546875e+01,5.277691650390625000e+01,-1.340852165222167969e+01,-1.076234436035156250e+02,-1.130622024536132812e+02,6.390169143676757812e+01,-3.694556045532226562e+01
5.600000172853469849e-02,2.000000000000000000e+00,3.550883102416992188e+01,1.246706676483154297e+01,3.581433486938476562e+01,-1.087173080444335938e+02,9.076969146728515625e+01,-6.402635955810546875e+01,5.277691650390625000e+01,-1.340852165222167969e+01,-1.076234436035156250e+02,-1.130622024536132812e+02,6.390169143676757812e+01,-3.694556045532226562e+01
5.999999865889549255e-02,2.000000000000000000e+00,3.550883102416992188e+01,1.246706676483154297e+01,3.581433486938476562e+01,-1.087173080444335938e+02,9.076969146728515625e+01,-6.402635955810546875e+01,5.277691650390625000e+01,-1.340852165222167969e+01,-1.076234436035156250e+02,-1.130622024536132812e+02,6.390169143676757812e+01,-3.694556045532226562e+01
6.400000303983688354e-02,2.000000000000000000e+00,3.550883102416992188e+01,1.246706676483154297e+01,3.581433486938476562e+01,-1.087173080444335938e+02,9.076969146728515625e+01,-6.402635955810546875e+01,5.277691650390625000e+01,-1.340852165222167969e+01,-1.076234436035156250e+02,-1.130622024536132812e+02,6.390169143676757812e+01,-3.694556045532226562e+01
6.800000369548797607e-02,2.000000000000000000e+00,3.550886154174804688e+01,1.246704292297363281e+01,3.581433486938476562e+01,-1.087173080444335938e+02,9.076969146728515625e+01,-6.402635955810546875e+01,5.277691650390625000e+01,-1.340852165222167969e+01,-1.076234436035156250e+02,-1.130622024536132812e+02,6.390169143676757812e+01,-3.694556045532226562e+01
7.199999690055847168e-02,2.000000000000000000e+00,3.550904464721679688e+01,1.246689701080322266e+01,3.581433868408203125e+01,-1.087173156738281250e+02,9.076969909667968750e+01,-6.402635955810546875e+01,5.277691650390625000e+01,-1.340852165222167969e+01,-1.076234436035156250e+02,-1.130622024536132812e+02,6.390169143676757812e+01,-3.694556045532226562e+01
7.599999755620956421e-02,2.000000000000000000e+00,3.550958251953125000e+01,1.246644401550292969e+01,3.581435012817382812e+01,-1.087173538208007812e+02,9.076971435546875000e+01,-6.402637481689453125e+01,5.277691650390625000e+01,-1.340852165222167969e+01,-1.076234436035156250e+02,-1.130622024536132812e+02,6.390169143676757812e+01,-3.694556045532226562e+01
7.999999821186065674e-02,2.000000000000000000e+00,3.551066207885742188e+01,1.246547889709472656e+01,3.581436920166015625e+01,-1.087174530029296875e+02,9.076975250244140625e+01,-6.402640533447265625e+01,5.277688598632812500e+01,-1.340852546691894531e+01,-1.076234359741210938e+02,-1.130622024536132812e+02,6.390169143676757812e+01,-3.694556045532226562e+01
8.399999886751174927e-02,2.000000000000000000e+00,3.551237106323242188e+01,1.246383285522460938e+01,3.581439590454101562e+01,-1.087176895141601562e+02,9.076982116699218750e+01,-6.402649688720703125e+01,5.277667617797851562e+01,-1.340854454040527344e+01,-1.076233901977539062e+02,-1.130622177124023438e+02,6.390169143676757812e+01,-3.694556427001953125e+01
8.799999952316284180e-02,2.000000000000000000e+00,3.551472473144531250e+01,1.246138191223144531e+01,3.581441116333007812e+01,-1.087181777954101562e+02,9.076991271972656250e+01,-6.402668762207031250e+01,5.277598953247070312e+01,-1.340860271453857422e+01,-1.076232528686523438e+02,-1.130622711181640625e+02,6.390167999267578125e+01,-3.694558715820312500e+01
9.200000017881393433e-02,2.000000000000000000e+00,3.551774597167968750e+01,1.245799255371093750e+01,3.581440353393554688e+01,-1.087190551757812500e+02,9.077005767822265625e+01,-6.402704620361328125e+01,5.277444458007812500e+01,-1.340872192382812500e+01,-1.076229705810546875e+02,-1.130624618530273438e+02,6.390164566040039062e+01,-3.694566345214843750e+01
9.600000083446502686e-02,2.000000000000000000e+00,3.552146530151367188e+01,1.245350360870361328e+01,3.581435394287109375e+01,-1.087205276489257812e+02,9.077025604248046875e+01,-6.402767944335937500e+01,5.277165985107421875e+01,-1.340890312194824219e+01,-1.076225204467773438e+02,-1.130629119873046875e+02,6.390158462524414062e+01,-3.694586563110351562e+01
1.000000014901161194e-01,2.000000000000000000e+00,3.552590179443359375e+01,1.244772148132324219e+01,3.581423568725585938e+01,-1.087228240966796875e+02,9.077051544189453125e+01,-6.402867889404296875e+01,5.276728820800781250e+01,-1.340912628173828125e+01,-1.076219406127929688e+02,-1.130638504028320312e+02,6.390146636962890625e+01,-3.694630813598632812e+01
1.040000021457672119e-01,2.000000000000000000e+00,3.553113555908203125e+01,1.244041728973388672e+01,3.581401443481445312e+01,-1.087262344360351562e+02,9.077085113525390625e+01,-6.403018188476562500e+01,5.276096343994140625e+01,-1.340935039520263672e+01,-1.076212921142578125e+02,-1.130655975341796875e+02,6.390129089355468750e+01,-3.694714355468750000e+01
1.080000028014183044e-01,2.000000000000000000e+00,3.553733825683593750e+01,1.243131542205810547e+01,3.581365966796875000e+01,-1.087310714721679688e+02,9.077127838134765625e+01,-6.403232574462890625e+01,5.275232696533203125e+01,-1.340950965881347656e+01,-1.076206817626953125e+02,-1.130685501098632812e+02,6.390100860595703125e+01,-3.694857788085937500e+01
1.120000034570693970e-01,2.000000000000000000e+00,3.554473876953125000e+01,1.242010498046875000e+01,3.581312942504882812e+01,-1.087377090454101562e+02,9.077182006835937500e+01,-6.403529357910156250e+01,5.274107360839843750e+01,-1.340951728820800781e+01,-1.076202850341796875e+02,-1.130731582641601562e+02,6.390060806274414062e+01,-3.695084381103515625e+01
1.159999966621398926e-01,2.000000000000000000e+00,3.555350494384765625e+01,1.240653324127197266e+01,3.581238174438476562e+01,-1.087465286254882812e+02,9.077249145507812500e+01,-6.403925323486328125e+01,5.272687530517578125e+01,-1.340927600860595703e+01,-1.076202697753906250e+02,-1.130799407958984375e+02,6.390004730224609375e+01,-3.695419311523437500e+01
1.199999973177909851e-01,2.000000000000000000e+00,3.556361389160156250e+01,1.239060974121093750e+01,3.581135559082031250e+01,-1.087579650878906250e+02,9.077330017089843750e+01,-6.404441070556640625e+01,5.270927810668945312e+01,-1.340869617462158203e+01,-1.076207962036132812e+02,-1.130894012451171875e+02,6.389929580688476562e+01,-3.695889663696289062e+01
1.239999979734420776e-01,2.000000000000000000e+00,3.557485580444335938e+01,1.237262725830078125e+01,3.580998611450195312e+01,-1.087724075317382812e+02,9.077423095703125000e+01,-6.405095672607421875e+01,5.268767547607421875e+01,-1.340770530700683594e+01,-1.076219940185546875e+02,-1.131020965576171875e+02,6.389831924438476562e+01,-3.696522140502929688e+01
1.280000060796737671e-01,2.000000000000000000e+00,3.558700180053710938e+01,1.235291957855224609e+01,3.580820846557617188e+01,-1.087902374267578125e+02,9.077529907226562500e+01,-6.405905914306640625e+01,5.266152572631835938e+01,-1.340623092651367188e+01,-1.076239776611328125e+02,-1.131185226440429688e+02,6.389707565307617188e+01,-3.697342300415039062e+01
1.309999972581863403e-01,2.000000000000000000e+00,3.559996795654296875e+01,1.233161449432373047e+01,3.580598831176757812e+01,-1.088117218017578125e+02,9.077648162841796875e+01,-6.406887817382812500e+01,5.263059234619140625e+01,-1.340417003631591797e+01,-1.076269378662109375e+02,-1.131391601562500000e+02,6.389553833007812500e+01,-3.698375320434570312e+01
1.360000073909759521e-01,2.000000000000000000e+00,3.561379241943359375e+01,1.230866146087646484e+01,3.580329132080078125e+01,-1.088370590209960938e+02,9.077780151367187500e+01,-6.408048248291015625e+01,5.259509277343750000e+01,-1.340139675140380859e+01,-1.076311416625976562e+02,-1.131644363403320312e+02,6.389368820190429688e+01,-3.699642181396484375e+01
1.389999985694885254e-01,2.000000000000000000e+00,3.562854003906250000e+01,1.228395748138427734e+01,3.580012512207031250e+01,-1.088662948608398438e+02,9.077925109863281250e+01,-6.409389495849609375e+01,5.255545425415039062e+01,-1.339779281616210938e+01,-1.076368255615234375e+02,-1.131946029663085938e+02,6.389151763916015625e+01,-3.701158142089843750e+01
1.439999938011169434e-01,2.000000000000000000e+00,3.564433288574218750e+01,1.225734710693359375e+01,3.579649734497070312e+01,-1.088993911743164062e+02,9.078084564208984375e+01,-6.410910034179687500e+01,5.251206207275390625e+01,-1.339329719543457031e+01,-1.076441268920898438e+02,-1.132297515869140625e+02,6.388903045654296875e+01,-3.702926254272460938e+01
1.480000019073486328e-01,2.000000000000000000e+00,3.566129302978515625e+01,1.222862815856933594e+01,3.579243087768554688e+01,-1.089361572265625000e+02,9.078258514404296875e+01,-6.412600708007812500e+01,5.246525955200195312e+01,-1.338791751861572266e+01,-1.076530532836914062e+02,-1.132697296142578125e+02,6.388623046875000000e+01,-3.704940032958984375e+01
1.519999951124191284e-01,2.000000000000000000e+00,3.567950057983398438e+01,1.219767761230468750e+01,3.578796768188476562e+01,-1.089763717651367188e+02,9.078446197509765625e+01,-6.414450073242187500e+01,5.241539382934570312e+01,-1.338171863555908203e+01,-1.076634902954101562e+02,-1.133141403198242188e+02,6.388314819335937500e+01,-3.707179260253906250e+01
1.560000032186508179e-01,2.000000000000000000e+00,3.569889068603515625e+01,1.216457748413085938e+01,3.578315353393554688e+01,-1.090197219848632812e+02,9.078648376464843750e+01,-6.416443634033203125e+01,5.236255645751953125e+01,-1.337485313415527344e+01,-1.076751480102539062e+02,-1.133623580932617188e+02,6.387982177734375000e+01,-3.709611892700195312e+01
1.599999964237213135e-01,2.000000000000000000e+00,3.571924972534179688e+01,1.212959194183349609e+01,3.577801513671875000e+01,-1.090658416748046875e+02,9.078862762451171875e+01,-6.418566131591796875e+01,5.230642700195312500e+01,-1.336754798889160156e+01,-1.076875762939453125e+02,-1.134136505126953125e+02,6.387627792358398438e+01,-3.712199401855468750e+01
1.640000045299530029e-01,2.000000000000000000e+00,3.574033737182617188e+01,1.209299659729003906e+01,3.577260589599609375e+01,-1.091143417358398438e+02,9.079086303710937500e+01,-6.420796966552734375e+01,5.224667358398437500e+01,-1.336004638671875000e+01,-1.077002792358398438e+02,-1.134672317504882812e+02,6.387256240844726562e+01,-3.714900970458984375e+01
1.679999977350234985e-01,2.000000000000000000e+00,3.576207351684570312e+01,1.205487918853759766e+01,3.576698303222656250e+01,-1.091647872924804688e+02,9.079319000244140625e+01,-6.423117828369140625e+01,5.218338394165039062e+01,-1.335252952575683594e+01,-1.077129211425781250e+02,-1.135223617553710938e+02,6.386870956420898438e+01,-3.717678833007812500e+01
1.720000058412551880e-01,2.000000000000000000e+00,3.578461074829101562e+01,1.201513004302978516e+01,3.576120376586914062e+01,-1.092167510986328125e+02,9.079561614990234375e+01,-6.425508117675781250e+01,5.211705017089843750e+01,-1.334509468078613281e+01,-1.077253112792968750e+02,-1.135784454345703125e+02,6.386476898193359375e+01,-3.720503234863281250e+01
1.759999990463256836e-01,2.000000000000000000e+00,3.580818176269531250e+01,1.197362422943115234e+01,3.575532531738281250e+01,-1.092698440551757812e+02,9.079812622070312500e+01,-6.427948760986328125e+01,5.204827499389648438e+01,-1.333778667449951172e+01,-1.077373580932617188e+02,-1.136350555419921875e+02,6.386076736450195312e+01,-3.723351669311523438e+01
1.800000071525573730e-01,2.000000000000000000e+00,3.583289718627929688e+01,1.193039894104003906e+01,3.574940490722656250e+01,-1.093236923217773438e+02,9.080070495605468750e+01,-6.430422210693359375e+01,5.197770690917968750e+01,-1.333060932159423828e+01,-1.077490921020507812e+02,-1.136919021606445312e+02,6.385673141479492188e+01,-3.726211166381835938e+01
1.840000003576278687e-01,2.000000000000000000e+00,3.585874557495117188e+01,1.188563156127929688e+01,3.574346160888671875e+01,-1.093780136108398438e+02,9.080335998535156250e+01,-6.432916259765625000e+01,5.190604400634765625e+01,-1.332352542877197266e+01,-1.077606048583984375e+02,-1.137488403320312500e+02,6.385266494750976562e+01,-3.729073715209960938e+01
1.879999935626983643e-01,2.000000000000000000e+00,3.588567352294921875e+01,1.183955574035644531e+01,3.573752975463867188e+01,-1.094326019287109375e+02,9.080606079101562500e+01,-6.435420989990234375e+01,5.183391189575195312e+01,-1.331648635864257812e+01,-1.077720108032226562e+02,-1.138057861328125000e+02,6.384860229492187500e+01,-3.731937026977539062e+01
1.920000016689300537e-01,2.000000000000000000e+00,3.591352844238281250e+01,1.179249000549316406e+01,3.573161315917968750e+01,-1.094873123168945312e+02,9.080880737304687500e+01,-6.437929534912109375e+01,5.176167678833007812e+01,-1.330945968627929688e+01,-1.077833938598632812e+02,-1.138627471923828125e+02,6.384453964233398438e+01,-3.734799957275390625e+01
1.959999948740005493e-01,2.000000000000000000e+00,3.594200515747070312e+01,1.174483203887939453e+01,3.572570800781250000e+01,-1.095420684814453125e+02,9.081157684326171875e+01,-6.440439605712890625e+01,5.168944168090820312e+01,-1.330243396759033203e+01,-1.077947616577148438e+02,-1.139196853637695312e+02,6.384046936035156250e+01,-3.737662506103515625e+01
2.000000029802322388e-01,2.000000000000000000e+00,3.597076034545898438e+01,1.169693756103515625e+01,3.571981048583984375e+01,-1.095968322753906250e+02,9.081434631347656250e+01,-6.442949676513671875e+01,5.161721038818359375e+01,-1.329541015625000000e+01,-1.078061370849609375e+02,-1.139766311645507812e+02,6.383640289306640625e+01,-3.740525054931640625e+01
2.039999961853027344e-01,2.000000000000000000e+00,3.599958038330078125e+01,1.164899444580078125e+01,3.571391296386718750e+01,-1.096515960693359375e+02,9.081712341308593750e+01,-6.445459747314453125e+01,5.154499435424804688e+01,-1.328838634490966797e+01,-1.078175048828125000e+02,-1.140335617065429688e+02,6.383234024047851562e+01,-3.743387222290039062e+01
2.080000042915344238e-01,2.000000000000000000e+00,3.602839660644531250e+01,1.160105419158935547e+01,3.570801544189453125e+01,-1.097063598632812500e+02,9.081990814208984375e+01,-6.447969818115234375e+01,5.147278213500976562e+01,-1.328136348724365234e+01,-1.078288803100585938e+02,-1.140904922485351562e+02,6.382827377319335938e+01,-3.746249008178710938e+01
2.119999974966049194e-01,2.000000000000000000e+00,3.605721282958984375e+01,1.155311965942382812e+01,3.570211791992187500e+01,-1.097611083984375000e+02,9.082268524169921875e+01,-6.450479125976562500e+01,5.140057373046875000e+01,-1.327434158325195312e+01,-1.078402557373046875e+02,-1.141474151611328125e+02,6.382421112060546875e+01,-3.749110412597656250e+01
2.160000056028366089e-01,2.000000000000000000e+00,3.608602523803710938e+01,1.150518989562988281e+01,3.569622421264648438e+01,-1.098158493041992188e+02,9.082546234130859375e+01,-6.452988433837890625e+01,5.132838058471679688e+01,-1.326732063293457031e+01,-1.078516159057617188e+02,-1.142043304443359375e+02,6.382014846801757812e+01,-3.751971435546875000e+01
2.199999988079071045e-01,2.000000000000000000e+00,3.611483383178710938e+01,1.145726585388183594e+01,3.569033050537109375e+01,-1.098705902099609375e+02,9.082823944091796875e+01,-6.455497741699218750e+01,5.125619125366210938e+01,-1.326030063629150391e+01,-1.078629837036132812e+02,-1.142612380981445312e+02,6.381608200073242188e+01,-3.754832458496093750e+01
2.240000069141387939e-01,2.000000000000000000e+00,3.614363861083984375e+01,1.140934658050537109e+01,3.568443679809570312e+01,-1.099253158569335938e+02,9.083100891113281250e+01,-6.458006286621093750e+01,5.118400955200195312e+01,-1.325328063964843750e+01,-1.078743591308593750e+02,-1.143181381225585938e+02,6.381201934814453125e+01,-3.757692718505859375e+01
2.280000001192092896e-01,2.000000000000000000e+00,3.617243957519531250e+01,1.136143207550048828e+01,3.567854690551757812e+01,-1.099800415039062500e+02,9.083379364013671875e+01,-6.460514831542968750e+01,5.111183929443359375e+01,-1.324626159667968750e+01,-1.078857116699218750e+02,-1.143750381469726562e+02,6.380795669555664062e+01,-3.760552978515625000e+01
2.319999933242797852e-01,2.000000000000000000e+00,3.620124053955078125e+01,1.131352329254150391e+01,3.567264938354492188e+01,-1.100347671508789062e+02,9.083656311035156250e+01,-6.463022613525390625e+01,5.103967666625976562e+01,-1.323924350738525391e+01,-1.078970794677734375e+02,-1.144319229125976562e+02,6.380389022827148438e+01,-3.763412857055664062e+01
2.360000014305114746e-01,2.000000000000000000e+00,3.623003387451171875e+01,1.126562023162841797e+01,3.566675949096679688e+01,-1.100894851684570312e+02,9.083934783935546875e+01,-6.465530395507812500e+01,5.096751785278320312e+01,-1.323222637176513672e+01,-1.079084472656250000e+02,-1.144888076782226562e+02,6.379983520507812500e+01,-3.766272735595703125e+01
2.399999946355819702e-01,2.000000000000000000e+00,3.625882720947265625e+01,1.121772098541259766e+01,3.566086959838867188e+01,-1.101441879272460938e+02,9.084211730957031250e+01,-6.468038177490234375e+01,5.089536666870117188e+01,-1.322521018981933594e+01,-1.079198074340820312e+02,-1.145456848144531250e+02,6.379577255249023438e+01,-3.769131851196289062e+01
2.440000027418136597e-01,2.000000000000000000e+00,3.628762054443359375e+01,1.116982746124267578e+01,3.565497970581054688e+01,-1.101988906860351562e+02,9.084489440917968750e+01,-6.470545959472656250e+01,5.082322692871093750e+01,-1.321819400787353516e+01,-1.079311599731445312e+02,-1.146025543212890625e+02,6.379170608520507812e+01,-3.771990966796875000e+01
2.479999959468841553e-01,2.000000000000000000e+00,3.631640625000000000e+01,1.112193965911865234e+01,3.564908981323242188e+01,-1.102535934448242188e+02,9.084767150878906250e+01,-6.473052215576171875e+01,5.075109100341796875e+01,-1.321117877960205078e+01,-1.079425201416015625e+02,-1.146594238281250000e+02,6.378765106201171875e+01,-3.774849319458007812e+01
2.520000040531158447e-01,2.000000000000000000e+00,3.634518814086914062e+01,1.107405662536621094e+01,3.564319992065429688e+01,-1.103082809448242188e+02,9.085044097900390625e+01,-6.475559234619140625e+01,5.067896652221679688e+01,-1.320416450500488281e+01,-1.079538803100585938e+02,-1.147162780761718750e+02,6.378359222412109375e+01,-3.777707672119140625e+01
2.560000121593475342e-01,2.000000000000000000e+00,3.637397003173828125e+01,1.102617740631103516e+01,3.563731002807617188e+01,-1.103629608154296875e+02,9.085321807861328125e+01,-6.478065490722656250e+01,5.060684585571289062e+01,-1.319715118408203125e+01,-1.079652404785156250e+02,-1.147731323242187500e+02,6.377952957153320312e+01,-3.780565643310546875e+01
2.599999904632568359e-01,2.000000000000000000e+00,3.640275192260742188e+01,1.097830486297607422e+01,3.563142395019531250e+01,-1.104176483154296875e+02,9.085599517822265625e+01,-6.480572509765625000e+01,5.053473663330078125e+01,-1.319013786315917969e+01,-1.079765930175781250e+02,-1.148299865722656250e+02,6.377547073364257812e+01,-3.783423614501953125e+01
2.639999985694885254e-01,2.000000000000000000e+00,3.643152236938476562e+01,1.093043613433837891e+01,3.562553787231445312e+01,-1.104723205566406250e+02,9.085877227783203125e+01,-6.483078002929687500e+01,5.046263504028320312e+01,-1.318312549591064453e+01,-1.079879455566406250e+02,-1.148868331909179688e+02,6.377141571044921875e+01,-3.786280822753906250e+01
2.680000066757202148e-01,2.000000000000000000e+00,3.646029281616210938e+01,1.088257312774658203e+01,3.561964797973632812e+01,-1.105269927978515625e+02,9.086154174804687500e+01,-6.485583496093750000e+01,5.039053726196289062e+01,-1.317611503601074219e+01,-1.079992980957031250e+02,-1.149436569213867188e+02,6.376734924316406250e+01,-3.789138031005859375e+01
2.720000147819519043e-01,2.000000000000000000e+00,3.648906326293945312e+01,1.083471488952636719e+01,3.561376571655273438e+01,-1.105816497802734375e+02,9.086431884765625000e+01,-6.488088989257812500e+01,5.031844711303710938e+01,-1.316910362243652344e+01,-1.080106506347656250e+02,-1.150004959106445312e+02,6.376329421997070312e+01,-3.791995239257812500e+01
2.759999930858612061e-01,2.000000000000000000e+00,3.651782989501953125e+01,1.078686046600341797e+01,3.560787582397460938e+01,-1.106363067626953125e+02,9.086708831787109375e+01,-6.490594482421875000e+01,5.024636459350585938e+01,-1.316209411621093750e+01,-1.080220031738281250e+02,-1.150573120117187500e+02,6.375923538208007812e+01,-3.794851684570312500e+01
2.800000011920928955e-01,2.000000000000000000e+00,3.654659271240234375e+01,1.073901271820068359e+01,3.560199356079101562e+01,-1.106909561157226562e+02,9.086986541748046875e+01,-6.493099975585937500e+01,5.017428970336914062e+01,-1.315508460998535156e+01,-1.080333480834960938e+02,-1.151141357421875000e+02,6.375518035888671875e+01,-3.797707748413085938e+01
2.840000092983245850e-01,2.000000000000000000e+00,3.657535171508789062e+01,1.069116878509521484e+01,3.559610748291015625e+01,-1.107456054687500000e+02,9.087263488769531250e+01,-6.495603942871093750e+01,5.010222625732421875e+01,-1.314807605743408203e+01,-1.080447006225585938e+02,-1.151709518432617188e+02,6.375112152099609375e+01,-3.800563812255859375e+01
2.879999876022338867e-01,2.000000000000000000e+00,3.660411071777343750e+01,1.064332962036132812e+01,3.559022521972656250e+01,-1.108002471923828125e+02,9.087541198730468750e+01,-6.498108673095703125e+01,5.003016281127929688e+01,-1.314106845855712891e+01,-1.080560455322265625e+02,-1.152277526855468750e+02,6.374706649780273438e+01,-3.803419494628906250e+01
2.919999957084655762e-01,2.000000000000000000e+00,3.663286209106445312e+01,1.059549617767333984e+01,3.558433914184570312e+01,-1.108548812866210938e+02,9.087818145751953125e+01,-6.500612640380859375e+01,4.995811080932617188e+01,-1.313405990600585938e+01,-1.080673904418945312e+02,-1.152845535278320312e+02,6.374301528930664062e+01,-3.806275177001953125e+01
2.960000038146972656e-01,2.000000000000000000e+00,3.666161346435546875e+01,1.054766654968261719e+01,3.557846069335937500e+01,-1.109095077514648438e+02,9.088095092773437500e+01,-6.503116607666015625e+01,4.988606643676757812e+01,-1.312705421447753906e+01,-1.080787353515625000e+02,-1.153413543701171875e+02,6.373895645141601562e+01,-3.809130477905273438e+01
3.000000119209289551e-01,2.000000000000000000e+00,3.669036102294921875e+01,1.049984169006347656e+01,3.557257843017578125e+01,-1.109641342163085938e+02,9.088372039794921875e+01,-6.505620574951171875e+01,4.981402969360351562e+01,-1.312004852294921875e+01,-1.080900802612304688e+02,-1.153981399536132812e+02,6.373490142822265625e+01,-3.811985015869140625e+01
3.039999902248382568e-01,2.000000000000000000e+00,3.671910858154296875e+01,1.045202159881591797e+01,3.556669235229492188e+01,-1.110187530517578125e+02,9.088649749755859375e+01,-6.508123779296875000e+01,4.974199676513671875e+01,-1.311304283142089844e+01,-1.081014251708984375e+02,-1.154549255371093750e+02,6.373085021972656250e+01,-3.814839553833007812e+01
3.079999983310699463e-01,2.000000000000000000e+00,3.674785232543945312e+01,1.040420722961425781e+01,3.556081390380859375e+01,-1.110733642578125000e+02,9.088926696777343750e+01,-6.510626983642578125e+01,4.966997146606445312e+01,-1.310603904724121094e+01,-1.081127624511718750e+02,-1.155117111206054688e+02,6.372679138183593750e+01,-3.817694091796875000e+01
3.120000064373016357e-01,2.000000000000000000e+00,3.677659225463867188e+01,1.035639667510986328e+01,3.555493545532226562e+01,-1.111279678344726562e+02,9.089203643798828125e+01,-6.513130187988281250e+01,4.959795761108398438e+01,-1.309903526306152344e+01,-1.081241073608398438e+02,-1.155684814453125000e+02,6.372273635864257812e+01,-3.820547866821289062e+01
3.160000145435333252e-01,2.000000000000000000e+00,3.680532836914062500e+01,1.030859088897705078e+01,3.554905700683593750e+01,-1.111825790405273438e+02,9.089480590820312500e+01,-6.515633392333984375e+01,4.952594757080078125e+01,-1.309203243255615234e+01,-1.081354446411132812e+02,-1.156252441406250000e+02,6.371868515014648438e+01,-3.823401641845703125e+01
3.199999928474426270e-01,2.000000000000000000e+00,3.683406448364257812e+01,1.026078987121582031e+01,3.554317474365234375e+01,-1.112371749877929688e+02,9.089757537841796875e+01,-6.518135833740234375e+01,4.945394515991210938e+01,-1.308502960205078125e+01,-1.081467819213867188e+02,-1.156820144653320312e+02,6.371463394165039062e+01,-3.826255416870117188e+01
3.240000009536743164e-01,2.000000000000000000e+00,3.686279296875000000e+01,1.021299457550048828e+01,3.553729629516601562e+01,-1.112917633056640625e+02,9.090034484863281250e+01,-6.520637512207031250e+01,4.938195037841796875e+01,-1.307802772521972656e+01,-1.081581268310546875e+02,-1.157387619018554688e+02,6.371057891845703125e+01,-3.829108428955078125e+01
3.280000090599060059e-01,2.000000000000000000e+00,3.689152145385742188e+01,1.016520214080810547e+01,3.553141784667968750e+01,-1.113463516235351562e+02,9.090311431884765625e+01,-6.523139190673828125e+01,4.930996322631835938e+01,-1.307102680206298828e+01,-1.081694564819335938e+02,-1.157955169677734375e+02,6.370652770996093750e+01,-3.831961059570312500e+01
3.319999873638153076e-01,2.000000000000000000e+00,3.692024993896484375e+01,1.011741542816162109e+01,3.552554321289062500e+01,-1.114009323120117188e+02,9.090588378906250000e+01,-6.525641632080078125e+01,4.923797988891601562e+01,-1.306402683258056641e+01,-1.081807937622070312e+02,-1.158522644042968750e+02,6.370247650146484375e+01,-3.834813690185546875e+01
3.359999954700469971e-01,2.000000000000000000e+00,3.694897079467773438e+01,1.006963348388671875e+01,3.551966476440429688e+01,-1.114555053710937500e+02,9.090865325927734375e+01,-6.528143310546875000e+01,4.916600799560546875e+01,-1.305702686309814453e+01,-1.081921234130859375e+02,-1.159089965820312500e+02,6.369842529296875000e+01,-3.837666320800781250e+01
3.400000035762786865e-01,2.000000000000000000e+00,3.697769165039062500e+01,1.002185630798339844e+01,3.551379013061523438e+01,-1.115100784301757812e+02,9.091142272949218750e+01,-6.530644226074218750e+01,4.909403991699218750e+01,-1.305002880096435547e+01,-1.082034530639648438e+02,-1.159657363891601562e+02,6.369437026977539062e+01,-3.840518188476562500e+01
3.440000116825103760e-01,2.000000000000000000e+00,3.700640869140625000e+01,9.974083900451660156e+00,3.550791549682617188e+01,-1.115646438598632812e+02,9.091419219970703125e+01,-6.533145141601562500e+01,4.902207946777343750e+01,-1.304302978515625000e+01,-1.082147827148437500e+02,-1.160224609375000000e+02,6.369031906127929688e+01,-3.843370056152343750e+01
3.479999899864196777e-01,2.000000000000000000e+00,3.703512191772460938e+01,9.926315307617187500e+00,3.550204086303710938e+01,-1.116192016601562500e+02,9.091695404052734375e+01,-6.535646057128906250e+01,4.895012664794921875e+01,-1.303603267669677734e+01,-1.082261199951171875e+02,-1.160791854858398438e+02,6.368626785278320312e+01,-3.846221542358398438e+01
3.519999980926513672e-01,2.000000000000000000e+00,3.706383514404296875e+01,9.878551483154296875e+00,3.549616622924804688e+01,-1.116737594604492188e+02,9.091973114013671875e+01,-6.538146972656250000e+01,4.887818145751953125e+01,-1.302903556823730469e+01,-1.082374496459960938e+02,-1.161359100341796875e+02,6.368222045898437500e+01,-3.849073028564453125e+01
3.560000061988830566e-01,2.000000000000000000e+00,3.709254455566406250e+01,9.830792427062988281e+00,3.549029159545898438e+01,-1.117283096313476562e+02,9.092249298095703125e+01,-6.540647125244140625e+01,4.880624008178710938e+01,-1.302203941345214844e+01,-1.082487716674804688e+02,-1.161926116943359375e+02,6.367817687988281250e+01,-3.851923751831054688e+01
3.600000143051147461e-01,2.000000000000000000e+00,3.712125015258789062e+01,9.783038139343261719e+00,3.548441696166992188e+01,-1.117828598022460938e+02,9.092526245117187500e+01,-6.543147277832031250e+01,4.873431015014648438e+01,-1.301504421234130859e+01,-1.082601013183593750e+02,-1.162493286132812500e+02,6.367412567138671875e+01,-3.854774475097656250e+01
3.639999926090240479e-01,2.000000000000000000e+00,3.714995193481445312e+01,9.735288619995117188e+00,3.547854232788085938e+01,-1.118373947143554688e+02,9.092803192138671875e+01,-6.545646667480468750e+01,4.866238403320312500e+01,-1.300804901123046875e+01,-1.082714309692382812e+02,-1.163060226440429688e+02,6.367007446289062500e+01,-3.857624816894531250e+01
3.680000007152557373e-01,2.000000000000000000e+00,3.717865371704101562e+01,9.687542915344238281e+00,3.547267150878906250e+01,-1.118919296264648438e+02,9.093079376220703125e+01,-6.548146057128906250e+01,4.859046554565429688e+01,-1.300105476379394531e+01,-1.082827529907226562e+02,-1.163627243041992188e+02,6.366602325439453125e+01,-3.860474777221679688e+01
3.720000088214874268e-01,2.000000000000000000e+00,3.720735168457031250e+01,9.639801025390625000e+00,3.546680068969726562e+01,-1.119464569091796875e+02,9.093356323242187500e+01,-6.550646209716796875e+01,4.851855087280273438e+01,-1.299406147003173828e+01,-1.082940750122070312e+02,-1.164194183349609375e+02,6.366197967529296875e+01,-3.863324737548828125e+01
3.759999871253967285e-01,2.000000000000000000e+00,3.723604583740234375e+01,9.592064857482910156e+00,3.546092987060546875e+01,-1.120009765625000000e+02,9.093632507324218750e+01,-6.553144836425781250e+01,4.844664382934570312e+01,-1.298706912994384766e+01,-1.083054046630859375e+02,-1.164760894775390625e+02,6.365793228149414062e+01,-3.866174316406250000e+01
3.799999952316284180e-01,2.000000000000000000e+00,3.726473999023437500e+01,9.544333457946777344e+00,3.545505905151367188e+01,-1.120554962158203125e+02,9.093909454345703125e+01,-6.555643463134765625e+01,4.837474822998046875e+01,-1.298007583618164062e+01,-1.083167190551757812e+02,-1.165327835083007812e+02,6.365388107299804688e+01,-3.869023895263671875e+01
3.840000033378601074e-01,2.000000000000000000e+00,3.729343032836914062e+01,9.496605873107910156e+00,3.544918823242187500e+01,-1.121100082397460938e+02,9.094185638427734375e+01,-6.558142089843750000e+01,4.830285644531250000e+01,-1.297308444976806641e+01,-1.083280410766601562e+02,-1.165894622802734375e+02,6.364983749389648438e+01,-3.871872711181640625e+01
3.880000114440917969e-01,2.000000000000000000e+00,3.732211685180664062e+01,9.448883056640625000e+00,3.544332122802734375e+01,-1.121645202636718750e+02,9.094462585449218750e+01,-6.560640716552734375e+01,4.823097229003906250e+01,-1.296609401702880859e+01,-1.083393630981445312e+02,-1.166461257934570312e+02,6.364578628540039062e+01,-3.874721527099609375e+01
3.919999897480010986e-01,2.000000000000000000e+00,3.735080337524414062e+01,9.401164054870605469e+00,3.543745040893554688e+01,-1.122190170288085938e+02,9.094739532470703125e+01,-6.563139343261718750e+01,4.815909194946289062e+01,-1.295910358428955078e+01,-1.083506774902343750e+02,-1.167027893066406250e+02,6.364174270629882812e+01,-3.877570343017578125e+01
3.959999978542327881e-01,2.000000000000000000e+00,3.737948608398437500e+01,9.353449821472167969e+00,3.543158340454101562e+01,-1.122735137939453125e+02,9.095015716552734375e+01,-6.565637207031250000e+01,4.808721923828125000e+01,-1.295211315155029297e+01,-1.083619995117187500e+02,-1.167594451904296875e+02,6.363769912719726562e+01,-3.880418395996093750e+01
4.000000059604644775e-01,2.000000000000000000e+00,3.740816497802734375e+01,9.305740356445312500e+00,3.542571258544921875e+01,-1.123280181884765625e+02,9.095292663574218750e+01,-6.568135070800781250e+01,4.801535797119140625e+01,-1.294512462615966797e+01,-1.083733139038085938e+02,-1.168161010742187500e+02,6.363364791870117188e+01,-3.883266448974609375e+01
4.040000140666961670e-01,2.000000000000000000e+00,3.743684005737304688e+01,9.258034706115722656e+00,3.541984558105468750e+01,-1.123824996948242188e+02,9.095568084716796875e+01,-6.570632171630859375e+01,4.794349670410156250e+01,-1.293813610076904297e+01,-1.083846359252929688e+02,-1.168727493286132812e+02,6.362960433959960938e+01,-3.886114501953125000e+01
4.079999923706054688e-01,2.000000000000000000e+00,3.746551513671875000e+01,9.210334777832031250e+00,3.541398239135742188e+01,-1.124369812011718750e+02,9.095845031738281250e+01,-6.573129272460937500e+01,4.787164688110351562e+01,-1.293114948272705078e+01,-1.083959426879882812e+02,-1.169293975830078125e+02,6.362556076049804688e+01,-3.888961791992187500e+01
4.120000004768371582e-01,2.000000000000000000e+00,3.749418640136718750e+01,9.162637710571289062e+00,3.540811538696289062e+01,-1.124914627075195312e+02,9.096121978759765625e+01,-6.575626373291015625e+01,4.779979705810546875e+01,-1.292416191101074219e+01,-1.084072647094726562e+02,-1.169860305786132812e+02,6.362151718139648438e+01,-3.891809082031250000e+01
4.160000085830688477e-01,2.000000000000000000e+00,3.752285385131835938e+01,9.114945411682128906e+00,3.540224838256835938e+01,-1.125459365844726562e+02,9.096397399902343750e+01,-6.578123474121093750e+01,4.772796249389648438e+01,-1.291717529296875000e+01,-1.084185714721679688e+02,-1.170426559448242188e+02,6.361747360229492188e+01,-3.894655990600585938e+01
4.199999868869781494e-01,2.000000000000000000e+00,3.755152130126953125e+01,9.067256927490234375e+00,3.539638519287109375e+01,-1.126004028320312500e+02,9.096674346923828125e+01,-6.580619812011718750e+01,4.765612792968750000e+01,-1.291018962860107422e+01,-1.084298858642578125e+02,-1.170992889404296875e+02,6.361343383789062500e+01,-3.897502517700195312e+01
4.239999949932098389e-01,2.000000000000000000e+00,3.758018493652343750e+01,9.019574165344238281e+00,3.539051818847656250e+01,-1.126548690795898438e+02,9.096950531005859375e+01,-6.583116149902343750e+01,4.758430480957031250e+01,-1.290320396423339844e+01,-1.084411926269531250e+02,-1.171559143066406250e+02,6.360939025878906250e+01,-3.900349044799804688e+01
4.280000030994415283e-01,2.000000000000000000e+00,3.760884475708007812e+01,8.971895217895507812e+00,3.538465118408203125e+01,-1.127093276977539062e+02,9.097226715087890625e+01,-6.585612487792968750e+01,4.751248168945312500e+01,-1.289621925354003906e+01,-1.084525070190429688e+02,-1.172125396728515625e+02,6.360534667968750000e+01,-3.903195190429687500e+01
4.320000112056732178e-01,2.000000000000000000e+00,3.763750457763671875e+01,8.924219131469726562e+00,3.537878799438476562e+01,-1.127637786865234375e+02,9.097503662109375000e+01,-6.588108062744140625e+01,4.744067001342773438e+01,-1.288923549652099609e+01,-1.084638061523437500e+02,-1.172691421508789062e+02,6.360130310058593750e+01,-3.906040954589843750e+01
4.359999895095825195e-01,2.000000000000000000e+00,3.766616058349609375e+01,8.876548767089843750e+00,3.537292861938476562e+01,-1.128182220458984375e+02,9.097779083251953125e+01,-6.590603637695312500e+01,4.736886596679687500e+01,-1.288225269317626953e+01,-1.084751205444335938e+02,-1.173257522583007812e+02,6.359725952148437500e+01,-3.908887100219726562e+01
4.399999976158142090e-01,2.000000000000000000e+00,3.769481277465820312e+01,8.828883171081542969e+00,3.536706542968750000e+01,-1.128726654052734375e+02,9.098056030273437500e+01,-6.593099212646484375e+01,4.729706573486328125e+01,-1.287526988983154297e+01,-1.084864196777343750e+02,-1.173823471069335938e+02,6.359321975708007812e+01,-3.911732482910156250e+01
4.440000057220458984e-01,2.000000000000000000e+00,3.772346496582031250e+01,8.781220436096191406e+00,3.536120223999023438e+01,-1.129271087646484375e+02,9.098332214355468750e+01,-6.595594787597656250e+01,4.722526931762695312e+01,-1.286828804016113281e+01,-1.084977264404296875e+02,-1.174389419555664062e+02,6.358917617797851562e+01,-3.914577484130859375e+01
4.480000138282775879e-01,2.000000000000000000e+00,3.775211334228515625e+01,8.733562469482421875e+00,3.535533905029296875e+01,-1.129815444946289062e+02,9.098607635498046875e+01,-6.598089599609375000e+01,4.715348434448242188e+01,-1.286130714416503906e+01,-1.085090332031250000e+02,-1.174955368041992188e+02,6.358513641357421875e+01,-3.917422103881835938e+01
4.519999921321868896e-01,2.000000000000000000e+00,3.778075790405273438e+01,8.685909271240234375e+00,3.534947967529296875e+01,-1.130359725952148438e+02,9.098884582519531250e+01,-6.600584411621093750e+01,4.708170318603515625e+01,-1.285432529449462891e+01,-1.085203323364257812e+02,-1.175521316528320312e+02,6.358109664916992188e+01,-3.920267105102539062e+01
4.560000002384185791e-01,2.000000000000000000e+00,3.780939865112304688e+01,8.638258934020996094e+00,3.534362030029296875e+01,-1.130903930664062500e+02,9.099160003662109375e+01,-6.603078460693359375e+01,4.700992965698242188e+01,-1.284734535217285156e+01,-1.085316390991210938e+02,-1.176087112426757812e+02,6.357705307006835938e+01,-3.923111343383789062e+01
4.600000083446502686e-01,2.000000000000000000e+00,3.783804321289062500e+01,8.590614318847656250e+00,3.533776092529296875e+01,-1.131448135375976562e+02,9.099436187744140625e+01,-6.605573272705078125e+01,4.693815994262695312e+01,-1.284036636352539062e+01,-1.085429458618164062e+02,-1.176652832031250000e+02,6.357301712036132812e+01,-3.925955581665039062e+01
4.639999866485595703e-01,2.000000000000000000e+00,3.786668014526367188e+01,8.542972564697265625e+00,3.533189773559570312e+01,-1.131992340087890625e+02,9.099712371826171875e+01,-6.608067321777343750e+01,4.686639785766601562e+01,-1.283338642120361328e+01,-1.085542373657226562e+02,-1.177218627929687500e+02,6.356897354125976562e+01,-3.928799819946289062e+01
4.679999947547912598e-01,2.000000000000000000e+00,3.789531326293945312e+01,8.495336532592773438e+00,3.532604217529296875e+01,-1.132536392211914062e+02,9.099988555908203125e+01,-6.610561370849609375e+01,4.679464340209960938e+01,-1.282640933990478516e+01,-1.085655364990234375e+02,-1.177784347534179688e+02,6.356493759155273438e+01,-3.931642913818359375e+01
4.720000028610229492e-01,2.000000000000000000e+00,3.792395019531250000e+01,8.447703361511230469e+00,3.532018280029296875e+01,-1.133080444335937500e+02,9.100264739990234375e+01,-6.613054656982421875e+01,4.672289657592773438e+01,-1.281943130493164062e+01,-1.085768432617187500e+02,-1.178349838256835938e+02,6.356090164184570312e+01,-3.934486389160156250e+01
4.760000109672546387e-01,2.000000000000000000e+00,3.795257949829101562e+01,8.400074958801269531e+00,3.531432723999023438e+01,-1.133624496459960938e+02,9.100540924072265625e+01,-6.615548706054687500e+01,4.665115356445312500e+01,-1.281245422363281250e+01,-1.085881347656250000e+02,-1.178915557861328125e+02,6.355685806274414062e+01,-3.937329864501953125e+01
4.799999892711639404e-01,2.000000000000000000e+00,3.798120880126953125e+01,8.352449417114257812e+00,3.530846786499023438e+01,-1.134168395996093750e+02,9.100816345214843750e+01,-6.618041229248046875e+01,4.657941436767578125e+01,-1.280547809600830078e+01,-1.085994338989257812e+02,-1.179481048583984375e+02,6.355282211303710938e+01,-3.940172576904296875e+01
4.839999973773956299e-01,2.000000000000000000e+00,3.800983428955078125e+01,8.304829597473144531e+00,3.530261230468750000e+01,-1.134712295532226562e+02,9.101092529296875000e+01,-6.620534515380859375e+01,4.650768280029296875e+01,-1.279850196838378906e+01,-1.086107254028320312e+02,-1.180046463012695312e+02,6.354878616333007812e+01,-3.943015289306640625e+01
4.880000054836273193e-01,2.000000000000000000e+00,3.803845596313476562e+01,8.257212638854980469e+00,3.529675674438476562e+01,-1.135256195068359375e+02,9.101368713378906250e+01,-6.623027801513671875e+01,4.643595886230468750e+01,-1.279152679443359375e+01,-1.086220245361328125e+02,-1.180611877441406250e+02,6.354474639892578125e+01,-3.945857620239257812e+01
4.920000135898590088e-01,2.000000000000000000e+00,3.806707763671875000e+01,8.209600448608398438e+00,3.529089736938476562e+01,-1.135800018310546875e+02,9.101644134521484375e+01,-6.625519561767578125e+01,4.636424255371093750e+01,-1.278455162048339844e+01,-1.086333160400390625e+02,-1.181177291870117188e+02,6.354071044921875000e+01,-3.948699951171875000e+01
4.959999918937683105e-01,2.000000000000000000e+00,3.809569549560546875e+01,8.161992073059082031e+00,3.528504562377929688e+01,-1.136343765258789062e+02,9.101920318603515625e+01,-6.628012084960937500e+01,4.629253005981445312e+01,-1.277757740020751953e+01,-1.086446075439453125e+02,-1.181742706298828125e+02,6.353667449951171875e+01,-3.951542282104492188e+01
5.000000000000000000e-01,2.000000000000000000e+00,3.812430953979492188e+01,8.114388465881347656e+00,3.527918624877929688e+01,-1.136887512207031250e+02,9.102196502685546875e+01,-6.630504608154296875e+01,4.622082138061523438e+01,-1.277060413360595703e+01,-1.086558990478515625e+02,-1.182307968139648438e+02,6.353263854980468750e+01,-3.954383850097656250e+01
5.040000081062316895e-01,2.000000000000000000e+00,3.815292358398437500e+01,8.066787719726562500e+00,3.527333450317382812e+01,-1.137431182861328125e+02,9.102472686767578125e+01,-6.632997131347656250e+01,4.614912414550781250e+01,-1.276363086700439453e+01,-1.086671905517578125e+02,-1.182873229980468750e+02,6.352860260009765625e+01,-3.957225036621093750e+01
5.080000162124633789e-01,2.000000000000000000e+00,3.818153762817382812e+01,8.019191741943359375e+00,3.526747894287109375e+01,-1.137974853515625000e+02,9.102747344970703125e+01,-6.635488891601562500e+01,4.607743072509765625e+01,-1.275665855407714844e+01,-1.086784820556640625e+02,-1.183438339233398438e+02,6.352456283569335938e+01,-3.960066604614257812e+01
5.120000243186950684e-01,2.000000000000000000e+00,3.821014404296875000e+01,7.971599102020263672e+00,3.526162719726562500e+01,-1.138518447875976562e+02,9.103023529052734375e+01,-6.637979888916015625e+01,4.600574111938476562e+01,-1.274968719482421875e+01,-1.086897659301757812e+02,-1.184003448486328125e+02,6.352052688598632812e+01,-3.962907409667968750e+01
5.159999728202819824e-01,2.000000000000000000e+00,3.823875427246093750e+01,7.924010753631591797e+00,3.525577545166015625e+01,-1.139061965942382812e+02,9.103299713134765625e+01,-6.640470886230468750e+01,4.593405914306640625e+01,-1.274271583557128906e+01,-1.087010574340820312e+02,-1.184568634033203125e+02,6.351649093627929688e+01,-3.965748214721679688e+01
5.199999809265136719e-01,2.000000000000000000e+00,3.826735687255859375e+01,7.876425743103027344e+00,3.524991989135742188e+01,-1.139605484008789062e+02,9.103575134277343750e+01,-6.642962646484375000e+01,4.586238098144531250e+01,-1.273574542999267578e+01,-1.087123489379882812e+02,-1.185133590698242188e+02,6.351246261596679688e+01,-3.968588638305664062e+01
5.239999890327453613e-01,2.000000000000000000e+00,3.829595947265625000e+01,7.828845024108886719e+00,3.524407196044921875e+01,-1.140148925781250000e+02,9.103850555419921875e+01,-6.645453643798828125e+01,4.579071044921875000e+01,-1.272877502441406250e+01,-1.087236251831054688e+02,-1.185698623657226562e+02,6.350842285156250000e+01,-3.971429061889648438e+01
5.279999971389770508e-01,2.000000000000000000e+00,3.832455825805664062e+01,7.781268119812011719e+00,3.523821640014648438e+01,-1.140692367553710938e+02,9.104126739501953125e+01,-6.647943878173828125e+01,4.571904754638671875e+01,-1.272180557250976562e+01,-1.087349090576171875e+02,-1.186263580322265625e+02,6.350438690185546875e+01,-3.974268722534179688e+01
5.320000052452087402e-01,2.000000000000000000e+00,3.835315704345703125e+01,7.733695030212402344e+00,3.523236846923828125e+01,-1.141235656738281250e+02,9.104402160644531250e+01,-6.650434875488281250e+01,4.564738845825195312e+01,-1.271483707427978516e+01,-1.087461929321289062e+02,-1.186828460693359375e+02,6.350035858154296875e+01,-3.977108764648437500e+01
5.360000133514404297e-01,2.000000000000000000e+00,3.838174819946289062e+01,7.686125278472900391e+00,3.522651672363281250e+01,-1.141779022216796875e+02,9.104677581787109375e+01,-6.652925109863281250e+01,4.557573699951171875e+01,-1.270786857604980469e+01,-1.087574768066406250e+02,-1.187393264770507812e+02,6.349632263183593750e+01,-3.979948425292968750e+01
5.400000214576721191e-01,2.000000000000000000e+00,3.841034317016601562e+01,7.638559341430664062e+00,3.522066497802734375e+01,-1.142322311401367188e+02,9.104953765869140625e+01,-6.655415344238281250e+01,4.550408554077148438e+01,-1.270090103149414062e+01,-1.087687606811523438e+02,-1.187958145141601562e+02,6.349229049682617188e+01,-3.982787704467773438e+01
5.440000295639038086e-01,2.000000000000000000e+00,3.843893432617187500e+01,7.590997219085693359e+00,3.521481704711914062e+01,-1.142865600585937500e+02,9.105229187011718750e+01,-6.657905578613281250e+01,4.543244552612304688e+01,-1.269393348693847656e+01,-1.087800445556640625e+02,-1.188523025512695312e+02,6.348825454711914062e+01,-3.985626983642578125e+01
5.479999780654907227e-01,2.000000000000000000e+00,3.846752166748046875e+01,7.543439388275146484e+00,3.520896530151367188e+01,-1.143408737182617188e+02,9.105504608154296875e+01,-6.660395050048828125e+01,4.536080551147460938e+01,-1.268696594238281250e+01,-1.087913208007812500e+02,-1.189087753295898438e+02,6.348422622680664062e+01,-3.988466262817382812e+01
5.519999861717224121e-01,2.000000000000000000e+00,3.849611282348632812e+01,7.495884418487548828e+00,3.520312118530273438e+01,-1.143951950073242188e+02,9.105780029296875000e+01,-6.662884521484375000e+01,4.528917312622070312e+01,-1.268000030517578125e+01,-1.088026046752929688e+02,-1.189652481079101562e+02,6.348019409179687500e+01,-3.991304779052734375e+01
5.559999942779541016e-01,2.000000000000000000e+00,3.852469635009765625e+01,7.448333263397216797e+00,3.519726943969726562e+01,-1.144495010375976562e+02,9.106056213378906250e+01,-6.665373992919921875e+01,4.521754837036132812e+01,-1.267303466796875000e+01,-1.088138809204101562e+02,-1.190217056274414062e+02,6.347615814208984375e+01,-3.994143295288085938e+01
5.600000023841857910e-01,2.000000000000000000e+00,3.855327606201171875e+01,7.400785923004150391e+00,3.519142150878906250e+01,-1.145038146972656250e+02,9.106331634521484375e+01,-6.667862701416015625e+01,4.514592742919921875e+01,-1.266606903076171875e+01,-1.088251571655273438e+02,-1.190781631469726562e+02,6.347212982177734375e+01,-3.996981811523437500e+01
5.640000104904174805e-01,2.000000000000000000e+00,3.858185577392578125e+01,7.353242397308349609e+00,3.518557739257812500e+01,-1.145581130981445312e+02,9.106607055664062500e+01,-6.670352935791015625e+01,4.507431411743164062e+01,-1.265910434722900391e+01,-1.088364334106445312e+02,-1.191346206665039062e+02,6.346809768676757812e+01,-3.999819564819335938e+01
5.680000185966491699e-01,2.000000000000000000e+00,3.861043167114257812e+01,7.305701732635498047e+00,3.517972946166992188e+01,-1.146124191284179688e+02,9.106882476806640625e+01,-6.672840881347656250e+01,4.500270462036132812e+01,-1.265214061737060547e+01,-1.088477096557617188e+02,-1.191910781860351562e+02,6.346406936645507812e+01,-4.002657699584960938e+01
5.720000267028808594e-01,2.000000000000000000e+00,3.863900756835937500e+01,7.258165359497070312e+00,3.517388153076171875e+01,-1.146667098999023438e+02,9.107157897949218750e+01,-6.675329589843750000e+01,4.493109893798828125e+01,-1.264517688751220703e+01,-1.088589859008789062e+02,-1.192475204467773438e+02,6.346004104614257812e+01,-4.005495071411132812e+01
5.759999752044677734e-01,2.000000000000000000e+00,3.866758346557617188e+01,7.210632324218750000e+00,3.516803741455078125e+01,-1.147210083007812500e+02,9.107434082031250000e+01,-6.677818298339843750e+01,4.485950088500976562e+01,-1.263821411132812500e+01,-1.088702697753906250e+02,-1.193039703369140625e+02,6.345600128173828125e+01,-4.008332824707031250e+01
5.799999833106994629e-01,2.000000000000000000e+00,3.869615554809570312e+01,7.163103103637695312e+00,3.516218948364257812e+01,-1.147752914428710938e+02,9.107708740234375000e+01,-6.680307006835937500e+01,4.478790664672851562e+01,-1.263125038146972656e+01,-1.088815383911132812e+02,-1.193604125976562500e+02,6.345197296142578125e+01,-4.011170196533203125e+01
5.839999914169311523e-01,2.000000000000000000e+00,3.872472000122070312e+01,7.115576267242431641e+00,3.515634155273437500e+01,-1.148295669555664062e+02,9.107984161376953125e+01,-6.682794189453125000e+01,4.471632003784179688e+01,-1.262428951263427734e+01,-1.088928146362304688e+02,-1.194168395996093750e+02,6.344794464111328125e+01,-4.014006805419921875e+01
5.879999995231628418e-01,2.000000000000000000e+00,3.875328826904296875e+01,7.068053722381591797e+00,3.515050125122070312e+01,-1.148838500976562500e+02,9.108259582519531250e+01,-6.685282897949218750e+01,4.464473724365234375e+01,-1.261732769012451172e+01,-1.089040832519531250e+02,-1.194732742309570312e+02,6.344391250610351562e+01,-4.016843795776367188e+01
5.920000076293945312e-01,2.000000000000000000e+00,3.878185272216796875e+01,7.020534515380859375e+00,3.514465713500976562e+01,-1.149381256103515625e+02,9.108535766601562500e+01,-6.687770080566406250e+01,4.457315444946289062e+01,-1.261036682128906250e+01,-1.089153518676757812e+02,-1.195297088623046875e+02,6.343989181518554688e+01,-4.019680404663085938e+01
5.960000157356262207e-01,2.000000000000000000e+00,3.881041717529296875e+01,6.973018646240234375e+00,3.513880920410156250e+01,-1.149923934936523438e+02,9.108810424804687500e+01,-6.690258026123046875e+01,4.450158309936523438e+01,-1.260340595245361328e+01,-1.089266204833984375e+02,-1.195861206054687500e+02,6.343585968017578125e+01,-4.022517013549804688e+01
6.000000238418579102e-01,2.000000000000000000e+00,3.883897781372070312e+01,6.925506114959716797e+00,3.513296508789062500e+01,-1.150466690063476562e+02,9.109085845947265625e+01,-6.692745208740234375e+01,4.443001556396484375e+01,-1.259644603729248047e+01,-1.089378890991210938e+02,-1.196425399780273438e+02,6.343183135986328125e+01,-4.025353240966796875e+01
6.039999723434448242e-01,2.000000000000000000e+00,3.886753845214843750e+01,6.877997398376464844e+00,3.512712478637695312e+01,-1.151009292602539062e+02,9.109361267089843750e+01,-6.695232391357421875e+01,4.435845184326171875e+01,-1.258948612213134766e+01,-1.089491577148437500e+02,-1.196989593505859375e+02,6.342780303955078125e+01,-4.028189086914062500e+01
6.079999804496765137e-01,2.000000000000000000e+00,3.889609527587890625e+01,6.830492019653320312e+00,3.512128067016601562e+01,-1.151551895141601562e+02,9.109636688232421875e+01,-6.697719573974609375e+01,4.428689575195312500e+01,-1.258252716064453125e+01,-1.089604339599609375e+02,-1.197553710937500000e+02,6.342377090454101562e+01,-4.031024932861328125e+01
6.119999885559082031e-01,2.000000000000000000e+00,3.892464828491210938e+01,6.782989501953125000e+00,3.511544036865234375e+01,-1.152094497680664062e+02,9.109912109375000000e+01,-6.700206756591796875e+01,4.421534347534179688e+01,-1.257556819915771484e+01,-1.089717025756835938e+02,-1.198117752075195312e+02,6.341975021362304688e+01,-4.033860778808593750e+01
6.159999966621398926e-01,2.000000000000000000e+00,3.895319747924804688e+01,6.735490798950195312e+00,3.510959625244140625e+01,-1.152636947631835938e+02,9.110186767578125000e+01,-6.702693176269531250e+01,4.414379501342773438e+01,-1.256861019134521484e+01,-1.089829635620117188e+02,-1.198681793212890625e+02,6.341571807861328125e+01,-4.036696243286132812e+01
6.200000047683715820e-01,2.000000000000000000e+00,3.898175048828125000e+01,6.687995433807373047e+00,3.510375595092773438e+01,-1.153179473876953125e+02,9.110462188720703125e+01,-6.705179595947265625e+01,4.407225418090820312e+01,-1.256165313720703125e+01,-1.089942321777343750e+02,-1.199245834350585938e+02,6.341168975830078125e+01,-4.039531326293945312e+01
6.240000128746032715e-01,2.000000000000000000e+00,3.901029968261718750e+01,6.640503406524658203e+00,3.509791564941406250e+01,-1.153722000122070312e+02,9.110737609863281250e+01,-6.707666015625000000e+01,4.400071716308593750e+01,-1.255469512939453125e+01,-1.090054931640625000e+02,-1.199809722900390625e+02,6.340766525268554688e+01,-4.042366409301757812e+01
6.280000209808349609e-01,2.000000000000000000e+00,3.903884506225585938e+01,6.593014717102050781e+00,3.509207534790039062e+01,-1.154264297485351562e+02,9.111013031005859375e+01,-6.710152435302734375e+01,4.392918395996093750e+01,-1.254773902893066406e+01,-1.090167617797851562e+02,-1.200373687744140625e+02,6.340363693237304688e+01,-4.045201110839843750e+01
6.320000290870666504e-01,2.000000000000000000e+00,3.906738662719726562e+01,6.545529365539550781e+00,3.508623504638671875e+01,-1.154806747436523438e+02,9.111287689208984375e+01,-6.712638092041015625e+01,4.385765457153320312e+01,-1.254078197479248047e+01,-1.090280227661132812e+02,-1.200937576293945312e+02,6.339961242675781250e+01,-4.048035812377929688e+01
6.359999775886535645e-01,2.000000000000000000e+00,3.909593200683593750e+01,6.498047351837158203e+00,3.508039474487304688e+01,-1.155349044799804688e+02,9.111563110351562500e+01,-6.715123748779296875e+01,4.378613281250000000e+01,-1.253382778167724609e+01,-1.090392837524414062e+02,-1.201501464843750000e+02,6.339558410644531250e+01,-4.050870132446289062e+01
6.399999856948852539e-01,2.000000000000000000e+00,3.912446975708007812e+01,6.450568675994873047e+00,3.507455444335937500e+01,-1.155891342163085938e+02,9.111837768554687500e+01,-6.717609405517578125e+01,4.371461868286132812e+01,-1.252687168121337891e+01,-1.090505523681640625e+02,-1.202065200805664062e+02,6.339155960083007812e+01,-4.053704452514648438e+01
6.439999938011169434e-01,2.000000000000000000e+00,3.915301132202148438e+01,6.403093338012695312e+00,3.506871414184570312e+01,-1.156433563232421875e+02,9.112113189697265625e+01,-6.720095062255859375e+01,4.364310455322265625e+01,-1.251991748809814453e+01,-1.090618057250976562e+02,-1.202629013061523438e+02,6.338753128051757812e+01,-4.056538391113281250e+01
6.480000019073486328e-01,2.000000000000000000e+00,3.918154907226562500e+01,6.355620861053466797e+00,3.506287765502929688e+01,-1.156975708007812500e+02,9.112388610839843750e+01,-6.722579956054687500e+01,4.357159805297851562e+01,-1.251296329498291016e+01,-1.090730667114257812e+02,-1.203192596435546875e+02,6.338350677490234375e+01,-4.059372329711914062e+01
6.520000100135803223e-01,2.000000000000000000e+00,3.921007919311523438e+01,6.308152198791503906e+00,3.505703735351562500e+01,-1.157517929077148438e+02,9.112663269042968750e+01,-6.725064849853515625e+01,4.350009536743164062e+01,-1.250600910186767578e+01,-1.090843276977539062e+02,-1.203756408691406250e+02,6.337947845458984375e+01,-4.062205886840820312e+01
6.560000181198120117e-01,2.000000000000000000e+00,3.923861312866210938e+01,6.260686397552490234e+00,3.505120086669921875e+01,-1.158060073852539062e+02,9.112938690185546875e+01,-6.727549743652343750e+01,4.342859649658203125e+01,-1.249905586242675781e+01,-1.090955886840820312e+02,-1.204319992065429688e+02,6.337545394897460938e+01,-4.065039443969726562e+01
6.600000262260437012e-01,2.000000000000000000e+00,3.926714324951171875e+01,6.213224411010742188e+00,3.504536437988281250e+01,-1.158602294921875000e+02,9.113213348388671875e+01,-6.730034637451171875e+01,4.335710525512695312e+01,-1.249210357666015625e+01,-1.091068420410156250e+02,-1.204883651733398438e+02,6.337143325805664062e+01,-4.067872619628906250e+01
6.639999747276306152e-01,2.000000000000000000e+00,3.929567337036132812e+01,6.165765285491943359e+00,3.503952789306640625e+01,-1.159144287109375000e+02,9.113488769531250000e+01,-6.732519531250000000e+01,4.328561782836914062e+01,-1.248515129089355469e+01,-1.091181030273437500e+02,-1.205447158813476562e+02,6.336740875244140625e+01,-4.070705795288085938e+01
6.679999828338623047e-01,2.000000000000000000e+00,3.932419967651367188e+01,6.118309020996093750e+00,3.503369140625000000e+01,-1.159686355590820312e+02,9.113764190673828125e+01,-6.735003662109375000e+01,4.321413421630859375e+01,-1.247819900512695312e+01,-1.091293563842773438e+02,-1.206010589599609375e+02,6.336338043212890625e+01,-4.073538589477539062e+01
6.719999909400939941e-01,2.000000000000000000e+00,3.935272598266601562e+01,6.070856094360351562e+00,3.502785491943359375e+01,-1.160228271484375000e+02,9.114038848876953125e+01,-6.737488555908203125e+01,4.314265823364257812e+01,-1.247124767303466797e+01,-1.091406097412109375e+02,-1.206574096679687500e+02,6.335935592651367188e+01,-4.076371383666992188e+01
6.759999990463256836e-01,2.000000000000000000e+00,3.938124847412109375e+01,6.023406505584716797e+00,3.502201843261718750e+01,-1.160770339965820312e+02,9.114313507080078125e+01,-6.739972686767578125e+01,4.307118225097656250e+01,-1.246429729461669922e+01,-1.091518707275390625e+02,-1.207137603759765625e+02,6.335533142089843750e+01,-4.079203796386718750e+01
6.800000071525573730e-01,2.000000000000000000e+00,3.940976715087890625e+01,5.975960254669189453e+00,3.501618576049804688e+01,-1.161312179565429688e+02,9.114588165283203125e+01,-6.742456054687500000e+01,4.299971771240234375e+01,-1.245734691619873047e+01,-1.091631240844726562e+02,-1.207701110839843750e+02,6.335131072998046875e+01,-4.082035827636718750e+01
6.840000152587890625e-01,2.000000000000000000e+00,3.943828964233398438e+01,5.928516864776611328e+00,3.501034927368164062e+01,-1.161854095458984375e+02,9.114863586425781250e+01,-6.744940185546875000e+01,4.292825317382812500e+01,-1.245039653778076172e+01,-1.091743698120117188e+02,-1.208264465332031250e+02,6.334728622436523438e+01,-4.084868240356445312e+01
6.880000233650207520e-01,2.000000000000000000e+00,3.946680831909179688e+01,5.881076812744140625e+00,3.500451278686523438e+01,-1.162395858764648438e+02,9.115138244628906250e+01,-6.747423553466796875e+01,4.285679244995117188e+01,-1.244344711303710938e+01,-1.091856307983398438e+02,-1.208827819824218750e+02,6.334326553344726562e+01,-4.087699890136718750e+01
6.919999718666076660e-01,2.000000000000000000e+00,3.949531936645507812e+01,5.833640098571777344e+00,3.499868011474609375e+01,-1.162937774658203125e+02,9.115413665771484375e+01,-6.749906921386718750e+01,4.278533554077148438e+01,-1.243649864196777344e+01,-1.091968765258789062e+02,-1.209391021728515625e+02,6.333924102783203125e+01,-4.090531539916992188e+01
6.959999799728393555e-01,2.000000000000000000e+00,3.952383422851562500e+01,5.786205768585205078e+00,3.499284744262695312e+01,-1.163479537963867188e+02,9.115688323974609375e+01,-6.752390289306640625e+01,4.271389007568359375e+01,-1.242954921722412109e+01,-1.092081298828125000e+02,-1.209954223632812500e+02,6.333522415161132812e+01,-4.093363189697265625e+01
6.999999880790710449e-01,2.000000000000000000e+00,3.955234527587890625e+01,5.738775253295898438e+00,3.498701095581054688e+01,-1.164021377563476562e+02,9.115962982177734375e+01,-6.754873657226562500e+01,4.264244079589843750e+01,-1.242260169982910156e+01,-1.092193832397460938e+02,-1.210517578125000000e+02,6.333120346069335938e+01,-4.096194458007812500e+01
7.039999961853027344e-01,2.000000000000000000e+00,3.958085632324218750e+01,5.691347599029541016e+00,3.498117828369140625e+01,-1.164562988281250000e+02,9.116237640380859375e+01,-6.757356262207031250e+01,4.257100296020507812e+01,-1.241565322875976562e+01,-1.092306365966796875e+02,-1.211080627441406250e+02,6.332717895507812500e+01,-4.099025726318359375e+01
7.080000042915344238e-01,2.000000000000000000e+00,3.960936355590820312e+01,5.643922805786132812e+00,3.497534561157226562e+01,-1.165104598999023438e+02,9.116512298583984375e+01,-6.759838867187500000e+01,4.249956893920898438e+01,-1.240870666503906250e+01,-1.092418823242187500e+02,-1.211643905639648438e+02,6.332315444946289062e+01,-4.101856994628906250e+01
7.120000123977661133e-01,2.000000000000000000e+00,3.963787078857421875e+01,5.596501827239990234e+00,3.496951293945312500e+01,-1.165646209716796875e+02,9.116787719726562500e+01,-6.762321472167968750e+01,4.242813491821289062e+01,-1.240176010131835938e+01,-1.092531280517578125e+02,-1.212206954956054688e+02,6.331914138793945312e+01,-4.104687500000000000e+01
7.160000205039978027e-01,2.000000000000000000e+00,3.966637420654296875e+01,5.549083232879638672e+00,3.496368026733398438e+01,-1.166187896728515625e+02,9.117062377929687500e+01,-6.764804840087890625e+01,4.235671234130859375e+01,-1.239481353759765625e+01,-1.092643737792968750e+02,-1.212770080566406250e+02,6.331511688232421875e+01,-4.107518386840820312e+01
7.200000286102294922e-01,2.000000000000000000e+00,3.969487762451171875e+01,5.501667499542236328e+00,3.495785140991210938e+01,-1.166729507446289062e+02,9.117337036132812500e+01,-6.767286682128906250e+01,4.228528976440429688e+01,-1.238786697387695312e+01,-1.092756271362304688e+02,-1.213333129882812500e+02,6.331109237670898438e+01,-4.110348892211914062e+01
7.239999771118164062e-01,2.000000000000000000e+00,3.972337722778320312e+01,5.454255104064941406e+00,3.495201873779296875e+01,-1.167271041870117188e+02,9.117612457275390625e+01,-6.769768524169921875e+01,4.221387100219726562e+01,-1.238092136383056641e+01,-1.092868652343750000e+02,-1.213896102905273438e+02,6.330707931518554688e+01,-4.113179016113281250e+01
7.279999852180480957e-01,2.000000000000000000e+00,3.975187683105468750e+01,5.406846046447753906e+00,3.494618988037109375e+01,-1.167812500000000000e+02,9.117886352539062500e+01,-6.772251129150390625e+01,4.214245986938476562e+01,-1.237397766113281250e+01,-1.092981185913085938e+02,-1.214458999633789062e+02,6.330305480957031250e+01,-4.116009140014648438e+01
7.319999933242797852e-01,2.000000000000000000e+00,3.978037643432617188e+01,5.359439373016357422e+00,3.494035720825195312e+01,-1.168354034423828125e+02,9.118161010742187500e+01,-6.774732971191406250e+01,4.207104873657226562e+01,-1.236703300476074219e+01,-1.093093566894531250e+02,-1.215021972656250000e+02,6.329903793334960938e+01,-4.118839263916015625e+01
7.360000014305114746e-01,2.000000000000000000e+00,3.980886840820312500e+01,5.312036037445068359e+00,3.493452453613281250e+01,-1.168895339965820312e+02,9.118435668945312500e+01,-6.777214050292968750e+01,4.199964523315429688e+01,-1.236008834838867188e+01,-1.093206024169921875e+02,-1.215584869384765625e+02,6.329501724243164062e+01,-4.121669006347656250e+01
7.400000095367431641e-01,2.000000000000000000e+00,3.983736038208007812e+01,5.264636039733886719e+00,3.492869567871093750e+01,-1.169436874389648438e+02,9.118711090087890625e+01,-6.779695892333984375e+01,4.192824554443359375e+01,-1.235314464569091797e+01,-1.093318405151367188e+02,-1.216147842407226562e+02,6.329100036621093750e+01,-4.124498367309570312e+01
7.440000176429748535e-01,2.000000000000000000e+00,3.986585617065429688e+01,5.217238426208496094e+00,3.492286682128906250e+01,-1.169978256225585938e+02,9.118985748291015625e+01,-6.782176971435546875e+01,4.185685348510742188e+01,-1.234620189666748047e+01,-1.093430862426757812e+02,-1.216710662841796875e+02,6.328697586059570312e+01,-4.127327728271484375e+01
7.480000257492065430e-01,2.000000000000000000e+00,3.989434432983398438e+01,5.169844150543212891e+00,3.491703796386718750e+01,-1.170519485473632812e+02,9.119260406494140625e+01,-6.784658813476562500e+01,4.178546142578125000e+01,-1.233925819396972656e+01,-1.093543319702148438e+02,-1.217273483276367188e+02,6.328295898437500000e+01,-4.130156707763671875e+01
7.519999742507934570e-01,2.000000000000000000e+00,3.992283248901367188e+01,5.122452259063720703e+00,3.491121292114257812e+01,-1.171060791015625000e+02,9.119535064697265625e+01,-6.787139129638671875e+01,4.171407699584960938e+01,-1.233231544494628906e+01,-1.093655700683593750e+02,-1.217836151123046875e+02,6.327894210815429688e+01,-4.132985687255859375e+01
7.559999823570251465e-01,2.000000000000000000e+00,3.995131683349609375e+01,5.075064182281494141e+00,3.490538024902343750e+01,-1.171602020263671875e+02,9.119809722900390625e+01,-6.789620971679687500e+01,4.164269638061523438e+01,-1.232537460327148438e+01,-1.093768157958984375e+02,-1.218398971557617188e+02,6.327492141723632812e+01,-4.135814666748046875e+01
7.599999904632568359e-01,2.000000000000000000e+00,3.997980117797851562e+01,5.027678489685058594e+00,3.489955139160156250e+01,-1.172143249511718750e+02,9.120083618164062500e+01,-6.792101287841796875e+01,4.157131958007812500e+01,-1.231843280792236328e+01,-1.093880462646484375e+02,-1.218961639404296875e+02,6.327090454101562500e+01,-4.138643264770507812e+01
7.639999985694885254e-01,2.000000000000000000e+00,4.000828552246093750e+01,4.980295658111572266e+00,3.489372634887695312e+01,-1.172684478759765625e+02,9.120358276367187500e+01,-6.794581604003906250e+01,4.149994659423828125e+01,-1.231149101257324219e+01,-1.093992919921875000e+02,-1.219524307250976562e+02,6.326688766479492188e+01,-4.141471862792968750e+01
7.680000066757202148e-01,2.000000000000000000e+00,4.003676605224609375e+01,4.932916164398193359e+00,3.488790130615234375e+01,-1.173225708007812500e+02,9.120632934570312500e+01,-6.797061920166015625e+01,4.142857742309570312e+01,-1.230455112457275391e+01,-1.094105300903320312e+02,-1.220086822509765625e+02,6.326287078857421875e+01,-4.144300079345703125e+01
7.720000147819519043e-01,2.000000000000000000e+00,4.006524658203125000e+01,4.885538578033447266e+00,3.488206863403320312e+01,-1.173766784667968750e+02,9.120907592773437500e+01,-6.799542236328125000e+01,4.135721206665039062e+01,-1.229761028289794922e+01,-1.094217605590820312e+02,-1.220649490356445312e+02,6.325885772705078125e+01,-4.147128295898437500e+01
7.760000228881835938e-01,2.000000000000000000e+00,4.009372329711914062e+01,4.838164329528808594e+00,3.487624359130859375e+01,-1.174307861328125000e+02,9.121182250976562500e+01,-6.802022552490234375e+01,4.128585433959960938e+01,-1.229067039489746094e+01,-1.094330062866210938e+02,-1.221212005615234375e+02,6.325483322143554688e+01,-4.149956512451171875e+01
7.799999713897705078e-01,2.000000000000000000e+00,4.012220001220703125e+01,4.790793418884277344e+00,3.487041854858398438e+01,-1.174848937988281250e+02,9.121456909179687500e+01,-6.804502105712890625e+01,4.121450042724609375e+01,-1.228373050689697266e+01,-1.094442443847656250e+02,-1.221774520874023438e+02,6.325081634521484375e+01,-4.152783966064453125e+01
7.839999794960021973e-01,2.000000000000000000e+00,4.015067291259765625e+01,4.743425369262695312e+00,3.486459350585937500e+01,-1.175389938354492188e+02,9.121731567382812500e+01,-6.806982421875000000e+01,4.114314651489257812e+01,-1.227679252624511719e+01,-1.094554748535156250e+02,-1.222336959838867188e+02,6.324679946899414062e+01,-4.155611801147460938e+01
7.879999876022338867e-01,2.000000000000000000e+00,4.017914581298828125e+01,4.696059703826904297e+00,3.485876846313476562e+01,-1.175931015014648438e+02,9.122006225585937500e+01,-6.809462738037109375e+01,4.107180404663085938e+01,-1.226985359191894531e+01,-1.094667129516601562e+02,-1.222899475097656250e+02,6.324278640747070312e+01,-4.158439254760742188e+01
7.919999957084655762e-01,2.000000000000000000e+00,4.020761489868164062e+01,4.648696899414062500e+00,3.485294342041015625e+01,-1.176471939086914062e+02,9.122280883789062500e+01,-6.811941528320312500e+01,4.100045776367187500e+01,-1.226291561126708984e+01,-1.094779434204101562e+02,-1.223461914062500000e+02,6.323876953125000000e+01,-4.161266326904296875e+01
7.960000038146972656e-01,2.000000000000000000e+00,4.023608398437500000e+01,4.601336479187011719e+00,3.484711837768554688e+01,-1.177012939453125000e+02,9.122554779052734375e+01,-6.814421081542968750e+01,4.092911911010742188e+01,-1.225597763061523438e+01,-1.094891738891601562e+02,-1.224024276733398438e+02,6.323475265502929688e+01,-4.164093399047851562e+01
8.000000119209289551e-01,2.000000000000000000e+00,4.026455307006835938e+01,4.553979396820068359e+00,3.484129333496093750e+01,-1.177553710937500000e+02,9.122828674316406250e+01,-6.816900634765625000e+01,4.085778427124023438e+01,-1.224904060363769531e+01,-1.095004119873046875e+02,-1.224586563110351562e+02,6.323074340820312500e+01,-4.166920471191406250e+01
8.040000200271606445e-01,2.000000000000000000e+00,4.029301834106445312e+01,4.506625175476074219e+00,3.483546829223632812e+01,-1.178094711303710938e+02,9.123103332519531250e+01,-6.819379425048828125e+01,4.078645706176757812e+01,-1.224210357666015625e+01,-1.095116424560546875e+02,-1.225148925781250000e+02,6.322672653198242188e+01,-4.169747161865234375e+01
8.080000281333923340e-01,2.000000000000000000e+00,4.032148361206054688e+01,4.459273338317871094e+00,3.482964324951171875e+01,-1.178635482788085938e+02,9.123377990722656250e+01,-6.821858215332031250e+01,4.071512985229492188e+01,-1.223516654968261719e+01,-1.095228805541992188e+02,-1.225711212158203125e+02,6.322270965576171875e+01,-4.172573852539062500e+01
8.119999766349792480e-01,2.000000000000000000e+00,4.034994506835937500e+01,4.411924362182617188e+00,3.482382202148437500e+01,-1.179176330566406250e+02,9.123651885986328125e+01,-6.824337005615234375e+01,4.064381027221679688e+01,-1.222823047637939453e+01,-1.095341033935546875e+02,-1.226273498535156250e+02,6.321869659423828125e+01,-4.175400543212890625e+01
8.159999847412109375e-01,2.000000000000000000e+00,4.037840652465820312e+01,4.364578247070312500e+00,3.481800079345703125e+01,-1.179717102050781250e+02,9.123926544189453125e+01,-6.826815795898437500e+01,4.057249069213867188e+01,-1.222129535675048828e+01,-1.095453338623046875e+02,-1.226835708618164062e+02,6.321467971801757812e+01,-4.178226852416992188e+01
8.199999928474426270e-01,2.000000000000000000e+00,4.040686416625976562e+01,4.317234992980957031e+00,3.481217575073242188e+01,-1.180257797241210938e+02,9.124201202392578125e+01,-6.829294586181640625e+01,4.050117874145507812e+01,-1.221435928344726562e+01,-1.095565643310546875e+02,-1.227397842407226562e+02,6.321067047119140625e+01,-4.181052780151367188e+01
8.240000009536743164e-01,2.000000000000000000e+00,4.043532180786132812e+01,4.269894123077392578e+00,3.480635452270507812e+01,-1.180798645019531250e+02,9.124475860595703125e+01,-6.831773376464843750e+01,4.042986679077148438e+01,-1.220742511749267578e+01,-1.095677947998046875e+02,-1.227959976196289062e+02,6.320665359497070312e+01,-4.183878707885742188e+01
8.280000090599060059e-01,2.000000000000000000e+00,4.046377563476562500e+01,4.222556114196777344e+00,3.480053329467773438e+01,-1.181339263916015625e+02,9.124749755859375000e+01,-6.834251403808593750e+01,4.035856246948242188e+01,-1.220048999786376953e+01,-1.095790176391601562e+02,-1.228522109985351562e+02,6.320263671875000000e+01,-4.186705017089843750e+01
8.320000171661376953e-01,2.000000000000000000e+00,4.049222946166992188e+01,4.175220966339111328e+00,3.479470825195312500e+01,-1.181879806518554688e+02,9.125024414062500000e+01,-6.836729431152343750e+01,4.028726196289062500e+01,-1.219355583190917969e+01,-1.095902481079101562e+02,-1.229084243774414062e+02,6.319862747192382812e+01,-4.189530563354492188e+01
8.360000252723693848e-01,2.000000000000000000e+00,4.052068328857421875e+01,4.127888202667236328e+00,3.478889083862304688e+01,-1.182420501708984375e+02,9.125298309326171875e+01,-6.839207458496093750e+01,4.021596527099609375e+01,-1.218662166595458984e+01,-1.096014785766601562e+02,-1.229646377563476562e+02,6.319461059570312500e+01,-4.192355728149414062e+01
8.399999737739562988e-01,2.000000000000000000e+00,4.054913711547851562e+01,4.080558300018310547e+00,3.478306579589843750e+01,-1.182961044311523438e+02,9.125572967529296875e+01,-6.841685485839843750e+01,4.014467239379882812e+01,-1.217968940734863281e+01,-1.096127014160156250e+02,-1.230208358764648438e+02,6.319059371948242188e+01,-4.195181274414062500e+01
8.439999818801879883e-01,2.000000000000000000e+00,4.057758331298828125e+01,4.033231258392333984e+00,3.477724838256835938e+01,-1.183501739501953125e+02,9.125846862792968750e+01,-6.844163513183593750e+01,4.007338333129882812e+01,-1.217275524139404297e+01,-1.096239318847656250e+02,-1.230770339965820312e+02,6.318658447265625000e+01,-4.198006439208984375e+01
8.479999899864196777e-01,2.000000000000000000e+00,4.060603332519531250e+01,3.985905885696411133e+00,3.477142333984375000e+01,-1.184042282104492188e+02,9.126121520996093750e+01,-6.846640777587890625e+01,4.000209426879882812e+01,-1.216582298278808594e+01,-1.096351547241210938e+02,-1.231332321166992188e+02,6.318257141113281250e+01,-4.200831222534179688e+01
8.519999980926513672e-01,2.000000000000000000e+00,4.063447952270507812e+01,3.938583850860595703e+00,3.476560592651367188e+01,-1.184582672119140625e+02,9.126395416259765625e+01,-6.849118041992187500e+01,3.993081665039062500e+01,-1.215889072418212891e+01,-1.096463775634765625e+02,-1.231894302368164062e+02,6.317856216430664062e+01,-4.203656387329101562e+01
8.560000061988830566e-01,2.000000000000000000e+00,4.066292190551757812e+01,3.891264677047729492e+00,3.475978469848632812e+01,-1.185123214721679688e+02,9.126669311523437500e+01,-6.851595306396484375e+01,3.985953903198242188e+01,-1.215195941925048828e+01,-1.096576004028320312e+02,-1.232456130981445312e+02,6.317455291748046875e+01,-4.206481170654296875e+01
8.600000143051147461e-01,2.000000000000000000e+00,4.069136428833007812e+01,3.843947649002075195e+00,3.475396728515625000e+01,-1.185663604736328125e+02,9.126943206787109375e+01,-6.854072570800781250e+01,3.978826522827148438e+01,-1.214502716064453125e+01,-1.096688232421875000e+02,-1.233018035888671875e+02,6.317053604125976562e+01,-4.209305572509765625e+01
8.640000224113464355e-01,2.000000000000000000e+00,4.071981048583984375e+01,3.796633243560791016e+00,3.474814605712890625e+01,-1.186203994750976562e+02,9.127217864990234375e+01,-6.856549072265625000e+01,3.971699905395507812e+01,-1.213809680938720703e+01,-1.096800460815429688e+02,-1.233579864501953125e+02,6.316652679443359375e+01,-4.212129974365234375e+01
8.679999709129333496e-01,2.000000000000000000e+00,4.074824523925781250e+01,3.749321460723876953e+00,3.474232864379882812e+01,-1.186744461059570312e+02,9.127491760253906250e+01,-6.859026336669921875e+01,3.964573287963867188e+01,-1.213116550445556641e+01,-1.096912689208984375e+02,-1.234141693115234375e+02,6.316250991821289062e+01,-4.214953994750976562e+01
8.719999790191650391e-01,2.000000000000000000e+00,4.077668762207031250e+01,3.702012538909912109e+00,3.473650741577148438e+01,-1.187284851074218750e+02,9.127766418457031250e+01,-6.861502838134765625e+01,3.957446670532226562e+01,-1.212423610687255859e+01,-1.097024917602539062e+02,-1.234703445434570312e+02,6.315850067138671875e+01,-4.217778396606445312e+01
8.759999871253967285e-01,2.000000000000000000e+00,4.080512237548828125e+01,3.654705286026000977e+00,3.473069381713867188e+01,-1.187825088500976562e+02,9.128040313720703125e+01,-6.863979339599609375e+01,3.950321197509765625e+01,-1.211730575561523438e+01,-1.097137145996093750e+02,-1.235265121459960938e+02,6.315449142456054688e+01,-4.220602416992187500e+01
8.799999952316284180e-01,2.000000000000000000e+00,4.083355712890625000e+01,3.607401132583618164e+00,3.472487258911132812e+01,-1.188365402221679688e+02,9.128314208984375000e+01,-6.866455841064453125e+01,3.943195724487304688e+01,-1.211037540435791016e+01,-1.097249374389648438e+02,-1.235826950073242188e+02,6.315048217773437500e+01,-4.223426055908203125e+01
8.840000033378601074e-01,2.000000000000000000e+00,4.086199188232421875e+01,3.560099840164184570e+00,3.471905517578125000e+01,-1.188905639648437500e+02,9.128588867187500000e+01,-6.868932342529296875e+01,3.936070632934570312e+01,-1.210344600677490234e+01,-1.097361526489257812e+02,-1.236388549804687500e+02,6.314646530151367188e+01,-4.226250076293945312e+01
8.880000114440917969e-01,2.000000000000000000e+00,4.089042282104492188e+01,3.512800455093383789e+00,3.471323776245117188e+01,-1.189445877075195312e+02,9.128862762451171875e+01,-6.871408843994140625e+01,3.928945922851562500e+01,-1.209651756286621094e+01,-1.097473678588867188e+02,-1.236950302124023438e+02,6.314245605468750000e+01,-4.229073333740234375e+01
8.920000195503234863e-01,2.000000000000000000e+00,4.091885375976562500e+01,3.465503931045532227e+00,3.470742416381835938e+01,-1.189986190795898438e+02,9.129136657714843750e+01,-6.873884582519531250e+01,3.921821594238281250e+01,-1.208958911895751953e+01,-1.097585906982421875e+02,-1.237511825561523438e+02,6.313844680786132812e+01,-4.231896972656250000e+01
8.960000276565551758e-01,2.000000000000000000e+00,4.094728469848632812e+01,3.418209552764892578e+00,3.470160293579101562e+01,-1.190526275634765625e+02,9.129411315917968750e+01,-6.876360321044921875e+01,3.914697647094726562e+01,-1.208266067504882812e+01,-1.097698059082031250e+02,-1.238073577880859375e+02,6.313443756103515625e+01,-4.234719848632812500e+01
8.999999761581420898e-01,2.000000000000000000e+00,4.097571563720703125e+01,3.370917797088623047e+00,3.469578552246093750e+01,-1.191066436767578125e+02,9.129685211181640625e+01,-6.878836822509765625e+01,3.907574081420898438e+01,-1.207573318481445312e+01,-1.097810211181640625e+02,-1.238635177612304688e+02,6.313042831420898438e+01,-4.237543106079101562e+01
9.039999842643737793e-01,2.000000000000000000e+00,4.100413894653320312e+01,3.323628187179565430e+00,3.468997192382812500e+01,-1.191606597900390625e+02,9.129959106445312500e+01,-6.881311798095703125e+01,3.900450897216796875e+01,-1.206880569458007812e+01,-1.097922439575195312e+02,-1.239196624755859375e+02,6.312641906738281250e+01,-4.240365982055664062e+01
9.079999923706054688e-01,2.000000000000000000e+00,4.103256607055664062e+01,3.276340723037719727e+00,3.468415451049804688e+01,-1.192146682739257812e+02,9.130233001708984375e+01,-6.883787536621093750e+01,3.893328094482421875e+01,-1.206187915802001953e+01,-1.098034591674804688e+02,-1.239758148193359375e+02,6.312240982055664062e+01,-4.243188476562500000e+01
9.120000004768371582e-01,2.000000000000000000e+00,4.106098937988281250e+01,3.229055881500244141e+00,3.467834091186523438e+01,-1.192686843872070312e+02,9.130507659912109375e+01,-6.886263275146484375e+01,3.886206054687500000e+01,-1.205495262145996094e+01,-1.098146743774414062e+02,-1.240319595336914062e+02,6.311840057373046875e+01,-4.246010971069335938e+01
9.160000085830688477e-01,2.000000000000000000e+00,4.108941268920898438e+01,3.181773185729980469e+00,3.467252349853515625e+01,-1.193226852416992188e+02,9.130781555175781250e+01,-6.888738250732421875e+01,3.879083633422851562e+01,-1.204802608489990234e+01,-1.098258895874023438e+02,-1.240881042480468750e+02,6.311439132690429688e+01,-4.248833465576171875e+01
9.200000166893005371e-01,2.000000000000000000e+00,4.111783599853515625e+01,3.134492635726928711e+00,3.466670989990234375e+01,-1.193766784667968750e+02,9.131055450439453125e+01,-6.891213226318359375e+01,3.871961975097656250e+01,-1.204110050201416016e+01,-1.098371047973632812e+02,-1.241442489624023438e+02,6.311038208007812500e+01,-4.251656341552734375e+01
9.240000247955322266e-01,2.000000000000000000e+00,4.114625549316406250e+01,3.087214469909667969e+00,3.466089630126953125e+01,-1.194306793212890625e+02,9.131329345703125000e+01,-6.893688964843750000e+01,3.864840316772460938e+01,-1.203417491912841797e+01,-1.098483123779296875e+02,-1.242003936767578125e+02,6.310637283325195312e+01,-4.254478454589843750e+01
9.279999732971191406e-01,2.000000000000000000e+00,4.117467498779296875e+01,3.039938449859619141e+00,3.465508270263671875e+01,-1.194846801757812500e+02,9.131603240966796875e+01,-6.896163940429687500e+01,3.857719421386718750e+01,-1.202724933624267578e+01,-1.098595275878906250e+02,-1.242565383911132812e+02,6.310236358642578125e+01,-4.257300186157226562e+01
9.319999814033508301e-01,2.000000000000000000e+00,4.120309448242187500e+01,2.992664575576782227e+00,3.464926528930664062e+01,-1.195386810302734375e+02,9.131877136230468750e+01,-6.898638916015625000e+01,3.850598526000976562e+01,-1.202032375335693359e+01,-1.098707427978515625e+02,-1.243126678466796875e+02,6.309835433959960938e+01,-4.260122299194335938e+01
9.359999895095825195e-01,2.000000000000000000e+00,4.123151016235351562e+01,2.945392608642578125e+00,3.464345550537109375e+01,-1.195926666259765625e+02,9.132151031494140625e+01,-6.901113128662109375e+01,3.843478012084960938e+01,-1.201339912414550781e+01,-1.098819503784179688e+02,-1.243687973022460938e+02,6.309434509277343750e+01,-4.262944030761718750e+01
9.399999976158142090e-01,2.000000000000000000e+00,4.125992202758789062e+01,2.898123025894165039e+00,3.463763809204101562e+01,-1.196466674804687500e+02,9.132424926757812500e+01,-6.903588104248046875e+01,3.836357498168945312e+01,-1.200647449493408203e+01,-1.098931655883789062e+02,-1.244249267578125000e+02,6.309034347534179688e+01,-4.265766143798828125e+01
9.440000057220458984e-01,2.000000000000000000e+00,4.128833770751953125e+01,2.850855350494384766e+00,3.463182449340820312e+01,-1.197006530761718750e+02,9.132698822021484375e+01,-6.906062316894531250e+01,3.829237747192382812e+01,-1.199955081939697266e+01,-1.099043807983398438e+02,-1.244810562133789062e+02,6.308633422851562500e+01,-4.268587493896484375e+01
9.480000138282775879e-01,2.000000000000000000e+00,4.131674957275390625e+01,2.803589820861816406e+00,3.462601470947265625e+01,-1.197546386718750000e+02,9.132972717285156250e+01,-6.908537292480468750e+01,3.822118377685546875e+01,-1.199262619018554688e+01,-1.099155960083007812e+02,-1.245371932983398438e+02,6.308232498168945312e+01,-4.271409225463867188e+01
9.520000219345092773e-01,2.000000000000000000e+00,4.134516143798828125e+01,2.756326436996459961e+00,3.462020111083984375e+01,-1.198086242675781250e+02,9.133246612548828125e+01,-6.911011505126953125e+01,3.814998626708984375e+01,-1.198570346832275391e+01,-1.099268035888671875e+02,-1.245933074951171875e+02,6.307831573486328125e+01,-4.274230194091796875e+01
9.559999704360961914e-01,2.000000000000000000e+00,4.137356948852539062e+01,2.709064960479736328e+00,3.461438751220703125e+01,-1.198625946044921875e+02,9.133520507812500000e+01,-6.913485717773437500e+01,3.807880020141601562e+01,-1.197877979278564453e+01,-1.099380111694335938e+02,-1.246494369506835938e+02,6.307431030273437500e+01,-4.277051544189453125e+01
9.599999785423278809e-01,2.000000000000000000e+00,4.140198135375976562e+01,2.661805629730224609e+00,3.460857391357421875e+01,-1.199165802001953125e+02,9.133794403076171875e+01,-6.915959930419921875e+01,3.800761413574218750e+01,-1.197185707092285156e+01,-1.099492263793945312e+02,-1.247055511474609375e+02,6.307030105590820312e+01,-4.279872894287109375e+01
9.639999866485595703e-01,2.000000000000000000e+00,4.143038940429687500e+01,2.614548206329345703e+00,3.460276412963867188e+01,-1.199705505371093750e+02,9.134068298339843750e+01,-6.918434143066406250e+01,3.793642807006835938e+01,-1.196493339538574219e+01,-1.099604339599609375e+02,-1.247616729736328125e+02,6.306629180908203125e+01,-4.282693481445312500e+01
9.679999947547912598e-01,2.000000000000000000e+00,4.145879364013671875e+01,2.567292451858520508e+00,3.459695053100585938e+01,-1.200245285034179688e+02,9.134342193603515625e+01,-6.920907592773437500e+01,3.786524581909179688e+01,-1.195801067352294922e+01,-1.099716415405273438e+02,-1.248177871704101562e+02,6.306229019165039062e+01,-4.285514831542968750e+01
9.720000028610229492e-01,2.000000000000000000e+00,4.148719787597656250e+01,2.520038843154907227e+00,3.459113693237304688e+01,-1.200784988403320312e+02,9.134616088867187500e+01,-6.923381805419921875e+01,3.779407119750976562e+01,-1.195108985900878906e+01,-1.099828491210937500e+02,-1.248738937377929688e+02,6.305828094482421875e+01,-4.288335418701171875e+01
9.760000109672546387e-01,2.000000000000000000e+00,4.151560211181640625e+01,2.472786903381347656e+00,3.458532714843750000e+01,-1.201324691772460938e+02,9.134889984130859375e+01,-6.925855255126953125e+01,3.772289276123046875e+01,-1.194416713714599609e+01,-1.099940567016601562e+02,-1.249300079345703125e+02,6.305427169799804688e+01,-4.291156387329101562e+01
9.800000190734863281e-01,2.000000000000000000e+00,4.154400634765625000e+01,2.425537347793579102e+00,3.457951736450195312e+01,-1.201864395141601562e+02,9.135163879394531250e+01,-6.928328704833984375e+01,3.765172195434570312e+01,-1.193724536895751953e+01,-1.100052642822265625e+02,-1.249861145019531250e+02,6.305027008056640625e+01,-4.293976593017578125e+01
9.840000271797180176e-01,2.000000000000000000e+00,4.157240676879882812e+01,2.378289222717285156e+00,3.457370376586914062e+01,-1.202404022216796875e+02,9.135437774658203125e+01,-6.930802917480468750e+01,3.758055114746093750e+01,-1.193032360076904297e+01,-1.100164718627929688e+02,-1.250422134399414062e+02,6.304626083374023438e+01,-4.296797180175781250e+01
9.879999756813049316e-01,2.000000000000000000e+00,4.160080718994140625e+01,2.331043004989624023e+00,3.456789398193359375e+01,-1.202943725585937500e+02,9.135711669921875000e+01,-6.933275604248046875e+01,3.750938415527343750e+01,-1.192340373992919922e+01,-1.100276794433593750e+02,-1.250983200073242188e+02,6.304225921630859375e+01,-4.299617385864257812e+01
9.919999837875366211e-01,2.000000000000000000e+00,4.162920761108398438e+01,2.283798933029174805e+00,3.456208419799804688e+01,-1.203483276367187500e+02,9.135985565185546875e+01,-6.935749053955078125e+01,3.743822097778320312e+01,-1.191648197174072266e+01,-1.100388870239257812e+02,-1.251544189453125000e+02,6.303824996948242188e+01,-4.302437591552734375e+01
9.959999918937683105e-01,2.000000000000000000e+00,4.165760421752929688e+01,2.236556291580200195e+00,3.455627441406250000e+01,-1.204022903442382812e+02,9.136258697509765625e+01,-6.938223266601562500e+01,3.736706161499023438e+01,-1.190956211090087891e+01,-1.100500946044921875e+02,-1.252105255126953125e+02,6.303424453735351562e+01,-4.305257797241210938e+01
1.000000000000000000e+00,2.000000000000000000e+00,4.168600463867187500e+01,2.189315795898437500e+00,3.455046081542968750e+01,-1.204562454223632812e+02,9.136532592773437500e+01,-6.940695190429687500e+01,3.729589843750000000e+01,-1.190264129638671875e+01,-1.100612945556640625e+02,-1.252666168212890625e+02,6.303023529052734375e+01,-4.308078002929687500e+01
1.003999948501586914e+00,2.000000000000000000e+00,4.171440124511718750e+01,2.142077207565307617e+00,3.454465103149414062e+01,-1.205102081298828125e+02,9.136806488037109375e+01,-6.943168640136718750e+01,3.722474670410156250e+01,-1.189572143554687500e+01,-1.100725021362304688e+02,-1.253227157592773438e+02,6.302623367309570312e+01,-4.310897827148437500e+01
1.008000016212463379e+00,2.000000000000000000e+00,4.174279403686523438e+01,2.094840288162231445e+00,3.453884124755859375e+01,-1.205641479492187500e+02,9.137080383300781250e+01,-6.945642089843750000e+01,3.715359497070312500e+01,-1.188880157470703125e+01,-1.100837020874023438e+02,-1.253788070678710938e+02,6.302223205566406250e+01,-4.313717651367187500e+01
1.011999964714050293e+00,2.000000000000000000e+00,4.177118682861328125e+01,2.047605037689208984e+00,3.453303527832031250e+01,-1.206181106567382812e+02,9.137354278564453125e+01,-6.948114776611328125e+01,3.708244323730468750e+01,-1.188188171386718750e+01,-1.100949020385742188e+02,-1.254348983764648438e+02,6.301822280883789062e+01,-4.316537094116210938e+01
1.016000032424926758e+00,2.000000000000000000e+00,4.179957962036132812e+01,2.000371932983398438e+00,3.452722549438476562e+01,-1.206720581054687500e+02,9.137627410888671875e+01,-6.950587463378906250e+01,3.701129150390625000e+01,-1.187496280670166016e+01,-1.101061172485351562e+02,-1.254909820556640625e+02,6.301422119140625000e+01,-4.319356536865234375e+01
1.019999980926513672e+00,2.000000000000000000e+00,4.182797241210937500e+01,1.953140258789062500e+00,3.452141571044921875e+01,-1.207259979248046875e+02,9.137901306152343750e+01,-6.953060150146484375e+01,3.694015121459960938e+01,-1.186804389953613281e+01,-1.101173171997070312e+02,-1.255470733642578125e+02,6.301021194458007812e+01,-4.322176361083984375e+01
1.024000048637390137e+00,2.000000000000000000e+00,4.185636138916015625e+01,1.905910491943359375e+00,3.451560592651367188e+01,-1.207799453735351562e+02,9.138175201416015625e+01,-6.955532836914062500e+01,3.686900711059570312e+01,-1.186112499237060547e+01,-1.101285171508789062e+02,-1.256031494140625000e+02,6.300620651245117188e+01,-4.324995803833007812e+01
1.026999950408935547e+00,2.000000000000000000e+00,4.188475418090820312e+01,1.858682274818420410e+00,3.450979614257812500e+01,-1.208338851928710938e+02,9.138449096679687500e+01,-6.958005523681640625e+01,3.679786682128906250e+01,-1.185420703887939453e+01,-1.101397171020507812e+02,-1.256592407226562500e+02,6.300220489501953125e+01,-4.327814865112304688e+01
1.031999945640563965e+00,2.000000000000000000e+00,4.191314315795898438e+01,1.811456203460693359e+00,3.450399017333984375e+01,-1.208878326416015625e+02,9.138722229003906250e+01,-6.960478210449218750e+01,3.672673034667968750e+01,-1.184728813171386719e+01,-1.101509170532226562e+02,-1.257153167724609375e+02,6.299820327758789062e+01,-4.330633926391601562e+01
1.036000013351440430e+00,2.000000000000000000e+00,4.194153213500976562e+01,1.764231681823730469e+00,3.449818420410156250e+01,-1.209417648315429688e+02,9.138996124267578125e+01,-6.962950134277343750e+01,3.665559768676757812e+01,-1.184037017822265625e+01,-1.101621246337890625e+02,-1.257713928222656250e+02,6.299419403076171875e+01,-4.333453369140625000e+01
1.039999961853027344e+00,2.000000000000000000e+00,4.196991729736328125e+01,1.717008829116821289e+00,3.449237442016601562e+01,-1.209957122802734375e+02,9.139270019531250000e+01,-6.965422058105468750e+01,3.658446502685546875e+01,-1.183345317840576172e+01,-1.101733245849609375e+02,-1.258274688720703125e+02,6.299019241333007812e+01,-4.336272048950195312e+01
1.044000029563903809e+00,2.000000000000000000e+00,4.199830245971679688e+01,1.669787764549255371e+00,3.448656463623046875e+01,-1.210496444702148438e+02,9.139543151855468750e+01,-6.967894744873046875e+01,3.651333618164062500e+01,-1.182653522491455078e+01,-1.101845245361328125e+02,-1.258835449218750000e+02,6.298618698120117188e+01,-4.339090728759765625e+01
1.047999978065490723e+00,2.000000000000000000e+00,4.202668762207031250e+01,1.622568488121032715e+00,3.448075866699218750e+01,-1.211035690307617188e+02,9.139817047119140625e+01,-6.970366668701171875e+01,3.644220733642578125e+01,-1.181961727142333984e+01,-1.101957244873046875e+02,-1.259396209716796875e+02,6.298218536376953125e+01,-4.341909790039062500e+01
1.052000045776367188e+00,2.000000000000000000e+00,4.205506896972656250e+01,1.575350761413574219e+00,3.447494888305664062e+01,-1.211575012207031250e+02,9.140090179443359375e+01,-6.972838592529296875e+01,3.637108612060546875e+01,-1.181270122528076172e+01,-1.102069244384765625e+02,-1.259956817626953125e+02,6.297818374633789062e+01,-4.344728469848632812e+01
1.054999947547912598e+00,2.000000000000000000e+00,4.208345413208007812e+01,1.528134822845458984e+00,3.446914291381835938e+01,-1.212114334106445312e+02,9.140364074707031250e+01,-6.975310516357421875e+01,3.629996109008789062e+01,-1.180578517913818359e+01,-1.102181243896484375e+02,-1.260517578125000000e+02,6.297417449951171875e+01,-4.347546768188476562e+01
1.059999942779541016e+00,2.000000000000000000e+00,4.211183547973632812e+01,1.480920553207397461e+00,3.446333694458007812e+01,-1.212653656005859375e+02,9.140637969970703125e+01,-6.977782440185546875e+01,3.622884368896484375e+01,-1.179886722564697266e+01,-1.102293243408203125e+02,-1.261078186035156250e+02,6.297017288208007812e+01,-4.350365447998046875e+01
1.064000010490417480e+00,2.000000000000000000e+00,4.214021682739257812e+01,1.433707952499389648e+00,3.445753097534179688e+01,-1.213192825317382812e+02,9.140911102294921875e+01,-6.980253601074218750e+01,3.615772628784179688e+01,-1.179195213317871094e+01,-1.102405242919921875e+02,-1.261638793945312500e+02,6.296616744995117188e+01,-4.353183364868164062e+01
1.067999958992004395e+00,2.000000000000000000e+00,4.216859436035156250e+01,1.386496901512145996e+00,3.445172500610351562e+01,-1.213732147216796875e+02,9.141184997558593750e+01,-6.982724761962890625e+01,3.608661651611328125e+01,-1.178503608703613281e+01,-1.102517166137695312e+02,-1.262199401855468750e+02,6.296216583251953125e+01,-4.356002044677734375e+01
1.072000026702880859e+00,2.000000000000000000e+00,4.219697570800781250e+01,1.339287638664245605e+00,3.444591903686523438e+01,-1.214271316528320312e+02,9.141458129882812500e+01,-6.985196685791015625e+01,3.601550292968750000e+01,-1.177812004089355469e+01,-1.102629165649414062e+02,-1.262760086059570312e+02,6.295816421508789062e+01,-4.358820343017578125e+01
1.075999975204467773e+00,2.000000000000000000e+00,4.222534942626953125e+01,1.292079925537109375e+00,3.444011306762695312e+01,-1.214810485839843750e+02,9.141732025146484375e+01,-6.987667846679687500e+01,3.594439315795898438e+01,-1.177120494842529297e+01,-1.102741165161132812e+02,-1.263320541381835938e+02,6.295416259765625000e+01,-4.361637878417968750e+01
1.080000042915344238e+00,2.000000000000000000e+00,4.225372695922851562e+01,1.244873762130737305e+00,3.443430709838867188e+01,-1.215349655151367188e+02,9.142005157470703125e+01,-6.990139770507812500e+01,3.587328720092773438e+01,-1.176428985595703125e+01,-1.102853088378906250e+02,-1.263881149291992188e+02,6.295016098022460938e+01,-4.364456176757812500e+01
1.083999991416931152e+00,2.000000000000000000e+00,4.228210067749023438e+01,1.197669386863708496e+00,3.442850112915039062e+01,-1.215888824462890625e+02,9.142279052734375000e+01,-6.992610931396484375e+01,3.580218124389648438e+01,-1.175737380981445312e+01,-1.102965087890625000e+02,-1.264441680908203125e+02,6.294615554809570312e+01,-4.367273712158203125e+01
1.088000059127807617e+00,2.000000000000000000e+00,4.231047821044921875e+01,1.150466561317443848e+00,3.442269515991210938e+01,-1.216427993774414062e+02,9.142552185058593750e+01,-6.995082092285156250e+01,3.573108291625976562e+01,-1.175045967102050781e+01,-1.103077087402343750e+02,-1.265002288818359375e+02,6.294215393066406250e+01,-4.370091629028320312e+01
1.090999960899353027e+00,2.000000000000000000e+00,4.233885192871093750e+01,1.103265285491943359e+00,3.441688919067382812e+01,-1.216967163085937500e+02,9.142826080322265625e+01,-6.997553253173828125e+01,3.565998077392578125e+01,-1.174354457855224609e+01,-1.103189010620117188e+02,-1.265562744140625000e+02,6.293815231323242188e+01,-4.372909164428710938e+01
1.095999956130981445e+00,2.000000000000000000e+00,4.236722183227539062e+01,1.056065559387207031e+00,3.441108322143554688e+01,-1.217506256103515625e+02,9.143099975585937500e+01,-7.000023651123046875e+01,3.558888626098632812e+01,-1.173663139343261719e+01,-1.103300933837890625e+02,-1.266123275756835938e+02,6.293415069580078125e+01,-4.375727081298828125e+01
1.100000023841857910e+00,2.000000000000000000e+00,4.239559555053710938e+01,1.008867502212524414e+00,3.440527725219726562e+01,-1.218045272827148438e+02,9.143373870849609375e+01,-7.002494812011718750e+01,3.551779174804687500e+01,-1.172971725463867188e+01,-1.103412933349609375e+02,-1.266683578491210938e+02,6.293014526367187500e+01,-4.378544235229492188e+01
1.103999972343444824e+00,2.000000000000000000e+00,4.242396545410156250e+01,9.616708755493164062e-01,3.439947128295898438e+01,-1.218584442138671875e+02,9.143647003173828125e+01,-7.004965972900390625e+01,3.544669723510742188e+01,-1.172280311584472656e+01,-1.103524856567382812e+02,-1.267244110107421875e+02,6.292614364624023438e+01,-4.381361770629882812e+01
1.108000040054321289e+00,2.000000000000000000e+00,4.245233535766601562e+01,9.144759178161621094e-01,3.439366912841796875e+01,-1.219123458862304688e+02,9.143920898437500000e+01,-7.007437133789062500e+01,3.537561035156250000e+01,-1.171588897705078125e+01,-1.103636779785156250e+02,-1.267804565429687500e+02,6.292214202880859375e+01,-4.384178924560546875e+01
1.111999988555908203e+00,2.000000000000000000e+00,4.248070526123046875e+01,8.672824501991271973e-01,3.438786315917968750e+01,-1.219662551879882812e+02,9.144194030761718750e+01,-7.009907531738281250e+01,3.530451965332031250e+01,-1.170897579193115234e+01,-1.103748779296875000e+02,-1.268364944458007812e+02,6.291814041137695312e+01,-4.386996078491210938e+01
