rpiRobotics/ARM-21-02-F-19-Robot-Motion-Program/data_performance_abb/curve_2/dual_arm/diffevo_pose6_3/30L/grad_result/sim/dual_iteration_8.csv
timestamp,cmd_num,J1,J2,J3,J4,J5,J6,J1_2,J2_2,J3_2,J4_2,J5_2,J6_2
0.000000000000000000e+00,-1.000000000000000000e+00,3.559349060058593750e+01,1.290935325622558594e+01,3.526861953735351562e+01,-1.082146682739257812e+02,9.081444549560546875e+01,-6.397728347778320312e+01,5.345205688476562500e+01,-1.491408348083496094e+01,-1.048122711181640625e+02,-1.142945480346679688e+02,6.411334228515625000e+01,-3.546278381347656250e+01
2.000000094994902611e-03,-1.000000000000000000e+00,3.559349060058593750e+01,1.290935325622558594e+01,3.526861953735351562e+01,-1.082146682739257812e+02,9.081444549560546875e+01,-6.397728347778320312e+01,5.345205688476562500e+01,-1.491408348083496094e+01,-1.048122711181640625e+02,-1.142945480346679688e+02,6.411334228515625000e+01,-3.546278381347656250e+01
4.000000189989805222e-03,-1.000000000000000000e+00,3.559349060058593750e+01,1.290935325622558594e+01,3.526861953735351562e+01,-1.082146682739257812e+02,9.081444549560546875e+01,-6.397728347778320312e+01,5.345205688476562500e+01,-1.491408348083496094e+01,-1.048122711181640625e+02,-1.142945480346679688e+02,6.411334228515625000e+01,-3.546278381347656250e+01
9.999999776482582092e-03,-1.000000000000000000e+00,3.559349060058593750e+01,1.290935325622558594e+01,3.526861953735351562e+01,-1.082146682739257812e+02,9.081444549560546875e+01,-6.397728347778320312e+01,5.345205688476562500e+01,-1.491408348083496094e+01,-1.048122711181640625e+02,-1.142945480346679688e+02,6.411334228515625000e+01,-3.546278381347656250e+01
1.200000010430812836e-02,-1.000000000000000000e+00,3.559349060058593750e+01,1.290935325622558594e+01,3.526861953735351562e+01,-1.082146682739257812e+02,9.081444549560546875e+01,-6.397728347778320312e+01,5.345205688476562500e+01,-1.491408348083496094e+01,-1.048122711181640625e+02,-1.142945480346679688e+02,6.411334228515625000e+01,-3.546278381347656250e+01
1.600000075995922089e-02,-1.000000000000000000e+00,3.559349060058593750e+01,1.290935325622558594e+01,3.526861953735351562e+01,-1.082146682739257812e+02,9.081444549560546875e+01,-6.397728347778320312e+01,5.345205688476562500e+01,-1.491408348083496094e+01,-1.048122711181640625e+02,-1.142945480346679688e+02,6.411334228515625000e+01,-3.546278381347656250e+01
1.999999955296516418e-02,-1.000000000000000000e+00,3.559349060058593750e+01,1.290935325622558594e+01,3.526861953735351562e+01,-1.082146682739257812e+02,9.081444549560546875e+01,-6.397728347778320312e+01,5.345205688476562500e+01,-1.491408348083496094e+01,-1.048122711181640625e+02,-1.142945480346679688e+02,6.411334228515625000e+01,-3.546278381347656250e+01
2.400000020861625671e-02,-1.000000000000000000e+00,3.559349060058593750e+01,1.290935325622558594e+01,3.526861953735351562e+01,-1.082146682739257812e+02,9.081444549560546875e+01,-6.397728347778320312e+01,5.345205688476562500e+01,-1.491408348083496094e+01,-1.048122711181640625e+02,-1.142945480346679688e+02,6.411334228515625000e+01,-3.546278381347656250e+01
2.899999916553497314e-02,2.000000000000000000e+00,3.559349060058593750e+01,1.290935325622558594e+01,3.526861953735351562e+01,-1.082146682739257812e+02,9.081444549560546875e+01,-6.397728347778320312e+01,5.345205688476562500e+01,-1.491408348083496094e+01,-1.048122711181640625e+02,-1.142945480346679688e+02,6.411334228515625000e+01,-3.546278381347656250e+01
3.500000014901161194e-02,2.000000000000000000e+00,3.559349060058593750e+01,1.290935325622558594e+01,3.526861953735351562e+01,-1.082146682739257812e+02,9.081444549560546875e+01,-6.397728347778320312e+01,5.345205688476562500e+01,-1.491408348083496094e+01,-1.048122711181640625e+02,-1.142945480346679688e+02,6.411334228515625000e+01,-3.546278381347656250e+01
3.900000080466270447e-02,2.000000000000000000e+00,3.559349060058593750e+01,1.290935325622558594e+01,3.526861953735351562e+01,-1.082146682739257812e+02,9.081444549560546875e+01,-6.397728347778320312e+01,5.345205688476562500e+01,-1.491408348083496094e+01,-1.048122711181640625e+02,-1.142945480346679688e+02,6.411334228515625000e+01,-3.546278381347656250e+01
4.100000113248825073e-02,2.000000000000000000e+00,3.559349060058593750e+01,1.290935325622558594e+01,3.526861953735351562e+01,-1.082146682739257812e+02,9.081444549560546875e+01,-6.397728347778320312e+01,5.345205688476562500e+01,-1.491408348083496094e+01,-1.048122711181640625e+02,-1.142945480346679688e+02,6.411334228515625000e+01,-3.546278381347656250e+01
4.600000008940696716e-02,2.000000000000000000e+00,3.559349060058593750e+01,1.290935325622558594e+01,3.526861953735351562e+01,-1.082146682739257812e+02,9.081444549560546875e+01,-6.397728347778320312e+01,5.345205688476562500e+01,-1.491408348083496094e+01,-1.048122711181640625e+02,-1.142945480346679688e+02,6.411334228515625000e+01,-3.546278381347656250e+01
4.800000041723251343e-02,2.000000000000000000e+00,3.559349060058593750e+01,1.290935325622558594e+01,3.526861953735351562e+01,-1.082146682739257812e+02,9.081444549560546875e+01,-6.397728347778320312e+01,5.345205688476562500e+01,-1.491408348083496094e+01,-1.048122711181640625e+02,-1.142945480346679688e+02,6.411334228515625000e+01,-3.546278381347656250e+01
5.200000107288360596e-02,2.000000000000000000e+00,3.559349060058593750e+01,1.290935325622558594e+01,3.526861953735351562e+01,-1.082146682739257812e+02,9.081444549560546875e+01,-6.397728347778320312e+01,5.345205688476562500e+01,-1.491408348083496094e+01,-1.048122711181640625e+02,-1.142945480346679688e+02,6.411334228515625000e+01,-3.546278381347656250e+01
5.600000172853469849e-02,2.000000000000000000e+00,3.559349060058593750e+01,1.290935325622558594e+01,3.526861953735351562e+01,-1.082146682739257812e+02,9.081444549560546875e+01,-6.397728347778320312e+01,5.345205688476562500e+01,-1.491408348083496094e+01,-1.048122711181640625e+02,-1.142945480346679688e+02,6.411334228515625000e+01,-3.546278381347656250e+01
5.999999865889549255e-02,2.000000000000000000e+00,3.559349060058593750e+01,1.290935325622558594e+01,3.526861953735351562e+01,-1.082146682739257812e+02,9.081444549560546875e+01,-6.397728347778320312e+01,5.345205688476562500e+01,-1.491408348083496094e+01,-1.048122711181640625e+02,-1.142945480346679688e+02,6.411334228515625000e+01,-3.546278381347656250e+01
6.400000303983688354e-02,2.000000000000000000e+00,3.559349060058593750e+01,1.290935325622558594e+01,3.526861953735351562e+01,-1.082146682739257812e+02,9.081444549560546875e+01,-6.397728347778320312e+01,5.345205688476562500e+01,-1.491408348083496094e+01,-1.048122711181640625e+02,-1.142945480346679688e+02,6.411334228515625000e+01,-3.546278381347656250e+01
6.800000369548797607e-02,2.000000000000000000e+00,3.559349060058593750e+01,1.290935325622558594e+01,3.526861953735351562e+01,-1.082146682739257812e+02,9.081444549560546875e+01,-6.397728347778320312e+01,5.345205688476562500e+01,-1.491408348083496094e+01,-1.048122711181640625e+02,-1.142945480346679688e+02,6.411334228515625000e+01,-3.546278381347656250e+01
7.199999690055847168e-02,2.000000000000000000e+00,3.559352493286132812e+01,1.290932941436767578e+01,3.526861953735351562e+01,-1.082146682739257812e+02,9.081444549560546875e+01,-6.397728347778320312e+01,5.345205688476562500e+01,-1.491408348083496094e+01,-1.048122711181640625e+02,-1.142945480346679688e+02,6.411334228515625000e+01,-3.546278381347656250e+01
7.599999755620956421e-02,2.000000000000000000e+00,3.559370803833007812e+01,1.290918254852294922e+01,3.526862335205078125e+01,-1.082146759033203125e+02,9.081444549560546875e+01,-6.397729110717773438e+01,5.345205688476562500e+01,-1.491408348083496094e+01,-1.048122711181640625e+02,-1.142945480346679688e+02,6.411334228515625000e+01,-3.546278381347656250e+01
7.999999821186065674e-02,2.000000000000000000e+00,3.559424591064453125e+01,1.290872955322265625e+01,3.526863479614257812e+01,-1.082147140502929688e+02,9.081446075439453125e+01,-6.397729492187500000e+01,5.345205688476562500e+01,-1.491408348083496094e+01,-1.048122711181640625e+02,-1.142945480346679688e+02,6.411334228515625000e+01,-3.546278381347656250e+01
8.399999886751174927e-02,2.000000000000000000e+00,3.559532546997070312e+01,1.290776157379150391e+01,3.526865768432617188e+01,-1.082148132324218750e+02,9.081450653076171875e+01,-6.397732925415039062e+01,5.345202255249023438e+01,-1.491408729553222656e+01,-1.048122634887695312e+02,-1.142945480346679688e+02,6.411334228515625000e+01,-3.546278381347656250e+01
8.799999952316284180e-02,2.000000000000000000e+00,3.559703063964843750e+01,1.290611267089843750e+01,3.526868438720703125e+01,-1.082150497436523438e+02,9.081457519531250000e+01,-6.397742080688476562e+01,5.345181274414062500e+01,-1.491410064697265625e+01,-1.048122329711914062e+02,-1.142945632934570312e+02,6.411333465576171875e+01,-3.546279144287109375e+01
9.200000017881393433e-02,2.000000000000000000e+00,3.559938049316406250e+01,1.290365791320800781e+01,3.526871490478515625e+01,-1.082155380249023438e+02,9.081467437744140625e+01,-6.397761154174804688e+01,5.345111083984375000e+01,-1.491414546966552734e+01,-1.048121109008789062e+02,-1.142946243286132812e+02,6.411331939697265625e+01,-3.546281433105468750e+01
9.600000083446502686e-02,2.000000000000000000e+00,3.560239791870117188e+01,1.290026283264160156e+01,3.526872634887695312e+01,-1.082164154052734375e+02,9.081481933593750000e+01,-6.397797393798828125e+01,5.344953155517578125e+01,-1.491423225402832031e+01,-1.048118591308593750e+02,-1.142947921752929688e+02,6.411328887939453125e+01,-3.546289443969726562e+01
1.000000014901161194e-01,2.000000000000000000e+00,3.560610961914062500e+01,1.289576530456542969e+01,3.526869964599609375e+01,-1.082178878784179688e+02,9.081501007080078125e+01,-6.397859954833984375e+01,5.344669342041015625e+01,-1.491435718536376953e+01,-1.048114776611328125e+02,-1.142952346801757812e+02,6.411322784423828125e+01,-3.546311187744140625e+01
1.040000021457672119e-01,2.000000000000000000e+00,3.561053466796875000e+01,1.288996982574462891e+01,3.526861953735351562e+01,-1.082201995849609375e+02,9.081526947021484375e+01,-6.397959899902343750e+01,5.344224166870117188e+01,-1.491448879241943359e+01,-1.048110046386718750e+02,-1.142961349487304688e+02,6.411311340332031250e+01,-3.546357727050781250e+01
1.080000028014183044e-01,2.000000000000000000e+00,3.561575698852539062e+01,1.288264274597167969e+01,3.526845169067382812e+01,-1.082236099243164062e+02,9.081560516357421875e+01,-6.398109436035156250e+01,5.343580627441406250e+01,-1.491457557678222656e+01,-1.048105239868164062e+02,-1.142978057861328125e+02,6.411293029785156250e+01,-3.546446609497070312e+01
1.120000034570693970e-01,2.000000000000000000e+00,3.562194824218750000e+01,1.287351036071777344e+01,3.526816558837890625e+01,-1.082284622192382812e+02,9.081603240966796875e+01,-6.398323822021484375e+01,5.342702484130859375e+01,-1.491454505920410156e+01,-1.048101806640625000e+02,-1.143006286621093750e+02,6.411264038085937500e+01,-3.546598815917968750e+01
1.159999966621398926e-01,2.000000000000000000e+00,3.562933349609375000e+01,1.286225605010986328e+01,3.526773071289062500e+01,-1.082351150512695312e+02,9.081658172607421875e+01,-6.398619079589843750e+01,5.341559219360351562e+01,-1.491430091857910156e+01,-1.048101501464843750e+02,-1.143050384521484375e+02,6.411222839355468750e+01,-3.546838760375976562e+01
1.199999973177909851e-01,2.000000000000000000e+00,3.563808059692382812e+01,1.284862709045410156e+01,3.526710510253906250e+01,-1.082439651489257812e+02,9.081725311279296875e+01,-6.399013900756835938e+01,5.340118408203125000e+01,-1.491373157501220703e+01,-1.048106231689453125e+02,-1.143115158081054688e+02,6.411164093017578125e+01,-3.547193908691406250e+01
1.239999979734420776e-01,2.000000000000000000e+00,3.564816665649414062e+01,1.283263111114501953e+01,3.526623153686523438e+01,-1.082554321289062500e+02,9.081805419921875000e+01,-6.399528121948242188e+01,5.338332748413085938e+01,-1.491273975372314453e+01,-1.048118057250976562e+02,-1.143205718994140625e+02,6.411086273193359375e+01,-3.547692871093750000e+01
1.280000060796737671e-01,2.000000000000000000e+00,3.565938186645507812e+01,1.281456470489501953e+01,3.526504898071289062e+01,-1.082699356079101562e+02,9.081899261474609375e+01,-6.400180816650390625e+01,5.336142730712890625e+01,-1.491123580932617188e+01,-1.048138275146484375e+02,-1.143327026367187500e+02,6.410983276367187500e+01,-3.548363876342773438e+01
1.309999972581863403e-01,2.000000000000000000e+00,3.567149353027343750e+01,1.279476261138916016e+01,3.526350021362304688e+01,-1.082878341674804688e+02,9.082005310058593750e+01,-6.400991058349609375e+01,5.333491516113281250e+01,-1.490912628173828125e+01,-1.048168716430664062e+02,-1.143484115600585938e+02,6.410853576660156250e+01,-3.549234771728515625e+01
1.360000073909759521e-01,2.000000000000000000e+00,3.568441009521484375e+01,1.277335739135742188e+01,3.526154708862304688e+01,-1.083094253540039062e+02,9.082124328613281250e+01,-6.401971435546875000e+01,5.330357360839843750e+01,-1.490630245208740234e+01,-1.048211212158203125e+02,-1.143681640625000000e+02,6.410691070556640625e+01,-3.550331878662109375e+01
1.389999985694885254e-01,2.000000000000000000e+00,3.569817352294921875e+01,1.275029468536376953e+01,3.525916671752929688e+01,-1.083348846435546875e+02,9.082256317138671875e+01,-6.403131103515625000e+01,5.326761627197265625e+01,-1.490263748168945312e+01,-1.048268737792968750e+02,-1.143923492431640625e+02,6.410497283935546875e+01,-3.551678085327148438e+01
1.439999938011169434e-01,2.000000000000000000e+00,3.571286010742187500e+01,1.272547531127929688e+01,3.525634765625000000e+01,-1.083642807006835938e+02,9.082402038574218750e+01,-6.404471588134765625e+01,5.322749710083007812e+01,-1.489801883697509766e+01,-1.048343658447265625e+02,-1.144212341308593750e+02,6.410268402099609375e+01,-3.553289413452148438e+01
1.480000019073486328e-01,2.000000000000000000e+00,3.572857284545898438e+01,1.269874191284179688e+01,3.525310897827148438e+01,-1.083975448608398438e+02,9.082561492919921875e+01,-6.405991363525390625e+01,5.318361663818359375e+01,-1.489239406585693359e+01,-1.048437423706054688e+02,-1.144549026489257812e+02,6.410005950927734375e+01,-3.555170440673828125e+01
1.519999951124191284e-01,2.000000000000000000e+00,3.574544906616210938e+01,1.266989040374755859e+01,3.524948120117187500e+01,-1.084345397949218750e+02,9.082735443115234375e+01,-6.407682037353515625e+01,5.313632583618164062e+01,-1.488577270507812500e+01,-1.048549880981445312e+02,-1.144932022094726562e+02,6.409710693359375000e+01,-3.557313537597656250e+01
1.560000032186508179e-01,2.000000000000000000e+00,3.576356124877929688e+01,1.263879585266113281e+01,3.524549102783203125e+01,-1.084750061035156250e+02,9.082924652099609375e+01,-6.409532165527343750e+01,5.308596801757812500e+01,-1.487823009490966797e+01,-1.048679733276367188e+02,-1.145357666015625000e+02,6.409384918212890625e+01,-3.559696960449218750e+01
1.599999964237213135e-01,2.000000000000000000e+00,3.578284835815429688e+01,1.260554027557373047e+01,3.524118041992187500e+01,-1.085186233520507812e+02,9.083126831054687500e+01,-6.411527252197265625e+01,5.303262710571289062e+01,-1.486992645263671875e+01,-1.048823928833007812e+02,-1.145820083618164062e+02,6.409033203125000000e+01,-3.562287902832031250e+01
1.640000045299530029e-01,2.000000000000000000e+00,3.580309677124023438e+01,1.257038974761962891e+01,3.523658370971679688e+01,-1.085650482177734375e+02,9.083340454101562500e+01,-6.413650512695312500e+01,5.297596740722656250e+01,-1.486108970642089844e+01,-1.048977584838867188e+02,-1.146312026977539062e+02,6.408657836914062500e+01,-3.565044784545898438e+01
1.679999977350234985e-01,2.000000000000000000e+00,3.582407379150390625e+01,1.253361797332763672e+01,3.523174285888671875e+01,-1.086138763427734375e+02,9.083564758300781250e+01,-6.415883636474609375e+01,5.291562271118164062e+01,-1.485196304321289062e+01,-1.049135589599609375e+02,-1.146825942993164062e+02,6.408264923095703125e+01,-3.567923355102539062e+01
1.720000058412551880e-01,2.000000000000000000e+00,3.584568786621093750e+01,1.249531459808349609e+01,3.522670364379882812e+01,-1.086646652221679688e+02,9.083798217773437500e+01,-6.418207550048828125e+01,5.285166168212890625e+01,-1.484273338317871094e+01,-1.049294204711914062e+02,-1.147354888916015625e+02,6.407857513427734375e+01,-3.570883560180664062e+01
1.759999990463256836e-01,2.000000000000000000e+00,3.586809539794921875e+01,1.245537090301513672e+01,3.522152709960937500e+01,-1.087170028686523438e+02,9.084041595458984375e+01,-6.420600891113281250e+01,5.278458023071289062e+01,-1.483351802825927734e+01,-1.049451065063476562e+02,-1.147893218994140625e+02,6.407440948486328125e+01,-3.573894119262695312e+01
1.800000071525573730e-01,2.000000000000000000e+00,3.589154434204101562e+01,1.241365718841552734e+01,3.521627044677734375e+01,-1.087704696655273438e+02,9.084292602539062500e+01,-6.423044586181640625e+01,5.271498870849609375e+01,-1.482438087463378906e+01,-1.049605255126953125e+02,-1.148436508178710938e+02,6.407017517089843750e+01,-3.576930618286132812e+01
1.840000003576278687e-01,2.000000000000000000e+00,3.591613769531250000e+01,1.237020874023437500e+01,3.521097564697265625e+01,-1.088247070312500000e+02,9.084552001953125000e+01,-6.425521850585937500e+01,5.264354324340820312e+01,-1.481534004211425781e+01,-1.049756622314453125e+02,-1.148982086181640625e+02,6.406590270996093750e+01,-3.579978561401367188e+01
1.879999935626983643e-01,2.000000000000000000e+00,3.594186782836914062e+01,1.232520389556884766e+01,3.520567321777343750e+01,-1.088794326782226562e+02,9.084817504882812500e+01,-6.428019714355468750e+01,5.257096481323242188e+01,-1.480637168884277344e+01,-1.049906005859375000e+02,-1.149528656005859375e+02,6.406162261962890625e+01,-3.583029937744140625e+01
1.920000016689300537e-01,2.000000000000000000e+00,3.596867752075195312e+01,1.227887630462646484e+01,3.520038604736328125e+01,-1.089344177246093750e+02,9.085089111328125000e+01,-6.430527496337890625e+01,5.249790191650390625e+01,-1.479744148254394531e+01,-1.050054473876953125e+02,-1.150075302124023438e+02,6.405732727050781250e+01,-3.586082077026367188e+01
1.959999948740005493e-01,2.000000000000000000e+00,3.599642181396484375e+01,1.223154640197753906e+01,3.519511413574218750e+01,-1.089895248413085938e+02,9.085363769531250000e+01,-6.433040618896484375e+01,5.242472457885742188e+01,-1.478851890563964844e+01,-1.050202560424804688e+02,-1.150622177124023438e+02,6.405303192138671875e+01,-3.589134216308593750e+01
2.000000029802322388e-01,2.000000000000000000e+00,3.602479934692382812e+01,1.218361568450927734e+01,3.518985748291015625e+01,-1.090446853637695312e+02,9.085641479492187500e+01,-6.435554504394531250e+01,5.235155105590820312e+01,-1.477960109710693359e+01,-1.050350570678710938e+02,-1.151168670654296875e+02,6.404873657226562500e+01,-3.592185974121093750e+01
2.039999961853027344e-01,2.000000000000000000e+00,3.605345535278320312e+01,1.213544178009033203e+01,3.518460845947265625e+01,-1.090998535156250000e+02,9.085919952392578125e+01,-6.438068389892578125e+01,5.227838134765625000e+01,-1.477068424224853516e+01,-1.050498657226562500e+02,-1.151715393066406250e+02,6.404444122314453125e+01,-3.595237350463867188e+01
2.080000042915344238e-01,2.000000000000000000e+00,3.608218002319335938e+01,1.208721923828125000e+01,3.517935943603515625e+01,-1.091550216674804688e+02,9.086198425292968750e+01,-6.440583038330078125e+01,5.220521926879882812e+01,-1.476176548004150391e+01,-1.050646743774414062e+02,-1.152261962890625000e+02,6.404014587402343750e+01,-3.598288345336914062e+01
2.119999974966049194e-01,2.000000000000000000e+00,3.611090087890625000e+01,1.203899955749511719e+01,3.517411422729492188e+01,-1.092101745605468750e+02,9.086477661132812500e+01,-6.443096160888671875e+01,5.213206863403320312e+01,-1.475285053253173828e+01,-1.050794754028320312e+02,-1.152808380126953125e+02,6.403585052490234375e+01,-3.601339340209960938e+01
2.160000056028366089e-01,2.000000000000000000e+00,3.613962173461914062e+01,1.199078369140625000e+01,3.516886901855468750e+01,-1.092653274536132812e+02,9.086756134033203125e+01,-6.445610046386718750e+01,5.205892562866210938e+01,-1.474393463134765625e+01,-1.050942764282226562e+02,-1.153354797363281250e+02,6.403156280517578125e+01,-3.604389190673828125e+01
2.199999988079071045e-01,2.000000000000000000e+00,3.616833496093750000e+01,1.194257354736328125e+01,3.516362380981445312e+01,-1.093204803466796875e+02,9.087034606933593750e+01,-6.448123168945312500e+01,5.198579025268554688e+01,-1.473502159118652344e+01,-1.051090774536132812e+02,-1.153901214599609375e+02,6.402726745605468750e+01,-3.607439422607421875e+01
2.240000069141387939e-01,2.000000000000000000e+00,3.619704818725585938e+01,1.189437007904052734e+01,3.515837860107421875e+01,-1.093756179809570312e+02,9.087313079833984375e+01,-6.450636291503906250e+01,5.191265869140625000e+01,-1.472610855102539062e+01,-1.051238708496093750e+02,-1.154447479248046875e+02,6.402297973632812500e+01,-3.610488891601562500e+01
2.280000001192092896e-01,2.000000000000000000e+00,3.622576141357421875e+01,1.184617137908935547e+01,3.515313720703125000e+01,-1.094307556152343750e+02,9.087592315673828125e+01,-6.453148651123046875e+01,5.183954238891601562e+01,-1.471719646453857422e+01,-1.051386718750000000e+02,-1.154993591308593750e+02,6.401868438720703125e+01,-3.613538360595703125e+01
2.319999933242797852e-01,2.000000000000000000e+00,3.625446701049804688e+01,1.179797649383544922e+01,3.514789581298828125e+01,-1.094858856201171875e+02,9.087870788574218750e+01,-6.455661010742187500e+01,5.176642608642578125e+01,-1.470828628540039062e+01,-1.051534652709960938e+02,-1.155539779663085938e+02,6.401438903808593750e+01,-3.616587066650390625e+01
2.360000014305114746e-01,2.000000000000000000e+00,3.628317260742187500e+01,1.174978733062744141e+01,3.514265060424804688e+01,-1.095410079956054688e+02,9.088148498535156250e+01,-6.458173370361328125e+01,5.169332504272460938e+01,-1.469937705993652344e+01,-1.051682586669921875e+02,-1.156085891723632812e+02,6.401010131835937500e+01,-3.619635772705078125e+01
2.399999946355819702e-01,2.000000000000000000e+00,3.631187057495117188e+01,1.170160388946533203e+01,3.513740539550781250e+01,-1.095961227416992188e+02,9.088427734375000000e+01,-6.460684967041015625e+01,5.162022781372070312e+01,-1.469046688079833984e+01,-1.051830520629882812e+02,-1.156632003784179688e+02,6.400581359863281250e+01,-3.622684097290039062e+01
2.440000027418136597e-01,2.000000000000000000e+00,3.634056854248046875e+01,1.165342521667480469e+01,3.513216781616210938e+01,-1.096512374877929688e+02,9.088706207275390625e+01,-6.463196563720703125e+01,5.154713821411132812e+01,-1.468155860900878906e+01,-1.051978454589843750e+02,-1.157177886962890625e+02,6.400152587890625000e+01,-3.625732421875000000e+01
2.479999959468841553e-01,2.000000000000000000e+00,3.636926651000976562e+01,1.160525226593017578e+01,3.512692642211914062e+01,-1.097063446044921875e+02,9.088984680175781250e+01,-6.465708160400390625e+01,5.147405624389648438e+01,-1.467265224456787109e+01,-1.052126312255859375e+02,-1.157723922729492188e+02,6.399723434448242188e+01,-3.628779983520507812e+01
2.520000040531158447e-01,2.000000000000000000e+00,3.639795684814453125e+01,1.155708408355712891e+01,3.512168502807617188e+01,-1.097614440917968750e+02,9.089262390136718750e+01,-6.468218231201171875e+01,5.140098571777343750e+01,-1.466374492645263672e+01,-1.052274169921875000e+02,-1.158269805908203125e+02,6.399294281005859375e+01,-3.631827545166015625e+01
2.560000121593475342e-01,2.000000000000000000e+00,3.642664718627929688e+01,1.150892066955566406e+01,3.511644363403320312e+01,-1.098165359497070312e+02,9.089541625976562500e+01,-6.470729064941406250e+01,5.132791900634765625e+01,-1.465484046936035156e+01,-1.052422027587890625e+02,-1.158815612792968750e+02,6.398865509033203125e+01,-3.634874343872070312e+01
2.599999904632568359e-01,2.000000000000000000e+00,3.645532989501953125e+01,1.146076202392578125e+01,3.511120605468750000e+01,-1.098716278076171875e+02,9.089819335937500000e+01,-6.473239898681640625e+01,5.125485992431640625e+01,-1.464593505859375000e+01,-1.052569885253906250e+02,-1.159361343383789062e+02,6.398436737060546875e+01,-3.637921524047851562e+01
2.639999985694885254e-01,2.000000000000000000e+00,3.648401260375976562e+01,1.141260910034179688e+01,3.510596847534179688e+01,-1.099267044067382812e+02,9.090097808837890625e+01,-6.475749969482421875e+01,5.118181228637695312e+01,-1.463703250885009766e+01,-1.052717666625976562e+02,-1.159907073974609375e+02,6.398007583618164062e+01,-3.640967559814453125e+01
2.680000066757202148e-01,2.000000000000000000e+00,3.651269149780273438e+01,1.136446189880371094e+01,3.510072708129882812e+01,-1.099817810058593750e+02,9.090376281738281250e+01,-6.478260040283203125e+01,5.110876846313476562e+01,-1.462813091278076172e+01,-1.052865447998046875e+02,-1.160452728271484375e+02,6.397578811645507812e+01,-3.644013977050781250e+01
2.720000147819519043e-01,2.000000000000000000e+00,3.654137039184570312e+01,1.131631851196289062e+01,3.509548950195312500e+01,-1.100368576049804688e+02,9.090653991699218750e+01,-6.480770111083984375e+01,5.103573226928710938e+01,-1.461922931671142578e+01,-1.053013305664062500e+02,-1.160998306274414062e+02,6.397150421142578125e+01,-3.647059631347656250e+01
2.759999930858612061e-01,2.000000000000000000e+00,3.657004165649414062e+01,1.126817989349365234e+01,3.509025192260742188e+01,-1.100919189453125000e+02,9.090932464599609375e+01,-6.483279418945312500e+01,5.096270751953125000e+01,-1.461032772064208984e+01,-1.053161087036132812e+02,-1.161543884277343750e+02,6.396721649169921875e+01,-3.650104904174804688e+01
2.800000011920928955e-01,2.000000000000000000e+00,3.659871292114257812e+01,1.122004699707031250e+01,3.508501434326171875e+01,-1.101469802856445312e+02,9.091210937500000000e+01,-6.485788726806640625e+01,5.088968658447265625e+01,-1.460142803192138672e+01,-1.053308792114257812e+02,-1.162089385986328125e+02,6.396293258666992188e+01,-3.653150177001953125e+01
2.840000092983245850e-01,2.000000000000000000e+00,3.662738037109375000e+01,1.117191886901855469e+01,3.507978057861328125e+01,-1.102020339965820312e+02,9.091488647460937500e+01,-6.488297271728515625e+01,5.081667327880859375e+01,-1.459253025054931641e+01,-1.053456573486328125e+02,-1.162634811401367188e+02,6.395864486694335938e+01,-3.656195068359375000e+01
2.879999876022338867e-01,2.000000000000000000e+00,3.665604400634765625e+01,1.112379550933837891e+01,3.507454681396484375e+01,-1.102570800781250000e+02,9.091767120361328125e+01,-6.490805816650390625e+01,5.074366760253906250e+01,-1.458363246917724609e+01,-1.053604278564453125e+02,-1.163180160522460938e+02,6.395436096191406250e+01,-3.659239578247070312e+01
2.919999957084655762e-01,2.000000000000000000e+00,3.668470764160156250e+01,1.107567691802978516e+01,3.506930923461914062e+01,-1.103121261596679688e+02,9.092045593261718750e+01,-6.493315124511718750e+01,5.067066955566406250e+01,-1.457473468780517578e+01,-1.053752059936523438e+02,-1.163725433349609375e+02,6.395007705688476562e+01,-3.662284088134765625e+01
2.960000038146972656e-01,2.000000000000000000e+00,3.671336746215820312e+01,1.102756309509277344e+01,3.506407546997070312e+01,-1.103671646118164062e+02,9.092323303222656250e+01,-6.495822906494140625e+01,5.059767913818359375e+01,-1.456583786010742188e+01,-1.053899688720703125e+02,-1.164270782470703125e+02,6.394578933715820312e+01,-3.665327835083007812e+01
3.000000119209289551e-01,2.000000000000000000e+00,3.674202346801757812e+01,1.097945404052734375e+01,3.505883789062500000e+01,-1.104221954345703125e+02,9.092601013183593750e+01,-6.498330688476562500e+01,5.052469635009765625e+01,-1.455694293975830078e+01,-1.054047470092773438e+02,-1.164815979003906250e+02,6.394150543212890625e+01,-3.668371200561523438e+01
3.039999902248382568e-01,2.000000000000000000e+00,3.677067565917968750e+01,1.093134975433349609e+01,3.505360794067382812e+01,-1.104772186279296875e+02,9.092879486083984375e+01,-6.500838470458984375e+01,5.045172119140625000e+01,-1.454804897308349609e+01,-1.054195098876953125e+02,-1.165361022949218750e+02,6.393722534179687500e+01,-3.671414947509765625e+01
3.079999983310699463e-01,2.000000000000000000e+00,3.679932785034179688e+01,1.088325119018554688e+01,3.504837036132812500e+01,-1.105322418212890625e+02,9.093157196044921875e+01,-6.503345489501953125e+01,5.037875366210937500e+01,-1.453915596008300781e+01,-1.054342803955078125e+02,-1.165906219482421875e+02,6.393294143676757812e+01,-3.674457931518554688e+01
3.120000064373016357e-01,2.000000000000000000e+00,3.682797241210937500e+01,1.083515644073486328e+01,3.504314041137695312e+01,-1.105872573852539062e+02,9.093435668945312500e+01,-6.505853271484375000e+01,5.030578994750976562e+01,-1.453026294708251953e+01,-1.054490356445312500e+02,-1.166451263427734375e+02,6.392865753173828125e+01,-3.677500534057617188e+01
3.160000145435333252e-01,2.000000000000000000e+00,3.685662078857421875e+01,1.078706645965576172e+01,3.503790664672851562e+01,-1.106422729492187500e+02,9.093713378906250000e+01,-6.508359527587890625e+01,5.023283386230468750e+01,-1.452137184143066406e+01,-1.054638061523437500e+02,-1.166996154785156250e+02,6.392437744140625000e+01,-3.680542755126953125e+01
3.199999928474426270e-01,2.000000000000000000e+00,3.688526153564453125e+01,1.073898220062255859e+01,3.503267669677734375e+01,-1.106972732543945312e+02,9.093991088867187500e+01,-6.510866546630859375e+01,5.015988922119140625e+01,-1.451248073577880859e+01,-1.054785614013671875e+02,-1.167541198730468750e+02,6.392009353637695312e+01,-3.683584976196289062e+01
3.240000009536743164e-01,2.000000000000000000e+00,3.691390228271484375e+01,1.069090175628662109e+01,3.502744674682617188e+01,-1.107522735595703125e+02,9.094269561767578125e+01,-6.513372802734375000e+01,5.008694839477539062e+01,-1.450359058380126953e+01,-1.054933242797851562e+02,-1.168086013793945312e+02,6.391581726074218750e+01,-3.686626815795898438e+01
3.280000090599060059e-01,2.000000000000000000e+00,3.694253540039062500e+01,1.064282608032226562e+01,3.502221679687500000e+01,-1.108072662353515625e+02,9.094547271728515625e+01,-6.515879058837890625e+01,5.001401519775390625e+01,-1.449470138549804688e+01,-1.055080871582031250e+02,-1.168630905151367188e+02,6.391153717041015625e+01,-3.689668273925781250e+01
3.319999873638153076e-01,2.000000000000000000e+00,3.697116851806640625e+01,1.059475517272949219e+01,3.501698684692382812e+01,-1.108622589111328125e+02,9.094824218750000000e+01,-6.518385314941406250e+01,4.994108963012695312e+01,-1.448581409454345703e+01,-1.055228347778320312e+02,-1.169175643920898438e+02,6.390725326538085938e+01,-3.692709732055664062e+01
3.359999954700469971e-01,2.000000000000000000e+00,3.699980163574218750e+01,1.054668903350830078e+01,3.501175689697265625e+01,-1.109172363281250000e+02,9.095102691650390625e+01,-6.520890808105468750e+01,4.986817550659179688e+01,-1.447692584991455078e+01,-1.055375976562500000e+02,-1.169720306396484375e+02,6.390296936035156250e+01,-3.695750427246093750e+01
3.400000035762786865e-01,2.000000000000000000e+00,3.702843093872070312e+01,1.049862766265869141e+01,3.500652694702148438e+01,-1.109722137451171875e+02,9.095380401611328125e+01,-6.523396301269531250e+01,4.979526138305664062e+01,-1.446803951263427734e+01,-1.055523529052734375e+02,-1.170265121459960938e+02,6.389869308471679688e+01,-3.698791503906250000e+01
3.440000116825103760e-01,2.000000000000000000e+00,3.705705642700195312e+01,1.045057010650634766e+01,3.500129699707031250e+01,-1.110271835327148438e+02,9.095658111572265625e+01,-6.525901794433593750e+01,4.972235870361328125e+01,-1.445915412902832031e+01,-1.055671081542968750e+02,-1.170809631347656250e+02,6.389441299438476562e+01,-3.701831436157226562e+01
3.479999899864196777e-01,2.000000000000000000e+00,3.708567810058593750e+01,1.040251827239990234e+01,3.499607086181640625e+01,-1.110821533203125000e+02,9.095935821533203125e+01,-6.528406524658203125e+01,4.964946365356445312e+01,-1.445026969909667969e+01,-1.055818557739257812e+02,-1.171354217529296875e+02,6.389013671875000000e+01,-3.704871368408203125e+01
3.519999980926513672e-01,2.000000000000000000e+00,3.711429595947265625e+01,1.035447120666503906e+01,3.499084472656250000e+01,-1.111371154785156250e+02,9.096213531494140625e+01,-6.530911254882812500e+01,4.957656860351562500e+01,-1.444138526916503906e+01,-1.055966033935546875e+02,-1.171898727416992188e+02,6.388586044311523438e+01,-3.707911300659179688e+01
3.560000061988830566e-01,2.000000000000000000e+00,3.714291381835937500e+01,1.030642890930175781e+01,3.498561477661132812e+01,-1.111920700073242188e+02,9.096491241455078125e+01,-6.533415222167968750e+01,4.950368881225585938e+01,-1.443250274658203125e+01,-1.056113586425781250e+02,-1.172443237304687500e+02,6.388157653808593750e+01,-3.710950851440429688e+01
3.600000143051147461e-01,2.000000000000000000e+00,3.717152404785156250e+01,1.025839042663574219e+01,3.498039245605468750e+01,-1.112470245361328125e+02,9.096768951416015625e+01,-6.535919952392578125e+01,4.943080902099609375e+01,-1.442361927032470703e+01,-1.056261062622070312e+02,-1.172987594604492188e+02,6.387730407714843750e+01,-3.713990020751953125e+01
3.639999926090240479e-01,2.000000000000000000e+00,3.720013809204101562e+01,1.021035575866699219e+01,3.497516250610351562e+01,-1.113019714355468750e+02,9.097046661376953125e+01,-6.538423919677734375e+01,4.935794067382812500e+01,-1.441473865509033203e+01,-1.056408538818359375e+02,-1.173531951904296875e+02,6.387302780151367188e+01,-3.717028808593750000e+01
3.680000007152557373e-01,2.000000000000000000e+00,3.722874450683593750e+01,1.016232681274414062e+01,3.496993637084960938e+01,-1.113569107055664062e+02,9.097324371337890625e+01,-6.540927886962890625e+01,4.928507995605468750e+01,-1.440585803985595703e+01,-1.056555862426757812e+02,-1.174076232910156250e+02,6.386875152587890625e+01,-3.720067214965820312e+01
3.720000088214874268e-01,2.000000000000000000e+00,3.725735473632812500e+01,1.011430263519287109e+01,3.496471023559570312e+01,-1.114118499755859375e+02,9.097602081298828125e+01,-6.543431091308593750e+01,4.921222305297851562e+01,-1.439697837829589844e+01,-1.056703338623046875e+02,-1.174620590209960938e+02,6.386447525024414062e+01,-3.723105621337890625e+01
3.759999871253967285e-01,2.000000000000000000e+00,3.728595352172851562e+01,1.006628227233886719e+01,3.495949172973632812e+01,-1.114667739868164062e+02,9.097879028320312500e+01,-6.545934295654296875e+01,4.913937759399414062e+01,-1.438809967041015625e+01,-1.056850738525390625e+02,-1.175164642333984375e+02,6.386019897460937500e+01,-3.726143646240234375e+01
3.799999952316284180e-01,2.000000000000000000e+00,3.731455612182617188e+01,1.001826763153076172e+01,3.495426559448242188e+01,-1.115217056274414062e+02,9.098156738281250000e+01,-6.548437500000000000e+01,4.906653594970703125e+01,-1.437922191619873047e+01,-1.056998138427734375e+02,-1.175708923339843750e+02,6.385592269897460938e+01,-3.729181671142578125e+01
3.840000033378601074e-01,2.000000000000000000e+00,3.734315490722656250e+01,9.970255851745605469e+00,3.494903945922851562e+01,-1.115766220092773438e+02,9.098434448242187500e+01,-6.550940704345703125e+01,4.899369812011718750e+01,-1.437034416198730469e+01,-1.057145538330078125e+02,-1.176252975463867188e+02,6.385165023803710938e+01,-3.732218933105468750e+01
3.880000114440917969e-01,2.000000000000000000e+00,3.737174987792968750e+01,9.922248840332031250e+00,3.494381713867187500e+01,-1.116315307617187500e+02,9.098711395263671875e+01,-6.553443145751953125e+01,4.892087173461914062e+01,-1.436146831512451172e+01,-1.057292938232421875e+02,-1.176797103881835938e+02,6.384737396240234375e+01,-3.735255813598632812e+01
3.919999897480010986e-01,2.000000000000000000e+00,3.740034103393554688e+01,9.874247550964355469e+00,3.493859863281250000e+01,-1.116864471435546875e+02,9.098989105224609375e+01,-6.555945587158203125e+01,4.884805297851562500e+01,-1.435259246826171875e+01,-1.057440261840820312e+02,-1.177341003417968750e+02,6.384309768676757812e+01,-3.738293075561523438e+01
3.959999978542327881e-01,2.000000000000000000e+00,3.742893218994140625e+01,9.826250076293945312e+00,3.493337631225585938e+01,-1.117413482666015625e+02,9.099266815185546875e+01,-6.558447265625000000e+01,4.877523422241210938e+01,-1.434371662139892578e+01,-1.057587661743164062e+02,-1.177884979248046875e+02,6.383882141113281250e+01,-3.741329574584960938e+01
4.000000059604644775e-01,2.000000000000000000e+00,3.745751953125000000e+01,9.778256416320800781e+00,3.492815399169921875e+01,-1.117962493896484375e+02,9.099544525146484375e+01,-6.560949707031250000e+01,4.870242691040039062e+01,-1.433484458923339844e+01,-1.057734985351562500e+02,-1.178428802490234375e+02,6.383455276489257812e+01,-3.744365692138671875e+01
4.040000140666961670e-01,2.000000000000000000e+00,3.748610305786132812e+01,9.730267524719238281e+00,3.492293167114257812e+01,-1.118511428833007812e+02,9.099821472167968750e+01,-6.563451385498046875e+01,4.862963104248046875e+01,-1.432597064971923828e+01,-1.057882308959960938e+02,-1.178972778320312500e+02,6.383027648925781250e+01,-3.747401809692382812e+01
4.079999923706054688e-01,2.000000000000000000e+00,3.751468658447265625e+01,9.682284355163574219e+00,3.491770935058593750e+01,-1.119060287475585938e+02,9.100099182128906250e+01,-6.565952301025390625e+01,4.855683135986328125e+01,-1.431709861755371094e+01,-1.058029556274414062e+02,-1.179516448974609375e+02,6.382600784301757812e+01,-3.750437545776367188e+01
4.120000004768371582e-01,2.000000000000000000e+00,3.754326629638671875e+01,9.634304046630859375e+00,3.491249084472656250e+01,-1.119609222412109375e+02,9.100376129150390625e+01,-6.568453979492187500e+01,4.848404693603515625e+01,-1.430822753906250000e+01,-1.058176879882812500e+02,-1.180060272216796875e+02,6.382173156738281250e+01,-3.753473281860351562e+01
4.160000085830688477e-01,2.000000000000000000e+00,3.757183837890625000e+01,9.586328506469726562e+00,3.490726852416992188e+01,-1.120158004760742188e+02,9.100653076171875000e+01,-6.570954895019531250e+01,4.841126632690429688e+01,-1.429935646057128906e+01,-1.058324127197265625e+02,-1.180603942871093750e+02,6.381746292114257812e+01,-3.756508255004882812e+01
4.199999868869781494e-01,2.000000000000000000e+00,3.760041427612304688e+01,9.538357734680175781e+00,3.490205001831054688e+01,-1.120706710815429688e+02,9.100930786132812500e+01,-6.573455047607421875e+01,4.833849334716796875e+01,-1.429048633575439453e+01,-1.058471450805664062e+02,-1.181147613525390625e+02,6.381318664550781250e+01,-3.759543228149414062e+01
4.239999949932098389e-01,2.000000000000000000e+00,3.762898635864257812e+01,9.490390777587890625e+00,3.489683532714843750e+01,-1.121255416870117188e+02,9.101207733154296875e+01,-6.575955963134765625e+01,4.826572418212890625e+01,-1.428161716461181641e+01,-1.058618698120117188e+02,-1.181691207885742188e+02,6.380891799926757812e+01,-3.762577819824218750e+01
4.280000030994415283e-01,2.000000000000000000e+00,3.765755462646484375e+01,9.442428588867187500e+00,3.489161682128906250e+01,-1.121804046630859375e+02,9.101484680175781250e+01,-6.578456115722656250e+01,4.819296264648437500e+01,-1.427274894714355469e+01,-1.058765945434570312e+02,-1.182234725952148438e+02,6.380464935302734375e+01,-3.765612030029296875e+01
4.320000112056732178e-01,2.000000000000000000e+00,3.768612289428710938e+01,9.394470214843750000e+00,3.488639831542968750e+01,-1.122352676391601562e+02,9.101761627197265625e+01,-6.580956268310546875e+01,4.812020874023437500e+01,-1.426388168334960938e+01,-1.058913116455078125e+02,-1.182778244018554688e+02,6.380037307739257812e+01,-3.768646240234375000e+01
4.359999895095825195e-01,2.000000000000000000e+00,3.771468734741210938e+01,9.346516609191894531e+00,3.488117980957031250e+01,-1.122901229858398438e+02,9.102039337158203125e+01,-6.583456420898437500e+01,4.804746246337890625e+01,-1.425501537322998047e+01,-1.059060363769531250e+02,-1.183321685791015625e+02,6.379610443115234375e+01,-3.771680068969726562e+01
4.399999976158142090e-01,2.000000000000000000e+00,3.774324798583984375e+01,9.298567771911621094e+00,3.487596511840820312e+01,-1.123449707031250000e+02,9.102316284179687500e+01,-6.585955810546875000e+01,4.797472000122070312e+01,-1.424615001678466797e+01,-1.059207611083984375e+02,-1.183865127563476562e+02,6.379183578491210938e+01,-3.774713516235351562e+01
4.440000057220458984e-01,2.000000000000000000e+00,3.777180480957031250e+01,9.250621795654296875e+00,3.487074661254882812e+01,-1.123998107910156250e+02,9.102593231201171875e+01,-6.588455200195312500e+01,4.790198516845703125e+01,-1.423728466033935547e+01,-1.059354782104492188e+02,-1.184408493041992188e+02,6.378756713867187500e+01,-3.777746963500976562e+01
4.480000138282775879e-01,2.000000000000000000e+00,3.780036163330078125e+01,9.202681541442871094e+00,3.486553192138671875e+01,-1.124546508789062500e+02,9.102870178222656250e+01,-6.590954589843750000e+01,4.782925796508789062e+01,-1.422842025756835938e+01,-1.059501876831054688e+02,-1.184951782226562500e+02,6.378329849243164062e+01,-3.780780029296875000e+01
4.519999921321868896e-01,2.000000000000000000e+00,3.782891464233398438e+01,9.154745101928710938e+00,3.486031723022460938e+01,-1.125094833374023438e+02,9.103147888183593750e+01,-6.593453216552734375e+01,4.775653457641601562e+01,-1.421955776214599609e+01,-1.059649047851562500e+02,-1.185495071411132812e+02,6.377902984619140625e+01,-3.783812332153320312e+01
4.560000002384185791e-01,2.000000000000000000e+00,3.785746383666992188e+01,9.106812477111816406e+00,3.485510253906250000e+01,-1.125643157958984375e+02,9.103424072265625000e+01,-6.595951843261718750e+01,4.768381881713867188e+01,-1.421069431304931641e+01,-1.059796218872070312e+02,-1.186038208007812500e+02,6.377476119995117188e+01,-3.786845016479492188e+01
4.600000083446502686e-01,2.000000000000000000e+00,3.788601303100585938e+01,9.058884620666503906e+00,3.484988784790039062e+01,-1.126191482543945312e+02,9.103701782226562500e+01,-6.598450469970703125e+01,4.761111068725585938e+01,-1.420183277130126953e+01,-1.059943389892578125e+02,-1.186581344604492188e+02,6.377050018310546875e+01,-3.789877319335937500e+01
4.639999866485595703e-01,2.000000000000000000e+00,3.791456222534179688e+01,9.010960578918457031e+00,3.484467315673828125e+01,-1.126739654541015625e+02,9.103978729248046875e+01,-6.600949096679687500e+01,4.753840637207031250e+01,-1.419297218322753906e+01,-1.060090484619140625e+02,-1.187124481201171875e+02,6.376623153686523438e+01,-3.792909240722656250e+01
4.679999947547912598e-01,2.000000000000000000e+00,3.794310379028320312e+01,8.963040351867675781e+00,3.483945846557617188e+01,-1.127287826538085938e+02,9.104255676269531250e+01,-6.603446960449218750e+01,4.746570968627929688e+01,-1.418411159515380859e+01,-1.060237579345703125e+02,-1.187667617797851562e+02,6.376196289062500000e+01,-3.795940780639648438e+01
4.720000028610229492e-01,2.000000000000000000e+00,3.797164535522460938e+01,8.915124893188476562e+00,3.483424377441406250e+01,-1.127835922241210938e+02,9.104532623291015625e+01,-6.605944824218750000e+01,4.739302062988281250e+01,-1.417525196075439453e+01,-1.060384674072265625e+02,-1.188210601806640625e+02,6.375769424438476562e+01,-3.798971939086914062e+01
4.760000109672546387e-01,2.000000000000000000e+00,3.800018310546875000e+01,8.867214202880859375e+00,3.482903289794921875e+01,-1.128383941650390625e+02,9.104809570312500000e+01,-6.608442687988281250e+01,4.732033538818359375e+01,-1.416639328002929688e+01,-1.060531768798828125e+02,-1.188753585815429688e+02,6.375342941284179688e+01,-3.802003479003906250e+01
4.799999892711639404e-01,2.000000000000000000e+00,3.802871704101562500e+01,8.819306373596191406e+00,3.482382202148437500e+01,-1.128931961059570312e+02,9.105086517333984375e+01,-6.610939788818359375e+01,4.724766159057617188e+01,-1.415753555297851562e+01,-1.060678863525390625e+02,-1.189296493530273438e+02,6.374916076660156250e+01,-3.805034255981445312e+01
4.839999973773956299e-01,2.000000000000000000e+00,3.805725097656250000e+01,8.771403312683105469e+00,3.481861114501953125e+01,-1.129479980468750000e+02,9.105363464355468750e+01,-6.613437652587890625e+01,4.717499160766601562e+01,-1.414867782592773438e+01,-1.060825958251953125e+02,-1.189839324951171875e+02,6.374489974975585938e+01,-3.808064651489257812e+01
4.880000054836273193e-01,2.000000000000000000e+00,3.808578491210937500e+01,8.723505020141601562e+00,3.481340026855468750e+01,-1.130027923583984375e+02,9.105640411376953125e+01,-6.615933990478515625e+01,4.710232543945312500e+01,-1.413982200622558594e+01,-1.060972900390625000e+02,-1.190382156372070312e+02,6.374063110351562500e+01,-3.811095428466796875e+01
4.920000135898590088e-01,2.000000000000000000e+00,3.811431503295898438e+01,8.675609588623046875e+00,3.480818939208984375e+01,-1.130575714111328125e+02,9.105916595458984375e+01,-6.618431091308593750e+01,4.702966308593750000e+01,-1.413096618652343750e+01,-1.061119995117187500e+02,-1.190924911499023438e+02,6.373637008666992188e+01,-3.814125061035156250e+01
4.959999918937683105e-01,2.000000000000000000e+00,3.814284133911132812e+01,8.627718925476074219e+00,3.480297470092773438e+01,-1.131123504638671875e+02,9.106194305419921875e+01,-6.620927429199218750e+01,4.695701599121093750e+01,-1.412211132049560547e+01,-1.061267013549804688e+02,-1.191467666625976562e+02,6.373210525512695312e+01,-3.817155075073242188e+01
5.000000000000000000e-01,2.000000000000000000e+00,3.817136383056640625e+01,8.579832077026367188e+00,3.479776763916015625e+01,-1.131671295166015625e+02,9.106470489501953125e+01,-6.623423767089843750e+01,4.688436889648437500e+01,-1.411325645446777344e+01,-1.061414031982421875e+02,-1.192010345458984375e+02,6.372783660888671875e+01,-3.820184707641601562e+01
5.040000081062316895e-01,2.000000000000000000e+00,3.819988250732421875e+01,8.531949996948242188e+00,3.479255676269531250e+01,-1.132219085693359375e+02,9.106747436523437500e+01,-6.625919342041015625e+01,4.681172561645507812e+01,-1.410440349578857422e+01,-1.061560974121093750e+02,-1.192552947998046875e+02,6.372357559204101562e+01,-3.823213958740234375e+01
5.080000162124633789e-01,2.000000000000000000e+00,3.822840118408203125e+01,8.484070777893066406e+00,3.478734970092773438e+01,-1.132766723632812500e+02,9.107023620605468750e+01,-6.628415679931640625e+01,4.673909378051757812e+01,-1.409555053710937500e+01,-1.061707992553710938e+02,-1.193095550537109375e+02,6.371931457519531250e+01,-3.826242828369140625e+01
5.120000243186950684e-01,2.000000000000000000e+00,3.825691986083984375e+01,8.436195373535156250e+00,3.478214263916015625e+01,-1.133314361572265625e+02,9.107300567626953125e+01,-6.630912017822265625e+01,4.666646575927734375e+01,-1.408669948577880859e+01,-1.061854934692382812e+02,-1.193638153076171875e+02,6.371504974365234375e+01,-3.829271697998046875e+01
5.159999728202819824e-01,2.000000000000000000e+00,3.828543472290039062e+01,8.388325691223144531e+00,3.477693176269531250e+01,-1.133861999511718750e+02,9.107577514648437500e+01,-6.633406829833984375e+01,4.659384536743164062e+01,-1.407784748077392578e+01,-1.062001876831054688e+02,-1.194180755615234375e+02,6.371078872680664062e+01,-3.832300186157226562e+01
5.199999809265136719e-01,2.000000000000000000e+00,3.831394577026367188e+01,8.340457916259765625e+00,3.477172470092773438e+01,-1.134409561157226562e+02,9.107853698730468750e+01,-6.635902404785156250e+01,4.652122879028320312e+01,-1.406899738311767578e+01,-1.062148895263671875e+02,-1.194723205566406250e+02,6.370652770996093750e+01,-3.835328674316406250e+01
5.239999890327453613e-01,2.000000000000000000e+00,3.834245681762695312e+01,8.292594909667968750e+00,3.476651763916015625e+01,-1.134957046508789062e+02,9.108130645751953125e+01,-6.638397216796875000e+01,4.644861602783203125e+01,-1.406014823913574219e+01,-1.062295761108398438e+02,-1.195265502929687500e+02,6.370226669311523438e+01,-3.838356781005859375e+01
5.279999971389770508e-01,2.000000000000000000e+00,3.837096405029296875e+01,8.244735717773437500e+00,3.476131057739257812e+01,-1.135504455566406250e+02,9.108406829833984375e+01,-6.640892028808593750e+01,4.637601470947265625e+01,-1.405129814147949219e+01,-1.062442703247070312e+02,-1.195807952880859375e+02,6.369800186157226562e+01,-3.841384506225585938e+01
5.320000052452087402e-01,2.000000000000000000e+00,3.839947128295898438e+01,8.196880340576171875e+00,3.475610351562500000e+01,-1.136051940917968750e+02,9.108683776855468750e+01,-6.643386840820312500e+01,4.630341339111328125e+01,-1.404244995117187500e+01,-1.062589645385742188e+02,-1.196350250244140625e+02,6.369374084472656250e+01,-3.844412231445312500e+01
5.360000133514404297e-01,2.000000000000000000e+00,3.842797470092773438e+01,8.149028778076171875e+00,3.475089645385742188e+01,-1.136599273681640625e+02,9.108959960937500000e+01,-6.645881652832031250e+01,4.623082351684570312e+01,-1.403360271453857422e+01,-1.062736511230468750e+02,-1.196892547607421875e+02,6.368947982788085938e+01,-3.847439575195312500e+01
5.400000214576721191e-01,2.000000000000000000e+00,3.845647430419921875e+01,8.101181030273437500e+00,3.474569320678710938e+01,-1.137146606445312500e+02,9.109236907958984375e+01,-6.648375701904296875e+01,4.615823364257812500e+01,-1.402475547790527344e+01,-1.062883377075195312e+02,-1.197434768676757812e+02,6.368521881103515625e+01,-3.850466537475585938e+01
5.440000295639038086e-01,2.000000000000000000e+00,3.848497390747070312e+01,8.053336143493652344e+00,3.474048614501953125e+01,-1.137693862915039062e+02,9.109513854980468750e+01,-6.650870513916015625e+01,4.608565521240234375e+01,-1.401590919494628906e+01,-1.063030242919921875e+02,-1.197976913452148438e+02,6.368096160888671875e+01,-3.853493499755859375e+01
5.479999780654907227e-01,2.000000000000000000e+00,3.851346969604492188e+01,8.005496025085449219e+00,3.473528289794921875e+01,-1.138241119384765625e+02,9.109790039062500000e+01,-6.653363800048828125e+01,4.601308059692382812e+01,-1.400706481933593750e+01,-1.063177185058593750e+02,-1.198519134521484375e+02,6.367670059204101562e+01,-3.856520080566406250e+01
5.519999861717224121e-01,2.000000000000000000e+00,3.854196166992187500e+01,7.957659721374511719e+00,3.473007965087890625e+01,-1.138788375854492188e+02,9.110066986083984375e+01,-6.655857849121093750e+01,4.594050979614257812e+01,-1.399821949005126953e+01,-1.063323974609375000e+02,-1.199061279296875000e+02,6.367243957519531250e+01,-3.859546661376953125e+01
5.559999942779541016e-01,2.000000000000000000e+00,3.857045364379882812e+01,7.909826278686523438e+00,3.472487258911132812e+01,-1.139335556030273438e+02,9.110342407226562500e+01,-6.658351135253906250e+01,4.586794281005859375e+01,-1.398937511444091797e+01,-1.063470840454101562e+02,-1.199603347778320312e+02,6.366818237304687500e+01,-3.862572860717773438e+01
5.600000023841857910e-01,2.000000000000000000e+00,3.859894561767578125e+01,7.861997127532958984e+00,3.471966934204101562e+01,-1.139882659912109375e+02,9.110619354248046875e+01,-6.660844421386718750e+01,4.579538345336914062e+01,-1.398053169250488281e+01,-1.063617630004882812e+02,-1.200145416259765625e+02,6.366392135620117188e+01,-3.865598678588867188e+01
5.640000104904174805e-01,2.000000000000000000e+00,3.862742996215820312e+01,7.814171791076660156e+00,3.471446228027343750e+01,-1.140429763793945312e+02,9.110896301269531250e+01,-6.663336944580078125e+01,4.572283172607421875e+01,-1.397168827056884766e+01,-1.063764495849609375e+02,-1.200687408447265625e+02,6.365966415405273438e+01,-3.868624496459960938e+01
5.680000185966491699e-01,2.000000000000000000e+00,3.865591812133789062e+01,7.766349315643310547e+00,3.470926284790039062e+01,-1.140976791381835938e+02,9.111171722412109375e+01,-6.665830230712890625e+01,4.565028381347656250e+01,-1.396284675598144531e+01,-1.063911285400390625e+02,-1.201229324340820312e+02,6.365540313720703125e+01,-3.871649932861328125e+01
5.720000267028808594e-01,2.000000000000000000e+00,3.868440246582031250e+01,7.718531131744384766e+00,3.470405960083007812e+01,-1.141523818969726562e+02,9.111448669433593750e+01,-6.668323516845703125e+01,4.557773971557617188e+01,-1.395400524139404297e+01,-1.064058074951171875e+02,-1.201771240234375000e+02,6.365114974975585938e+01,-3.874674987792968750e+01
5.759999752044677734e-01,2.000000000000000000e+00,3.871287918090820312e+01,7.670715808868408203e+00,3.469885635375976562e+01,-1.142070770263671875e+02,9.111724853515625000e+01,-6.670816040039062500e+01,4.550520324707031250e+01,-1.394516372680664062e+01,-1.064204864501953125e+02,-1.202313156127929688e+02,6.364689254760742188e+01,-3.877700424194335938e+01
5.799999833106994629e-01,2.000000000000000000e+00,3.874136352539062500e+01,7.622904300689697266e+00,3.469365692138671875e+01,-1.142617645263671875e+02,9.112001037597656250e+01,-6.673307800292968750e+01,4.543267059326171875e+01,-1.393632316589355469e+01,-1.064351654052734375e+02,-1.202854919433593750e+02,6.364263153076171875e+01,-3.880725097656250000e+01
5.839999914169311523e-01,2.000000000000000000e+00,3.876983642578125000e+01,7.575096607208251953e+00,3.468845367431640625e+01,-1.143164520263671875e+02,9.112277984619140625e+01,-6.675800323486328125e+01,4.536014556884765625e+01,-1.392748451232910156e+01,-1.064498367309570312e+02,-1.203396835327148438e+02,6.363837432861328125e+01,-3.883749389648437500e+01
5.879999995231628418e-01,2.000000000000000000e+00,3.879831314086914062e+01,7.527292251586914062e+00,3.468325424194335938e+01,-1.143711395263671875e+02,9.112553405761718750e+01,-6.678292846679687500e+01,4.528762435913085938e+01,-1.391864490509033203e+01,-1.064645156860351562e+02,-1.203938598632812500e+02,6.363412094116210938e+01,-3.886773681640625000e+01
5.920000076293945312e-01,2.000000000000000000e+00,3.882678604125976562e+01,7.479490756988525391e+00,3.467805099487304688e+01,-1.144258193969726562e+02,9.112830352783203125e+01,-6.680784606933593750e+01,4.521510696411132812e+01,-1.390980720520019531e+01,-1.064791870117187500e+02,-1.204480209350585938e+02,6.362986373901367188e+01,-3.889797973632812500e+01
5.960000157356262207e-01,2.000000000000000000e+00,3.885525512695312500e+01,7.431694030761718750e+00,3.467285537719726562e+01,-1.144804916381835938e+02,9.113106536865234375e+01,-6.683275604248046875e+01,4.514259719848632812e+01,-1.390096855163574219e+01,-1.064938659667968750e+02,-1.205021896362304688e+02,6.362561035156250000e+01,-3.892821884155273438e+01
6.000000238418579102e-01,2.000000000000000000e+00,3.888372421264648438e+01,7.383899688720703125e+00,3.466765213012695312e+01,-1.145351638793945312e+02,9.113382720947265625e+01,-6.685767364501953125e+01,4.507009124755859375e+01,-1.389213180541992188e+01,-1.065085372924804688e+02,-1.205563659667968750e+02,6.362135314941406250e+01,-3.895845794677734375e+01
6.039999723434448242e-01,2.000000000000000000e+00,3.891219329833984375e+01,7.336109161376953125e+00,3.466245269775390625e+01,-1.145898361206054688e+02,9.113658905029296875e+01,-6.688259124755859375e+01,4.499758911132812500e+01,-1.388329505920410156e+01,-1.065232086181640625e+02,-1.206105117797851562e+02,6.361709213256835938e+01,-3.898868942260742188e+01
6.079999804496765137e-01,2.000000000000000000e+00,3.894065856933593750e+01,7.288322448730468750e+00,3.465725326538085938e+01,-1.146444931030273438e+02,9.113935089111328125e+01,-6.690750122070312500e+01,4.492509460449218750e+01,-1.387445926666259766e+01,-1.065378799438476562e+02,-1.206646804809570312e+02,6.361283874511718750e+01,-3.901892471313476562e+01
6.119999885559082031e-01,2.000000000000000000e+00,3.896912002563476562e+01,7.240538597106933594e+00,3.465205764770507812e+01,-1.146991500854492188e+02,9.114211273193359375e+01,-6.693241119384765625e+01,4.485260772705078125e+01,-1.386562442779541016e+01,-1.065525436401367188e+02,-1.207188262939453125e+02,6.360858917236328125e+01,-3.904915618896484375e+01
6.159999966621398926e-01,2.000000000000000000e+00,3.899758148193359375e+01,7.192758560180664062e+00,3.464685821533203125e+01,-1.147538070678710938e+02,9.114487457275390625e+01,-6.695732116699218750e+01,4.478012084960937500e+01,-1.385678958892822266e+01,-1.065672149658203125e+02,-1.207729797363281250e+02,6.360433578491210938e+01,-3.907938385009765625e+01
6.200000047683715820e-01,2.000000000000000000e+00,3.902603912353515625e+01,7.144981384277343750e+00,3.464165878295898438e+01,-1.148084564208984375e+02,9.114762878417968750e+01,-6.698222351074218750e+01,4.470764160156250000e+01,-1.384795570373535156e+01,-1.065818786621093750e+02,-1.208271102905273438e+02,6.360007858276367188e+01,-3.910960769653320312e+01
6.240000128746032715e-01,2.000000000000000000e+00,3.905449295043945312e+01,7.097208023071289062e+00,3.463646316528320312e+01,-1.148631134033203125e+02,9.115039825439453125e+01,-6.700712585449218750e+01,4.463516616821289062e+01,-1.383912277221679688e+01,-1.065965499877929688e+02,-1.208812637329101562e+02,6.359582519531250000e+01,-3.913983154296875000e+01
6.280000209808349609e-01,2.000000000000000000e+00,3.908294677734375000e+01,7.049437999725341797e+00,3.463126754760742188e+01,-1.149177551269531250e+02,9.115316009521484375e+01,-6.703202819824218750e+01,4.456269836425781250e+01,-1.383029079437255859e+01,-1.066112136840820312e+02,-1.209354019165039062e+02,6.359156799316406250e+01,-3.917005538940429688e+01
6.320000290870666504e-01,2.000000000000000000e+00,3.911139678955078125e+01,7.001671314239501953e+00,3.462606811523437500e+01,-1.149723968505859375e+02,9.115591430664062500e+01,-6.705693054199218750e+01,4.449023437500000000e+01,-1.382145786285400391e+01,-1.066258773803710938e+02,-1.209895324707031250e+02,6.358731842041015625e+01,-3.920027542114257812e+01
6.359999775886535645e-01,2.000000000000000000e+00,3.913985061645507812e+01,6.953907966613769531e+00,3.462086868286132812e+01,-1.150270385742187500e+02,9.115867614746093750e+01,-6.708183288574218750e+01,4.441777420043945312e+01,-1.381262683868408203e+01,-1.066405334472656250e+02,-1.210436553955078125e+02,6.358306503295898438e+01,-3.923049163818359375e+01
6.399999856948852539e-01,2.000000000000000000e+00,3.916829681396484375e+01,6.906147956848144531e+00,3.461567687988281250e+01,-1.150816650390625000e+02,9.116144561767578125e+01,-6.710673522949218750e+01,4.434532165527343750e+01,-1.380379581451416016e+01,-1.066552047729492188e+02,-1.210977783203125000e+02,6.357881164550781250e+01,-3.926071166992187500e+01
6.439999938011169434e-01,2.000000000000000000e+00,3.919674682617187500e+01,6.858391284942626953e+00,3.461047744750976562e+01,-1.151362915039062500e+02,9.116419982910156250e+01,-6.713162994384765625e+01,4.427286911010742188e+01,-1.379496574401855469e+01,-1.066698608398437500e+02,-1.211519012451171875e+02,6.357456207275390625e+01,-3.929092407226562500e+01
6.480000019073486328e-01,2.000000000000000000e+00,3.922518920898437500e+01,6.810637950897216797e+00,3.460528182983398438e+01,-1.151909255981445312e+02,9.116696166992187500e+01,-6.715651702880859375e+01,4.420042419433593750e+01,-1.378613567352294922e+01,-1.066845245361328125e+02,-1.212060241699218750e+02,6.357030487060546875e+01,-3.932113265991210938e+01
6.520000100135803223e-01,2.000000000000000000e+00,3.925363159179687500e+01,6.762887477874755859e+00,3.460009002685546875e+01,-1.152455368041992188e+02,9.116972351074218750e+01,-6.718141174316406250e+01,4.412798690795898438e+01,-1.377730751037597656e+01,-1.066991806030273438e+02,-1.212601318359375000e+02,6.356605911254882812e+01,-3.935134124755859375e+01
6.560000181198120117e-01,2.000000000000000000e+00,3.928207015991210938e+01,6.715140819549560547e+00,3.459489440917968750e+01,-1.153001632690429688e+02,9.117247772216796875e+01,-6.720630645751953125e+01,4.405555343627929688e+01,-1.376847934722900391e+01,-1.067138366699218750e+02,-1.213142547607421875e+02,6.356180191040039062e+01,-3.938155364990234375e+01
6.600000262260437012e-01,2.000000000000000000e+00,3.931051254272460938e+01,6.667397022247314453e+00,3.458969879150390625e+01,-1.153547821044921875e+02,9.117523956298828125e+01,-6.723119354248046875e+01,4.398312377929687500e+01,-1.375965118408203125e+01,-1.067284927368164062e+02,-1.213683547973632812e+02,6.355755615234375000e+01,-3.941175460815429688e+01
6.639999747276306152e-01,2.000000000000000000e+00,3.933894729614257812e+01,6.619656562805175781e+00,3.458450698852539062e+01,-1.154093780517578125e+02,9.117800140380859375e+01,-6.725608062744140625e+01,4.391069793701171875e+01,-1.375082397460937500e+01,-1.067431564331054688e+02,-1.214224624633789062e+02,6.355329895019531250e+01,-3.944195938110351562e+01
6.679999828338623047e-01,2.000000000000000000e+00,3.936738204956054688e+01,6.571919918060302734e+00,3.457931137084960938e+01,-1.154639968872070312e+02,9.118075561523437500e+01,-6.728096008300781250e+01,4.383828353881835938e+01,-1.374199771881103516e+01,-1.067578048706054688e+02,-1.214765548706054688e+02,6.354904937744140625e+01,-3.947216415405273438e+01
6.719999909400939941e-01,2.000000000000000000e+00,3.939581298828125000e+01,6.524185657501220703e+00,3.457411575317382812e+01,-1.155185928344726562e+02,9.118351745605468750e+01,-6.730584716796875000e+01,4.376586914062500000e+01,-1.373317146301269531e+01,-1.067724609375000000e+02,-1.215306472778320312e+02,6.354480361938476562e+01,-3.950235748291015625e+01
6.759999990463256836e-01,2.000000000000000000e+00,3.942424392700195312e+01,6.476455211639404297e+00,3.456892776489257812e+01,-1.155731964111328125e+02,9.118627929687500000e+01,-6.733072662353515625e+01,4.369345855712890625e+01,-1.372434616088867188e+01,-1.067871093750000000e+02,-1.215847473144531250e+02,6.354054641723632812e+01,-3.953255844116210938e+01
6.800000071525573730e-01,2.000000000000000000e+00,3.945267486572265625e+01,6.428727149963378906e+00,3.456373214721679688e+01,-1.156277923583984375e+02,9.118903350830078125e+01,-6.735561370849609375e+01,4.362105178833007812e+01,-1.371552085876464844e+01,-1.068017654418945312e+02,-1.216388397216796875e+02,6.353629684448242188e+01,-3.956275177001953125e+01
6.840000152587890625e-01,2.000000000000000000e+00,3.948110198974609375e+01,6.381002902984619141e+00,3.455854034423828125e+01,-1.156823806762695312e+02,9.119178771972656250e+01,-6.738049316406250000e+01,4.354865264892578125e+01,-1.370669746398925781e+01,-1.068164138793945312e+02,-1.216929244995117188e+02,6.353205108642578125e+01,-3.959294509887695312e+01
6.880000233650207520e-01,2.000000000000000000e+00,3.950952529907226562e+01,6.333282470703125000e+00,3.455334854125976562e+01,-1.157369689941406250e+02,9.119454956054687500e+01,-6.740536499023437500e+01,4.347625732421875000e+01,-1.369787406921386719e+01,-1.068310623168945312e+02,-1.217470016479492188e+02,6.352780151367187500e+01,-3.962313842773437500e+01
6.919999718666076660e-01,2.000000000000000000e+00,3.953795242309570312e+01,6.285563945770263672e+00,3.454815673828125000e+01,-1.157915573120117188e+02,9.119731140136718750e+01,-6.743024444580078125e+01,4.340386962890625000e+01,-1.368905067443847656e+01,-1.068457183837890625e+02,-1.218010864257812500e+02,6.352355194091796875e+01,-3.965332794189453125e+01
6.959999799728393555e-01,2.000000000000000000e+00,3.956637191772460938e+01,6.237849235534667969e+00,3.454296493530273438e+01,-1.158461456298828125e+02,9.120006561279296875e+01,-6.745511627197265625e+01,4.333148193359375000e+01,-1.368022823333740234e+01,-1.068603591918945312e+02,-1.218551559448242188e+02,6.351930618286132812e+01,-3.968351364135742188e+01
6.999999880790710449e-01,2.000000000000000000e+00,3.959479141235351562e+01,6.190137863159179688e+00,3.453777313232421875e+01,-1.159007186889648438e+02,9.120281982421875000e+01,-6.747998809814453125e+01,4.325910186767578125e+01,-1.367140674591064453e+01,-1.068750076293945312e+02,-1.219092178344726562e+02,6.351505661010742188e+01,-3.971369934082031250e+01
7.039999961853027344e-01,2.000000000000000000e+00,3.962320709228515625e+01,6.142429351806640625e+00,3.453258132934570312e+01,-1.159552917480468750e+02,9.120558166503906250e+01,-6.750485992431640625e+01,4.318672561645507812e+01,-1.366258525848388672e+01,-1.068896560668945312e+02,-1.219632873535156250e+02,6.351080703735351562e+01,-3.974388122558593750e+01
7.080000042915344238e-01,2.000000000000000000e+00,3.965162658691406250e+01,6.094723701477050781e+00,3.452739715576171875e+01,-1.160098648071289062e+02,9.120833587646484375e+01,-6.752972412109375000e+01,4.311435317993164062e+01,-1.365376472473144531e+01,-1.069042968750000000e+02,-1.220173568725585938e+02,6.350656127929687500e+01,-3.977405929565429688e+01
7.120000123977661133e-01,2.000000000000000000e+00,3.968003845214843750e+01,6.047021389007568359e+00,3.452220535278320312e+01,-1.160644226074218750e+02,9.121109008789062500e+01,-6.755459594726562500e+01,4.304198837280273438e+01,-1.364494514465332031e+01,-1.069189453125000000e+02,-1.220714263916015625e+02,6.350231170654296875e+01,-3.980423736572265625e+01
7.160000205039978027e-01,2.000000000000000000e+00,3.970845031738281250e+01,5.999321937561035156e+00,3.451701354980468750e+01,-1.161189956665039062e+02,9.121385192871093750e+01,-6.757946014404296875e+01,4.296962738037109375e+01,-1.363612461090087891e+01,-1.069335861206054688e+02,-1.221254806518554688e+02,6.349806213378906250e+01,-3.983441925048828125e+01
7.200000286102294922e-01,2.000000000000000000e+00,3.973686218261718750e+01,5.951625823974609375e+00,3.451182556152343750e+01,-1.161735534667968750e+02,9.121661376953125000e+01,-6.760432434082031250e+01,4.289727020263671875e+01,-1.362730598449707031e+01,-1.069482269287109375e+02,-1.221795349121093750e+02,6.349382019042968750e+01,-3.986459350585937500e+01
7.239999771118164062e-01,2.000000000000000000e+00,3.976527023315429688e+01,5.903932571411132812e+00,3.450663375854492188e+01,-1.162281036376953125e+02,9.121936035156250000e+01,-6.762918853759765625e+01,4.282491683959960938e+01,-1.361848735809326172e+01,-1.069628677368164062e+02,-1.222335739135742188e+02,6.348957443237304688e+01,-3.989476776123046875e+01
7.279999852180480957e-01,2.000000000000000000e+00,3.979367446899414062e+01,5.856242656707763672e+00,3.450144577026367188e+01,-1.162826614379882812e+02,9.122212219238281250e+01,-6.765405273437500000e+01,4.275256729125976562e+01,-1.360966968536376953e+01,-1.069775085449218750e+02,-1.222876281738281250e+02,6.348532485961914062e+01,-3.992493820190429688e+01
7.319999933242797852e-01,2.000000000000000000e+00,3.982207870483398438e+01,5.808555603027343750e+00,3.449626159667968750e+01,-1.163372039794921875e+02,9.122487640380859375e+01,-6.767890930175781250e+01,4.268022537231445312e+01,-1.360085296630859375e+01,-1.069921493530273438e+02,-1.223416671752929688e+02,6.348107528686523438e+01,-3.995510864257812500e+01
7.360000014305114746e-01,2.000000000000000000e+00,3.985048294067382812e+01,5.760871410369873047e+00,3.449107360839843750e+01,-1.163917541503906250e+02,9.122763824462890625e+01,-6.770376586914062500e+01,4.260788345336914062e+01,-1.359203529357910156e+01,-1.070067825317382812e+02,-1.223957061767578125e+02,6.347683334350585938e+01,-3.998527526855468750e+01
7.400000095367431641e-01,2.000000000000000000e+00,3.987888717651367188e+01,5.713190555572509766e+00,3.448588562011718750e+01,-1.164462966918945312e+02,9.123038482666015625e+01,-6.772862243652343750e+01,4.253555297851562500e+01,-1.358321952819824219e+01,-1.070214233398437500e+02,-1.224497451782226562e+02,6.347258758544921875e+01,-4.001544189453125000e+01
7.440000176429748535e-01,2.000000000000000000e+00,3.990728759765625000e+01,5.665512561798095703e+00,3.448069763183593750e+01,-1.165008316040039062e+02,9.123314666748046875e+01,-6.775347900390625000e+01,4.246322250366210938e+01,-1.357440376281738281e+01,-1.070360565185546875e+02,-1.225037765502929688e+02,6.346834564208984375e+01,-4.004560470581054688e+01
7.480000257492065430e-01,2.000000000000000000e+00,3.993568420410156250e+01,5.617837429046630859e+00,3.447550964355468750e+01,-1.165553741455078125e+02,9.123590087890625000e+01,-6.777832794189453125e+01,4.239089584350585938e+01,-1.356558895111083984e+01,-1.070506973266601562e+02,-1.225578002929687500e+02,6.346409606933593750e+01,-4.007576751708984375e+01
7.519999742507934570e-01,2.000000000000000000e+00,3.996408081054687500e+01,5.570165157318115234e+00,3.447032165527343750e+01,-1.166099090576171875e+02,9.123865509033203125e+01,-6.780317687988281250e+01,4.231857681274414062e+01,-1.355677413940429688e+01,-1.070653305053710938e+02,-1.226118316650390625e+02,6.345985412597656250e+01,-4.010592651367187500e+01
7.559999823570251465e-01,2.000000000000000000e+00,3.999247360229492188e+01,5.522496223449707031e+00,3.446513748168945312e+01,-1.166644287109375000e+02,9.124140930175781250e+01,-6.782803344726562500e+01,4.224626159667968750e+01,-1.354796028137207031e+01,-1.070799636840820312e+02,-1.226658554077148438e+02,6.345560836791992188e+01,-4.013608551025390625e+01
7.599999904632568359e-01,2.000000000000000000e+00,4.002086639404296875e+01,5.474830150604248047e+00,3.445994949340820312e+01,-1.167189559936523438e+02,9.124416351318359375e+01,-6.785288238525390625e+01,4.217395019531250000e+01,-1.353914737701416016e+01,-1.070946044921875000e+02,-1.227198715209960938e+02,6.345136642456054688e+01,-4.016624069213867188e+01
7.639999985694885254e-01,2.000000000000000000e+00,4.004925537109375000e+01,5.427166938781738281e+00,3.445476531982421875e+01,-1.167734756469726562e+02,9.124692535400390625e+01,-6.787773132324218750e+01,4.210164260864257812e+01,-1.353033447265625000e+01,-1.071092300415039062e+02,-1.227738800048828125e+02,6.344711685180664062e+01,-4.019639587402343750e+01
7.680000066757202148e-01,2.000000000000000000e+00,4.007764434814453125e+01,5.379506111145019531e+00,3.444957733154296875e+01,-1.168279953002929688e+02,9.124967193603515625e+01,-6.790257263183593750e+01,4.202933883666992188e+01,-1.352152156829833984e+01,-1.071238632202148438e+02,-1.228278961181640625e+02,6.344287490844726562e+01,-4.022654724121093750e+01
7.720000147819519043e-01,2.000000000000000000e+00,4.010602951049804688e+01,5.331848621368408203e+00,3.444439697265625000e+01,-1.168825149536132812e+02,9.125242614746093750e+01,-6.792742156982421875e+01,4.195703887939453125e+01,-1.351270961761474609e+01,-1.071384887695312500e+02,-1.228819046020507812e+02,6.343863296508789062e+01,-4.025669860839843750e+01
7.760000228881835938e-01,2.000000000000000000e+00,4.013441848754882812e+01,5.284194469451904297e+00,3.443921279907226562e+01,-1.169370346069335938e+02,9.125518798828125000e+01,-6.795226287841796875e+01,4.188474655151367188e+01,-1.350389862060546875e+01,-1.071531219482421875e+02,-1.229359207153320312e+02,6.343438720703125000e+01,-4.028684616088867188e+01
7.799999713897705078e-01,2.000000000000000000e+00,4.016279983520507812e+01,5.236542224884033203e+00,3.443402862548828125e+01,-1.169915390014648438e+02,9.125794219970703125e+01,-6.797710418701171875e+01,4.181245422363281250e+01,-1.349508762359619141e+01,-1.071677551269531250e+02,-1.229899215698242188e+02,6.343014526367187500e+01,-4.031699371337890625e+01
7.839999794960021973e-01,2.000000000000000000e+00,4.019118499755859375e+01,5.188893318176269531e+00,3.442884445190429688e+01,-1.170460433959960938e+02,9.126068878173828125e+01,-6.800193786621093750e+01,4.174016952514648438e+01,-1.348627758026123047e+01,-1.071823730468750000e+02,-1.230439224243164062e+02,6.342590332031250000e+01,-4.034714126586914062e+01
7.879999876022338867e-01,2.000000000000000000e+00,4.021956253051757812e+01,5.141247272491455078e+00,3.442366027832031250e+01,-1.171005477905273438e+02,9.126344299316406250e+01,-6.802677917480468750e+01,4.166788864135742188e+01,-1.347746753692626953e+01,-1.071970062255859375e+02,-1.230979156494140625e+02,6.342166137695312500e+01,-4.037728500366210938e+01
7.919999957084655762e-01,2.000000000000000000e+00,4.024794387817382812e+01,5.093604087829589844e+00,3.441847610473632812e+01,-1.171550369262695312e+02,9.126619720458984375e+01,-6.805161285400390625e+01,4.159561157226562500e+01,-1.346865844726562500e+01,-1.072116317749023438e+02,-1.231519012451171875e+02,6.341741943359375000e+01,-4.040742874145507812e+01
7.960000038146972656e-01,2.000000000000000000e+00,4.027631759643554688e+01,5.045964241027832031e+00,3.441329193115234375e+01,-1.172095413208007812e+02,9.126895141601562500e+01,-6.807644653320312500e+01,4.152333831787109375e+01,-1.345985031127929688e+01,-1.072262573242187500e+02,-1.232058944702148438e+02,6.341317749023437500e+01,-4.043756484985351562e+01
8.000000119209289551e-01,2.000000000000000000e+00,4.030469512939453125e+01,4.998326301574707031e+00,3.440811157226562500e+01,-1.172640380859375000e+02,9.127171325683593750e+01,-6.810128021240234375e+01,4.145107269287109375e+01,-1.345104217529296875e+01,-1.072408828735351562e+02,-1.232598876953125000e+02,6.340893554687500000e+01,-4.046770477294921875e+01
8.040000200271606445e-01,2.000000000000000000e+00,4.033306884765625000e+01,4.950691699981689453e+00,3.440292739868164062e+01,-1.173185272216796875e+02,9.127445983886718750e+01,-6.812611389160156250e+01,4.137881088256835938e+01,-1.344223403930664062e+01,-1.072555084228515625e+02,-1.233138656616210938e+02,6.340469360351562500e+01,-4.049784088134765625e+01
8.080000281333923340e-01,2.000000000000000000e+00,4.036143875122070312e+01,4.903059959411621094e+00,3.439774322509765625e+01,-1.173730010986328125e+02,9.127721405029296875e+01,-6.815094757080078125e+01,4.130654907226562500e+01,-1.343342781066894531e+01,-1.072701339721679688e+02,-1.233678512573242188e+02,6.340045166015625000e+01,-4.052797317504882812e+01
8.119999766349792480e-01,2.000000000000000000e+00,4.038981246948242188e+01,4.855430603027343750e+00,3.439255905151367188e+01,-1.174274978637695312e+02,9.127996826171875000e+01,-6.817577362060546875e+01,4.123429489135742188e+01,-1.342462062835693359e+01,-1.072847442626953125e+02,-1.234218215942382812e+02,6.339620971679687500e+01,-4.055810928344726562e+01
8.159999847412109375e-01,2.000000000000000000e+00,4.041818237304687500e+01,4.807804107666015625e+00,3.438737869262695312e+01,-1.174819717407226562e+02,9.128272247314453125e+01,-6.820059967041015625e+01,4.116204452514648438e+01,-1.341581439971923828e+01,-1.072993698120117188e+02,-1.234757919311523438e+02,6.339197158813476562e+01,-4.058823776245117188e+01
8.199999928474426270e-01,2.000000000000000000e+00,4.044654846191406250e+01,4.760180473327636719e+00,3.438219833374023438e+01,-1.175364532470703125e+02,9.128546905517578125e+01,-6.822542572021484375e+01,4.108979415893554688e+01,-1.340700912475585938e+01,-1.073139877319335938e+02,-1.235297622680664062e+02,6.338772964477539062e+01,-4.061836624145507812e+01
8.240000009536743164e-01,2.000000000000000000e+00,4.047491073608398438e+01,4.712559700012207031e+00,3.437701797485351562e+01,-1.175909271240234375e+02,9.128822326660156250e+01,-6.825025939941406250e+01,4.101755142211914062e+01,-1.339820384979248047e+01,-1.073286132812500000e+02,-1.235837402343750000e+02,6.338348770141601562e+01,-4.064849472045898438e+01
8.280000090599060059e-01,2.000000000000000000e+00,4.050327682495117188e+01,4.664941310882568359e+00,3.437183761596679688e+01,-1.176453933715820312e+02,9.129097747802734375e+01,-6.827507781982421875e+01,4.094531250000000000e+01,-1.338939952850341797e+01,-1.073432235717773438e+02,-1.236377105712890625e+02,6.337924575805664062e+01,-4.067862319946289062e+01
8.320000171661376953e-01,2.000000000000000000e+00,4.053163909912109375e+01,4.617325782775878906e+00,3.436665725708007812e+01,-1.176998672485351562e+02,9.129373168945312500e+01,-6.829989624023437500e+01,4.087307739257812500e+01,-1.338059520721435547e+01,-1.073578414916992188e+02,-1.236916656494140625e+02,6.337500381469726562e+01,-4.070874404907226562e+01
8.360000252723693848e-01,2.000000000000000000e+00,4.056000137329101562e+01,4.569713115692138672e+00,3.436147689819335938e+01,-1.177543334960937500e+02,9.129648590087890625e+01,-6.832472229003906250e+01,4.080084609985351562e+01,-1.337179183959960938e+01,-1.073724594116210938e+02,-1.237456283569335938e+02,6.337076950073242188e+01,-4.073886871337890625e+01
8.399999737739562988e-01,2.000000000000000000e+00,4.058835983276367188e+01,4.522102832794189453e+00,3.435629653930664062e+01,-1.178087844848632812e+02,9.129922485351562500e+01,-6.834954071044921875e+01,4.072861862182617188e+01,-1.336298847198486328e+01,-1.073870773315429688e+02,-1.237995834350585938e+02,6.336652755737304688e+01,-4.076898956298828125e+01
8.439999818801879883e-01,2.000000000000000000e+00,4.061671447753906250e+01,4.474494934082031250e+00,3.435111999511718750e+01,-1.178632507324218750e+02,9.130197906494140625e+01,-6.837435913085937500e+01,4.065639877319335938e+01,-1.335418605804443359e+01,-1.074016952514648438e+02,-1.238535308837890625e+02,6.336228561401367188e+01,-4.079910659790039062e+01
8.479999899864196777e-01,2.000000000000000000e+00,4.064506912231445312e+01,4.426890373229980469e+00,3.434593963623046875e+01,-1.179177017211914062e+02,9.130473327636718750e+01,-6.839917755126953125e+01,4.058417892456054688e+01,-1.334538364410400391e+01,-1.074163055419921875e+02,-1.239074859619140625e+02,6.335804367065429688e+01,-4.082922363281250000e+01
8.519999980926513672e-01,2.000000000000000000e+00,4.067342376708984375e+01,4.379288196563720703e+00,3.434075927734375000e+01,-1.179721603393554688e+02,9.130748748779296875e+01,-6.842398834228515625e+01,4.051196289062500000e+01,-1.333658218383789062e+01,-1.074309234619140625e+02,-1.239614334106445312e+02,6.335380935668945312e+01,-4.085934448242187500e+01
8.560000061988830566e-01,2.000000000000000000e+00,4.070177841186523438e+01,4.331688404083251953e+00,3.433557891845703125e+01,-1.180265960693359375e+02,9.131024169921875000e+01,-6.844880676269531250e+01,4.043975448608398438e+01,-1.332778167724609375e+01,-1.074455261230468750e+02,-1.240153808593750000e+02,6.334956741333007812e+01,-4.088945770263671875e+01
8.600000143051147461e-01,2.000000000000000000e+00,4.073012924194335938e+01,4.284091472625732422e+00,3.433040237426757812e+01,-1.180810470581054688e+02,9.131298828125000000e+01,-6.847361755371093750e+01,4.036754989624023438e+01,-1.331898117065429688e+01,-1.074601440429687500e+02,-1.240693054199218750e+02,6.334533309936523438e+01,-4.091956710815429688e+01
8.640000224113464355e-01,2.000000000000000000e+00,4.075847625732421875e+01,4.236497402191162109e+00,3.432522583007812500e+01,-1.181354980468750000e+02,9.131573486328125000e+01,-6.849842071533203125e+01,4.029534530639648438e+01,-1.331017971038818359e+01,-1.074747543334960938e+02,-1.241232528686523438e+02,6.334109115600585938e+01,-4.094968032836914062e+01
8.679999709129333496e-01,2.000000000000000000e+00,4.078682708740234375e+01,4.188905715942382812e+00,3.432004547119140625e+01,-1.181899337768554688e+02,9.131848907470703125e+01,-6.852323913574218750e+01,4.022314453125000000e+01,-1.330138015747070312e+01,-1.074893646240234375e+02,-1.241771850585937500e+02,6.333685684204101562e+01,-4.097978591918945312e+01
8.719999790191650391e-01,2.000000000000000000e+00,4.081517028808593750e+01,4.141316413879394531e+00,3.431486892700195312e+01,-1.182443695068359375e+02,9.132124328613281250e+01,-6.854804229736328125e+01,4.015095138549804688e+01,-1.329258155822753906e+01,-1.075039749145507812e+02,-1.242311172485351562e+02,6.333261489868164062e+01,-4.100989913940429688e+01
8.759999871253967285e-01,2.000000000000000000e+00,4.084351730346679688e+01,4.093729496002197266e+00,3.430968856811523438e+01,-1.182988128662109375e+02,9.132398986816406250e+01,-6.857285308837890625e+01,4.007875823974609375e+01,-1.328378200531005859e+01,-1.075185852050781250e+02,-1.242850494384765625e+02,6.332838058471679688e+01,-4.104000091552734375e+01
8.799999952316284180e-01,2.000000000000000000e+00,4.087186431884765625e+01,4.046145439147949219e+00,3.430451583862304688e+01,-1.183532485961914062e+02,9.132674407958984375e+01,-6.859766387939453125e+01,4.000657272338867188e+01,-1.327498435974121094e+01,-1.075331878662109375e+02,-1.243389816284179688e+02,6.332414627075195312e+01,-4.107010650634765625e+01
8.840000033378601074e-01,2.000000000000000000e+00,4.090020370483398438e+01,3.998563528060913086e+00,3.429933929443359375e+01,-1.184076690673828125e+02,9.132949066162109375e+01,-6.862245941162109375e+01,3.993438720703125000e+01,-1.326618671417236328e+01,-1.075477981567382812e+02,-1.243928985595703125e+02,6.331990432739257812e+01,-4.110020828247070312e+01
8.880000114440917969e-01,2.000000000000000000e+00,4.092854309082031250e+01,3.950984477996826172e+00,3.429416275024414062e+01,-1.184620895385742188e+02,9.133223724365234375e+01,-6.864727020263671875e+01,3.986220932006835938e+01,-1.325739002227783203e+01,-1.075624008178710938e+02,-1.244468154907226562e+02,6.331567001342773438e+01,-4.113031005859375000e+01
8.920000195503234863e-01,2.000000000000000000e+00,4.095688247680664062e+01,3.903407812118530273e+00,3.428898620605468750e+01,-1.185165176391601562e+02,9.133499145507812500e+01,-6.867206573486328125e+01,3.979003524780273438e+01,-1.324859237670898438e+01,-1.075770111083984375e+02,-1.245007324218750000e+02,6.331143569946289062e+01,-4.116041183471679688e+01
8.960000276565551758e-01,2.000000000000000000e+00,4.098521804809570312e+01,3.855834007263183594e+00,3.428380966186523438e+01,-1.185709381103515625e+02,9.133773803710937500e+01,-6.869686889648437500e+01,3.971786117553710938e+01,-1.323979568481445312e+01,-1.075916137695312500e+02,-1.245546493530273438e+02,6.330720138549804688e+01,-4.119050979614257812e+01
8.999999761581420898e-01,2.000000000000000000e+00,4.101355743408203125e+01,3.808262109756469727e+00,3.427863311767578125e+01,-1.186253585815429688e+02,9.134049224853515625e+01,-6.872167205810546875e+01,3.964569473266601562e+01,-1.323099994659423828e+01,-1.076062164306640625e+02,-1.246085662841796875e+02,6.330295944213867188e+01,-4.122060394287109375e+01
9.039999842643737793e-01,2.000000000000000000e+00,4.104189300537109375e+01,3.760692358016967773e+00,3.427346038818359375e+01,-1.186797714233398438e+02,9.134323883056640625e+01,-6.874645996093750000e+01,3.957352828979492188e+01,-1.322220516204833984e+01,-1.076208190917968750e+02,-1.246624679565429688e+02,6.329872512817382812e+01,-4.125069808959960938e+01
9.079999923706054688e-01,2.000000000000000000e+00,4.107022476196289062e+01,3.713125228881835938e+00,3.426828384399414062e+01,-1.187341766357421875e+02,9.134598541259765625e+01,-6.877126312255859375e+01,3.950136947631835938e+01,-1.321341037750244141e+01,-1.076354217529296875e+02,-1.247163696289062500e+02,6.329449081420898438e+01,-4.128079223632812500e+01
9.120000004768371582e-01,2.000000000000000000e+00,4.109855651855468750e+01,3.665560722351074219e+00,3.426310729980468750e+01,-1.187885894775390625e+02,9.134873199462890625e+01,-6.879605865478515625e+01,3.942921066284179688e+01,-1.320461559295654297e+01,-1.076500244140625000e+02,-1.247702789306640625e+02,6.329025650024414062e+01,-4.131088256835937500e+01
9.160000085830688477e-01,2.000000000000000000e+00,4.112688827514648438e+01,3.617997884750366211e+00,3.425793457031250000e+01,-1.188429946899414062e+02,9.135148620605468750e+01,-6.882084655761718750e+01,3.935705566406250000e+01,-1.319582176208496094e+01,-1.076646270751953125e+02,-1.248241806030273438e+02,6.328601837158203125e+01,-4.134097290039062500e+01
9.200000166893005371e-01,2.000000000000000000e+00,4.115522003173828125e+01,3.570437669754028320e+00,3.425276184082031250e+01,-1.188974075317382812e+02,9.135423278808593750e+01,-6.884564208984375000e+01,3.928490447998046875e+01,-1.318702793121337891e+01,-1.076792221069335938e+02,-1.248780822753906250e+02,6.328178405761718750e+01,-4.137106323242187500e+01
9.240000247955322266e-01,2.000000000000000000e+00,4.118354797363281250e+01,3.522879600524902344e+00,3.424758529663085938e+01,-1.189518051147460938e+02,9.135698699951171875e+01,-6.887043762207031250e+01,3.921275711059570312e+01,-1.317823505401611328e+01,-1.076938247680664062e+02,-1.249319763183593750e+02,6.327754974365234375e+01,-4.140114974975585938e+01
9.279999732971191406e-01,2.000000000000000000e+00,4.121187210083007812e+01,3.475323677062988281e+00,3.424241256713867188e+01,-1.190061950683593750e+02,9.135973358154296875e+01,-6.889522552490234375e+01,3.914061355590820312e+01,-1.316944122314453125e+01,-1.077084197998046875e+02,-1.249858627319335938e+02,6.327331542968750000e+01,-4.143123626708984375e+01
9.319999814033508301e-01,2.000000000000000000e+00,4.124020004272460938e+01,3.427769899368286133e+00,3.423723983764648438e+01,-1.190605926513671875e+02,9.136248016357421875e+01,-6.892002105712890625e+01,3.906847381591796875e+01,-1.316064834594726562e+01,-1.077230224609375000e+02,-1.250397567749023438e+02,6.326908111572265625e+01,-4.146132278442382812e+01
9.359999895095825195e-01,2.000000000000000000e+00,4.126852416992187500e+01,3.380218505859375000e+00,3.423206329345703125e+01,-1.191149902343750000e+02,9.136522674560546875e+01,-6.894480133056640625e+01,3.899633789062500000e+01,-1.315185642242431641e+01,-1.077376251220703125e+02,-1.250936431884765625e+02,6.326484680175781250e+01,-4.149140548706054688e+01
9.399999976158142090e-01,2.000000000000000000e+00,4.129684829711914062e+01,3.332669258117675781e+00,3.422689056396484375e+01,-1.191693878173828125e+02,9.136797332763671875e+01,-6.896958923339843750e+01,3.892420196533203125e+01,-1.314306545257568359e+01,-1.077522201538085938e+02,-1.251475372314453125e+02,6.326061248779296875e+01,-4.152148437500000000e+01
9.440000057220458984e-01,2.000000000000000000e+00,4.132516860961914062e+01,3.285121917724609375e+00,3.422171783447265625e+01,-1.192237701416015625e+02,9.137072753906250000e+01,-6.899437713623046875e+01,3.885207366943359375e+01,-1.313427352905273438e+01,-1.077668151855468750e+02,-1.252014160156250000e+02,6.325638198852539062e+01,-4.155157089233398438e+01
9.480000138282775879e-01,2.000000000000000000e+00,4.135348892211914062e+01,3.237576723098754883e+00,3.421654510498046875e+01,-1.192781600952148438e+02,9.137347412109375000e+01,-6.901916503906250000e+01,3.877994155883789062e+01,-1.312548255920410156e+01,-1.077814102172851562e+02,-1.252553024291992188e+02,6.325214767456054688e+01,-4.158164978027343750e+01
9.520000219345092773e-01,2.000000000000000000e+00,4.138180923461914062e+01,3.190033435821533203e+00,3.421137237548828125e+01,-1.193325424194335938e+02,9.137622070312500000e+01,-6.904395294189453125e+01,3.870782089233398438e+01,-1.311669158935546875e+01,-1.077960052490234375e+02,-1.253091812133789062e+02,6.324791336059570312e+01,-4.161172485351562500e+01
9.559999704360961914e-01,2.000000000000000000e+00,4.141012573242187500e+01,3.142492294311523438e+00,3.420619964599609375e+01,-1.193869247436523438e+02,9.137896728515625000e+01,-6.906873321533203125e+01,3.863569641113281250e+01,-1.310790157318115234e+01,-1.078105926513671875e+02,-1.253630523681640625e+02,6.324367904663085938e+01,-4.164180374145507812e+01
9.599999785423278809e-01,2.000000000000000000e+00,4.143844223022460938e+01,3.094953298568725586e+00,3.420102691650390625e+01,-1.194413070678710938e+02,9.138171386718750000e+01,-6.909351348876953125e+01,3.856357955932617188e+01,-1.309911155700683594e+01,-1.078251953125000000e+02,-1.254169311523437500e+02,6.323944473266601562e+01,-4.167187881469726562e+01
9.639999866485595703e-01,2.000000000000000000e+00,4.146675872802734375e+01,3.047416210174560547e+00,3.419585418701171875e+01,-1.194956893920898438e+02,9.138446044921875000e+01,-6.911830139160156250e+01,3.849146270751953125e+01,-1.309032249450683594e+01,-1.078397903442382812e+02,-1.254708099365234375e+02,6.323521804809570312e+01,-4.170195388793945312e+01
9.679999947547912598e-01,2.000000000000000000e+00,4.149507141113281250e+01,2.999881029129028320e+00,3.419068527221679688e+01,-1.195500564575195312e+02,9.138720703125000000e+01,-6.914308166503906250e+01,3.841934967041015625e+01,-1.308153247833251953e+01,-1.078543777465820312e+02,-1.255246734619140625e+02,6.323098373413085938e+01,-4.173202514648437500e+01
9.720000028610229492e-01,2.000000000000000000e+00,4.152338790893554688e+01,2.952347517013549805e+00,3.418551254272460938e+01,-1.196044387817382812e+02,9.138996124267578125e+01,-6.916785430908203125e+01,3.834724044799804688e+01,-1.307274436950683594e+01,-1.078689727783203125e+02,-1.255785446166992188e+02,6.322674942016601562e+01,-4.176210021972656250e+01
9.760000109672546387e-01,2.000000000000000000e+00,4.155170059204101562e+01,2.904816389083862305e+00,3.418034362792968750e+01,-1.196588058471679688e+02,9.139270782470703125e+01,-6.919263458251953125e+01,3.827513504028320312e+01,-1.306395530700683594e+01,-1.078835601806640625e+02,-1.256324081420898438e+02,6.322251892089843750e+01,-4.179216766357421875e+01
9.800000190734863281e-01,2.000000000000000000e+00,4.158000946044921875e+01,2.857286930084228516e+00,3.417517089843750000e+01,-1.197131805419921875e+02,9.139545440673828125e+01,-6.921741485595703125e+01,3.820302963256835938e+01,-1.305516719818115234e+01,-1.078981552124023438e+02,-1.256862716674804688e+02,6.321828460693359375e+01,-4.182223892211914062e+01
9.840000271797180176e-01,2.000000000000000000e+00,4.160832214355468750e+01,2.809759378433227539e+00,3.416999816894531250e+01,-1.197675476074218750e+02,9.139820098876953125e+01,-6.924218750000000000e+01,3.813092803955078125e+01,-1.304637908935546875e+01,-1.079127426147460938e+02,-1.257401351928710938e+02,6.321405029296875000e+01,-4.185231018066406250e+01
9.879999756813049316e-01,2.000000000000000000e+00,4.163662719726562500e+01,2.762233495712280273e+00,3.416482925415039062e+01,-1.198219146728515625e+02,9.140093994140625000e+01,-6.926696777343750000e+01,3.805883026123046875e+01,-1.303759193420410156e+01,-1.079273376464843750e+02,-1.257939987182617188e+02,6.320982360839843750e+01,-4.188237380981445312e+01
9.919999837875366211e-01,2.000000000000000000e+00,4.166493606567382812e+01,2.714709758758544922e+00,3.415965652465820312e+01,-1.198762664794921875e+02,9.140369415283203125e+01,-6.929174041748046875e+01,3.798673248291015625e+01,-1.302880477905273438e+01,-1.079419250488281250e+02,-1.258478622436523438e+02,6.320558929443359375e+01,-4.191244125366210938e+01
9.959999918937683105e-01,2.000000000000000000e+00,4.169324493408203125e+01,2.667187929153442383e+00,3.415448760986328125e+01,-1.199306335449218750e+02,9.140644073486328125e+01,-6.931651306152343750e+01,3.791463851928710938e+01,-1.302001857757568359e+01,-1.079565124511718750e+02,-1.259017105102539062e+02,6.320135879516601562e+01,-4.194250869750976562e+01
1.000000000000000000e+00,2.000000000000000000e+00,4.172154998779296875e+01,2.619667768478393555e+00,3.414931869506835938e+01,-1.199849929809570312e+02,9.140918731689453125e+01,-6.934128570556640625e+01,3.784255218505859375e+01,-1.301123142242431641e+01,-1.079710998535156250e+02,-1.259555587768554688e+02,6.319712448120117188e+01,-4.197257232666015625e+01
1.003999948501586914e+00,2.000000000000000000e+00,4.174985122680664062e+01,2.572149515151977539e+00,3.414414978027343750e+01,-1.200393447875976562e+02,9.141193389892578125e+01,-6.936605834960937500e+01,3.777046203613281250e+01,-1.300244522094726562e+01,-1.079856872558593750e+02,-1.260094223022460938e+02,6.319289779663085938e+01,-4.200263595581054688e+01
1.008000016212463379e+00,2.000000000000000000e+00,4.177815628051757812e+01,2.524633169174194336e+00,3.413898086547851562e+01,-1.200937042236328125e+02,9.141468048095703125e+01,-6.939082336425781250e+01,3.769837951660156250e+01,-1.299365997314453125e+01,-1.080002746582031250e+02,-1.260632705688476562e+02,6.318866348266601562e+01,-4.203269577026367188e+01
1.011999964714050293e+00,2.000000000000000000e+00,4.180645751953125000e+01,2.477118492126464844e+00,3.413380813598632812e+01,-1.201480560302734375e+02,9.141742706298828125e+01,-6.941559600830078125e+01,3.762629699707031250e+01,-1.298487472534179688e+01,-1.080148620605468750e+02,-1.261171112060546875e+02,6.318443298339843750e+01,-4.206275558471679688e+01
1.016000032424926758e+00,2.000000000000000000e+00,4.183475875854492188e+01,2.429605960845947266e+00,3.412863922119140625e+01,-1.202024002075195312e+02,9.142017364501953125e+01,-6.944036102294921875e+01,3.755421829223632812e+01,-1.297608947753906250e+01,-1.080294494628906250e+02,-1.261709594726562500e+02,6.318020629882812500e+01,-4.209281539916992188e+01
1.019999980926513672e+00,2.000000000000000000e+00,4.186305999755859375e+01,2.382094860076904297e+00,3.412347030639648438e+01,-1.202567520141601562e+02,9.142291259765625000e+01,-6.946512603759765625e+01,3.748214340209960938e+01,-1.296730422973632812e+01,-1.080440292358398438e+02,-1.262248077392578125e+02,6.317597198486328125e+01,-4.212287521362304688e+01
1.024000048637390137e+00,2.000000000000000000e+00,4.189135742187500000e+01,2.334585666656494141e+00,3.411830139160156250e+01,-1.203110961914062500e+02,9.142565917968750000e+01,-6.948989105224609375e+01,3.741006851196289062e+01,-1.295851993560791016e+01,-1.080586242675781250e+02,-1.262786407470703125e+02,6.317174530029296875e+01,-4.215293121337890625e+01
1.026999950408935547e+00,2.000000000000000000e+00,4.191965484619140625e+01,2.287078142166137695e+00,3.411313247680664062e+01,-1.203654479980468750e+02,9.142840576171875000e+01,-6.951466369628906250e+01,3.733799743652343750e+01,-1.294973564147949219e+01,-1.080732040405273438e+02,-1.263324813842773438e+02,6.316751098632812500e+01,-4.218298721313476562e+01
1.031999945640563965e+00,2.000000000000000000e+00,4.194795227050781250e+01,2.239572525024414062e+00,3.410796356201171875e+01,-1.204197845458984375e+02,9.143115234375000000e+01,-6.953942871093750000e+01,3.726593017578125000e+01,-1.294095230102539062e+01,-1.080877838134765625e+02,-1.263863296508789062e+02,6.316328048706054688e+01,-4.221304321289062500e+01
1.036000013351440430e+00,2.000000000000000000e+00,4.197624969482421875e+01,2.192068576812744141e+00,3.410279846191406250e+01,-1.204741287231445312e+02,9.143389892578125000e+01,-6.956419372558593750e+01,3.719386291503906250e+01,-1.293216800689697266e+01,-1.081023712158203125e+02,-1.264401626586914062e+02,6.315905380249023438e+01,-4.224309539794921875e+01
1.039999961853027344e+00,2.000000000000000000e+00,4.200454330444335938e+01,2.144566535949707031e+00,3.409762954711914062e+01,-1.205284576416015625e+02,9.143664550781250000e+01,-6.958895111083984375e+01,3.712179946899414062e+01,-1.292338562011718750e+01,-1.081169509887695312e+02,-1.264939880371093750e+02,6.315482711791992188e+01,-4.227314758300781250e+01
1.044000029563903809e+00,2.000000000000000000e+00,4.203283691406250000e+01,2.097065925598144531e+00,3.409246063232421875e+01,-1.205827941894531250e+02,9.143939208984375000e+01,-6.961371612548828125e+01,3.704973983764648438e+01,-1.291460323333740234e+01,-1.081315307617187500e+02,-1.265478210449218750e+02,6.315059280395507812e+01,-4.230319595336914062e+01
1.047999978065490723e+00,2.000000000000000000e+00,4.206112670898437500e+01,2.049567222595214844e+00,3.408729171752929688e+01,-1.206371383666992188e+02,9.144213867187500000e+01,-6.963848114013671875e+01,3.697768020629882812e+01,-1.290581989288330078e+01,-1.081461181640625000e+02,-1.266016540527343750e+02,6.314636230468750000e+01,-4.233324813842773438e+01
1.052000045776367188e+00,2.000000000000000000e+00,4.208942413330078125e+01,2.002070426940917969e+00,3.408212661743164062e+01,-1.206914672851562500e+02,9.144488525390625000e+01,-6.966323852539062500e+01,3.690562820434570312e+01,-1.289703845977783203e+01,-1.081606979370117188e+02,-1.266554794311523438e+02,6.314213562011718750e+01,-4.236330032348632812e+01
1.054999947547912598e+00,2.000000000000000000e+00,4.211771392822265625e+01,1.954574942588806152e+00,3.407695770263671875e+01,-1.207457962036132812e+02,9.144762420654296875e+01,-6.968799591064453125e+01,3.683357620239257812e+01,-1.288825607299804688e+01,-1.081752777099609375e+02,-1.267092971801757812e+02,6.313790893554687500e+01,-4.239334487915039062e+01
1.059999942779541016e+00,2.000000000000000000e+00,4.214599990844726562e+01,1.907081484794616699e+00,3.407179260253906250e+01,-1.208001174926757812e+02,9.145037078857421875e+01,-6.971275329589843750e+01,3.676152420043945312e+01,-1.287947559356689453e+01,-1.081898574829101562e+02,-1.267631225585937500e+02,6.313367843627929688e+01,-4.242339324951171875e+01
1.064000010490417480e+00,2.000000000000000000e+00,4.217428970336914062e+01,1.859589457511901855e+00,3.406662368774414062e+01,-1.208544464111328125e+02,9.145311737060546875e+01,-6.973751831054687500e+01,3.668947982788085938e+01,-1.287069320678710938e+01,-1.082044372558593750e+02,-1.268169403076171875e+02,6.312944412231445312e+01,-4.245344161987304688e+01
1.067999958992004395e+00,2.000000000000000000e+00,4.220257949829101562e+01,1.812099337577819824e+00,3.406145858764648438e+01,-1.209087753295898438e+02,9.145586395263671875e+01,-6.976226806640625000e+01,3.661743164062500000e+01,-1.286191272735595703e+01,-1.082190170288085938e+02,-1.268707656860351562e+02,6.312521743774414062e+01,-4.248348236083984375e+01
1.072000026702880859e+00,2.000000000000000000e+00,4.223086547851562500e+01,1.764610648155212402e+00,3.405628967285156250e+01,-1.209631042480468750e+02,9.145860290527343750e+01,-6.978702545166015625e+01,3.654538726806640625e+01,-1.285313224792480469e+01,-1.082335968017578125e+02,-1.269245834350585938e+02,6.312099075317382812e+01,-4.251353073120117188e+01
1.075999975204467773e+00,2.000000000000000000e+00,4.225914764404296875e+01,1.717123627662658691e+00,3.405112457275390625e+01,-1.210174179077148438e+02,9.146134948730468750e+01,-6.981178283691406250e+01,3.647335052490234375e+01,-1.284435176849365234e+01,-1.082481689453125000e+02,-1.269784088134765625e+02,6.311676025390625000e+01,-4.254357147216796875e+01
1.080000042915344238e+00,2.000000000000000000e+00,4.228743362426757812e+01,1.669638395309448242e+00,3.404595947265625000e+01,-1.210717315673828125e+02,9.146409606933593750e+01,-6.983653259277343750e+01,3.640131378173828125e+01,-1.283557128906250000e+01,-1.082627487182617188e+02,-1.270322189331054688e+02,6.311253356933593750e+01,-4.257361602783203125e+01
1.083999991416931152e+00,2.000000000000000000e+00,4.231571578979492188e+01,1.622154712677001953e+00,3.404079055786132812e+01,-1.211260604858398438e+02,9.146684265136718750e+01,-6.986128997802734375e+01,3.632927703857421875e+01,-1.282679271697998047e+01,-1.082773284912109375e+02,-1.270860290527343750e+02,6.310830688476562500e+01,-4.260365295410156250e+01
1.088000059127807617e+00,2.000000000000000000e+00,4.234400177001953125e+01,1.574672579765319824e+00,3.403562545776367188e+01,-1.211803741455078125e+02,9.146958923339843750e+01,-6.988603973388671875e+01,3.625724792480468750e+01,-1.281801319122314453e+01,-1.082919082641601562e+02,-1.271398315429687500e+02,6.310407638549804688e+01,-4.263369369506835938e+01
1.090999960899353027e+00,2.000000000000000000e+00,4.237228012084960938e+01,1.527192115783691406e+00,3.403046035766601562e+01,-1.212346878051757812e+02,9.147232818603515625e+01,-6.991078948974609375e+01,3.618521499633789062e+01,-1.280923366546630859e+01,-1.083064804077148438e+02,-1.271936569213867188e+02,6.309984970092773438e+01,-4.266373062133789062e+01
1.095999956130981445e+00,2.000000000000000000e+00,4.240056610107421875e+01,1.479713082313537598e+00,3.402529525756835938e+01,-1.212890014648437500e+02,9.147507476806640625e+01,-6.993554687500000000e+01,3.611318969726562500e+01,-1.280045509338378906e+01,-1.083210601806640625e+02,-1.272474517822265625e+02,6.309562301635742188e+01,-4.269377136230468750e+01
1.100000023841857910e+00,2.000000000000000000e+00,4.242884063720703125e+01,1.432235836982727051e+00,3.402012634277343750e+01,-1.213432998657226562e+02,9.147781372070312500e+01,-6.996029663085937500e+01,3.604116439819335938e+01,-1.279167652130126953e+01,-1.083356323242187500e+02,-1.273012619018554688e+02,6.309139251708984375e+01,-4.272380828857421875e+01
1.103999972343444824e+00,2.000000000000000000e+00,4.245712280273437500e+01,1.384760022163391113e+00,3.401496505737304688e+01,-1.213976135253906250e+02,9.148056030273437500e+01,-6.998503875732421875e+01,3.596913909912109375e+01,-1.278289794921875000e+01,-1.083502044677734375e+02,-1.273550643920898438e+02,6.308716583251953125e+01,-4.275384140014648438e+01
1.108000040054321289e+00,2.000000000000000000e+00,4.248540115356445312e+01,1.337285876274108887e+00,3.400979995727539062e+01,-1.214519119262695312e+02,9.148329925537109375e+01,-7.000979614257812500e+01,3.589711761474609375e+01,-1.277411937713623047e+01,-1.083647766113281250e+02,-1.274088592529296875e+02,6.308293914794921875e+01,-4.278387832641601562e+01
1.111999988555908203e+00,2.000000000000000000e+00,4.251367568969726562e+01,1.289813280105590820e+00,3.400463485717773438e+01,-1.215062255859375000e+02,9.148604583740234375e+01,-7.003453826904296875e+01,3.582509994506835938e+01,-1.276534175872802734e+01,-1.083793563842773438e+02,-1.274626693725585938e+02,6.307871627807617188e+01,-4.281391143798828125e+01
