rpiRobotics/ARM-21-02-F-19-Robot-Motion-Program/data_performance_abb/curve_2/dual_arm/diffevo_pose6_3/30L/grad_result/sim/dual_iteration_6.csv
timestamp,cmd_num,J1,J2,J3,J4,J5,J6,J1_2,J2_2,J3_2,J4_2,J5_2,J6_2
0.000000000000000000e+00,-1.000000000000000000e+00,3.559349060058593750e+01,1.290935325622558594e+01,3.526861953735351562e+01,-1.082146682739257812e+02,9.081444549560546875e+01,-6.397728347778320312e+01,5.345205688476562500e+01,-1.491408348083496094e+01,-1.048122711181640625e+02,-1.142945480346679688e+02,6.411334228515625000e+01,-3.546278381347656250e+01
2.000000094994902611e-03,-1.000000000000000000e+00,3.559349060058593750e+01,1.290935325622558594e+01,3.526861953735351562e+01,-1.082146682739257812e+02,9.081444549560546875e+01,-6.397728347778320312e+01,5.345205688476562500e+01,-1.491408348083496094e+01,-1.048122711181640625e+02,-1.142945480346679688e+02,6.411334228515625000e+01,-3.546278381347656250e+01
4.000000189989805222e-03,-1.000000000000000000e+00,3.559349060058593750e+01,1.290935325622558594e+01,3.526861953735351562e+01,-1.082146682739257812e+02,9.081444549560546875e+01,-6.397728347778320312e+01,5.345205688476562500e+01,-1.491408348083496094e+01,-1.048122711181640625e+02,-1.142945480346679688e+02,6.411334228515625000e+01,-3.546278381347656250e+01
9.999999776482582092e-03,-1.000000000000000000e+00,3.559349060058593750e+01,1.290935325622558594e+01,3.526861953735351562e+01,-1.082146682739257812e+02,9.081444549560546875e+01,-6.397728347778320312e+01,5.345205688476562500e+01,-1.491408348083496094e+01,-1.048122711181640625e+02,-1.142945480346679688e+02,6.411334228515625000e+01,-3.546278381347656250e+01
1.200000010430812836e-02,-1.000000000000000000e+00,3.559349060058593750e+01,1.290935325622558594e+01,3.526861953735351562e+01,-1.082146682739257812e+02,9.081444549560546875e+01,-6.397728347778320312e+01,5.345205688476562500e+01,-1.491408348083496094e+01,-1.048122711181640625e+02,-1.142945480346679688e+02,6.411334228515625000e+01,-3.546278381347656250e+01
1.600000075995922089e-02,-1.000000000000000000e+00,3.559349060058593750e+01,1.290935325622558594e+01,3.526861953735351562e+01,-1.082146682739257812e+02,9.081444549560546875e+01,-6.397728347778320312e+01,5.345205688476562500e+01,-1.491408348083496094e+01,-1.048122711181640625e+02,-1.142945480346679688e+02,6.411334228515625000e+01,-3.546278381347656250e+01
1.999999955296516418e-02,-1.000000000000000000e+00,3.559349060058593750e+01,1.290935325622558594e+01,3.526861953735351562e+01,-1.082146682739257812e+02,9.081444549560546875e+01,-6.397728347778320312e+01,5.345205688476562500e+01,-1.491408348083496094e+01,-1.048122711181640625e+02,-1.142945480346679688e+02,6.411334228515625000e+01,-3.546278381347656250e+01
2.400000020861625671e-02,-1.000000000000000000e+00,3.559349060058593750e+01,1.290935325622558594e+01,3.526861953735351562e+01,-1.082146682739257812e+02,9.081444549560546875e+01,-6.397728347778320312e+01,5.345205688476562500e+01,-1.491408348083496094e+01,-1.048122711181640625e+02,-1.142945480346679688e+02,6.411334228515625000e+01,-3.546278381347656250e+01
2.800000086426734924e-02,-1.000000000000000000e+00,3.559349060058593750e+01,1.290935325622558594e+01,3.526861953735351562e+01,-1.082146682739257812e+02,9.081444549560546875e+01,-6.397728347778320312e+01,5.345205688476562500e+01,-1.491408348083496094e+01,-1.048122711181640625e+02,-1.142945480346679688e+02,6.411334228515625000e+01,-3.546278381347656250e+01
3.200000151991844177e-02,2.000000000000000000e+00,3.559349060058593750e+01,1.290935325622558594e+01,3.526861953735351562e+01,-1.082146682739257812e+02,9.081444549560546875e+01,-6.397728347778320312e+01,5.345205688476562500e+01,-1.491408348083496094e+01,-1.048122711181640625e+02,-1.142945480346679688e+02,6.411334228515625000e+01,-3.546278381347656250e+01
3.700000047683715820e-02,2.000000000000000000e+00,3.559349060058593750e+01,1.290935325622558594e+01,3.526861953735351562e+01,-1.082146682739257812e+02,9.081444549560546875e+01,-6.397728347778320312e+01,5.345205688476562500e+01,-1.491408348083496094e+01,-1.048122711181640625e+02,-1.142945480346679688e+02,6.411334228515625000e+01,-3.546278381347656250e+01
4.300000146031379700e-02,2.000000000000000000e+00,3.559349060058593750e+01,1.290935325622558594e+01,3.526861953735351562e+01,-1.082146682739257812e+02,9.081444549560546875e+01,-6.397728347778320312e+01,5.345205688476562500e+01,-1.491408348083496094e+01,-1.048122711181640625e+02,-1.142945480346679688e+02,6.411334228515625000e+01,-3.546278381347656250e+01
4.399999976158142090e-02,2.000000000000000000e+00,3.559349060058593750e+01,1.290935325622558594e+01,3.526861953735351562e+01,-1.082146682739257812e+02,9.081444549560546875e+01,-6.397728347778320312e+01,5.345205688476562500e+01,-1.491408348083496094e+01,-1.048122711181640625e+02,-1.142945480346679688e+02,6.411334228515625000e+01,-3.546278381347656250e+01
5.000000074505805969e-02,2.000000000000000000e+00,3.559349060058593750e+01,1.290935325622558594e+01,3.526861953735351562e+01,-1.082146682739257812e+02,9.081444549560546875e+01,-6.397728347778320312e+01,5.345205688476562500e+01,-1.491408348083496094e+01,-1.048122711181640625e+02,-1.142945480346679688e+02,6.411334228515625000e+01,-3.546278381347656250e+01
5.200000107288360596e-02,2.000000000000000000e+00,3.559349060058593750e+01,1.290935325622558594e+01,3.526861953735351562e+01,-1.082146682739257812e+02,9.081444549560546875e+01,-6.397728347778320312e+01,5.345205688476562500e+01,-1.491408348083496094e+01,-1.048122711181640625e+02,-1.142945480346679688e+02,6.411334228515625000e+01,-3.546278381347656250e+01
5.600000172853469849e-02,2.000000000000000000e+00,3.559349060058593750e+01,1.290935325622558594e+01,3.526861953735351562e+01,-1.082146682739257812e+02,9.081444549560546875e+01,-6.397728347778320312e+01,5.345205688476562500e+01,-1.491408348083496094e+01,-1.048122711181640625e+02,-1.142945480346679688e+02,6.411334228515625000e+01,-3.546278381347656250e+01
5.999999865889549255e-02,2.000000000000000000e+00,3.559349060058593750e+01,1.290935325622558594e+01,3.526861953735351562e+01,-1.082146682739257812e+02,9.081444549560546875e+01,-6.397728347778320312e+01,5.345205688476562500e+01,-1.491408348083496094e+01,-1.048122711181640625e+02,-1.142945480346679688e+02,6.411334228515625000e+01,-3.546278381347656250e+01
6.400000303983688354e-02,2.000000000000000000e+00,3.559349060058593750e+01,1.290935325622558594e+01,3.526861953735351562e+01,-1.082146682739257812e+02,9.081444549560546875e+01,-6.397728347778320312e+01,5.345205688476562500e+01,-1.491408348083496094e+01,-1.048122711181640625e+02,-1.142945480346679688e+02,6.411334228515625000e+01,-3.546278381347656250e+01
6.800000369548797607e-02,2.000000000000000000e+00,3.559349060058593750e+01,1.290935325622558594e+01,3.526861953735351562e+01,-1.082146682739257812e+02,9.081444549560546875e+01,-6.397728347778320312e+01,5.345205688476562500e+01,-1.491408348083496094e+01,-1.048122711181640625e+02,-1.142945480346679688e+02,6.411334228515625000e+01,-3.546278381347656250e+01
7.199999690055847168e-02,2.000000000000000000e+00,3.559349060058593750e+01,1.290935325622558594e+01,3.526861953735351562e+01,-1.082146682739257812e+02,9.081444549560546875e+01,-6.397728347778320312e+01,5.345205688476562500e+01,-1.491408348083496094e+01,-1.048122711181640625e+02,-1.142945480346679688e+02,6.411334228515625000e+01,-3.546278381347656250e+01
7.599999755620956421e-02,2.000000000000000000e+00,3.559352493286132812e+01,1.290932941436767578e+01,3.526861953735351562e+01,-1.082146682739257812e+02,9.081444549560546875e+01,-6.397728347778320312e+01,5.345205688476562500e+01,-1.491408348083496094e+01,-1.048122711181640625e+02,-1.142945480346679688e+02,6.411334228515625000e+01,-3.546278381347656250e+01
7.999999821186065674e-02,2.000000000000000000e+00,3.559370803833007812e+01,1.290918254852294922e+01,3.526862335205078125e+01,-1.082146759033203125e+02,9.081444549560546875e+01,-6.397729110717773438e+01,5.345205688476562500e+01,-1.491408348083496094e+01,-1.048122711181640625e+02,-1.142945480346679688e+02,6.411334228515625000e+01,-3.546278381347656250e+01
8.399999886751174927e-02,2.000000000000000000e+00,3.559424591064453125e+01,1.290872955322265625e+01,3.526863479614257812e+01,-1.082147140502929688e+02,9.081446075439453125e+01,-6.397729492187500000e+01,5.345205688476562500e+01,-1.491408348083496094e+01,-1.048122711181640625e+02,-1.142945480346679688e+02,6.411334228515625000e+01,-3.546278381347656250e+01
8.799999952316284180e-02,2.000000000000000000e+00,3.559532546997070312e+01,1.290776157379150391e+01,3.526865768432617188e+01,-1.082148132324218750e+02,9.081450653076171875e+01,-6.397732925415039062e+01,5.345202255249023438e+01,-1.491408729553222656e+01,-1.048122634887695312e+02,-1.142945480346679688e+02,6.411334228515625000e+01,-3.546278381347656250e+01
9.200000017881393433e-02,2.000000000000000000e+00,3.559703063964843750e+01,1.290611267089843750e+01,3.526868438720703125e+01,-1.082150497436523438e+02,9.081457519531250000e+01,-6.397742080688476562e+01,5.345181274414062500e+01,-1.491410064697265625e+01,-1.048122329711914062e+02,-1.142945632934570312e+02,6.411333465576171875e+01,-3.546279144287109375e+01
9.600000083446502686e-02,2.000000000000000000e+00,3.559938049316406250e+01,1.290365791320800781e+01,3.526871490478515625e+01,-1.082155380249023438e+02,9.081467437744140625e+01,-6.397761154174804688e+01,5.345111083984375000e+01,-1.491414546966552734e+01,-1.048121109008789062e+02,-1.142946243286132812e+02,6.411331939697265625e+01,-3.546281433105468750e+01
1.000000014901161194e-01,2.000000000000000000e+00,3.560239791870117188e+01,1.290026283264160156e+01,3.526872634887695312e+01,-1.082164154052734375e+02,9.081481933593750000e+01,-6.397797393798828125e+01,5.344953155517578125e+01,-1.491423225402832031e+01,-1.048118591308593750e+02,-1.142947921752929688e+02,6.411328887939453125e+01,-3.546289443969726562e+01
1.040000021457672119e-01,2.000000000000000000e+00,3.560610961914062500e+01,1.289576530456542969e+01,3.526869964599609375e+01,-1.082178878784179688e+02,9.081501007080078125e+01,-6.397859954833984375e+01,5.344669342041015625e+01,-1.491435718536376953e+01,-1.048114776611328125e+02,-1.142952346801757812e+02,6.411322784423828125e+01,-3.546311187744140625e+01
1.080000028014183044e-01,2.000000000000000000e+00,3.561053466796875000e+01,1.288996982574462891e+01,3.526861953735351562e+01,-1.082201995849609375e+02,9.081526947021484375e+01,-6.397959899902343750e+01,5.344224166870117188e+01,-1.491448879241943359e+01,-1.048110046386718750e+02,-1.142961349487304688e+02,6.411311340332031250e+01,-3.546357727050781250e+01
1.120000034570693970e-01,2.000000000000000000e+00,3.561575698852539062e+01,1.288264274597167969e+01,3.526845169067382812e+01,-1.082236099243164062e+02,9.081560516357421875e+01,-6.398109436035156250e+01,5.343580627441406250e+01,-1.491457557678222656e+01,-1.048105239868164062e+02,-1.142978057861328125e+02,6.411293029785156250e+01,-3.546446609497070312e+01
1.159999966621398926e-01,2.000000000000000000e+00,3.562194824218750000e+01,1.287351036071777344e+01,3.526816558837890625e+01,-1.082284622192382812e+02,9.081603240966796875e+01,-6.398323822021484375e+01,5.342702484130859375e+01,-1.491454601287841797e+01,-1.048101730346679688e+02,-1.143006286621093750e+02,6.411264038085937500e+01,-3.546598815917968750e+01
1.199999973177909851e-01,2.000000000000000000e+00,3.562933349609375000e+01,1.286225509643554688e+01,3.526773071289062500e+01,-1.082351150512695312e+02,9.081658172607421875e+01,-6.398619079589843750e+01,5.341559219360351562e+01,-1.491430091857910156e+01,-1.048101501464843750e+02,-1.143050384521484375e+02,6.411222839355468750e+01,-3.546838760375976562e+01
1.239999979734420776e-01,2.000000000000000000e+00,3.563808059692382812e+01,1.284862709045410156e+01,3.526710510253906250e+01,-1.082439651489257812e+02,9.081725311279296875e+01,-6.399013900756835938e+01,5.340118408203125000e+01,-1.491373348236083984e+01,-1.048106231689453125e+02,-1.143115158081054688e+02,6.411164093017578125e+01,-3.547193908691406250e+01
1.280000060796737671e-01,2.000000000000000000e+00,3.564816284179687500e+01,1.283263015747070312e+01,3.526623153686523438e+01,-1.082554321289062500e+02,9.081805419921875000e+01,-6.399528121948242188e+01,5.338332748413085938e+01,-1.491273975372314453e+01,-1.048118057250976562e+02,-1.143205718994140625e+02,6.411085510253906250e+01,-3.547692871093750000e+01
1.309999972581863403e-01,2.000000000000000000e+00,3.565937805175781250e+01,1.281456375122070312e+01,3.526504898071289062e+01,-1.082699356079101562e+02,9.081899261474609375e+01,-6.400180816650390625e+01,5.336143112182617188e+01,-1.491123390197753906e+01,-1.048138351440429688e+02,-1.143327026367187500e+02,6.410983276367187500e+01,-3.548363876342773438e+01
1.360000073909759521e-01,2.000000000000000000e+00,3.567148971557617188e+01,1.279476261138916016e+01,3.526350021362304688e+01,-1.082878341674804688e+02,9.082005310058593750e+01,-6.400991058349609375e+01,5.333491897583007812e+01,-1.490912532806396484e+01,-1.048168716430664062e+02,-1.143484115600585938e+02,6.410853576660156250e+01,-3.549234771728515625e+01
1.389999985694885254e-01,2.000000000000000000e+00,3.568441009521484375e+01,1.277335643768310547e+01,3.526154708862304688e+01,-1.083094253540039062e+02,9.082124328613281250e+01,-6.401971435546875000e+01,5.330357360839843750e+01,-1.490630531311035156e+01,-1.048211212158203125e+02,-1.143681564331054688e+02,6.410691070556640625e+01,-3.550331878662109375e+01
1.439999938011169434e-01,2.000000000000000000e+00,3.569817352294921875e+01,1.275029373168945312e+01,3.525916671752929688e+01,-1.083348846435546875e+02,9.082256317138671875e+01,-6.403130340576171875e+01,5.326761627197265625e+01,-1.490264320373535156e+01,-1.048268737792968750e+02,-1.143923416137695312e+02,6.410497283935546875e+01,-3.551678085327148438e+01
1.480000019073486328e-01,2.000000000000000000e+00,3.571286010742187500e+01,1.272547340393066406e+01,3.525634765625000000e+01,-1.083642807006835938e+02,9.082402038574218750e+01,-6.404471588134765625e+01,5.322749710083007812e+01,-1.489802742004394531e+01,-1.048343658447265625e+02,-1.144212265014648438e+02,6.410268402099609375e+01,-3.553289413452148438e+01
1.519999951124191284e-01,2.000000000000000000e+00,3.572857284545898438e+01,1.269874000549316406e+01,3.525310897827148438e+01,-1.083975448608398438e+02,9.082560729980468750e+01,-6.405990600585937500e+01,5.318361663818359375e+01,-1.489240264892578125e+01,-1.048437423706054688e+02,-1.144548950195312500e+02,6.410005950927734375e+01,-3.555170440673828125e+01
1.560000032186508179e-01,2.000000000000000000e+00,3.574544525146484375e+01,1.266988754272460938e+01,3.524948120117187500e+01,-1.084345397949218750e+02,9.082735443115234375e+01,-6.407682037353515625e+01,5.313632583618164062e+01,-1.488577938079833984e+01,-1.048549804687500000e+02,-1.144932022094726562e+02,6.409710693359375000e+01,-3.557313537597656250e+01
1.599999964237213135e-01,2.000000000000000000e+00,3.576355743408203125e+01,1.263879299163818359e+01,3.524549102783203125e+01,-1.084749984741210938e+02,9.082923889160156250e+01,-6.409531402587890625e+01,5.308596801757812500e+01,-1.487823677062988281e+01,-1.048679733276367188e+02,-1.145357589721679688e+02,6.409384918212890625e+01,-3.559697341918945312e+01
1.640000045299530029e-01,2.000000000000000000e+00,3.578284072875976562e+01,1.260553646087646484e+01,3.524118041992187500e+01,-1.085186233520507812e+02,9.083126068115234375e+01,-6.411526489257812500e+01,5.303262710571289062e+01,-1.486993122100830078e+01,-1.048823928833007812e+02,-1.145820007324218750e+02,6.409032440185546875e+01,-3.562288284301757812e+01
1.679999977350234985e-01,2.000000000000000000e+00,3.580309295654296875e+01,1.257038497924804688e+01,3.523658370971679688e+01,-1.085650482177734375e+02,9.083340454101562500e+01,-6.413650512695312500e+01,5.297596740722656250e+01,-1.486109352111816406e+01,-1.048977584838867188e+02,-1.146311874389648438e+02,6.408657073974609375e+01,-3.565044784545898438e+01
1.720000058412551880e-01,2.000000000000000000e+00,3.582406997680664062e+01,1.253361320495605469e+01,3.523174285888671875e+01,-1.086138687133789062e+02,9.083563995361328125e+01,-6.415883636474609375e+01,5.291562271118164062e+01,-1.485196495056152344e+01,-1.049135665893554688e+02,-1.146825790405273438e+02,6.408264923095703125e+01,-3.567923355102539062e+01
1.759999990463256836e-01,2.000000000000000000e+00,3.584568405151367188e+01,1.249531078338623047e+01,3.522670364379882812e+01,-1.086646652221679688e+02,9.083798217773437500e+01,-6.418207550048828125e+01,5.285166168212890625e+01,-1.484273719787597656e+01,-1.049294204711914062e+02,-1.147354888916015625e+02,6.407856750488281250e+01,-3.570883941650390625e+01
1.800000071525573730e-01,2.000000000000000000e+00,3.586809539794921875e+01,1.245536708831787109e+01,3.522152709960937500e+01,-1.087170028686523438e+02,9.084040832519531250e+01,-6.420600891113281250e+01,5.278457641601562500e+01,-1.483352470397949219e+01,-1.049451065063476562e+02,-1.147893066406250000e+02,6.407440185546875000e+01,-3.573894500732421875e+01
1.840000003576278687e-01,2.000000000000000000e+00,3.589154052734375000e+01,1.241365242004394531e+01,3.521627044677734375e+01,-1.087704696655273438e+02,9.084291839599609375e+01,-6.423044586181640625e+01,5.271498489379882812e+01,-1.482439136505126953e+01,-1.049605255126953125e+02,-1.148436355590820312e+02,6.407016754150390625e+01,-3.576930999755859375e+01
1.879999935626983643e-01,2.000000000000000000e+00,3.591613388061523438e+01,1.237020301818847656e+01,3.521097946166992188e+01,-1.088247070312500000e+02,9.084550476074218750e+01,-6.425521850585937500e+01,5.264353942871093750e+01,-1.481535148620605469e+01,-1.049756622314453125e+02,-1.148981933593750000e+02,6.406589508056640625e+01,-3.579978942871093750e+01
1.920000016689300537e-01,2.000000000000000000e+00,3.594186019897460938e+01,1.232519721984863281e+01,3.520567321777343750e+01,-1.088794250488281250e+02,9.084815979003906250e+01,-6.428019714355468750e+01,5.257096099853515625e+01,-1.480638313293457031e+01,-1.049906005859375000e+02,-1.149528503417968750e+02,6.406161499023437500e+01,-3.583030700683593750e+01
1.959999948740005493e-01,2.000000000000000000e+00,3.596866989135742188e+01,1.227886867523193359e+01,3.520038604736328125e+01,-1.089344177246093750e+02,9.085087585449218750e+01,-6.430527496337890625e+01,5.249790191650390625e+01,-1.479745483398437500e+01,-1.050054397583007812e+02,-1.150075225830078125e+02,6.405731964111328125e+01,-3.586082839965820312e+01
2.000000029802322388e-01,2.000000000000000000e+00,3.599641799926757812e+01,1.223153781890869141e+01,3.519511413574218750e+01,-1.089895248413085938e+02,9.085363006591796875e+01,-6.433040618896484375e+01,5.242472076416015625e+01,-1.478853416442871094e+01,-1.050202560424804688e+02,-1.150622024536132812e+02,6.405302429199218750e+01,-3.589134979248046875e+01
2.039999961853027344e-01,2.000000000000000000e+00,3.602479171752929688e+01,1.218360710144042969e+01,3.518985748291015625e+01,-1.090446853637695312e+02,9.085640716552734375e+01,-6.435554504394531250e+01,5.235154342651367188e+01,-1.477961635589599609e+01,-1.050350570678710938e+02,-1.151168594360351562e+02,6.404872894287109375e+01,-3.592186737060546875e+01
2.080000042915344238e-01,2.000000000000000000e+00,3.605345153808593750e+01,1.213543224334716797e+01,3.518460845947265625e+01,-1.090998458862304688e+02,9.085918426513671875e+01,-6.438068389892578125e+01,5.227837371826171875e+01,-1.477069950103759766e+01,-1.050498580932617188e+02,-1.151715240478515625e+02,6.404443359375000000e+01,-3.595238113403320312e+01
2.119999974966049194e-01,2.000000000000000000e+00,3.608217239379882812e+01,1.208720874786376953e+01,3.517936325073242188e+01,-1.091550140380859375e+02,9.086197662353515625e+01,-6.440583038330078125e+01,5.220521163940429688e+01,-1.476178455352783203e+01,-1.050646667480468750e+02,-1.152261657714843750e+02,6.404013824462890625e+01,-3.598289108276367188e+01
2.160000056028366089e-01,2.000000000000000000e+00,3.611089324951171875e+01,1.203898811340332031e+01,3.517411804199218750e+01,-1.092101745605468750e+02,9.086476135253906250e+01,-6.443096160888671875e+01,5.213206100463867188e+01,-1.475286865234375000e+01,-1.050794677734375000e+02,-1.152808227539062500e+02,6.403583526611328125e+01,-3.601339721679687500e+01
2.199999988079071045e-01,2.000000000000000000e+00,3.613961410522460938e+01,1.199077224731445312e+01,3.516887283325195312e+01,-1.092653274536132812e+02,9.086754608154296875e+01,-6.445610046386718750e+01,5.205891799926757812e+01,-1.474395561218261719e+01,-1.050942687988281250e+02,-1.153354644775390625e+02,6.403154754638671875e+01,-3.604390716552734375e+01
2.240000069141387939e-01,2.000000000000000000e+00,3.616832733154296875e+01,1.194256210327148438e+01,3.516362762451171875e+01,-1.093204803466796875e+02,9.087033081054687500e+01,-6.448123168945312500e+01,5.198577880859375000e+01,-1.473504257202148438e+01,-1.051090698242187500e+02,-1.153900909423828125e+02,6.402725219726562500e+01,-3.607440567016601562e+01
2.280000001192092896e-01,2.000000000000000000e+00,3.619704055786132812e+01,1.189435577392578125e+01,3.515838241577148438e+01,-1.093756179809570312e+02,9.087312316894531250e+01,-6.450635528564453125e+01,5.191265106201171875e+01,-1.472613048553466797e+01,-1.051238708496093750e+02,-1.154447174072265625e+02,6.402296447753906250e+01,-3.610490417480468750e+01
2.319999933242797852e-01,2.000000000000000000e+00,3.622574996948242188e+01,1.184615612030029297e+01,3.515314102172851562e+01,-1.094307479858398438e+02,9.087590789794921875e+01,-6.453148651123046875e+01,5.183953094482421875e+01,-1.471721839904785156e+01,-1.051386642456054688e+02,-1.154993438720703125e+02,6.401866912841796875e+01,-3.613539505004882812e+01
2.360000014305114746e-01,2.000000000000000000e+00,3.625445556640625000e+01,1.179796218872070312e+01,3.514789962768554688e+01,-1.094858856201171875e+02,9.087868499755859375e+01,-6.455660247802734375e+01,5.176641845703125000e+01,-1.470830917358398438e+01,-1.051534576416015625e+02,-1.155539627075195312e+02,6.401438140869140625e+01,-3.616588592529296875e+01
2.399999946355819702e-01,2.000000000000000000e+00,3.628316116333007812e+01,1.174977207183837891e+01,3.514265060424804688e+01,-1.095410079956054688e+02,9.088147735595703125e+01,-6.458172607421875000e+01,5.169331359863281250e+01,-1.469940090179443359e+01,-1.051682586669921875e+02,-1.156085586547851562e+02,6.401008605957031250e+01,-3.619637298583984375e+01
2.440000027418136597e-01,2.000000000000000000e+00,3.631185913085937500e+01,1.170158767700195312e+01,3.513740921020507812e+01,-1.095961227416992188e+02,9.088426208496093750e+01,-6.460684967041015625e+01,5.162021636962890625e+01,-1.469049263000488281e+01,-1.051830444335937500e+02,-1.156631774902343750e+02,6.400579071044921875e+01,-3.622686004638671875e+01
2.479999959468841553e-01,2.000000000000000000e+00,3.634056091308593750e+01,1.165340805053710938e+01,3.513217163085937500e+01,-1.096512374877929688e+02,9.088703918457031250e+01,-6.463196563720703125e+01,5.154712677001953125e+01,-1.468158531188964844e+01,-1.051978378295898438e+02,-1.157177734375000000e+02,6.400150299072265625e+01,-3.625733947753906250e+01
2.520000040531158447e-01,2.000000000000000000e+00,3.636925506591796875e+01,1.160523414611816406e+01,3.512693023681640625e+01,-1.097063369750976562e+02,9.088982391357421875e+01,-6.465708160400390625e+01,5.147404479980468750e+01,-1.467267894744873047e+01,-1.052126235961914062e+02,-1.157723617553710938e+02,6.399721527099609375e+01,-3.628781509399414062e+01
2.560000121593475342e-01,2.000000000000000000e+00,3.639794540405273438e+01,1.155706501007080078e+01,3.512168502807617188e+01,-1.097614440917968750e+02,9.089260864257812500e+01,-6.468218231201171875e+01,5.140097045898437500e+01,-1.466377449035644531e+01,-1.052274093627929688e+02,-1.158269500732421875e+02,6.399292373657226562e+01,-3.631829071044921875e+01
2.599999904632568359e-01,2.000000000000000000e+00,3.642663574218750000e+01,1.150890159606933594e+01,3.511644744873046875e+01,-1.098165359497070312e+02,9.089539337158203125e+01,-6.470729064941406250e+01,5.132790756225585938e+01,-1.465487098693847656e+01,-1.052421951293945312e+02,-1.158815383911132812e+02,6.398863601684570312e+01,-3.634876251220703125e+01
2.639999985694885254e-01,2.000000000000000000e+00,3.645531845092773438e+01,1.146074295043945312e+01,3.511120986938476562e+01,-1.098716201782226562e+02,9.089817047119140625e+01,-6.473239898681640625e+01,5.125484848022460938e+01,-1.464596652984619141e+01,-1.052569808959960938e+02,-1.159361114501953125e+02,6.398434448242187500e+01,-3.637923049926757812e+01
2.680000066757202148e-01,2.000000000000000000e+00,3.648400115966796875e+01,1.141258907318115234e+01,3.510597229003906250e+01,-1.099267044067382812e+02,9.090095520019531250e+01,-6.475749969482421875e+01,5.118179702758789062e+01,-1.463706493377685547e+01,-1.052717590332031250e+02,-1.159906845092773438e+02,6.398005676269531250e+01,-3.640969467163085938e+01
2.720000147819519043e-01,2.000000000000000000e+00,3.651268386840820312e+01,1.136443996429443359e+01,3.510073089599609375e+01,-1.099817733764648438e+02,9.090373992919921875e+01,-6.478259277343750000e+01,5.110875320434570312e+01,-1.462816333770751953e+01,-1.052865371704101562e+02,-1.160452423095703125e+02,6.397576522827148438e+01,-3.644015502929687500e+01
2.759999930858612061e-01,2.000000000000000000e+00,3.654135894775390625e+01,1.131629562377929688e+01,3.509549331665039062e+01,-1.100368499755859375e+02,9.090651702880859375e+01,-6.480770111083984375e+01,5.103571701049804688e+01,-1.461926174163818359e+01,-1.053013229370117188e+02,-1.160998001098632812e+02,6.397148513793945312e+01,-3.647061538696289062e+01
2.800000011920928955e-01,2.000000000000000000e+00,3.657003021240234375e+01,1.126815795898437500e+01,3.509025955200195312e+01,-1.100919113159179688e+02,9.090930175781250000e+01,-6.483279418945312500e+01,5.096268844604492188e+01,-1.461036205291748047e+01,-1.053160934448242188e+02,-1.161543502807617188e+02,6.396719360351562500e+01,-3.650107192993164062e+01
2.840000092983245850e-01,2.000000000000000000e+00,3.659870147705078125e+01,1.122002315521240234e+01,3.508501815795898438e+01,-1.101469802856445312e+02,9.091207885742187500e+01,-6.485788726806640625e+01,5.088967132568359375e+01,-1.460146427154541016e+01,-1.053308792114257812e+02,-1.162088928222656250e+02,6.396291351318359375e+01,-3.653152465820312500e+01
2.879999876022338867e-01,2.000000000000000000e+00,3.662736892700195312e+01,1.117189502716064453e+01,3.507978439331054688e+01,-1.102020263671875000e+02,9.091486358642578125e+01,-6.488297271728515625e+01,5.081665420532226562e+01,-1.459256649017333984e+01,-1.053456497192382812e+02,-1.162634429931640625e+02,6.395862197875976562e+01,-3.656197357177734375e+01
2.919999957084655762e-01,2.000000000000000000e+00,3.665603256225585938e+01,1.112376976013183594e+01,3.507454681396484375e+01,-1.102570800781250000e+02,9.091764831542968750e+01,-6.490805816650390625e+01,5.074365234375000000e+01,-1.458366966247558594e+01,-1.053604202270507812e+02,-1.163179702758789062e+02,6.395434188842773438e+01,-3.659241867065429688e+01
2.960000038146972656e-01,2.000000000000000000e+00,3.668469238281250000e+01,1.107565116882324219e+01,3.506931304931640625e+01,-1.103121185302734375e+02,9.092042541503906250e+01,-6.493314361572265625e+01,5.067065429687500000e+01,-1.457477378845214844e+01,-1.053751983642578125e+02,-1.163725051879882812e+02,6.395005035400390625e+01,-3.662285995483398438e+01
3.000000119209289551e-01,2.000000000000000000e+00,3.671335220336914062e+01,1.102753734588623047e+01,3.506407928466796875e+01,-1.103671569824218750e+02,9.092320251464843750e+01,-6.495822906494140625e+01,5.059766006469726562e+01,-1.456587886810302734e+01,-1.053899612426757812e+02,-1.164270401000976562e+02,6.394577026367187500e+01,-3.665330123901367188e+01
3.039999902248382568e-01,2.000000000000000000e+00,3.674200820922851562e+01,1.097942638397216797e+01,3.505884552001953125e+01,-1.104221878051757812e+02,9.092598724365234375e+01,-6.498329925537109375e+01,5.052467727661132812e+01,-1.455698394775390625e+01,-1.054047317504882812e+02,-1.164815521240234375e+02,6.394148635864257812e+01,-3.668373870849609375e+01
3.079999983310699463e-01,2.000000000000000000e+00,3.677066040039062500e+01,1.093132305145263672e+01,3.505361175537109375e+01,-1.104772186279296875e+02,9.092876434326171875e+01,-6.500838470458984375e+01,5.045170211791992188e+01,-1.454809093475341797e+01,-1.054194946289062500e+02,-1.165360717773437500e+02,6.393719482421875000e+01,-3.671417236328125000e+01
3.120000064373016357e-01,2.000000000000000000e+00,3.679931259155273438e+01,1.088322162628173828e+01,3.504837799072265625e+01,-1.105322341918945312e+02,9.093154907226562500e+01,-6.503345489501953125e+01,5.037873077392578125e+01,-1.453919887542724609e+01,-1.054342651367187500e+02,-1.165905761718750000e+02,6.393291473388671875e+01,-3.674460220336914062e+01
3.160000145435333252e-01,2.000000000000000000e+00,3.682796096801757812e+01,1.083512687683105469e+01,3.504314804077148438e+01,-1.105872497558593750e+02,9.093432617187500000e+01,-6.505853271484375000e+01,5.030576705932617188e+01,-1.453030681610107422e+01,-1.054490280151367188e+02,-1.166450805664062500e+02,6.392863082885742188e+01,-3.677502822875976562e+01
3.199999928474426270e-01,2.000000000000000000e+00,3.685660171508789062e+01,1.078703689575195312e+01,3.503791427612304688e+01,-1.106422653198242188e+02,9.093709564208984375e+01,-6.508359527587890625e+01,5.023281478881835938e+01,-1.452141571044921875e+01,-1.054637908935546875e+02,-1.166995773315429688e+02,6.392435073852539062e+01,-3.680545425415039062e+01
3.240000009536743164e-01,2.000000000000000000e+00,3.688524627685546875e+01,1.073895072937011719e+01,3.503268432617187500e+01,-1.106972656250000000e+02,9.093988037109375000e+01,-6.510866546630859375e+01,5.015987014770507812e+01,-1.451252651214599609e+01,-1.054785537719726562e+02,-1.167540817260742188e+02,6.392006683349609375e+01,-3.683587646484375000e+01
3.280000090599060059e-01,2.000000000000000000e+00,3.691388320922851562e+01,1.069087028503417969e+01,3.502745056152343750e+01,-1.107522735595703125e+02,9.094265747070312500e+01,-6.513372802734375000e+01,5.008692550659179688e+01,-1.450363731384277344e+01,-1.054933090209960938e+02,-1.168085556030273438e+02,6.391578292846679688e+01,-3.686629486083984375e+01
3.319999873638153076e-01,2.000000000000000000e+00,3.694252014160156250e+01,1.064279365539550781e+01,3.502222061157226562e+01,-1.108072586059570312e+02,9.094543457031250000e+01,-6.515879058837890625e+01,5.001399230957031250e+01,-1.449474906921386719e+01,-1.055080718994140625e+02,-1.168630523681640625e+02,6.391150283813476562e+01,-3.689671325683593750e+01
3.359999954700469971e-01,2.000000000000000000e+00,3.697115707397460938e+01,1.059472274780273438e+01,3.501699066162109375e+01,-1.108622512817382812e+02,9.094821166992187500e+01,-6.518385314941406250e+01,4.994106674194335938e+01,-1.448586177825927734e+01,-1.055228347778320312e+02,-1.169175262451171875e+02,6.390722656250000000e+01,-3.692712402343750000e+01
3.400000035762786865e-01,2.000000000000000000e+00,3.699978256225585938e+01,1.054665565490722656e+01,3.501176071166992188e+01,-1.109172363281250000e+02,9.095098876953125000e+01,-6.520890045166015625e+01,4.986814880371093750e+01,-1.447697544097900391e+01,-1.055375823974609375e+02,-1.169719924926757812e+02,6.390294265747070312e+01,-3.695753479003906250e+01
3.440000116825103760e-01,2.000000000000000000e+00,3.702841186523437500e+01,1.049859333038330078e+01,3.500653457641601562e+01,-1.109722061157226562e+02,9.095377349853515625e+01,-6.523396301269531250e+01,4.979523849487304688e+01,-1.446808910369873047e+01,-1.055523376464843750e+02,-1.170264511108398438e+02,6.389866256713867188e+01,-3.698794174194335938e+01
3.479999899864196777e-01,2.000000000000000000e+00,3.705703735351562500e+01,1.045053577423095703e+01,3.500130462646484375e+01,-1.110271835327148438e+02,9.095654296875000000e+01,-6.525901794433593750e+01,4.972233200073242188e+01,-1.445920467376708984e+01,-1.055670928955078125e+02,-1.170809173583984375e+02,6.389438629150390625e+01,-3.701834487915039062e+01
3.519999980926513672e-01,2.000000000000000000e+00,3.708565902709960938e+01,1.040248298645019531e+01,3.499607467651367188e+01,-1.110821456909179688e+02,9.095932769775390625e+01,-6.528406524658203125e+01,4.964943313598632812e+01,-1.445032215118408203e+01,-1.055818405151367188e+02,-1.171353683471679688e+02,6.389010238647460938e+01,-3.704874801635742188e+01
3.560000061988830566e-01,2.000000000000000000e+00,3.711427688598632812e+01,1.035443496704101562e+01,3.499085235595703125e+01,-1.111371078491210938e+02,9.096209716796875000e+01,-6.530910491943359375e+01,4.957654190063476562e+01,-1.444143962860107422e+01,-1.055965881347656250e+02,-1.171898193359375000e+02,6.388582611083984375e+01,-3.707914352416992188e+01
3.600000143051147461e-01,2.000000000000000000e+00,3.714289474487304688e+01,1.030639076232910156e+01,3.498562240600585938e+01,-1.111920623779296875e+02,9.096487426757812500e+01,-6.533415222167968750e+01,4.950366210937500000e+01,-1.443255710601806641e+01,-1.056113433837890625e+02,-1.172442703247070312e+02,6.388154602050781250e+01,-3.710953903198242188e+01
3.639999926090240479e-01,2.000000000000000000e+00,3.717150878906250000e+01,1.025835132598876953e+01,3.498039627075195312e+01,-1.112470245361328125e+02,9.096765136718750000e+01,-6.535919189453125000e+01,4.943078231811523438e+01,-1.442367649078369141e+01,-1.056260910034179688e+02,-1.172987060546875000e+02,6.387726974487304688e+01,-3.713993453979492188e+01
3.680000007152557373e-01,2.000000000000000000e+00,3.720011901855468750e+01,1.021031761169433594e+01,3.497517395019531250e+01,-1.113019638061523438e+02,9.097042083740234375e+01,-6.538423156738281250e+01,4.935791397094726562e+01,-1.441479492187500000e+01,-1.056408386230468750e+02,-1.173531417846679688e+02,6.387299346923828125e+01,-3.717031860351562500e+01
3.720000088214874268e-01,2.000000000000000000e+00,3.722872924804687500e+01,1.016228771209716797e+01,3.496994781494140625e+01,-1.113569030761718750e+02,9.097320556640625000e+01,-6.540927124023437500e+01,4.928504943847656250e+01,-1.440591621398925781e+01,-1.056555786132812500e+02,-1.174075775146484375e+02,6.386870956420898438e+01,-3.720070648193359375e+01
3.759999871253967285e-01,2.000000000000000000e+00,3.725733184814453125e+01,1.011426162719726562e+01,3.496472167968750000e+01,-1.114118423461914062e+02,9.097597503662109375e+01,-6.543431091308593750e+01,4.921219635009765625e+01,-1.439703655242919922e+01,-1.056703186035156250e+02,-1.174620056152343750e+02,6.386443328857421875e+01,-3.723109054565429688e+01
3.799999952316284180e-01,2.000000000000000000e+00,3.728593444824218750e+01,1.006624126434326172e+01,3.495949554443359375e+01,-1.114667663574218750e+02,9.097875213623046875e+01,-6.545934295654296875e+01,4.913934707641601562e+01,-1.438815879821777344e+01,-1.056850585937500000e+02,-1.175164108276367188e+02,6.386016082763671875e+01,-3.726147079467773438e+01
3.840000033378601074e-01,2.000000000000000000e+00,3.731453704833984375e+01,1.001822566986083984e+01,3.495427322387695312e+01,-1.115216979980468750e+02,9.098152160644531250e+01,-6.548436737060546875e+01,4.906650543212890625e+01,-1.437928199768066406e+01,-1.056997985839843750e+02,-1.175708312988281250e+02,6.385588455200195312e+01,-3.729185104370117188e+01
3.880000114440917969e-01,2.000000000000000000e+00,3.734313583374023438e+01,9.970212936401367188e+00,3.494905090332031250e+01,-1.115766220092773438e+02,9.098429870605468750e+01,-6.550940704345703125e+01,4.899366760253906250e+01,-1.437040615081787109e+01,-1.057145385742187500e+02,-1.176252441406250000e+02,6.385160827636718750e+01,-3.732222366333007812e+01
3.919999897480010986e-01,2.000000000000000000e+00,3.737172698974609375e+01,9.922206878662109375e+00,3.494382476806640625e+01,-1.116315307617187500e+02,9.098707580566406250e+01,-6.553443145751953125e+01,4.892084121704101562e+01,-1.436153125762939453e+01,-1.057292785644531250e+02,-1.176796417236328125e+02,6.384733200073242188e+01,-3.735259628295898438e+01
3.959999978542327881e-01,2.000000000000000000e+00,3.740031814575195312e+01,9.874203681945800781e+00,3.493860244750976562e+01,-1.116864395141601562e+02,9.098984527587890625e+01,-6.555944824218750000e+01,4.884801864624023438e+01,-1.435265541076660156e+01,-1.057440109252929688e+02,-1.177340469360351562e+02,6.384305572509765625e+01,-3.738296890258789062e+01
4.000000059604644775e-01,2.000000000000000000e+00,3.742890930175781250e+01,9.826205253601074219e+00,3.493338012695312500e+01,-1.117413406372070312e+02,9.099262237548828125e+01,-6.558447265625000000e+01,4.877520370483398438e+01,-1.434378337860107422e+01,-1.057587432861328125e+02,-1.177884445190429688e+02,6.383877944946289062e+01,-3.741333007812500000e+01
4.040000140666961670e-01,2.000000000000000000e+00,3.745750045776367188e+01,9.778211593627929688e+00,3.492816162109375000e+01,-1.117962417602539062e+02,9.099539184570312500e+01,-6.560949707031250000e+01,4.870239639282226562e+01,-1.433490943908691406e+01,-1.057734756469726562e+02,-1.178428268432617188e+02,6.383451080322265625e+01,-3.744369506835937500e+01
4.079999923706054688e-01,2.000000000000000000e+00,3.748608016967773438e+01,9.730222702026367188e+00,3.492294311523437500e+01,-1.118511352539062500e+02,9.099816894531250000e+01,-6.563450622558593750e+01,4.862959671020507812e+01,-1.432603836059570312e+01,-1.057882080078125000e+02,-1.178972091674804688e+02,6.383023452758789062e+01,-3.747406005859375000e+01
4.120000004768371582e-01,2.000000000000000000e+00,3.751466369628906250e+01,9.682237625122070312e+00,3.491772079467773438e+01,-1.119060287475585938e+02,9.100093841552734375e+01,-6.565952301025390625e+01,4.855679702758789062e+01,-1.431716728210449219e+01,-1.058029403686523438e+02,-1.179515914916992188e+02,6.382596206665039062e+01,-3.750441360473632812e+01
4.160000085830688477e-01,2.000000000000000000e+00,3.754324340820312500e+01,9.634257316589355469e+00,3.491249847412109375e+01,-1.119609146118164062e+02,9.100371551513671875e+01,-6.568453979492187500e+01,4.848401260375976562e+01,-1.430829620361328125e+01,-1.058176727294921875e+02,-1.180059585571289062e+02,6.382168960571289062e+01,-3.753477096557617188e+01
4.199999868869781494e-01,2.000000000000000000e+00,3.757181930541992188e+01,9.586280822753906250e+00,3.490727996826171875e+01,-1.120157928466796875e+02,9.100648498535156250e+01,-6.570954132080078125e+01,4.841123199462890625e+01,-1.429942607879638672e+01,-1.058324050903320312e+02,-1.180603256225585938e+02,6.381741714477539062e+01,-3.756512069702148438e+01
4.239999949932098389e-01,2.000000000000000000e+00,3.760039520263671875e+01,9.538309097290039062e+00,3.490206146240234375e+01,-1.120706710815429688e+02,9.100925445556640625e+01,-6.573455047607421875e+01,4.833845520019531250e+01,-1.429055786132812500e+01,-1.058471298217773438e+02,-1.181146926879882812e+02,6.381314849853515625e+01,-3.759547042846679688e+01
4.280000030994415283e-01,2.000000000000000000e+00,3.762896347045898438e+01,9.490341186523437500e+00,3.489684295654296875e+01,-1.121255340576171875e+02,9.101202392578125000e+01,-6.575955963134765625e+01,4.826568603515625000e+01,-1.428168964385986328e+01,-1.058618469238281250e+02,-1.181690521240234375e+02,6.380887222290039062e+01,-3.762582015991210938e+01
4.320000112056732178e-01,2.000000000000000000e+00,3.765753173828125000e+01,9.442378044128417969e+00,3.489162445068359375e+01,-1.121804046630859375e+02,9.101480102539062500e+01,-6.578456115722656250e+01,4.819292831420898438e+01,-1.427282238006591797e+01,-1.058765716552734375e+02,-1.182234039306640625e+02,6.380460357666015625e+01,-3.765616607666015625e+01
4.359999895095825195e-01,2.000000000000000000e+00,3.768610000610351562e+01,9.394419670104980469e+00,3.488640594482421875e+01,-1.122352600097656250e+02,9.101757049560546875e+01,-6.580955505371093750e+01,4.812017059326171875e+01,-1.426395606994628906e+01,-1.058912963867187500e+02,-1.182777557373046875e+02,6.380033493041992188e+01,-3.768650436401367188e+01
4.399999976158142090e-01,2.000000000000000000e+00,3.771466064453125000e+01,9.346465110778808594e+00,3.488118743896484375e+01,-1.122901153564453125e+02,9.102033996582031250e+01,-6.583455657958984375e+01,4.804742431640625000e+01,-1.425509071350097656e+01,-1.059060211181640625e+02,-1.183320999145507812e+02,6.379605865478515625e+01,-3.771684646606445312e+01
4.440000057220458984e-01,2.000000000000000000e+00,3.774322128295898438e+01,9.298514366149902344e+00,3.487597274780273438e+01,-1.123449630737304688e+02,9.102310943603515625e+01,-6.585955047607421875e+01,4.797467803955078125e+01,-1.424622631072998047e+01,-1.059207382202148438e+02,-1.183864440917968750e+02,6.379179000854492188e+01,-3.774718093872070312e+01
4.480000138282775879e-01,2.000000000000000000e+00,3.777177810668945312e+01,9.250569343566894531e+00,3.487075424194335938e+01,-1.123998107910156250e+02,9.102588653564453125e+01,-6.588454437255859375e+01,4.790194320678710938e+01,-1.423736190795898438e+01,-1.059354553222656250e+02,-1.184407806396484375e+02,6.378752136230468750e+01,-3.777751541137695312e+01
4.519999921321868896e-01,2.000000000000000000e+00,3.780033874511718750e+01,9.202627182006835938e+00,3.486553955078125000e+01,-1.124546432495117188e+02,9.102864837646484375e+01,-6.590953826904296875e+01,4.782921600341796875e+01,-1.422849941253662109e+01,-1.059501724243164062e+02,-1.184951095581054688e+02,6.378325271606445312e+01,-3.780784225463867188e+01
4.560000002384185791e-01,2.000000000000000000e+00,3.782889175415039062e+01,9.154690742492675781e+00,3.486032485961914062e+01,-1.125094833374023438e+02,9.103142547607421875e+01,-6.593453216552734375e+01,4.775649642944335938e+01,-1.421963596343994141e+01,-1.059648895263671875e+02,-1.185494232177734375e+02,6.377898025512695312e+01,-3.783817291259765625e+01
4.600000083446502686e-01,2.000000000000000000e+00,3.785744094848632812e+01,9.106757164001464844e+00,3.485511016845703125e+01,-1.125643157958984375e+02,9.103418731689453125e+01,-6.595951080322265625e+01,4.768377685546875000e+01,-1.421077442169189453e+01,-1.059795989990234375e+02,-1.186037521362304688e+02,6.377471160888671875e+01,-3.786849975585937500e+01
4.639999866485595703e-01,2.000000000000000000e+00,3.788598632812500000e+01,9.058828353881835938e+00,3.484989547729492188e+01,-1.126191406250000000e+02,9.103696441650390625e+01,-6.598449707031250000e+01,4.761106872558593750e+01,-1.420191478729248047e+01,-1.059943161010742188e+02,-1.186580657958984375e+02,6.377044296264648438e+01,-3.789882278442382812e+01
4.679999947547912598e-01,2.000000000000000000e+00,3.791453552246093750e+01,9.010904312133789062e+00,3.484468460083007812e+01,-1.126739578247070312e+02,9.103972625732421875e+01,-6.600948333740234375e+01,4.753836822509765625e+01,-1.419305419921875000e+01,-1.060090332031250000e+02,-1.187123794555664062e+02,6.376617431640625000e+01,-3.792914199829101562e+01
4.720000028610229492e-01,2.000000000000000000e+00,3.794307708740234375e+01,8.962983131408691406e+00,3.483946990966796875e+01,-1.127287750244140625e+02,9.104249572753906250e+01,-6.603446960449218750e+01,4.746566772460937500e+01,-1.418419456481933594e+01,-1.060237350463867188e+02,-1.187666778564453125e+02,6.376190567016601562e+01,-3.795945739746093750e+01
4.760000109672546387e-01,2.000000000000000000e+00,3.797161865234375000e+01,8.915066719055175781e+00,3.483425521850585938e+01,-1.127835845947265625e+02,9.104526519775390625e+01,-6.605944824218750000e+01,4.739297866821289062e+01,-1.417533588409423828e+01,-1.060384521484375000e+02,-1.188209762573242188e+02,6.375764465332031250e+01,-3.798977279663085938e+01
4.799999892711639404e-01,2.000000000000000000e+00,3.800015258789062500e+01,8.867155075073242188e+00,3.482904434204101562e+01,-1.128383865356445312e+02,9.104803466796875000e+01,-6.608441925048828125e+01,4.732029342651367188e+01,-1.416647815704345703e+01,-1.060531539916992188e+02,-1.188752746582031250e+02,6.375337600708007812e+01,-3.802008438110351562e+01
4.839999973773956299e-01,2.000000000000000000e+00,3.802869033813476562e+01,8.819247245788574219e+00,3.482383346557617188e+01,-1.128931961059570312e+02,9.105080413818359375e+01,-6.610939788818359375e+01,4.724761581420898438e+01,-1.415762138366699219e+01,-1.060678634643554688e+02,-1.189295654296875000e+02,6.374910736083984375e+01,-3.805039215087890625e+01
4.880000054836273193e-01,2.000000000000000000e+00,3.805722427368164062e+01,8.771343231201171875e+00,3.481862258911132812e+01,-1.129479904174804688e+02,9.105357360839843750e+01,-6.613436889648437500e+01,4.717494583129882812e+01,-1.414876556396484375e+01,-1.060825653076171875e+02,-1.189838485717773438e+02,6.374484634399414062e+01,-3.808069992065429688e+01
4.920000135898590088e-01,2.000000000000000000e+00,3.808575439453125000e+01,8.723443031311035156e+00,3.481340789794921875e+01,-1.130027847290039062e+02,9.105634307861328125e+01,-6.615933990478515625e+01,4.710227966308593750e+01,-1.413990974426269531e+01,-1.060972671508789062e+02,-1.190381393432617188e+02,6.374057769775390625e+01,-3.811100387573242188e+01
4.959999918937683105e-01,2.000000000000000000e+00,3.811428451538085938e+01,8.675548553466796875e+00,3.480819702148437500e+01,-1.130575714111328125e+02,9.105910491943359375e+01,-6.618430328369140625e+01,4.702962112426757812e+01,-1.413105583190917969e+01,-1.061119766235351562e+02,-1.190924072265625000e+02,6.373631286621093750e+01,-3.814130783081054688e+01
5.000000000000000000e-01,2.000000000000000000e+00,3.814281082153320312e+01,8.627656936645507812e+00,3.480298995971679688e+01,-1.131123428344726562e+02,9.106187438964843750e+01,-6.620926666259765625e+01,4.695696640014648438e+01,-1.412220096588134766e+01,-1.061266708374023438e+02,-1.191466827392578125e+02,6.373204421997070312e+01,-3.817160415649414062e+01
5.040000081062316895e-01,2.000000000000000000e+00,3.817133331298828125e+01,8.579769134521484375e+00,3.479777908325195312e+01,-1.131671218872070312e+02,9.106463623046875000e+01,-6.623423004150390625e+01,4.688432312011718750e+01,-1.411334800720214844e+01,-1.061413803100585938e+02,-1.192009582519531250e+02,6.372778320312500000e+01,-3.820190048217773438e+01
5.080000162124633789e-01,2.000000000000000000e+00,3.819985580444335938e+01,8.531886100769042969e+00,3.479257202148437500e+01,-1.132219009399414062e+02,9.106740570068359375e+01,-6.625919342041015625e+01,4.681167984008789062e+01,-1.410449504852294922e+01,-1.061560821533203125e+02,-1.192552108764648438e+02,6.372352218627929688e+01,-3.823219680786132812e+01
5.120000243186950684e-01,2.000000000000000000e+00,3.822837066650390625e+01,8.484005928039550781e+00,3.478736114501953125e+01,-1.132766647338867188e+02,9.107017517089843750e+01,-6.628414916992187500e+01,4.673904800415039062e+01,-1.409564399719238281e+01,-1.061707763671875000e+02,-1.193094711303710938e+02,6.371925354003906250e+01,-3.826248931884765625e+01
5.159999728202819824e-01,2.000000000000000000e+00,3.825688934326171875e+01,8.436130523681640625e+00,3.478215026855468750e+01,-1.133314285278320312e+02,9.107294464111328125e+01,-6.630911254882812500e+01,4.666641616821289062e+01,-1.408679294586181641e+01,-1.061854705810546875e+02,-1.193637313842773438e+02,6.371498870849609375e+01,-3.829277801513671875e+01
5.199999809265136719e-01,2.000000000000000000e+00,3.828540420532226562e+01,8.388258934020996094e+00,3.477694320678710938e+01,-1.133861923217773438e+02,9.107571411132812500e+01,-6.633406829833984375e+01,4.659379577636718750e+01,-1.407794284820556641e+01,-1.062001647949218750e+02,-1.194179763793945312e+02,6.371072769165039062e+01,-3.832306289672851562e+01
5.239999890327453613e-01,2.000000000000000000e+00,3.831391525268554688e+01,8.340391159057617188e+00,3.477173614501953125e+01,-1.134409484863281250e+02,9.107846832275390625e+01,-6.635901641845703125e+01,4.652117538452148438e+01,-1.406909370422363281e+01,-1.062148590087890625e+02,-1.194722213745117188e+02,6.370646667480468750e+01,-3.835334777832031250e+01
5.279999971389770508e-01,2.000000000000000000e+00,3.834242630004882812e+01,8.292527198791503906e+00,3.476652908325195312e+01,-1.134956970214843750e+02,9.108123779296875000e+01,-6.638397216796875000e+01,4.644857025146484375e+01,-1.406024551391601562e+01,-1.062295532226562500e+02,-1.195264663696289062e+02,6.370220565795898438e+01,-3.838362503051757812e+01
5.320000052452087402e-01,2.000000000000000000e+00,3.837093353271484375e+01,8.244668006896972656e+00,3.476132202148437500e+01,-1.135504379272460938e+02,9.108399963378906250e+01,-6.640892028808593750e+01,4.637596511840820312e+01,-1.405139636993408203e+01,-1.062442398071289062e+02,-1.195806961059570312e+02,6.369794082641601562e+01,-3.841390609741210938e+01
5.360000133514404297e-01,2.000000000000000000e+00,3.839943695068359375e+01,8.196810722351074219e+00,3.475611495971679688e+01,-1.136051864624023438e+02,9.108676910400390625e+01,-6.643386077880859375e+01,4.630336761474609375e+01,-1.404255008697509766e+01,-1.062589340209960938e+02,-1.196349334716796875e+02,6.369367980957031250e+01,-3.844417953491210938e+01
5.400000214576721191e-01,2.000000000000000000e+00,3.842794418334960938e+01,8.148959159851074219e+00,3.475091171264648438e+01,-1.136599197387695312e+02,9.108953857421875000e+01,-6.645880889892578125e+01,4.623077011108398438e+01,-1.403370285034179688e+01,-1.062736282348632812e+02,-1.196891632080078125e+02,6.368941879272460938e+01,-3.847445678710937500e+01
5.440000295639038086e-01,2.000000000000000000e+00,3.845643997192382812e+01,8.101110458374023438e+00,3.474570465087890625e+01,-1.137146530151367188e+02,9.109230041503906250e+01,-6.648374938964843750e+01,4.615818405151367188e+01,-1.402485656738281250e+01,-1.062883148193359375e+02,-1.197433929443359375e+02,6.368515396118164062e+01,-3.850472640991210938e+01
5.479999780654907227e-01,2.000000000000000000e+00,3.848493957519531250e+01,8.053266525268554688e+00,3.474050140380859375e+01,-1.137693862915039062e+02,9.109506225585937500e+01,-6.650869750976562500e+01,4.608560180664062500e+01,-1.401601219177246094e+01,-1.063030014038085938e+02,-1.197976150512695312e+02,6.368089294433593750e+01,-3.853499603271484375e+01
5.519999861717224121e-01,2.000000000000000000e+00,3.851343536376953125e+01,8.005424499511718750e+00,3.473529815673828125e+01,-1.138241043090820312e+02,9.109782409667968750e+01,-6.653363037109375000e+01,4.601302337646484375e+01,-1.400716781616210938e+01,-1.063176879882812500e+02,-1.198518295288085938e+02,6.367663192749023438e+01,-3.856526184082031250e+01
5.559999942779541016e-01,2.000000000000000000e+00,3.854192733764648438e+01,7.957587242126464844e+00,3.473009109497070312e+01,-1.138788299560546875e+02,9.110059356689453125e+01,-6.655857086181640625e+01,4.594045257568359375e+01,-1.399832344055175781e+01,-1.063323745727539062e+02,-1.199060363769531250e+02,6.367237472534179688e+01,-3.859552764892578125e+01
5.600000023841857910e-01,2.000000000000000000e+00,3.857041931152343750e+01,7.909753799438476562e+00,3.472488784790039062e+01,-1.139335479736328125e+02,9.110335540771484375e+01,-6.658350372314453125e+01,4.586788940429687500e+01,-1.398948001861572266e+01,-1.063470611572265625e+02,-1.199602355957031250e+02,6.366811370849609375e+01,-3.862578964233398438e+01
5.640000104904174805e-01,2.000000000000000000e+00,3.859890747070312500e+01,7.861923694610595703e+00,3.471968078613281250e+01,-1.139882583618164062e+02,9.110611724853515625e+01,-6.660843658447265625e+01,4.579533004760742188e+01,-1.398063755035400391e+01,-1.063617401123046875e+02,-1.200144424438476562e+02,6.366385269165039062e+01,-3.865605163574218750e+01
5.680000185966491699e-01,2.000000000000000000e+00,3.862739944458007812e+01,7.814097881317138672e+00,3.471448135375976562e+01,-1.140429687500000000e+02,9.110888671875000000e+01,-6.663336944580078125e+01,4.572277450561523438e+01,-1.397179603576660156e+01,-1.063764190673828125e+02,-1.200686492919921875e+02,6.365959548950195312e+01,-3.868630981445312500e+01
5.720000267028808594e-01,2.000000000000000000e+00,3.865588378906250000e+01,7.766274452209472656e+00,3.470927810668945312e+01,-1.140976715087890625e+02,9.111164093017578125e+01,-6.665830230712890625e+01,4.565023040771484375e+01,-1.396295452117919922e+01,-1.063910980224609375e+02,-1.201228408813476562e+02,6.365533447265625000e+01,-3.871656417846679688e+01
5.759999752044677734e-01,2.000000000000000000e+00,3.868436431884765625e+01,7.718455314636230469e+00,3.470407485961914062e+01,-1.141523666381835938e+02,9.111441040039062500e+01,-6.668322753906250000e+01,4.557768630981445312e+01,-1.395411396026611328e+01,-1.064057846069335938e+02,-1.201770324707031250e+02,6.365108108520507812e+01,-3.874681854248046875e+01
5.799999833106994629e-01,2.000000000000000000e+00,3.871284484863281250e+01,7.670639991760253906e+00,3.469887161254882812e+01,-1.142070617675781250e+02,9.111717224121093750e+01,-6.670816040039062500e+01,4.550514602661132812e+01,-1.394527435302734375e+01,-1.064204635620117188e+02,-1.202312240600585938e+02,6.364681625366210938e+01,-3.877706909179687500e+01
5.839999914169311523e-01,2.000000000000000000e+00,3.874132537841796875e+01,7.622827529907226562e+00,3.469366836547851562e+01,-1.142617568969726562e+02,9.111993408203125000e+01,-6.673307800292968750e+01,4.543261337280273438e+01,-1.393643474578857422e+01,-1.064351425170898438e+02,-1.202854003906250000e+02,6.364256286621093750e+01,-3.880731582641601562e+01
5.879999995231628418e-01,2.000000000000000000e+00,3.876980209350585938e+01,7.575018882751464844e+00,3.468846893310546875e+01,-1.143164443969726562e+02,9.112269592285156250e+01,-6.675800323486328125e+01,4.536008453369140625e+01,-1.392759609222412109e+01,-1.064498138427734375e+02,-1.203395767211914062e+02,6.363830947875976562e+01,-3.883756256103515625e+01
5.920000076293945312e-01,2.000000000000000000e+00,3.879827499389648438e+01,7.527213573455810547e+00,3.468326568603515625e+01,-1.143711318969726562e+02,9.112546539306640625e+01,-6.678292083740234375e+01,4.528756713867187500e+01,-1.391875839233398438e+01,-1.064644851684570312e+02,-1.203937530517578125e+02,6.363404464721679688e+01,-3.886780548095703125e+01
5.960000157356262207e-01,2.000000000000000000e+00,3.882674789428710938e+01,7.479412555694580078e+00,3.467807006835937500e+01,-1.144258041381835938e+02,9.112821960449218750e+01,-6.680783843994140625e+01,4.521504592895507812e+01,-1.390992164611816406e+01,-1.064791564941406250e+02,-1.204479293823242188e+02,6.362979125976562500e+01,-3.889804840087890625e+01
6.000000238418579102e-01,2.000000000000000000e+00,3.885521697998046875e+01,7.431613922119140625e+00,3.467286682128906250e+01,-1.144804840087890625e+02,9.113098144531250000e+01,-6.683275604248046875e+01,4.514253616333007812e+01,-1.390108489990234375e+01,-1.064938354492187500e+02,-1.205020904541015625e+02,6.362553405761718750e+01,-3.892828750610351562e+01
6.039999723434448242e-01,2.000000000000000000e+00,3.888368606567382812e+01,7.383819580078125000e+00,3.466766738891601562e+01,-1.145351562500000000e+02,9.113374328613281250e+01,-6.685766601562500000e+01,4.507003021240234375e+01,-1.389224815368652344e+01,-1.065085067749023438e+02,-1.205562591552734375e+02,6.362128067016601562e+01,-3.895852661132812500e+01
6.079999804496765137e-01,2.000000000000000000e+00,3.891215515136718750e+01,7.336028099060058594e+00,3.466246795654296875e+01,-1.145898284912109375e+02,9.113650512695312500e+01,-6.688258361816406250e+01,4.499752807617187500e+01,-1.388341236114501953e+01,-1.065231781005859375e+02,-1.206104202270507812e+02,6.361702346801757812e+01,-3.898876190185546875e+01
6.119999885559082031e-01,2.000000000000000000e+00,3.894061660766601562e+01,7.288240432739257812e+00,3.465727233886718750e+01,-1.146444778442382812e+02,9.113926696777343750e+01,-6.690749359130859375e+01,4.492503356933593750e+01,-1.387457847595214844e+01,-1.065378417968750000e+02,-1.206645660400390625e+02,6.361277008056640625e+01,-3.901899719238281250e+01
6.159999966621398926e-01,2.000000000000000000e+00,3.896908187866210938e+01,7.240455627441406250e+00,3.465206909179687500e+01,-1.146991500854492188e+02,9.114202880859375000e+01,-6.693240356445312500e+01,4.485254669189453125e+01,-1.386574363708496094e+01,-1.065525131225585938e+02,-1.207187194824218750e+02,6.360851287841796875e+01,-3.904922485351562500e+01
6.200000047683715820e-01,2.000000000000000000e+00,3.899753952026367188e+01,7.192675113677978516e+00,3.464687347412109375e+01,-1.147538070678710938e+02,9.114479064941406250e+01,-6.695731353759765625e+01,4.478005981445312500e+01,-1.385691070556640625e+01,-1.065671844482421875e+02,-1.207728652954101562e+02,6.360425949096679688e+01,-3.907945632934570312e+01
6.240000128746032715e-01,2.000000000000000000e+00,3.902599716186523438e+01,7.144897460937500000e+00,3.464167404174804688e+01,-1.148084564208984375e+02,9.114755249023437500e+01,-6.698221588134765625e+01,4.470757675170898438e+01,-1.384807682037353516e+01,-1.065818557739257812e+02,-1.208270187377929688e+02,6.360000228881835938e+01,-3.910968399047851562e+01
6.280000209808349609e-01,2.000000000000000000e+00,3.905445480346679688e+01,7.097123146057128906e+00,3.463647842407226562e+01,-1.148630981445312500e+02,9.115030670166015625e+01,-6.700712585449218750e+01,4.463510131835937500e+01,-1.383924484252929688e+01,-1.065965194702148438e+02,-1.208811569213867188e+02,6.359574890136718750e+01,-3.913990783691406250e+01
6.320000290870666504e-01,2.000000000000000000e+00,3.908290481567382812e+01,7.049352645874023438e+00,3.463127899169921875e+01,-1.149177398681640625e+02,9.115306854248046875e+01,-6.703202819824218750e+01,4.456263351440429688e+01,-1.383041381835937500e+01,-1.066111831665039062e+02,-1.209352874755859375e+02,6.359149169921875000e+01,-3.917013168334960938e+01
6.359999775886535645e-01,2.000000000000000000e+00,3.911136245727539062e+01,7.001584529876708984e+00,3.462608337402343750e+01,-1.149723815917968750e+02,9.115583038330078125e+01,-6.705692291259765625e+01,4.449016952514648438e+01,-1.382158279418945312e+01,-1.066258468627929688e+02,-1.209894256591796875e+02,6.358723831176757812e+01,-3.920035171508789062e+01
6.399999856948852539e-01,2.000000000000000000e+00,3.913980865478515625e+01,6.953820705413818359e+00,3.462088775634765625e+01,-1.150270233154296875e+02,9.115858459472656250e+01,-6.708183288574218750e+01,4.441770935058593750e+01,-1.381275272369384766e+01,-1.066405105590820312e+02,-1.210435485839843750e+02,6.358298492431640625e+01,-3.923056793212890625e+01
6.439999938011169434e-01,2.000000000000000000e+00,3.916825485229492188e+01,6.906060218811035156e+00,3.461569213867187500e+01,-1.150816574096679688e+02,9.116135406494140625e+01,-6.710672760009765625e+01,4.434525680541992188e+01,-1.380392265319824219e+01,-1.066551666259765625e+02,-1.210976715087890625e+02,6.357873535156250000e+01,-3.926078414916992188e+01
6.480000019073486328e-01,2.000000000000000000e+00,3.919670486450195312e+01,6.858302593231201172e+00,3.461049652099609375e+01,-1.151362838745117188e+02,9.116411590576171875e+01,-6.713162231445312500e+01,4.427280426025390625e+01,-1.379509258270263672e+01,-1.066698303222656250e+02,-1.211517944335937500e+02,6.357447814941406250e+01,-3.929099655151367188e+01
6.520000100135803223e-01,2.000000000000000000e+00,3.922514724731445312e+01,6.810548782348632812e+00,3.460530090332031250e+01,-1.151909103393554688e+02,9.116687011718750000e+01,-6.715651702880859375e+01,4.420035934448242188e+01,-1.378626441955566406e+01,-1.066844863891601562e+02,-1.212059173583984375e+02,6.357022476196289062e+01,-3.932121276855468750e+01
6.560000181198120117e-01,2.000000000000000000e+00,3.925358963012695312e+01,6.762797355651855469e+00,3.460010528564453125e+01,-1.152455368041992188e+02,9.116963195800781250e+01,-6.718140411376953125e+01,4.412791824340820312e+01,-1.377743721008300781e+01,-1.066991500854492188e+02,-1.212600250244140625e+02,6.356597518920898438e+01,-3.935142135620117188e+01
6.600000262260437012e-01,2.000000000000000000e+00,3.928203201293945312e+01,6.715050220489501953e+00,3.459491348266601562e+01,-1.153001480102539062e+02,9.117238616943359375e+01,-6.720629882812500000e+01,4.405548477172851562e+01,-1.376861000061035156e+01,-1.067138061523437500e+02,-1.213141326904296875e+02,6.356172180175781250e+01,-3.938162994384765625e+01
6.639999747276306152e-01,2.000000000000000000e+00,3.931046676635742188e+01,6.667305946350097656e+00,3.458971786499023438e+01,-1.153547668457031250e+02,9.117514801025390625e+01,-6.723118591308593750e+01,4.398305892944335938e+01,-1.375978279113769531e+01,-1.067284622192382812e+02,-1.213682403564453125e+02,6.355747222900390625e+01,-3.941183471679687500e+01
6.679999828338623047e-01,2.000000000000000000e+00,3.933890533447265625e+01,6.619564533233642578e+00,3.458452224731445312e+01,-1.154093780517578125e+02,9.117790222167968750e+01,-6.725607299804687500e+01,4.391062927246093750e+01,-1.375095653533935547e+01,-1.067431182861328125e+02,-1.214223403930664062e+02,6.355321884155273438e+01,-3.944203948974609375e+01
6.719999909400939941e-01,2.000000000000000000e+00,3.936734008789062500e+01,6.571826934814453125e+00,3.457933044433593750e+01,-1.154639816284179688e+02,9.118066406250000000e+01,-6.728096008300781250e+01,4.383821487426757812e+01,-1.374213027954101562e+01,-1.067577667236328125e+02,-1.214764480590820312e+02,6.354896926879882812e+01,-3.947224044799804688e+01
6.759999990463256836e-01,2.000000000000000000e+00,3.939577484130859375e+01,6.524092197418212891e+00,3.457413482666015625e+01,-1.155185775756835938e+02,9.118342590332031250e+01,-6.730583953857421875e+01,4.376579666137695312e+01,-1.373330593109130859e+01,-1.067724304199218750e+02,-1.215305404663085938e+02,6.354471206665039062e+01,-3.950244140625000000e+01
6.800000071525573730e-01,2.000000000000000000e+00,3.942420196533203125e+01,6.476361274719238281e+00,3.456894302368164062e+01,-1.155731811523437500e+02,9.118618011474609375e+01,-6.733071899414062500e+01,4.369338607788085938e+01,-1.372448158264160156e+01,-1.067870788574218750e+02,-1.215846252441406250e+02,6.354046630859375000e+01,-3.953263854980468750e+01
6.840000152587890625e-01,2.000000000000000000e+00,3.945263290405273438e+01,6.428632736206054688e+00,3.456374740600585938e+01,-1.156277847290039062e+02,9.118893432617187500e+01,-6.735560607910156250e+01,4.362098312377929688e+01,-1.371565818786621094e+01,-1.068017272949218750e+02,-1.216387176513671875e+02,6.353621673583984375e+01,-3.956283187866210938e+01
6.880000233650207520e-01,2.000000000000000000e+00,3.948106002807617188e+01,6.380908012390136719e+00,3.455855941772460938e+01,-1.156823654174804688e+02,9.119169616699218750e+01,-6.738048553466796875e+01,4.354858398437500000e+01,-1.370683479309082031e+01,-1.068163833618164062e+02,-1.216928024291992188e+02,6.353196334838867188e+01,-3.959302520751953125e+01
6.919999718666076660e-01,2.000000000000000000e+00,3.950948333740234375e+01,6.333185672760009766e+00,3.455336761474609375e+01,-1.157369537353515625e+02,9.119445037841796875e+01,-6.740536499023437500e+01,4.347618484497070312e+01,-1.369801235198974609e+01,-1.068310317993164062e+02,-1.217468795776367188e+02,6.352771377563476562e+01,-3.962321853637695312e+01
6.959999799728393555e-01,2.000000000000000000e+00,3.953790664672851562e+01,6.285467147827148438e+00,3.454817581176757812e+01,-1.157915420532226562e+02,9.119721221923828125e+01,-6.743023681640625000e+01,4.340379714965820312e+01,-1.368918991088867188e+01,-1.068456802368164062e+02,-1.218009643554687500e+02,6.352346420288085938e+01,-3.965340805053710938e+01
6.999999880790710449e-01,2.000000000000000000e+00,3.956632614135742188e+01,6.237751960754394531e+00,3.454298400878906250e+01,-1.158461303710937500e+02,9.119996643066406250e+01,-6.745511627197265625e+01,4.333140945434570312e+01,-1.368036842346191406e+01,-1.068603286743164062e+02,-1.218550262451171875e+02,6.351921463012695312e+01,-3.968359756469726562e+01
7.039999961853027344e-01,2.000000000000000000e+00,3.959474563598632812e+01,6.190039634704589844e+00,3.453779602050781250e+01,-1.159007034301757812e+02,9.120272827148437500e+01,-6.747998046875000000e+01,4.325902938842773438e+01,-1.367154884338378906e+01,-1.068749771118164062e+02,-1.219090957641601562e+02,6.351496887207031250e+01,-3.971378326416015625e+01
7.080000042915344238e-01,2.000000000000000000e+00,3.962316513061523438e+01,6.142330169677734375e+00,3.453260421752929688e+01,-1.159552764892578125e+02,9.120548248291015625e+01,-6.750485229492187500e+01,4.318665313720703125e+01,-1.366272830963134766e+01,-1.068896179199218750e+02,-1.219631652832031250e+02,6.351071929931640625e+01,-3.974396514892578125e+01
7.120000123977661133e-01,2.000000000000000000e+00,3.965157699584960938e+01,6.094624042510986328e+00,3.452741241455078125e+01,-1.160098495483398438e+02,9.120823669433593750e+01,-6.752971649169921875e+01,4.311427688598632812e+01,-1.365390777587890625e+01,-1.069042663574218750e+02,-1.220172348022460938e+02,6.350646972656250000e+01,-3.977414703369140625e+01
7.160000205039978027e-01,2.000000000000000000e+00,3.967999267578125000e+01,6.046921253204345703e+00,3.452222061157226562e+01,-1.160644226074218750e+02,9.121099853515625000e+01,-6.755458831787109375e+01,4.304191207885742188e+01,-1.364508914947509766e+01,-1.069189071655273438e+02,-1.220712890625000000e+02,6.350222396850585938e+01,-3.980432891845703125e+01
7.200000286102294922e-01,2.000000000000000000e+00,3.970840454101562500e+01,5.999221324920654297e+00,3.451703262329101562e+01,-1.161189804077148438e+02,9.121374511718750000e+01,-6.757946014404296875e+01,4.296955108642578125e+01,-1.363627052307128906e+01,-1.069335556030273438e+02,-1.221253433227539062e+02,6.349797439575195312e+01,-3.983450317382812500e+01
7.239999771118164062e-01,2.000000000000000000e+00,3.973681640625000000e+01,5.951524257659912109e+00,3.451184463500976562e+01,-1.161735382080078125e+02,9.121650695800781250e+01,-6.760431671142578125e+01,4.289719390869140625e+01,-1.362745285034179688e+01,-1.069481964111328125e+02,-1.221793975830078125e+02,6.349372482299804688e+01,-3.986468124389648438e+01
7.279999852180480957e-01,2.000000000000000000e+00,3.976522064208984375e+01,5.903830528259277344e+00,3.450665664672851562e+01,-1.162281036376953125e+02,9.121926116943359375e+01,-6.762918090820312500e+01,4.282484054565429688e+01,-1.361863517761230469e+01,-1.069628295898437500e+02,-1.222334518432617188e+02,6.348947906494140625e+01,-3.989485549926757812e+01
7.319999933242797852e-01,2.000000000000000000e+00,3.979362869262695312e+01,5.856139183044433594e+00,3.450146865844726562e+01,-1.162826461791992188e+02,9.122202301025390625e+01,-6.765404510498046875e+01,4.275249099731445312e+01,-1.360981845855712891e+01,-1.069774780273437500e+02,-1.222874908447265625e+02,6.348522949218750000e+01,-3.992502593994140625e+01
7.360000014305114746e-01,2.000000000000000000e+00,3.982203292846679688e+01,5.808451652526855469e+00,3.449628067016601562e+01,-1.163371963500976562e+02,9.122476959228515625e+01,-6.767890167236328125e+01,4.268014907836914062e+01,-1.360100173950195312e+01,-1.069921112060546875e+02,-1.223415298461914062e+02,6.348098754882812500e+01,-3.995519638061523438e+01
7.400000095367431641e-01,2.000000000000000000e+00,3.985043334960937500e+01,5.760766983032226562e+00,3.449109268188476562e+01,-1.163917388916015625e+02,9.122752380371093750e+01,-6.770375823974609375e+01,4.260781097412109375e+01,-1.359218597412109375e+01,-1.070067520141601562e+02,-1.223955688476562500e+02,6.347673797607421875e+01,-3.998536682128906250e+01
7.440000176429748535e-01,2.000000000000000000e+00,3.987883377075195312e+01,5.713085174560546875e+00,3.448590469360351562e+01,-1.164462814331054688e+02,9.123028564453125000e+01,-6.772861480712890625e+01,4.253547668457031250e+01,-1.358337020874023438e+01,-1.070213851928710938e+02,-1.224496078491210938e+02,6.347249221801757812e+01,-4.001552963256835938e+01
7.480000257492065430e-01,2.000000000000000000e+00,3.990723419189453125e+01,5.665406227111816406e+00,3.448071670532226562e+01,-1.165008316040039062e+02,9.123303985595703125e+01,-6.775347137451171875e+01,4.246314239501953125e+01,-1.357455635070800781e+01,-1.070360260009765625e+02,-1.225036392211914062e+02,6.346824264526367188e+01,-4.004569625854492188e+01
7.519999742507934570e-01,2.000000000000000000e+00,3.993563079833984375e+01,5.617730617523193359e+00,3.447552871704101562e+01,-1.165553665161132812e+02,9.123578643798828125e+01,-6.777832794189453125e+01,4.239081954956054688e+01,-1.356574153900146484e+01,-1.070506591796875000e+02,-1.225576629638671875e+02,6.346400070190429688e+01,-4.007585906982421875e+01
7.559999823570251465e-01,2.000000000000000000e+00,3.996402740478515625e+01,5.570057868957519531e+00,3.447034454345703125e+01,-1.166098937988281250e+02,9.123854827880859375e+01,-6.780316925048828125e+01,4.231849670410156250e+01,-1.355692863464355469e+01,-1.070652923583984375e+02,-1.226116943359375000e+02,6.345975112915039062e+01,-4.010601806640625000e+01
7.599999904632568359e-01,2.000000000000000000e+00,3.999242019653320312e+01,5.522387981414794922e+00,3.446516036987304688e+01,-1.166644287109375000e+02,9.124130249023437500e+01,-6.782802581787109375e+01,4.224617767333984375e+01,-1.354811573028564453e+01,-1.070799331665039062e+02,-1.226657180786132812e+02,6.345551300048828125e+01,-4.013617706298828125e+01
7.639999985694885254e-01,2.000000000000000000e+00,4.002081298828125000e+01,5.474720954895019531e+00,3.445997238159179688e+01,-1.167189483642578125e+02,9.124405670166015625e+01,-6.785287475585937500e+01,4.217386627197265625e+01,-1.353930282592773438e+01,-1.070945587158203125e+02,-1.227197341918945312e+02,6.345126342773437500e+01,-4.016633605957031250e+01
7.680000066757202148e-01,2.000000000000000000e+00,4.004920578002929688e+01,5.427057266235351562e+00,3.445478820800781250e+01,-1.167734680175781250e+02,9.124681091308593750e+01,-6.787771606445312500e+01,4.210155868530273438e+01,-1.353049087524414062e+01,-1.071091918945312500e+02,-1.227737426757812500e+02,6.344702148437500000e+01,-4.019649124145507812e+01
7.720000147819519043e-01,2.000000000000000000e+00,4.007759475708007812e+01,5.379395961761474609e+00,3.444960021972656250e+01,-1.168279800415039062e+02,9.124956512451171875e+01,-6.790256500244140625e+01,4.202925491333007812e+01,-1.352168083190917969e+01,-1.071238250732421875e+02,-1.228277587890625000e+02,6.344277191162109375e+01,-4.022664260864257812e+01
7.760000228881835938e-01,2.000000000000000000e+00,4.010597991943359375e+01,5.331737995147705078e+00,3.444441604614257812e+01,-1.168824996948242188e+02,9.125231933593750000e+01,-6.792740631103515625e+01,4.195695877075195312e+01,-1.351286983489990234e+01,-1.071384582519531250e+02,-1.228817672729492188e+02,6.343852996826171875e+01,-4.025679397583007812e+01
7.799999713897705078e-01,2.000000000000000000e+00,4.013436508178710938e+01,5.284082412719726562e+00,3.443923187255859375e+01,-1.169370193481445312e+02,9.125507354736328125e+01,-6.795225524902343750e+01,4.188466262817382812e+01,-1.350405979156494141e+01,-1.071530838012695312e+02,-1.229357681274414062e+02,6.343428802490234375e+01,-4.028694152832031250e+01
7.839999794960021973e-01,2.000000000000000000e+00,4.016275024414062500e+01,5.236430168151855469e+00,3.443404769897460938e+01,-1.169915237426757812e+02,9.125782012939453125e+01,-6.797709655761718750e+01,4.181237411499023438e+01,-1.349524974822998047e+01,-1.071677093505859375e+02,-1.229897689819335938e+02,6.343004226684570312e+01,-4.031708908081054688e+01
7.879999876022338867e-01,2.000000000000000000e+00,4.019113159179687500e+01,5.188780784606933594e+00,3.442886352539062500e+01,-1.170460281372070312e+02,9.126057434082031250e+01,-6.800193023681640625e+01,4.174008560180664062e+01,-1.348643970489501953e+01,-1.071823425292968750e+02,-1.230437698364257812e+02,6.342580032348632812e+01,-4.034723663330078125e+01
7.919999957084655762e-01,2.000000000000000000e+00,4.021951293945312500e+01,5.141133785247802734e+00,3.442367935180664062e+01,-1.171005325317382812e+02,9.126332855224609375e+01,-6.802677154541015625e+01,4.166780471801757812e+01,-1.347763156890869141e+01,-1.071969680786132812e+02,-1.230977706909179688e+02,6.342155838012695312e+01,-4.037738037109375000e+01
7.960000038146972656e-01,2.000000000000000000e+00,4.024789047241210938e+01,5.093489646911621094e+00,3.441849517822265625e+01,-1.171550369262695312e+02,9.126608276367187500e+01,-6.805160522460937500e+01,4.159552764892578125e+01,-1.346882343292236328e+01,-1.072115859985351562e+02,-1.231517715454101562e+02,6.341731643676757812e+01,-4.040752410888671875e+01
8.000000119209289551e-01,2.000000000000000000e+00,4.027626800537109375e+01,5.045848846435546875e+00,3.441331481933593750e+01,-1.172095336914062500e+02,9.126883697509765625e+01,-6.807643890380859375e+01,4.152325439453125000e+01,-1.346001529693603516e+01,-1.072262191772460938e+02,-1.232057571411132812e+02,6.341306686401367188e+01,-4.043766403198242188e+01
8.040000200271606445e-01,2.000000000000000000e+00,4.030464172363281250e+01,4.998210906982421875e+00,3.440813064575195312e+01,-1.172640228271484375e+02,9.127158355712890625e+01,-6.810127258300781250e+01,4.145098876953125000e+01,-1.345120811462402344e+01,-1.072408447265625000e+02,-1.232597427368164062e+02,6.340882873535156250e+01,-4.046780395507812500e+01
8.080000281333923340e-01,2.000000000000000000e+00,4.033301544189453125e+01,4.950575351715087891e+00,3.440295028686523438e+01,-1.173185119628906250e+02,9.127433776855468750e+01,-6.812611389160156250e+01,4.137871932983398438e+01,-1.344240188598632812e+01,-1.072554626464843750e+02,-1.233137283325195312e+02,6.340458679199218750e+01,-4.049794006347656250e+01
8.119999766349792480e-01,2.000000000000000000e+00,4.036138534545898438e+01,4.902942657470703125e+00,3.439776611328125000e+01,-1.173730010986328125e+02,9.127709197998046875e+01,-6.815093994140625000e+01,4.130646133422851562e+01,-1.343359565734863281e+01,-1.072700881958007812e+02,-1.233676986694335938e+02,6.340034484863281250e+01,-4.052807617187500000e+01
8.159999847412109375e-01,2.000000000000000000e+00,4.038975906372070312e+01,4.855312824249267578e+00,3.439258575439453125e+01,-1.174274826049804688e+02,9.127984619140625000e+01,-6.817576599121093750e+01,4.123420333862304688e+01,-1.342478942871093750e+01,-1.072847061157226562e+02,-1.234216690063476562e+02,6.339610290527343750e+01,-4.055820846557617188e+01
8.199999928474426270e-01,2.000000000000000000e+00,4.041812133789062500e+01,4.807685852050781250e+00,3.438740539550781250e+01,-1.174819564819335938e+02,9.128260040283203125e+01,-6.820059204101562500e+01,4.116195297241210938e+01,-1.341598510742187500e+01,-1.072993316650390625e+02,-1.234756393432617188e+02,6.339186096191406250e+01,-4.058834075927734375e+01
8.240000009536743164e-01,2.000000000000000000e+00,4.044649124145507812e+01,4.760061264038085938e+00,3.438222503662109375e+01,-1.175364379882812500e+02,9.128534698486328125e+01,-6.822541809082031250e+01,4.108970642089843750e+01,-1.340718078613281250e+01,-1.073139495849609375e+02,-1.235296173095703125e+02,6.338761901855468750e+01,-4.061846923828125000e+01
8.280000090599060059e-01,2.000000000000000000e+00,4.047485733032226562e+01,4.712439537048339844e+00,3.437704086303710938e+01,-1.175909118652343750e+02,9.128810119628906250e+01,-6.825025177001953125e+01,4.101746368408203125e+01,-1.339837646484375000e+01,-1.073285675048828125e+02,-1.235835876464843750e+02,6.338337707519531250e+01,-4.064859771728515625e+01
8.320000171661376953e-01,2.000000000000000000e+00,4.050321960449218750e+01,4.664820671081542969e+00,3.437186050415039062e+01,-1.176453781127929688e+02,9.129085540771484375e+01,-6.827507019042968750e+01,4.094522094726562500e+01,-1.338957214355468750e+01,-1.073431854248046875e+02,-1.236375427246093750e+02,6.337913513183593750e+01,-4.067872619628906250e+01
8.360000252723693848e-01,2.000000000000000000e+00,4.053158187866210938e+01,4.617204666137695312e+00,3.436668014526367188e+01,-1.176998596191406250e+02,9.129360961914062500e+01,-6.829988861083984375e+01,4.087298583984375000e+01,-1.338076972961425781e+01,-1.073578033447265625e+02,-1.236915206909179688e+02,6.337489318847656250e+01,-4.070885086059570312e+01
8.399999737739562988e-01,2.000000000000000000e+00,4.055994033813476562e+01,4.569591045379638672e+00,3.436149978637695312e+01,-1.177543182373046875e+02,9.129635620117187500e+01,-6.832471466064453125e+01,4.080075836181640625e+01,-1.337196731567382812e+01,-1.073724212646484375e+02,-1.237454605102539062e+02,6.337065124511718750e+01,-4.073897552490234375e+01
8.439999818801879883e-01,2.000000000000000000e+00,4.058829879760742188e+01,4.521980285644531250e+00,3.435631942749023438e+01,-1.178087692260742188e+02,9.129910278320312500e+01,-6.834953308105468750e+01,4.072852706909179688e+01,-1.336316490173339844e+01,-1.073870391845703125e+02,-1.237994232177734375e+02,6.336641311645507812e+01,-4.076909637451171875e+01
8.479999899864196777e-01,2.000000000000000000e+00,4.061666107177734375e+01,4.474371910095214844e+00,3.435114288330078125e+01,-1.178632354736328125e+02,9.130185699462890625e+01,-6.837434387207031250e+01,4.065630722045898438e+01,-1.335436344146728516e+01,-1.074016418457031250e+02,-1.238533782958984375e+02,6.336217498779296875e+01,-4.079921340942382812e+01
8.519999980926513672e-01,2.000000000000000000e+00,4.064501571655273438e+01,4.426766395568847656e+00,3.434596252441406250e+01,-1.179176864624023438e+02,9.130461120605468750e+01,-6.839916992187500000e+01,4.058408737182617188e+01,-1.334556198120117188e+01,-1.074162597656250000e+02,-1.239073257446289062e+02,6.335793685913085938e+01,-4.082933044433593750e+01
8.560000061988830566e-01,2.000000000000000000e+00,4.067336654663085938e+01,4.379163265228271484e+00,3.434078598022460938e+01,-1.179721450805664062e+02,9.130735778808593750e+01,-6.842398071289062500e+01,4.051187133789062500e+01,-1.333676147460937500e+01,-1.074308776855468750e+02,-1.239612655639648438e+02,6.335369491577148438e+01,-4.085944747924804688e+01
8.600000143051147461e-01,2.000000000000000000e+00,4.070172119140625000e+01,4.331562995910644531e+00,3.433560562133789062e+01,-1.180265884399414062e+02,9.131011199951171875e+01,-6.844879913330078125e+01,4.043966293334960938e+01,-1.332796192169189453e+01,-1.074454879760742188e+02,-1.240152130126953125e+02,6.334945297241210938e+01,-4.088956451416015625e+01
8.640000224113464355e-01,2.000000000000000000e+00,4.073007202148437500e+01,4.283965587615966797e+00,3.433042526245117188e+01,-1.180810394287109375e+02,9.131285858154296875e+01,-6.847360992431640625e+01,4.036745452880859375e+01,-1.331916141510009766e+01,-1.074600982666015625e+02,-1.240691604614257812e+02,6.334521865844726562e+01,-4.091967773437500000e+01
8.679999709129333496e-01,2.000000000000000000e+00,4.075841903686523438e+01,4.236370563507080078e+00,3.432524871826171875e+01,-1.181354827880859375e+02,9.131560516357421875e+01,-6.849842071533203125e+01,4.029524993896484375e+01,-1.331036281585693359e+01,-1.074747085571289062e+02,-1.241230926513671875e+02,6.334097671508789062e+01,-4.094978713989257812e+01
8.719999790191650391e-01,2.000000000000000000e+00,4.078676986694335938e+01,4.188777923583984375e+00,3.432007217407226562e+01,-1.181899261474609375e+02,9.131835937500000000e+01,-6.852322387695312500e+01,4.022304916381835938e+01,-1.330156517028808594e+01,-1.074893188476562500e+02,-1.241770172119140625e+02,6.333674240112304688e+01,-4.097990036010742188e+01
8.759999871253967285e-01,2.000000000000000000e+00,4.081511306762695312e+01,4.141188144683837891e+00,3.431489181518554688e+01,-1.182443618774414062e+02,9.132111358642578125e+01,-6.854804229736328125e+01,4.015085601806640625e+01,-1.329276657104492188e+01,-1.075039291381835938e+02,-1.242309494018554688e+02,6.333250045776367188e+01,-4.101000595092773438e+01
8.799999952316284180e-01,2.000000000000000000e+00,4.084346008300781250e+01,4.093600273132324219e+00,3.430971908569335938e+01,-1.182987976074218750e+02,9.132386016845703125e+01,-6.857284545898437500e+01,4.007866287231445312e+01,-1.328396892547607422e+01,-1.075185394287109375e+02,-1.242848815917968750e+02,6.332826614379882812e+01,-4.104011535644531250e+01
8.840000033378601074e-01,2.000000000000000000e+00,4.087179946899414062e+01,4.046015739440917969e+00,3.430453872680664062e+01,-1.183532333374023438e+02,9.132661437988281250e+01,-6.859764862060546875e+01,4.000647354125976562e+01,-1.327517127990722656e+01,-1.075331497192382812e+02,-1.243388137817382812e+02,6.332402420043945312e+01,-4.107021713256835938e+01
8.880000114440917969e-01,2.000000000000000000e+00,4.090014266967773438e+01,3.998433351516723633e+00,3.429936218261718750e+01,-1.184076538085937500e+02,9.132935333251953125e+01,-6.862245178222656250e+01,3.993429183959960938e+01,-1.326637458801269531e+01,-1.075477523803710938e+02,-1.243927307128906250e+02,6.331978988647460938e+01,-4.110032272338867188e+01
8.920000195503234863e-01,2.000000000000000000e+00,4.092848205566406250e+01,3.950853824615478516e+00,3.429418563842773438e+01,-1.184620819091796875e+02,9.133210754394531250e+01,-6.864725494384765625e+01,3.986211013793945312e+01,-1.325757789611816406e+01,-1.075623626708984375e+02,-1.244466476440429688e+02,6.331555557250976562e+01,-4.113042449951171875e+01
8.960000276565551758e-01,2.000000000000000000e+00,4.095682525634765625e+01,3.903276443481445312e+00,3.428901290893554688e+01,-1.185165023803710938e+02,9.133485412597656250e+01,-6.867205810546875000e+01,3.978993606567382812e+01,-1.324878215789794922e+01,-1.075769653320312500e+02,-1.245005645751953125e+02,6.331131362915039062e+01,-4.116052246093750000e+01
8.999999761581420898e-01,2.000000000000000000e+00,4.098515701293945312e+01,3.855701684951782227e+00,3.428383255004882812e+01,-1.185709228515625000e+02,9.133760833740234375e+01,-6.869686126708984375e+01,3.971776199340820312e+01,-1.323998737335205078e+01,-1.075915679931640625e+02,-1.245544815063476562e+02,6.330707931518554688e+01,-4.119062042236328125e+01
9.039999842643737793e-01,2.000000000000000000e+00,4.101349639892578125e+01,3.808128833770751953e+00,3.427865600585937500e+01,-1.186253509521484375e+02,9.134035491943359375e+01,-6.872165679931640625e+01,3.964559555053710938e+01,-1.323119163513183594e+01,-1.076061706542968750e+02,-1.246083908081054688e+02,6.330284118652343750e+01,-4.122071838378906250e+01
9.079999923706054688e-01,2.000000000000000000e+00,4.104182815551757812e+01,3.760558843612670898e+00,3.427348327636718750e+01,-1.186797561645507812e+02,9.134310913085937500e+01,-6.874645233154296875e+01,3.957342910766601562e+01,-1.322239780426025391e+01,-1.076207733154296875e+02,-1.246623077392578125e+02,6.329860687255859375e+01,-4.125081634521484375e+01
9.120000004768371582e-01,2.000000000000000000e+00,4.107016372680664062e+01,3.712990760803222656e+00,3.426831054687500000e+01,-1.187341690063476562e+02,9.134584808349609375e+01,-6.877124786376953125e+01,3.950127029418945312e+01,-1.321360397338867188e+01,-1.076353759765625000e+02,-1.247162094116210938e+02,6.329436492919921875e+01,-4.128091049194335938e+01
9.160000085830688477e-01,2.000000000000000000e+00,4.109849548339843750e+01,3.665425300598144531e+00,3.426313400268554688e+01,-1.187885742187500000e+02,9.134860229492187500e+01,-6.879605102539062500e+01,3.942911148071289062e+01,-1.320481014251708984e+01,-1.076499786376953125e+02,-1.247701110839843750e+02,6.329013061523437500e+01,-4.131100082397460938e+01
9.200000166893005371e-01,2.000000000000000000e+00,4.112682723999023438e+01,3.617861986160278320e+00,3.425795745849609375e+01,-1.188429870605468750e+02,9.135134887695312500e+01,-6.882084655761718750e+01,3.935695648193359375e+01,-1.319601726531982422e+01,-1.076645812988281250e+02,-1.248240051269531250e+02,6.328589630126953125e+01,-4.134109115600585938e+01
9.240000247955322266e-01,2.000000000000000000e+00,4.115515518188476562e+01,3.570301294326782227e+00,3.425278472900390625e+01,-1.188973770141601562e+02,9.135409545898437500e+01,-6.884563446044921875e+01,3.928480148315429688e+01,-1.318722438812255859e+01,-1.076791763305664062e+02,-1.248779067993164062e+02,6.328166198730468750e+01,-4.137118148803710938e+01
9.279999732971191406e-01,2.000000000000000000e+00,4.118348312377929688e+01,3.522742509841918945e+00,3.424761199951171875e+01,-1.189517898559570312e+02,9.135684967041015625e+01,-6.887042236328125000e+01,3.921265792846679688e+01,-1.317843151092529297e+01,-1.076937789916992188e+02,-1.249318008422851562e+02,6.327742767333984375e+01,-4.140126800537109375e+01
9.319999814033508301e-01,2.000000000000000000e+00,4.121181106567382812e+01,3.475185871124267578e+00,3.424243545532226562e+01,-1.190061874389648438e+02,9.135959625244140625e+01,-6.889521789550781250e+01,3.914051055908203125e+01,-1.316964054107666016e+01,-1.077083740234375000e+02,-1.249856872558593750e+02,6.327319335937500000e+01,-4.143135452270507812e+01
9.359999895095825195e-01,2.000000000000000000e+00,4.124013519287109375e+01,3.427631378173828125e+00,3.423726272583007812e+01,-1.190605773925781250e+02,9.136234283447265625e+01,-6.892000579833984375e+01,3.906837081909179688e+01,-1.316084861755371094e+01,-1.077229690551757812e+02,-1.250395812988281250e+02,6.326895904541015625e+01,-4.146144104003906250e+01
9.399999976158142090e-01,2.000000000000000000e+00,4.126845932006835938e+01,3.380079269409179688e+00,3.423208999633789062e+01,-1.191149749755859375e+02,9.136508178710937500e+01,-6.894480133056640625e+01,3.899623489379882812e+01,-1.315205764770507812e+01,-1.077375717163085938e+02,-1.250934677124023438e+02,6.326472473144531250e+01,-4.149152374267578125e+01
9.440000057220458984e-01,2.000000000000000000e+00,4.129678344726562500e+01,3.332529067993164062e+00,3.422691726684570312e+01,-1.191693725585937500e+02,9.136783599853515625e+01,-6.896958160400390625e+01,3.892409896850585938e+01,-1.314326667785644531e+01,-1.077521743774414062e+02,-1.251473617553710938e+02,6.326049041748046875e+01,-4.152161026000976562e+01
9.480000138282775879e-01,2.000000000000000000e+00,4.132510375976562500e+01,3.284981250762939453e+00,3.422174453735351562e+01,-1.192237548828125000e+02,9.137058258056640625e+01,-6.899436950683593750e+01,3.885196685791015625e+01,-1.313447570800781250e+01,-1.077667694091796875e+02,-1.252012329101562500e+02,6.325625228881835938e+01,-4.155168914794921875e+01
9.520000219345092773e-01,2.000000000000000000e+00,4.135342407226562500e+01,3.237435340881347656e+00,3.421657180786132812e+01,-1.192781524658203125e+02,9.137332916259765625e+01,-6.901915740966796875e+01,3.877984237670898438e+01,-1.312568664550781250e+01,-1.077813644409179688e+02,-1.252551269531250000e+02,6.325201797485351562e+01,-4.158176803588867188e+01
9.559999704360961914e-01,2.000000000000000000e+00,4.138174438476562500e+01,3.189891576766967773e+00,3.421139907836914062e+01,-1.193325347900390625e+02,9.137607574462890625e+01,-6.904393768310546875e+01,3.870771408081054688e+01,-1.311689662933349609e+01,-1.077959518432617188e+02,-1.253089981079101562e+02,6.324778366088867188e+01,-4.161185073852539062e+01
9.599999785423278809e-01,2.000000000000000000e+00,4.141006088256835938e+01,3.142349720001220703e+00,3.420622634887695312e+01,-1.193869094848632812e+02,9.137882995605468750e+01,-6.906872558593750000e+01,3.863558959960937500e+01,-1.310810756683349609e+01,-1.078105468750000000e+02,-1.253628768920898438e+02,6.324354934692382812e+01,-4.164192581176757812e+01
9.639999866485595703e-01,2.000000000000000000e+00,4.143837738037109375e+01,3.094810009002685547e+00,3.420105743408203125e+01,-1.194412918090820312e+02,9.138157653808593750e+01,-6.909350585937500000e+01,3.856346893310546875e+01,-1.309931850433349609e+01,-1.078251419067382812e+02,-1.254167556762695312e+02,6.323931503295898438e+01,-4.167200088500976562e+01
9.679999947547912598e-01,2.000000000000000000e+00,4.146669387817382812e+01,3.047271966934204102e+00,3.419588088989257812e+01,-1.194956741333007812e+02,9.138431549072265625e+01,-6.911828613281250000e+01,3.849135589599609375e+01,-1.309052944183349609e+01,-1.078397369384765625e+02,-1.254706192016601562e+02,6.323508834838867188e+01,-4.170207977294921875e+01
9.720000028610229492e-01,2.000000000000000000e+00,4.149500656127929688e+01,2.999736309051513672e+00,3.419071197509765625e+01,-1.195500488281250000e+02,9.138706207275390625e+01,-6.914306640625000000e+01,3.841923904418945312e+01,-1.308174228668212891e+01,-1.078543319702148438e+02,-1.255244903564453125e+02,6.323085403442382812e+01,-4.173215103149414062e+01
9.760000109672546387e-01,2.000000000000000000e+00,4.152331924438476562e+01,2.952202320098876953e+00,3.418554306030273438e+01,-1.196044158935546875e+02,9.138980865478515625e+01,-6.916784667968750000e+01,3.834712982177734375e+01,-1.307295417785644531e+01,-1.078689193725585938e+02,-1.255783538818359375e+02,6.322661972045898438e+01,-4.176222610473632812e+01
9.800000190734863281e-01,2.000000000000000000e+00,4.155163192749023438e+01,2.904670238494873047e+00,3.418037033081054688e+01,-1.196587982177734375e+02,9.139255523681640625e+01,-6.919262695312500000e+01,3.827502441406250000e+01,-1.306416606903076172e+01,-1.078835144042968750e+02,-1.256322174072265625e+02,6.322238159179687500e+01,-4.179229736328125000e+01
9.840000271797180176e-01,2.000000000000000000e+00,4.157994079589843750e+01,2.857140064239501953e+00,3.417519760131835938e+01,-1.197131652832031250e+02,9.139530181884765625e+01,-6.921739959716796875e+01,3.820291900634765625e+01,-1.305537891387939453e+01,-1.078981018066406250e+02,-1.256860809326171875e+02,6.321814727783203125e+01,-4.182236480712890625e+01
9.879999756813049316e-01,2.000000000000000000e+00,4.160825347900390625e+01,2.809611797332763672e+00,3.417002487182617188e+01,-1.197675323486328125e+02,9.139804840087890625e+01,-6.924217987060546875e+01,3.813081741333007812e+01,-1.304659175872802734e+01,-1.079126968383789062e+02,-1.257399444580078125e+02,6.321392059326171875e+01,-4.185243606567382812e+01
9.919999837875366211e-01,2.000000000000000000e+00,4.163656234741210938e+01,2.762085437774658203e+00,3.416485595703125000e+01,-1.198218841552734375e+02,9.140080261230468750e+01,-6.926695251464843750e+01,3.805871963500976562e+01,-1.303780555725097656e+01,-1.079272842407226562e+02,-1.257938079833984375e+02,6.320968627929687500e+01,-4.188250350952148438e+01
9.959999918937683105e-01,2.000000000000000000e+00,4.166486740112304688e+01,2.714560985565185547e+00,3.415968704223632812e+01,-1.198762588500976562e+02,9.140354919433593750e+01,-6.929172515869140625e+01,3.798662185668945312e+01,-1.302901935577392578e+01,-1.079418716430664062e+02,-1.258476715087890625e+02,6.320545196533203125e+01,-4.191257095336914062e+01
1.000000000000000000e+00,2.000000000000000000e+00,4.169317245483398438e+01,2.667038440704345703e+00,3.415451431274414062e+01,-1.199306106567382812e+02,9.140628814697265625e+01,-6.931649780273437500e+01,3.791452789306640625e+01,-1.302023315429687500e+01,-1.079564590454101562e+02,-1.259015197753906250e+02,6.320122146606445312e+01,-4.194263458251953125e+01
1.003999948501586914e+00,2.000000000000000000e+00,4.172147750854492188e+01,2.619517564773559570e+00,3.414934921264648438e+01,-1.199849777221679688e+02,9.140903472900390625e+01,-6.934127044677734375e+01,3.784243774414062500e+01,-1.301144790649414062e+01,-1.079710540771484375e+02,-1.259553680419921875e+02,6.319698715209960938e+01,-4.197270202636718750e+01
1.008000016212463379e+00,2.000000000000000000e+00,4.174978256225585938e+01,2.571998596191406250e+00,3.414417648315429688e+01,-1.200393295288085938e+02,9.141178131103515625e+01,-6.936604309082031250e+01,3.777034759521484375e+01,-1.300266361236572266e+01,-1.079856338500976562e+02,-1.260092163085937500e+02,6.319276046752929688e+01,-4.200276565551757812e+01
1.011999964714050293e+00,2.000000000000000000e+00,4.177808380126953125e+01,2.524481773376464844e+00,3.413900756835937500e+01,-1.200936889648437500e+02,9.141452789306640625e+01,-6.939081573486328125e+01,3.769826507568359375e+01,-1.299387836456298828e+01,-1.080002212524414062e+02,-1.260630645751953125e+02,6.318852615356445312e+01,-4.203282928466796875e+01
1.016000032424926758e+00,2.000000000000000000e+00,4.180638504028320312e+01,2.476966381072998047e+00,3.413383483886718750e+01,-1.201480407714843750e+02,9.141727447509765625e+01,-6.941558074951171875e+01,3.762618255615234375e+01,-1.298509407043457031e+01,-1.080148086547851562e+02,-1.261169204711914062e+02,6.318429946899414062e+01,-4.206288909912109375e+01
1.019999980926513672e+00,2.000000000000000000e+00,4.183468627929687500e+01,2.429452896118164062e+00,3.412866973876953125e+01,-1.202023849487304688e+02,9.142002105712890625e+01,-6.944034576416015625e+01,3.755410385131835938e+01,-1.297631072998046875e+01,-1.080293960571289062e+02,-1.261707687377929688e+02,6.318006515502929688e+01,-4.209294509887695312e+01
1.024000048637390137e+00,2.000000000000000000e+00,4.186298751831054688e+01,2.381941318511962891e+00,3.412350082397460938e+01,-1.202567367553710938e+02,9.142276000976562500e+01,-6.946511840820312500e+01,3.748202514648437500e+01,-1.296752643585205078e+01,-1.080439758300781250e+02,-1.262246017456054688e+02,6.317583465576171875e+01,-4.212300491333007812e+01
1.026999950408935547e+00,2.000000000000000000e+00,4.189128494262695312e+01,2.334431171417236328e+00,3.411833190917968750e+01,-1.203110809326171875e+02,9.142550659179687500e+01,-6.948989105224609375e+01,3.740995407104492188e+01,-1.295874309539794922e+01,-1.080585632324218750e+02,-1.262784500122070312e+02,6.317160034179687500e+01,-4.215306091308593750e+01
1.031999945640563965e+00,2.000000000000000000e+00,4.191958236694335938e+01,2.286923170089721680e+00,3.411316299438476562e+01,-1.203654174804687500e+02,9.142825317382812500e+01,-6.951465606689453125e+01,3.733788299560546875e+01,-1.294996070861816406e+01,-1.080731506347656250e+02,-1.263322906494140625e+02,6.316737365722656250e+01,-4.218312072753906250e+01
1.036000013351440430e+00,2.000000000000000000e+00,4.194787979125976562e+01,2.239416837692260742e+00,3.410799407958984375e+01,-1.204197616577148438e+02,9.143099975585937500e+01,-6.953941345214843750e+01,3.726581192016601562e+01,-1.294117736816406250e+01,-1.080877304077148438e+02,-1.263861236572265625e+02,6.316313934326171875e+01,-4.221317672729492188e+01
1.039999961853027344e+00,2.000000000000000000e+00,4.197617340087890625e+01,2.191912412643432617e+00,3.410282897949218750e+01,-1.204740982055664062e+02,9.143373870849609375e+01,-6.956417846679687500e+01,3.719374847412109375e+01,-1.293239498138427734e+01,-1.081023101806640625e+02,-1.264399566650390625e+02,6.315890884399414062e+01,-4.224322891235351562e+01
1.044000029563903809e+00,2.000000000000000000e+00,4.200446701049804688e+01,2.144409418106079102e+00,3.409765625000000000e+01,-1.205284423828125000e+02,9.143648529052734375e+01,-6.958894348144531250e+01,3.712168121337890625e+01,-1.292361259460449219e+01,-1.081168975830078125e+02,-1.264937973022460938e+02,6.315468215942382812e+01,-4.227328109741210938e+01
1.047999978065490723e+00,2.000000000000000000e+00,4.203276443481445312e+01,2.096908330917358398e+00,3.409249114990234375e+01,-1.205827865600585938e+02,9.143923187255859375e+01,-6.961370849609375000e+01,3.704962539672851562e+01,-1.291483116149902344e+01,-1.081314773559570312e+02,-1.265476150512695312e+02,6.315044784545898438e+01,-4.230333328247070312e+01
1.052000045776367188e+00,2.000000000000000000e+00,4.206105804443359375e+01,2.049408912658691406e+00,3.408732223510742188e+01,-1.206371078491210938e+02,9.144197845458984375e+01,-6.963846588134765625e+01,3.697756576538085938e+01,-1.290604877471923828e+01,-1.081460647583007812e+02,-1.266014480590820312e+02,6.314622116088867188e+01,-4.233338546752929688e+01
1.054999947547912598e+00,2.000000000000000000e+00,4.208934783935546875e+01,2.001911401748657227e+00,3.408215713500976562e+01,-1.206914520263671875e+02,9.144471740722656250e+01,-6.966322326660156250e+01,3.690550994873046875e+01,-1.289726829528808594e+01,-1.081606445312500000e+02,-1.266552734375000000e+02,6.314199066162109375e+01,-4.236343765258789062e+01
1.059999942779541016e+00,2.000000000000000000e+00,4.211763763427734375e+01,1.954415321350097656e+00,3.407698822021484375e+01,-1.207457809448242188e+02,9.144746398925781250e+01,-6.968798065185546875e+01,3.683345413208007812e+01,-1.288848686218261719e+01,-1.081752166748046875e+02,-1.267090911865234375e+02,6.313775634765625000e+01,-4.239348602294921875e+01
1.064000010490417480e+00,2.000000000000000000e+00,4.214592361450195312e+01,1.906920909881591797e+00,3.407182312011718750e+01,-1.208001098632812500e+02,9.145021057128906250e+01,-6.971274566650390625e+01,3.676140594482421875e+01,-1.287970638275146484e+01,-1.081898040771484375e+02,-1.267629165649414062e+02,6.313352966308593750e+01,-4.242353057861328125e+01
1.067999958992004395e+00,2.000000000000000000e+00,4.217421722412109375e+01,1.859428524971008301e+00,3.406665420532226562e+01,-1.208544311523437500e+02,9.145295715332031250e+01,-6.973750305175781250e+01,3.668935775756835938e+01,-1.287092685699462891e+01,-1.082043762207031250e+02,-1.268167419433593750e+02,6.312930297851562500e+01,-4.245357894897460938e+01
1.072000026702880859e+00,2.000000000000000000e+00,4.220250320434570312e+01,1.811937570571899414e+00,3.406148910522460938e+01,-1.209087600708007812e+02,9.145570373535156250e+01,-6.976226043701171875e+01,3.661731338500976562e+01,-1.286214637756347656e+01,-1.082189559936523438e+02,-1.268705596923828125e+02,6.312507247924804688e+01,-4.248362350463867188e+01
1.075999975204467773e+00,2.000000000000000000e+00,4.223078536987304688e+01,1.764448285102844238e+00,3.405632019042968750e+01,-1.209630737304687500e+02,9.145844268798828125e+01,-6.978701782226562500e+01,3.654526901245117188e+01,-1.285336685180664062e+01,-1.082335357666015625e+02,-1.269243850708007812e+02,6.312084579467773438e+01,-4.251366806030273438e+01
1.080000042915344238e+00,2.000000000000000000e+00,4.225907516479492188e+01,1.716960549354553223e+00,3.405115509033203125e+01,-1.210174026489257812e+02,9.146118927001953125e+01,-6.981176757812500000e+01,3.647322845458984375e+01,-1.284458732604980469e+01,-1.082481155395507812e+02,-1.269781875610351562e+02,6.311661148071289062e+01,-4.254371261596679688e+01
1.083999991416931152e+00,2.000000000000000000e+00,4.228735733032226562e+01,1.669474601745605469e+00,3.404598999023437500e+01,-1.210717163085937500e+02,9.146392822265625000e+01,-6.983652496337890625e+01,3.640119171142578125e+01,-1.283580875396728516e+01,-1.082626953125000000e+02,-1.270320129394531250e+02,6.311238479614257812e+01,-4.257375335693359375e+01
1.088000059127807617e+00,2.000000000000000000e+00,4.231564331054687500e+01,1.621990084648132324e+00,3.404082489013671875e+01,-1.211260299682617188e+02,9.146666717529296875e+01,-6.986128234863281250e+01,3.632915496826171875e+01,-1.282702922821044922e+01,-1.082772674560546875e+02,-1.270858230590820312e+02,6.310815429687500000e+01,-4.260379791259765625e+01
1.090999960899353027e+00,2.000000000000000000e+00,4.234392166137695312e+01,1.574507355690002441e+00,3.403565597534179688e+01,-1.211803436279296875e+02,9.146941375732421875e+01,-6.988603210449218750e+01,3.625712203979492188e+01,-1.281825160980224609e+01,-1.082918472290039062e+02,-1.271396255493164062e+02,6.310392761230468750e+01,-4.263383483886718750e+01
1.095999956130981445e+00,2.000000000000000000e+00,4.237220764160156250e+01,1.527026295661926270e+00,3.403049087524414062e+01,-1.212346572875976562e+02,9.147216033935546875e+01,-6.991078186035156250e+01,3.618509292602539062e+01,-1.280947399139404297e+01,-1.083064193725585938e+02,-1.271934356689453125e+02,6.309970092773437500e+01,-4.266387557983398438e+01
1.100000023841857910e+00,2.000000000000000000e+00,4.240048599243164062e+01,1.479546666145324707e+00,3.402532577514648438e+01,-1.212889709472656250e+02,9.147490692138671875e+01,-6.993553161621093750e+01,3.611306381225585938e+01,-1.280069541931152344e+01,-1.083209991455078125e+02,-1.272472457885742188e+02,6.309547042846679688e+01,-4.269391632080078125e+01
1.103999972343444824e+00,2.000000000000000000e+00,4.242876434326171875e+01,1.432068586349487305e+00,3.402016067504882812e+01,-1.213432846069335938e+02,9.147764587402343750e+01,-6.996028137207031250e+01,3.604103851318359375e+01,-1.279191780090332031e+01,-1.083355712890625000e+02,-1.273010559082031250e+02,6.309124374389648438e+01,-4.272394943237304688e+01
1.108000040054321289e+00,2.000000000000000000e+00,4.245704269409179688e+01,1.384592175483703613e+00,3.401499557495117188e+01,-1.213975830078125000e+02,9.148039245605468750e+01,-6.998503875732421875e+01,3.596901702880859375e+01,-1.278314018249511719e+01,-1.083501434326171875e+02,-1.273548507690429688e+02,6.308701705932617188e+01,-4.275399017333984375e+01
1.111999988555908203e+00,2.000000000000000000e+00,4.248532104492187500e+01,1.337117314338684082e+00,3.400983047485351562e+01,-1.214518966674804688e+02,9.148313140869140625e+01,-7.000978088378906250e+01,3.589699554443359375e+01,-1.277436351776123047e+01,-1.083647232055664062e+02,-1.274086532592773438e+02,6.308278656005859375e+01,-4.278402328491210938e+01
