rpiRobotics/ARM-21-02-F-19-Robot-Motion-Program/data_performance_abb/curve_2/baseline/0.5/curve_exe_v560.302734375_z10.csv
timestamp, cmd_num, J1, J2, J3, J4, J5, J6
0, -1, 39.6278, 33.7272, 11.402, 12.7634, 115.229, -47.8653
0.003, -1, 39.6278, 33.7272, 11.402, 12.7634, 115.229, -47.8653
0.006, -1, 39.6278, 33.7272, 11.402, 12.7634, 115.229, -47.8653
0.008, -1, 39.6278, 33.7272, 11.402, 12.7634, 115.229, -47.8653
0.011, -1, 39.6278, 33.7272, 11.402, 12.7634, 115.229, -47.8653
0.016, -1, 39.6278, 33.7272, 11.402, 12.7634, 115.229, -47.8653
0.02, -1, 39.6278, 33.7272, 11.402, 12.7634, 115.229, -47.8653
0.024, -1, 39.6278, 33.7272, 11.402, 12.7634, 115.229, -47.8653
0.028, -1, 39.6278, 33.7272, 11.402, 12.7634, 115.229, -47.8653
0.032, -1, 39.6277, 33.7272, 11.402, 12.7634, 115.229, -47.8653
0.036, -1, 39.6277, 33.7271, 11.402, 12.7634, 115.229, -47.8653
0.04, -1, 39.6274, 33.7271, 11.4019, 12.7634, 115.229, -47.8653
0.044, -1, 39.6268, 33.727, 11.4019, 12.7634, 115.229, -47.8653
0.048, -1, 39.6257, 33.7267, 11.4018, 12.7633, 115.229, -47.8654
0.052, -1, 39.624, 33.7262, 11.4016, 12.7633, 115.229, -47.8655
0.056, -1, 39.6215, 33.7255, 11.4014, 12.7633, 115.229, -47.8658
0.06, -1, 39.6183, 33.7244, 11.4012, 12.7633, 115.228, -47.8665
0.064, -1, 39.6141, 33.723, 11.4009, 12.7633, 115.228, -47.8675
0.068, -1, 39.609, 33.7211, 11.4005, 12.7633, 115.227, -47.8693
0.072, -1, 39.6029, 33.7186, 11.4003, 12.7634, 115.226, -47.8719
0.076, -1, 39.5954, 33.7154, 11.4001, 12.7634, 115.225, -47.8758
0.08, -1, 39.5864, 33.7114, 11.4, 12.7635, 115.223, -47.8812
0.084, -1, 39.5755, 33.7065, 11.4002, 12.7637, 115.22, -47.8885
0.088, -1, 39.5625, 33.7005, 11.4006, 12.7639, 115.216, -47.8983
0.092, -1, 39.5473, 33.6933, 11.4015, 12.7642, 115.211, -47.9109
0.096, -1, 39.5297, 33.6848, 11.4028, 12.7647, 115.205, -47.9269
0.1, -1, 39.5096, 33.6749, 11.4048, 12.7653, 115.197, -47.9467
0.104, -1, 39.4866, 33.6636, 11.4076, 12.766, 115.188, -47.9708
0.108, -1, 39.4607, 33.6505, 11.4111, 12.7669, 115.176, -47.9997
0.112, -1, 39.4316, 33.6358, 11.4156, 12.768, 115.163, -48.0339
0.116, -1, 39.3991, 33.6191, 11.4211, 12.7692, 115.147, -48.0736
0.12, -1, 39.3632, 33.6006, 11.4277, 12.7707, 115.129, -48.1193
0.124, -1, 39.3237, 33.58, 11.4354, 12.7724, 115.109, -48.1712
0.128, -1, 39.2806, 33.5574, 11.4443, 12.7744, 115.085, -48.2294
0.131, -1, 39.2338, 33.5327, 11.4544, 12.7765, 115.06, -48.2941
0.136, -1, 39.1833, 33.506, 11.4657, 12.7789, 115.031, -48.3654
0.139, -1, 39.129, 33.4772, 11.4782, 12.7816, 115, -48.4431
0.144, -1, 39.0712, 33.4463, 11.4919, 12.7844, 114.967, -48.5272
0.148, -1, 39.0097, 33.4135, 11.5067, 12.7875, 114.931, -48.6175
0.152, -1, 38.9448, 33.3788, 11.5225, 12.7908, 114.893, -48.7137
0.156, -1, 38.8767, 33.3423, 11.5394, 12.7943, 114.852, -48.8155
0.16, -1, 38.8054, 33.304, 11.5572, 12.798, 114.809, -48.9224
0.164, -1, 38.7311, 33.2642, 11.5758, 12.8019, 114.765, -49.0341
0.168, -1, 38.654, 33.2228, 11.5951, 12.8059, 114.719, -49.1501
0.172, -1, 38.5741, 33.1801, 11.615, 12.81, 114.671, -49.2699
0.176, -1, 38.4919, 33.136, 11.6353, 12.8142, 114.622, -49.3929
0.18, -1, 38.4074, 33.0907, 11.6561, 12.8185, 114.572, -49.5187
0.184, -1, 38.3212, 33.0445, 11.6771, 12.8229, 114.52, -49.6469
0.188, -1, 38.2334, 32.9973, 11.6983, 12.8274, 114.469, -49.7771
0.192, -1, 38.1441, 32.9494, 11.7197, 12.8319, 114.416, -49.9087
0.196, -1, 38.0534, 32.9007, 11.7411, 12.8364, 114.363, -50.0416
0.2, -1, 37.9615, 32.8515, 11.7625, 12.8409, 114.31, -50.1754
0.204, -1, 37.8683, 32.8017, 11.7839, 12.8455, 114.257, -50.3098
0.208, -1, 37.774, 32.7515, 11.8053, 12.85, 114.203, -50.4447
0.212, -1, 37.6787, 32.701, 11.8267, 12.8546, 114.149, -50.5799
0.216, -1, 37.5827, 32.6503, 11.848, 12.8592, 114.095, -50.7154
0.22, -1, 37.4862, 32.5994, 11.8692, 12.8637, 114.041, -50.8511
0.224, -1, 37.3893, 32.5484, 11.8905, 12.8683, 113.987, -50.9868
0.228, -1, 37.2921, 32.4972, 11.9117, 12.8729, 113.933, -51.1227
0.232, -1, 37.1948, 32.4461, 11.933, 12.8775, 113.879, -51.2586
0.236, -1, 37.0973, 32.3949, 11.9543, 12.882, 113.825, -51.3946
0.24, -1, 36.9998, 32.3436, 11.9755, 12.8866, 113.771, -51.5307
0.244, -1, 36.9022, 32.2924, 11.9968, 12.8912, 113.717, -51.6667
0.248, -1, 36.8045, 32.2411, 12.018, 12.8958, 113.663, -51.8029
0.252, -1, 36.7068, 32.1898, 12.0393, 12.9003, 113.608, -51.939
0.256, -1, 36.6091, 32.1385, 12.0605, 12.9049, 113.554, -52.0752
0.26, -1, 36.5113, 32.0871, 12.0818, 12.9095, 113.5, -52.2114
0.264, -1, 36.4135, 32.0358, 12.1031, 12.9141, 113.446, -52.3476
0.268, -1, 36.3157, 31.9844, 12.1243, 12.9186, 113.392, -52.4839
0.272, -1, 36.2179, 31.9331, 12.1456, 12.9232, 113.337, -52.6202
0.276, -1, 36.12, 31.8817, 12.1669, 12.9278, 113.283, -52.7565
0.28, -1, 36.0221, 31.8303, 12.1882, 12.9324, 113.229, -52.8928
0.284, -1, 35.9242, 31.7789, 12.2095, 12.937, 113.175, -53.0292
0.288, -1, 35.8263, 31.7275, 12.2308, 12.9416, 113.12, -53.1656
0.292, -1, 35.7284, 31.6761, 12.2521, 12.9462, 113.066, -53.302
0.296, -1, 35.6304, 31.6247, 12.2734, 12.9507, 113.012, -53.4384
0.3, -1, 35.5325, 31.5732, 12.2947, 12.9553, 112.958, -53.5749
0.304, -1, 35.4345, 31.5218, 12.316, 12.9599, 112.903, -53.7114
0.308, -1, 35.3365, 31.4703, 12.3373, 12.9645, 112.849, -53.8479
0.312, -1, 35.2385, 31.4189, 12.3586, 12.9691, 112.795, -53.9844
0.316, -1, 35.1404, 31.3674, 12.3799, 12.9737, 112.74, -54.121
0.32, -1, 35.0424, 31.3159, 12.4012, 12.9783, 112.686, -54.2576
0.324, -1, 34.9443, 31.2644, 12.4225, 12.9829, 112.632, -54.3942
0.328, -1, 34.8462, 31.213, 12.4439, 12.9875, 112.577, -54.5308
0.332, -1, 34.7481, 31.1615, 12.4652, 12.992, 112.523, -54.6674
0.336, -1, 34.65, 31.1099, 12.4865, 12.9966, 112.469, -54.8041
0.34, -1, 34.5519, 31.0584, 12.5079, 13.0012, 112.414, -54.9408
0.344, -1, 34.4537, 31.0069, 12.5292, 13.0058, 112.36, -55.0775
0.348, -1, 34.3556, 30.9554, 12.5506, 13.0104, 112.306, -55.2142
0.352, -1, 34.2574, 30.9038, 12.5719, 13.015, 112.251, -55.351
0.356, -1, 34.1592, 30.8523, 12.5933, 13.0196, 112.197, -55.4878
0.36, -1, 34.061, 30.8007, 12.6146, 13.0242, 112.142, -55.6246
0.364, -1, 33.9627, 30.7491, 12.636, 13.0288, 112.088, -55.7614
0.368, -1, 33.8645, 30.6975, 12.6573, 13.0334, 112.034, -55.8982
0.372, -1, 33.7663, 30.646, 12.6787, 13.038, 111.979, -56.0351
0.376, -1, 33.668, 30.5944, 12.7001, 13.0426, 111.925, -56.172
0.38, -1, 33.5697, 30.5428, 12.7214, 13.0472, 111.87, -56.3089
0.384, -1, 33.4714, 30.4912, 12.7428, 13.0518, 111.816, -56.4458
0.388, -1, 33.3731, 30.4395, 12.7642, 13.0564, 111.761, -56.5828
0.392, -1, 33.2748, 30.3879, 12.7856, 13.061, 111.707, -56.7197
0.396, -1, 33.1764, 30.3363, 12.807, 13.0656, 111.652, -56.8567
0.4, -1, 33.078, 30.2847, 12.8284, 13.0702, 111.598, -56.9937
0.404, -1, 32.9797, 30.233, 12.8497, 13.0749, 111.543, -57.1307
0.408, -1, 32.8813, 30.1814, 12.8711, 13.0795, 111.489, -57.2678
0.412, -1, 32.7829, 30.1297, 12.8925, 13.0841, 111.434, -57.4048
0.416, -1, 32.6845, 30.078, 12.9139, 13.0887, 111.38, -57.5419
0.42, -1, 32.5861, 30.0264, 12.9353, 13.0933, 111.325, -57.679
0.424, -1, 32.4876, 29.9747, 12.9567, 13.0979, 111.271, -57.8161
0.428, -1, 32.3892, 29.923, 12.9781, 13.1025, 111.216, -57.9533
0.432, -1, 32.2907, 29.8713, 12.9996, 13.1071, 111.162, -58.0904
0.436, -1, 32.1922, 29.8196, 13.021, 13.1117, 111.107, -58.2276
0.44, -1, 32.0937, 29.7679, 13.0424, 13.1163, 111.052, -58.3648
0.444, -1, 31.9952, 29.7162, 13.0638, 13.1209, 110.998, -58.502
0.448, -1, 31.8967, 29.6644, 13.0852, 13.1256, 110.943, -58.6392
0.452, -1, 31.7982, 29.6127, 13.1067, 13.1302, 110.889, -58.7765
0.456, -1, 31.6996, 29.561, 13.1281, 13.1348, 110.834, -58.9137
0.46, -1, 31.6011, 29.5092, 13.1495, 13.1394, 110.779, -59.051
0.464, -1, 31.5025, 29.4575, 13.1709, 13.144, 110.725, -59.1883
0.468, -1, 31.4039, 29.4057, 13.1924, 13.1486, 110.67, -59.3256
0.472, -1, 31.3053, 29.354, 13.2138, 13.1532, 110.616, -59.4629
0.476, -1, 31.2067, 29.3022, 13.2353, 13.1579, 110.561, -59.6003
0.48, -1, 31.1081, 29.2504, 13.2567, 13.1625, 110.506, -59.7376
0.484, -1, 31.0095, 29.1987, 13.2781, 13.1671, 110.452, -59.875
0.488, -1, 30.9109, 29.1469, 13.2996, 13.1717, 110.397, -60.0124
0.492, -1, 30.8122, 29.0951, 13.321, 13.1763, 110.342, -60.1498
0.496, -1, 30.7136, 29.0433, 13.3425, 13.181, 110.288, -60.2872
0.5, -1, 30.6149, 28.9915, 13.3639, 13.1856, 110.233, -60.4247
0.504, -1, 30.5162, 28.9397, 13.3854, 13.1902, 110.178, -60.5621
0.508, -1, 30.4175, 28.8879, 13.4069, 13.1948, 110.124, -60.6996
0.512, -1, 30.3188, 28.8361, 13.4283, 13.1994, 110.069, -60.8371
0.516, -1, 30.2201, 28.7842, 13.4498, 13.2041, 110.014, -60.9746
0.52, -1, 30.1214, 28.7324, 13.4713, 13.2087, 109.96, -61.1121
0.524, -1, 30.0227, 28.6806, 13.4927, 13.2133, 109.905, -61.2496
0.528, -1, 29.9239, 28.6287, 13.5142, 13.2179, 109.85, -61.3871
0.532, -1, 29.8252, 28.5769, 13.5357, 13.2226, 109.796, -61.5247
0.536, -1, 29.7264, 28.525, 13.5571, 13.2272, 109.741, -61.6623
0.54, -1, 29.6276, 28.4732, 13.5786, 13.2318, 109.686, -61.7998
0.544, -1, 29.5289, 28.4213, 13.6001, 13.2364, 109.631, -61.9374
0.548, -1, 29.4301, 28.3695, 13.6216, 13.2411, 109.577, -62.075
0.552, -1, 29.3313, 28.3176, 13.6431, 13.2457, 109.522, -62.2126
0.556, -1, 29.2325, 28.2657, 13.6645, 13.2503, 109.467, -62.3503
0.56, -1, 29.1337, 28.2139, 13.686, 13.2549, 109.412, -62.4879
0.564, -1, 29.0348, 28.162, 13.7075, 13.2596, 109.358, -62.6256
0.568, -1, 28.936, 28.1101, 13.729, 13.2642, 109.303, -62.7632
0.572, -1, 28.8372, 28.0582, 13.7505, 13.2688, 109.248, -62.9009
0.576, -1, 28.7383, 28.0063, 13.772, 13.2734, 109.193, -63.0386
0.58, -1, 28.6395, 27.9544, 13.7935, 13.2781, 109.139, -63.1763
0.584, -1, 28.5406, 27.9025, 13.815, 13.2827, 109.084, -63.314
0.588, -1, 28.4417, 27.8506, 13.8365, 13.2873, 109.029, -63.4517
0.592, -1, 28.3428, 27.7987, 13.858, 13.292, 108.974, -63.5894
0.596, -1, 28.244, 27.7468, 13.8795, 13.2966, 108.919, -63.7272
0.6, -1, 28.1451, 27.6949, 13.901, 13.3012, 108.865, -63.8649
0.604, -1, 28.0462, 27.6429, 13.9225, 13.3059, 108.81, -64.0027
0.608, -1, 27.9473, 27.591, 13.944, 13.3105, 108.755, -64.1404
0.612, -1, 27.8483, 27.5391, 13.9655, 13.3151, 108.7, -64.2782
0.616, -1, 27.7494, 27.4871, 13.987, 13.3197, 108.645, -64.416
0.62, -1, 27.6505, 27.4352, 14.0085, 13.3244, 108.591, -64.5538
0.624, -1, 27.5516, 27.3833, 14.03, 13.329, 108.536, -64.6916
0.628, -1, 27.4526, 27.3313, 14.0515, 13.3336, 108.481, -64.8294
0.632, -1, 27.3537, 27.2794, 14.0731, 13.3383, 108.426, -64.9672
0.636, -1, 27.2547, 27.2274, 14.0946, 13.3429, 108.371, -65.1051
0.64, -1, 27.1558, 27.1755, 14.1161, 13.3475, 108.317, -65.2429
0.644, -1, 27.0568, 27.1235, 14.1376, 13.3522, 108.262, -65.3808
0.648, -1, 26.9578, 27.0716, 14.1591, 13.3568, 108.207, -65.5186
0.652, -1, 26.8588, 27.0196, 14.1807, 13.3614, 108.152, -65.6565
0.656, -1, 26.7599, 26.9676, 14.2022, 13.3661, 108.097, -65.7943
0.66, -1, 26.6609, 26.9157, 14.2237, 13.3707, 108.042, -65.9322
0.664, -1, 26.5619, 26.8637, 14.2452, 13.3753, 107.988, -66.0701
0.668, -1, 26.4629, 26.8117, 14.2667, 13.38, 107.933, -66.208
0.672, -1, 26.3639, 26.7598, 14.2883, 13.3846, 107.878, -66.3459
0.676, -1, 26.2649, 26.7078, 14.3098, 13.3893, 107.823, -66.4838
0.68, -1, 26.1659, 26.6558, 14.3313, 13.3939, 107.768, -66.6217
0.684, -1, 26.0669, 26.6038, 14.3529, 13.3985, 107.713, -66.7596
0.688, -1, 25.9678, 26.5518, 14.3744, 13.4032, 107.658, -66.8976
0.692, -1, 25.8688, 26.4999, 14.3959, 13.4078, 107.604, -67.0355
0.696, -1, 25.7698, 26.4479, 14.4175, 13.4124, 107.549, -67.1734
0.7, -1, 25.6708, 26.3959, 14.439, 13.4171, 107.494, -67.3113
0.704, -1, 25.5717, 26.3439, 14.4605, 13.4217, 107.439, -67.4493
0.708, -1, 25.4727, 26.2919, 14.4821, 13.4263, 107.384, -67.5872
0.712, -1, 25.3736, 26.2399, 14.5036, 13.431, 107.329, -67.7252
0.716, -1, 25.2746, 26.1879, 14.5251, 13.4356, 107.274, -67.8632
0.72, -1, 25.1756, 26.1359, 14.5467, 13.4403, 107.219, -68.0011
0.724, -1, 25.0765, 26.0839, 14.5682, 13.4449, 107.165, -68.1391
0.728, -1, 24.9774, 26.0319, 14.5897, 13.4495, 107.11, -68.2771
0.732, -1, 24.8784, 25.9799, 14.6113, 13.4542, 107.055, -68.415
0.736, -1, 24.7793, 25.9279, 14.6328, 13.4588, 107, -68.553
0.74, -1, 24.6803, 25.8759, 14.6544, 13.4634, 106.945, -68.691
0.744, -1, 24.5812, 25.8239, 14.6759, 13.4681, 106.89, -68.829
0.748, -1, 24.4821, 25.7719, 14.6974, 13.4727, 106.835, -68.967
0.752, -1, 24.3831, 25.7199, 14.719, 13.4774, 106.78, -69.105
0.756, -1, 24.284, 25.6679, 14.7405, 13.482, 106.725, -69.243
0.76, -1, 24.1849, 25.6158, 14.7621, 13.4866, 106.671, -69.3809
0.764, -1, 24.0859, 25.5638, 14.7836, 13.4913, 106.616, -69.5189
0.768, -1, 23.9868, 25.5118, 14.8051, 13.4959, 106.561, -69.6569
0.772, -1, 23.8877, 25.4598, 14.8267, 13.5006, 106.506, -69.7949
0.776, -1, 23.7886, 25.4078, 14.8482, 13.5052, 106.451, -69.9329
0.78, -1, 23.6895, 25.3558, 14.8698, 13.5098, 106.396, -70.071
0.784, -1, 23.5905, 25.3038, 14.8913, 13.5145, 106.341, -70.209
0.788, -1, 23.4914, 25.2517, 14.9129, 13.5191, 106.286, -70.347
0.792, -1, 23.3923, 25.1997, 14.9344, 13.5238, 106.231, -70.485
0.796, -1, 23.2932, 25.1477, 14.9559, 13.5284, 106.177, -70.623
0.8, -1, 23.1941, 25.0957, 14.9775, 13.533, 106.122, -70.761
0.804, -1, 23.0951, 25.0437, 14.999, 13.5377, 106.067, -70.899
0.808, -1, 22.996, 24.9917, 15.0206, 13.5423, 106.012, -71.037
0.812, -1, 22.8969, 24.9396, 15.0421, 13.5469, 105.957, -71.175
0.816, -1, 22.7978, 24.8876, 15.0637, 13.5516, 105.902, -71.313
0.82, -1, 22.6987, 24.8356, 15.0852, 13.5562, 105.847, -71.451
0.824, -1, 22.5997, 24.7836, 15.1067, 13.5609, 105.792, -71.589
0.828, -1, 22.5006, 24.7316, 15.1283, 13.5655, 105.737, -71.727
0.832, -1, 22.4015, 24.6796, 15.1498, 13.5701, 105.683, -71.865
0.836, -1, 22.3024, 24.6275, 15.1714, 13.5748, 105.628, -72.003
0.84, -1, 22.2034, 24.5755, 15.1929, 13.5794, 105.573, -72.141
0.844, -1, 22.1043, 24.5235, 15.2145, 13.5841, 105.518, -72.279
0.848, -1, 22.0052, 24.4715, 15.236, 13.5887, 105.463, -72.417
0.852, -1, 21.9061, 24.4195, 15.2575, 13.5933, 105.408, -72.555
0.856, -1, 21.8071, 24.3675, 15.2791, 13.598, 105.353, -72.693
0.86, -1, 21.708, 24.3155, 15.3006, 13.6026, 105.298, -72.831
0.864, -1, 21.6089, 24.2635, 15.3222, 13.6073, 105.243, -72.969
0.868, -1, 21.5099, 24.2115, 15.3437, 13.6119, 105.189, -73.107
0.872, -1, 21.4108, 24.1595, 15.3652, 13.6165, 105.134, -73.245
0.876, -1, 21.3117, 24.1074, 15.3868, 13.6212, 105.079, -73.3829
0.88, -1, 21.2127, 24.0554, 15.4083, 13.6258, 105.024, -73.5209
0.884, -1, 21.1136, 24.0034, 15.4298, 13.6304, 104.969, -73.6589
0.888, -1, 21.0146, 23.9514, 15.4514, 13.6351, 104.914, -73.7968
0.892, -1, 20.9155, 23.8994, 15.4729, 13.6397, 104.859, -73.9348
0.896, -1, 20.8165, 23.8474, 15.4945, 13.6444, 104.804, -74.0728
0.9, -1, 20.7175, 23.7955, 15.516, 13.649, 104.749, -74.2107
0.904, -1, 20.6184, 23.7435, 15.5375, 13.6536, 104.695, -74.3487
0.908, -1, 20.5194, 23.6915, 15.5591, 13.6583, 104.64, -74.4866
0.912, -1, 20.4204, 23.6395, 15.5806, 13.6629, 104.585, -74.6245
0.916, -1, 20.3213, 23.5875, 15.6021, 13.6675, 104.53, -74.7625
0.92, -1, 20.2223, 23.5355, 15.6237, 13.6722, 104.475, -74.9004
0.924, -1, 20.1233, 23.4835, 15.6452, 13.6768, 104.42, -75.0383
0.928, -1, 20.0243, 23.4315, 15.6667, 13.6814, 104.365, -75.1762
0.932, -1, 19.9253, 23.3796, 15.6882, 13.6861, 104.311, -75.3141
0.936, -1, 19.8263, 23.3276, 15.7098, 13.6907, 104.256, -75.452
0.94, -1, 19.7273, 23.2756, 15.7313, 13.6954, 104.201, -75.5899
0.944, -1, 19.6283, 23.2237, 15.7528, 13.7, 104.146, -75.7278
0.948, -1, 19.5293, 23.1717, 15.7743, 13.7046, 104.091, -75.8657
0.952, -1, 19.4303, 23.1197, 15.7959, 13.7093, 104.036, -76.0036
0.956, -1, 19.3313, 23.0678, 15.8174, 13.7139, 103.982, -76.1414
0.96, -1, 19.2323, 23.0158, 15.8389, 13.7185, 103.927, -76.2793
0.964, -1, 19.1334, 22.9638, 15.8604, 13.7232, 103.872, -76.4171
0.968, -1, 19.0344, 22.9119, 15.8819, 13.7278, 103.817, -76.555
0.972, -1, 18.9354, 22.8599, 15.9034, 13.7324, 103.762, -76.6928
0.976, -1, 18.8365, 22.808, 15.925, 13.7371, 103.707, -76.8306
0.98, -1, 18.7375, 22.756, 15.9465, 13.7417, 103.653, -76.9685
0.984, -1, 18.6386, 22.7041, 15.968, 13.7463, 103.598, -77.1063
0.988, -1, 18.5397, 22.6522, 15.9895, 13.751, 103.543, -77.2441
0.992, -1, 18.4407, 22.6002, 16.011, 13.7556, 103.488, -77.3819
0.996, -1, 18.3418, 22.5483, 16.0325, 13.7602, 103.433, -77.5196
1, -1, 18.2429, 22.4964, 16.054, 13.7649, 103.379, -77.6574
1.004, -1, 18.144, 22.4445, 16.0755, 13.7695, 103.324, -77.7952
1.008, -1, 18.0451, 22.3925, 16.097, 13.7741, 103.269, -77.9329
1.012, -1, 17.9462, 22.3406, 16.1185, 13.7787, 103.214, -78.0707
1.016, -1, 17.8473, 22.2887, 16.14, 13.7834, 103.159, -78.2084
1.02, -1, 17.7484, 22.2368, 16.1615, 13.788, 103.105, -78.3461
1.024, -1, 17.6496, 22.1849, 16.183, 13.7926, 103.05, -78.4838
1.027, -1, 17.5507, 22.133, 16.2045, 13.7973, 102.995, -78.6215
1.032, -1, 17.4518, 22.0811, 16.226, 13.8019, 102.94, -78.7592
1.036, -1, 17.353, 22.0292, 16.2475, 13.8065, 102.886, -78.8969
1.04, -1, 17.2542, 21.9773, 16.269, 13.8111, 102.831, -79.0346
1.044, -1, 17.1553, 21.9254, 16.2905, 13.8158, 102.776, -79.1722
1.048, -1, 17.0565, 21.8736, 16.312, 13.8204, 102.721, -79.3099
1.052, -1, 16.9577, 21.8217, 16.3335, 13.825, 102.666, -79.4475
1.055, -1, 16.8589, 21.7698, 16.3549, 13.8297, 102.612, -79.5851
1.06, -1, 16.7601, 21.718, 16.3764, 13.8343, 102.557, -79.7227
1.064, -1, 16.6613, 21.6661, 16.3979, 13.8389, 102.502, -79.8603
1.068, -1, 16.5625, 21.6142, 16.4194, 13.8435, 102.448, -79.9979
1.072, -1, 16.4637, 21.5624, 16.4408, 13.8482, 102.393, -80.1355
1.076, -1, 16.365, 21.5105, 16.4623, 13.8528, 102.338, -80.273
1.08, -1, 16.2662, 21.4587, 16.4838, 13.8574, 102.283, -80.4106
1.084, -1, 16.1675, 21.4069, 16.5053, 13.862, 102.229, -80.5481
1.088, -1, 16.0687, 21.355, 16.5267, 13.8666, 102.174, -80.6857
1.091, -1, 15.97, 21.3032, 16.5482, 13.8713, 102.119, -80.8232
1.096, -1, 15.8713, 21.2514, 16.5697, 13.8759, 102.065, -80.9606
1.1, -1, 15.7726, 21.1996, 16.5911, 13.8805, 102.01, -81.0981
1.104, -1, 15.6739, 21.1478, 16.6126, 13.8851, 101.955, -81.2356
1.108, -1, 15.5752, 21.096, 16.634, 13.8898, 101.901, -81.373
1.112, -1, 15.4765, 21.0442, 16.6555, 13.8944, 101.846, -81.5105
1.116, -1, 15.3779, 20.9924, 16.6769, 13.899, 101.791, -81.6479
1.119, -1, 15.2792, 20.9406, 16.6984, 13.9036, 101.737, -81.7853
1.124, -1, 15.1806, 20.8888, 16.7198, 13.9082, 101.682, -81.9227
1.128, -1, 15.0819, 20.837, 16.7413, 13.9128, 101.627, -82.0601
1.132, -1, 14.9833, 20.7852, 16.7627, 13.9175, 101.573, -82.1975
1.136, -1, 14.8847, 20.7335, 16.7842, 13.9221, 101.518, -82.3348
1.14, -1, 14.7861, 20.6817, 16.8056, 13.9267, 101.463, -82.4721
1.144, -1, 14.6875, 20.63, 16.827, 13.9313, 101.409, -82.6095
1.147, -1, 14.5889, 20.5782, 16.8485, 13.9359, 101.354, -82.7467
1.152, -1, 14.4904, 20.5265, 16.8699, 13.9405, 101.3, -82.884
1.156, -1, 14.3918, 20.4747, 16.8913, 13.9452, 101.245, -83.0213
1.16, -1, 14.2933, 20.423, 16.9127, 13.9498, 101.19, -83.1586
1.164, -1, 14.1947, 20.3713, 16.9342, 13.9544, 101.136, -83.2958
1.168, -1, 14.0962, 20.3196, 16.9556, 13.959, 101.081, -83.433
1.172, -1, 13.9977, 20.2678, 16.977, 13.9636, 101.027, -83.5702
1.175, -1, 13.8992, 20.2161, 16.9984, 13.9682, 100.972, -83.7074
1.18, -1, 13.8007, 20.1644, 17.0198, 13.9728, 100.918, -83.8446
1.184, -1, 13.7023, 20.1127, 17.0412, 13.9774, 100.863, -83.9817
1.188, -1, 13.6038, 20.0611, 17.0626, 13.982, 100.808, -84.1188
1.192, -1, 13.5054, 20.0094, 17.084, 13.9867, 100.754, -84.256
1.196, -1, 13.4069, 19.9577, 17.1054, 13.9913, 100.699, -84.3931
1.2, -1, 13.3085, 19.906, 17.1268, 13.9959, 100.645, -84.5301
1.204, -1, 13.2101, 19.8544, 17.1482, 14.0005, 100.59, -84.6672
1.208, -1, 13.1117, 19.8027, 17.1696, 14.0051, 100.536, -84.8042
1.212, -1, 13.0134, 19.7511, 17.191, 14.0097, 100.481, -84.9413
1.216, -1, 12.915, 19.6995, 17.2124, 14.0143, 100.427, -85.0783
1.22, -1, 12.8166, 19.6478, 17.2338, 14.0189, 100.372, -85.2152
1.224, -1, 12.7183, 19.5962, 17.2552, 14.0235, 100.318, -85.3522
1.228, -1, 12.62, 19.5446, 17.2766, 14.0281, 100.263, -85.4892
1.232, -1, 12.5217, 19.493, 17.2979, 14.0327, 100.209, -85.6261
1.236, -1, 12.4234, 19.4414, 17.3193, 14.0373, 100.154, -85.763
1.24, -1, 12.3251, 19.3898, 17.3407, 14.0419, 100.1, -85.8999
1.244, -1, 12.2268, 19.3382, 17.362, 14.0465, 100.046, -86.0367
1.248, -1, 12.1286, 19.2866, 17.3834, 14.0511, 99.9911, -86.1736
1.252, -1, 12.0303, 19.2351, 17.4047, 14.0557, 99.9367, -86.3104
1.256, -1, 11.9321, 19.1835, 17.4261, 14.0603, 99.8823, -86.4472
1.26, -1, 11.8339, 19.1319, 17.4475, 14.0649, 99.8279, -86.584
1.264, -1, 11.7357, 19.0804, 17.4688, 14.0695, 99.7735, -86.7208
1.267, -1, 11.6375, 19.0289, 17.4901, 14.0741, 99.7191, -86.8575
1.272, -1, 11.5394, 18.9773, 17.5115, 14.0787, 99.6647, -86.9942
1.276, -1, 11.4412, 18.9258, 17.5328, 14.0833, 99.6103, -87.1309
1.28, -1, 11.3431, 18.8743, 17.5542, 14.0879, 99.5559, -87.2676
1.284, -1, 11.245, 18.8228, 17.5755, 14.0925, 99.5016, -87.4043
1.288, -1, 11.1469, 18.7713, 17.5968, 14.0971, 99.4472, -87.5409
1.292, -1, 11.0488, 18.7198, 17.6181, 14.1017, 99.3929, -87.6775
1.295, -1, 10.9507, 18.6683, 17.6395, 14.1063, 99.3386, -87.8141
1.3, -1, 10.8527, 18.6168, 17.6608, 14.1109, 99.2842, -87.9507
1.304, -1, 10.7547, 18.5654, 17.6821, 14.1154, 99.2299, -88.0872
1.308, -1, 10.6566, 18.5139, 17.7034, 14.12, 99.1756, -88.2237
1.312, -1, 10.5586, 18.4625, 17.7247, 14.1246, 99.1213, -88.3602
1.316, -1, 10.4606, 18.411, 17.746, 14.1292, 99.0671, -88.4967
1.32, -1, 10.3627, 18.3596, 17.7673, 14.1338, 99.0128, -88.6332
1.324, -1, 10.2647, 18.3082, 17.7886, 14.1384, 98.9585, -88.7696
1.328, -1, 10.1668, 18.2568, 17.8099, 14.143, 98.9043, -88.906
1.332, -1, 10.0689, 18.2054, 17.8312, 14.1476, 98.85, -89.0424
1.336, -1, 9.97095, 18.154, 17.8525, 14.1521, 98.7958, -89.1787
1.34, -1, 9.87306, 18.1026, 17.8738, 14.1567, 98.7415, -89.3151
1.344, -1, 9.77519, 18.0512, 17.895, 14.1613, 98.6873, -89.4514
1.348, -1, 9.67734, 17.9999, 17.9163, 14.1659, 98.6331, -89.5877
1.352, -1, 9.5795, 17.9485, 17.9376, 14.1705, 98.5789, -89.7239
1.356, -1, 9.48168, 17.8972, 17.9589, 14.175, 98.5247, -89.8602
1.36, -1, 9.38388, 17.8458, 17.9801, 14.1796, 98.4705, -89.9964
1.364, -1, 9.2861, 17.7945, 18.0014, 14.1842, 98.4164, -90.1326
1.368, -1, 9.18833, 17.7432, 18.0226, 14.1888, 98.3622, -90.2688
1.372, -1, 9.09058, 17.6918, 18.0439, 14.1934, 98.308, -90.4049
1.376, -1, 8.99285, 17.6405, 18.0651, 14.1979, 98.2539, -90.541
1.38, -1, 8.89514, 17.5893, 18.0864, 14.2025, 98.1998, -90.6771
1.384, -1, 8.79744, 17.538, 18.1076, 14.2071, 98.1456, -90.8132
1.388, -1, 8.69977, 17.4867, 18.1289, 14.2117, 98.0915, -90.9492
1.392, -1, 8.60211, 17.4354, 18.1501, 14.2162, 98.0374, -91.0852
1.396, -1, 8.50447, 17.3842, 18.1713, 14.2208, 97.9833, -91.2212
1.4, -1, 8.40685, 17.3329, 18.1925, 14.2254, 97.9293, -91.3572
1.404, -1, 8.30924, 17.2817, 18.2138, 14.2299, 97.8752, -91.4931
1.408, -1, 8.21166, 17.2305, 18.235, 14.2345, 97.8211, -91.6291
1.412, -1, 8.11409, 17.1792, 18.2562, 14.2391, 97.7671, -91.765
1.416, -1, 8.01654, 17.128, 18.2774, 14.2436, 97.713, -91.9008
1.42, -1, 7.91901, 17.0768, 18.2986, 14.2482, 97.659, -92.0367
1.424, -1, 7.8215, 17.0257, 18.3198, 14.2528, 97.605, -92.1725
1.428, -1, 7.72401, 16.9745, 18.341, 14.2573, 97.551, -92.3082
1.432, -1, 7.62654, 16.9233, 18.3622, 14.2619, 97.497, -92.444
1.436, -1, 7.52908, 16.8722, 18.3834, 14.2665, 97.443, -92.5797
1.44, -1, 7.43165, 16.821, 18.4046, 14.271, 97.389, -92.7154
1.444, -1, 7.33424, 16.7699, 18.4257, 14.2756, 97.335, -92.8511
1.448, -1, 7.23684, 16.7187, 18.4469, 14.2801, 97.2811, -92.9868
1.452, -1, 7.13947, 16.6676, 18.4681, 14.2847, 97.2271, -93.1224
1.456, -1, 7.04211, 16.6165, 18.4892, 14.2893, 97.1732, -93.258
1.46, -1, 6.94477, 16.5654, 18.5104, 14.2938, 97.1193, -93.3936
1.464, -1, 6.84746, 16.5143, 18.5316, 14.2984, 97.0654, -93.5291
1.468, -1, 6.75016, 16.4633, 18.5527, 14.3029, 97.0114, -93.6646
1.472, -1, 6.65288, 16.4122, 18.5739, 14.3075, 96.9576, -93.8001
1.476, -1, 6.55563, 16.3612, 18.595, 14.312, 96.9037, -93.9355
1.48, -1, 6.45839, 16.3101, 18.6161, 14.3166, 96.8498, -94.071
1.484, -1, 6.36118, 16.2591, 18.6373, 14.3211, 96.796, -94.2064
1.488, -1, 6.26398, 16.2081, 18.6584, 14.3257, 96.7421, -94.3418
1.492, -1, 6.16681, 16.157, 18.6795, 14.3302, 96.6883, -94.4771
1.496, -1, 6.06965, 16.106, 18.7007, 14.3348, 96.6344, -94.6124
1.5, -1, 5.97252, 16.0551, 18.7218, 14.3393, 96.5806, -94.7477
1.504, -1, 5.8754, 16.0041, 18.7429, 14.3439, 96.5268, -94.8829
1.508, -1, 5.77831, 15.9531, 18.764, 14.3484, 96.473, -95.0182
1.512, -1, 5.68124, 15.9022, 18.7851, 14.353, 96.4193, -95.1534
1.516, -1, 5.58419, 15.8512, 18.8062, 14.3575, 96.3655, -95.2886
1.52, -1, 5.48716, 15.8003, 18.8273, 14.3621, 96.3118, -95.4237
1.524, -1, 5.39015, 15.7493, 18.8484, 14.3666, 96.258, -95.5588
1.528, -1, 5.29316, 15.6984, 18.8695, 14.3711, 96.2043, -95.6939
1.532, -1, 5.1962, 15.6475, 18.8906, 14.3757, 96.1506, -95.8289
1.536, -1, 5.09925, 15.5966, 18.9116, 14.3802, 96.0968, -95.964
1.54, -1, 5.00233, 15.5458, 18.9327, 14.3848, 96.0432, -96.099
1.544, -1, 4.90543, 15.4949, 18.9538, 14.3893, 95.9895, -96.2339
1.548, -1, 4.80855, 15.444, 18.9748, 14.3938, 95.9358, -96.3688
1.552, -1, 4.71169, 15.3932, 18.9959, 14.3984, 95.8821, -96.5037
1.556, -1, 4.61486, 15.3424, 19.0169, 14.4029, 95.8285, -96.6386
1.56, -1, 4.51804, 15.2915, 19.038, 14.4074, 95.7749, -96.7735
1.564, -1, 4.42125, 15.2407, 19.059, 14.412, 95.7212, -96.9083
1.568, -1, 4.32448, 15.1899, 19.0801, 14.4165, 95.6676, -97.043
1.572, -1, 4.22773, 15.1392, 19.1011, 14.421, 95.614, -97.1778
1.576, -1, 4.13101, 15.0884, 19.1221, 14.4255, 95.5604, -97.3125
1.58, -1, 4.03431, 15.0376, 19.1432, 14.4301, 95.5069, -97.4472
1.584, -1, 3.93763, 14.9869, 19.1642, 14.4346, 95.4533, -97.5818
1.588, -1, 3.84097, 14.9361, 19.1852, 14.4391, 95.3998, -97.7165
1.592, -1, 3.74433, 14.8854, 19.2062, 14.4437, 95.3462, -97.8511
1.596, -1, 3.64772, 14.8347, 19.2272, 14.4482, 95.2927, -97.9856
1.6, -1, 3.55113, 14.784, 19.2482, 14.4527, 95.2392, -98.1201
1.604, -1, 3.45456, 14.7333, 19.2692, 14.4572, 95.1857, -98.2546
1.608, -1, 3.35802, 14.6826, 19.2902, 14.4617, 95.1322, -98.3891
1.612, -1, 3.2615, 14.6319, 19.3112, 14.4663, 95.0788, -98.5235
1.616, -1, 3.165, 14.5813, 19.3322, 14.4708, 95.0253, -98.6579
1.62, -1, 3.06853, 14.5306, 19.3531, 14.4753, 94.9718, -98.7923
1.624, -1, 2.97208, 14.48, 19.3741, 14.4798, 94.9184, -98.9266
1.628, -1, 2.87565, 14.4294, 19.3951, 14.4843, 94.865, -99.0609
1.632, -1, 2.77925, 14.3788, 19.416, 14.4888, 94.8116, -99.1952
1.636, -1, 2.68287, 14.3282, 19.437, 14.4933, 94.7582, -99.3294
1.64, -1, 2.58651, 14.2776, 19.4579, 14.4979, 94.7048, -99.4637
1.644, -1, 2.49017, 14.2271, 19.4789, 14.5024, 94.6514, -99.5978
1.648, -1, 2.39386, 14.1765, 19.4998, 14.5069, 94.5981, -99.732
1.652, -1, 2.29758, 14.126, 19.5207, 14.5114, 94.5447, -99.8661
1.656, -1, 2.20131, 14.0754, 19.5417, 14.5159, 94.4914, -100
1.66, -1, 2.10507, 14.0249, 19.5626, 14.5204, 94.4381, -100.134
1.664, -1, 2.00886, 13.9744, 19.5835, 14.5249, 94.3848, -100.268
1.668, -1, 1.91267, 13.9239, 19.6044, 14.5294, 94.3315, -100.402
1.672, -1, 1.8165, 13.8734, 19.6253, 14.5339, 94.2782, -100.536
1.676, -1, 1.72035, 13.823, 19.6462, 14.5384, 94.225, -100.67
1.68, -1, 1.62423, 13.7725, 19.6671, 14.5429, 94.1717, -100.804
1.684, -1, 1.52814, 13.7221, 19.688, 14.5474, 94.1185, -100.938
1.688, -1, 1.43207, 13.6716, 19.7089, 14.5519, 94.0653, -101.071
1.692, -1, 1.33602, 13.6212, 19.7298, 14.5564, 94.012, -101.205
1.696, -1, 1.24, 13.5708, 19.7507, 14.5609, 93.9589, -101.339
1.7, -1, 1.144, 13.5204, 19.7715, 14.5654, 93.9057, -101.473
1.704, -1, 1.04802, 13.47, 19.7924, 14.5699, 93.8525, -101.606
1.708, -1, 0.952074, 13.4197, 19.8133, 14.5744, 93.7993, -101.74
1.712, -1, 0.856148, 13.3693, 19.8341, 14.5789, 93.7462, -101.874
1.716, -1, 0.760247, 13.319, 19.855, 14.5834, 93.6931, -102.007
1.72, -1, 0.664371, 13.2686, 19.8758, 14.5878, 93.64, -102.141
1.724, -1, 0.568519, 13.2183, 19.8966, 14.5923, 93.5869, -102.274
1.728, -1, 0.472692, 13.168, 19.9175, 14.5968, 93.5338, -102.408
1.732, -1, 0.376889, 13.1177, 19.9383, 14.6013, 93.4807, -102.541
1.736, -1, 0.281111, 13.0675, 19.9591, 14.6058, 93.4276, -102.674
1.74, -1, 0.185358, 13.0172, 19.9799, 14.6103, 93.3746, -102.808
1.744, -1, 0.0896296, 12.9669, 20.0007, 14.6148, 93.3216, -102.941
1.748, -1, -0.00607383, 12.9167, 20.0216, 14.6192, 93.2685, -103.074
1.752, -1, -0.101752, 12.8665, 20.0424, 14.6237, 93.2155, -103.208
1.756, -1, -0.197406, 12.8163, 20.0632, 14.6282, 93.1626, -103.341
1.76, -1, -0.293034, 12.7661, 20.0839, 14.6327, 93.1096, -103.474
1.764, -1, -0.388638, 12.7159, 20.1047, 14.6371, 93.0566, -103.607
1.768, -1, -0.484216, 12.6657, 20.1255, 14.6416, 93.0037, -103.74
1.772, -1, -0.579769, 12.6156, 20.1463, 14.6461, 92.9507, -103.873
1.776, -1, -0.675297, 12.5654, 20.167, 14.6506, 92.8978, -104.007
1.78, -1, -0.7708, 12.5153, 20.1878, 14.655, 92.8449, -104.14
1.784, -1, -0.866277, 12.4652, 20.2086, 14.6595, 92.792, -104.273
1.788, -1, -0.961729, 12.4151, 20.2293, 14.664, 92.7391, -104.405
1.792, -1, -1.05716, 12.365, 20.2501, 14.6684, 92.6863, -104.538
1.796, -1, -1.15256, 12.3149, 20.2708, 14.6729, 92.6334, -104.671
1.8, -1, -1.24793, 12.2648, 20.2915, 14.6774, 92.5806, -104.804
1.804, -1, -1.34328, 12.2148, 20.3123, 14.6818, 92.5278, -104.937
1.808, -1, -1.43861, 12.1647, 20.333, 14.6863, 92.4749, -105.07
1.812, -1, -1.5339, 12.1147, 20.3537, 14.6908, 92.4221, -105.202
1.816, -1, -1.62918, 12.0647, 20.3744, 14.6952, 92.3694, -105.335
1.82, -1, -1.72442, 12.0147, 20.3951, 14.6997, 92.3166, -105.468
1.824, -1, -1.81965, 11.9647, 20.4158, 14.7041, 92.2639, -105.6
1.828, -1, -1.91484, 11.9147, 20.4365, 14.7086, 92.2111, -105.733
1.832, -1, -2.01001, 11.8648, 20.4572, 14.7131, 92.1584, -105.865
1.836, -1, -2.10515, 11.8148, 20.4779, 14.7175, 92.1057, -105.998
1.84, -1, -2.20027, 11.7649, 20.4986, 14.722, 92.053, -106.13
1.844, -1, -2.29536, 11.715, 20.5192, 14.7264, 92.0003, -106.263
1.848, -1, -2.39043, 11.6651, 20.5399, 14.7309, 91.9477, -106.395
1.852, -1, -2.48547, 11.6152, 20.5606, 14.7353, 91.895, -106.528
1.856, -1, -2.58048, 11.5653, 20.5812, 14.7398, 91.8424, -106.66
1.86, -1, -2.67547, 11.5155, 20.6019, 14.7442, 91.7897, -106.792
1.864, -1, -2.77043, 11.4656, 20.6225, 14.7487, 91.7371, -106.925
1.868, -1, -2.86536, 11.4158, 20.6432, 14.7531, 91.6845, -107.057
1.872, -1, -2.96027, 11.366, 20.6638, 14.7575, 91.632, -107.189
1.876, -1, -3.05515, 11.3162, 20.6844, 14.762, 91.5794, -107.321
1.88, -1, -3.15, 11.2664, 20.705, 14.7664, 91.5269, -107.453
1.884, -1, -3.24483, 11.2166, 20.7257, 14.7709, 91.4743, -107.585
1.888, -1, -3.33963, 11.1668, 20.7463, 14.7753, 91.4218, -107.717
1.892, -1, -3.43441, 11.1171, 20.7669, 14.7797, 91.3693, -107.849
1.896, -1, -3.52916, 11.0674, 20.7875, 14.7842, 91.3168, -107.981
1.9, -1, -3.62388, 11.0176, 20.8081, 14.7886, 91.2643, -108.113
1.904, -1, -3.71857, 10.9679, 20.8287, 14.793, 91.2119, -108.245
1.908, -1, -3.81324, 10.9182, 20.8492, 14.7975, 91.1594, -108.377
1.912, -1, -3.90788, 10.8686, 20.8698, 14.8019, 91.107, -108.509
1.916, -1, -4.00249, 10.8189, 20.8904, 14.8063, 91.0546, -108.64
1.92, -1, -4.09708, 10.7692, 20.9109, 14.8108, 91.0022, -108.772
1.924, -1, -4.19164, 10.7196, 20.9315, 14.8152, 90.9498, -108.904
1.928, -1, -4.28617, 10.67, 20.9521, 14.8196, 90.8974, -109.036
1.932, -1, -4.38068, 10.6204, 20.9726, 14.824, 90.8451, -109.167
1.936, -1, -4.47515, 10.5708, 20.9931, 14.8285, 90.7928, -109.299
1.94, -1, -4.5696, 10.5212, 21.0137, 14.8329, 90.7404, -109.43
1.944, -1, -4.66403, 10.4716, 21.0342, 14.8373, 90.6881, -109.562
1.948, -1, -4.75842, 10.4221, 21.0547, 14.8417, 90.6358, -109.693
1.952, -1, -4.85279, 10.3726, 21.0752, 14.8461, 90.5835, -109.825
1.956, -1, -4.94713, 10.323, 21.0957, 14.8506, 90.5313, -109.956
1.96, -1, -5.04145, 10.2735, 21.1162, 14.855, 90.479, -110.087
1.964, -1, -5.13573, 10.224, 21.1367, 14.8594, 90.4268, -110.219
1.968, -1, -5.22999, 10.1746, 21.1572, 14.8638, 90.3746, -110.35
1.972, -1, -5.32422, 10.1251, 21.1777, 14.8682, 90.3224, -110.481
1.976, -1, -5.41843, 10.0756, 21.1982, 14.8726, 90.2702, -110.612
1.98, -1, -5.5126, 10.0262, 21.2187, 14.877, 90.218, -110.744
1.984, -1, -5.60675, 9.97678, 21.2391, 14.8814, 90.1659, -110.875
1.988, -1, -5.70088, 9.92738, 21.2596, 14.8858, 90.1137, -111.006
1.992, -1, -5.79497, 9.87799, 21.2801, 14.8902, 90.0616, -111.137
1.996, -1, -5.88904, 9.82861, 21.3005, 14.8947, 90.0095, -111.268
1.999, -1, -5.98308, 9.77925, 21.321, 14.8991, 89.9574, -111.399
2.004, -1, -6.07709, 9.7299, 21.3414, 14.9035, 89.9053, -111.53
2.008, -1, -6.17107, 9.68057, 21.3618, 14.9079, 89.8532, -111.661
2.012, -1, -6.26503, 9.63125, 21.3822, 14.9123, 89.8012, -111.792
2.015, -1, -6.35896, 9.58194, 21.4027, 14.9167, 89.7492, -111.922
2.019, -1, -6.45286, 9.53265, 21.4231, 14.921, 89.6972, -112.053
2.024, -1, -6.54673, 9.48338, 21.4435, 14.9254, 89.6451, -112.184
2.028, -1, -6.64058, 9.43412, 21.4639, 14.9298, 89.5932, -112.315
2.031, -1, -6.73439, 9.38487, 21.4843, 14.9342, 89.5412, -112.445
2.036, -1, -6.82818, 9.33564, 21.5047, 14.9386, 89.4892, -112.576
2.04, -1, -6.92195, 9.28642, 21.5251, 14.943, 89.4373, -112.706
2.044, -1, -7.01568, 9.23722, 21.5454, 14.9474, 89.3854, -112.837
2.048, -1, -7.10939, 9.18803, 21.5658, 14.9518, 89.3335, -112.968
2.051, -1, -7.20307, 9.13886, 21.5862, 14.9562, 89.2816, -113.098
2.055, -1, -7.29672, 9.0897, 21.6065, 14.9606, 89.2297, -113.228
2.06, -1, -7.39034, 9.04056, 21.6269, 14.9649, 89.1778, -113.359
2.064, -1, -7.48394, 8.99143, 21.6472, 14.9693, 89.126, -113.489
2.068, -1, -7.57751, 8.94231, 21.6676, 14.9737, 89.0741, -113.619
2.071, -1, -7.67105, 8.89321, 21.6879, 14.9781, 89.0223, -113.75
2.076, -1, -7.76456, 8.84412, 21.7082, 14.9825, 88.9705, -113.88
2.08, -1, -7.85805, 8.79505, 21.7286, 14.9868, 88.9187, -114.01
2.084, -1, -7.9515, 8.746, 21.7489, 14.9912, 88.8669, -114.14
2.087, -1, -8.04493, 8.69695, 21.7692, 14.9956, 88.8152, -114.27
2.092, -1, -8.13833, 8.64793, 21.7895, 15, 88.7635, -114.401
2.096, -1, -8.23171, 8.59891, 21.8098, 15.0043, 88.7117, -114.531
2.1, -1, -8.32505, 8.54991, 21.8301, 15.0087, 88.66, -114.661
2.104, -1, -8.41837, 8.50093, 21.8504, 15.0131, 88.6083, -114.791
2.107, -1, -8.51166, 8.45196, 21.8707, 15.0174, 88.5566, -114.92
2.111, -1, -8.60492, 8.403, 21.8909, 15.0218, 88.505, -115.05
2.116, -1, -8.69816, 8.35406, 21.9112, 15.0262, 88.4533, -115.18
2.12, -1, -8.79136, 8.30514, 21.9315, 15.0305, 88.4017, -115.31
2.124, -1, -8.88454, 8.25623, 21.9517, 15.0349, 88.3501, -115.44
2.127, -1, -8.97769, 8.20733, 21.972, 15.0392, 88.2985, -115.57
2.132, -1, -9.07082, 8.15845, 21.9922, 15.0436, 88.2469, -115.699
2.136, -1, -9.16391, 8.10958, 22.0125, 15.048, 88.1953, -115.829
2.14, -1, -9.25698, 8.06073, 22.0327, 15.0523, 88.1437, -115.959
2.143, -1, -9.35002, 8.01189, 22.0529, 15.0567, 88.0922, -116.088
2.148, -1, -9.44303, 7.96307, 22.0731, 15.061, 88.0407, -116.218
2.152, -1, -9.53601, 7.91426, 22.0933, 15.0654, 87.9892, -116.347
2.156, -1, -9.62897, 7.86547, 22.1136, 15.0697, 87.9377, -116.477
2.16, -1, -9.72189, 7.81669, 22.1338, 15.0741, 87.8862, -116.606
2.163, -1, -9.81479, 7.76793, 22.154, 15.0784, 87.8347, -116.735
2.168, -1, -9.90766, 7.71918, 22.1741, 15.0828, 87.7833, -116.865
2.172, -1, -10.0005, 7.67044, 22.1943, 15.0871, 87.7318, -116.994
2.176, -1, -10.0933, 7.62172, 22.2145, 15.0915, 87.6804, -117.123
2.179, -1, -10.1861, 7.57302, 22.2347, 15.0958, 87.629, -117.253
2.184, -1, -10.2789, 7.52433, 22.2548, 15.1002, 87.5776, -117.382
2.188, -1, -10.3716, 7.47565, 22.275, 15.1045, 87.5263, -117.511
2.192, -1, -10.4643, 7.42699, 22.2952, 15.1088, 87.4749, -117.64
2.196, -1, -10.557, 7.37835, 22.3153, 15.1132, 87.4236, -117.769
2.199, -1, -10.6496, 7.32972, 22.3354, 15.1175, 87.3723, -117.898
2.204, -1, -10.7422, 7.2811, 22.3556, 15.1219, 87.321, -118.027
2.208, -1, -10.8348, 7.2325, 22.3757, 15.1262, 87.2697, -118.156
2.212, -1, -10.9274, 7.18391, 22.3958, 15.1305, 87.2184, -118.285
2.216, -1, -11.0199, 7.13534, 22.4159, 15.1349, 87.1671, -118.414
2.219, -1, -11.1124, 7.08678, 22.4361, 15.1392, 87.1159, -118.543
2.224, -1, -11.2049, 7.03824, 22.4562, 15.1435, 87.0647, -118.671
2.228, -1, -11.2973, 6.98971, 22.4763, 15.1478, 87.0134, -118.8
2.232, -1, -11.3898, 6.9412, 22.4963, 15.1522, 86.9622, -118.929
2.235, -1, -11.4822, 6.8927, 22.5164, 15.1565, 86.9111, -119.058
2.24, -1, -11.5745, 6.84422, 22.5365, 15.1608, 86.8599, -119.186
2.244, -1, -11.6669, 6.79575, 22.5566, 15.1651, 86.8087, -119.315
2.248, -1, -11.7592, 6.7473, 22.5767, 15.1695, 86.7576, -119.443
2.252, -1, -11.8514, 6.69886, 22.5967, 15.1738, 86.7065, -119.572
2.255, -1, -11.9437, 6.65044, 22.6168, 15.1781, 86.6554, -119.7
2.259, -1, -12.0359, 6.60203, 22.6368, 15.1824, 86.6043, -119.829
2.264, -1, -12.1281, 6.55364, 22.6569, 15.1867, 86.5532, -119.957
2.268, -1, -12.2203, 6.50526, 22.6769, 15.191, 86.5022, -120.086
2.272, -1, -12.3124, 6.4569, 22.6969, 15.1954, 86.4511, -120.214
2.275, -1, -12.4045, 6.40855, 22.7169, 15.1997, 86.4001, -120.342
2.28, -1, -12.4966, 6.36021, 22.737, 15.204, 86.3491, -120.47
2.284, -1, -12.5886, 6.3119, 22.757, 15.2083, 86.2981, -120.599
2.288, -1, -12.6807, 6.26359, 22.777, 15.2126, 86.2471, -120.727
2.291, -1, -12.7727, 6.2153, 22.797, 15.2169, 86.1962, -120.855
2.296, -1, -12.8646, 6.16703, 22.817, 15.2212, 86.1452, -120.983
2.3, -1, -12.9566, 6.11877, 22.837, 15.2255, 86.0943, -121.111
2.304, -1, -13.0485, 6.07053, 22.8569, 15.2298, 86.0434, -121.239
2.308, -1, -13.1404, 6.0223, 22.8769, 15.2341, 85.9925, -121.367
2.311, -1, -13.2322, 5.97408, 22.8969, 15.2384, 85.9416, -121.495
2.316, -1, -13.324, 5.92589, 22.9168, 15.2427, 85.8907, -121.623
2.32, -1, -13.4158, 5.8777, 22.9368, 15.247, 85.8399, -121.751
2.324, -1, -13.5076, 5.82953, 22.9567, 15.2513, 85.789, -121.878
2.328, -1, -13.5993, 5.78138, 22.9767, 15.2556, 85.7382, -122.006
2.331, -1, -13.691, 5.73324, 22.9966, 15.2599, 85.6874, -122.134
2.336, -1, -13.7827, 5.68512, 23.0166, 15.2642, 85.6366, -122.262
2.34, -1, -13.8744, 5.63701, 23.0365, 15.2685, 85.5858, -122.389
2.344, -1, -13.966, 5.58891, 23.0564, 15.2728, 85.5351, -122.517
2.347, -1, -14.0576, 5.54083, 23.0763, 15.2771, 85.4844, -122.644
2.352, -1, -14.1491, 5.49277, 23.0962, 15.2813, 85.4336, -122.772
2.356, -1, -14.2407, 5.44472, 23.1161, 15.2856, 85.3829, -122.899
2.36, -1, -14.3322, 5.39668, 23.136, 15.2899, 85.3322, -123.027
2.364, -1, -14.4237, 5.34866, 23.1559, 15.2942, 85.2815, -123.154
2.367, -1, -14.5151, 5.30066, 23.1758, 15.2985, 85.2309, -123.282
2.372, -1, -14.6066, 5.25267, 23.1957, 15.3028, 85.1802, -123.409
2.376, -1, -14.698, 5.20469, 23.2155, 15.307, 85.1296, -123.536
2.38, -1, -14.7893, 5.15673, 23.2354, 15.3113, 85.079, -123.663
2.383, -1, -14.8807, 5.10879, 23.2552, 15.3156, 85.0284, -123.791
2.388, -1, -14.972, 5.06086, 23.2751, 15.3199, 84.9778, -123.918
2.392, -1, -15.0633, 5.01294, 23.2949, 15.3241, 84.9272, -124.045
2.396, -1, -15.1545, 4.96504, 23.3148, 15.3284, 84.8767, -124.172
2.4, -1, -15.2458, 4.91715, 23.3346, 15.3327, 84.8261, -124.299
2.403, -1, -15.337, 4.86928, 23.3544, 15.337, 84.7756, -124.426
2.408, -1, -15.4281, 4.82142, 23.3743, 15.3412, 84.7251, -124.553
2.412, -1, -15.5193, 4.77358, 23.3941, 15.3455, 84.6746, -124.68
2.416, -1, -15.6104, 4.72575, 23.4139, 15.3498, 84.6242, -124.807
2.42, -1, -15.7015, 4.67794, 23.4337, 15.354, 84.5737, -124.934
2.423, -1, -15.7925, 4.63014, 23.4535, 15.3583, 84.5232, -125.061
2.428, -1, -15.8836, 4.58236, 23.4733, 15.3625, 84.4728, -125.187
2.432, -1, -15.9746, 4.53459, 23.4931, 15.3668, 84.4224, -125.314
2.436, -1, -16.0656, 4.48683, 23.5128, 15.3711, 84.372, -125.441
2.439, -1, -16.1565, 4.43909, 23.5326, 15.3753, 84.3216, -125.568
2.444, -1, -16.2474, 4.39137, 23.5524, 15.3796, 84.2713, -125.694
2.448, -1, -16.3383, 4.34366, 23.5721, 15.3838, 84.2209, -125.821
2.452, -1, -16.4292, 4.29596, 23.5919, 15.3881, 84.1706, -125.947
2.456, -1, -16.52, 4.24828, 23.6116, 15.3923, 84.1202, -126.074
2.459, -1, -16.6108, 4.20061, 23.6314, 15.3966, 84.0699, -126.2
2.464, -1, -16.7016, 4.15296, 23.6511, 15.4008, 84.0196, -126.327
2.468, -1, -16.7924, 4.10532, 23.6708, 15.4051, 83.9694, -126.453
2.472, -1, -16.8831, 4.05769, 23.6906, 15.4093, 83.9191, -126.579
2.476, -1, -16.9738, 4.01009, 23.7103, 15.4136, 83.8689, -126.706
2.479, -1, -17.0645, 3.96249, 23.73, 15.4178, 83.8186, -126.832
2.484, -1, -17.1551, 3.91491, 23.7497, 15.4221, 83.7684, -126.958
2.488, -1, -17.2457, 3.86735, 23.7694, 15.4263, 83.7182, -127.084
2.492, -1, -17.3363, 3.8198, 23.7891, 15.4306, 83.668, -127.211
2.495, -1, -17.4269, 3.77226, 23.8088, 15.4348, 83.6179, -127.337
2.5, -1, -17.5174, 3.72474, 23.8285, 15.439, 83.5677, -127.463
2.504, -1, -17.6079, 3.67723, 23.8481, 15.4433, 83.5176, -127.589
2.508, -1, -17.6984, 3.62974, 23.8678, 15.4475, 83.4675, -127.715
2.512, -1, -17.7888, 3.58226, 23.8875, 15.4517, 83.4174, -127.841
2.515, -1, -17.8793, 3.5348, 23.9071, 15.456, 83.3673, -127.967
2.52, -1, -17.9697, 3.48735, 23.9268, 15.4602, 83.3172, -128.093
2.524, -1, -18.06, 3.43991, 23.9464, 15.4644, 83.2671, -128.219
2.528, -1, -18.1504, 3.39249, 23.9661, 15.4687, 83.2171, -128.344
2.531, -1, -18.2407, 3.34508, 23.9857, 15.4729, 83.167, -128.47
2.536, -1, -18.331, 3.29769, 24.0053, 15.4771, 83.117, -128.596
2.54, -1, -18.4212, 3.25031, 24.0249, 15.4813, 83.067, -128.722
2.544, -1, -18.5115, 3.20295, 24.0446, 15.4856, 83.0171, -128.847
2.548, -1, -18.6017, 3.1556, 24.0642, 15.4898, 82.9671, -128.973
2.551, -1, -18.6918, 3.10826, 24.0838, 15.494, 82.9171, -129.098
2.556, -1, -18.782, 3.06094, 24.1034, 15.4982, 82.8672, -129.224
2.56, -1, -18.8721, 3.01364, 24.123, 15.5025, 82.8173, -129.35
2.564, -1, -18.9622, 2.96635, 24.1425, 15.5067, 82.7674, -129.475
2.568, -1, -19.0523, 2.91907, 24.1621, 15.5109, 82.7175, -129.6
2.571, -1, -19.1423, 2.87181, 24.1817, 15.5151, 82.6676, -129.726
2.576, -1, -19.2323, 2.82456, 24.2013, 15.5193, 82.6177, -129.851
2.58, -1, -19.3223, 2.77733, 24.2208, 15.5235, 82.5679, -129.977
2.584, -1, -19.4122, 2.73011, 24.2404, 15.5277, 82.518, -130.102
2.587, -1, -19.5022, 2.68291, 24.2599, 15.5319, 82.4682, -130.227
2.592, -1, -19.5921, 2.63572, 24.2795, 15.5362, 82.4184, -130.352
2.596, -1, -19.682, 2.58854, 24.299, 15.5404, 82.3686, -130.477
2.6, -1, -19.7718, 2.54138, 24.3186, 15.5446, 82.3189, -130.603
2.604, -1, -19.8616, 2.49423, 24.3381, 15.5488, 82.2691, -130.728
2.607, -1, -19.9514, 2.4471, 24.3576, 15.553, 82.2194, -130.853
2.612, -1, -20.0412, 2.39998, 24.3771, 15.5572, 82.1696, -130.978
2.616, -1, -20.1309, 2.35288, 24.3966, 15.5614, 82.1199, -131.103
2.62, -1, -20.2206, 2.30579, 24.4161, 15.5656, 82.0702, -131.228
2.624, -1, -20.3103, 2.25871, 24.4356, 15.5698, 82.0206, -131.353
2.627, -1, -20.4, 2.21165, 24.4551, 15.574, 81.9709, -131.477
2.632, -1, -20.4896, 2.16461, 24.4746, 15.5782, 81.9212, -131.602
2.636, -1, -20.5792, 2.11757, 24.4941, 15.5824, 81.8716, -131.727
2.64, -1, -20.6688, 2.07056, 24.5135, 15.5866, 81.822, -131.852
2.643, -1, -20.7583, 2.02355, 24.533, 15.5908, 81.7724, -131.976
2.648, -1, -20.8478, 1.97656, 24.5525, 15.5949, 81.7228, -132.101
2.652, -1, -20.9373, 1.92959, 24.5719, 15.5991, 81.6732, -132.226
2.656, -1, -21.0268, 1.88262, 24.5914, 15.6033, 81.6236, -132.35
2.66, -1, -21.1162, 1.83568, 24.6108, 15.6075, 81.5741, -132.475
2.663, -1, -21.2056, 1.78875, 24.6303, 15.6117, 81.5246, -132.599
2.668, -1, -21.295, 1.74183, 24.6497, 15.6159, 81.4751, -132.724
2.672, -1, -21.3844, 1.69492, 24.6691, 15.6201, 81.4255, -132.848
2.676, -1, -21.4737, 1.64803, 24.6885, 15.6242, 81.3761, -132.973
2.679, -1, -21.563, 1.60116, 24.708, 15.6284, 81.3266, -133.097
2.684, -1, -21.6523, 1.55429, 24.7274, 15.6326, 81.2771, -133.222
2.688, -1, -21.7415, 1.50745, 24.7468, 15.6368, 81.2277, -133.346
2.692, -1, -21.8307, 1.46061, 24.7662, 15.641, 81.1783, -133.47
2.696, -1, -21.9199, 1.41379, 24.7855, 15.6451, 81.1289, -133.594
2.699, -1, -22.0091, 1.36699, 24.8049, 15.6493, 81.0795, -133.718
2.704, -1, -22.0982, 1.3202, 24.8243, 15.6535, 81.0301, -133.843
2.708, -1, -22.1874, 1.27342, 24.8437, 15.6577, 80.9807, -133.967
2.712, -1, -22.2764, 1.22666, 24.8631, 15.6618, 80.9314, -134.091
2.716, -1, -22.3655, 1.17991, 24.8824, 15.666, 80.882, -134.215
2.719, -1, -22.4545, 1.13318, 24.9018, 15.6702, 80.8327, -134.339
2.724, -1, -22.5435, 1.08645, 24.9211, 15.6743, 80.7834, -134.463
2.728, -1, -22.6325, 1.03975, 24.9405, 15.6785, 80.7341, -134.587
2.732, -1, -22.7215, 0.993055, 24.9598, 15.6827, 80.6848, -134.711
2.735, -1, -22.8104, 0.946376, 24.9791, 15.6868, 80.6356, -134.834
2.74, -1, -22.8993, 0.899711, 24.9985, 15.691, 80.5863, -134.958
2.744, -1, -22.9882, 0.853059, 25.0178, 15.6951, 80.5371, -135.082
2.748, -1, -23.077, 0.806422, 25.0371, 15.6993, 80.4879, -135.206
2.752, -1, -23.1659, 0.759798, 25.0564, 15.7035, 80.4387, -135.329
2.755, -1, -23.2547, 0.713188, 25.0757, 15.7076, 80.3895, -135.453
2.76, -1, -23.3434, 0.666592, 25.095, 15.7118, 80.3403, -135.577
2.764, -1, -23.4322, 0.620009, 25.1143, 15.7159, 80.2911, -135.7
2.768, -1, -23.5209, 0.57344, 25.1336, 15.7201, 80.242, -135.824
2.772, -1, -23.6096, 0.526885, 25.1529, 15.7242, 80.1929, -135.947
2.775, -1, -23.6982, 0.480343, 25.1721, 15.7284, 80.1437, -136.071
2.78, -1, -23.7869, 0.433815, 25.1914, 15.7325, 80.0946, -136.194
2.784, -1, -23.8755, 0.3873, 25.2107, 15.7367, 80.0456, -136.318
2.788, -1, -23.9641, 0.340799, 25.2299, 15.7408, 79.9965, -136.441
2.791, -1, -24.0526, 0.294312, 25.2492, 15.745, 79.9474, -136.564
2.796, -1, -24.1412, 0.247838, 25.2684, 15.7491, 79.8984, -136.688
2.8, -1, -24.2297, 0.201377, 25.2877, 15.7533, 79.8493, -136.811
2.804, -1, -24.3182, 0.15493, 25.3069, 15.7574, 79.8003, -136.934
2.808, -1, -24.4066, 0.108497, 25.3261, 15.7615, 79.7513, -137.058
2.811, -1, -24.4951, 0.0620768, 25.3454, 15.7657, 79.7023, -137.181
2.816, -1, -24.5835, 0.0156701, 25.3646, 15.7698, 79.6534, -137.304
2.82, -1, -24.6719, -0.0307231, 25.3838, 15.774, 79.6044, -137.427
2.824, -1, -24.7602, -0.0771029, 25.403, 15.7781, 79.5554, -137.55
2.828, -1, -24.8486, -0.123469, 25.4222, 15.7822, 79.5065, -137.673
2.831, -1, -24.9369, -0.169822, 25.4414, 15.7864, 79.4576, -137.796
2.836, -1, -25.0251, -0.216162, 25.4606, 15.7905, 79.4087, -137.919
2.84, -1, -25.1134, -0.262488, 25.4798, 15.7946, 79.3598, -138.042
2.844, -1, -25.2016, -0.308801, 25.499, 15.7988, 79.3109, -138.165
2.847, -1, -25.2898, -0.355101, 25.5181, 15.8029, 79.2621, -138.288
2.852, -1, -25.378, -0.401387, 25.5373, 15.807, 79.2132, -138.41
2.856, -1, -25.4662, -0.44766, 25.5565, 15.8111, 79.1644, -138.533
2.86, -1, -25.5543, -0.49392, 25.5756, 15.8153, 79.1156, -138.656
2.864, -1, -25.6424, -0.540167, 25.5948, 15.8194, 79.0667, -138.779
2.867, -1, -25.7305, -0.5864, 25.6139, 15.8235, 79.018, -138.901
2.872, -1, -25.8185, -0.63262, 25.6331, 15.8276, 78.9692, -139.024
2.876, -1, -25.9066, -0.678827, 25.6522, 15.8318, 78.9204, -139.146
2.88, -1, -25.9946, -0.725021, 25.6713, 15.8359, 78.8717, -139.269
2.883, -1, -26.0825, -0.771201, 25.6905, 15.84, 78.8229, -139.392
2.888, -1, -26.1705, -0.817368, 25.7096, 15.8441, 78.7742, -139.514
2.892, -1, -26.2584, -0.863522, 25.7287, 15.8482, 78.7255, -139.636
2.896, -1, -26.3463, -0.909663, 25.7478, 15.8524, 78.6768, -139.759
2.9, -1, -26.4342, -0.955791, 25.7669, 15.8565, 78.6281, -139.881
2.903, -1, -26.522, -1.00191, 25.786, 15.8606, 78.5795, -140.004
2.908, -1, -26.6099, -1.04801, 25.8051, 15.8647, 78.5308, -140.126
2.912, -1, -26.6977, -1.0941, 25.8242, 15.8688, 78.4822, -140.248
2.916, -1, -26.7855, -1.14017, 25.8433, 15.8729, 78.4335, -140.37
2.92, -1, -26.8732, -1.18623, 25.8624, 15.877, 78.3849, -140.493
2.923, -1, -26.9609, -1.23228, 25.8814, 15.8811, 78.3363, -140.615
2.928, -1, -27.0486, -1.27832, 25.9005, 15.8852, 78.2877, -140.737
2.932, -1, -27.1363, -1.32434, 25.9196, 15.8893, 78.2392, -140.859
2.936, -1, -27.224, -1.37035, 25.9386, 15.8934, 78.1906, -140.981
2.939, -1, -27.3116, -1.41635, 25.9577, 15.8975, 78.1421, -141.103
2.944, -1, -27.3992, -1.46234, 25.9767, 15.9016, 78.0935, -141.225
2.948, -1, -27.4868, -1.50831, 25.9958, 15.9057, 78.045, -141.347
2.952, -1, -27.5743, -1.55427, 26.0148, 15.9098, 77.9965, -141.469
2.956, -1, -27.6619, -1.60021, 26.0338, 15.9139, 77.948, -141.591
2.959, -1, -27.7494, -1.64614, 26.0528, 15.918, 77.8996, -141.713
2.964, -1, -27.8368, -1.69206, 26.0719, 15.9221, 77.8511, -141.835
2.968, -1, -27.9243, -1.73797, 26.0909, 15.9262, 77.8026, -141.957
2.972, -1, -28.0117, -1.78387, 26.1099, 15.9303, 77.7542, -142.078
2.976, -1, -28.0991, -1.82975, 26.1289, 15.9344, 77.7058, -142.2
2.98, -1, -28.1865, -1.87562, 26.1479, 15.9385, 77.6574, -142.322
2.984, -1, -28.2739, -1.92147, 26.1669, 15.9426, 77.609, -142.443
2.988, -1, -28.3612, -1.96731, 26.1859, 15.9467, 77.5606, -142.565
2.992, -1, -28.4485, -2.01314, 26.2048, 15.9508, 77.5122, -142.687
2.995, -1, -28.5358, -2.05896, 26.2238, 15.9549, 77.4639, -142.808
3, -1, -28.6231, -2.10477, 26.2428, 15.9589, 77.4156, -142.93
3.004, -1, -28.7103, -2.15056, 26.2617, 15.963, 77.3672, -143.051
3.008, -1, -28.7975, -2.19634, 26.2807, 15.9671, 77.3189, -143.173
3.012, -1, -28.8847, -2.2421, 26.2997, 15.9712, 77.2706, -143.294
3.015, -1, -28.9719, -2.28786, 26.3186, 15.9753, 77.2223, -143.416
3.02, -1, -29.059, -2.3336, 26.3375, 15.9793, 77.174, -143.537
3.024, -1, -29.1461, -2.37932, 26.3565, 15.9834, 77.1258, -143.658
3.028, -1, -29.2332, -2.42504, 26.3754, 15.9875, 77.0775, -143.78
3.031, -1, -29.3203, -2.47074, 26.3944, 15.9916, 77.0293, -143.901
3.036, -1, -29.4073, -2.51643, 26.4133, 15.9957, 76.9811, -144.022
3.04, -1, -29.4943, -2.56211, 26.4322, 15.9997, 76.9329, -144.143
3.044, -1, -29.5813, -2.60778, 26.4511, 16.0038, 76.8847, -144.264
3.048, -1, -29.6683, -2.65343, 26.47, 16.0079, 76.8365, -144.385
3.051, -1, -29.7553, -2.69907, 26.4889, 16.0119, 76.7884, -144.507
3.056, -1, -29.8422, -2.74469, 26.5078, 16.016, 76.7402, -144.628
3.06, -1, -29.9291, -2.79031, 26.5267, 16.0201, 76.6921, -144.749
3.064, -1, -30.016, -2.83591, 26.5456, 16.0241, 76.6439, -144.87
3.068, -1, -30.1028, -2.8815, 26.5645, 16.0282, 76.5958, -144.991
3.071, -1, -30.1896, -2.92708, 26.5833, 16.0323, 76.5477, -145.112
3.076, -1, -30.2764, -2.97264, 26.6022, 16.0363, 76.4996, -145.232
3.08, -1, -30.3632, -3.0182, 26.6211, 16.0404, 76.4516, -145.353
3.084, -1, -30.45, -3.06374, 26.6399, 16.0445, 76.4035, -145.474
3.087, -1, -30.5367, -3.10926, 26.6588, 16.0485, 76.3555, -145.595
3.092, -1, -30.6234, -3.15478, 26.6776, 16.0526, 76.3074, -145.716
3.096, -1, -30.7101, -3.20028, 26.6965, 16.0566, 76.2594, -145.836
3.1, -1, -30.7968, -3.24577, 26.7153, 16.0607, 76.2114, -145.957
3.104, -1, -30.8834, -3.29125, 26.7342, 16.0648, 76.1634, -146.078
3.107, -1, -30.97, -3.33672, 26.753, 16.0688, 76.1154, -146.198
3.112, -1, -31.0566, -3.38217, 26.7718, 16.0729, 76.0674, -146.319
3.116, -1, -31.1432, -3.42762, 26.7906, 16.0769, 76.0195, -146.44
3.12, -1, -31.2298, -3.47305, 26.8095, 16.081, 75.9715, -146.56
3.124, -1, -31.3163, -3.51847, 26.8283, 16.085, 75.9236, -146.681
3.128, -1, -31.4028, -3.56387, 26.8471, 16.0891, 75.8757, -146.801
3.132, -1, -31.4893, -3.60927, 26.8659, 16.0931, 75.8278, -146.921
3.136, -1, -31.5757, -3.65465, 26.8847, 16.0972, 75.7799, -147.042
3.14, -1, -31.6622, -3.70002, 26.9035, 16.1012, 75.732, -147.162
3.143, -1, -31.7486, -3.74538, 26.9222, 16.1053, 75.6841, -147.283
3.148, -1, -31.835, -3.79073, 26.941, 16.1093, 75.6363, -147.403
3.152, -1, -31.9213, -3.83606, 26.9598, 16.1133, 75.5884, -147.523
3.156, -1, -32.0077, -3.88139, 26.9786, 16.1174, 75.5406, -147.643
3.16, -1, -32.094, -3.9267, 26.9973, 16.1214, 75.4928, -147.764
3.163, -1, -32.1803, -3.972, 27.0161, 16.1255, 75.445, -147.884
3.168, -1, -32.2666, -4.01728, 27.0349, 16.1295, 75.3972, -148.004
3.172, -1, -32.3528, -4.06256, 27.0536, 16.1335, 75.3494, -148.124
3.176, -1, -32.439, -4.10783, 27.0724, 16.1376, 75.3016, -148.244
3.179, -1, -32.5253, -4.15308, 27.0911, 16.1416, 75.2539, -148.364
3.184, -1, -32.6115, -4.19832, 27.1098, 16.1457, 75.2061, -148.484
3.188, -1, -32.6976, -4.24355, 27.1286, 16.1497, 75.1584, -148.604
3.192, -1, -32.7838, -4.28877, 27.1473, 16.1537, 75.1107, -148.724
3.196, -1, -32.8699, -4.33398, 27.166, 16.1578, 75.063, -148.844
3.199, -1, -32.956, -4.37917, 27.1847, 16.1618, 75.0153, -148.964
3.204, -1, -33.0421, -4.42436, 27.2034, 16.1658, 74.9676, -149.084
3.208, -1, -33.1281, -4.46953, 27.2222, 16.1698, 74.9199, -149.204
3.212, -1, -33.2141, -4.51469, 27.2409, 16.1739, 74.8722, -149.324
3.216, -1, -33.3002, -4.55984, 27.2596, 16.1779, 74.8246, -149.444
3.22, -1, -33.3862, -4.60498, 27.2783, 16.1819, 74.777, -149.563
3.224, -1, -33.4721, -4.6501, 27.2969, 16.1859, 74.7293, -149.683
3.228, -1, -33.5581, -4.69522, 27.3156, 16.19, 74.6817, -149.803
3.232, -1, -33.644, -4.74032, 27.3343, 16.194, 74.6341, -149.922
3.235, -1, -33.7299, -4.78542, 27.353, 16.198, 74.5865, -150.042
3.24, -1, -33.8158, -4.8305, 27.3717, 16.202, 74.539, -150.162
3.244, -1, -33.9016, -4.87557, 27.3903, 16.2061, 74.4914, -150.281
3.248, -1, -33.9875, -4.92062, 27.409, 16.2101, 74.4438, -150.401
3.252, -1, -34.0733, -4.96567, 27.4276, 16.2141, 74.3963, -150.52
3.255, -1, -34.1591, -5.01071, 27.4463, 16.2181, 74.3488, -150.64
3.26, -1, -34.2449, -5.05573, 27.4649, 16.2221, 74.3013, -150.759
3.264, -1, -34.3306, -5.10075, 27.4836, 16.2261, 74.2537, -150.879
3.268, -1, -34.4164, -5.14575, 27.5022, 16.2302, 74.2063, -150.998
3.272, -1, -34.5021, -5.19074, 27.5208, 16.2342, 74.1588, -151.117
3.276, -1, -34.5878, -5.23572, 27.5395, 16.2382, 74.1113, -151.237
3.28, -1, -34.6734, -5.28069, 27.5581, 16.2422, 74.0639, -151.356
3.284, -1, -34.7591, -5.32564, 27.5767, 16.2462, 74.0164, -151.475
3.288, -1, -34.8447, -5.37059, 27.5953, 16.2502, 73.969, -151.595
3.291, -1, -34.9303, -5.41553, 27.6139, 16.2542, 73.9215, -151.714
3.296, -1, -35.0159, -5.46045, 27.6326, 16.2582, 73.8741, -151.833
3.3, -1, -35.1014, -5.50536, 27.6512, 16.2622, 73.8267, -151.952
3.304, -1, -35.187, -5.55027, 27.6698, 16.2662, 73.7794, -152.071
3.308, -1, -35.2725, -5.59516, 27.6883, 16.2702, 73.732, -152.19
3.312, -1, -35.358, -5.64004, 27.7069, 16.2742, 73.6846, -152.31
3.316, -1, -35.4435, -5.68491, 27.7255, 16.2782, 73.6373, -152.429
3.32, -1, -35.5289, -5.72976, 27.7441, 16.2822, 73.5899, -152.548
3.324, -1, -35.6144, -5.77461, 27.7627, 16.2862, 73.5426, -152.667
3.328, -1, -35.6998, -5.81945, 27.7812, 16.2902, 73.4953, -152.786
3.332, -1, -35.7852, -5.86427, 27.7998, 16.2942, 73.448, -152.904
3.336, -1, -35.8706, -5.90909, 27.8184, 16.2982, 73.4007, -153.023
3.34, -1, -35.9559, -5.95389, 27.8369, 16.3022, 73.3534, -153.142
3.344, -1, -36.0412, -5.99868, 27.8555, 16.3062, 73.3061, -153.261
3.347, -1, -36.1266, -6.04346, 27.874, 16.3102, 73.2589, -153.38
3.352, -1, -36.2118, -6.08824, 27.8926, 16.3142, 73.2116, -153.499
3.356, -1, -36.2971, -6.133, 27.9111, 16.3182, 73.1644, -153.617
3.36, -1, -36.3824, -6.17775, 27.9296, 16.3222, 73.1171, -153.736
3.364, -1, -36.4676, -6.22248, 27.9482, 16.3262, 73.0699, -153.855
3.368, -1, -36.5528, -6.26721, 27.9667, 16.3302, 73.0227, -153.974
3.372, -1, -36.638, -6.31193, 27.9852, 16.3342, 72.9755, -154.092
3.376, -1, -36.7232, -6.35663, 28.0037, 16.3381, 72.9284, -154.211
3.38, -1, -36.8083, -6.40133, 28.0222, 16.3421, 72.8812, -154.329
3.383, -1, -36.8934, -6.44602, 28.0407, 16.3461, 72.834, -154.448
3.388, -1, -36.9785, -6.49069, 28.0592, 16.3501, 72.7869, -154.566
3.392, -1, -37.0636, -6.53535, 28.0777, 16.3541, 72.7397, -154.685
3.396, -1, -37.1487, -6.58001, 28.0962, 16.3581, 72.6926, -154.803
3.4, -1, -37.2337, -6.62465, 28.1147, 16.362, 72.6455, -154.922
3.403, -1, -37.3188, -6.66928, 28.1332, 16.366, 72.5984, -155.04
3.408, -1, -37.4038, -6.7139, 28.1517, 16.37, 72.5513, -155.159
3.412, -1, -37.4888, -6.75851, 28.1702, 16.374, 72.5042, -155.277
3.416, -1, -37.5737, -6.80311, 28.1886, 16.378, 72.4572, -155.395
3.42, -1, -37.6587, -6.8477, 28.2071, 16.3819, 72.4101, -155.514
3.424, -1, -37.7436, -6.89228, 28.2256, 16.3859, 72.3631, -155.632
3.428, -1, -37.8285, -6.93685, 28.244, 16.3899, 72.316, -155.75
3.432, -1, -37.9134, -6.98141, 28.2625, 16.3939, 72.269, -155.868
3.436, -1, -37.9983, -7.02596, 28.2809, 16.3978, 72.222, -155.987
3.439, -1, -38.0831, -7.07049, 28.2994, 16.4018, 72.175, -156.105
3.444, -1, -38.1679, -7.11502, 28.3178, 16.4058, 72.128, -156.223
3.448, -1, -38.2527, -7.15954, 28.3362, 16.4097, 72.081, -156.341
3.452, -1, -38.3375, -7.20404, 28.3547, 16.4137, 72.034, -156.459
3.456, -1, -38.4223, -7.24854, 28.3731, 16.4177, 71.9871, -156.577
3.46, -1, -38.507, -7.29302, 28.3915, 16.4217, 71.9401, -156.695
3.464, -1, -38.5918, -7.3375, 28.4099, 16.4256, 71.8932, -156.813
3.468, -1, -38.6765, -7.38197, 28.4284, 16.4296, 71.8463, -156.931
3.472, -1, -38.7612, -7.42642, 28.4468, 16.4335, 71.7994, -157.049
3.476, -1, -38.8458, -7.47087, 28.4652, 16.4375, 71.7525, -157.167
3.48, -1, -38.9305, -7.5153, 28.4836, 16.4415, 71.7056, -157.285
3.484, -1, -39.0151, -7.55972, 28.502, 16.4454, 71.6587, -157.403
3.488, -1, -39.0997, -7.60414, 28.5204, 16.4494, 71.6118, -157.521
3.492, -1, -39.1843, -7.64854, 28.5388, 16.4534, 71.5649, -157.638
3.495, -1, -39.2689, -7.69294, 28.5572, 16.4573, 71.5181, -157.756
3.5, -1, -39.3534, -7.73732, 28.5755, 16.4613, 71.4713, -157.874
3.504, -1, -39.438, -7.7817, 28.5939, 16.4652, 71.4244, -157.992
3.508, -1, -39.5225, -7.82606, 28.6123, 16.4692, 71.3776, -158.109
3.512, -1, -39.607, -7.87042, 28.6307, 16.4731, 71.3308, -158.227
3.516, -1, -39.6915, -7.91477, 28.649, 16.4771, 71.284, -158.345
3.52, -1, -39.7759, -7.9591, 28.6674, 16.4811, 71.2372, -158.462
3.524, -1, -39.8604, -8.00343, 28.6857, 16.485, 71.1904, -158.58
3.528, -1, -39.9448, -8.04774, 28.7041, 16.489, 71.1437, -158.698
3.531, -1, -40.0292, -8.09205, 28.7224, 16.4929, 71.0969, -158.815
3.536, -1, -40.1136, -8.13635, 28.7408, 16.4969, 71.0501, -158.933
3.54, -1, -40.198, -8.18064, 28.7591, 16.5008, 71.0034, -159.05
3.544, -1, -40.2823, -8.22491, 28.7775, 16.5048, 70.9567, -159.168
3.548, -1, -40.3667, -8.26918, 28.7958, 16.5087, 70.91, -159.285
3.552, -1, -40.451, -8.31344, 28.8141, 16.5127, 70.8633, -159.403
3.556, -1, -40.5353, -8.35769, 28.8325, 16.5166, 70.8166, -159.52
3.56, -1, -40.6196, -8.40193, 28.8508, 16.5206, 70.7699, -159.637
3.564, -1, -40.7038, -8.44616, 28.8691, 16.5245, 70.7232, -159.755
3.568, -1, -40.7881, -8.49038, 28.8874, 16.5284, 70.6765, -159.872
3.572, -1, -40.8723, -8.5346, 28.9057, 16.5324, 70.6299, -159.989
3.576, -1, -40.9565, -8.5788, 28.924, 16.5363, 70.5832, -160.107
3.58, -1, -41.0407, -8.62299, 28.9423, 16.5403, 70.5366, -160.224
3.584, -1, -41.1249, -8.66717, 28.9606, 16.5442, 70.4899, -160.341
3.587, -1, -41.209, -8.71135, 28.9789, 16.5481, 70.4433, -160.458
3.592, -1, -41.2931, -8.75551, 28.9972, 16.5521, 70.3967, -160.575
3.596, -1, -41.3773, -8.79967, 29.0155, 16.556, 70.3501, -160.693
3.6, -1, -41.4614, -8.84382, 29.0338, 16.56, 70.3035, -160.81
3.604, -1, -41.5454, -8.88795, 29.0521, 16.5639, 70.257, -160.927
3.608, -1, -41.6295, -8.93208, 29.0704, 16.5678, 70.2104, -161.044
3.612, -1, -41.7136, -8.9762, 29.0886, 16.5718, 70.1638, -161.161
3.616, -1, -41.7976, -9.02031, 29.1069, 16.5757, 70.1173, -161.278
3.62, -1, -41.8816, -9.06441, 29.1252, 16.5796, 70.0707, -161.395
3.624, -1, -41.9656, -9.1085, 29.1434, 16.5836, 70.0242, -161.512
3.628, -1, -42.0496, -9.15258, 29.1617, 16.5875, 69.9777, -161.629
3.632, -1, -42.1335, -9.19666, 29.1799, 16.5914, 69.9312, -161.746
3.636, -1, -42.2175, -9.24072, 29.1982, 16.5954, 69.8847, -161.863
3.64, -1, -42.3014, -9.28477, 29.2164, 16.5993, 69.8382, -161.98
3.644, -1, -42.3853, -9.32882, 29.2347, 16.6032, 69.7917, -162.097
3.648, -1, -42.4692, -9.37286, 29.2529, 16.6071, 69.7452, -162.213
3.652, -1, -42.5531, -9.41688, 29.2711, 16.6111, 69.6987, -162.33
3.656, -1, -42.6369, -9.4609, 29.2894, 16.615, 69.6523, -162.447
3.66, -1, -42.7208, -9.50491, 29.3076, 16.6189, 69.6058, -162.564
3.664, -1, -42.8046, -9.54891, 29.3258, 16.6228, 69.5594, -162.68
3.668, -1, -42.8884, -9.5929, 29.344, 16.6268, 69.513, -162.797
3.672, -1, -42.9722, -9.63689, 29.3623, 16.6307, 69.4666, -162.914
3.676, -1, -43.056, -9.68086, 29.3805, 16.6346, 69.4202, -163.031
3.679, -1, -43.1397, -9.72482, 29.3987, 16.6385, 69.3738, -163.147
3.684, -1, -43.2235, -9.76878, 29.4169, 16.6425, 69.3274, -163.264
3.688, -1, -43.3072, -9.81273, 29.4351, 16.6464, 69.281, -163.38
3.692, -1, -43.3909, -9.85667, 29.4533, 16.6503, 69.2346, -163.497
3.696, -1, -43.4746, -9.9006, 29.4715, 16.6542, 69.1883, -163.614
3.7, -1, -43.5582, -9.94452, 29.4897, 16.6581, 69.1419, -163.73
3.704, -1, -43.6419, -9.98843, 29.5079, 16.662, 69.0956, -163.847
3.708, -1, -43.7255, -10.0323, 29.526, 16.666, 69.0492, -163.963
3.712, -1, -43.8092, -10.0762, 29.5442, 16.6699, 69.0029, -164.08
3.716, -1, -43.8928, -10.1201, 29.5624, 16.6738, 68.9566, -164.196
3.72, -1, -43.9764, -10.164, 29.5806, 16.6777, 68.9103, -164.312
3.724, -1, -44.0599, -10.2079, 29.5987, 16.6816, 68.864, -164.429
3.728, -1, -44.1435, -10.2517, 29.6169, 16.6855, 68.8177, -164.545
3.732, -1, -44.227, -10.2956, 29.6351, 16.6894, 68.7714, -164.662
3.735, -1, -44.3105, -10.3394, 29.6532, 16.6933, 68.7252, -164.778
3.74, -1, -44.394, -10.3833, 29.6714, 16.6973, 68.6789, -164.894
3.744, -1, -44.4775, -10.4271, 29.6895, 16.7012, 68.6326, -165.01
3.748, -1, -44.561, -10.4709, 29.7077, 16.7051, 68.5864, -165.127
3.752, -1, -44.6445, -10.5147, 29.7258, 16.709, 68.5402, -165.243
3.756, -1, -44.7279, -10.5585, 29.7439, 16.7129, 68.4939, -165.359
3.76, -1, -44.8113, -10.6023, 29.7621, 16.7168, 68.4477, -165.475
3.764, -1, -44.8947, -10.6461, 29.7802, 16.7207, 68.4015, -165.591
3.768, -1, -44.9781, -10.6899, 29.7984, 16.7246, 68.3553, -165.708
3.772, -1, -45.0615, -10.7336, 29.8165, 16.7285, 68.3091, -165.824
3.776, -1, -45.1449, -10.7774, 29.8346, 16.7324, 68.263, -165.94
3.78, -1, -45.2282, -10.8211, 29.8527, 16.7363, 68.2168, -166.056
3.784, -1, -45.3115, -10.8649, 29.8708, 16.7402, 68.1706, -166.172
3.788, -1, -45.3949, -10.9086, 29.8889, 16.7441, 68.1245, -166.288
3.792, -1, -45.4782, -10.9523, 29.9071, 16.748, 68.0783, -166.404
3.796, -1, -45.5614, -10.996, 29.9252, 16.7519, 68.0322, -166.52
3.8, -1, -45.6447, -11.0397, 29.9433, 16.7558, 67.9861, -166.636
3.804, -1, -45.728, -11.0834, 29.9614, 16.7597, 67.9399, -166.752
3.808, -1, -45.8112, -11.1271, 29.9795, 16.7636, 67.8938, -166.868
3.812, -1, -45.8944, -11.1708, 29.9975, 16.7675, 67.8477, -166.984
3.816, -1, -45.9776, -11.2145, 30.0156, 16.7714, 67.8017, -167.1
3.82, -1, -46.0608, -11.2582, 30.0337, 16.7753, 67.7556, -167.215
3.824, -1, -46.144, -11.3018, 30.0518, 16.7792, 67.7095, -167.331
3.828, -1, -46.2271, -11.3455, 30.0699, 16.7831, 67.6634, -167.447
3.832, -1, -46.3103, -11.3891, 30.088, 16.787, 67.6174, -167.563
3.836, -1, -46.3934, -11.4328, 30.106, 16.7909, 67.5713, -167.679
3.84, -1, -46.4765, -11.4764, 30.1241, 16.7947, 67.5253, -167.794
3.844, -1, -46.5596, -11.52, 30.1422, 16.7986, 67.4792, -167.91
3.848, -1, -46.6427, -11.5636, 30.1602, 16.8025, 67.4332, -168.026
3.852, -1, -46.7258, -11.6072, 30.1783, 16.8064, 67.3872, -168.142
3.856, -1, -46.8088, -11.6508, 30.1963, 16.8103, 67.3412, -168.257
3.86, -1, -46.8919, -11.6944, 30.2144, 16.8142, 67.2952, -168.373
3.864, -1, -46.9749, -11.738, 30.2324, 16.8181, 67.2492, -168.489
3.868, -1, -47.0579, -11.7816, 30.2505, 16.822, 67.2032, -168.604
3.872, -1, -47.1409, -11.8251, 30.2685, 16.8258, 67.1572, -168.72
3.876, -1, -47.2239, -11.8687, 30.2866, 16.8297, 67.1113, -168.835
3.88, -1, -47.3068, -11.9122, 30.3046, 16.8336, 67.0653, -168.951
3.884, -1, -47.3898, -11.9558, 30.3226, 16.8375, 67.0193, -169.066
3.888, -1, -47.4726, -11.9993, 30.3407, 16.8414, 66.9734, -169.182
3.892, -1, -47.5552, -12.0426, 30.3587, 16.8453, 66.9275, -169.297
3.896, -1, -47.6373, -12.0857, 30.3768, 16.8492, 66.8816, -169.413
3.9, -1, -47.7188, -12.1285, 30.3949, 16.8531, 66.8357, -169.528
3.904, -1, -47.7994, -12.1707, 30.4131, 16.857, 66.79, -169.643
3.908, -1, -47.8788, -12.2121, 30.4313, 16.8608, 66.7445, -169.757
3.912, -1, -47.9567, -12.2525, 30.4494, 16.8647, 66.6993, -169.871
3.916, -1, -48.033, -12.2918, 30.4675, 16.8686, 66.6547, -169.983
3.92, -1, -48.1074, -12.33, 30.4853, 16.8724, 66.6108, -170.093
3.924, -1, -48.1797, -12.3668, 30.5028, 16.8761, 66.568, -170.201
3.928, -1, -48.2494, -12.4021, 30.5198, 16.8797, 66.5265, -170.305
3.932, -1, -48.3164, -12.4357, 30.5362, 16.8832, 66.4866, -170.405
3.936, -1, -48.3801, -12.4676, 30.5517, 16.8865, 66.4487, -170.501
3.94, -1, -48.4403, -12.4975, 30.5663, 16.8896, 66.413, -170.59
3.944, -1, -48.4966, -12.5255, 30.5798, 16.8925, 66.3798, -170.673
3.948, -1, -48.5488, -12.5517, 30.5922, 16.8952, 66.3494, -170.75
3.952, -1, -48.5968, -12.5761, 30.6032, 16.8975, 66.3219, -170.819
3.956, -1, -48.6407, -12.5989, 30.6128, 16.8996, 66.2974, -170.88
3.96, -1, -48.6804, -12.6201, 30.6211, 16.9014, 66.276, -170.934
3.964, -1, -48.7159, -12.6396, 30.6279, 16.9029, 66.2576, -170.981
3.968, -1, -48.7473, -12.6573, 30.6335, 16.9041, 66.242, -171.02
3.972, -1, -48.7747, -12.6731, 30.638, 16.9051, 66.229, -171.053
3.976, -1, -48.7983, -12.6869, 30.6414, 16.9059, 66.2185, -171.079
3.98, -1, -48.8182, -12.6988, 30.6441, 16.9065, 66.2101, -171.1
3.984, -1, -48.835, -12.7088, 30.6459, 16.907, 66.2035, -171.117
3.988, -1, -48.8489, -12.7171, 30.6473, 16.9073, 66.1984, -171.13
3.992, -1, -48.8603, -12.7239, 30.6481, 16.9075, 66.1946, -171.139
3.996, -1, -48.8696, -12.7294, 30.6487, 16.9077, 66.1919, -171.146
3.999, -1, -48.8771, -12.7338, 30.649, 16.9078, 66.1899, -171.151
4.004, -1, -48.8829, -12.7372, 30.6492, 16.9078, 66.1885, -171.155
4.008, 2, -48.8874, -12.7397, 30.6492, 16.9079, 66.1876, -171.157
4.012, 2, -48.8906, -12.7415, 30.6493, 16.9079, 66.1869, -171.159
4.016, 2, -48.8928, -12.7427, 30.6493, 16.9079, 66.1865, -171.16
4.02, 2, -48.8944, -12.7436, 30.6493, 16.9079, 66.1862, -171.161
4.024, 2, -48.8954, -12.7441, 30.6493, 16.9079, 66.186, -171.161
4.028, 2, -48.8961, -12.7445, 30.6493, 16.9079, 66.1858, -171.162
4.032, 2, -48.8966, -12.7448, 30.6493, 16.9079, 66.1857, -171.162
4.036, 2, -48.8969, -12.745, 30.6493, 16.9079, 66.1857, -171.162
4.04, 2, -48.8971, -12.7451, 30.6493, 16.9079, 66.1856, -171.162
4.044, 2, -48.8973, -12.7452, 30.6493, 16.9079, 66.1856, -171.162
4.048, 2, -48.8974, -12.7452, 30.6493, 16.9079, 66.1856, -171.162
4.052, 2, -48.8975, -12.7453, 30.6493, 16.9079, 66.1856, -171.162
4.056, 2, -48.8975, -12.7453, 30.6493, 16.9079, 66.1856, -171.162
4.06, 2, -48.8975, -12.7453, 30.6493, 16.9079, 66.1856, -171.162
4.064, 2, -48.8976, -12.7453, 30.6493, 16.9079, 66.1856, -171.162
4.068, 2, -48.8976, -12.7453, 30.6493, 16.9079, 66.1856, -171.162
4.072, 2, -48.8976, -12.7453, 30.6493, 16.9079, 66.1856, -171.162
4.076, 2, -48.8976, -12.7453, 30.6493, 16.9079, 66.1856, -171.162
4.08, 2, -48.8976, -12.7453, 30.6493, 16.9079, 66.1856, -171.162
4.084, 2, -48.8976, -12.7454, 30.6493, 16.9079, 66.1856, -171.162
4.088, 2, -48.8976, -12.7454, 30.6493, 16.9079, 66.1856, -171.162
4.092, 2, -48.8976, -12.7454, 30.6493, 16.9079, 66.1856, -171.162
4.096, 2, -48.8976, -12.7454, 30.6493, 16.9079, 66.1856, -171.162
4.1, 2, -48.8976, -12.7454, 30.6493, 16.9079, 66.1856, -171.162
4.104, 2, -48.8976, -12.7454, 30.6493, 16.9079, 66.1856, -171.162
4.108, 2, -48.8976, -12.7454, 30.6493, 16.9079, 66.1856, -171.162
4.112, 2, -48.8976, -12.7454, 30.6493, 16.9079, 66.1856, -171.162
4.116, 2, -48.8976, -12.7454, 30.6493, 16.9079, 66.1856, -171.162
4.12, 2, -48.8976, -12.7454, 30.6493, 16.9079, 66.1856, -171.162
4.124, 2, -48.8976, -12.7454, 30.6493, 16.9079, 66.1856, -171.162
4.128, 2, -48.8976, -12.7454, 30.6493, 16.9079, 66.1856, -171.162
4.132, 2, -48.8976, -12.7454, 30.6493, 16.9079, 66.1856, -171.162
4.136, 2, -48.8976, -12.7454, 30.6493, 16.9079, 66.1856, -171.162
4.14, 2, -48.8976, -12.7454, 30.6493, 16.9079, 66.1856, -171.162
4.144, 2, -48.8976, -12.7454, 30.6493, 16.9079, 66.1856, -171.162
4.148, 2, -48.8976, -12.7454, 30.6493, 16.9079, 66.1856, -171.162
4.152, 2, -48.8976, -12.7454, 30.6493, 16.9079, 66.1856, -171.162
4.156, 2, -48.8976, -12.7454, 30.6493, 16.9079, 66.1856, -171.162
4.16, 2, -48.8976, -12.7454, 30.6493, 16.9079, 66.1856, -171.162
4.164, 2, -48.8976, -12.7454, 30.6493, 16.9079, 66.1856, -171.162
4.168, 2, -48.8976, -12.7454, 30.6493, 16.9079, 66.1856, -171.162
4.172, 2, -48.8976, -12.7454, 30.6493, 16.9079, 66.1856, -171.162
4.176, 2, -48.8976, -12.7454, 30.6493, 16.9079, 66.1856, -171.162
4.18, 2, -48.8976, -12.7454, 30.6493, 16.9079, 66.1856, -171.162
4.184, 2, -48.8976, -12.7454, 30.6493, 16.9079, 66.1856, -171.162
4.188, 2, -48.8976, -12.7454, 30.6493, 16.9079, 66.1856, -171.162
4.192, 2, -48.8976, -12.7454, 30.6493, 16.9079, 66.1856, -171.162
4.196, 2, -48.8976, -12.7454, 30.6493, 16.9079, 66.1856, -171.162
4.2, 2, -48.8976, -12.7454, 30.6493, 16.9079, 66.1856, -171.162
4.204, 2, -48.8976, -12.7454, 30.6493, 16.9079, 66.1856, -171.162
4.208, 2, -48.8976, -12.7454, 30.6493, 16.9079, 66.1856, -171.162
4.212, 2, -48.8976, -12.7454, 30.6493, 16.9079, 66.1856, -171.162
4.216, 2, -48.8976, -12.7454, 30.6493, 16.9079, 66.1856, -171.162
4.22, 2, -48.8976, -12.7454, 30.6493, 16.9079, 66.1856, -171.162
4.224, 2, -48.8976, -12.7454, 30.6493, 16.9079, 66.1856, -171.162
4.228, 2, -48.8976, -12.7454, 30.6493, 16.9079, 66.1856, -171.162
4.232, 2, -48.8976, -12.7454, 30.6493, 16.9079, 66.1856, -171.162
4.236, 2, -48.8976, -12.7454, 30.6493, 16.9079, 66.1856, -171.162
4.24, 2, -48.8976, -12.7454, 30.6493, 16.9079, 66.1856, -171.162
4.244, 2, -48.8976, -12.7454, 30.6493, 16.9079, 66.1856, -171.162
4.248, 2, -48.8976, -12.7454, 30.6493, 16.9079, 66.1856, -171.162
4.252, 2, -48.8976, -12.7454, 30.6493, 16.9079, 66.1856, -171.162
4.256, 2, -48.8976, -12.7454, 30.6493, 16.9079, 66.1856, -171.162
4.26, 2, -48.8976, -12.7454, 30.6493, 16.9079, 66.1856, -171.162
4.264, 2, -48.8976, -12.7454, 30.6493, 16.9079, 66.1856, -171.162
4.268, 2, -48.8976, -12.7454, 30.6493, 16.9079, 66.1856, -171.162
4.272, 2, -48.8976, -12.7454, 30.6493, 16.9079, 66.1856, -171.162
4.276, 2, -48.8976, -12.7454, 30.6493, 16.9079, 66.1856, -171.162
4.28, 2, -48.8976, -12.7454, 30.6493, 16.9079, 66.1856, -171.162
4.284, 2, -48.8976, -12.7454, 30.6493, 16.9079, 66.1856, -171.162
4.288, 2, -48.8976, -12.7454, 30.6493, 16.9079, 66.1856, -171.162
4.292, 2, -48.8976, -12.7454, 30.6493, 16.9079, 66.1856, -171.162
4.296, 2, -48.8976, -12.7454, 30.6493, 16.9079, 66.1856, -171.162
4.3, 2, -48.8976, -12.7454, 30.6493, 16.9079, 66.1856, -171.162
4.304, 2, -48.8976, -12.7454, 30.6493, 16.9079, 66.1856, -171.162
4.308, 2, -48.8976, -12.7454, 30.6493, 16.9079, 66.1856, -171.162
4.312, 2, -48.8976, -12.7454, 30.6493, 16.9079, 66.1856, -171.162
4.316, 2, -48.8976, -12.7454, 30.6493, 16.9079, 66.1856, -171.162
4.32, 2, -48.8976, -12.7454, 30.6493, 16.9079, 66.1856, -171.162
4.324, 2, -48.8976, -12.7454, 30.6493, 16.9079, 66.1856, -171.162
4.328, 2, -48.8976, -12.7454, 30.6493, 16.9079, 66.1856, -171.162
4.332, 2, -48.8976, -12.7454, 30.6493, 16.9079, 66.1856, -171.162
4.336, 2, -48.8976, -12.7454, 30.6493, 16.9079, 66.1856, -171.162
4.34, 2, -48.8976, -12.7454, 30.6493, 16.9079, 66.1856, -171.162
4.344, 2, -48.8976, -12.7454, 30.6493, 16.9079, 66.1856, -171.162
4.348, 2, -48.8976, -12.7454, 30.6493, 16.9079, 66.1856, -171.162
4.352, 2, -48.8976, -12.7454, 30.6493, 16.9079, 66.1856, -171.162
4.356, 2, -48.8976, -12.7454, 30.6493, 16.9079, 66.1856, -171.162
4.36, 2, -48.8976, -12.7454, 30.6493, 16.9079, 66.1856, -171.162
4.364, 2, -48.8976, -12.7454, 30.6493, 16.9079, 66.1856, -171.162
4.368, 2, -48.8976, -12.7454, 30.6493, 16.9079, 66.1856, -171.162
4.372, 2, -48.8976, -12.7454, 30.6493, 16.9079, 66.1856, -171.162
4.376, 2, -48.8976, -12.7454, 30.6493, 16.9079, 66.1856, -171.162
4.38, 2, -48.8976, -12.7454, 30.6493, 16.9079, 66.1856, -171.162
4.384, 2, -48.8976, -12.7454, 30.6493, 16.9079, 66.1856, -171.162
4.388, 2, -48.8976, -12.7454, 30.6493, 16.9079, 66.1856, -171.162
4.392, 2, -48.8976, -12.7454, 30.6493, 16.9079, 66.1856, -171.162
4.396, 2, -48.8976, -12.7454, 30.6493, 16.9079, 66.1856, -171.162
4.4, 2, -48.8976, -12.7454, 30.6493, 16.9079, 66.1856, -171.162
4.404, 2, -48.8976, -12.7454, 30.6493, 16.9079, 66.1856, -171.162
4.408, 2, -48.8976, -12.7454, 30.6493, 16.9079, 66.1856, -171.162
4.412, 2, -48.8976, -12.7454, 30.6493, 16.9079, 66.1856, -171.162
4.416, 2, -48.8976, -12.7454, 30.6493, 16.9079, 66.1856, -171.162
4.42, 2, -48.8976, -12.7454, 30.6493, 16.9079, 66.1856, -171.162
4.424, 2, -48.8976, -12.7454, 30.6493, 16.9079, 66.1856, -171.162
4.428, 2, -48.8976, -12.7454, 30.6493, 16.9079, 66.1856, -171.162
4.432, 2, -48.8976, -12.7454, 30.6493, 16.9079, 66.1856, -171.162
4.436, 2, -48.8976, -12.7454, 30.6493, 16.9079, 66.1856, -171.162
4.44, 2, -48.8976, -12.7454, 30.6493, 16.9079, 66.1856, -171.162
4.444, 2, -48.8976, -12.7454, 30.6493, 16.9079, 66.1856, -171.162
4.448, 2, -48.8976, -12.7454, 30.6493, 16.9079, 66.1856, -171.162
4.452, 2, -48.8976, -12.7454, 30.6493, 16.9079, 66.1856, -171.162
4.456, 2, -48.8976, -12.7454, 30.6493, 16.9079, 66.1856, -171.162
4.46, 2, -48.8976, -12.7454, 30.6493, 16.9079, 66.1856, -171.162
4.464, 2, -48.8976, -12.7454, 30.6493, 16.9079, 66.1856, -171.162
4.468, 2, -48.8976, -12.7454, 30.6493, 16.9079, 66.1856, -171.162
4.472, 2, -48.8976, -12.7454, 30.6493, 16.9079, 66.1856, -171.162
4.476, 2, -48.8976, -12.7454, 30.6493, 16.9079, 66.1856, -171.162
4.48, 2, -48.8976, -12.7454, 30.6493, 16.9079, 66.1856, -171.162
4.484, 2, -48.8976, -12.7454, 30.6493, 16.9079, 66.1856, -171.162
4.488, 2, -48.8976, -12.7454, 30.6493, 16.9079, 66.1856, -171.162
4.492, 2, -48.8976, -12.7454, 30.6493, 16.9079, 66.1856, -171.162
4.496, 2, -48.8976, -12.7454, 30.6493, 16.9079, 66.1856, -171.162
4.5, 2, -48.8976, -12.7454, 30.6493, 16.9079, 66.1856, -171.162
4.504, 2, -48.8976, -12.7454, 30.6493, 16.9079, 66.1856, -171.162
4.508, 2, -48.8976, -12.7454, 30.6493, 16.9079, 66.1856, -171.162
4.512, 2, -48.8976, -12.7454, 30.6493, 16.9079, 66.1856, -171.162
4.516, 2, -48.8976, -12.7454, 30.6493, 16.9079, 66.1856, -171.162
4.52, 2, -48.8976, -12.7454, 30.6493, 16.9079, 66.1856, -171.162
4.524, 2, -48.8976, -12.7454, 30.6493, 16.9079, 66.1856, -171.162
4.528, 2, -48.8976, -12.7454, 30.6493, 16.9079, 66.1856, -171.162
4.532, 2, -48.8976, -12.7454, 30.6493, 16.9079, 66.1856, -171.162
4.536, 2, -48.8976, -12.7454, 30.6493, 16.9079, 66.1856, -171.162
4.54, 2, -48.8976, -12.7454, 30.6493, 16.9079, 66.1856, -171.162
4.544, 2, -48.8976, -12.7454, 30.6493, 16.9079, 66.1856, -171.162
4.548, 2, -48.8976, -12.7454, 30.6493, 16.9079, 66.1856, -171.162
4.552, 2, -48.8976, -12.7454, 30.6493, 16.9079, 66.1856, -171.162
4.556, 2, -48.8976, -12.7454, 30.6493, 16.9079, 66.1856, -171.162
4.56, 2, -48.8976, -12.7454, 30.6493, 16.9079, 66.1856, -171.162
4.564, 2, -48.8976, -12.7454, 30.6493, 16.9079, 66.1856, -171.162
4.568, 2, -48.8976, -12.7454, 30.6493, 16.9079, 66.1856, -171.162
4.572, 2, -48.8976, -12.7454, 30.6493, 16.9079, 66.1856, -171.162
4.576, 2, -48.8976, -12.7454, 30.6493, 16.9079, 66.1856, -171.162
4.58, 2, -48.8976, -12.7454, 30.6493, 16.9079, 66.1856, -171.162
4.584, 2, -48.8976, -12.7454, 30.6493, 16.9079, 66.1856, -171.162
4.588, 2, -48.8976, -12.7454, 30.6493, 16.9079, 66.1856, -171.162
4.592, 2, -48.8976, -12.7454, 30.6493, 16.9079, 66.1856, -171.162
4.596, 2, -48.8976, -12.7454, 30.6493, 16.9079, 66.1856, -171.162
4.6, 2, -48.8976, -12.7454, 30.6493, 16.9079, 66.1856, -171.162
4.604, 2, -48.8976, -12.7454, 30.6493, 16.9079, 66.1856, -171.162
4.608, 2, -48.8976, -12.7454, 30.6493, 16.9079, 66.1856, -171.162
4.612, 2, -48.8976, -12.7454, 30.6493, 16.9079, 66.1856, -171.162
4.616, 2, -48.8976, -12.7454, 30.6493, 16.9079, 66.1856, -171.162
4.62, 2, -48.8976, -12.7454, 30.6493, 16.9079, 66.1856, -171.162
4.624, 2, -48.8976, -12.7454, 30.6493, 16.9079, 66.1856, -171.162
4.628, 2, -48.8976, -12.7454, 30.6493, 16.9079, 66.1856, -171.162
4.632, 2, -48.8976, -12.7454, 30.6493, 16.9079, 66.1856, -171.162
4.636, 2, -48.8976, -12.7454, 30.6493, 16.9079, 66.1856, -171.162
4.64, 2, -48.8976, -12.7454, 30.6493, 16.9079, 66.1856, -171.162
4.644, 2, -48.8976, -12.7454, 30.6493, 16.9079, 66.1856, -171.162
4.648, 2, -48.8976, -12.7454, 30.6493, 16.9079, 66.1856, -171.162
4.652, 2, -48.8976, -12.7454, 30.6493, 16.9079, 66.1856, -171.162
4.656, 2, -48.8976, -12.7454, 30.6493, 16.9079, 66.1856, -171.162
4.66, 2, -48.8976, -12.7454, 30.6493, 16.9079, 66.1856, -171.162
4.664, 2, -48.8976, -12.7454, 30.6493, 16.9079, 66.1856, -171.162
4.668, 2, -48.8976, -12.7454, 30.6493, 16.9079, 66.1856, -171.162
4.672, 2, -48.8976, -12.7454, 30.6493, 16.9079, 66.1856, -171.162
4.676, 2, -48.8976, -12.7454, 30.6493, 16.9079, 66.1856, -171.162
4.68, 2, -48.8976, -12.7454, 30.6493, 16.9079, 66.1856, -171.162
4.684, 2, -48.8976, -12.7454, 30.6493, 16.9079, 66.1856, -171.162
4.688, 2, -48.8976, -12.7454, 30.6493, 16.9079, 66.1856, -171.162
4.692, 2, -48.8976, -12.7454, 30.6493, 16.9079, 66.1856, -171.162
4.696, 2, -48.8976, -12.7454, 30.6493, 16.9079, 66.1856, -171.162
4.7, 2, -48.8976, -12.7454, 30.6493, 16.9079, 66.1856, -171.162
4.704, 2, -48.8976, -12.7454, 30.6493, 16.9079, 66.1856, -171.162
4.708, 2, -48.8976, -12.7454, 30.6493, 16.9079, 66.1856, -171.162
4.712, 2, -48.8976, -12.7454, 30.6493, 16.9079, 66.1856, -171.162
4.716, 2, -48.8976, -12.7454, 30.6493, 16.9079, 66.1856, -171.162
4.72, 2, -48.8976, -12.7454, 30.6493, 16.9079, 66.1856, -171.162
4.724, 2, -48.8976, -12.7454, 30.6493, 16.9079, 66.1856, -171.162
4.728, 2, -48.8976, -12.7454, 30.6493, 16.9079, 66.1856, -171.162
4.732, 2, -48.8976, -12.7454, 30.6493, 16.9079, 66.1856, -171.162
4.736, 2, -48.8976, -12.7454, 30.6493, 16.9079, 66.1856, -171.162
4.74, 2, -48.8976, -12.7454, 30.6493, 16.9079, 66.1856, -171.162
4.744, 2, -48.8976, -12.7454, 30.6493, 16.9079, 66.1856, -171.162
4.748, 2, -48.8976, -12.7454, 30.6493, 16.9079, 66.1856, -171.162
4.752, 2, -48.8976, -12.7454, 30.6493, 16.9079, 66.1856, -171.162
4.756, 2, -48.8976, -12.7454, 30.6493, 16.9079, 66.1856, -171.162
4.76, 2, -48.8976, -12.7454, 30.6493, 16.9079, 66.1856, -171.162
4.764, 2, -48.8976, -12.7454, 30.6493, 16.9079, 66.1856, -171.162
4.768, 2, -48.8976, -12.7454, 30.6493, 16.9079, 66.1856, -171.162
4.772, 2, -48.8976, -12.7454, 30.6493, 16.9079, 66.1856, -171.162
4.776, 2, -48.8976, -12.7454, 30.6493, 16.9079, 66.1856, -171.162
4.78, 2, -48.8976, -12.7454, 30.6493, 16.9079, 66.1856, -171.162
4.784, 2, -48.8976, -12.7454, 30.6493, 16.9079, 66.1856, -171.162
4.788, 2, -48.8976, -12.7454, 30.6493, 16.9079, 66.1856, -171.162
4.792, 2, -48.8976, -12.7454, 30.6493, 16.9079, 66.1856, -171.162
4.796, 2, -48.8976, -12.7454, 30.6493, 16.9079, 66.1856, -171.162
4.8, 2, -48.8976, -12.7454, 30.6493, 16.9079, 66.1856, -171.162
4.804, 2, -48.8976, -12.7454, 30.6493, 16.9079, 66.1856, -171.162
4.808, 2, -48.8976, -12.7454, 30.6493, 16.9079, 66.1856, -171.162
4.812, 2, -48.8976, -12.7454, 30.6493, 16.9079, 66.1856, -171.162
4.816, 2, -48.8976, -12.7454, 30.6493, 16.9079, 66.1856, -171.162
4.82, 2, -48.8976, -12.7454, 30.6493, 16.9079, 66.1856, -171.162
4.824, 2, -48.8976, -12.7454, 30.6493, 16.9079, 66.1856, -171.162
4.828, 2, -48.8976, -12.7454, 30.6493, 16.9079, 66.1856, -171.162
4.832, 2, -48.8976, -12.7454, 30.6493, 16.9079, 66.1856, -171.162
4.836, 2, -48.8976, -12.7454, 30.6493, 16.9079, 66.1856, -171.162
4.84, 2, -48.8976, -12.7454, 30.6493, 16.9079, 66.1856, -171.162
4.844, 2, -48.8976, -12.7454, 30.6493, 16.9079, 66.1856, -171.162
4.848, 2, -48.8976, -12.7454, 30.6493, 16.9079, 66.1856, -171.162
4.852, 2, -48.8976, -12.7454, 30.6493, 16.9079, 66.1856, -171.162
4.856, 2, -48.8976, -12.7454, 30.6493, 16.9079, 66.1856, -171.162
4.86, 2, -48.8976, -12.7454, 30.6493, 16.9079, 66.1856, -171.162
4.864, 2, -48.8976, -12.7454, 30.6493, 16.9079, 66.1856, -171.162
4.868, 2, -48.8976, -12.7454, 30.6493, 16.9079, 66.1856, -171.162
4.872, 2, -48.8976, -12.7454, 30.6493, 16.9079, 66.1856, -171.162
4.876, 2, -48.8976, -12.7454, 30.6493, 16.9079, 66.1856, -171.162
4.88, 2, -48.8976, -12.7454, 30.6493, 16.9079, 66.1856, -171.162
4.884, 2, -48.8976, -12.7454, 30.6493, 16.9079, 66.1856, -171.162
4.888, 2, -48.8976, -12.7454, 30.6493, 16.9079, 66.1856, -171.162
4.892, 2, -48.8976, -12.7454, 30.6493, 16.9079, 66.1856, -171.162
4.896, 2, -48.8976, -12.7454, 30.6493, 16.9079, 66.1856, -171.162
4.9, 2, -48.8976, -12.7454, 30.6493, 16.9079, 66.1856, -171.162
4.904, 2, -48.8976, -12.7454, 30.6493, 16.9079, 66.1856, -171.162
4.908, 2, -48.8976, -12.7454, 30.6493, 16.9079, 66.1856, -171.162
4.912, 2, -48.8976, -12.7454, 30.6493, 16.9079, 66.1856, -171.162
4.916, 2, -48.8976, -12.7454, 30.6493, 16.9079, 66.1856, -171.162
4.92, 2, -48.8976, -12.7454, 30.6493, 16.9079, 66.1856, -171.162
4.924, 2, -48.8976, -12.7454, 30.6493, 16.9079, 66.1856, -171.162
4.928, 2, -48.8976, -12.7454, 30.6493, 16.9079, 66.1856, -171.162
4.932, 2, -48.8976, -12.7454, 30.6493, 16.9079, 66.1856, -171.162
4.936, 2, -48.8976, -12.7454, 30.6493, 16.9079, 66.1856, -171.162
4.94, 2, -48.8976, -12.7454, 30.6493, 16.9079, 66.1856, -171.162
4.944, 2, -48.8976, -12.7454, 30.6493, 16.9079, 66.1856, -171.162
4.948, 2, -48.8976, -12.7454, 30.6493, 16.9079, 66.1856, -171.162
4.952, 2, -48.8976, -12.7454, 30.6493, 16.9079, 66.1856, -171.162
4.956, 2, -48.8976, -12.7454, 30.6493, 16.9079, 66.1856, -171.162
4.96, 2, -48.8976, -12.7454, 30.6493, 16.9079, 66.1856, -171.162
4.964, 2, -48.8976, -12.7454, 30.6493, 16.9079, 66.1856, -171.162
4.968, 2, -48.8976, -12.7454, 30.6493, 16.9079, 66.1856, -171.162
4.972, 2, -48.8976, -12.7454, 30.6493, 16.9079, 66.1856, -171.162
4.976, 2, -48.8976, -12.7454, 30.6493, 16.9079, 66.1856, -171.162
4.98, 2, -48.8976, -12.7454, 30.6493, 16.9079, 66.1856, -171.162
4.984, 2, -48.8976, -12.7454, 30.6493, 16.9079, 66.1856, -171.162
4.988, 2, -48.8976, -12.7454, 30.6493, 16.9079, 66.1856, -171.162
4.992, 2, -48.8976, -12.7454, 30.6493, 16.9079, 66.1856, -171.162
4.996, 2, -48.8976, -12.7454, 30.6493, 16.9079, 66.1856, -171.162
5, 2, -48.8976, -12.7454, 30.6493, 16.9079, 66.1856, -171.162
5.004, 2, -48.8976, -12.7454, 30.6493, 16.9079, 66.1856, -171.162
5.008, 2, -48.8976, -12.7454, 30.6493, 16.9079, 66.1856, -171.162
5.012, 2, -48.8976, -12.7454, 30.6493, 16.9079, 66.1856, -171.162
5.016, 2, -48.8976, -12.7454, 30.6493, 16.9079, 66.1856, -171.162
5.02, 2, -48.8976, -12.7454, 30.6493, 16.9079, 66.1856, -171.162
5.024, 2, -48.8976, -12.7454, 30.6493, 16.9079, 66.1856, -171.162
5.028, 2, -48.8976, -12.7454, 30.6493, 16.9079, 66.1856, -171.162
5.032, 2, -48.8976, -12.7454, 30.6493, 16.9079, 66.1856, -171.162
5.036, 2, -48.8976, -12.7454, 30.6493, 16.9079, 66.1856, -171.162
5.04, 2, -48.8976, -12.7454, 30.6493, 16.9079, 66.1856, -171.162
5.044, 2, -48.8976, -12.7454, 30.6493, 16.9079, 66.1856, -171.162
5.048, 2, -48.8976, -12.7454, 30.6493, 16.9079, 66.1856, -171.162
5.052, 2, -48.8976, -12.7454, 30.6493, 16.9079, 66.1856, -171.162
5.056, 2, -48.8976, -12.7454, 30.6493, 16.9079, 66.1856, -171.162
5.06, 2, -48.8976, -12.7454, 30.6493, 16.9079, 66.1856, -171.162
5.064, 2, -48.8976, -12.7454, 30.6493, 16.9079, 66.1856, -171.162
5.068, 2, -48.8976, -12.7454, 30.6493, 16.9079, 66.1856, -171.162
5.072, 2, -48.8976, -12.7454, 30.6493, 16.9079, 66.1856, -171.162
5.076, 2, -48.8976, -12.7454, 30.6493, 16.9079, 66.1856, -171.162
5.08, 4, -48.8976, -12.7454, 30.6493, 16.9079, 66.1856, -171.162
5.084, 4, -48.8976, -12.7454, 30.6493, 16.9079, 66.1856, -171.162
5.088, 4, -48.8976, -12.7454, 30.6493, 16.9079, 66.1856, -171.162
5.092, 4, -48.8976, -12.7454, 30.6493, 16.9079, 66.1856, -171.162
5.096, 4, -48.8976, -12.7454, 30.6493, 16.9079, 66.1856, -171.162
5.1, 4, -48.8976, -12.7454, 30.6493, 16.9079, 66.1856, -171.162
5.104, 4, -48.8976, -12.7454, 30.6493, 16.9079, 66.1856, -171.162
5.108, 4, -48.8976, -12.7454, 30.6493, 16.9079, 66.1856, -171.162
5.112, 4, -48.8976, -12.7454, 30.6493, 16.9079, 66.1856, -171.162
5.116, 4, -48.8976, -12.7454, 30.6493, 16.9079, 66.1856, -171.162
5.12, 4, -48.8976, -12.7454, 30.6493, 16.9079, 66.1856, -171.162
5.124, 4, -48.8976, -12.7454, 30.6493, 16.9079, 66.1856, -171.162
5.128, 4, -48.8976, -12.7454, 30.6493, 16.9079, 66.1856, -171.162
5.132, 4, -48.8976, -12.7454, 30.6493, 16.9079, 66.1856, -171.162
5.136, 4, -48.8976, -12.7454, 30.6493, 16.9079, 66.1856, -171.162
5.14, 4, -48.8976, -12.7454, 30.6493, 16.9079, 66.1856, -171.162
5.144, 4, -48.8976, -12.7454, 30.6493, 16.9079, 66.1856, -171.162
5.148, 4, -48.8976, -12.7454, 30.6493, 16.9079, 66.1856, -171.162
5.152, 4, -48.8976, -12.7454, 30.6493, 16.9079, 66.1856, -171.162
5.156, 4, -48.8976, -12.7454, 30.6493, 16.9079, 66.1856, -171.162
5.16, 4, -48.8976, -12.7454, 30.6493, 16.9079, 66.1856, -171.162
5.164, 4, -48.8976, -12.7454, 30.6493, 16.9079, 66.1856, -171.162
5.168, 4, -48.8976, -12.7454, 30.6493, 16.9079, 66.1856, -171.162
5.172, 4, -48.8976, -12.7454, 30.6493, 16.9079, 66.1856, -171.162
5.176, 4, -48.8976, -12.7454, 30.6493, 16.9079, 66.1856, -171.162
5.18, 4, -48.8976, -12.7454, 30.6493, 16.9079, 66.1856, -171.162
5.185, 4, -48.8976, -12.7454, 30.6493, 16.9079, 66.1856, -171.162
5.19, 4, -48.8976, -12.7454, 30.6493, 16.9079, 66.1856, -171.162
5.192, 4, -48.8976, -12.7454, 30.6493, 16.9079, 66.1856, -171.162
5.196, 4, -48.8976, -12.7454, 30.6493, 16.9079, 66.1856, -171.162
5.2, 4, -48.8976, -12.7454, 30.6493, 16.9079, 66.1856, -171.162
5.204, 4, -48.8976, -12.7454, 30.6493, 16.9079, 66.1856, -171.162
5.208, 4, -48.8976, -12.7454, 30.6493, 16.9079, 66.1856, -171.162
5.212, 4, -48.8976, -12.7454, 30.6493, 16.9079, 66.1856, -171.162
5.216, 4, -48.8975, -12.7454, 30.6494, 16.908, 66.1856, -171.162
5.22, 4, -48.8974, -12.7456, 30.6496, 16.9081, 66.1857, -171.162
5.224, 4, -48.8971, -12.7459, 30.65, 16.9083, 66.1859, -171.162
5.228, 4, -48.8967, -12.7465, 30.6508, 16.9089, 66.1864, -171.161
5.232, 4, -48.8961, -12.7475, 30.6521, 16.9102, 66.1873, -171.16
5.236, 4, -48.8952, -12.7489, 30.6543, 16.9126, 66.1891, -171.157
5.24, 4, -48.8941, -12.7508, 30.6575, 16.9167, 66.192, -171.152
5.244, 4, -48.8928, -12.7534, 30.662, 16.9231, 66.1965, -171.144
5.248, 4, -48.8913, -12.7567, 30.6682, 16.9326, 66.2032, -171.132
5.252, 5, -48.8898, -12.7607, 30.6764, 16.946, 66.2126, -171.116
5.256, 5, -48.8881, -12.7657, 30.687, 16.9641, 66.2252, -171.094
5.26, 5, -48.8864, -12.7716, 30.7004, 16.9877, 66.2415, -171.064
5.264, 5, -48.8847, -12.7787, 30.7167, 17.0175, 66.262, -171.028
5.268, 5, -48.8829, -12.7869, 30.7364, 17.054, 66.287, -170.983
5.272, 5, -48.8812, -12.7963, 30.7596, 17.0977, 66.3168, -170.929
5.276, 5, -48.8795, -12.8069, 30.7863, 17.1489, 66.3515, -170.866
5.28, 5, -48.8779, -12.8188, 30.8167, 17.2076, 66.3912, -170.793
5.284, 5, -48.8764, -12.8318, 30.8507, 17.2738, 66.4356, -170.712
5.288, 5, -48.8749, -12.846, 30.8881, 17.3471, 66.4847, -170.622
5.294, 5, -48.8735, -12.8614, 30.9289, 17.427, 66.5379, -170.524
5.298, 5, -48.872, -12.8779, 30.9728, 17.5129, 66.5948, -170.419
5.3, 5, -48.8705, -12.8955, 31.0195, 17.6041, 66.6549, -170.308
5.304, 5, -48.8688, -12.9141, 31.0688, 17.6999, 66.7177, -170.192
5.308, 5, -48.867, -12.9336, 31.1203, 17.7996, 66.7826, -170.071
5.312, 5, -48.8651, -12.9539, 31.1738, 17.9024, 66.8492, -169.947
5.316, 5, -48.863, -12.9749, 31.2289, 18.0079, 66.917, -169.821
5.32, 5, -48.861, -12.9965, 31.2854, 18.1155, 66.9858, -169.692
5.324, 5, -48.8588, -13.0185, 31.3431, 18.2248, 67.0551, -169.562
5.328, 5, -48.8567, -13.041, 31.4018, 18.3354, 67.1247, -169.431
5.332, 5, -48.8545, -13.0639, 31.4613, 18.447, 67.1944, -169.299
5.336, 5, -48.8524, -13.087, 31.5216, 18.5594, 67.2641, -169.167
5.34, 5, -48.8503, -13.1105, 31.5824, 18.6724, 67.3336, -169.034
5.344, 5, -48.8483, -13.1341, 31.6438, 18.7859, 67.4029, -168.902
5.348, 5, -48.8464, -13.1578, 31.7056, 18.8999, 67.4719, -168.769
5.352, 5, -48.8445, -13.1817, 31.7679, 19.0142, 67.5405, -168.637
5.356, 5, -48.8428, -13.2058, 31.8306, 19.1289, 67.6088, -168.504
5.36, 5, -48.8412, -13.23, 31.8936, 19.2439, 67.6767, -168.372
5.364, 5, -48.8397, -13.2542, 31.9571, 19.3593, 67.7443, -168.241
5.368, 5, -48.8383, -13.2786, 32.0209, 19.4749, 67.8114, -168.109
5.372, 5, -48.8371, -13.3031, 32.0851, 19.5907, 67.8782, -167.978
5.376, 5, -48.836, -13.3277, 32.1496, 19.7069, 67.9445, -167.846
5.38, 5, -48.8349, -13.3524, 32.2145, 19.8233, 68.0105, -167.716
5.384, 5, -48.834, -13.3772, 32.2797, 19.94, 68.076, -167.585
5.388, 5, -48.8333, -13.4022, 32.3453, 20.0569, 68.1412, -167.454
5.392, 5, -48.8326, -13.4272, 32.4113, 20.1741, 68.2059, -167.324
5.396, 5, -48.8321, -13.4523, 32.4776, 20.2916, 68.2703, -167.194
5.4, 5, -48.8317, -13.4775, 32.5442, 20.4093, 68.3342, -167.064
5.404, 5, -48.8314, -13.5028, 32.6112, 20.5272, 68.3978, -166.935
5.408, 5, -48.8312, -13.5283, 32.6786, 20.6454, 68.4609, -166.806
5.412, 5, -48.8311, -13.5538, 32.7463, 20.7639, 68.5237, -166.677
5.416, 5, -48.8311, -13.5795, 32.8143, 20.8826, 68.586, -166.548
5.42, 5, -48.8313, -13.6052, 32.8827, 21.0016, 68.648, -166.419
5.424, 5, -48.8316, -13.6311, 32.9515, 21.1208, 68.7095, -166.291
5.428, 5, -48.8319, -13.657, 33.0206, 21.2402, 68.7707, -166.163
5.432, 5, -48.8324, -13.6831, 33.0901, 21.3599, 68.8315, -166.035
5.436, 5, -48.833, -13.7093, 33.1599, 21.4798, 68.8919, -165.908
5.44, 5, -48.8337, -13.7356, 33.2301, 21.6, 68.9519, -165.78
5.444, 5, -48.8345, -13.762, 33.3006, 21.7204, 69.0115, -165.653
5.448, 5, -48.8355, -13.7885, 33.3715, 21.8411, 69.0707, -165.527
5.452, 5, -48.8365, -13.8151, 33.4427, 21.9619, 69.1296, -165.4
5.456, 5, -48.8376, -13.8418, 33.5143, 22.0831, 69.188, -165.274
5.46, 5, -48.8389, -13.8686, 33.5862, 22.2044, 69.2461, -165.147
5.464, 5, -48.8402, -13.8956, 33.6585, 22.326, 69.3038, -165.022
5.468, 5, -48.8417, -13.9227, 33.7311, 22.4479, 69.3611, -164.896
5.472, 5, -48.8432, -13.9498, 33.8041, 22.5699, 69.418, -164.771
5.476, 5, -48.8449, -13.9771, 33.8775, 22.6922, 69.4745, -164.645
5.48, 5, -48.8466, -14.0045, 33.9512, 22.8147, 69.5307, -164.52
5.484, 5, -48.8485, -14.032, 34.0253, 22.9375, 69.5865, -164.396
5.488, 5, -48.8505, -14.0596, 34.0996, 23.0605, 69.6419, -164.271
5.492, 5, -48.8525, -14.0873, 34.1743, 23.1836, 69.6968, -164.147
5.496, 5, -48.8547, -14.1149, 34.2491, 23.3069, 69.7514, -164.023
5.5, 5, -48.857, -14.1424, 34.3239, 23.4301, 69.8055, -163.9
5.504, 5, -48.8594, -14.1698, 34.3986, 23.5531, 69.8589, -163.777
5.508, 5, -48.8619, -14.1969, 34.473, 23.6756, 69.9117, -163.656
5.512, 5, -48.8645, -14.2236, 34.5467, 23.7971, 69.9637, -163.535
5.516, 5, -48.8671, -14.2498, 34.6194, 23.9171, 70.0145, -163.417
5.52, 5, -48.8698, -14.2754, 34.6908, 24.0349, 70.064, -163.301
5.524, 5, -48.8725, -14.3002, 34.7603, 24.1497, 70.112, -163.188
5.528, 5, -48.8751, -14.3242, 34.8277, 24.2607, 70.158, -163.079
5.532, 5, -48.8777, -14.3473, 34.8924, 24.3672, 70.2018, -162.975
5.536, 5, -48.8802, -14.3692, 34.9539, 24.4682, 70.2432, -162.877
5.54, 5, -48.8826, -14.3898, 35.0118, 24.5631, 70.2819, -162.785
5.544, 5, -48.8849, -14.4091, 35.0658, 24.6512, 70.3175, -162.699
5.548, 5, -48.8869, -14.427, 35.1155, 24.7319, 70.3501, -162.621
5.552, 5, -48.8887, -14.4434, 35.1607, 24.8047, 70.3794, -162.551
5.556, 5, -48.8903, -14.4584, 35.2014, 24.8695, 70.4053, -162.488
5.56, 5, -48.8916, -14.4719, 35.2375, 24.9263, 70.428, -162.434
5.564, 5, -48.8927, -14.4839, 35.269, 24.9752, 70.4476, -162.387
5.568, 5, -48.8936, -14.4945, 35.2962, 25.0166, 70.4641, -162.347
5.572, 5, -48.8942, -14.5037, 35.3192, 25.0511, 70.4779, -162.314
5.576, 5, -48.8947, -14.5115, 35.3384, 25.0793, 70.4891, -162.288
5.58, 5, -48.8951, -14.5181, 35.3542, 25.102, 70.4982, -162.266
5.584, 5, -48.8954, -14.5235, 35.3669, 25.1199, 70.5053, -162.249
5.588, 5, -48.8956, -14.528, 35.3769, 25.1336, 70.5109, -162.236
5.592, 5, -48.8957, -14.5315, 35.3848, 25.144, 70.5151, -162.226
5.596, 5, -48.8957, -14.5344, 35.3908, 25.1517, 70.5182, -162.219
5.6, 5, -48.8958, -14.5365, 35.3953, 25.1572, 70.5204, -162.214
5.604, 5, -48.8958, -14.5382, 35.3986, 25.1611, 70.522, -162.21
5.608, 5, -48.8958, -14.5394, 35.4009, 25.1638, 70.5232, -162.208
5.612, 5, -48.8958, -14.5403, 35.4026, 25.1657, 70.5239, -162.206
5.616, 5, -48.8957, -14.5409, 35.4038, 25.167, 70.5245, -162.205
5.62, 5, -48.8955, -14.5414, 35.4046, 25.1678, 70.5249, -162.204
5.624, 5, -48.895, -14.5417, 35.4054, 25.1685, 70.5252, -162.203
5.628, 5, -48.8941, -14.542, 35.4062, 25.1691, 70.5256, -162.202
5.632, 5, -48.8925, -14.5424, 35.4073, 25.1699, 70.5262, -162.201
5.636, 5, -48.8902, -14.5429, 35.4089, 25.1712, 70.5273, -162.198
5.64, 5, -48.8871, -14.5437, 35.4113, 25.1733, 70.5293, -162.193
5.644, 5, -48.8831, -14.5446, 35.4147, 25.1767, 70.5325, -162.185
5.648, 5, -48.8783, -14.5459, 35.4193, 25.1821, 70.5375, -162.172
5.652, 5, -48.8726, -14.5476, 35.4255, 25.19, 70.5448, -162.152
5.656, 6, -48.8661, -14.5497, 35.4336, 25.2011, 70.555, -162.125
5.66, 6, -48.8587, -14.5524, 35.4437, 25.2159, 70.5687, -162.088
5.664, 6, -48.8503, -14.5556, 35.4562, 25.2351, 70.5863, -162.04
5.668, 6, -48.8408, -14.5594, 35.4714, 25.2591, 70.6082, -161.98
5.672, 6, -48.8302, -14.5639, 35.4894, 25.2884, 70.6346, -161.907
5.676, 6, -48.8183, -14.5692, 35.5103, 25.3231, 70.6659, -161.821
5.68, 6, -48.8053, -14.5751, 35.5343, 25.3633, 70.702, -161.721
5.684, 6, -48.7912, -14.5818, 35.5612, 25.4091, 70.7429, -161.608
5.688, 6, -48.7761, -14.5891, 35.591, 25.4604, 70.7883, -161.482
5.692, 6, -48.7601, -14.5971, 35.6236, 25.5167, 70.8379, -161.343
5.696, 6, -48.7431, -14.6058, 35.6588, 25.5777, 70.8913, -161.194
5.7, 6, -48.7251, -14.615, 35.6964, 25.6429, 70.9478, -161.035
5.704, 6, -48.7061, -14.6247, 35.7363, 25.7117, 71.0071, -160.869
5.708, 6, -48.6861, -14.635, 35.7781, 25.7836, 71.0685, -160.696
5.712, 6, -48.6653, -14.6457, 35.8217, 25.8581, 71.1316, -160.517
5.716, 6, -48.6437, -14.6567, 35.8668, 25.9348, 71.1959, -160.335
5.72, 6, -48.6214, -14.6681, 35.9132, 26.0132, 71.2611, -160.149
5.724, 6, -48.5987, -14.6798, 35.9607, 26.0932, 71.3268, -159.962
5.728, 6, -48.5757, -14.6918, 36.009, 26.1745, 71.3929, -159.773
5.732, 6, -48.5525, -14.704, 36.0582, 26.257, 71.4591, -159.582
5.736, 6, -48.5292, -14.7164, 36.1079, 26.3405, 71.5254, -159.392
5.74, 6, -48.5058, -14.729, 36.1582, 26.425, 71.5916, -159.201
5.744, 6, -48.4823, -14.7419, 36.209, 26.5104, 71.6577, -159.011
5.748, 6, -48.4588, -14.7549, 36.2602, 26.5969, 71.7237, -158.821
5.752, 7, -48.4354, -14.7681, 36.3118, 26.6843, 71.7894, -158.632
5.756, 7, -48.4122, -14.7815, 36.3636, 26.7729, 71.855, -158.445
5.76, 7, -48.3892, -14.7951, 36.4157, 26.8626, 71.9204, -158.258
5.764, 7, -48.3664, -14.8089, 36.4679, 26.9536, 71.9857, -158.074
5.768, 7, -48.3438, -14.8228, 36.5204, 27.0458, 72.0508, -157.891
5.772, 7, -48.3214, -14.8369, 36.5729, 27.1394, 72.1159, -157.711
5.776, 7, -48.2993, -14.8512, 36.6256, 27.2345, 72.1809, -157.532
5.78, 7, -48.2775, -14.8656, 36.6785, 27.3309, 72.2458, -157.356
5.784, 7, -48.2559, -14.8802, 36.7314, 27.4288, 72.3106, -157.182
5.788, 7, -48.2345, -14.895, 36.7844, 27.5281, 72.3753, -157.01
5.792, 7, -48.2134, -14.9099, 36.8376, 27.6287, 72.4399, -156.84
5.796, 7, -48.1925, -14.9251, 36.8909, 27.7305, 72.5044, -156.672
5.8, 7, -48.172, -14.9404, 36.9445, 27.8335, 72.5687, -156.505
5.804, 7, -48.1516, -14.9559, 36.9982, 27.9376, 72.6328, -156.341
5.808, 7, -48.1314, -14.9717, 37.0521, 28.0427, 72.6966, -156.178
5.812, 7, -48.1114, -14.9876, 37.1062, 28.1486, 72.7602, -156.016
5.816, 7, -48.0915, -15.0037, 37.1607, 28.2552, 72.8234, -155.855
5.82, 7, -48.0717, -15.02, 37.2154, 28.3626, 72.8863, -155.695
5.824, 7, -48.052, -15.0365, 37.2704, 28.4705, 72.9488, -155.536
5.828, 7, -48.0322, -15.0531, 37.3257, 28.5789, 73.0109, -155.378
5.832, 7, -48.0123, -15.0699, 37.3812, 28.6876, 73.0727, -155.22
5.836, 7, -47.9923, -15.0868, 37.4369, 28.7967, 73.1341, -155.062
5.84, 7, -47.9721, -15.1037, 37.4928, 28.9059, 73.1951, -154.905
5.844, 7, -47.9517, -15.1207, 37.5487, 29.0151, 73.2558, -154.748
5.848, 7, -47.931, -15.1377, 37.6047, 29.1243, 73.3162, -154.591
5.852, 7, -47.91, -15.1547, 37.6605, 29.2333, 73.3765, -154.433
5.856, 8, -47.8886, -15.1716, 37.716, 29.342, 73.4366, -154.276
5.86, 8, -47.8669, -15.1884, 37.7713, 29.4502, 73.4966, -154.118
5.864, 8, -47.8446, -15.2051, 37.826, 29.5579, 73.5565, -153.96
5.868, 8, -47.8218, -15.2217, 37.8802, 29.6649, 73.6166, -153.802
5.872, 8, -47.7984, -15.238, 37.9337, 29.771, 73.6767, -153.642
5.876, 8, -47.7744, -15.2542, 37.9865, 29.8762, 73.7369, -153.482
5.88, 8, -47.7498, -15.2701, 38.0384, 29.9805, 73.7974, -153.322
5.884, 8, -47.7245, -15.2859, 38.0895, 30.0838, 73.858, -153.16
5.888, 8, -47.6986, -15.3014, 38.1398, 30.1861, 73.9188, -152.998
5.892, 8, -47.672, -15.3167, 38.1892, 30.2874, 73.9798, -152.835
5.896, 8, -47.6447, -15.3318, 38.2379, 30.3878, 74.041, -152.672
5.9, 8, -47.6169, -15.3467, 38.2859, 30.4875, 74.1022, -152.507
5.904, 8, -47.5885, -15.3615, 38.3332, 30.5864, 74.1635, -152.343
5.908, 8, -47.5597, -15.3761, 38.3801, 30.6848, 74.2247, -152.178
5.912, 8, -47.5304, -15.3905, 38.4266, 30.7828, 74.2859, -152.012
5.916, 8, -47.5007, -15.4049, 38.4728, 30.8804, 74.3469, -151.846
5.92, 8, -47.4706, -15.4193, 38.5188, 30.9778, 74.4077, -151.681
5.924, 8, -47.4401, -15.4336, 38.5647, 31.0751, 74.4683, -151.515
5.928, 8, -47.4093, -15.4479, 38.6106, 31.1724, 74.5285, -151.349
5.932, 8, -47.3781, -15.4623, 38.6566, 31.2699, 74.5885, -151.184
5.936, 8, -47.3465, -15.4768, 38.7028, 31.3674, 74.648, -151.018
5.94, 8, -47.3146, -15.4914, 38.7491, 31.4652, 74.7072, -150.853
