rpiRobotics/ARM-21-02-F-19-Robot-Motion-Program/data_performance_abb/curve_2/curve_pose_opt2/100L/realrobot/run_4.csv
timestamp,cmd_num,J1,J2,J3,J4,J5,J6
1.400000037392601371e-04,-1.000000000000000000e+00,7.736371994018554688e+00,-1.011713600158691406e+01,2.641852855682373047e+00,-2.074214324951171875e+02,-1.019231719970703125e+02,-1.806661682128906250e+02,4.030399620532989502e-01,-6.667234802246093750e+01,-1.826867065429687500e+02,-2.342819452285766602e+00,7.562197875976562500e+01,3.135619926452636719e+01
3.868000116199254990e-03,1.000000000000000000e+00,7.736314773559570312e+00,-1.011713600158691406e+01,2.641852855682373047e+00,-2.074213256835937500e+02,-1.019230117797851562e+02,-1.806661682128906250e+02,4.030399620532989502e-01,-6.667224884033203125e+01,-1.826867065429687500e+02,-2.342747688293457031e+00,7.562197875976562500e+01,3.135619926452636719e+01
1.009199954569339752e-02,1.000000000000000000e+00,7.736371994018554688e+00,-1.011713600158691406e+01,2.641852855682373047e+00,-2.074213256835937500e+02,-1.019231719970703125e+02,-1.806661682128906250e+02,4.030399620532989502e-01,-6.667234802246093750e+01,-1.826867065429687500e+02,-2.342819452285766602e+00,7.562197875976562500e+01,3.135642242431640625e+01
1.245300006121397018e-02,1.000000000000000000e+00,7.736314773559570312e+00,-1.011713600158691406e+01,2.641893625259399414e+00,-2.074213256835937500e+02,-1.019231719970703125e+02,-1.806661682128906250e+02,4.030399620532989502e-01,-6.667224884033203125e+01,-1.826867065429687500e+02,-2.342819452285766602e+00,7.562197875976562500e+01,3.135619926452636719e+01
3.847900032997131348e-02,1.000000000000000000e+00,7.736286640167236328e+00,-1.011706733703613281e+01,2.641852855682373047e+00,-2.074213256835937500e+02,-1.019231719970703125e+02,-1.806663665771484375e+02,4.030399620532989502e-01,-6.667234802246093750e+01,-1.826867065429687500e+02,-2.342819452285766602e+00,7.562197875976562500e+01,3.135619926452636719e+01
3.990099951624870300e-02,1.000000000000000000e+00,7.736286640167236328e+00,-1.011706733703613281e+01,2.641893625259399414e+00,-2.074213256835937500e+02,-1.019231719970703125e+02,-1.806663665771484375e+02,4.030399620532989502e-01,-6.667224884033203125e+01,-1.826867065429687500e+02,-2.342819452285766602e+00,7.562212371826171875e+01,3.135619926452636719e+01
4.114900156855583191e-02,1.000000000000000000e+00,7.736286640167236328e+00,-1.011706733703613281e+01,2.641893625259399414e+00,-2.074213256835937500e+02,-1.019231719970703125e+02,-1.806663665771484375e+02,4.030399620532989502e-01,-6.667224884033203125e+01,-1.826867065429687500e+02,-2.342819452285766602e+00,7.562212371826171875e+01,3.135619926452636719e+01
4.791599884629249573e-02,1.000000000000000000e+00,7.736286640167236328e+00,-1.011713600158691406e+01,2.641852855682373047e+00,-2.074213256835937500e+02,-1.019230117797851562e+02,-1.806661682128906250e+02,4.030399620532989502e-01,-6.667224884033203125e+01,-1.826867065429687500e+02,-2.342891216278076172e+00,7.562212371826171875e+01,3.135619926452636719e+01
4.927400127053260803e-02,1.000000000000000000e+00,7.736314773559570312e+00,-1.011713600158691406e+01,2.641893625259399414e+00,-2.074212188720703125e+02,-1.019231719970703125e+02,-1.806663665771484375e+02,4.030399620532989502e-01,-6.667224884033203125e+01,-1.826865997314453125e+02,-2.342747688293457031e+00,7.562197875976562500e+01,3.135642242431640625e+01
5.188399925827980042e-02,1.000000000000000000e+00,7.736314773559570312e+00,-1.011713600158691406e+01,2.641852855682373047e+00,-2.074212188720703125e+02,-1.019230117797851562e+02,-1.806663665771484375e+02,4.030399620532989502e-01,-6.667224884033203125e+01,-1.826867065429687500e+02,-2.342819452285766602e+00,7.562197875976562500e+01,3.135642242431640625e+01
5.315199866890907288e-02,1.000000000000000000e+00,7.736314773559570312e+00,-1.011713600158691406e+01,2.641852855682373047e+00,-2.074212188720703125e+02,-1.019230117797851562e+02,-1.806663665771484375e+02,4.030399620532989502e-01,-6.667224884033203125e+01,-1.826867065429687500e+02,-2.342819452285766602e+00,7.562197875976562500e+01,3.135642242431640625e+01
5.651000142097473145e-02,1.000000000000000000e+00,7.736171245574951172e+00,-1.011706733703613281e+01,2.641893625259399414e+00,-2.074213256835937500e+02,-1.019230117797851562e+02,-1.806661682128906250e+02,4.030399620532989502e-01,-6.667224884033203125e+01,-1.826867065429687500e+02,-2.342819452285766602e+00,7.562197875976562500e+01,3.135619926452636719e+01
6.081800162792205811e-02,1.000000000000000000e+00,7.735884189605712891e+00,-1.011679649353027344e+01,2.641852855682373047e+00,-2.074213256835937500e+02,-1.019231719970703125e+02,-1.806661682128906250e+02,4.030399620532989502e-01,-6.667234802246093750e+01,-1.826865997314453125e+02,-2.342891216278076172e+00,7.562197875976562500e+01,3.135619926452636719e+01
6.346800178289413452e-02,1.000000000000000000e+00,7.734879493713378906e+00,-1.011616230010986328e+01,2.641893625259399414e+00,-2.074213256835937500e+02,-1.019230117797851562e+02,-1.806661682128906250e+02,4.030399620532989502e-01,-6.667224884033203125e+01,-1.826867065429687500e+02,-2.342747688293457031e+00,7.562212371826171875e+01,3.135619926452636719e+01
6.482599675655364990e-02,1.000000000000000000e+00,7.734879493713378906e+00,-1.011616230010986328e+01,2.641893625259399414e+00,-2.074213256835937500e+02,-1.019230117797851562e+02,-1.806661682128906250e+02,4.030399620532989502e-01,-6.667224884033203125e+01,-1.826867065429687500e+02,-2.342747688293457031e+00,7.562212371826171875e+01,3.135619926452636719e+01
6.731600314378738403e-02,1.000000000000000000e+00,7.733071327209472656e+00,-1.011482715606689453e+01,2.641893625259399414e+00,-2.074212188720703125e+02,-1.019229049682617188e+02,-1.806663665771484375e+02,4.030399620532989502e-01,-6.667224884033203125e+01,-1.826867065429687500e+02,-2.342891216278076172e+00,7.562182617187500000e+01,3.135619926452636719e+01
7.053600251674652100e-02,1.000000000000000000e+00,7.733071327209472656e+00,-1.011482715606689453e+01,2.641893625259399414e+00,-2.074212188720703125e+02,-1.019229049682617188e+02,-1.806663665771484375e+02,4.030399620532989502e-01,-6.667224884033203125e+01,-1.826867065429687500e+02,-2.342891216278076172e+00,7.562182617187500000e+01,3.135619926452636719e+01
7.195799797773361206e-02,1.000000000000000000e+00,7.730343341827392578e+00,-1.011288166046142578e+01,2.641893625259399414e+00,-2.074213256835937500e+02,-1.019228057861328125e+02,-1.806661682128906250e+02,4.030399620532989502e-01,-6.667224884033203125e+01,-1.826867065429687500e+02,-2.342819452285766602e+00,7.562197875976562500e+01,3.135619926452636719e+01
7.329700142145156860e-02,1.000000000000000000e+00,7.730343341827392578e+00,-1.011288166046142578e+01,2.641893625259399414e+00,-2.074213256835937500e+02,-1.019228057861328125e+02,-1.806661682128906250e+02,4.030399620532989502e-01,-6.667224884033203125e+01,-1.826867065429687500e+02,-2.342819452285766602e+00,7.562197875976562500e+01,3.135619926452636719e+01
7.664400339126586914e-02,1.000000000000000000e+00,7.726669311523437500e+00,-1.011005306243896484e+01,2.641934394836425781e+00,-2.074213256835937500e+02,-1.019222717285156250e+02,-1.806660308837890625e+02,4.030399620532989502e-01,-6.667216491699218750e+01,-1.826867065429687500e+02,-2.342891216278076172e+00,7.562197875976562500e+01,3.135619926452636719e+01
8.113700151443481445e-02,1.000000000000000000e+00,7.721760272979736328e+00,-1.010607051849365234e+01,2.642117261886596680e+00,-2.074208526611328125e+02,-1.019212493896484375e+02,-1.806656188964843750e+02,4.030399620532989502e-01,-6.667216491699218750e+01,-1.826867065429687500e+02,-2.342819452285766602e+00,7.562212371826171875e+01,3.135619926452636719e+01
8.463799953460693359e-02,1.000000000000000000e+00,7.715645790100097656e+00,-1.010077381134033203e+01,2.642381668090820312e+00,-2.074197998046875000e+02,-1.019193344116210938e+02,-1.806646118164062500e+02,4.030399620532989502e-01,-6.667234802246093750e+01,-1.826867065429687500e+02,-2.342819452285766602e+00,7.562182617187500000e+01,3.135619926452636719e+01
8.721899986267089844e-02,1.000000000000000000e+00,7.708124637603759766e+00,-1.009357738494873047e+01,2.643012046813964844e+00,-2.074176483154296875e+02,-1.019162902832031250e+02,-1.806630401611328125e+02,4.030399620532989502e-01,-6.667234802246093750e+01,-1.826867065429687500e+02,-2.342819452285766602e+00,7.562197875976562500e+01,3.135598182678222656e+01
8.852499723434448242e-02,1.000000000000000000e+00,7.708124637603759766e+00,-1.009357738494873047e+01,2.643012046813964844e+00,-2.074176483154296875e+02,-1.019162902832031250e+02,-1.806630401611328125e+02,4.030399620532989502e-01,-6.667234802246093750e+01,-1.826867065429687500e+02,-2.342819452285766602e+00,7.562197875976562500e+01,3.135598182678222656e+01
9.291300177574157715e-02,1.000000000000000000e+00,7.708124637603759766e+00,-1.009357738494873047e+01,2.643012046813964844e+00,-2.074176483154296875e+02,-1.019162902832031250e+02,-1.806630401611328125e+02,4.030399620532989502e-01,-6.667224884033203125e+01,-1.826867065429687500e+02,-2.342819452285766602e+00,7.562197875976562500e+01,3.135619926452636719e+01
9.545399993658065796e-02,1.000000000000000000e+00,7.687455654144287109e+00,-1.007250976562500000e+01,2.644923210144042969e+00,-2.074094238281250000e+02,-1.019060592651367188e+02,-1.806578979492187500e+02,4.030399620532989502e-01,-6.667234802246093750e+01,-1.826865997314453125e+02,-2.342891216278076172e+00,7.562197875976562500e+01,3.135619926452636719e+01
9.991800040006637573e-02,1.000000000000000000e+00,7.687455654144287109e+00,-1.007250976562500000e+01,2.644923210144042969e+00,-2.074094238281250000e+02,-1.019060592651367188e+02,-1.806578979492187500e+02,4.030399620532989502e-01,-6.667234802246093750e+01,-1.826865997314453125e+02,-2.342891216278076172e+00,7.562197875976562500e+01,3.135619926452636719e+01
1.039149984717369080e-01,1.000000000000000000e+00,7.673733711242675781e+00,-1.005811691284179688e+01,2.646366596221923828e+00,-2.074030609130859375e+02,-1.018973083496093750e+02,-1.806519165039062500e+02,4.030399620532989502e-01,-6.667224884033203125e+01,-1.826867065429687500e+02,-2.342819452285766602e+00,7.562197875976562500e+01,3.135619926452636719e+01
1.085989996790885925e-01,1.000000000000000000e+00,7.657227993011474609e+00,-1.004116725921630859e+01,2.648298025131225586e+00,-2.073939361572265625e+02,-1.018857955932617188e+02,-1.806424255371093750e+02,4.030399620532989502e-01,-6.667224884033203125e+01,-1.826867065429687500e+02,-2.342819452285766602e+00,7.562212371826171875e+01,3.135619926452636719e+01
1.129240021109580994e-01,1.000000000000000000e+00,7.638166427612304688e+00,-1.002240753173828125e+01,2.650941371917724609e+00,-2.073825683593750000e+02,-1.018712997436523438e+02,-1.806300201416015625e+02,4.030399620532989502e-01,-6.667224884033203125e+01,-1.826867065429687500e+02,-2.342747688293457031e+00,7.562197875976562500e+01,3.135619926452636719e+01
1.155140027403831482e-01,1.000000000000000000e+00,7.592895030975341797e+00,-9.980315208435058594e+00,2.657305240631103516e+00,-2.073526000976562500e+02,-1.018308792114257812e+02,-1.805977478027343750e+02,4.030399620532989502e-01,-6.667224884033203125e+01,-1.826867065429687500e+02,-2.342891216278076172e+00,7.562212371826171875e+01,3.135619926452636719e+01
1.199349984526634216e-01,1.000000000000000000e+00,7.592895030975341797e+00,-9.980315208435058594e+00,2.657305240631103516e+00,-2.073526000976562500e+02,-1.018308792114257812e+02,-1.805977478027343750e+02,4.030399620532989502e-01,-6.667224884033203125e+01,-1.826867065429687500e+02,-2.342891216278076172e+00,7.562212371826171875e+01,3.135619926452636719e+01
1.244449988007545471e-01,1.000000000000000000e+00,7.538094043731689453e+00,-9.932633399963378906e+00,2.665498971939086914e+00,-2.073104553222656250e+02,-1.017714843750000000e+02,-1.805498657226562500e+02,4.030399620532989502e-01,-6.667234802246093750e+01,-1.826867065429687500e+02,-2.342891216278076172e+00,7.562197875976562500e+01,3.135619926452636719e+01
1.279380023479461670e-01,1.000000000000000000e+00,7.538094043731689453e+00,-9.932633399963378906e+00,2.665498971939086914e+00,-2.073104553222656250e+02,-1.017714843750000000e+02,-1.805498657226562500e+02,4.030399620532989502e-01,-6.667234802246093750e+01,-1.826867065429687500e+02,-2.342891216278076172e+00,7.562197875976562500e+01,3.135619926452636719e+01
1.325979977846145630e-01,1.000000000000000000e+00,7.506745815277099609e+00,-9.906248092651367188e+00,2.670398950576782227e+00,-2.072844238281250000e+02,-1.017366714477539062e+02,-1.805198822021484375e+02,4.030399620532989502e-01,-6.667224884033203125e+01,-1.826867065429687500e+02,-2.342819452285766602e+00,7.562212371826171875e+01,3.135642242431640625e+01
1.369130015373229980e-01,1.000000000000000000e+00,7.472986698150634766e+00,-9.878322601318359375e+00,2.675847768783569336e+00,-2.072539215087890625e+02,-1.016973800659179688e+02,-1.804855041503906250e+02,4.030399620532989502e-01,-6.667234802246093750e+01,-1.826865997314453125e+02,-2.342747688293457031e+00,7.562197875976562500e+01,3.135619926452636719e+01
1.408749967813491821e-01,1.000000000000000000e+00,7.436328411102294922e+00,-9.848722457885742188e+00,2.681926965713500977e+00,-2.072188415527343750e+02,-1.016512603759765625e+02,-1.804463806152343750e+02,4.030399620532989502e-01,-6.667224884033203125e+01,-1.826867065429687500e+02,-2.342819452285766602e+00,7.562197875976562500e+01,3.135619926452636719e+01
1.448979973793029785e-01,1.000000000000000000e+00,7.396914005279541016e+00,-9.817289352416992188e+00,2.688412904739379883e+00,-2.071811828613281250e+02,-1.016003952026367188e+02,-1.804050750732421875e+02,4.030399620532989502e-01,-6.667224884033203125e+01,-1.826867065429687500e+02,-2.342819452285766602e+00,7.562197875976562500e+01,3.135619926452636719e+01
1.489800065755844116e-01,1.000000000000000000e+00,7.355088233947753906e+00,-9.784158706665039062e+00,2.695366144180297852e+00,-2.071420440673828125e+02,-1.015478820800781250e+02,-1.803612518310546875e+02,4.030399620532989502e-01,-6.667224884033203125e+01,-1.826867065429687500e+02,-2.342891216278076172e+00,7.562197875976562500e+01,3.135619926452636719e+01
1.538950055837631226e-01,1.000000000000000000e+00,7.311569213867187500e+00,-9.749399185180664062e+00,2.702787399291992188e+00,-2.070995941162109375e+02,-1.014909896850585938e+02,-1.803132476806640625e+02,4.030399620532989502e-01,-6.667216491699218750e+01,-1.826867065429687500e+02,-2.342747688293457031e+00,7.562197875976562500e+01,3.135619926452636719e+01
1.571529954671859741e-01,1.000000000000000000e+00,7.218845844268798828e+00,-9.674992561340332031e+00,2.718849420547485352e+00,-2.070046234130859375e+02,-1.013651123046875000e+02,-1.802054901123046875e+02,4.030399620532989502e-01,-6.667234802246093750e+01,-1.826867065429687500e+02,-2.342819452285766602e+00,7.562197875976562500e+01,3.135619926452636719e+01
1.596390008926391602e-01,1.000000000000000000e+00,7.169068336486816406e+00,-9.634281158447265625e+00,2.727449655532836914e+00,-2.069561614990234375e+02,-1.012982025146484375e+02,-1.801513671875000000e+02,4.030399620532989502e-01,-6.667224884033203125e+01,-1.826867065429687500e+02,-2.342819452285766602e+00,7.562197875976562500e+01,3.135598182678222656e+01
1.639889925718307495e-01,1.000000000000000000e+00,7.169068336486816406e+00,-9.634281158447265625e+00,2.727449655532836914e+00,-2.069561614990234375e+02,-1.012982025146484375e+02,-1.801513671875000000e+02,4.030399620532989502e-01,-6.667224884033203125e+01,-1.826867065429687500e+02,-2.342819452285766602e+00,7.562197875976562500e+01,3.135598182678222656e+01
1.679079979658126831e-01,1.000000000000000000e+00,7.116649627685546875e+00,-9.591125488281250000e+00,2.736558437347412109e+00,-2.069051208496093750e+02,-1.012306518554687500e+02,-1.800941925048828125e+02,4.030399620532989502e-01,-6.667234802246093750e+01,-1.826867065429687500e+02,-2.342891216278076172e+00,7.562197875976562500e+01,3.135619926452636719e+01
1.719080060720443726e-01,1.000000000000000000e+00,7.062709331512451172e+00,-9.545526504516601562e+00,2.746114492416381836e+00,-2.068523406982421875e+02,-1.011610183715820312e+02,-1.800339813232421875e+02,4.030399620532989502e-01,-6.667224884033203125e+01,-1.826867065429687500e+02,-2.342819452285766602e+00,7.562197875976562500e+01,3.135642242431640625e+01
1.763959974050521851e-01,1.000000000000000000e+00,7.006989479064941406e+00,-9.497822761535644531e+00,2.755853414535522461e+00,-2.067990264892578125e+02,-1.010889282226562500e+02,-1.799743041992187500e+02,4.030399620532989502e-01,-6.667224884033203125e+01,-1.826867065429687500e+02,-2.342819452285766602e+00,7.562197875976562500e+01,3.135619926452636719e+01
1.806019991636276245e-01,1.000000000000000000e+00,6.949748039245605469e+00,-9.448919296264648438e+00,2.765693902969360352e+00,-2.067450408935546875e+02,-1.010158386230468750e+02,-1.799138793945312500e+02,4.030399620532989502e-01,-6.667224884033203125e+01,-1.826867065429687500e+02,-2.342891216278076172e+00,7.562197875976562500e+01,3.135619926452636719e+01
1.840710043907165527e-01,1.000000000000000000e+00,6.891071319580078125e+00,-9.398726463317871094e+00,2.775738000869750977e+00,-2.066911010742187500e+02,-1.009428482055664062e+02,-1.798522949218750000e+02,4.030399620532989502e-01,-6.667224884033203125e+01,-1.826867065429687500e+02,-2.342819452285766602e+00,7.562197875976562500e+01,3.135619926452636719e+01
1.875959932804107666e-01,1.000000000000000000e+00,6.831332683563232422e+00,-9.347696304321289062e+00,2.785984992980957031e+00,-2.066365814208984375e+02,-1.008696517944335938e+02,-1.797916107177734375e+02,4.030399620532989502e-01,-6.667224884033203125e+01,-1.826867065429687500e+02,-2.342747688293457031e+00,7.562197875976562500e+01,3.135619926452636719e+01
1.919150054454803467e-01,1.000000000000000000e+00,6.770818233489990234e+00,-9.295827865600585938e+00,2.796232223510742188e+00,-2.065816497802734375e+02,-1.007957534790039062e+02,-1.797305755615234375e+02,4.030399620532989502e-01,-6.667224884033203125e+01,-1.826867065429687500e+02,-2.342819452285766602e+00,7.562197875976562500e+01,3.135598182678222656e+01
1.959200054407119751e-01,1.000000000000000000e+00,6.709558010101318359e+00,-9.243190765380859375e+00,2.806398153305053711e+00,-2.065271301269531250e+02,-1.007206268310546875e+02,-1.796671600341796875e+02,4.030399620532989502e-01,-6.667224884033203125e+01,-1.826867065429687500e+02,-2.342819452285766602e+00,7.562197875976562500e+01,3.135619926452636719e+01
2.004989981651306152e-01,1.000000000000000000e+00,6.647579669952392578e+00,-9.190169334411621094e+00,2.816523551940917969e+00,-2.064718780517578125e+02,-1.006464080810546875e+02,-1.796057128906250000e+02,4.030399620532989502e-01,-6.667234802246093750e+01,-1.826868133544921875e+02,-2.342891216278076172e+00,7.562197875976562500e+01,3.135619926452636719e+01
2.046439945697784424e-01,1.000000000000000000e+00,6.584941864013671875e+00,-9.136513710021972656e+00,2.826791048049926758e+00,-2.064170532226562500e+02,-1.005720901489257812e+02,-1.795438537597656250e+02,4.030399620532989502e-01,-6.667234802246093750e+01,-1.826867065429687500e+02,-2.342747688293457031e+00,7.562197875976562500e+01,3.135619926452636719e+01
2.080930024385452271e-01,1.000000000000000000e+00,6.521872997283935547e+00,-9.082541465759277344e+00,2.837404251098632812e+00,-2.063622589111328125e+02,-1.004974441528320312e+02,-1.794810638427734375e+02,4.030399620532989502e-01,-6.667224884033203125e+01,-1.826867065429687500e+02,-2.342819452285766602e+00,7.562197875976562500e+01,3.135619926452636719e+01
2.118829935789108276e-01,1.000000000000000000e+00,6.458689212799072266e+00,-9.028636932373046875e+00,2.848078250885009766e+00,-2.063067474365234375e+02,-1.004225921630859375e+02,-1.794192962646484375e+02,4.030399620532989502e-01,-6.667224884033203125e+01,-1.826865997314453125e+02,-2.342891216278076172e+00,7.562197875976562500e+01,3.135619926452636719e+01
2.159759998321533203e-01,1.000000000000000000e+00,6.395390510559082031e+00,-8.974686622619628906e+00,2.858549356460571289e+00,-2.062518463134765625e+02,-1.003483734130859375e+02,-1.793572998046875000e+02,4.030399620532989502e-01,-6.667224884033203125e+01,-1.826867065429687500e+02,-2.342819452285766602e+00,7.562197875976562500e+01,3.135619926452636719e+01
2.199909985065460205e-01,1.000000000000000000e+00,6.332350254058837891e+00,-8.920600891113281250e+00,2.868837118148803711e+00,-2.061967010498046875e+02,-1.002736816406250000e+02,-1.792944335937500000e+02,4.030399620532989502e-01,-6.667216491699218750e+01,-1.826867065429687500e+02,-2.342819452285766602e+00,7.562197875976562500e+01,3.135619926452636719e+01
2.248509973287582397e-01,1.000000000000000000e+00,6.269052028656005859e+00,-8.866651535034179688e+00,2.879185914993286133e+00,-2.061416168212890625e+02,-1.001991958618164062e+02,-1.792327880859375000e+02,4.030399620532989502e-01,-6.667224884033203125e+01,-1.826867065429687500e+02,-2.342819452285766602e+00,7.562197875976562500e+01,3.135619926452636719e+01
2.288630008697509766e-01,1.000000000000000000e+00,6.205925941467285156e+00,-8.812702178955078125e+00,2.889718055725097656e+00,-2.060869903564453125e+02,-1.001238632202148438e+02,-1.791708068847656250e+02,4.030399620532989502e-01,-6.667224884033203125e+01,-1.826867065429687500e+02,-2.342819452285766602e+00,7.562197875976562500e+01,3.135619926452636719e+01
2.321310043334960938e-01,1.000000000000000000e+00,6.142827987670898438e+00,-8.758594512939453125e+00,2.900270223617553711e+00,-2.060315246582031250e+02,-1.000499114990234375e+02,-1.791077423095703125e+02,4.030399620532989502e-01,-6.667224884033203125e+01,-1.826867065429687500e+02,-2.342819452285766602e+00,7.562197875976562500e+01,3.135619926452636719e+01
2.359869927167892456e-01,1.000000000000000000e+00,6.079730510711669922e+00,-8.704666137695312500e+00,2.911025524139404297e+00,-2.059767456054687500e+02,-9.997515869140625000e+01,-1.790460968017578125e+02,4.030399620532989502e-01,-6.667224884033203125e+01,-1.826867065429687500e+02,-2.342747688293457031e+00,7.562197875976562500e+01,3.135619926452636719e+01
2.399400025606155396e-01,1.000000000000000000e+00,6.017092227935791016e+00,-8.650943756103515625e+00,2.921476125717163086e+00,-2.059212646484375000e+02,-9.990073394775390625e+01,-1.789848480224609375e+02,4.030399620532989502e-01,-6.667224884033203125e+01,-1.826867065429687500e+02,-2.342819452285766602e+00,7.562197875976562500e+01,3.135619926452636719e+01
2.443130016326904297e-01,1.000000000000000000e+00,5.954023361206054688e+00,-8.597355842590332031e+00,2.931682825088500977e+00,-2.058662414550781250e+02,-9.982528686523437500e+01,-1.789226684570312500e+02,4.030399620532989502e-01,-6.667234802246093750e+01,-1.826867065429687500e+02,-2.342891216278076172e+00,7.562197875976562500e+01,3.135619926452636719e+01
2.488140016794204712e-01,1.000000000000000000e+00,5.891126632690429688e+00,-8.543451309204101562e+00,2.942092657089233398e+00,-2.058118286132812500e+02,-9.975149536132812500e+01,-1.788600616455078125e+02,4.030399620532989502e-01,-6.667234802246093750e+01,-1.826867065429687500e+02,-2.342891216278076172e+00,7.562197875976562500e+01,3.135619926452636719e+01
2.529839873313903809e-01,1.000000000000000000e+00,5.828287601470947266e+00,-8.489659309387207031e+00,2.952726125717163086e+00,-2.057560424804687500e+02,-9.967680358886718750e+01,-1.787979431152343750e+02,4.030399620532989502e-01,-6.667224884033203125e+01,-1.826867065429687500e+02,-2.342891216278076172e+00,7.562197875976562500e+01,3.135619926452636719e+01
2.563509941101074219e-01,1.000000000000000000e+00,5.765419483184814453e+00,-8.435868263244628906e+00,2.963278532028198242e+00,-2.057012634277343750e+02,-9.960205078125000000e+01,-1.787353515625000000e+02,4.030399620532989502e-01,-6.667224884033203125e+01,-1.826867065429687500e+02,-2.342747688293457031e+00,7.562197875976562500e+01,3.135619926452636719e+01
2.589299976825714111e-01,1.000000000000000000e+00,5.702551364898681641e+00,-8.382213592529296875e+00,2.973789930343627930e+00,-2.056463165283203125e+02,-9.952645111083984375e+01,-1.786741790771484375e+02,4.030399620532989502e-01,-6.667224884033203125e+01,-1.826867065429687500e+02,-2.342819452285766602e+00,7.562197875976562500e+01,3.135619926452636719e+01
2.628929913043975830e-01,1.000000000000000000e+00,5.639798641204833984e+00,-8.328535079956054688e+00,2.984016895294189453e+00,-2.055905456542968750e+02,-9.945244598388671875e+01,-1.786130828857421875e+02,4.030399620532989502e-01,-6.667234802246093750e+01,-1.826867065429687500e+02,-2.342819452285766602e+00,7.562197875976562500e+01,3.135619926452636719e+01
2.669019997119903564e-01,1.000000000000000000e+00,5.577045440673828125e+00,-8.274947166442871094e+00,2.994345426559448242e+00,-2.055363922119140625e+02,-9.937834167480468750e+01,-1.785501556396484375e+02,4.030399620532989502e-01,-6.667234802246093750e+01,-1.826867065429687500e+02,-2.342819452285766602e+00,7.562197875976562500e+01,3.135619926452636719e+01
2.708710134029388428e-01,1.000000000000000000e+00,5.514378547668457031e+00,-8.221652984619140625e+00,3.004755258560180664e+00,-2.054812316894531250e+02,-9.930358886718750000e+01,-1.784883575439453125e+02,4.030399620532989502e-01,-6.667224884033203125e+01,-1.826867065429687500e+02,-2.342819452285766602e+00,7.562197875976562500e+01,3.135619926452636719e+01
2.773349881172180176e-01,1.000000000000000000e+00,5.451654434204101562e+00,-8.168066024780273438e+00,3.015266895294189453e+00,-2.054256591796875000e+02,-9.922836303710937500e+01,-1.784265747070312500e+02,4.030399620532989502e-01,-6.667224884033203125e+01,-1.826867065429687500e+02,-2.342819452285766602e+00,7.562197875976562500e+01,3.135619926452636719e+01
2.788510024547576904e-01,1.000000000000000000e+00,5.388786315917968750e+00,-8.114591598510742188e+00,3.025717258453369141e+00,-2.053710479736328125e+02,-9.915414428710937500e+01,-1.783642578125000000e+02,4.030399620532989502e-01,-6.667224884033203125e+01,-1.826867065429687500e+02,-2.342819452285766602e+00,7.562197875976562500e+01,3.135619926452636719e+01
2.829230129718780518e-01,1.000000000000000000e+00,5.325889587402343750e+00,-8.061298370361328125e+00,3.035944223403930664e+00,-2.053155670166015625e+02,-9.907997894287109375e+01,-1.783023986816406250e+02,4.030399620532989502e-01,-6.667224884033203125e+01,-1.826867065429687500e+02,-2.342747688293457031e+00,7.562197875976562500e+01,3.135619926452636719e+01
2.869229912757873535e-01,1.000000000000000000e+00,5.262906551361083984e+00,-8.007822990417480469e+00,3.046150922775268555e+00,-2.052606353759765625e+02,-9.900550079345703125e+01,-1.782407073974609375e+02,4.030399620532989502e-01,-6.667224884033203125e+01,-1.826867065429687500e+02,-2.342819452285766602e+00,7.562197875976562500e+01,3.135619926452636719e+01
2.908430099487304688e-01,1.000000000000000000e+00,5.200009822845458984e+00,-7.954417228698730469e+00,3.056479454040527344e+00,-2.052059020996093750e+02,-9.893053436279296875e+01,-1.781777038574218750e+02,4.030399620532989502e-01,-6.667224884033203125e+01,-1.826865997314453125e+02,-2.342891216278076172e+00,7.562197875976562500e+01,3.135619926452636719e+01
2.949250042438507080e-01,1.000000000000000000e+00,5.137084960937500000e+00,-7.900897502899169922e+00,3.066990852355957031e+00,-2.051504974365234375e+02,-9.885616302490234375e+01,-1.781160430908203125e+02,4.030399620532989502e-01,-6.667224884033203125e+01,-1.826867065429687500e+02,-2.342819452285766602e+00,7.562197875976562500e+01,3.135619926452636719e+01
3.004649877548217773e-01,1.000000000000000000e+00,5.074159622192382812e+00,-7.847513675689697266e+00,3.077563524246215820e+00,-2.050956115722656250e+02,-9.878210449218750000e+01,-1.780540008544921875e+02,4.030399620532989502e-01,-6.667224884033203125e+01,-1.826867065429687500e+02,-2.342891216278076172e+00,7.562197875976562500e+01,3.135619926452636719e+01
3.028450012207031250e-01,1.000000000000000000e+00,5.011033058166503906e+00,-7.793948650360107422e+00,3.087932586669921875e+00,-2.050402984619140625e+02,-9.870735168457031250e+01,-1.779913940429687500e+02,4.030399620532989502e-01,-6.667224884033203125e+01,-1.826867065429687500e+02,-2.342747688293457031e+00,7.562197875976562500e+01,3.135619926452636719e+01
3.069170117378234863e-01,1.000000000000000000e+00,4.947820663452148438e+00,-7.740247249603271484e+00,3.098220586776733398e+00,-2.049854736328125000e+02,-9.863276672363281250e+01,-1.779298248291015625e+02,4.030399620532989502e-01,-6.667224884033203125e+01,-1.826867065429687500e+02,-2.342819452285766602e+00,7.562197875976562500e+01,3.135619926452636719e+01
3.108460009098052979e-01,1.000000000000000000e+00,4.884665966033935547e+00,-7.686501026153564453e+00,3.108711719512939453e+00,-2.049312133789062500e+02,-9.855860900878906250e+01,-1.778680419921875000e+02,4.030399620532989502e-01,-6.667234802246093750e+01,-1.826867065429687500e+02,-2.342819452285766602e+00,7.562197875976562500e+01,3.135619926452636719e+01
3.168520033359527588e-01,1.000000000000000000e+00,4.821712017059326172e+00,-7.632574081420898438e+00,3.119263887405395508e+00,-2.048756408691406250e+02,-9.848448944091796875e+01,-1.778059844970703125e+02,4.030399620532989502e-01,-6.667224884033203125e+01,-1.826867065429687500e+02,-2.342819452285766602e+00,7.562197875976562500e+01,3.135619926452636719e+01
3.214119970798492432e-01,1.000000000000000000e+00,4.758499145507812500e+00,-7.578669548034667969e+00,3.129897594451904297e+00,-2.048209686279296875e+02,-9.840953063964843750e+01,-1.777440795898437500e+02,4.030399620532989502e-01,-6.667224884033203125e+01,-1.826867065429687500e+02,-2.342819452285766602e+00,7.562197875976562500e+01,3.135619926452636719e+01
3.257490098476409912e-01,1.000000000000000000e+00,4.695143222808837891e+00,-7.524856090545654297e+00,3.140388727188110352e+00,-2.047657165527343750e+02,-9.833542633056640625e+01,-1.776822967529296875e+02,4.030399620532989502e-01,-6.667234802246093750e+01,-1.826867065429687500e+02,-2.342747688293457031e+00,7.562197875976562500e+01,3.135619926452636719e+01
3.290739953517913818e-01,1.000000000000000000e+00,4.632017135620117188e+00,-7.471064090728759766e+00,3.150717258453369141e+00,-2.047107696533203125e+02,-9.826104736328125000e+01,-1.776200408935546875e+02,4.030399620532989502e-01,-6.667234802246093750e+01,-1.826867065429687500e+02,-2.342819452285766602e+00,7.562197875976562500e+01,3.135619926452636719e+01
3.309459984302520752e-01,1.000000000000000000e+00,4.568804740905761719e+00,-7.417115211486816406e+00,3.161086559295654297e+00,-2.046562500000000000e+02,-9.818714904785156250e+01,-1.775588073730468750e+02,4.030399620532989502e-01,-6.667216491699218750e+01,-1.826867065429687500e+02,-2.342891216278076172e+00,7.562197875976562500e+01,3.135619926452636719e+01
3.349550068378448486e-01,1.000000000000000000e+00,4.505620956420898438e+00,-7.363210201263427734e+00,3.171679258346557617e+00,-2.046011657714843750e+02,-9.811244964599609375e+01,-1.774970855712890625e+02,4.030399620532989502e-01,-6.667224884033203125e+01,-1.826867065429687500e+02,-2.342819452285766602e+00,7.562197875976562500e+01,3.135619926452636719e+01
3.388969898223876953e-01,1.000000000000000000e+00,4.442580699920654297e+00,-7.309215068817138672e+00,3.182231426239013672e+00,-2.045462799072265625e+02,-9.803855895996093750e+01,-1.774349670410156250e+02,4.030399620532989502e-01,-6.667224884033203125e+01,-1.826867065429687500e+02,-2.342819452285766602e+00,7.562197875976562500e+01,3.135642242431640625e+01
3.428579866886138916e-01,1.000000000000000000e+00,4.379426002502441406e+00,-7.255242824554443359e+00,3.192824363708496094e+00,-2.044911804199218750e+02,-9.796412658691406250e+01,-1.773738708496093750e+02,4.030399620532989502e-01,-6.667224884033203125e+01,-1.826867065429687500e+02,-2.342891216278076172e+00,7.562212371826171875e+01,3.135619926452636719e+01
3.496100008487701416e-01,1.000000000000000000e+00,4.316557884216308594e+00,-7.201361179351806641e+00,3.203274965286254883e+00,-2.044359283447265625e+02,-9.788958740234375000e+01,-1.773118133544921875e+02,4.030399620532989502e-01,-6.667224884033203125e+01,-1.826867065429687500e+02,-2.342819452285766602e+00,7.562197875976562500e+01,3.135619926452636719e+01
3.530609905719757080e-01,1.000000000000000000e+00,4.253489017486572266e+00,-7.147592544555664062e+00,3.213644266128540039e+00,-2.043815002441406250e+02,-9.781510925292968750e+01,-1.772493591308593750e+02,4.030399620532989502e-01,-6.667224884033203125e+01,-1.826867065429687500e+02,-2.342819452285766602e+00,7.562197875976562500e+01,3.135619926452636719e+01
3.548589944839477539e-01,1.000000000000000000e+00,4.190477371215820312e+00,-7.093801021575927734e+00,3.224277734756469727e+00,-2.043265228271484375e+02,-9.774099731445312500e+01,-1.771885986328125000e+02,4.030399620532989502e-01,-6.667224884033203125e+01,-1.826867065429687500e+02,-2.342747688293457031e+00,7.562197875976562500e+01,3.135619926452636719e+01
3.610410094261169434e-01,1.000000000000000000e+00,4.127666950225830078e+00,-7.039647579193115234e+00,3.234850168228149414e+00,-2.042714691162109375e+02,-9.766742706298828125e+01,-1.771264648437500000e+02,4.030399620532989502e-01,-6.667224884033203125e+01,-1.826867065429687500e+02,-2.342819452285766602e+00,7.562197875976562500e+01,3.135619926452636719e+01
3.629199862480163574e-01,1.000000000000000000e+00,4.064626693725585938e+00,-6.985675334930419922e+00,3.245524406433105469e+00,-2.042167968750000000e+02,-9.759283447265625000e+01,-1.770638732910156250e+02,4.030399620532989502e-01,-6.667224884033203125e+01,-1.826867065429687500e+02,-2.342819452285766602e+00,7.562197875976562500e+01,3.135619926452636719e+01
3.668630123138427734e-01,1.000000000000000000e+00,4.001787662506103516e+00,-6.931657791137695312e+00,3.255913972854614258e+00,-2.041614837646484375e+02,-9.751803588867187500e+01,-1.770029754638671875e+02,4.030399620532989502e-01,-6.667224884033203125e+01,-1.826867065429687500e+02,-2.342819452285766602e+00,7.562197875976562500e+01,3.135619926452636719e+01
3.744429945945739746e-01,1.000000000000000000e+00,3.938948392868041992e+00,-6.877866744995117188e+00,3.266161203384399414e+00,-2.041068115234375000e+02,-9.744403076171875000e+01,-1.769409790039062500e+02,4.030399620532989502e-01,-6.667224884033203125e+01,-1.826867065429687500e+02,-2.342891216278076172e+00,7.562197875976562500e+01,3.135642242431640625e+01
3.771899938583374023e-01,1.000000000000000000e+00,3.875965595245361328e+00,-6.824029922485351562e+00,3.276632070541381836e+00,-2.040519256591796875e+02,-9.737013244628906250e+01,-1.768778381347656250e+02,4.030399620532989502e-01,-6.667216491699218750e+01,-1.826867065429687500e+02,-2.342819452285766602e+00,7.562197875976562500e+01,3.135619926452636719e+01
3.788500130176544189e-01,1.000000000000000000e+00,3.813212633132934570e+00,-6.770306587219238281e+00,3.287245273590087891e+00,-2.039972991943359375e+02,-9.729612731933593750e+01,-1.768168792724609375e+02,4.030399620532989502e-01,-6.667224884033203125e+01,-1.826867065429687500e+02,-2.342819452285766602e+00,7.562197875976562500e+01,3.135619926452636719e+01
3.851799964904785156e-01,1.000000000000000000e+00,3.813212633132934570e+00,-6.770306587219238281e+00,3.287245273590087891e+00,-2.039972991943359375e+02,-9.729612731933593750e+01,-1.768168792724609375e+02,4.030399620532989502e-01,-6.667224884033203125e+01,-1.826867065429687500e+02,-2.342747688293457031e+00,7.562197875976562500e+01,3.135619926452636719e+01
3.869000077247619629e-01,1.000000000000000000e+00,3.687706232070922852e+00,-6.662837028503417969e+00,3.308309078216552734e+00,-2.038870544433593750e+02,-9.714694976806640625e+01,-1.766929779052734375e+02,4.030399620532989502e-01,-6.667216491699218750e+01,-1.826867065429687500e+02,-2.342891216278076172e+00,7.562197875976562500e+01,3.135598182678222656e+01
3.933809995651245117e-01,1.000000000000000000e+00,3.687706232070922852e+00,-6.662837028503417969e+00,3.308309078216552734e+00,-2.038870544433593750e+02,-9.714694976806640625e+01,-1.766929779052734375e+02,4.030399620532989502e-01,-6.667234802246093750e+01,-1.826867065429687500e+02,-2.342747688293457031e+00,7.562197875976562500e+01,3.135619926452636719e+01
3.948830068111419678e-01,1.000000000000000000e+00,3.562257766723632812e+00,-6.555571079254150391e+00,3.329087972640991211e+00,-2.037779693603515625e+02,-9.699868011474609375e+01,-1.765694885253906250e+02,4.030399620532989502e-01,-6.667234802246093750e+01,-1.826867065429687500e+02,-2.342819452285766602e+00,7.562197875976562500e+01,3.135619926452636719e+01
4.019509851932525635e-01,1.000000000000000000e+00,3.562257766723632812e+00,-6.555571079254150391e+00,3.329087972640991211e+00,-2.037779693603515625e+02,-9.699868011474609375e+01,-1.765694885253906250e+02,4.030399620532989502e-01,-6.667234802246093750e+01,-1.826867065429687500e+02,-2.342819452285766602e+00,7.562197875976562500e+01,3.135619926452636719e+01
4.038639962673187256e-01,1.000000000000000000e+00,3.436779975891113281e+00,-6.448576927185058594e+00,3.350233316421508789e+00,-2.036677703857421875e+02,-9.685018920898437500e+01,-1.764459381103515625e+02,4.030399620532989502e-01,-6.667224884033203125e+01,-1.826867065429687500e+02,-2.342891216278076172e+00,7.562197875976562500e+01,3.135619926452636719e+01
4.068959951400756836e-01,1.000000000000000000e+00,3.373768568038940430e+00,-6.395102500915527344e+00,3.360724449157714844e+00,-2.036126861572265625e+02,-9.677576446533203125e+01,-1.763842773437500000e+02,4.030399620532989502e-01,-6.667234802246093750e+01,-1.826867065429687500e+02,-2.342891216278076172e+00,7.562212371826171875e+01,3.135619926452636719e+01
4.135600030422210693e-01,1.000000000000000000e+00,3.373768568038940430e+00,-6.395102500915527344e+00,3.360724449157714844e+00,-2.036126861572265625e+02,-9.677576446533203125e+01,-1.763842773437500000e+02,4.030399620532989502e-01,-6.667234802246093750e+01,-1.826867065429687500e+02,-2.342891216278076172e+00,7.562212371826171875e+01,3.135619926452636719e+01
4.158729910850524902e-01,1.000000000000000000e+00,3.247946739196777344e+00,-6.287881851196289062e+00,3.381096839904785156e+00,-2.035037536621093750e+02,-9.662610626220703125e+01,-1.762607116699218750e+02,4.030399620532989502e-01,-6.667224884033203125e+01,-1.826867065429687500e+02,-2.342819452285766602e+00,7.562197875976562500e+01,3.135619926452636719e+01
4.188619852066040039e-01,1.000000000000000000e+00,3.185107469558715820e+00,-6.234113216400146484e+00,3.391628742218017578e+00,-2.034486541748046875e+02,-9.655279541015625000e+01,-1.761986694335937500e+02,4.030399620532989502e-01,-6.667216491699218750e+01,-1.826867065429687500e+02,-2.342747688293457031e+00,7.562197875976562500e+01,3.135619926452636719e+01
4.239000082015991211e-01,1.000000000000000000e+00,3.185107469558715820e+00,-6.234113216400146484e+00,3.391628742218017578e+00,-2.034486541748046875e+02,-9.655279541015625000e+01,-1.761986694335937500e+02,4.030399620532989502e-01,-6.667216491699218750e+01,-1.826867065429687500e+02,-2.342747688293457031e+00,7.562197875976562500e+01,3.135619926452636719e+01
4.268519878387451172e-01,1.000000000000000000e+00,3.058826208114624023e+00,-6.126440048217773438e+00,3.412875413894653320e+00,-2.033389282226562500e+02,-9.640404510498046875e+01,-1.760754394531250000e+02,4.030399620532989502e-01,-6.667234802246093750e+01,-1.826867065429687500e+02,-2.342819452285766602e+00,7.562197875976562500e+01,3.135619926452636719e+01
4.319509863853454590e-01,1.000000000000000000e+00,3.058826208114624023e+00,-6.126440048217773438e+00,3.412875413894653320e+00,-2.033389282226562500e+02,-9.640404510498046875e+01,-1.760754394531250000e+02,4.030399620532989502e-01,-6.667234802246093750e+01,-1.826867065429687500e+02,-2.342819452285766602e+00,7.562197875976562500e+01,3.135619926452636719e+01
4.349339902400970459e-01,1.000000000000000000e+00,2.932458639144897461e+00,-6.019105911254882812e+00,3.433512210845947266e+00,-2.032293243408203125e+02,-9.625560760498046875e+01,-1.759505920410156250e+02,4.030399620532989502e-01,-6.667224884033203125e+01,-1.826867065429687500e+02,-2.342819452285766602e+00,7.562197875976562500e+01,3.135619926452636719e+01
4.398970007896423340e-01,1.000000000000000000e+00,2.932458639144897461e+00,-6.019105911254882812e+00,3.433512210845947266e+00,-2.032293243408203125e+02,-9.625560760498046875e+01,-1.759505920410156250e+02,4.030399620532989502e-01,-6.667224884033203125e+01,-1.826867065429687500e+02,-2.342819452285766602e+00,7.562197875976562500e+01,3.135619926452636719e+01
4.428389966487884521e-01,1.000000000000000000e+00,2.806148767471313477e+00,-5.911320209503173828e+00,3.454718351364135742e+00,-2.031196441650390625e+02,-9.610717773437500000e+01,-1.758274383544921875e+02,4.030399620532989502e-01,-6.667224884033203125e+01,-1.826867065429687500e+02,-2.342747688293457031e+00,7.562212371826171875e+01,3.135619926452636719e+01
4.479149878025054932e-01,1.000000000000000000e+00,2.806148767471313477e+00,-5.911320209503173828e+00,3.454718351364135742e+00,-2.031196441650390625e+02,-9.610717773437500000e+01,-1.758274383544921875e+02,4.030399620532989502e-01,-6.667224884033203125e+01,-1.826867065429687500e+02,-2.342747688293457031e+00,7.562212371826171875e+01,3.135619926452636719e+01
4.508410096168518066e-01,1.000000000000000000e+00,2.679781436920166016e+00,-5.803647041320800781e+00,3.475863456726074219e+00,-2.030099334716796875e+02,-9.595832061767578125e+01,-1.757040100097656250e+02,4.030399620532989502e-01,-6.667224884033203125e+01,-1.826867065429687500e+02,-2.342819452285766602e+00,7.562197875976562500e+01,3.135619926452636719e+01
4.559549987316131592e-01,1.000000000000000000e+00,2.679781436920166016e+00,-5.803647041320800781e+00,3.475863456726074219e+00,-2.030099334716796875e+02,-9.595832061767578125e+01,-1.757040100097656250e+02,4.030399620532989502e-01,-6.667224884033203125e+01,-1.826867065429687500e+02,-2.342819452285766602e+00,7.562197875976562500e+01,3.135619926452636719e+01
4.589110016822814941e-01,1.000000000000000000e+00,2.553528785705566406e+00,-5.696109294891357422e+00,3.496601819992065430e+00,-2.029007263183593750e+02,-9.580983734130859375e+01,-1.755801086425781250e+02,4.030399620532989502e-01,-6.667224884033203125e+01,-1.826867065429687500e+02,-2.342891216278076172e+00,7.562197875976562500e+01,3.135619926452636719e+01
4.638980031013488770e-01,1.000000000000000000e+00,2.553528785705566406e+00,-5.696109294891357422e+00,3.496601819992065430e+00,-2.029007263183593750e+02,-9.580983734130859375e+01,-1.755801086425781250e+02,4.030399620532989502e-01,-6.667224884033203125e+01,-1.826867065429687500e+02,-2.342891216278076172e+00,7.562197875976562500e+01,3.135619926452636719e+01
4.668850004673004150e-01,1.000000000000000000e+00,2.427161216735839844e+00,-5.588549137115478516e+00,3.517868995666503906e+00,-2.027908630371093750e+02,-9.566097259521484375e+01,-1.754567413330078125e+02,4.030399620532989502e-01,-6.667224884033203125e+01,-1.826867065429687500e+02,-2.342819452285766602e+00,7.562212371826171875e+01,3.135598182678222656e+01
4.719249904155731201e-01,1.000000000000000000e+00,2.427161216735839844e+00,-5.588549137115478516e+00,3.517868995666503906e+00,-2.027908630371093750e+02,-9.566097259521484375e+01,-1.754567413330078125e+02,4.030399620532989502e-01,-6.667224884033203125e+01,-1.826867065429687500e+02,-2.342819452285766602e+00,7.562212371826171875e+01,3.135598182678222656e+01
4.748939871788024902e-01,1.000000000000000000e+00,2.300794124603271484e+00,-5.480649948120117188e+00,3.538587093353271484e+00,-2.026812438964843750e+02,-9.551270294189453125e+01,-1.753338012695312500e+02,4.030399620532989502e-01,-6.667224884033203125e+01,-1.826867065429687500e+02,-2.342819452285766602e+00,7.562197875976562500e+01,3.135619926452636719e+01
4.798960089683532715e-01,1.000000000000000000e+00,2.300794124603271484e+00,-5.480649948120117188e+00,3.538587093353271484e+00,-2.026812438964843750e+02,-9.551270294189453125e+01,-1.753338012695312500e+02,4.030399620532989502e-01,-6.667224884033203125e+01,-1.826867065429687500e+02,-2.342819452285766602e+00,7.562197875976562500e+01,3.135619926452636719e+01
4.839079976081848145e-01,1.000000000000000000e+00,2.174713611602783203e+00,-5.372886180877685547e+00,3.559630393981933594e+00,-2.025713043212890625e+02,-9.536416625976562500e+01,-1.752100982666015625e+02,4.030399620532989502e-01,-6.667224884033203125e+01,-1.826867065429687500e+02,-2.342747688293457031e+00,7.562197875976562500e+01,3.135619926452636719e+01
4.869160056114196777e-01,1.000000000000000000e+00,2.111673355102539062e+00,-5.319094657897949219e+00,3.570182561874389648e+00,-2.025170593261718750e+02,-9.529042816162109375e+01,-1.751489410400390625e+02,4.030399620532989502e-01,-6.667234802246093750e+01,-1.826867065429687500e+02,-2.342891216278076172e+00,7.562197875976562500e+01,3.135619926452636719e+01
4.918960034847259521e-01,1.000000000000000000e+00,2.111673355102539062e+00,-5.319094657897949219e+00,3.570182561874389648e+00,-2.025170593261718750e+02,-9.529042816162109375e+01,-1.751489410400390625e+02,4.030399620532989502e-01,-6.667234802246093750e+01,-1.826867065429687500e+02,-2.342891216278076172e+00,7.562197875976562500e+01,3.135619926452636719e+01
4.959309995174407959e-01,1.000000000000000000e+00,1.985679268836975098e+00,-5.211783409118652344e+00,3.591165065765380859e+00,-2.024072418212890625e+02,-9.514119720458984375e+01,-1.750254364013671875e+02,4.030399620532989502e-01,-6.667224884033203125e+01,-1.826867065429687500e+02,-2.342819452285766602e+00,7.562197875976562500e+01,3.135619926452636719e+01
4.989190101623535156e-01,1.000000000000000000e+00,1.922868847846984863e+00,-5.157992362976074219e+00,3.601371288299560547e+00,-2.023524627685546875e+02,-9.506729888916015625e+01,-1.749637908935546875e+02,4.030399620532989502e-01,-6.667234802246093750e+01,-1.826867065429687500e+02,-2.342891216278076172e+00,7.562197875976562500e+01,3.135619926452636719e+01
5.038920044898986816e-01,1.000000000000000000e+00,1.922868847846984863e+00,-5.157992362976074219e+00,3.601371288299560547e+00,-2.023524627685546875e+02,-9.506729888916015625e+01,-1.749637908935546875e+02,4.030399620532989502e-01,-6.667234802246093750e+01,-1.826867065429687500e+02,-2.342891216278076172e+00,7.562197875976562500e+01,3.135619926452636719e+01
5.079399943351745605e-01,1.000000000000000000e+00,1.797305226325988770e+00,-5.050658702850341797e+00,3.622415304183959961e+00,-2.022430572509765625e+02,-9.491892242431640625e+01,-1.748396148681640625e+02,4.030399620532989502e-01,-6.667224884033203125e+01,-1.826867065429687500e+02,-2.342891216278076172e+00,7.562197875976562500e+01,3.135619926452636719e+01
5.128579735755920410e-01,1.000000000000000000e+00,1.734781742095947266e+00,-4.997251987457275391e+00,3.632987499237060547e+00,-2.021879425048828125e+02,-9.484481048583984375e+01,-1.747784576416015625e+02,4.030399620532989502e-01,-6.667234802246093750e+01,-1.826867065429687500e+02,-2.342819452285766602e+00,7.562197875976562500e+01,3.135619926452636719e+01
5.154669880867004395e-01,1.000000000000000000e+00,1.671741485595703125e+00,-4.943845748901367188e+00,3.643336534500122070e+00,-2.021325378417968750e+02,-9.477065277099609375e+01,-1.747170104980468750e+02,4.030399620532989502e-01,-6.667224884033203125e+01,-1.826867065429687500e+02,-2.342747688293457031e+00,7.562197875976562500e+01,3.135619926452636719e+01
5.205709934234619141e-01,1.000000000000000000e+00,1.671741485595703125e+00,-4.943845748901367188e+00,3.643336534500122070e+00,-2.021325378417968750e+02,-9.477065277099609375e+01,-1.747170104980468750e+02,4.030399620532989502e-01,-6.667224884033203125e+01,-1.826867065429687500e+02,-2.342747688293457031e+00,7.562197875976562500e+01,3.135619926452636719e+01
5.238779783248901367e-01,1.000000000000000000e+00,1.546752095222473145e+00,-4.836828708648681641e+00,3.664196729660034180e+00,-2.020236663818359375e+02,-9.462227630615234375e+01,-1.745924987792968750e+02,4.030399620532989502e-01,-6.667224884033203125e+01,-1.826867065429687500e+02,-2.342747688293457031e+00,7.562197875976562500e+01,3.135619926452636719e+01
5.289490222930908203e-01,1.000000000000000000e+00,1.546752095222473145e+00,-4.836828708648681641e+00,3.664196729660034180e+00,-2.020236663818359375e+02,-9.462227630615234375e+01,-1.745924987792968750e+02,4.030399620532989502e-01,-6.667224884033203125e+01,-1.826867065429687500e+02,-2.342747688293457031e+00,7.562197875976562500e+01,3.135619926452636719e+01
5.314369797706604004e-01,1.000000000000000000e+00,1.421188473701477051e+00,-4.729449748992919922e+00,3.685199499130249023e+00,-2.019139862060546875e+02,-9.447421264648437500e+01,-1.744692687988281250e+02,4.030399620532989502e-01,-6.667224884033203125e+01,-1.826867065429687500e+02,-2.342747688293457031e+00,7.562212371826171875e+01,3.135619926452636719e+01
5.358960032463073730e-01,1.000000000000000000e+00,1.421188473701477051e+00,-4.729449748992919922e+00,3.685199499130249023e+00,-2.019139862060546875e+02,-9.447421264648437500e+01,-1.744692687988281250e+02,4.030399620532989502e-01,-6.667224884033203125e+01,-1.826867065429687500e+02,-2.342747688293457031e+00,7.562212371826171875e+01,3.135619926452636719e+01
5.399540066719055176e-01,1.000000000000000000e+00,1.358607530593872070e+00,-4.675839424133300781e+00,3.695548534393310547e+00,-2.018587493896484375e+02,-9.440000152587890625e+01,-1.744081573486328125e+02,4.030399620532989502e-01,-6.667224884033203125e+01,-1.826865997314453125e+02,-2.342819452285766602e+00,7.562197875976562500e+01,3.135619926452636719e+01
5.466449856758117676e-01,1.000000000000000000e+00,1.295883178710937500e+00,-4.622093200683593750e+00,3.705734491348266602e+00,-2.018039550781250000e+02,-9.432588195800781250e+01,-1.743467254638671875e+02,4.030399620532989502e-01,-6.667224884033203125e+01,-1.826865997314453125e+02,-2.342747688293457031e+00,7.562197875976562500e+01,3.135598182678222656e+01
5.481449961662292480e-01,1.000000000000000000e+00,1.170348286628723145e+00,-4.514873027801513672e+00,3.726513624191284180e+00,-2.016945037841796875e+02,-9.417873382568359375e+01,-1.742234344482421875e+02,4.030399620532989502e-01,-6.667224884033203125e+01,-1.826867065429687500e+02,-2.342819452285766602e+00,7.562197875976562500e+01,3.135619926452636719e+01
5.518990159034729004e-01,1.000000000000000000e+00,1.170348286628723145e+00,-4.514873027801513672e+00,3.726513624191284180e+00,-2.016945037841796875e+02,-9.417873382568359375e+01,-1.742234344482421875e+02,4.030399620532989502e-01,-6.667224884033203125e+01,-1.826867065429687500e+02,-2.342819452285766602e+00,7.562197875976562500e+01,3.135619926452636719e+01
5.559409856796264648e-01,1.000000000000000000e+00,1.107365608215332031e+00,-4.461126804351806641e+00,3.736984729766845703e+00,-2.016398773193359375e+02,-9.410424804687500000e+01,-1.741628112792968750e+02,4.030399620532989502e-01,-6.667224884033203125e+01,-1.826867065429687500e+02,-2.342747688293457031e+00,7.562212371826171875e+01,3.135619926452636719e+01
5.598999857902526855e-01,1.000000000000000000e+00,1.044641137123107910e+00,-4.407425880432128906e+00,3.747516632080078125e+00,-2.015846710205078125e+02,-9.402966308593750000e+01,-1.741004791259765625e+02,4.030399620532989502e-01,-6.667234802246093750e+01,-1.826867065429687500e+02,-2.342819452285766602e+00,7.562197875976562500e+01,3.135619926452636719e+01
5.639039874076843262e-01,1.000000000000000000e+00,9.817157983779907227e-01,-4.353725433349609375e+00,3.757845163345336914e+00,-2.015302734375000000e+02,-9.395592498779296875e+01,-1.740389709472656250e+02,4.028751850128173828e-01,-6.667224884033203125e+01,-1.826867065429687500e+02,-2.342819452285766602e+00,7.562197875976562500e+01,3.135619926452636719e+01
5.686529874801635742e-01,1.000000000000000000e+00,9.189627170562744141e-01,-4.300092220306396484e+00,3.768193960189819336e+00,-2.014759521484375000e+02,-9.388224029541015625e+01,-1.739773254394531250e+02,4.030399620532989502e-01,-6.667224884033203125e+01,-1.826867065429687500e+02,-2.342819452285766602e+00,7.562197875976562500e+01,3.135619926452636719e+01
5.718439817428588867e-01,1.000000000000000000e+00,7.933416962623596191e-01,-4.192758560180664062e+00,3.789420604705810547e+00,-2.013660888671875000e+02,-9.373381042480468750e+01,-1.738538970947265625e+02,4.030399620532989502e-01,-6.667234802246093750e+01,-1.826867065429687500e+02,-2.342747688293457031e+00,7.562197875976562500e+01,3.135619926452636719e+01
5.758889913558959961e-01,1.000000000000000000e+00,7.933416962623596191e-01,-4.192758560180664062e+00,3.789420604705810547e+00,-2.013660888671875000e+02,-9.373381042480468750e+01,-1.738538970947265625e+02,4.030399620532989502e-01,-6.667234802246093750e+01,-1.826867065429687500e+02,-2.342747688293457031e+00,7.562197875976562500e+01,3.135619926452636719e+01
5.799660086631774902e-01,1.000000000000000000e+00,7.304163575172424316e-01,-4.139261245727539062e+00,3.799972772598266602e+00,-2.013111877441406250e+02,-9.365954589843750000e+01,-1.737926635742187500e+02,4.030399620532989502e-01,-6.667224884033203125e+01,-1.826867065429687500e+02,-2.342819452285766602e+00,7.562197875976562500e+01,3.135598182678222656e+01
5.829880237579345703e-01,1.000000000000000000e+00,6.674622893333435059e-01,-4.085311412811279297e+00,3.810341835021972656e+00,-2.012564239501953125e+02,-9.358591461181640625e+01,-1.737295989990234375e+02,4.030399620532989502e-01,-6.667224884033203125e+01,-1.826867065429687500e+02,-2.342819452285766602e+00,7.562197875976562500e+01,3.135598182678222656e+01
5.878909826278686523e-01,1.000000000000000000e+00,6.044508218765258789e-01,-4.031429767608642578e+00,3.820649862289428711e+00,-2.012021026611328125e+02,-9.351185607910156250e+01,-1.736682128906250000e+02,4.030399620532989502e-01,-6.667224884033203125e+01,-1.826867065429687500e+02,-2.342819452285766602e+00,7.562197875976562500e+01,3.135619926452636719e+01
5.926380157470703125e-01,1.000000000000000000e+00,5.416116118431091309e-01,-3.977479934692382812e+00,3.831079959869384766e+00,-2.011468963623046875e+02,-9.343704986572265625e+01,-1.736065673828125000e+02,4.030399620532989502e-01,-6.667224884033203125e+01,-1.826867065429687500e+02,-2.342819452285766602e+00,7.562197875976562500e+01,3.135619926452636719e+01
5.958709716796875000e-01,1.000000000000000000e+00,4.156173765659332275e-01,-3.869874715805053711e+00,3.852042436599731445e+00,-2.010375976562500000e+02,-9.328946685791015625e+01,-1.734830780029296875e+02,4.030399620532989502e-01,-6.667224884033203125e+01,-1.826867065429687500e+02,-2.342891216278076172e+00,7.562197875976562500e+01,3.135619926452636719e+01
5.998970270156860352e-01,1.000000000000000000e+00,4.156173765659332275e-01,-3.869874715805053711e+00,3.852042436599731445e+00,-2.010375976562500000e+02,-9.328946685791015625e+01,-1.734830780029296875e+02,4.030399620532989502e-01,-6.667224884033203125e+01,-1.826867065429687500e+02,-2.342891216278076172e+00,7.562197875976562500e+01,3.135619926452636719e+01
6.039410233497619629e-01,1.000000000000000000e+00,3.526346385478973389e-01,-3.816083431243896484e+00,3.862432003021240234e+00,-2.009828338623046875e+02,-9.321520233154296875e+01,-1.734212188720703125e+02,4.030399620532989502e-01,-6.667216491699218750e+01,-1.826867065429687500e+02,-2.342747688293457031e+00,7.562197875976562500e+01,3.135619926452636719e+01
6.071349978446960449e-01,1.000000000000000000e+00,2.894222140312194824e-01,-3.762495994567871094e+00,3.872719764709472656e+00,-2.009285125732421875e+02,-9.314035034179687500e+01,-1.733593902587890625e+02,4.030399620532989502e-01,-6.667224884033203125e+01,-1.826867065429687500e+02,-2.342819452285766602e+00,7.562212371826171875e+01,3.135619926452636719e+01
6.110960245132446289e-01,1.000000000000000000e+00,2.264968901872634888e-01,-3.708500862121582031e+00,3.883068561553955078e+00,-2.008734741210937500e+02,-9.306719207763671875e+01,-1.732981414794921875e+02,4.030399620532989502e-01,-6.667224884033203125e+01,-1.826867065429687500e+02,-2.342747688293457031e+00,7.562197875976562500e+01,3.135619926452636719e+01
6.165509819984436035e-01,1.000000000000000000e+00,1.635715663433074951e-01,-3.654800176620483398e+00,3.893620729446411133e+00,-2.008189086914062500e+02,-9.299298858642578125e+01,-1.732358856201171875e+02,4.030399620532989502e-01,-6.667224884033203125e+01,-1.826867065429687500e+02,-2.342819452285766602e+00,7.562197875976562500e+01,3.135619926452636719e+01
6.208599805831909180e-01,1.000000000000000000e+00,1.006175130605697632e-01,-3.601234674453735352e+00,3.904233932495117188e+00,-2.007642211914062500e+02,-9.291903686523437500e+01,-1.731738281250000000e+02,4.030399620532989502e-01,-6.667224884033203125e+01,-1.826867065429687500e+02,-2.342819452285766602e+00,7.562197875976562500e+01,3.135598182678222656e+01
6.239110231399536133e-01,1.000000000000000000e+00,-2.529058232903480530e-02,-3.494127511978149414e+00,3.925033569335937500e+00,-2.006547698974609375e+02,-9.277039337158203125e+01,-1.730515594482421875e+02,4.030399620532989502e-01,-6.667224884033203125e+01,-1.826867065429687500e+02,-2.342819452285766602e+00,7.562197875976562500e+01,3.135619926452636719e+01
6.279060244560241699e-01,1.000000000000000000e+00,-2.529058232903480530e-02,-3.494127511978149414e+00,3.925033569335937500e+00,-2.006547698974609375e+02,-9.277039337158203125e+01,-1.730515594482421875e+02,4.030399620532989502e-01,-6.667224884033203125e+01,-1.826867065429687500e+02,-2.342819452285766602e+00,7.562197875976562500e+01,3.135619926452636719e+01
6.319410204887390137e-01,1.000000000000000000e+00,-8.812979608774185181e-02,-3.440585136413574219e+00,3.935382604598999023e+00,-2.005999755859375000e+02,-9.269627380371093750e+01,-1.729899749755859375e+02,4.030399620532989502e-01,-6.667224884033203125e+01,-1.826867065429687500e+02,-2.342819452285766602e+00,7.562212371826171875e+01,3.135619926452636719e+01
6.358900070190429688e-01,1.000000000000000000e+00,-1.506532430648803711e-01,-3.387223720550537109e+00,3.945893764495849609e+00,-2.005456237792968750e+02,-9.262222290039062500e+01,-1.729292144775390625e+02,4.030399620532989502e-01,-6.667234802246093750e+01,-1.826867065429687500e+02,-2.342819452285766602e+00,7.562212371826171875e+01,3.135642242431640625e+01
6.406139731407165527e-01,1.000000000000000000e+00,-2.134350538253784180e-01,-3.333590745925903320e+00,3.956425905227661133e+00,-2.004913330078125000e+02,-9.254714965820312500e+01,-1.728679046630859375e+02,4.030399620532989502e-01,-6.667234802246093750e+01,-1.826867065429687500e+02,-2.342819452285766602e+00,7.562212371826171875e+01,3.135619926452636719e+01
6.439440250396728516e-01,1.000000000000000000e+00,-2.761881351470947266e-01,-3.279799699783325195e+00,3.966978073120117188e+00,-2.004356994628906250e+02,-9.247331237792968750e+01,-1.728052520751953125e+02,4.030399620532989502e-01,-6.667224884033203125e+01,-1.826867065429687500e+02,-2.342819452285766602e+00,7.562197875976562500e+01,3.135619926452636719e+01
6.473420262336730957e-01,1.000000000000000000e+00,-3.389699757099151611e-01,-3.226257085800170898e+00,3.977204799652099609e+00,-2.003810119628906250e+02,-9.239973449707031250e+01,-1.727442779541015625e+02,4.030399620532989502e-01,-6.667224884033203125e+01,-1.826867065429687500e+02,-2.342819452285766602e+00,7.562197875976562500e+01,3.135619926452636719e+01
6.512119770050048828e-01,1.000000000000000000e+00,-4.016943275928497314e-01,-3.172579050064086914e+00,3.987411499023437500e+00,-2.003270263671875000e+02,-9.232519531250000000e+01,-1.726827087402343750e+02,4.030399620532989502e-01,-6.667224884033203125e+01,-1.826867065429687500e+02,-2.342891216278076172e+00,7.562197875976562500e+01,3.135619926452636719e+01
6.554489731788635254e-01,1.000000000000000000e+00,-4.643326401710510254e-01,-3.118946075439453125e+00,3.997882127761840820e+00,-2.002717742919921875e+02,-9.225071716308593750e+01,-1.726201171875000000e+02,4.030399620532989502e-01,-6.667224884033203125e+01,-1.826867065429687500e+02,-2.342891216278076172e+00,7.562197875976562500e+01,3.135619926452636719e+01
6.599060297012329102e-01,1.000000000000000000e+00,-5.272292494773864746e-01,-3.065267801284790039e+00,4.008393764495849609e+00,-2.002174682617187500e+02,-9.217681884765625000e+01,-1.725594024658203125e+02,4.030399620532989502e-01,-6.667224884033203125e+01,-1.826867065429687500e+02,-2.342891216278076172e+00,7.562212371826171875e+01,3.135619926452636719e+01
6.649889945983886719e-01,1.000000000000000000e+00,-5.899823307991027832e-01,-3.011770963668823242e+00,4.019007205963134766e+00,-2.001622619628906250e+02,-9.210313415527343750e+01,-1.724980468750000000e+02,4.030399620532989502e-01,-6.667224884033203125e+01,-1.826867065429687500e+02,-2.342819452285766602e+00,7.562197875976562500e+01,3.135619926452636719e+01
6.688809990882873535e-01,1.000000000000000000e+00,-6.527354717254638672e-01,-2.958273649215698242e+00,4.029335498809814453e+00,-2.001073760986328125e+02,-9.202891540527343750e+01,-1.724350433349609375e+02,4.030399620532989502e-01,-6.667224884033203125e+01,-1.826867065429687500e+02,-2.342819452285766602e+00,7.562197875976562500e+01,3.135619926452636719e+01
6.719139814376831055e-01,1.000000000000000000e+00,-7.156320810317993164e-01,-2.904663562774658203e+00,4.039461135864257812e+00,-2.000535888671875000e+02,-9.195433044433593750e+01,-1.723740539550781250e+02,4.030399620532989502e-01,-6.667224884033203125e+01,-1.826867065429687500e+02,-2.342819452285766602e+00,7.562197875976562500e+01,3.135619926452636719e+01
6.758980154991149902e-01,1.000000000000000000e+00,-7.785574197769165039e-01,-2.851075649261474609e+00,4.049748420715332031e+00,-1.999987640380859375e+02,-9.188027191162109375e+01,-1.723129577636718750e+02,4.030399620532989502e-01,-6.667234802246093750e+01,-1.826867065429687500e+02,-2.342819452285766602e+00,7.562197875976562500e+01,3.135619926452636719e+01
6.799910068511962891e-01,1.000000000000000000e+00,-8.413679599761962891e-01,-2.797533512115478516e+00,4.060240268707275391e+00,-1.999440307617187500e+02,-9.180675506591796875e+01,-1.722506408691406250e+02,4.030399620532989502e-01,-6.667234802246093750e+01,-1.826867065429687500e+02,-2.342819452285766602e+00,7.562197875976562500e+01,3.135619926452636719e+01
6.838930249214172363e-01,1.000000000000000000e+00,-9.044368267059326172e-01,-2.743968248367309570e+00,4.070954799652099609e+00,-1.998892059326171875e+02,-9.173237609863281250e+01,-1.721893920898437500e+02,4.030399620532989502e-01,-6.667224884033203125e+01,-1.826867065429687500e+02,-2.342819452285766602e+00,7.562197875976562500e+01,3.135619926452636719e+01
6.883360147476196289e-01,1.000000000000000000e+00,-9.671611785888671875e-01,-2.690652370452880859e+00,4.081364631652832031e+00,-1.998342132568359375e+02,-9.165816497802734375e+01,-1.721283569335937500e+02,4.030399620532989502e-01,-6.667224884033203125e+01,-1.826867065429687500e+02,-2.342747688293457031e+00,7.562197875976562500e+01,3.135598182678222656e+01
6.928690075874328613e-01,1.000000000000000000e+00,-1.029885649681091309e+00,-2.637109756469726562e+00,4.091591358184814453e+00,-1.997800140380859375e+02,-9.158415985107421875e+01,-1.720657043457031250e+02,4.030399620532989502e-01,-6.667234802246093750e+01,-1.826867065429687500e+02,-2.342819452285766602e+00,7.562197875976562500e+01,3.135619926452636719e+01
6.958919763565063477e-01,1.000000000000000000e+00,-1.092581272125244141e+00,-2.583364009857177734e+00,4.101879596710205078e+00,-1.997250213623046875e+02,-9.151079559326171875e+01,-1.720047302246093750e+02,4.030399620532989502e-01,-6.667224884033203125e+01,-1.826867065429687500e+02,-2.342819452285766602e+00,7.562197875976562500e+01,3.135619926452636719e+01
6.999009847640991211e-01,1.000000000000000000e+00,-1.155363082885742188e+00,-2.529549837112426758e+00,4.112350463867187500e+00,-1.996703338623046875e+02,-9.143641662597656250e+01,-1.719435729980468750e+02,4.030399620532989502e-01,-6.667224884033203125e+01,-1.826867065429687500e+02,-2.342819452285766602e+00,7.562197875976562500e+01,3.135619926452636719e+01
7.039650082588195801e-01,1.000000000000000000e+00,-1.218288421630859375e+00,-2.475645303726196289e+00,4.122943401336669922e+00,-1.996160888671875000e+02,-9.136199188232421875e+01,-1.718813781738281250e+02,4.030399620532989502e-01,-6.667224884033203125e+01,-1.826867065429687500e+02,-2.342819452285766602e+00,7.562197875976562500e+01,3.135619926452636719e+01
7.079719901084899902e-01,1.000000000000000000e+00,-1.281127572059631348e+00,-2.422034978866577148e+00,4.133556365966796875e+00,-1.995609893798828125e+02,-9.128804016113281250e+01,-1.718206787109375000e+02,4.030399620532989502e-01,-6.667224884033203125e+01,-1.826867065429687500e+02,-2.342819452285766602e+00,7.562197875976562500e+01,3.135619926452636719e+01
7.125380039215087891e-01,1.000000000000000000e+00,-1.343938112258911133e+00,-2.368402242660522461e+00,4.143864631652832031e+00,-1.995066833496093750e+02,-9.121467590332031250e+01,-1.717590332031250000e+02,4.030399620532989502e-01,-6.667224884033203125e+01,-1.826867065429687500e+02,-2.342819452285766602e+00,7.562197875976562500e+01,3.135619926452636719e+01
7.168539762496948242e-01,1.000000000000000000e+00,-1.406806111335754395e+00,-2.314859867095947266e+00,4.154091835021972656e+00,-1.994522247314453125e+02,-9.114067077636718750e+01,-1.716972503662109375e+02,4.030399620532989502e-01,-6.667224884033203125e+01,-1.826867065429687500e+02,-2.342819452285766602e+00,7.562197875976562500e+01,3.135619926452636719e+01
7.199590206146240234e-01,1.000000000000000000e+00,-1.469645261764526367e+00,-2.261068344116210938e+00,4.164481163024902344e+00,-1.993969726562500000e+02,-9.106703948974609375e+01,-1.716360778808593750e+02,4.030399620532989502e-01,-6.667224884033203125e+01,-1.826867065429687500e+02,-2.342819452285766602e+00,7.562197875976562500e+01,3.135619926452636719e+01
7.239599823951721191e-01,1.000000000000000000e+00,-1.532455801963806152e+00,-2.207299947738647461e+00,4.175013065338134766e+00,-1.993424987792968750e+02,-9.099325561523437500e+01,-1.715743713378906250e+02,4.030399620532989502e-01,-6.667234802246093750e+01,-1.826867065429687500e+02,-2.342747688293457031e+00,7.562197875976562500e+01,3.135619926452636719e+01
7.281209826469421387e-01,1.000000000000000000e+00,-1.595438599586486816e+00,-2.153689622879028320e+00,4.185605525970458984e+00,-1.992876739501953125e+02,-9.091893005371093750e+01,-1.715122528076171875e+02,4.030399620532989502e-01,-6.667224884033203125e+01,-1.826867065429687500e+02,-2.342819452285766602e+00,7.562197875976562500e+01,3.135619926452636719e+01
7.320870161056518555e-01,1.000000000000000000e+00,-1.658163070678710938e+00,-2.099988698959350586e+00,4.195954799652099609e+00,-1.992332000732421875e+02,-9.084509277343750000e+01,-1.714510192871093750e+02,4.030399620532989502e-01,-6.667224884033203125e+01,-1.826867065429687500e+02,-2.342819452285766602e+00,7.562197875976562500e+01,3.135598182678222656e+01
7.366060018539428711e-01,1.000000000000000000e+00,-1.720887303352355957e+00,-2.046491622924804688e+00,4.206099987030029297e+00,-1.991785736083984375e+02,-9.077124786376953125e+01,-1.713892211914062500e+02,4.030399620532989502e-01,-6.667224884033203125e+01,-1.826867065429687500e+02,-2.342891216278076172e+00,7.562197875976562500e+01,3.135619926452636719e+01
7.401580214500427246e-01,1.000000000000000000e+00,-1.783669114112854004e+00,-1.992971777915954590e+00,4.216449260711669922e+00,-1.991236419677734375e+02,-9.069799041748046875e+01,-1.713272552490234375e+02,4.030399620532989502e-01,-6.667224884033203125e+01,-1.826867065429687500e+02,-2.342819452285766602e+00,7.562197875976562500e+01,3.135619926452636719e+01
7.440159916877746582e-01,1.000000000000000000e+00,-1.846221327781677246e+00,-1.939384222030639648e+00,4.227001190185546875e+00,-1.990692291259765625e+02,-9.062403869628906250e+01,-1.712660827636718750e+02,4.030399620532989502e-01,-6.667224884033203125e+01,-1.826867065429687500e+02,-2.342891216278076172e+00,7.562212371826171875e+01,3.135619926452636719e+01
7.491930127143859863e-01,1.000000000000000000e+00,-1.971411824226379395e+00,-1.832322120666503906e+00,4.248044967651367188e+00,-1.989597167968750000e+02,-9.047576904296875000e+01,-1.711425781250000000e+02,4.030399620532989502e-01,-6.667234802246093750e+01,-1.826867065429687500e+02,-2.342747688293457031e+00,7.562197875976562500e+01,3.135619926452636719e+01
7.521460056304931641e-01,1.000000000000000000e+00,-1.971411824226379395e+00,-1.832322120666503906e+00,4.248044967651367188e+00,-1.989597167968750000e+02,-9.047576904296875000e+01,-1.711425781250000000e+02,4.030399620532989502e-01,-6.667234802246093750e+01,-1.826867065429687500e+02,-2.342747688293457031e+00,7.562197875976562500e+01,3.135619926452636719e+01
7.548900246620178223e-01,1.000000000000000000e+00,-2.033992528915405273e+00,-1.778643846511840820e+00,4.258353233337402344e+00,-1.989050903320312500e+02,-9.040223693847656250e+01,-1.710814056396484375e+02,4.030399620532989502e-01,-6.667224884033203125e+01,-1.826867065429687500e+02,-2.342891216278076172e+00,7.562212371826171875e+01,3.135619926452636719e+01
7.604169845581054688e-01,1.000000000000000000e+00,-2.096516132354736328e+00,-1.724897861480712891e+00,4.268559455871582031e+00,-1.988500976562500000e+02,-9.032850646972656250e+01,-1.710203094482421875e+02,4.030399620532989502e-01,-6.667234802246093750e+01,-1.826867065429687500e+02,-2.342819452285766602e+00,7.562212371826171875e+01,3.135619926452636719e+01
7.628970146179199219e-01,1.000000000000000000e+00,-2.159096956253051758e+00,-1.671151638031005859e+00,4.279050827026367188e+00,-1.987958068847656250e+02,-9.025423431396484375e+01,-1.709582519531250000e+02,4.030399620532989502e-01,-6.667224884033203125e+01,-1.826867065429687500e+02,-2.342819452285766602e+00,7.562197875976562500e+01,3.135619926452636719e+01
7.668439745903015137e-01,1.000000000000000000e+00,-2.221706390380859375e+00,-1.617541432380676270e+00,4.289582729339599609e+00,-1.987411651611328125e+02,-9.018022918701171875e+01,-1.708972930908203125e+02,4.030399620532989502e-01,-6.667224884033203125e+01,-1.826867065429687500e+02,-2.342891216278076172e+00,7.562197875976562500e+01,3.135619926452636719e+01
7.708420157432556152e-01,1.000000000000000000e+00,-2.284316062927246094e+00,-1.564180135726928711e+00,4.300175666809082031e+00,-1.986860198974609375e+02,-9.010633850097656250e+01,-1.708368530273437500e+02,4.030399620532989502e-01,-6.667234802246093750e+01,-1.826867065429687500e+02,-2.342747688293457031e+00,7.562197875976562500e+01,3.135619926452636719e+01
7.763779759407043457e-01,1.000000000000000000e+00,-2.346925497055053711e+00,-1.510569810867309570e+00,4.310504436492919922e+00,-1.986319885253906250e+02,-9.003260040283203125e+01,-1.707750244140625000e+02,4.030399620532989502e-01,-6.667224884033203125e+01,-1.826867065429687500e+02,-2.342819452285766602e+00,7.562197875976562500e+01,3.135619926452636719e+01
7.811679840087890625e-01,1.000000000000000000e+00,-2.409563779830932617e+00,-1.457004785537719727e+00,4.320791721343994141e+00,-1.985770416259765625e+02,-8.995795440673828125e+01,-1.707134399414062500e+02,4.030399620532989502e-01,-6.667224884033203125e+01,-1.826867065429687500e+02,-2.342819452285766602e+00,7.562212371826171875e+01,3.135619926452636719e+01
7.828230261802673340e-01,1.000000000000000000e+00,-2.472259521484375000e+00,-1.403371930122375488e+00,4.331202030181884766e+00,-1.985221557617187500e+02,-8.988443756103515625e+01,-1.706522674560546875e+02,4.030399620532989502e-01,-6.667224884033203125e+01,-1.826867065429687500e+02,-2.342747688293457031e+00,7.562182617187500000e+01,3.135619926452636719e+01
7.883840203285217285e-01,1.000000000000000000e+00,-2.534782886505126953e+00,-1.349829435348510742e+00,4.341692924499511719e+00,-1.984678344726562500e+02,-8.981038665771484375e+01,-1.705902709960937500e+02,4.030399620532989502e-01,-6.667224884033203125e+01,-1.826867065429687500e+02,-2.342891216278076172e+00,7.562197875976562500e+01,3.135619926452636719e+01
7.924259901046752930e-01,1.000000000000000000e+00,-2.597478628158569336e+00,-1.296355009078979492e+00,4.352184295654296875e+00,-1.984127502441406250e+02,-8.973658752441406250e+01,-1.705287017822265625e+02,4.030399620532989502e-01,-6.667224884033203125e+01,-1.826867065429687500e+02,-2.342747688293457031e+00,7.562212371826171875e+01,3.135619926452636719e+01
7.964640259742736816e-01,1.000000000000000000e+00,-2.660289049148559570e+00,-1.243016362190246582e+00,4.362553119659423828e+00,-1.983580322265625000e+02,-8.966162872314453125e+01,-1.704677429199218750e+02,4.030399620532989502e-01,-6.667234802246093750e+01,-1.826867065429687500e+02,-2.342747688293457031e+00,7.562197875976562500e+01,3.135619926452636719e+01
8.005959987640380859e-01,1.000000000000000000e+00,-2.723013639450073242e+00,-1.189745426177978516e+00,4.372821331024169922e+00,-1.983037719726562500e+02,-8.958826446533203125e+01,-1.704050598144531250e+02,4.030399620532989502e-01,-6.667224884033203125e+01,-1.826867065429687500e+02,-2.342819452285766602e+00,7.562212371826171875e+01,3.135619926452636719e+01
8.053179979324340820e-01,1.000000000000000000e+00,-2.785881519317626953e+00,-1.135976791381835938e+00,4.383088588714599609e+00,-1.982486267089843750e+02,-8.951410675048828125e+01,-1.703432922363281250e+02,4.030399620532989502e-01,-6.667224884033203125e+01,-1.826867065429687500e+02,-2.342819452285766602e+00,7.562197875976562500e+01,3.135619926452636719e+01
8.068339824676513672e-01,1.000000000000000000e+00,-2.848691940307617188e+00,-1.082366466522216797e+00,4.393539428710937500e+00,-1.981943054199218750e+02,-8.944047546386718750e+01,-1.702822570800781250e+02,4.030399620532989502e-01,-6.667216491699218750e+01,-1.826867065429687500e+02,-2.342819452285766602e+00,7.562197875976562500e+01,3.135619926452636719e+01
8.125339746475219727e-01,1.000000000000000000e+00,-2.911273002624511719e+00,-1.028665661811828613e+00,4.403989315032958984e+00,-1.981393280029296875e+02,-8.936540222167968750e+01,-1.702201995849609375e+02,4.030399620532989502e-01,-6.667224884033203125e+01,-1.826867065429687500e+02,-2.342819452285766602e+00,7.562197875976562500e+01,3.135619926452636719e+01
8.166459798812866211e-01,1.000000000000000000e+00,-2.974112272262573242e+00,-9.751006364822387695e-01,4.414481163024902344e+00,-1.980848541259765625e+02,-8.929166412353515625e+01,-1.701590270996093750e+02,4.030399620532989502e-01,-6.667224884033203125e+01,-1.826867065429687500e+02,-2.342819452285766602e+00,7.562197875976562500e+01,3.135619926452636719e+01
8.207110166549682617e-01,1.000000000000000000e+00,-3.036922693252563477e+00,-9.214903712272644043e-01,4.424768447875976562e+00,-1.980307617187500000e+02,-8.921766662597656250e+01,-1.700980682373046875e+02,4.030399620532989502e-01,-6.667224884033203125e+01,-1.826867065429687500e+02,-2.342891216278076172e+00,7.562197875976562500e+01,3.135619926452636719e+01
8.248000144958496094e-01,1.000000000000000000e+00,-3.099819183349609375e+00,-8.678801059722900391e-01,4.435056686401367188e+00,-1.979756622314453125e+02,-8.914382171630859375e+01,-1.700358123779296875e+02,4.030399620532989502e-01,-6.667234802246093750e+01,-1.826867065429687500e+02,-2.342819452285766602e+00,7.562197875976562500e+01,3.135619926452636719e+01
8.295360207557678223e-01,1.000000000000000000e+00,-3.162715911865234375e+00,-8.144056200981140137e-01,4.445486545562744141e+00,-1.979209289550781250e+02,-8.906890869140625000e+01,-1.699747161865234375e+02,4.030399620532989502e-01,-6.667224884033203125e+01,-1.826867065429687500e+02,-2.342891216278076172e+00,7.562212371826171875e+01,3.135619926452636719e+01
8.328089714050292969e-01,1.000000000000000000e+00,-3.225526332855224609e+00,-7.606821656227111816e-01,4.456018924713134766e+00,-1.978662567138671875e+02,-8.899501800537109375e+01,-1.699141387939453125e+02,4.030399620532989502e-01,-6.667224884033203125e+01,-1.826867065429687500e+02,-2.342819452285766602e+00,7.562197875976562500e+01,3.135619926452636719e+01
8.366619944572448730e-01,1.000000000000000000e+00,-3.288279533386230469e+00,-7.071171402931213379e-01,4.466509819030761719e+00,-1.978115844726562500e+02,-8.892154693603515625e+01,-1.698520202636718750e+02,4.030399620532989502e-01,-6.667224884033203125e+01,-1.826867065429687500e+02,-2.342747688293457031e+00,7.562212371826171875e+01,3.135619926452636719e+01
8.409029841423034668e-01,1.000000000000000000e+00,-3.351176261901855469e+00,-6.537105441093444824e-01,4.476838588714599609e+00,-1.977574920654296875e+02,-8.884743499755859375e+01,-1.697908477783203125e+02,4.030399620532989502e-01,-6.667224884033203125e+01,-1.826867065429687500e+02,-2.342747688293457031e+00,7.562197875976562500e+01,3.135619926452636719e+01
8.448529839515686035e-01,1.000000000000000000e+00,-3.414129972457885742e+00,-6.001681685447692871e-01,4.487065315246582031e+00,-1.977026519775390625e+02,-8.877268981933593750e+01,-1.697303009033203125e+02,4.030399620532989502e-01,-6.667216491699218750e+01,-1.826867065429687500e+02,-2.342819452285766602e+00,7.562212371826171875e+01,3.135619926452636719e+01
8.490300178527832031e-01,1.000000000000000000e+00,-3.477141618728637695e+00,-5.466936230659484863e-01,4.497556686401367188e+00,-1.976478271484375000e+02,-8.869863128662109375e+01,-1.696683044433593750e+02,4.030399620532989502e-01,-6.667224884033203125e+01,-1.826867065429687500e+02,-2.342819452285766602e+00,7.562197875976562500e+01,3.135619926452636719e+01
8.508239984512329102e-01,1.000000000000000000e+00,-3.539952278137207031e+00,-4.931964874267578125e-01,4.507987022399902344e+00,-1.975934600830078125e+02,-8.862542724609375000e+01,-1.696070709228515625e+02,4.030399620532989502e-01,-6.667224884033203125e+01,-1.826867065429687500e+02,-2.342747688293457031e+00,7.562197875976562500e+01,3.135619926452636719e+01
8.572580218315124512e-01,1.000000000000000000e+00,-3.602992296218872070e+00,-4.398351609706878662e-01,4.518376350402832031e+00,-1.975386810302734375e+02,-8.855158996582031250e+01,-1.695456237792968750e+02,4.030399620532989502e-01,-6.667224884033203125e+01,-1.826867065429687500e+02,-2.342819452285766602e+00,7.562197875976562500e+01,3.135619926452636719e+01
8.595089912414550781e-01,1.000000000000000000e+00,-3.665860414505004883e+00,-3.862701356410980225e-01,4.528664112091064453e+00,-1.974843292236328125e+02,-8.847699737548828125e+01,-1.694835052490234375e+02,4.030399620532989502e-01,-6.667224884033203125e+01,-1.826867065429687500e+02,-2.342891216278076172e+00,7.562197875976562500e+01,3.135598182678222656e+01
8.648909926414489746e-01,1.000000000000000000e+00,-3.728527307510375977e+00,-3.326372206211090088e-01,4.538911342620849609e+00,-1.974294891357421875e+02,-8.840309906005859375e+01,-1.694221954345703125e+02,4.030399620532989502e-01,-6.667224884033203125e+01,-1.826867065429687500e+02,-2.342891216278076172e+00,7.562197875976562500e+01,3.135619926452636719e+01
8.689540028572082520e-01,1.000000000000000000e+00,-3.791337728500366211e+00,-2.791853845119476318e-01,4.549301147460937500e+00,-1.973749084472656250e+02,-8.832968902587890625e+01,-1.693612365722656250e+02,4.030399620532989502e-01,-6.667224884033203125e+01,-1.826867065429687500e+02,-2.342819452285766602e+00,7.562197875976562500e+01,3.135619926452636719e+01
8.708230257034301758e-01,1.000000000000000000e+00,-3.854004621505737305e+00,-2.255071848630905151e-01,4.559751510620117188e+00,-1.973205413818359375e+02,-8.825563049316406250e+01,-1.692989196777343750e+02,4.030399620532989502e-01,-6.667234802246093750e+01,-1.826867065429687500e+02,-2.342819452285766602e+00,7.562212371826171875e+01,3.135619926452636719e+01
8.779420256614685059e-01,1.000000000000000000e+00,-3.916786432266235352e+00,-1.718290150165557861e-01,4.570161819458007812e+00,-1.972653045654296875e+02,-8.818119812011718750e+01,-1.692366485595703125e+02,4.030399620532989502e-01,-6.667224884033203125e+01,-1.826867065429687500e+02,-2.342747688293457031e+00,7.562212371826171875e+01,3.135619926452636719e+01
8.798199892044067383e-01,1.000000000000000000e+00,-3.979740381240844727e+00,-1.183092594146728516e-01,4.580612182617187500e+00,-1.972110443115234375e+02,-8.810741424560546875e+01,-1.691753387451171875e+02,4.030399620532989502e-01,-6.667224884033203125e+01,-1.826867065429687500e+02,-2.342819452285766602e+00,7.562197875976562500e+01,3.135619926452636719e+01
8.851479887962341309e-01,1.000000000000000000e+00,-4.042263984680175781e+00,-6.492527574300765991e-02,4.590818405151367188e+00,-1.971566314697265625e+02,-8.803409576416015625e+01,-1.691129608154296875e+02,4.030399620532989502e-01,-6.667224884033203125e+01,-1.826867065429687500e+02,-2.342819452285766602e+00,7.562212371826171875e+01,3.135619926452636719e+01
8.868849873542785645e-01,1.000000000000000000e+00,-4.104815959930419922e+00,-1.145077589899301529e-02,4.601025104522705078e+00,-1.971018066406250000e+02,-8.796041107177734375e+01,-1.690517120361328125e+02,4.030399620532989502e-01,-6.667234802246093750e+01,-1.826867065429687500e+02,-2.342747688293457031e+00,7.562197875976562500e+01,3.135619926452636719e+01
8.932319879531860352e-01,1.000000000000000000e+00,-4.167397022247314453e+00,4.204635322093963623e-02,4.611495971679687500e+00,-1.970479736328125000e+02,-8.788567352294921875e+01,-1.689906158447265625e+02,4.030399620532989502e-01,-6.667234802246093750e+01,-1.826867065429687500e+02,-2.342819452285766602e+00,7.562197875976562500e+01,3.135598182678222656e+01
8.948479890823364258e-01,1.000000000000000000e+00,-4.230006694793701172e+00,9.558874368667602539e-02,4.622048377990722656e+00,-1.969928283691406250e+02,-8.781204223632812500e+01,-1.689282989501953125e+02,4.030399620532989502e-01,-6.667224884033203125e+01,-1.826867065429687500e+02,-2.342819452285766602e+00,7.562197875976562500e+01,3.135619926452636719e+01
9.021030068397521973e-01,1.000000000000000000e+00,-4.230006694793701172e+00,9.558874368667602539e-02,4.622048377990722656e+00,-1.969928283691406250e+02,-8.781204223632812500e+01,-1.689282989501953125e+02,4.030399620532989502e-01,-6.667224884033203125e+01,-1.826867065429687500e+02,-2.342819452285766602e+00,7.562197875976562500e+01,3.135619926452636719e+01
9.035480022430419922e-01,1.000000000000000000e+00,-4.355369091033935547e+00,2.026056349277496338e-01,4.642949104309082031e+00,-1.968838806152343750e+02,-8.766456604003906250e+01,-1.688056793212890625e+02,4.030399620532989502e-01,-6.667224884033203125e+01,-1.826867065429687500e+02,-2.342819452285766602e+00,7.562197875976562500e+01,3.135619926452636719e+01
9.079030156135559082e-01,1.000000000000000000e+00,-4.418064594268798828e+00,2.558312118053436279e-01,4.653095245361328125e+00,-1.968289031982421875e+02,-8.759050750732421875e+01,-1.687436981201171875e+02,4.030399620532989502e-01,-6.667234802246093750e+01,-1.826867065429687500e+02,-2.342819452285766602e+00,7.562197875976562500e+01,3.135619926452636719e+01
9.109010100364685059e-01,1.000000000000000000e+00,-4.480559825897216797e+00,3.091246783733367920e-01,4.663626670837402344e+00,-1.967744903564453125e+02,-8.751708984375000000e+01,-1.686828002929687500e+02,4.030399620532989502e-01,-6.667234802246093750e+01,-1.826867065429687500e+02,-2.342891216278076172e+00,7.562212371826171875e+01,3.135598182678222656e+01
9.174000024795532227e-01,1.000000000000000000e+00,-4.480559825897216797e+00,3.091246783733367920e-01,4.663626670837402344e+00,-1.967744903564453125e+02,-8.751708984375000000e+01,-1.686828002929687500e+02,4.030399620532989502e-01,-6.667234802246093750e+01,-1.826867065429687500e+02,-2.342891216278076172e+00,7.562212371826171875e+01,3.135598182678222656e+01
9.199399948120117188e-01,1.000000000000000000e+00,-4.605865001678466797e+00,4.163904786109924316e-01,4.684629440307617188e+00,-1.966647186279296875e+02,-8.736898040771484375e+01,-1.685596466064453125e+02,4.030399620532989502e-01,-6.667224884033203125e+01,-1.826867065429687500e+02,-2.342819452285766602e+00,7.562197875976562500e+01,3.135619926452636719e+01
9.228879809379577637e-01,1.000000000000000000e+00,-4.668589115142822266e+00,4.699781239032745361e-01,4.694836139678955078e+00,-1.966108245849609375e+02,-8.729514312744140625e+01,-1.684987945556640625e+02,4.030399620532989502e-01,-6.667234802246093750e+01,-1.826867065429687500e+02,-2.342819452285766602e+00,7.562197875976562500e+01,3.135619926452636719e+01
9.278920292854309082e-01,1.000000000000000000e+00,-4.668589115142822266e+00,4.699781239032745361e-01,4.694836139678955078e+00,-1.966108245849609375e+02,-8.729514312744140625e+01,-1.684987945556640625e+02,4.030399620532989502e-01,-6.667234802246093750e+01,-1.826867065429687500e+02,-2.342819452285766602e+00,7.562197875976562500e+01,3.135619926452636719e+01
9.319350123405456543e-01,1.000000000000000000e+00,-4.793262958526611328e+00,5.771082043647766113e-01,4.715188503265380859e+00,-1.965014190673828125e+02,-8.714820098876953125e+01,-1.683753051757812500e+02,4.030399620532989502e-01,-6.667224884033203125e+01,-1.826867065429687500e+02,-2.342819452285766602e+00,7.562197875976562500e+01,3.135619926452636719e+01
9.355649948120117188e-01,1.000000000000000000e+00,-4.855729103088378906e+00,6.306732296943664551e-01,4.725658893585205078e+00,-1.964470062255859375e+02,-8.707387542724609375e+01,-1.683143463134765625e+02,4.030399620532989502e-01,-6.667234802246093750e+01,-1.826867065429687500e+02,-2.342819452285766602e+00,7.562212371826171875e+01,3.135619926452636719e+01
9.398490190505981445e-01,1.000000000000000000e+00,-4.918252468109130859e+00,6.841703653335571289e-01,4.736150264739990234e+00,-1.963919677734375000e+02,-8.699982452392578125e+01,-1.682533111572265625e+02,4.030399620532989502e-01,-6.667234802246093750e+01,-1.826867065429687500e+02,-2.342891216278076172e+00,7.562212371826171875e+01,3.135619926452636719e+01
9.428380131721496582e-01,1.000000000000000000e+00,-4.980919361114501953e+00,7.378484606742858887e-01,4.746580600738525391e+00,-1.963377075195312500e+02,-8.692646026611328125e+01,-1.681907806396484375e+02,4.030399620532989502e-01,-6.667224884033203125e+01,-1.826867065429687500e+02,-2.342819452285766602e+00,7.562197875976562500e+01,3.135619926452636719e+01
9.479280114173889160e-01,1.000000000000000000e+00,-4.980919361114501953e+00,7.378484606742858887e-01,4.746580600738525391e+00,-1.963377075195312500e+02,-8.692646026611328125e+01,-1.681907806396484375e+02,4.030399620532989502e-01,-6.667224884033203125e+01,-1.826867065429687500e+02,-2.342819452285766602e+00,7.562197875976562500e+01,3.135619926452636719e+01
9.519109725952148438e-01,1.000000000000000000e+00,-5.105736732482910156e+00,8.446843624114990234e-01,4.767115592956542969e+00,-1.962283630371093750e+02,-8.677898406982421875e+01,-1.680689849853515625e+02,4.030399620532989502e-01,-6.667224884033203125e+01,-1.826867065429687500e+02,-2.342819452285766602e+00,7.562212371826171875e+01,3.135619926452636719e+01
9.554799795150756836e-01,1.000000000000000000e+00,-5.168317317962646484e+00,8.982493877410888672e-01,4.777627468109130859e+00,-1.961741485595703125e+02,-8.670471954345703125e+01,-1.680065155029296875e+02,4.030399620532989502e-01,-6.667224884033203125e+01,-1.826867065429687500e+02,-2.342819452285766602e+00,7.562197875976562500e+01,3.135619926452636719e+01
9.618790149688720703e-01,1.000000000000000000e+00,-5.168317317962646484e+00,8.982493877410888672e-01,4.777627468109130859e+00,-1.961741485595703125e+02,-8.670471954345703125e+01,-1.680065155029296875e+02,4.030399620532989502e-01,-6.667224884033203125e+01,-1.826867065429687500e+02,-2.342819452285766602e+00,7.562197875976562500e+01,3.135619926452636719e+01
9.638440012931823730e-01,1.000000000000000000e+00,-5.293536663055419922e+00,1.005130529403686523e+00,4.798609733581542969e+00,-1.960649108886718750e+02,-8.655708312988281250e+01,-1.678841857910156250e+02,4.030399620532989502e-01,-6.667224884033203125e+01,-1.826867065429687500e+02,-2.342891216278076172e+00,7.562197875976562500e+01,3.135619926452636719e+01
9.678170084953308105e-01,1.000000000000000000e+00,-5.356260776519775391e+00,1.058401346206665039e+00,4.808938026428222656e+00,-1.960105438232421875e+02,-8.648275756835937500e+01,-1.678220672607421875e+02,4.030399620532989502e-01,-6.667234802246093750e+01,-1.826867065429687500e+02,-2.342819452285766602e+00,7.562197875976562500e+01,3.135598182678222656e+01
9.708210229873657227e-01,1.000000000000000000e+00,-5.418841838836669922e+00,1.111875891685485840e+00,4.819083690643310547e+00,-1.959556732177734375e+02,-8.640934753417968750e+01,-1.677604217529296875e+02,4.030399620532989502e-01,-6.667224884033203125e+01,-1.826867065429687500e+02,-2.342819452285766602e+00,7.562197875976562500e+01,3.135619926452636719e+01
9.758830070495605469e-01,1.000000000000000000e+00,-5.418841838836669922e+00,1.111875891685485840e+00,4.819083690643310547e+00,-1.959556732177734375e+02,-8.640934753417968750e+01,-1.677604217529296875e+02,4.030399620532989502e-01,-6.667224884033203125e+01,-1.826867065429687500e+02,-2.342819452285766602e+00,7.562197875976562500e+01,3.135619926452636719e+01
9.798970222473144531e-01,1.000000000000000000e+00,-5.544319629669189453e+00,1.219164252281188965e+00,4.839781761169433594e+00,-1.958463134765625000e+02,-8.626155090332031250e+01,-1.676375274658203125e+02,4.030399620532989502e-01,-6.667224884033203125e+01,-1.826867065429687500e+02,-2.342819452285766602e+00,7.562197875976562500e+01,3.135619926452636719e+01
9.829620122909545898e-01,1.000000000000000000e+00,-5.606928825378417969e+00,1.272751927375793457e+00,4.850394725799560547e+00,-1.957919006347656250e+02,-8.618675231933593750e+01,-1.675760345458984375e+02,4.030399620532989502e-01,-6.667224884033203125e+01,-1.826867065429687500e+02,-2.342747688293457031e+00,7.562197875976562500e+01,3.135619926452636719e+01
9.878780245780944824e-01,1.000000000000000000e+00,-5.606928825378417969e+00,1.272751927375793457e+00,4.850394725799560547e+00,-1.957919006347656250e+02,-8.618675231933593750e+01,-1.675760345458984375e+02,4.030399620532989502e-01,-6.667224884033203125e+01,-1.826867065429687500e+02,-2.342747688293457031e+00,7.562197875976562500e+01,3.135619926452636719e+01
9.908210039138793945e-01,1.000000000000000000e+00,-5.732262611389160156e+00,1.379678249359130859e+00,4.870848178863525391e+00,-1.956825408935546875e+02,-8.603975677490234375e+01,-1.674537506103515625e+02,4.030399620532989502e-01,-6.667224884033203125e+01,-1.826867065429687500e+02,-2.342819452285766602e+00,7.562212371826171875e+01,3.135619926452636719e+01
9.958969950675964355e-01,1.000000000000000000e+00,-5.732262611389160156e+00,1.379678249359130859e+00,4.870848178863525391e+00,-1.956825408935546875e+02,-8.603975677490234375e+01,-1.674537506103515625e+02,4.030399620532989502e-01,-6.667224884033203125e+01,-1.826867065429687500e+02,-2.342819452285766602e+00,7.562212371826171875e+01,3.135619926452636719e+01
9.998289942741394043e-01,1.000000000000000000e+00,-5.857481956481933594e+00,1.486582040786743164e+00,4.891627311706542969e+00,-1.955735626220703125e+02,-8.589115905761718750e+01,-1.673312835693359375e+02,4.030399620532989502e-01,-6.667224884033203125e+01,-1.826867065429687500e+02,-2.342819452285766602e+00,7.562197875976562500e+01,3.135619926452636719e+01
1.004006981849670410e+00,1.000000000000000000e+00,-5.920263767242431641e+00,1.540305376052856445e+00,4.902037620544433594e+00,-1.955186309814453125e+02,-8.581742858886718750e+01,-1.672695617675781250e+02,4.030399620532989502e-01,-6.667224884033203125e+01,-1.826867065429687500e+02,-2.342819452285766602e+00,7.562212371826171875e+01,3.135619926452636719e+01
1.006896018981933594e+00,1.000000000000000000e+00,-5.982988357543945312e+00,1.593712091445922852e+00,4.912589550018310547e+00,-1.954646911621093750e+02,-8.574411773681640625e+01,-1.672081756591796875e+02,4.030399620532989502e-01,-6.667224884033203125e+01,-1.826867065429687500e+02,-2.342891216278076172e+00,7.562197875976562500e+01,3.135619926452636719e+01
1.010890960693359375e+00,1.000000000000000000e+00,-5.982988357543945312e+00,1.593712091445922852e+00,4.912589550018310547e+00,-1.954646911621093750e+02,-8.574411773681640625e+01,-1.672081756591796875e+02,4.030399620532989502e-01,-6.667224884033203125e+01,-1.826867065429687500e+02,-2.342891216278076172e+00,7.562197875976562500e+01,3.135619926452636719e+01
1.015944957733154297e+00,1.000000000000000000e+00,-6.045568943023681641e+00,1.646982908248901367e+00,4.922816753387451172e+00,-1.954096984863281250e+02,-8.567037963867187500e+01,-1.671474914550781250e+02,4.030399620532989502e-01,-6.667234802246093750e+01,-1.826867065429687500e+02,-2.342747688293457031e+00,7.562197875976562500e+01,3.135619926452636719e+01
1.020818948745727539e+00,1.000000000000000000e+00,-6.171132564544677734e+00,1.753615140914916992e+00,4.943392276763916016e+00,-1.953008270263671875e+02,-8.552162933349609375e+01,-1.670229797363281250e+02,4.030399620532989502e-01,-6.667224884033203125e+01,-1.826867065429687500e+02,-2.342819452285766602e+00,7.562197875976562500e+01,3.135642242431640625e+01
1.024214982986450195e+00,1.000000000000000000e+00,-6.233971595764160156e+00,1.806976556777954102e+00,4.953863143920898438e+00,-1.952456665039062500e+02,-8.544869232177734375e+01,-1.669623565673828125e+02,4.030399620532989502e-01,-6.667234802246093750e+01,-1.826867065429687500e+02,-2.342891216278076172e+00,7.562197875976562500e+01,3.135619926452636719e+01
1.027544975280761719e+00,1.000000000000000000e+00,-6.296610355377197266e+00,1.860586643218994141e+00,4.964395046234130859e+00,-1.951914672851562500e+02,-8.537490081787109375e+01,-1.669002990722656250e+02,4.030399620532989502e-01,-6.667234802246093750e+01,-1.826867065429687500e+02,-2.342891216278076172e+00,7.562197875976562500e+01,3.135619926452636719e+01
1.031955003738403320e+00,1.000000000000000000e+00,-6.296610355377197266e+00,1.860586643218994141e+00,4.964395046234130859e+00,-1.951914672851562500e+02,-8.537490081787109375e+01,-1.669002990722656250e+02,4.030399620532989502e-01,-6.667234802246093750e+01,-1.826867065429687500e+02,-2.342891216278076172e+00,7.562197875976562500e+01,3.135619926452636719e+01
1.036834001541137695e+00,1.000000000000000000e+00,-6.359392166137695312e+00,1.914061307907104492e+00,4.974723339080810547e+00,-1.951371612548828125e+02,-8.530031585693359375e+01,-1.668388671875000000e+02,4.030399620532989502e-01,-6.667224884033203125e+01,-1.826867065429687500e+02,-2.342891216278076172e+00,7.562212371826171875e+01,3.135619926452636719e+01
1.039837956428527832e+00,1.000000000000000000e+00,-6.484869480133056641e+00,2.021055459976196289e+00,4.995238304138183594e+00,-1.950279693603515625e+02,-8.515284729003906250e+01,-1.667159729003906250e+02,4.030399620532989502e-01,-6.667234802246093750e+01,-1.826867065429687500e+02,-2.342819452285766602e+00,7.562212371826171875e+01,3.135619926452636719e+01
1.043954968452453613e+00,1.000000000000000000e+00,-6.484869480133056641e+00,2.021055459976196289e+00,4.995238304138183594e+00,-1.950279693603515625e+02,-8.515284729003906250e+01,-1.667159729003906250e+02,4.030399620532989502e-01,-6.667234802246093750e+01,-1.826867065429687500e+02,-2.342819452285766602e+00,7.562212371826171875e+01,3.135619926452636719e+01
1.051615953445434570e+00,1.000000000000000000e+00,-6.547536373138427734e+00,2.074529886245727539e+00,5.005709171295166016e+00,-1.949728698730468750e+02,-8.507926177978515625e+01,-1.666545257568359375e+02,4.030399620532989502e-01,-6.667224884033203125e+01,-1.826867065429687500e+02,-2.342819452285766602e+00,7.562197875976562500e+01,3.135619926452636719e+01
1.053066968917846680e+00,1.000000000000000000e+00,-6.672698497772216797e+00,2.181365966796875000e+00,5.026529312133789062e+00,-1.948642578125000000e+02,-8.493077850341796875e+01,-1.665317687988281250e+02,4.030399620532989502e-01,-6.667234802246093750e+01,-1.826867065429687500e+02,-2.342747688293457031e+00,7.562197875976562500e+01,3.135619926452636719e+01
1.055847048759460449e+00,1.000000000000000000e+00,-6.735307693481445312e+00,2.235111951828002930e+00,5.036776065826416016e+00,-1.948092041015625000e+02,-8.485709381103515625e+01,-1.664702758789062500e+02,4.030399620532989502e-01,-6.667224884033203125e+01,-1.826867065429687500e+02,-2.342819452285766602e+00,7.562212371826171875e+01,3.135619926452636719e+01
1.059872984886169434e+00,1.000000000000000000e+00,-6.735307693481445312e+00,2.235111951828002930e+00,5.036776065826416016e+00,-1.948092041015625000e+02,-8.485709381103515625e+01,-1.664702758789062500e+02,4.030399620532989502e-01,-6.667224884033203125e+01,-1.826867065429687500e+02,-2.342819452285766602e+00,7.562212371826171875e+01,3.135619926452636719e+01
1.063892006874084473e+00,1.000000000000000000e+00,-6.797974586486816406e+00,2.288450717926025391e+00,5.046901702880859375e+00,-1.947548065185546875e+02,-8.478379058837890625e+01,-1.664102478027343750e+02,4.030399620532989502e-01,-6.667234802246093750e+01,-1.826867065429687500e+02,-2.342819452285766602e+00,7.562197875976562500e+01,3.135619926452636719e+01
1.068001985549926758e+00,1.000000000000000000e+00,-6.860555648803710938e+00,2.341902494430541992e+00,5.057209491729736328e+00,-1.947000274658203125e+02,-8.470914459228515625e+01,-1.663484649658203125e+02,4.030399620532989502e-01,-6.667224884033203125e+01,-1.826867065429687500e+02,-2.342891216278076172e+00,7.562212371826171875e+01,3.135619926452636719e+01
1.072932958602905273e+00,1.000000000000000000e+00,-6.923108100891113281e+00,2.395150899887084961e+00,5.067700862884521484e+00,-1.946453399658203125e+02,-8.463572692871093750e+01,-1.662870330810546875e+02,4.030399620532989502e-01,-6.667224884033203125e+01,-1.826867065429687500e+02,-2.342747688293457031e+00,7.562197875976562500e+01,3.135619926452636719e+01
1.076269984245300293e+00,1.000000000000000000e+00,-7.048241138458251953e+00,2.501782894134521484e+00,5.088418960571289062e+00,-1.945366363525390625e+02,-8.448841857910156250e+01,-1.661646881103515625e+02,4.030399620532989502e-01,-6.667224884033203125e+01,-1.826867065429687500e+02,-2.342891216278076172e+00,7.562197875976562500e+01,3.135619926452636719e+01
1.079969048500061035e+00,1.000000000000000000e+00,-7.048241138458251953e+00,2.501782894134521484e+00,5.088418960571289062e+00,-1.945366363525390625e+02,-8.448841857910156250e+01,-1.661646881103515625e+02,4.030399620532989502e-01,-6.667224884033203125e+01,-1.826867065429687500e+02,-2.342891216278076172e+00,7.562197875976562500e+01,3.135619926452636719e+01
1.083889007568359375e+00,1.000000000000000000e+00,-7.110936641693115234e+00,2.555234909057617188e+00,5.098645687103271484e+00,-1.944820098876953125e+02,-8.441355895996093750e+01,-1.661027069091796875e+02,4.030399620532989502e-01,-6.667234802246093750e+01,-1.826867065429687500e+02,-2.342819452285766602e+00,7.562212371826171875e+01,3.135619926452636719e+01
1.087877035140991211e+00,1.000000000000000000e+00,-7.173402786254882812e+00,2.608731985092163086e+00,5.109015464782714844e+00,-1.944274902343750000e+02,-8.434040832519531250e+01,-1.660422210693359375e+02,4.030399620532989502e-01,-6.667224884033203125e+01,-1.826867065429687500e+02,-2.342819452285766602e+00,7.562212371826171875e+01,3.135619926452636719e+01
1.091945052146911621e+00,1.000000000000000000e+00,-7.236213207244873047e+00,2.662229061126708984e+00,5.119465827941894531e+00,-1.943726043701171875e+02,-8.426629638671875000e+01,-1.659800872802734375e+02,4.030399620532989502e-01,-6.667224884033203125e+01,-1.826867065429687500e+02,-2.342819452285766602e+00,7.562197875976562500e+01,3.135619926452636719e+01
1.095886945724487305e+00,1.000000000000000000e+00,-7.298765182495117188e+00,2.715816736221313477e+00,5.130018234252929688e+00,-1.943186035156250000e+02,-8.419293212890625000e+01,-1.659179077148437500e+02,4.030399620532989502e-01,-6.667224884033203125e+01,-1.826867065429687500e+02,-2.342819452285766602e+00,7.562197875976562500e+01,3.135619926452636719e+01
1.099899053573608398e+00,1.000000000000000000e+00,-7.361432075500488281e+00,2.769291162490844727e+00,5.140427589416503906e+00,-1.942641448974609375e+02,-8.411845397949218750e+01,-1.658572845458984375e+02,4.030399620532989502e-01,-6.667224884033203125e+01,-1.826867065429687500e+02,-2.342819452285766602e+00,7.562197875976562500e+01,3.135619926452636719e+01
1.103881001472473145e+00,1.000000000000000000e+00,-7.424070835113525391e+00,2.822675228118896484e+00,5.150593757629394531e+00,-1.942094116210937500e+02,-8.404519653320312500e+01,-1.657952270507812500e+02,4.030399620532989502e-01,-6.667224884033203125e+01,-1.826867065429687500e+02,-2.342819452285766602e+00,7.562197875976562500e+01,3.135619926452636719e+01
1.107939004898071289e+00,1.000000000000000000e+00,-7.486593723297119141e+00,2.876013755798339844e+00,5.160902023315429688e+00,-1.941548461914062500e+02,-8.397109222412109375e+01,-1.657331085205078125e+02,4.030399620532989502e-01,-6.667234802246093750e+01,-1.826867065429687500e+02,-2.342819452285766602e+00,7.562197875976562500e+01,3.135619926452636719e+01
