rpiRobotics/ARM-21-02-F-19-Robot-Motion-Program/data_performance_abb/curve_2/curve_pose_opt2/100L/realrobot/run_2.csv
timestamp,cmd_num,J1,J2,J3,J4,J5,J6
1.400000037392601371e-04,-1.000000000000000000e+00,7.736286640167236328e+00,-1.011718082427978516e+01,2.642076730728149414e+00,-2.074213256835937500e+02,-1.019231719970703125e+02,-1.806663665771484375e+02,4.030399620532989502e-01,-6.667234802246093750e+01,-1.826865997314453125e+02,-2.342819452285766602e+00,7.562197875976562500e+01,3.135619926452636719e+01
3.911999985575675964e-03,1.000000000000000000e+00,7.736286640167236328e+00,-1.011713600158691406e+01,2.642015695571899414e+00,-2.074213256835937500e+02,-1.019230117797851562e+02,-1.806661682128906250e+02,4.030399620532989502e-01,-6.667224884033203125e+01,-1.826865997314453125e+02,-2.342891216278076172e+00,7.562197875976562500e+01,3.135619926452636719e+01
9.802999906241893768e-03,1.000000000000000000e+00,7.736286640167236328e+00,-1.011713600158691406e+01,2.642076730728149414e+00,-2.074213256835937500e+02,-1.019231719970703125e+02,-1.806663665771484375e+02,4.030399620532989502e-01,-6.667216491699218750e+01,-1.826865997314453125e+02,-2.342819452285766602e+00,7.562197875976562500e+01,3.135619926452636719e+01
1.336800027638673782e-02,1.000000000000000000e+00,7.736286640167236328e+00,-1.011713600158691406e+01,2.642015695571899414e+00,-2.074214324951171875e+02,-1.019231719970703125e+02,-1.806661682128906250e+02,4.030399620532989502e-01,-6.667216491699218750e+01,-1.826865997314453125e+02,-2.342819452285766602e+00,7.562197875976562500e+01,3.135619926452636719e+01
3.765900060534477234e-02,1.000000000000000000e+00,7.736228466033935547e+00,-1.011713600158691406e+01,2.642015695571899414e+00,-2.074213256835937500e+02,-1.019231719970703125e+02,-1.806661682128906250e+02,4.030399620532989502e-01,-6.667224884033203125e+01,-1.826865997314453125e+02,-2.342819452285766602e+00,7.562197875976562500e+01,3.135619926452636719e+01
4.041700065135955811e-02,1.000000000000000000e+00,7.736228466033935547e+00,-1.011713600158691406e+01,2.642015695571899414e+00,-2.074213256835937500e+02,-1.019231719970703125e+02,-1.806661682128906250e+02,4.030399620532989502e-01,-6.667224884033203125e+01,-1.826865997314453125e+02,-2.342819452285766602e+00,7.562197875976562500e+01,3.135642242431640625e+01
4.173099994659423828e-02,1.000000000000000000e+00,7.736228466033935547e+00,-1.011713600158691406e+01,2.642015695571899414e+00,-2.074213256835937500e+02,-1.019231719970703125e+02,-1.806661682128906250e+02,4.030399620532989502e-01,-6.667224884033203125e+01,-1.826865997314453125e+02,-2.342819452285766602e+00,7.562197875976562500e+01,3.135642242431640625e+01
4.992400109767913818e-02,1.000000000000000000e+00,7.736228466033935547e+00,-1.011713600158691406e+01,2.642015695571899414e+00,-2.074213256835937500e+02,-1.019231719970703125e+02,-1.806661682128906250e+02,4.030399620532989502e-01,-6.667224884033203125e+01,-1.826865997314453125e+02,-2.342819452285766602e+00,7.562197875976562500e+01,3.135619926452636719e+01
5.312100052833557129e-02,1.000000000000000000e+00,7.736171245574951172e+00,-1.011706733703613281e+01,2.642076730728149414e+00,-2.074214324951171875e+02,-1.019231719970703125e+02,-1.806663665771484375e+02,4.030399620532989502e-01,-6.667224884033203125e+01,-1.826865997314453125e+02,-2.342819452285766602e+00,7.562197875976562500e+01,3.135619926452636719e+01
5.438299849629402161e-02,1.000000000000000000e+00,7.736171245574951172e+00,-1.011706733703613281e+01,2.642076730728149414e+00,-2.074214324951171875e+02,-1.019231719970703125e+02,-1.806663665771484375e+02,4.030399620532989502e-01,-6.667224884033203125e+01,-1.826865997314453125e+02,-2.342819452285766602e+00,7.562197875976562500e+01,3.135619926452636719e+01
5.693199858069419861e-02,1.000000000000000000e+00,7.735769271850585938e+00,-1.011690998077392578e+01,2.642015695571899414e+00,-2.074213256835937500e+02,-1.019231719970703125e+02,-1.806660308837890625e+02,4.030399620532989502e-01,-6.667234802246093750e+01,-1.826865997314453125e+02,-2.342819452285766602e+00,7.562197875976562500e+01,3.135619926452636719e+01
5.828899890184402466e-02,1.000000000000000000e+00,7.735769271850585938e+00,-1.011690998077392578e+01,2.642015695571899414e+00,-2.074213256835937500e+02,-1.019231719970703125e+02,-1.806660308837890625e+02,4.030399620532989502e-01,-6.667234802246093750e+01,-1.826865997314453125e+02,-2.342819452285766602e+00,7.562197875976562500e+01,3.135619926452636719e+01
6.207200139760971069e-02,1.000000000000000000e+00,7.734822273254394531e+00,-1.011632156372070312e+01,2.642076730728149414e+00,-2.074214324951171875e+02,-1.019230117797851562e+02,-1.806661682128906250e+02,4.030399620532989502e-01,-6.667224884033203125e+01,-1.826865997314453125e+02,-2.342819452285766602e+00,7.562212371826171875e+01,3.135619926452636719e+01
6.463699787855148315e-02,1.000000000000000000e+00,7.733013153076171875e+00,-1.011512184143066406e+01,2.642015695571899414e+00,-2.074214324951171875e+02,-1.019231719970703125e+02,-1.806661682128906250e+02,4.030399620532989502e-01,-6.667234802246093750e+01,-1.826865997314453125e+02,-2.342891216278076172e+00,7.562197875976562500e+01,3.135619926452636719e+01
6.596499681472778320e-02,1.000000000000000000e+00,7.733013153076171875e+00,-1.011512184143066406e+01,2.642015695571899414e+00,-2.074214324951171875e+02,-1.019231719970703125e+02,-1.806661682128906250e+02,4.030399620532989502e-01,-6.667234802246093750e+01,-1.826865997314453125e+02,-2.342891216278076172e+00,7.562197875976562500e+01,3.135619926452636719e+01
6.846100091934204102e-02,1.000000000000000000e+00,7.730315208435058594e+00,-1.011315345764160156e+01,2.642076730728149414e+00,-2.074214324951171875e+02,-1.019228057861328125e+02,-1.806661682128906250e+02,4.030399620532989502e-01,-6.667216491699218750e+01,-1.826865997314453125e+02,-2.342819452285766602e+00,7.562197875976562500e+01,3.135619926452636719e+01
7.062499970197677612e-02,1.000000000000000000e+00,7.730315208435058594e+00,-1.011315345764160156e+01,2.642076730728149414e+00,-2.074214324951171875e+02,-1.019228057861328125e+02,-1.806661682128906250e+02,4.030399620532989502e-01,-6.667216491699218750e+01,-1.826865997314453125e+02,-2.342819452285766602e+00,7.562197875976562500e+01,3.135619926452636719e+01
7.394500076770782471e-02,1.000000000000000000e+00,7.726554393768310547e+00,-1.011046028137207031e+01,2.642117261886596680e+00,-2.074212188720703125e+02,-1.019222717285156250e+02,-1.806658325195312500e+02,4.030399620532989502e-01,-6.667224884033203125e+01,-1.826865997314453125e+02,-2.342819452285766602e+00,7.562197875976562500e+01,3.135619926452636719e+01
7.636699825525283813e-02,1.000000000000000000e+00,7.721760272979736328e+00,-1.010647773742675781e+01,2.642300367355346680e+00,-2.074209594726562500e+02,-1.019213638305664062e+02,-1.806656188964843750e+02,4.030399620532989502e-01,-6.667224884033203125e+01,-1.826865997314453125e+02,-2.342747688293457031e+00,7.562197875976562500e+01,3.135619926452636719e+01
7.765799760818481445e-02,1.000000000000000000e+00,7.721760272979736328e+00,-1.010647773742675781e+01,2.642300367355346680e+00,-2.074209594726562500e+02,-1.019213638305664062e+02,-1.806656188964843750e+02,4.030399620532989502e-01,-6.667224884033203125e+01,-1.826865997314453125e+02,-2.342747688293457031e+00,7.562197875976562500e+01,3.135619926452636719e+01
8.045499771833419800e-02,1.000000000000000000e+00,7.715645790100097656e+00,-1.010118103027343750e+01,2.642564535140991211e+00,-2.074196929931640625e+02,-1.019194412231445312e+02,-1.806648101806640625e+02,4.030399620532989502e-01,-6.667224884033203125e+01,-1.826865997314453125e+02,-2.342819452285766602e+00,7.562182617187500000e+01,3.135619926452636719e+01
8.183600008487701416e-02,1.000000000000000000e+00,7.715645790100097656e+00,-1.010118103027343750e+01,2.642564535140991211e+00,-2.074196929931640625e+02,-1.019194412231445312e+02,-1.806648101806640625e+02,4.030399620532989502e-01,-6.667224884033203125e+01,-1.826865997314453125e+02,-2.342819452285766602e+00,7.562182617187500000e+01,3.135619926452636719e+01
8.441700041294097900e-02,1.000000000000000000e+00,7.708067417144775391e+00,-1.009409809112548828e+01,2.643133878707885742e+00,-2.074174804687500000e+02,-1.019165573120117188e+02,-1.806630401611328125e+02,4.030399620532989502e-01,-6.667224884033203125e+01,-1.826865997314453125e+02,-2.342819452285766602e+00,7.562212371826171875e+01,3.135619926452636719e+01
8.818600326776504517e-02,1.000000000000000000e+00,7.708067417144775391e+00,-1.009409809112548828e+01,2.643133878707885742e+00,-2.074174804687500000e+02,-1.019165573120117188e+02,-1.806630401611328125e+02,4.030399620532989502e-01,-6.667224884033203125e+01,-1.826865997314453125e+02,-2.342819452285766602e+00,7.562212371826171875e+01,3.135619926452636719e+01
9.222900122404098511e-02,1.000000000000000000e+00,7.698794841766357422e+00,-1.008482074737548828e+01,2.643886327743530273e+00,-2.074141540527343750e+02,-1.019123535156250000e+02,-1.806606750488281250e+02,4.030399620532989502e-01,-6.667224884033203125e+01,-1.826865997314453125e+02,-2.342819452285766602e+00,7.562197875976562500e+01,3.135619926452636719e+01
9.684800356626510620e-02,1.000000000000000000e+00,7.687455654144287109e+00,-1.007312011718750000e+01,2.645045042037963867e+00,-2.074092102050781250e+02,-1.019060592651367188e+02,-1.806577606201171875e+02,4.030399620532989502e-01,-6.667224884033203125e+01,-1.826867065429687500e+02,-2.342747688293457031e+00,7.562197875976562500e+01,3.135619926452636719e+01
1.002480015158653259e-01,1.000000000000000000e+00,7.673647403717041016e+00,-1.005872821807861328e+01,2.646447896957397461e+00,-2.074028320312500000e+02,-1.018975296020507812e+02,-1.806519165039062500e+02,4.030399620532989502e-01,-6.667234802246093750e+01,-1.826865997314453125e+02,-2.342891216278076172e+00,7.562197875976562500e+01,3.135619926452636719e+01
1.040339991450309753e-01,1.000000000000000000e+00,7.657227993011474609e+00,-1.004186916351318359e+01,2.648501396179199219e+00,-2.073939361572265625e+02,-1.018860626220703125e+02,-1.806424255371093750e+02,4.030399620532989502e-01,-6.667216491699218750e+01,-1.826864318847656250e+02,-2.342891216278076172e+00,7.562197875976562500e+01,3.135619926452636719e+01
1.069639995694160461e-01,1.000000000000000000e+00,7.638080120086669922e+00,-1.002317619323730469e+01,2.651103973388671875e+00,-2.073826599121093750e+02,-1.018716735839843750e+02,-1.806301574707031250e+02,4.030399620532989502e-01,-6.667224884033203125e+01,-1.826865997314453125e+02,-2.342891216278076172e+00,7.562197875976562500e+01,3.135619926452636719e+01
1.125369966030120850e-01,1.000000000000000000e+00,7.616579055786132812e+00,-1.000283145904541016e+01,2.654194355010986328e+00,-2.073690338134765625e+02,-1.018536453247070312e+02,-1.806152954101562500e+02,4.030399620532989502e-01,-6.667224884033203125e+01,-1.826865997314453125e+02,-2.342819452285766602e+00,7.562197875976562500e+01,3.135619926452636719e+01
1.163220033049583435e-01,1.000000000000000000e+00,7.592780590057373047e+00,-9.981039047241210938e+00,2.657650709152221680e+00,-2.073524780273437500e+02,-1.018309936523437500e+02,-1.805977478027343750e+02,4.030399620532989502e-01,-6.667224884033203125e+01,-1.826864318847656250e+02,-2.342819452285766602e+00,7.562197875976562500e+01,3.135619926452636719e+01
1.189069971442222595e-01,1.000000000000000000e+00,7.566743373870849609e+00,-9.958024978637695312e+00,2.661554336547851562e+00,-2.073329925537109375e+02,-1.018033676147460938e+02,-1.805754852294921875e+02,4.030399620532989502e-01,-6.667224884033203125e+01,-1.826867065429687500e+02,-2.342819452285766602e+00,7.562197875976562500e+01,3.135619926452636719e+01
1.229270026087760925e-01,1.000000000000000000e+00,7.538094043731689453e+00,-9.933471679687500000e+00,2.665946245193481445e+00,-2.073104553222656250e+02,-1.017718658447265625e+02,-1.805498657226562500e+02,4.030399620532989502e-01,-6.667224884033203125e+01,-1.826865997314453125e+02,-2.342891216278076172e+00,7.562197875976562500e+01,3.135619926452636719e+01
1.284250020980834961e-01,1.000000000000000000e+00,7.506745815277099609e+00,-9.907197952270507812e+00,2.670703887939453125e+00,-2.072844238281250000e+02,-1.017368316650390625e+02,-1.805200195312500000e+02,4.030399620532989502e-01,-6.667224884033203125e+01,-1.826865997314453125e+02,-2.342819452285766602e+00,7.562197875976562500e+01,3.135619926452636719e+01
1.309559941291809082e-01,1.000000000000000000e+00,7.472986698150634766e+00,-9.879318237304687500e+00,2.676152706146240234e+00,-2.072537689208984375e+02,-1.016976470947265625e+02,-1.804857025146484375e+02,4.030399620532989502e-01,-6.667234802246093750e+01,-1.826864318847656250e+02,-2.342819452285766602e+00,7.562197875976562500e+01,3.135619926452636719e+01
1.365029960870742798e-01,1.000000000000000000e+00,7.436328411102294922e+00,-9.849672317504882812e+00,2.682292938232421875e+00,-2.072187500000000000e+02,-1.016516342163085938e+02,-1.804462432861328125e+02,4.030399620532989502e-01,-6.667224884033203125e+01,-1.826865997314453125e+02,-2.342747688293457031e+00,7.562197875976562500e+01,3.135619926452636719e+01
1.406760066747665405e-01,1.000000000000000000e+00,7.396914005279541016e+00,-9.818307876586914062e+00,2.688880443572998047e+00,-2.071810913085937500e+02,-1.016006622314453125e+02,-1.804050750732421875e+02,4.030399620532989502e-01,-6.667216491699218750e+01,-1.826865997314453125e+02,-2.342819452285766602e+00,7.562197875976562500e+01,3.135619926452636719e+01
1.446159929037094116e-01,1.000000000000000000e+00,7.355088233947753906e+00,-9.785154342651367188e+00,2.695894956588745117e+00,-2.071418457031250000e+02,-1.015480880737304688e+02,-1.803611297607421875e+02,4.030399620532989502e-01,-6.667224884033203125e+01,-1.826867065429687500e+02,-2.342819452285766602e+00,7.562197875976562500e+01,3.135619926452636719e+01
1.492940038442611694e-01,1.000000000000000000e+00,7.311654567718505859e+00,-9.750621795654296875e+00,2.703234672546386719e+00,-2.070994415283203125e+02,-1.014914245605468750e+02,-1.803132476806640625e+02,4.030399620532989502e-01,-6.667224884033203125e+01,-1.826867065429687500e+02,-2.342891216278076172e+00,7.562197875976562500e+01,3.135619926452636719e+01
1.509069949388504028e-01,1.000000000000000000e+00,7.266384124755859375e+00,-9.714458465576171875e+00,2.711103200912475586e+00,-2.070523529052734375e+02,-1.014295730590820312e+02,-1.802600708007812500e+02,4.030399620532989502e-01,-6.667216491699218750e+01,-1.826865997314453125e+02,-2.342819452285766602e+00,7.562197875976562500e+01,3.135619926452636719e+01
1.549569964408874512e-01,1.000000000000000000e+00,7.218816757202148438e+00,-9.676124572753906250e+00,2.719296932220458984e+00,-2.070042572021484375e+02,-1.013654861450195312e+02,-1.802056884765625000e+02,4.030399620532989502e-01,-6.667224884033203125e+01,-1.826865997314453125e+02,-2.342819452285766602e+00,7.562197875976562500e+01,3.135619926452636719e+01
1.589290052652359009e-01,1.000000000000000000e+00,7.169125556945800781e+00,-9.635457992553710938e+00,2.727897167205810547e+00,-2.069560089111328125e+02,-1.012984695434570312e+02,-1.801512908935546875e+02,4.030399620532989502e-01,-6.667224884033203125e+01,-1.826865997314453125e+02,-2.342819452285766602e+00,7.562197875976562500e+01,3.135619926452636719e+01
1.629569977521896362e-01,1.000000000000000000e+00,7.116706848144531250e+00,-9.592348098754882812e+00,2.737087249755859375e+00,-2.069048614501953125e+02,-1.012309188842773438e+02,-1.800944061279296875e+02,4.030399620532989502e-01,-6.667234802246093750e+01,-1.826865997314453125e+02,-2.342819452285766602e+00,7.562197875976562500e+01,3.135619926452636719e+01
1.669729948043823242e-01,1.000000000000000000e+00,7.062651634216308594e+00,-9.546726226806640625e+00,2.746643066406250000e+00,-2.068523406982421875e+02,-1.011612854003906250e+02,-1.800343170166015625e+02,4.030399620532989502e-01,-6.667224884033203125e+01,-1.826865997314453125e+02,-2.342747688293457031e+00,7.562197875976562500e+01,3.135619926452636719e+01
1.709239929914474487e-01,1.000000000000000000e+00,7.006931781768798828e+00,-9.498977661132812500e+00,2.756381988525390625e+00,-2.067990264892578125e+02,-1.010892028808593750e+02,-1.799743041992187500e+02,4.030399620532989502e-01,-6.667224884033203125e+01,-1.826867065429687500e+02,-2.342747688293457031e+00,7.562197875976562500e+01,3.135619926452636719e+01
1.767980009317398071e-01,1.000000000000000000e+00,6.949661731719970703e+00,-9.450140953063964844e+00,2.766365051269531250e+00,-2.067448883056640625e+02,-1.010161056518554688e+02,-1.799144134521484375e+02,4.030399620532989502e-01,-6.667234802246093750e+01,-1.826865997314453125e+02,-2.342891216278076172e+00,7.562197875976562500e+01,3.135619926452636719e+01
1.807280033826828003e-01,1.000000000000000000e+00,6.891071319580078125e+00,-9.399971008300781250e+00,2.776449441909790039e+00,-2.066909484863281250e+02,-1.009432754516601562e+02,-1.798522949218750000e+02,4.030399620532989502e-01,-6.667224884033203125e+01,-1.826865997314453125e+02,-2.342747688293457031e+00,7.562197875976562500e+01,3.135642242431640625e+01
1.850659996271133423e-01,1.000000000000000000e+00,6.831447124481201172e+00,-9.348782539367675781e+00,2.786655902862548828e+00,-2.066367492675781250e+02,-1.008696975708007812e+02,-1.797914733886718750e+02,4.030399620532989502e-01,-6.667224884033203125e+01,-1.826865997314453125e+02,-2.342819452285766602e+00,7.562197875976562500e+01,3.135619926452636719e+01
1.869439929723739624e-01,1.000000000000000000e+00,6.770933151245117188e+00,-9.296936988830566406e+00,2.796862602233886719e+00,-2.065816497802734375e+02,-1.007957992553710938e+02,-1.797299499511718750e+02,4.030399620532989502e-01,-6.667224884033203125e+01,-1.826865997314453125e+02,-2.342819452285766602e+00,7.562197875976562500e+01,3.135619926452636719e+01
1.909780055284500122e-01,1.000000000000000000e+00,6.709644317626953125e+00,-9.244277000427246094e+00,2.807008266448974609e+00,-2.065269165039062500e+02,-1.007208404541015625e+02,-1.796671600341796875e+02,4.030399620532989502e-01,-6.667224884033203125e+01,-1.826867065429687500e+02,-2.342819452285766602e+00,7.562197875976562500e+01,3.135619926452636719e+01
1.949049979448318481e-01,1.000000000000000000e+00,6.647637367248535156e+00,-9.191187858581542969e+00,2.817194461822509766e+00,-2.064717712402343750e+02,-1.006466751098632812e+02,-1.796055755615234375e+02,4.030399620532989502e-01,-6.667234802246093750e+01,-1.826865997314453125e+02,-2.342819452285766602e+00,7.562197875976562500e+01,3.135619926452636719e+01
2.010370045900344849e-01,1.000000000000000000e+00,6.584855556488037109e+00,-9.137463569641113281e+00,2.827543497085571289e+00,-2.064171447753906250e+02,-1.005724029541015625e+02,-1.795435333251953125e+02,4.030399620532989502e-01,-6.667234802246093750e+01,-1.826865997314453125e+02,-2.342747688293457031e+00,7.562197875976562500e+01,3.135619926452636719e+01
2.030220031738281250e-01,1.000000000000000000e+00,6.521872997283935547e+00,-9.083446502685546875e+00,2.838075160980224609e+00,-2.063621673583984375e+02,-1.004977111816406250e+02,-1.794810638427734375e+02,4.030399620532989502e-01,-6.667224884033203125e+01,-1.826865997314453125e+02,-2.342891216278076172e+00,7.562197875976562500e+01,3.135642242431640625e+01
2.069460004568099976e-01,1.000000000000000000e+00,6.458602905273437500e+00,-9.029496192932128906e+00,2.848728895187377930e+00,-2.063066406250000000e+02,-1.004226913452148438e+02,-1.794189453125000000e+02,4.030399620532989502e-01,-6.667224884033203125e+01,-1.826865997314453125e+02,-2.342891216278076172e+00,7.562197875976562500e+01,3.135619926452636719e+01
2.109050005674362183e-01,1.000000000000000000e+00,6.395390510559082031e+00,-8.975546836853027344e+00,2.859240531921386719e+00,-2.062518463134765625e+02,-1.003486404418945312e+02,-1.793574371337890625e+02,4.030399620532989502e-01,-6.667224884033203125e+01,-1.826865997314453125e+02,-2.342819452285766602e+00,7.562197875976562500e+01,3.135619926452636719e+01
2.171400040388107300e-01,1.000000000000000000e+00,6.332235813140869141e+00,-8.921552658081054688e+00,2.869548797607421875e+00,-2.061968078613281250e+02,-1.002739486694335938e+02,-1.792942962646484375e+02,4.030399620532989502e-01,-6.667224884033203125e+01,-1.826865997314453125e+02,-2.342747688293457031e+00,7.562197875976562500e+01,3.135642242431640625e+01
2.189490050077438354e-01,1.000000000000000000e+00,6.269109249114990234e+00,-8.867670059204101562e+00,2.879897594451904297e+00,-2.061417083740234375e+02,-1.001993026733398438e+02,-1.792324523925781250e+02,4.030399620532989502e-01,-6.667234802246093750e+01,-1.826865997314453125e+02,-2.342819452285766602e+00,7.562197875976562500e+01,3.135619926452636719e+01
2.250699996948242188e-01,1.000000000000000000e+00,6.206040382385253906e+00,-8.813585281372070312e+00,2.890490531921386719e+00,-2.060868377685546875e+02,-1.001238632202148438e+02,-1.791702575683593750e+02,4.030399620532989502e-01,-6.667224884033203125e+01,-1.826867065429687500e+02,-2.342747688293457031e+00,7.562197875976562500e+01,3.135619926452636719e+01
2.269749939441680908e-01,1.000000000000000000e+00,6.142885684967041016e+00,-8.759612083435058594e+00,2.901063203811645508e+00,-2.060315246582031250e+02,-1.000501251220703125e+02,-1.791071929931640625e+02,4.030399620532989502e-01,-6.667234802246093750e+01,-1.826865997314453125e+02,-2.342891216278076172e+00,7.562182617187500000e+01,3.135619926452636719e+01
2.309859991073608398e-01,1.000000000000000000e+00,6.079874038696289062e+00,-8.705707550048828125e+00,2.911737203598022461e+00,-2.059767456054687500e+02,-9.997558593750000000e+01,-1.790454101562500000e+02,4.030399620532989502e-01,-6.667234802246093750e+01,-1.826865997314453125e+02,-2.342819452285766602e+00,7.562197875976562500e+01,3.135619926452636719e+01
2.374279946088790894e-01,1.000000000000000000e+00,6.017149448394775391e+00,-8.652029991149902344e+00,2.922126770019531250e+00,-2.059212646484375000e+02,-9.990115356445312500e+01,-1.789839782714843750e+02,4.030399620532989502e-01,-6.667224884033203125e+01,-1.826865997314453125e+02,-2.342819452285766602e+00,7.562197875976562500e+01,3.135619926452636719e+01
2.389609962701797485e-01,1.000000000000000000e+00,5.954224109649658203e+00,-8.598328590393066406e+00,2.932333469390869141e+00,-2.058663330078125000e+02,-9.982524108886718750e+01,-1.789212951660156250e+02,4.030399620532989502e-01,-6.667224884033203125e+01,-1.826865997314453125e+02,-2.342819452285766602e+00,7.562197875976562500e+01,3.135619926452636719e+01
2.461729943752288818e-01,1.000000000000000000e+00,5.954224109649658203e+00,-8.598328590393066406e+00,2.932333469390869141e+00,-2.058663330078125000e+02,-9.982524108886718750e+01,-1.789212951660156250e+02,4.030399620532989502e-01,-6.667224884033203125e+01,-1.826865997314453125e+02,-2.342891216278076172e+00,7.562197875976562500e+01,3.135619926452636719e+01
2.476799935102462769e-01,1.000000000000000000e+00,5.828402519226074219e+00,-8.490700721740722656e+00,2.953397035598754883e+00,-2.057561950683593750e+02,-9.967701721191406250e+01,-1.787976074218750000e+02,4.030399620532989502e-01,-6.667224884033203125e+01,-1.826865997314453125e+02,-2.342819452285766602e+00,7.562197875976562500e+01,3.135619926452636719e+01
2.520039975643157959e-01,1.000000000000000000e+00,5.765534400939941406e+00,-8.436977386474609375e+00,2.963969707489013672e+00,-2.057012634277343750e+02,-9.960243225097656250e+01,-1.787348175048828125e+02,4.030399620532989502e-01,-6.667224884033203125e+01,-1.826865997314453125e+02,-2.342819452285766602e+00,7.562197875976562500e+01,3.135619926452636719e+01
2.555679976940155029e-01,1.000000000000000000e+00,5.702723979949951172e+00,-8.383344650268554688e+00,2.974461078643798828e+00,-2.056464233398437500e+02,-9.952698516845703125e+01,-1.786734313964843750e+02,4.030399620532989502e-01,-6.667224884033203125e+01,-1.826865997314453125e+02,-2.342747688293457031e+00,7.562197875976562500e+01,3.135619926452636719e+01
2.599740028381347656e-01,1.000000000000000000e+00,5.639798641204833984e+00,-8.329733848571777344e+00,2.984647035598754883e+00,-2.055906372070312500e+02,-9.945276641845703125e+01,-1.786121215820312500e+02,4.030399620532989502e-01,-6.667224884033203125e+01,-1.826867065429687500e+02,-2.342819452285766602e+00,7.562197875976562500e+01,3.135619926452636719e+01
2.629390060901641846e-01,1.000000000000000000e+00,5.577045440673828125e+00,-8.276079177856445312e+00,2.995036602020263672e+00,-2.055362243652343750e+02,-9.937844848632812500e+01,-1.785498046875000000e+02,4.030399620532989502e-01,-6.667224884033203125e+01,-1.826864318847656250e+02,-2.342819452285766602e+00,7.562197875976562500e+01,3.135598182678222656e+01
2.680040001869201660e-01,1.000000000000000000e+00,5.577045440673828125e+00,-8.276079177856445312e+00,2.995036602020263672e+00,-2.055362243652343750e+02,-9.937844848632812500e+01,-1.785498046875000000e+02,4.030399620532989502e-01,-6.667224884033203125e+01,-1.826864318847656250e+02,-2.342819452285766602e+00,7.562197875976562500e+01,3.135598182678222656e+01
2.719059884548187256e-01,1.000000000000000000e+00,5.451596736907958984e+00,-8.169130325317382812e+00,3.015998840332031250e+00,-2.054258270263671875e+02,-9.922856903076171875e+01,-1.784262542724609375e+02,4.030399620532989502e-01,-6.667224884033203125e+01,-1.826865997314453125e+02,-2.342819452285766602e+00,7.562197875976562500e+01,3.135619926452636719e+01
2.749390006065368652e-01,1.000000000000000000e+00,5.388843536376953125e+00,-8.115677833557128906e+00,3.026408672332763672e+00,-2.053710479736328125e+02,-9.915435791015625000e+01,-1.783635711669921875e+02,4.030399620532989502e-01,-6.667224884033203125e+01,-1.826865997314453125e+02,-2.342819452285766602e+00,7.562197875976562500e+01,3.135619926452636719e+01
2.799710035324096680e-01,1.000000000000000000e+00,5.388843536376953125e+00,-8.115677833557128906e+00,3.026408672332763672e+00,-2.053710479736328125e+02,-9.915435791015625000e+01,-1.783635711669921875e+02,4.030399620532989502e-01,-6.667224884033203125e+01,-1.826865997314453125e+02,-2.342819452285766602e+00,7.562197875976562500e+01,3.135619926452636719e+01
2.829039990901947021e-01,1.000000000000000000e+00,5.263107776641845703e+00,-8.008841514587402344e+00,3.046801328659057617e+00,-2.052606353759765625e+02,-9.900560760498046875e+01,-1.782405700683593750e+02,4.030399620532989502e-01,-6.667224884033203125e+01,-1.826865997314453125e+02,-2.342819452285766602e+00,7.562197875976562500e+01,3.135619926452636719e+01
2.880049943923950195e-01,1.000000000000000000e+00,5.263107776641845703e+00,-8.008841514587402344e+00,3.046801328659057617e+00,-2.052606353759765625e+02,-9.900560760498046875e+01,-1.782405700683593750e+02,4.030399620532989502e-01,-6.667224884033203125e+01,-1.826865997314453125e+02,-2.342819452285766602e+00,7.562197875976562500e+01,3.135619926452636719e+01
2.910000085830688477e-01,1.000000000000000000e+00,5.137371540069580078e+00,-7.901937961578369141e+00,3.067723035812377930e+00,-2.051504974365234375e+02,-9.885626220703125000e+01,-1.781161804199218750e+02,4.030399620532989502e-01,-6.667234802246093750e+01,-1.826864318847656250e+02,-2.342891216278076172e+00,7.562197875976562500e+01,3.135619926452636719e+01
2.959749996662139893e-01,1.000000000000000000e+00,5.137371540069580078e+00,-7.901937961578369141e+00,3.067723035812377930e+00,-2.051504974365234375e+02,-9.885626220703125000e+01,-1.781161804199218750e+02,4.030399620532989502e-01,-6.667234802246093750e+01,-1.826864318847656250e+02,-2.342891216278076172e+00,7.562197875976562500e+01,3.135619926452636719e+01
2.989070117473602295e-01,1.000000000000000000e+00,5.011234283447265625e+00,-7.794898986816406250e+00,3.088705301284790039e+00,-2.050404663085937500e+02,-9.870751953125000000e+01,-1.779910583496093750e+02,4.030399620532989502e-01,-6.667224884033203125e+01,-1.826865997314453125e+02,-2.342891216278076172e+00,7.562197875976562500e+01,3.135619926452636719e+01
3.039569854736328125e-01,1.000000000000000000e+00,5.011234283447265625e+00,-7.794898986816406250e+00,3.088705301284790039e+00,-2.050404663085937500e+02,-9.870751953125000000e+01,-1.779910583496093750e+02,4.030399620532989502e-01,-6.667224884033203125e+01,-1.826865997314453125e+02,-2.342891216278076172e+00,7.562197875976562500e+01,3.135619926452636719e+01
3.069129884243011475e-01,1.000000000000000000e+00,4.884751796722412109e+00,-7.687315464019775391e+00,3.109484434127807617e+00,-2.049311065673828125e+02,-9.855844116210937500e+01,-1.778685302734375000e+02,4.030399620532989502e-01,-6.667234802246093750e+01,-1.826865997314453125e+02,-2.342819452285766602e+00,7.562197875976562500e+01,3.135598182678222656e+01
3.120220005512237549e-01,1.000000000000000000e+00,4.884751796722412109e+00,-7.687315464019775391e+00,3.109484434127807617e+00,-2.049311065673828125e+02,-9.855844116210937500e+01,-1.778685302734375000e+02,4.030399620532989502e-01,-6.667234802246093750e+01,-1.826865997314453125e+02,-2.342819452285766602e+00,7.562197875976562500e+01,3.135598182678222656e+01
3.149949908256530762e-01,1.000000000000000000e+00,4.758441925048828125e+00,-7.579371452331542969e+00,3.130690336227416992e+00,-2.048209686279296875e+02,-9.840979766845703125e+01,-1.777442779541015625e+02,4.030399620532989502e-01,-6.667224884033203125e+01,-1.826865997314453125e+02,-2.342819452285766602e+00,7.562197875976562500e+01,3.135619926452636719e+01
3.200300037860870361e-01,1.000000000000000000e+00,4.758441925048828125e+00,-7.579371452331542969e+00,3.130690336227416992e+00,-2.048209686279296875e+02,-9.840979766845703125e+01,-1.777442779541015625e+02,4.030399620532989502e-01,-6.667224884033203125e+01,-1.826865997314453125e+02,-2.342819452285766602e+00,7.562197875976562500e+01,3.135619926452636719e+01
3.229669928550720215e-01,1.000000000000000000e+00,4.632017135620117188e+00,-7.471788883209228516e+00,3.151449203491210938e+00,-2.047106628417968750e+02,-9.826131439208984375e+01,-1.776199035644531250e+02,4.030399620532989502e-01,-6.667224884033203125e+01,-1.826865997314453125e+02,-2.342891216278076172e+00,7.562197875976562500e+01,3.135619926452636719e+01
3.270890116691589355e-01,1.000000000000000000e+00,4.632017135620117188e+00,-7.471788883209228516e+00,3.151449203491210938e+00,-2.047106628417968750e+02,-9.826131439208984375e+01,-1.776199035644531250e+02,4.030399620532989502e-01,-6.667224884033203125e+01,-1.826865997314453125e+02,-2.342891216278076172e+00,7.562197875976562500e+01,3.135619926452636719e+01
3.309989869594573975e-01,1.000000000000000000e+00,4.568890571594238281e+00,-7.417951583862304688e+00,3.161838769912719727e+00,-2.046564178466796875e+02,-9.818741607666015625e+01,-1.775589447021484375e+02,4.030399620532989502e-01,-6.667216491699218750e+01,-1.826865997314453125e+02,-2.342747688293457031e+00,7.562197875976562500e+01,3.135619926452636719e+01
3.359490036964416504e-01,1.000000000000000000e+00,4.505735874176025391e+00,-7.363843917846679688e+00,3.172513008117675781e+00,-2.046011657714843750e+02,-9.811250305175781250e+01,-1.774970855712890625e+02,4.030399620532989502e-01,-6.667224884033203125e+01,-1.826865997314453125e+02,-2.342891216278076172e+00,7.562197875976562500e+01,3.135619926452636719e+01
3.389059901237487793e-01,1.000000000000000000e+00,4.379426002502441406e+00,-7.255921840667724609e+00,3.193576574325561523e+00,-2.044911804199218750e+02,-9.796423339843750000e+01,-1.773738708496093750e+02,4.030399620532989502e-01,-6.667224884033203125e+01,-1.826865997314453125e+02,-2.342891216278076172e+00,7.562197875976562500e+01,3.135619926452636719e+01
3.439440131187438965e-01,1.000000000000000000e+00,4.379426002502441406e+00,-7.255921840667724609e+00,3.193576574325561523e+00,-2.044911804199218750e+02,-9.796423339843750000e+01,-1.773738708496093750e+02,4.030399620532989502e-01,-6.667224884033203125e+01,-1.826865997314453125e+02,-2.342891216278076172e+00,7.562197875976562500e+01,3.135619926452636719e+01
3.469069898128509521e-01,1.000000000000000000e+00,4.253403186798095703e+00,-7.148339271545410156e+00,3.214457273483276367e+00,-2.043817138671875000e+02,-9.781521606445312500e+01,-1.772496948242187500e+02,4.030399620532989502e-01,-6.667224884033203125e+01,-1.826865997314453125e+02,-2.342819452285766602e+00,7.562197875976562500e+01,3.135619926452636719e+01
3.521000146865844727e-01,1.000000000000000000e+00,4.253403186798095703e+00,-7.148339271545410156e+00,3.214457273483276367e+00,-2.043817138671875000e+02,-9.781521606445312500e+01,-1.772496948242187500e+02,4.030399620532989502e-01,-6.667224884033203125e+01,-1.826865997314453125e+02,-2.342819452285766602e+00,7.562197875976562500e+01,3.135619926452636719e+01
3.549909889698028564e-01,1.000000000000000000e+00,4.127666950225830078e+00,-7.040371894836425781e+00,3.235663414001464844e+00,-2.042716369628906250e+02,-9.766753387451171875e+01,-1.771261291503906250e+02,4.030399620532989502e-01,-6.667224884033203125e+01,-1.826867065429687500e+02,-2.342819452285766602e+00,7.562197875976562500e+01,3.135619926452636719e+01
3.600200116634368896e-01,1.000000000000000000e+00,4.127666950225830078e+00,-7.040371894836425781e+00,3.235663414001464844e+00,-2.042716369628906250e+02,-9.766753387451171875e+01,-1.771261291503906250e+02,4.030399620532989502e-01,-6.667224884033203125e+01,-1.826867065429687500e+02,-2.342819452285766602e+00,7.562197875976562500e+01,3.135619926452636719e+01
3.629089891910552979e-01,1.000000000000000000e+00,4.001787662506103516e+00,-6.932245731353759766e+00,3.256625413894653320e+00,-2.041614837646484375e+02,-9.751824188232421875e+01,-1.770027008056640625e+02,4.030399620532989502e-01,-6.667216491699218750e+01,-1.826864318847656250e+02,-2.342819452285766602e+00,7.562197875976562500e+01,3.135619926452636719e+01
3.679639995098114014e-01,1.000000000000000000e+00,4.001787662506103516e+00,-6.932245731353759766e+00,3.256625413894653320e+00,-2.041614837646484375e+02,-9.751824188232421875e+01,-1.770027008056640625e+02,4.030399620532989502e-01,-6.667216491699218750e+01,-1.826864318847656250e+02,-2.342819452285766602e+00,7.562197875976562500e+01,3.135619926452636719e+01
3.730590045452117920e-01,1.000000000000000000e+00,3.939006090164184570e+00,-6.878612995147705078e+00,3.266954183578491211e+00,-2.041069641113281250e+02,-9.744423675537109375e+01,-1.769405822753906250e+02,4.030399620532989502e-01,-6.667224884033203125e+01,-1.826865997314453125e+02,-2.342819452285766602e+00,7.562182617187500000e+01,3.135619926452636719e+01
3.768579959869384766e-01,1.000000000000000000e+00,3.813269853591918945e+00,-6.771052837371826172e+00,3.288058757781982422e+00,-2.039971466064453125e+02,-9.729629516601562500e+01,-1.768167419433593750e+02,4.030399620532989502e-01,-6.667224884033203125e+01,-1.826865997314453125e+02,-2.342819452285766602e+00,7.562197875976562500e+01,3.135619926452636719e+01
3.795059919357299805e-01,1.000000000000000000e+00,3.750545740127563477e+00,-6.717420101165771484e+00,3.298671722412109375e+00,-2.039429016113281250e+02,-9.722154235839843750e+01,-1.767552490234375000e+02,4.030399620532989502e-01,-6.667216491699218750e+01,-1.826867065429687500e+02,-2.342747688293457031e+00,7.562197875976562500e+01,3.135619926452636719e+01
3.839649856090545654e-01,1.000000000000000000e+00,3.750545740127563477e+00,-6.717420101165771484e+00,3.298671722412109375e+00,-2.039429016113281250e+02,-9.722154235839843750e+01,-1.767552490234375000e+02,4.030399620532989502e-01,-6.667216491699218750e+01,-1.826867065429687500e+02,-2.342747688293457031e+00,7.562197875976562500e+01,3.135619926452636719e+01
3.880110085010528564e-01,1.000000000000000000e+00,3.687706232070922852e+00,-6.663538455963134766e+00,3.309020757675170898e+00,-2.038872680664062500e+02,-9.714705657958984375e+01,-1.766927032470703125e+02,4.030399620532989502e-01,-6.667224884033203125e+01,-1.826864318847656250e+02,-2.342747688293457031e+00,7.562197875976562500e+01,3.135619926452636719e+01
3.929550051689147949e-01,1.000000000000000000e+00,3.625096797943115234e+00,-6.609973430633544922e+00,3.319308519363403320e+00,-2.038323822021484375e+02,-9.707316589355468750e+01,-1.766314697265625000e+02,4.030399620532989502e-01,-6.667224884033203125e+01,-1.826865997314453125e+02,-2.342747688293457031e+00,7.562197875976562500e+01,3.135619926452636719e+01
3.963859975337982178e-01,1.000000000000000000e+00,3.499447107315063477e+00,-6.502820968627929688e+00,3.340473890304565430e+00,-2.037227172851562500e+02,-9.692414093017578125e+01,-1.765071563720703125e+02,4.030399620532989502e-01,-6.667224884033203125e+01,-1.826865997314453125e+02,-2.342819452285766602e+00,7.562197875976562500e+01,3.135619926452636719e+01
4.007090032100677490e-01,1.000000000000000000e+00,3.436808824539184570e+00,-6.449346065521240234e+00,3.351046562194824219e+00,-2.036680297851562500e+02,-9.685030364990234375e+01,-1.764460601806640625e+02,4.030399620532989502e-01,-6.667224884033203125e+01,-1.826865997314453125e+02,-2.342819452285766602e+00,7.562197875976562500e+01,3.135619926452636719e+01
4.039719998836517334e-01,1.000000000000000000e+00,3.373912096023559570e+00,-6.395803928375244141e+00,3.361436128616333008e+00,-2.036127319335937500e+02,-9.677576446533203125e+01,-1.763845520019531250e+02,4.030399620532989502e-01,-6.667224884033203125e+01,-1.826865997314453125e+02,-2.342747688293457031e+00,7.562197875976562500e+01,3.135619926452636719e+01
4.079569876194000244e-01,1.000000000000000000e+00,3.373912096023559570e+00,-6.395803928375244141e+00,3.361436128616333008e+00,-2.036127319335937500e+02,-9.677576446533203125e+01,-1.763845520019531250e+02,4.030399620532989502e-01,-6.667224884033203125e+01,-1.826865997314453125e+02,-2.342747688293457031e+00,7.562197875976562500e+01,3.135619926452636719e+01
4.119490087032318115e-01,1.000000000000000000e+00,3.311130285263061523e+00,-6.342284202575683594e+00,3.371601819992065430e+00,-2.035578002929687500e+02,-9.670127868652343750e+01,-1.763223571777343750e+02,4.030399620532989502e-01,-6.667224884033203125e+01,-1.826867065429687500e+02,-2.342747688293457031e+00,7.562197875976562500e+01,3.135619926452636719e+01
4.160630106925964355e-01,1.000000000000000000e+00,3.248147487640380859e+00,-6.288515567779541016e+00,3.381869316101074219e+00,-2.035037536621093750e+02,-9.662626647949218750e+01,-1.762608489990234375e+02,4.030399620532989502e-01,-6.667224884033203125e+01,-1.826865997314453125e+02,-2.342819452285766602e+00,7.562197875976562500e+01,3.135619926452636719e+01
4.193370044231414795e-01,1.000000000000000000e+00,3.185193538665771484e+00,-6.234814643859863281e+00,3.392421483993530273e+00,-2.034486541748046875e+02,-9.655300903320312500e+01,-1.761990051269531250e+02,4.030399620532989502e-01,-6.667224884033203125e+01,-1.826865997314453125e+02,-2.342819452285766602e+00,7.562197875976562500e+01,3.135619926452636719e+01
4.229589998722076416e-01,1.000000000000000000e+00,3.122095823287963867e+00,-6.181023120880126953e+00,3.403055191040039062e+00,-2.033939819335937500e+02,-9.647873687744140625e+01,-1.761372222900390625e+02,4.030399620532989502e-01,-6.667224884033203125e+01,-1.826865997314453125e+02,-2.342747688293457031e+00,7.562197875976562500e+01,3.135619926452636719e+01
4.280160069465637207e-01,1.000000000000000000e+00,3.058883666992187500e+00,-6.127073287963867188e+00,3.413668394088745117e+00,-2.033388366699218750e+02,-9.640425872802734375e+01,-1.760755767822265625e+02,4.030399620532989502e-01,-6.667224884033203125e+01,-1.826867065429687500e+02,-2.342747688293457031e+00,7.562197875976562500e+01,3.135619926452636719e+01
4.310649931430816650e-01,1.000000000000000000e+00,2.995642423629760742e+00,-6.073440551757812500e+00,3.423956394195556641e+00,-2.032837219238281250e+02,-9.632891845703125000e+01,-1.760138702392578125e+02,4.030399620532989502e-01,-6.667216491699218750e+01,-1.826864318847656250e+02,-2.342819452285766602e+00,7.562197875976562500e+01,3.135619926452636719e+01
4.349760115146636963e-01,1.000000000000000000e+00,2.932544946670532227e+00,-6.019717216491699219e+00,3.434244155883789062e+00,-2.032294311523437500e+02,-9.625582122802734375e+01,-1.759507293701171875e+02,4.030399620532989502e-01,-6.667224884033203125e+01,-1.826865997314453125e+02,-2.342747688293457031e+00,7.562197875976562500e+01,3.135619926452636719e+01
4.400140047073364258e-01,1.000000000000000000e+00,2.869361162185668945e+00,-5.965812683105468750e+00,3.444816589355468750e+00,-2.031745452880859375e+02,-9.618144989013671875e+01,-1.758893585205078125e+02,4.030399620532989502e-01,-6.667224884033203125e+01,-1.826865997314453125e+02,-2.342891216278076172e+00,7.562197875976562500e+01,3.135619926452636719e+01
4.435859918594360352e-01,1.000000000000000000e+00,2.806148767471313477e+00,-5.912066459655761719e+00,3.455511093139648438e+00,-2.031196441650390625e+02,-9.610717773437500000e+01,-1.758278350830078125e+02,4.030399620532989502e-01,-6.667224884033203125e+01,-1.826867065429687500e+02,-2.342819452285766602e+00,7.562197875976562500e+01,3.135619926452636719e+01
4.486579895019531250e-01,1.000000000000000000e+00,2.742936372756958008e+00,-5.858116626739501953e+00,3.466144800186157227e+00,-2.030651855468750000e+02,-9.603216552734375000e+01,-1.757652435302734375e+02,4.030399620532989502e-01,-6.667224884033203125e+01,-1.826867065429687500e+02,-2.342747688293457031e+00,7.562197875976562500e+01,3.135619926452636719e+01
4.529060125350952148e-01,1.000000000000000000e+00,2.616568803787231445e+00,-5.750602245330810547e+00,3.486842632293701172e+00,-2.029556732177734375e+02,-9.588447570800781250e+01,-1.756423645019531250e+02,4.030399620532989502e-01,-6.667224884033203125e+01,-1.826865997314453125e+02,-2.342819452285766602e+00,7.562197875976562500e+01,3.135619926452636719e+01
4.554440081119537354e-01,1.000000000000000000e+00,2.553299188613891602e+00,-5.696787834167480469e+00,3.497293233871459961e+00,-2.029007263183593750e+02,-9.580973052978515625e+01,-1.755796966552734375e+02,4.030399620532989502e-01,-6.667224884033203125e+01,-1.826867065429687500e+02,-2.342747688293457031e+00,7.562197875976562500e+01,3.135642242431640625e+01
4.592610001564025879e-01,1.000000000000000000e+00,2.553299188613891602e+00,-5.696787834167480469e+00,3.497293233871459961e+00,-2.029007263183593750e+02,-9.580973052978515625e+01,-1.755796966552734375e+02,4.030399620532989502e-01,-6.667224884033203125e+01,-1.826867065429687500e+02,-2.342747688293457031e+00,7.562197875976562500e+01,3.135642242431640625e+01
4.631029963493347168e-01,1.000000000000000000e+00,2.490057945251464844e+00,-5.643087387084960938e+00,3.507906198501586914e+00,-2.028454742431640625e+02,-9.573503112792968750e+01,-1.755186004638671875e+02,4.030399620532989502e-01,-6.667224884033203125e+01,-1.826867065429687500e+02,-2.342819452285766602e+00,7.562197875976562500e+01,3.135619926452636719e+01
4.678120017051696777e-01,1.000000000000000000e+00,2.427046537399291992e+00,-5.589138031005859375e+00,3.518620967864990234e+00,-2.027909088134765625e+02,-9.566119384765625000e+01,-1.754566040039062500e+02,4.030399620532989502e-01,-6.667224884033203125e+01,-1.826865997314453125e+02,-2.342747688293457031e+00,7.562197875976562500e+01,3.135598182678222656e+01
4.726440012454986572e-01,1.000000000000000000e+00,2.363977670669555664e+00,-5.535368919372558594e+00,3.529071807861328125e+00,-2.027359771728515625e+02,-9.558740234375000000e+01,-1.753940124511718750e+02,4.030399620532989502e-01,-6.667234802246093750e+01,-1.826865997314453125e+02,-2.342891216278076172e+00,7.562197875976562500e+01,3.135598182678222656e+01
4.769099950790405273e-01,1.000000000000000000e+00,2.300794124603271484e+00,-5.481419563293457031e+00,3.539298534393310547e+00,-2.026812438964843750e+02,-9.551280975341796875e+01,-1.753336639404296875e+02,4.030399620532989502e-01,-6.667216491699218750e+01,-1.826865997314453125e+02,-2.342891216278076172e+00,7.562197875976562500e+01,3.135598182678222656e+01
4.809260070323944092e-01,1.000000000000000000e+00,2.174713611602783203e+00,-5.373746395111083984e+00,3.560342073440551758e+00,-2.025714721679687500e+02,-9.536427307128906250e+01,-1.752098999023437500e+02,4.030399620532989502e-01,-6.667224884033203125e+01,-1.826865997314453125e+02,-2.342747688293457031e+00,7.562197875976562500e+01,3.135598182678222656e+01
4.835860133171081543e-01,1.000000000000000000e+00,2.111615896224975586e+00,-5.319931983947753906e+00,3.570914506912231445e+00,-2.025171661376953125e+02,-9.529053497314453125e+01,-1.751485900878906250e+02,4.030399620532989502e-01,-6.667224884033203125e+01,-1.826865997314453125e+02,-2.342819452285766602e+00,7.562197875976562500e+01,3.135598182678222656e+01
4.880160093307495117e-01,1.000000000000000000e+00,2.111615896224975586e+00,-5.319931983947753906e+00,3.570914506912231445e+00,-2.025171661376953125e+02,-9.529053497314453125e+01,-1.751485900878906250e+02,4.030399620532989502e-01,-6.667224884033203125e+01,-1.826865997314453125e+02,-2.342819452285766602e+00,7.562197875976562500e+01,3.135598182678222656e+01
4.919910132884979248e-01,1.000000000000000000e+00,2.048604726791381836e+00,-5.266253948211669922e+00,3.581507444381713867e+00,-2.024618530273437500e+02,-9.521578979492187500e+01,-1.750865325927734375e+02,4.030399620532989502e-01,-6.667224884033203125e+01,-1.826865997314453125e+02,-2.342891216278076172e+00,7.562197875976562500e+01,3.135598182678222656e+01
4.966579973697662354e-01,1.000000000000000000e+00,1.985593199729919434e+00,-5.212508201599121094e+00,3.591774940490722656e+00,-2.024072418212890625e+02,-9.514162445068359375e+01,-1.750245513916015625e+02,4.030399620532989502e-01,-6.667224884033203125e+01,-1.826865997314453125e+02,-2.342891216278076172e+00,7.562197875976562500e+01,3.135619926452636719e+01
4.999949932098388672e-01,1.000000000000000000e+00,1.922811388969421387e+00,-5.158716201782226562e+00,3.602022409439086914e+00,-2.023525543212890625e+02,-9.506746673583984375e+01,-1.749634552001953125e+02,4.030399620532989502e-01,-6.667224884033203125e+01,-1.826865997314453125e+02,-2.342819452285766602e+00,7.562197875976562500e+01,3.135619926452636719e+01
5.032569766044616699e-01,1.000000000000000000e+00,1.860029578208923340e+00,-5.105174064636230469e+00,3.612493038177490234e+00,-2.022975158691406250e+02,-9.499366760253906250e+01,-1.749021453857421875e+02,4.030399620532989502e-01,-6.667224884033203125e+01,-1.826865997314453125e+02,-2.342819452285766602e+00,7.562197875976562500e+01,3.135619926452636719e+01
5.076450109481811523e-01,1.000000000000000000e+00,1.797534823417663574e+00,-5.051609039306640625e+00,3.623024702072143555e+00,-2.022430572509765625e+02,-9.491918945312500000e+01,-1.748393554687500000e+02,4.030399620532989502e-01,-6.667224884033203125e+01,-1.826865997314453125e+02,-2.342819452285766602e+00,7.562197875976562500e+01,3.135619926452636719e+01
5.119490027427673340e-01,1.000000000000000000e+00,1.734695553779602051e+00,-4.998112201690673828e+00,3.633678674697875977e+00,-2.021880493164062500e+02,-9.484502410888671875e+01,-1.747776947021484375e+02,4.030399620532989502e-01,-6.667224884033203125e+01,-1.826865997314453125e+02,-2.342747688293457031e+00,7.562197875976562500e+01,3.135598182678222656e+01
5.162079930305480957e-01,1.000000000000000000e+00,1.671942472457885742e+00,-4.944637298583984375e+00,3.644088745117187500e+00,-2.021324768066406250e+02,-9.477086639404296875e+01,-1.747161865234375000e+02,4.030399620532989502e-01,-6.667224884033203125e+01,-1.826867065429687500e+02,-2.342891216278076172e+00,7.562197875976562500e+01,3.135619926452636719e+01
5.213180184364318848e-01,1.000000000000000000e+00,1.609275460243225098e+00,-4.891162872314453125e+00,3.654295206069946289e+00,-2.020787048339843750e+02,-9.469691467285156250e+01,-1.746534576416015625e+02,4.030399620532989502e-01,-6.667224884033203125e+01,-1.826865997314453125e+02,-2.342819452285766602e+00,7.562197875976562500e+01,3.135619926452636719e+01
5.240340232849121094e-01,1.000000000000000000e+00,1.483970284461975098e+00,-4.783919811248779297e+00,3.675277948379516602e+00,-2.019685058593750000e+02,-9.454843139648437500e+01,-1.745307769775390625e+02,4.030399620532989502e-01,-6.667224884033203125e+01,-1.826867065429687500e+02,-2.342819452285766602e+00,7.562197875976562500e+01,3.135619926452636719e+01
5.278800129890441895e-01,1.000000000000000000e+00,1.483970284461975098e+00,-4.783919811248779297e+00,3.675277948379516602e+00,-2.019685058593750000e+02,-9.454843139648437500e+01,-1.745307769775390625e+02,4.030399620532989502e-01,-6.667224884033203125e+01,-1.826867065429687500e+02,-2.342819452285766602e+00,7.562197875976562500e+01,3.135619926452636719e+01
5.319380164146423340e-01,1.000000000000000000e+00,1.421332001686096191e+00,-4.730287075042724609e+00,3.685890674591064453e+00,-2.019139862060546875e+02,-9.447431945800781250e+01,-1.744686584472656250e+02,4.030399620532989502e-01,-6.667224884033203125e+01,-1.826865997314453125e+02,-2.342891216278076172e+00,7.562197875976562500e+01,3.135619926452636719e+01
5.363649725914001465e-01,1.000000000000000000e+00,1.295883178710937500e+00,-4.622862815856933594e+00,3.706405639648437500e+00,-2.018040618896484375e+02,-9.432614898681640625e+01,-1.743456420898437500e+02,4.030399620532989502e-01,-6.667234802246093750e+01,-1.826865997314453125e+02,-2.342819452285766602e+00,7.562197875976562500e+01,3.135619926452636719e+01
5.403389930725097656e-01,1.000000000000000000e+00,1.295883178710937500e+00,-4.622862815856933594e+00,3.706405639648437500e+00,-2.018040618896484375e+02,-9.432614898681640625e+01,-1.743456420898437500e+02,4.030399620532989502e-01,-6.667234802246093750e+01,-1.826865997314453125e+02,-2.342819452285766602e+00,7.562197875976562500e+01,3.135619926452636719e+01
5.438740253448486328e-01,1.000000000000000000e+00,1.233043909072875977e+00,-4.569184303283691406e+00,3.716632604598999023e+00,-2.017495422363281250e+02,-9.425236511230468750e+01,-1.742829132080078125e+02,4.030399620532989502e-01,-6.667216491699218750e+01,-1.826867065429687500e+02,-2.342819452285766602e+00,7.562197875976562500e+01,3.135619926452636719e+01
5.479670166969299316e-01,1.000000000000000000e+00,1.170290946960449219e+00,-4.515664577484130859e+00,3.727022171020507812e+00,-2.016945953369140625e+02,-9.417873382568359375e+01,-1.742219390869140625e+02,4.030399620532989502e-01,-6.667224884033203125e+01,-1.826865997314453125e+02,-2.342819452285766602e+00,7.562197875976562500e+01,3.135619926452636719e+01
5.517290234565734863e-01,1.000000000000000000e+00,1.107537865638732910e+00,-4.462031841278076172e+00,3.737533807754516602e+00,-2.016401367187500000e+02,-9.410424804687500000e+01,-1.741609039306640625e+02,4.030399620532989502e-01,-6.667224884033203125e+01,-1.826865997314453125e+02,-2.342819452285766602e+00,7.562197875976562500e+01,3.135619926452636719e+01
5.559650063514709473e-01,1.000000000000000000e+00,1.044727325439453125e+00,-4.408353328704833984e+00,3.748065471649169922e+00,-2.015846710205078125e+02,-9.402982330322265625e+01,-1.740987854003906250e+02,4.030399620532989502e-01,-6.667224884033203125e+01,-1.826865997314453125e+02,-2.342819452285766602e+00,7.562197875976562500e+01,3.135619926452636719e+01
5.599610209465026855e-01,1.000000000000000000e+00,9.818593263626098633e-01,-4.354562282562255859e+00,3.758434534072875977e+00,-2.015302734375000000e+02,-9.395624542236328125e+01,-1.740378112792968750e+02,4.030399620532989502e-01,-6.667224884033203125e+01,-1.826865997314453125e+02,-2.342819452285766602e+00,7.562197875976562500e+01,3.135619926452636719e+01
5.645790100097656250e-01,1.000000000000000000e+00,9.189627170562744141e-01,-4.300907135009765625e+00,3.768824100494384766e+00,-2.014761199951171875e+02,-9.388240814208984375e+01,-1.739759063720703125e+02,4.030399620532989502e-01,-6.667224884033203125e+01,-1.826865997314453125e+02,-2.342819452285766602e+00,7.562197875976562500e+01,3.135619926452636719e+01
5.680999755859375000e-01,1.000000000000000000e+00,8.560661077499389648e-01,-4.247160434722900391e+00,3.779335737228393555e+00,-2.014206390380859375e+02,-9.380845642089843750e+01,-1.739139862060546875e+02,4.030399620532989502e-01,-6.667216491699218750e+01,-1.826865997314453125e+02,-2.342819452285766602e+00,7.562197875976562500e+01,3.135619926452636719e+01
5.720800161361694336e-01,1.000000000000000000e+00,7.931981682777404785e-01,-4.193505287170410156e+00,3.789989709854125977e+00,-2.013660888671875000e+02,-9.373381042480468750e+01,-1.738526763916015625e+02,4.030399620532989502e-01,-6.667224884033203125e+01,-1.826865997314453125e+02,-2.342891216278076172e+00,7.562197875976562500e+01,3.135619926452636719e+01
5.761340260505676270e-01,1.000000000000000000e+00,7.304163575172424316e-01,-4.139985561370849609e+00,3.800562381744384766e+00,-2.013111877441406250e+02,-9.365981292724609375e+01,-1.737915039062500000e+02,4.030399620532989502e-01,-6.667216491699218750e+01,-1.826865997314453125e+02,-2.342819452285766602e+00,7.562182617187500000e+01,3.135619926452636719e+01
5.801249742507934570e-01,1.000000000000000000e+00,6.674622893333435059e-01,-4.086103439331054688e+00,3.810910940170288086e+00,-2.012565155029296875e+02,-9.358591461181640625e+01,-1.737289733886718750e+02,4.030399620532989502e-01,-6.667224884033203125e+01,-1.826865997314453125e+02,-2.342891216278076172e+00,7.562197875976562500e+01,3.135598182678222656e+01
5.840749740600585938e-01,1.000000000000000000e+00,6.044795513153076172e-01,-4.032244682312011719e+00,3.821198940277099609e+00,-2.012023010253906250e+02,-9.351185607910156250e+01,-1.736677398681640625e+02,4.030399620532989502e-01,-6.667224884033203125e+01,-1.826865997314453125e+02,-2.342747688293457031e+00,7.562197875976562500e+01,3.135619926452636719e+01
5.886750221252441406e-01,1.000000000000000000e+00,5.415541529655456543e-01,-3.978271961212158203e+00,3.831609010696411133e+00,-2.011471099853515625e+02,-9.343731689453125000e+01,-1.736061553955078125e+02,4.030399620532989502e-01,-6.667224884033203125e+01,-1.826865997314453125e+02,-2.342819452285766602e+00,7.562197875976562500e+01,3.135619926452636719e+01
5.922009944915771484e-01,1.000000000000000000e+00,4.784566164016723633e-01,-3.924503326416015625e+00,3.842079639434814453e+00,-2.010923309326171875e+02,-9.336347198486328125e+01,-1.735439147949218750e+02,4.030399620532989502e-01,-6.667224884033203125e+01,-1.826865997314453125e+02,-2.342819452285766602e+00,7.562197875976562500e+01,3.135619926452636719e+01
5.962650179862976074e-01,1.000000000000000000e+00,4.154738783836364746e-01,-3.870779991149902344e+00,3.852591276168823242e+00,-2.010375976562500000e+02,-9.328958129882812500e+01,-1.734826660156250000e+02,4.030399620532989502e-01,-6.667224884033203125e+01,-1.826865997314453125e+02,-2.342891216278076172e+00,7.562197875976562500e+01,3.135619926452636719e+01
5.999529957771301270e-01,1.000000000000000000e+00,3.525485098361968994e-01,-3.816988468170166016e+00,3.862879276275634766e+00,-2.009829254150390625e+02,-9.321546936035156250e+01,-1.734212188720703125e+02,4.030399620532989502e-01,-6.667224884033203125e+01,-1.826865997314453125e+02,-2.342819452285766602e+00,7.562197875976562500e+01,3.135619926452636719e+01
6.042330265045166016e-01,1.000000000000000000e+00,2.894796431064605713e-01,-3.763333082199096680e+00,3.873187303543090820e+00,-2.009285125732421875e+02,-9.314045715332031250e+01,-1.733591766357421875e+02,4.030399620532989502e-01,-6.667224884033203125e+01,-1.826865997314453125e+02,-2.342819452285766602e+00,7.562197875976562500e+01,3.135619926452636719e+01
6.069409847259521484e-01,1.000000000000000000e+00,2.264968901872634888e-01,-3.709383487701416016e+00,3.883597373962402344e+00,-2.008736267089843750e+02,-9.306741333007812500e+01,-1.732982177734375000e+02,4.030399620532989502e-01,-6.667224884033203125e+01,-1.826865997314453125e+02,-2.342819452285766602e+00,7.562197875976562500e+01,3.135619926452636719e+01
6.109420061111450195e-01,1.000000000000000000e+00,1.635428518056869507e-01,-3.655705213546752930e+00,3.894088506698608398e+00,-2.008189086914062500e+02,-9.299298858642578125e+01,-1.732369079589843750e+02,4.030399620532989502e-01,-6.667224884033203125e+01,-1.826865997314453125e+02,-2.342819452285766602e+00,7.562197875976562500e+01,3.135619926452636719e+01
6.164100170135498047e-01,1.000000000000000000e+00,1.005026847124099731e-01,-3.602094888687133789e+00,3.904701709747314453e+00,-2.007643280029296875e+02,-9.291886901855468750e+01,-1.731744995117187500e+02,4.030399620532989502e-01,-6.667216491699218750e+01,-1.826867065429687500e+02,-2.342819452285766602e+00,7.562182617187500000e+01,3.135619926452636719e+01
6.189360022544860840e-01,1.000000000000000000e+00,3.772087767720222473e-02,-3.548552513122558594e+00,3.915254116058349609e+00,-2.007091827392578125e+02,-9.284401702880859375e+01,-1.731133270263671875e+02,4.030399620532989502e-01,-6.667224884033203125e+01,-1.826865997314453125e+02,-2.342891216278076172e+00,7.562197875976562500e+01,3.135598182678222656e+01
6.229220032691955566e-01,1.000000000000000000e+00,-2.514704689383506775e-02,-3.495032787322998047e+00,3.925501108169555664e+00,-2.006549224853515625e+02,-9.277065277099609375e+01,-1.730523681640625000e+02,4.030399620532989502e-01,-6.667224884033203125e+01,-1.826865997314453125e+02,-2.342747688293457031e+00,7.562197875976562500e+01,3.135619926452636719e+01
6.269400119781494141e-01,1.000000000000000000e+00,-8.781402558088302612e-02,-3.441513061523437500e+00,3.935788869857788086e+00,-2.006000976562500000e+02,-9.269638824462890625e+01,-1.729905242919921875e+02,4.030399620532989502e-01,-6.667224884033203125e+01,-1.826867065429687500e+02,-2.342891216278076172e+00,7.562197875976562500e+01,3.135619926452636719e+01
6.309300065040588379e-01,1.000000000000000000e+00,-1.507393717765808105e-01,-3.388106346130371094e+00,3.946381807327270508e+00,-2.005454559326171875e+02,-9.262195587158203125e+01,-1.729292144775390625e+02,4.030399620532989502e-01,-6.667224884033203125e+01,-1.826865997314453125e+02,-2.342891216278076172e+00,7.562197875976562500e+01,3.135598182678222656e+01
6.349239945411682129e-01,1.000000000000000000e+00,-2.134350538253784180e-01,-3.334496021270751953e+00,3.956852912902832031e+00,-2.004914245605468750e+02,-9.254731750488281250e+01,-1.728679046630859375e+02,4.030399620532989502e-01,-6.667224884033203125e+01,-1.826865997314453125e+02,-2.342819452285766602e+00,7.562197875976562500e+01,3.135619926452636719e+01
6.405979990959167480e-01,1.000000000000000000e+00,-2.763316929340362549e-01,-3.280750036239624023e+00,3.967384576797485352e+00,-2.004359130859375000e+02,-9.247341918945312500e+01,-1.728057861328125000e+02,4.030399620532989502e-01,-6.667224884033203125e+01,-1.826865997314453125e+02,-2.342819452285766602e+00,7.562197875976562500e+01,3.135619926452636719e+01
6.429370045661926270e-01,1.000000000000000000e+00,-3.390561044216156006e-01,-3.227139711380004883e+00,3.977550506591796875e+00,-2.003811340332031250e+02,-9.240000152587890625e+01,-1.727444915771484375e+02,4.030399620532989502e-01,-6.667224884033203125e+01,-1.826865997314453125e+02,-2.342819452285766602e+00,7.562197875976562500e+01,3.135619926452636719e+01
6.469789743423461914e-01,1.000000000000000000e+00,-4.018091857433319092e-01,-3.173416376113891602e+00,3.987797975540161133e+00,-2.003268127441406250e+02,-9.232535552978515625e+01,-1.726828460693359375e+02,4.030399620532989502e-01,-6.667224884033203125e+01,-1.826864318847656250e+02,-2.342819452285766602e+00,7.562197875976562500e+01,3.135619926452636719e+01
6.508949995040893555e-01,1.000000000000000000e+00,-4.643900096416473389e-01,-3.119828701019287109e+00,3.998329639434814453e+00,-2.002719268798828125e+02,-9.225082397460937500e+01,-1.726202545166015625e+02,4.030399620532989502e-01,-6.667224884033203125e+01,-1.826865997314453125e+02,-2.342819452285766602e+00,7.562197875976562500e+01,3.135619926452636719e+01
6.549299955368041992e-01,1.000000000000000000e+00,-5.272866487503051758e-01,-3.066195726394653320e+00,4.008821010589599609e+00,-2.002175140380859375e+02,-9.217681884765625000e+01,-1.725592651367187500e+02,4.030399620532989502e-01,-6.667224884033203125e+01,-1.826865997314453125e+02,-2.342819452285766602e+00,7.562197875976562500e+01,3.135619926452636719e+01
6.590160131454467773e-01,1.000000000000000000e+00,-5.899823307991027832e-01,-3.012630939483642578e+00,4.019393444061279297e+00,-2.001623687744140625e+02,-9.210324096679687500e+01,-1.724974975585937500e+02,4.030399620532989502e-01,-6.667234802246093750e+01,-1.826865997314453125e+02,-2.342891216278076172e+00,7.562197875976562500e+01,3.135619926452636719e+01
6.656399965286254883e-01,1.000000000000000000e+00,-6.528789997100830078e-01,-2.959020376205444336e+00,4.029701709747314453e+00,-2.001072845458984375e+02,-9.202912902832031250e+01,-1.724352264404296875e+02,4.030399620532989502e-01,-6.667224884033203125e+01,-1.826865997314453125e+02,-2.342819452285766602e+00,7.562197875976562500e+01,3.135619926452636719e+01
6.688910126686096191e-01,1.000000000000000000e+00,-7.156894803047180176e-01,-2.905478239059448242e+00,4.039847373962402344e+00,-2.000535888671875000e+02,-9.195443725585937500e+01,-1.723740539550781250e+02,4.030399620532989502e-01,-6.667224884033203125e+01,-1.826865997314453125e+02,-2.342819452285766602e+00,7.562197875976562500e+01,3.135598182678222656e+01
6.729720234870910645e-01,1.000000000000000000e+00,-7.786148190498352051e-01,-2.851912975311279297e+00,4.050236701965332031e+00,-1.999988708496093750e+02,-9.188048553466796875e+01,-1.723127593994140625e+02,4.030399620532989502e-01,-6.667224884033203125e+01,-1.826865997314453125e+02,-2.342819452285766602e+00,7.562197875976562500e+01,3.135619926452636719e+01
6.748999953269958496e-01,1.000000000000000000e+00,-8.414253592491149902e-01,-2.798393487930297852e+00,4.060707569122314453e+00,-1.999440307617187500e+02,-9.180685424804687500e+01,-1.722509155273437500e+02,4.030399620532989502e-01,-6.667224884033203125e+01,-1.826865997314453125e+02,-2.342891216278076172e+00,7.562197875976562500e+01,3.135619926452636719e+01
6.789289712905883789e-01,1.000000000000000000e+00,-9.043506979942321777e-01,-2.744850873947143555e+00,4.071280479431152344e+00,-1.998893127441406250e+02,-9.173264312744140625e+01,-1.721897430419921875e+02,4.030399620532989502e-01,-6.667224884033203125e+01,-1.826867065429687500e+02,-2.342819452285766602e+00,7.562197875976562500e+01,3.135619926452636719e+01
6.829190254211425781e-01,1.000000000000000000e+00,-9.672186374664306641e-01,-2.691444396972656250e+00,4.081710338592529297e+00,-1.998343658447265625e+02,-9.165826416015625000e+01,-1.721282348632812500e+02,4.030399620532989502e-01,-6.667224884033203125e+01,-1.826867065429687500e+02,-2.342819452285766602e+00,7.562197875976562500e+01,3.135619926452636719e+01
6.898270249366760254e-01,1.000000000000000000e+00,-1.029885649681091309e+00,-2.637766122817993164e+00,4.091957569122314453e+00,-1.997800140380859375e+02,-9.158415985107421875e+01,-1.720661163330078125e+02,4.030399620532989502e-01,-6.667216491699218750e+01,-1.826867065429687500e+02,-2.342819452285766602e+00,7.562197875976562500e+01,3.135619926452636719e+01
6.930379867553710938e-01,1.000000000000000000e+00,-1.092782258987426758e+00,-2.583997488021850586e+00,4.102306365966796875e+00,-1.997253875732421875e+02,-9.151063537597656250e+01,-1.720051422119140625e+02,4.030399620532989502e-01,-6.667224884033203125e+01,-1.826865997314453125e+02,-2.342819452285766602e+00,7.562197875976562500e+01,3.135619926452636719e+01
6.949189901351928711e-01,1.000000000000000000e+00,-1.155478000640869141e+00,-2.530228614807128906e+00,4.112797737121582031e+00,-1.996705017089843750e+02,-9.143657684326171875e+01,-1.719442443847656250e+02,4.030399620532989502e-01,-6.667224884033203125e+01,-1.826865997314453125e+02,-2.342891216278076172e+00,7.562197875976562500e+01,3.135619926452636719e+01
6.989560127258300781e-01,1.000000000000000000e+00,-1.218288421630859375e+00,-2.476437568664550781e+00,4.123349666595458984e+00,-1.996163482666015625e+02,-9.136220550537109375e+01,-1.718818511962890625e+02,4.030399620532989502e-01,-6.667224884033203125e+01,-1.826865997314453125e+02,-2.342891216278076172e+00,7.562197875976562500e+01,3.135598182678222656e+01
7.029089927673339844e-01,1.000000000000000000e+00,-1.281213760375976562e+00,-2.422804594039916992e+00,4.133902072906494141e+00,-1.995609893798828125e+02,-9.128813934326171875e+01,-1.718208160400390625e+02,4.030399620532989502e-01,-6.667216491699218750e+01,-1.826867065429687500e+02,-2.342819452285766602e+00,7.562197875976562500e+01,3.135619926452636719e+01
7.068899869918823242e-01,1.000000000000000000e+00,-1.344081640243530273e+00,-2.369081020355224609e+00,4.144169330596923828e+00,-1.995066375732421875e+02,-9.121456909179687500e+01,-1.717595825195312500e+02,4.030399620532989502e-01,-6.667234802246093750e+01,-1.826865997314453125e+02,-2.342747688293457031e+00,7.562197875976562500e+01,3.135619926452636719e+01
7.139179706573486328e-01,1.000000000000000000e+00,-1.407006978988647461e+00,-2.315493583679199219e+00,4.154457569122314453e+00,-1.994521636962890625e+02,-9.114088439941406250e+01,-1.716974639892578125e+02,4.030399620532989502e-01,-6.667216491699218750e+01,-1.826867065429687500e+02,-2.342891216278076172e+00,7.562197875976562500e+01,3.135619926452636719e+01
7.171270251274108887e-01,1.000000000000000000e+00,-1.469702720642089844e+00,-2.261770009994506836e+00,4.164806365966796875e+00,-1.993971710205078125e+02,-9.106725311279296875e+01,-1.716364288330078125e+02,4.030399620532989502e-01,-6.667224884033203125e+01,-1.826865997314453125e+02,-2.342891216278076172e+00,7.562212371826171875e+01,3.135619926452636719e+01
7.189530134201049805e-01,1.000000000000000000e+00,-1.532369732856750488e+00,-2.208023786544799805e+00,4.175399303436279297e+00,-1.993425598144531250e+02,-9.099356842041015625e+01,-1.715750579833984375e+02,4.030399620532989502e-01,-6.667224884033203125e+01,-1.826865997314453125e+02,-2.342819452285766602e+00,7.562197875976562500e+01,3.135619926452636719e+01
7.230129837989807129e-01,1.000000000000000000e+00,-1.595352530479431152e+00,-2.154458999633789062e+00,4.185890674591064453e+00,-1.992877197265625000e+02,-9.091903686523437500e+01,-1.715125885009765625e+02,4.030399620532989502e-01,-6.667224884033203125e+01,-1.826865997314453125e+02,-2.342819452285766602e+00,7.562197875976562500e+01,3.135619926452636719e+01
7.270309925079345703e-01,1.000000000000000000e+00,-1.658105611801147461e+00,-2.100826025009155273e+00,4.196198940277099609e+00,-1.992332000732421875e+02,-9.084509277343750000e+01,-1.714510192871093750e+02,4.030399620532989502e-01,-6.667224884033203125e+01,-1.826867065429687500e+02,-2.342747688293457031e+00,7.562197875976562500e+01,3.135619926452636719e+01
7.309830188751220703e-01,1.000000000000000000e+00,-1.720944762229919434e+00,-2.047260999679565430e+00,4.206405162811279297e+00,-1.991785736083984375e+02,-9.077151489257812500e+01,-1.713896331787109375e+02,4.030399620532989502e-01,-6.667224884033203125e+01,-1.826864318847656250e+02,-2.342819452285766602e+00,7.562197875976562500e+01,3.135619926452636719e+01
7.358980178833007812e-01,1.000000000000000000e+00,-1.783640384674072266e+00,-1.993695974349975586e+00,4.216814994812011719e+00,-1.991234893798828125e+02,-9.069815063476562500e+01,-1.713273162841796875e+02,4.030399620532989502e-01,-6.667224884033203125e+01,-1.826864318847656250e+02,-2.342891216278076172e+00,7.562197875976562500e+01,3.135619926452636719e+01
7.398909926414489746e-01,1.000000000000000000e+00,-1.846221327781677246e+00,-1.940244197845458984e+00,4.227204322814941406e+00,-1.990693359375000000e+02,-9.062430572509765625e+01,-1.712662200927734375e+02,4.030399620532989502e-01,-6.667216491699218750e+01,-1.826867065429687500e+02,-2.342747688293457031e+00,7.562182617187500000e+01,3.135619926452636719e+01
7.428910136222839355e-01,1.000000000000000000e+00,-1.908888220787048340e+00,-1.886656403541564941e+00,4.237919330596923828e+00,-1.990143890380859375e+02,-9.054960632324218750e+01,-1.712049713134765625e+02,4.030399620532989502e-01,-6.667224884033203125e+01,-1.826864318847656250e+02,-2.342819452285766602e+00,7.562197875976562500e+01,3.135619926452636719e+01
7.494490146636962891e-01,1.000000000000000000e+00,-1.908888220787048340e+00,-1.886656403541564941e+00,4.237919330596923828e+00,-1.990143890380859375e+02,-9.054960632324218750e+01,-1.712049713134765625e+02,4.030399620532989502e-01,-6.667234802246093750e+01,-1.826865997314453125e+02,-2.342819452285766602e+00,7.562197875976562500e+01,3.135619926452636719e+01
7.519369721412658691e-01,1.000000000000000000e+00,-2.033992528915405273e+00,-1.779368042945861816e+00,4.258698463439941406e+00,-1.989053497314453125e+02,-9.040240478515625000e+01,-1.710814056396484375e+02,4.030399620532989502e-01,-6.667224884033203125e+01,-1.826864318847656250e+02,-2.342819452285766602e+00,7.562197875976562500e+01,3.135619926452636719e+01
7.558900117874145508e-01,1.000000000000000000e+00,-2.096573591232299805e+00,-1.725735187530517578e+00,4.268905639648437500e+00,-1.988502044677734375e+02,-9.032882690429687500e+01,-1.710201721191406250e+02,4.030399620532989502e-01,-6.667216491699218750e+01,-1.826865997314453125e+02,-2.342891216278076172e+00,7.562197875976562500e+01,3.135619926452636719e+01
7.589089870452880859e-01,1.000000000000000000e+00,-2.159154415130615234e+00,-1.671943783760070801e+00,4.279355525970458984e+00,-1.987958984375000000e+02,-9.025440216064453125e+01,-1.709577178955078125e+02,4.030399620532989502e-01,-6.667224884033203125e+01,-1.826867065429687500e+02,-2.342891216278076172e+00,7.562197875976562500e+01,3.135619926452636719e+01
7.655000090599060059e-01,1.000000000000000000e+00,-2.159154415130615234e+00,-1.671943783760070801e+00,4.279355525970458984e+00,-1.987958984375000000e+02,-9.025440216064453125e+01,-1.709577178955078125e+02,4.030399620532989502e-01,-6.667224884033203125e+01,-1.826867065429687500e+02,-2.342891216278076172e+00,7.562197875976562500e+01,3.135619926452636719e+01
7.678859829902648926e-01,1.000000000000000000e+00,-2.284316062927246094e+00,-1.564813733100891113e+00,4.300459861755371094e+00,-1.986860198974609375e+02,-9.010644531250000000e+01,-1.708359222412109375e+02,4.030399620532989502e-01,-6.667216491699218750e+01,-1.826864318847656250e+02,-2.342819452285766602e+00,7.562197875976562500e+01,3.135598182678222656e+01
7.709050178527832031e-01,1.000000000000000000e+00,-2.346868276596069336e+00,-1.511316657066345215e+00,4.310768604278564453e+00,-1.986321411132812500e+02,-9.003281402587890625e+01,-1.707739868164062500e+02,4.030399620532989502e-01,-6.667234802246093750e+01,-1.826865997314453125e+02,-2.342819452285766602e+00,7.562197875976562500e+01,3.135619926452636719e+01
7.759400010108947754e-01,1.000000000000000000e+00,-2.346868276596069336e+00,-1.511316657066345215e+00,4.310768604278564453e+00,-1.986321411132812500e+02,-9.003281402587890625e+01,-1.707739868164062500e+02,4.030399620532989502e-01,-6.667234802246093750e+01,-1.826865997314453125e+02,-2.342819452285766602e+00,7.562197875976562500e+01,3.135619926452636719e+01
7.798879742622375488e-01,1.000000000000000000e+00,-2.472115993499755859e+00,-1.403982877731323242e+00,4.331486701965332031e+00,-1.985221557617187500e+02,-8.988470458984375000e+01,-1.706517181396484375e+02,4.030399620532989502e-01,-6.667224884033203125e+01,-1.826865997314453125e+02,-2.342819452285766602e+00,7.562197875976562500e+01,3.135619926452636719e+01
7.829089760780334473e-01,1.000000000000000000e+00,-2.534725427627563477e+00,-1.350350022315979004e+00,4.341957092285156250e+00,-1.984678344726562500e+02,-8.981038665771484375e+01,-1.705890655517578125e+02,4.030399620532989502e-01,-6.667224884033203125e+01,-1.826865997314453125e+02,-2.342819452285766602e+00,7.562197875976562500e+01,3.135619926452636719e+01
7.879379987716674805e-01,1.000000000000000000e+00,-2.534725427627563477e+00,-1.350350022315979004e+00,4.341957092285156250e+00,-1.984678344726562500e+02,-8.981038665771484375e+01,-1.705890655517578125e+02,4.030399620532989502e-01,-6.667224884033203125e+01,-1.826865997314453125e+02,-2.342819452285766602e+00,7.562197875976562500e+01,3.135619926452636719e+01
7.909179925918579102e-01,1.000000000000000000e+00,-2.660317897796630859e+00,-1.243514180183410645e+00,4.362899303436279297e+00,-1.983581237792968750e+02,-8.966178894042968750e+01,-1.704669189453125000e+02,4.030399620532989502e-01,-6.667234802246093750e+01,-1.826865997314453125e+02,-2.342819452285766602e+00,7.562197875976562500e+01,3.135619926452636719e+01
7.960079908370971680e-01,1.000000000000000000e+00,-2.660317897796630859e+00,-1.243514180183410645e+00,4.362899303436279297e+00,-1.983581237792968750e+02,-8.966178894042968750e+01,-1.704669189453125000e+02,4.030399620532989502e-01,-6.667234802246093750e+01,-1.826865997314453125e+02,-2.342819452285766602e+00,7.562197875976562500e+01,3.135619926452636719e+01
7.989749908447265625e-01,1.000000000000000000e+00,-2.785881519317626953e+00,-1.136497259140014648e+00,4.383373260498046875e+00,-1.982487335205078125e+02,-8.951437377929687500e+01,-1.703429565429687500e+02,4.030399620532989502e-01,-6.667224884033203125e+01,-1.826865997314453125e+02,-2.342819452285766602e+00,7.562197875976562500e+01,3.135598182678222656e+01
8.039489984512329102e-01,1.000000000000000000e+00,-2.785881519317626953e+00,-1.136497259140014648e+00,4.383373260498046875e+00,-1.982487335205078125e+02,-8.951437377929687500e+01,-1.703429565429687500e+02,4.030399620532989502e-01,-6.667224884033203125e+01,-1.826865997314453125e+02,-2.342819452285766602e+00,7.562197875976562500e+01,3.135598182678222656e+01
8.068879842758178711e-01,1.000000000000000000e+00,-2.911273002624511719e+00,-1.029027819633483887e+00,4.404355525970458984e+00,-1.981393280029296875e+02,-8.936545562744140625e+01,-1.702191925048828125e+02,4.030399620532989502e-01,-6.667224884033203125e+01,-1.826865997314453125e+02,-2.342891216278076172e+00,7.562197875976562500e+01,3.135619926452636719e+01
8.119540214538574219e-01,1.000000000000000000e+00,-2.911273002624511719e+00,-1.029027819633483887e+00,4.404355525970458984e+00,-1.981393280029296875e+02,-8.936545562744140625e+01,-1.702191925048828125e+02,4.030399620532989502e-01,-6.667224884033203125e+01,-1.826865997314453125e+02,-2.342891216278076172e+00,7.562197875976562500e+01,3.135619926452636719e+01
8.149399757385253906e-01,1.000000000000000000e+00,-3.036980152130126953e+00,-9.218977689743041992e-01,4.424992084503173828e+00,-1.980309143066406250e+02,-8.921788024902343750e+01,-1.700971832275390625e+02,4.030399620532989502e-01,-6.667224884033203125e+01,-1.826865997314453125e+02,-2.342747688293457031e+00,7.562197875976562500e+01,3.135619926452636719e+01
8.199340105056762695e-01,1.000000000000000000e+00,-3.036980152130126953e+00,-9.218977689743041992e-01,4.424992084503173828e+00,-1.980309143066406250e+02,-8.921788024902343750e+01,-1.700971832275390625e+02,4.030399620532989502e-01,-6.667224884033203125e+01,-1.826865997314453125e+02,-2.342747688293457031e+00,7.562197875976562500e+01,3.135619926452636719e+01
8.228880167007446289e-01,1.000000000000000000e+00,-3.162744522094726562e+00,-8.148128986358642578e-01,4.445791721343994141e+00,-1.979211425781250000e+02,-8.906902313232421875e+01,-1.699738159179687500e+02,4.030399620532989502e-01,-6.667224884033203125e+01,-1.826865997314453125e+02,-2.342819452285766602e+00,7.562197875976562500e+01,3.135619926452636719e+01
8.279380202293395996e-01,1.000000000000000000e+00,-3.162744522094726562e+00,-8.148128986358642578e-01,4.445791721343994141e+00,-1.979211425781250000e+02,-8.906902313232421875e+01,-1.699738159179687500e+02,4.030399620532989502e-01,-6.667224884033203125e+01,-1.826865997314453125e+02,-2.342819452285766602e+00,7.562197875976562500e+01,3.135619926452636719e+01
8.308889865875244141e-01,1.000000000000000000e+00,-3.288394451141357422e+00,-7.073886990547180176e-01,4.466794967651367188e+00,-1.978116912841796875e+02,-8.892154693603515625e+01,-1.698502655029296875e+02,4.030399620532989502e-01,-6.667224884033203125e+01,-1.826865997314453125e+02,-2.342819452285766602e+00,7.562182617187500000e+01,3.135642242431640625e+01
8.360440135002136230e-01,1.000000000000000000e+00,-3.288394451141357422e+00,-7.073886990547180176e-01,4.466794967651367188e+00,-1.978116912841796875e+02,-8.892154693603515625e+01,-1.698502655029296875e+02,4.030399620532989502e-01,-6.667224884033203125e+01,-1.826865997314453125e+02,-2.342819452285766602e+00,7.562182617187500000e+01,3.135642242431640625e+01
8.389809727668762207e-01,1.000000000000000000e+00,-3.414072751998901367e+00,-6.004623174667358398e-01,4.487329959869384766e+00,-1.977027130126953125e+02,-8.877279663085937500e+01,-1.697283935546875000e+02,4.030399620532989502e-01,-6.667224884033203125e+01,-1.826865997314453125e+02,-2.342891216278076172e+00,7.562197875976562500e+01,3.135619926452636719e+01
8.439599871635437012e-01,1.000000000000000000e+00,-3.414072751998901367e+00,-6.004623174667358398e-01,4.487329959869384766e+00,-1.977027130126953125e+02,-8.877279663085937500e+01,-1.697283935546875000e+02,4.030399620532989502e-01,-6.667224884033203125e+01,-1.826865997314453125e+02,-2.342891216278076172e+00,7.562197875976562500e+01,3.135619926452636719e+01
8.469139933586120605e-01,1.000000000000000000e+00,-3.539952278137207031e+00,-4.935812354087829590e-01,4.508170127868652344e+00,-1.975934600830078125e+02,-8.862532806396484375e+01,-1.696055755615234375e+02,4.030399620532989502e-01,-6.667224884033203125e+01,-1.826867065429687500e+02,-2.342819452285766602e+00,7.562197875976562500e+01,3.135619926452636719e+01
8.519459962844848633e-01,1.000000000000000000e+00,-3.539952278137207031e+00,-4.935812354087829590e-01,4.508170127868652344e+00,-1.975934600830078125e+02,-8.862532806396484375e+01,-1.696055755615234375e+02,4.030399620532989502e-01,-6.667224884033203125e+01,-1.826867065429687500e+02,-2.342819452285766602e+00,7.562197875976562500e+01,3.135619926452636719e+01
8.548949956893920898e-01,1.000000000000000000e+00,-3.665860414505004883e+00,-3.867000937461853027e-01,4.528969287872314453e+00,-1.974844207763671875e+02,-8.847731781005859375e+01,-1.694822998046875000e+02,4.030399620532989502e-01,-6.667224884033203125e+01,-1.826864318847656250e+02,-2.342819452285766602e+00,7.562197875976562500e+01,3.135619926452636719e+01
8.600280284881591797e-01,1.000000000000000000e+00,-3.665860414505004883e+00,-3.867000937461853027e-01,4.528969287872314453e+00,-1.974844207763671875e+02,-8.847731781005859375e+01,-1.694822998046875000e+02,4.030399620532989502e-01,-6.667224884033203125e+01,-1.826864318847656250e+02,-2.342819452285766602e+00,7.562197875976562500e+01,3.135619926452636719e+01
8.630269765853881836e-01,1.000000000000000000e+00,-3.791424036026000977e+00,-2.794795632362365723e-01,4.549504756927490234e+00,-1.973749084472656250e+02,-8.832957458496093750e+01,-1.693600921630859375e+02,4.030399620532989502e-01,-6.667224884033203125e+01,-1.826865997314453125e+02,-2.342891216278076172e+00,7.562197875976562500e+01,3.135619926452636719e+01
8.669430017471313477e-01,1.000000000000000000e+00,-3.791424036026000977e+00,-2.794795632362365723e-01,4.549504756927490234e+00,-1.973749084472656250e+02,-8.832957458496093750e+01,-1.693600921630859375e+02,4.030399620532989502e-01,-6.667224884033203125e+01,-1.826865997314453125e+02,-2.342891216278076172e+00,7.562197875976562500e+01,3.135619926452636719e+01
8.719900250434875488e-01,1.000000000000000000e+00,-3.854004621505737305e+00,-2.259371578693389893e-01,4.559954643249511719e+00,-1.973206634521484375e+02,-8.825578308105468750e+01,-1.692977600097656250e+02,4.030399620532989502e-01,-6.667224884033203125e+01,-1.826865997314453125e+02,-2.342891216278076172e+00,7.562197875976562500e+01,3.135619926452636719e+01
8.784180283546447754e-01,1.000000000000000000e+00,-3.916700363159179688e+00,-1.723042577505111694e-01,4.570364952087402344e+00,-1.972654571533203125e+02,-8.818135833740234375e+01,-1.692361755371093750e+02,4.030399620532989502e-01,-6.667224884033203125e+01,-1.826865997314453125e+02,-2.342819452285766602e+00,7.562197875976562500e+01,3.135619926452636719e+01
8.798469901084899902e-01,1.000000000000000000e+00,-4.042235374450683594e+00,-6.537787616252899170e-02,4.591123580932617188e+00,-1.971567840576171875e+02,-8.803409576416015625e+01,-1.691129608154296875e+02,4.030399620532989502e-01,-6.667234802246093750e+01,-1.826864318847656250e+02,-2.342819452285766602e+00,7.562197875976562500e+01,3.135619926452636719e+01
8.849440217018127441e-01,1.000000000000000000e+00,-4.042235374450683594e+00,-6.537787616252899170e-02,4.591123580932617188e+00,-1.971567840576171875e+02,-8.803409576416015625e+01,-1.691129608154296875e+02,4.030399620532989502e-01,-6.667234802246093750e+01,-1.826864318847656250e+02,-2.342819452285766602e+00,7.562197875976562500e+01,3.135619926452636719e+01
8.876190185546875000e-01,1.000000000000000000e+00,-4.167397022247314453e+00,4.175216704607009888e-02,4.611780643463134766e+00,-1.970481719970703125e+02,-8.788587951660156250e+01,-1.689906158447265625e+02,4.030399620532989502e-01,-6.667224884033203125e+01,-1.826864318847656250e+02,-2.342819452285766602e+00,7.562197875976562500e+01,3.135598182678222656e+01
8.919389843940734863e-01,1.000000000000000000e+00,-4.167397022247314453e+00,4.175216704607009888e-02,4.611780643463134766e+00,-1.970481719970703125e+02,-8.788587951660156250e+01,-1.689906158447265625e+02,4.030399620532989502e-01,-6.667224884033203125e+01,-1.826864318847656250e+02,-2.342819452285766602e+00,7.562197875976562500e+01,3.135598182678222656e+01
8.969089984893798828e-01,1.000000000000000000e+00,-4.230006694793701172e+00,9.529455751180648804e-02,4.622373580932617188e+00,-1.969928283691406250e+02,-8.781225585937500000e+01,-1.689284362792968750e+02,4.030399620532989502e-01,-6.667224884033203125e+01,-1.826865997314453125e+02,-2.342747688293457031e+00,7.562197875976562500e+01,3.135619926452636719e+01
9.002270102500915527e-01,1.000000000000000000e+00,-4.355369091033935547e+00,2.021756768226623535e-01,4.643213272094726562e+00,-1.968840484619140625e+02,-8.766499328613281250e+01,-1.688066253662109375e+02,4.030399620532989502e-01,-6.667234802246093750e+01,-1.826865997314453125e+02,-2.342819452285766602e+00,7.562197875976562500e+01,3.135619926452636719e+01
9.038900136947631836e-01,1.000000000000000000e+00,-4.355369091033935547e+00,2.021756768226623535e-01,4.643213272094726562e+00,-1.968840484619140625e+02,-8.766499328613281250e+01,-1.688066253662109375e+02,4.030399620532989502e-01,-6.667224884033203125e+01,-1.826865997314453125e+02,-2.342819452285766602e+00,7.562197875976562500e+01,3.135598182678222656e+01
9.080160260200500488e-01,1.000000000000000000e+00,-4.417950153350830078e+00,2.556049227714538574e-01,4.653399944305419922e+00,-1.968290405273437500e+02,-8.759077453613281250e+01,-1.687440948486328125e+02,4.030399620532989502e-01,-6.667224884033203125e+01,-1.826865997314453125e+02,-2.342819452285766602e+00,7.562197875976562500e+01,3.135598182678222656e+01
9.110119938850402832e-01,1.000000000000000000e+00,-4.480531215667724609e+00,3.088983893394470215e-01,4.663911342620849609e+00,-1.967746429443359375e+02,-8.751725006103515625e+01,-1.686830596923828125e+02,4.030399620532989502e-01,-6.667216491699218750e+01,-1.826865997314453125e+02,-2.342747688293457031e+00,7.562197875976562500e+01,3.135619926452636719e+01
9.149540066719055176e-01,1.000000000000000000e+00,-4.543169021606445312e+00,3.625086545944213867e-01,4.674463748931884766e+00,-1.967199096679687500e+02,-8.744308471679687500e+01,-1.686225738525390625e+02,4.030399620532989502e-01,-6.667224884033203125e+01,-1.826865997314453125e+02,-2.342747688293457031e+00,7.562197875976562500e+01,3.135619926452636719e+01
9.200590252876281738e-01,1.000000000000000000e+00,-4.605865001678466797e+00,4.161189198493957520e-01,4.684914112091064453e+00,-1.966650238037109375e+02,-8.736924743652343750e+01,-1.685606536865234375e+02,4.030399620532989502e-01,-6.667224884033203125e+01,-1.826865997314453125e+02,-2.342819452285766602e+00,7.562197875976562500e+01,3.135619926452636719e+01
9.234409928321838379e-01,1.000000000000000000e+00,-4.668589115142822266e+00,4.698423743247985840e-01,4.695201873779296875e+00,-1.966109313964843750e+02,-8.729497528076171875e+01,-1.684991455078125000e+02,4.030399620532989502e-01,-6.667224884033203125e+01,-1.826864318847656250e+02,-2.342819452285766602e+00,7.562197875976562500e+01,3.135619926452636719e+01
9.269959926605224609e-01,1.000000000000000000e+00,-4.731026649475097656e+00,5.233168601989746094e-01,4.705367565155029297e+00,-1.965563049316406250e+02,-8.722209930419921875e+01,-1.684382476806640625e+02,4.030399620532989502e-01,-6.667224884033203125e+01,-1.826865997314453125e+02,-2.342819452285766602e+00,7.562197875976562500e+01,3.135619926452636719e+01
9.319940209388732910e-01,1.000000000000000000e+00,-4.793262958526611328e+00,5.769045352935791016e-01,4.715615272521972656e+00,-1.965015258789062500e+02,-8.714820098876953125e+01,-1.683762054443359375e+02,4.030399620532989502e-01,-6.667224884033203125e+01,-1.826865997314453125e+02,-2.342819452285766602e+00,7.562197875976562500e+01,3.135619926452636719e+01
9.359490275382995605e-01,1.000000000000000000e+00,-4.855786323547363281e+00,6.305600404739379883e-01,4.726045131683349609e+00,-1.964470062255859375e+02,-8.707414245605468750e+01,-1.683146820068359375e+02,4.030399620532989502e-01,-6.667224884033203125e+01,-1.826865997314453125e+02,-2.342891216278076172e+00,7.562197875976562500e+01,3.135619926452636719e+01
9.399530291557312012e-01,1.000000000000000000e+00,-4.918195247650146484e+00,6.839440464973449707e-01,4.736475467681884766e+00,-1.963922271728515625e+02,-8.699992370605468750e+01,-1.682537841796875000e+02,4.030399620532989502e-01,-6.667224884033203125e+01,-1.826865997314453125e+02,-2.342819452285766602e+00,7.562212371826171875e+01,3.135619926452636719e+01
9.429870247840881348e-01,1.000000000000000000e+00,-4.980775833129882812e+00,7.376900911331176758e-01,4.746986865997314453e+00,-1.963378601074218750e+02,-8.692655944824218750e+01,-1.681911315917968750e+02,4.030399620532989502e-01,-6.667224884033203125e+01,-1.826865997314453125e+02,-2.342819452285766602e+00,7.562197875976562500e+01,3.135619926452636719e+01
9.475960135459899902e-01,1.000000000000000000e+00,-5.043442726135253906e+00,7.911646366119384766e-01,4.757254600524902344e+00,-1.962832489013671875e+02,-8.685314178466796875e+01,-1.681300201416015625e+02,4.030399620532989502e-01,-6.667224884033203125e+01,-1.826865997314453125e+02,-2.342819452285766602e+00,7.562182617187500000e+01,3.135598182678222656e+01
9.519349932670593262e-01,1.000000000000000000e+00,-5.105736732482910156e+00,8.446164727210998535e-01,4.767603397369384766e+00,-1.962282562255859375e+02,-8.677893066406250000e+01,-1.680688476562500000e+02,4.030399620532989502e-01,-6.667224884033203125e+01,-1.826865997314453125e+02,-2.342819452285766602e+00,7.562197875976562500e+01,3.135619926452636719e+01
9.560130238533020020e-01,1.000000000000000000e+00,-5.168260574340820312e+00,8.981136679649353027e-01,4.778074264526367188e+00,-1.961743774414062500e+02,-8.670487213134765625e+01,-1.680067291259765625e+02,4.030399620532989502e-01,-6.667234802246093750e+01,-1.826865997314453125e+02,-2.342891216278076172e+00,7.562197875976562500e+01,3.135619926452636719e+01
9.599390029907226562e-01,1.000000000000000000e+00,-5.230754852294921875e+00,9.514975547790527344e-01,4.788626670837402344e+00,-1.961194305419921875e+02,-8.663086700439453125e+01,-1.679452819824218750e+02,4.030399620532989502e-01,-6.667224884033203125e+01,-1.826865997314453125e+02,-2.342819452285766602e+00,7.562197875976562500e+01,3.135619926452636719e+01
9.639359712600708008e-01,1.000000000000000000e+00,-5.293393135070800781e+00,1.005017280578613281e+00,4.799077033996582031e+00,-1.960650634765625000e+02,-8.655718994140625000e+01,-1.678844604492187500e+02,4.030399620532989502e-01,-6.667216491699218750e+01,-1.826867065429687500e+02,-2.342891216278076172e+00,7.562197875976562500e+01,3.135619926452636719e+01
9.679520130157470703e-01,1.000000000000000000e+00,-5.356203556060791016e+00,1.058220267295837402e+00,4.809304237365722656e+00,-1.960106048583984375e+02,-8.648275756835937500e+01,-1.678222045898437500e+02,4.030399620532989502e-01,-6.667216491699218750e+01,-1.826865997314453125e+02,-2.342819452285766602e+00,7.562197875976562500e+01,3.135598182678222656e+01
9.717069864273071289e-01,1.000000000000000000e+00,-5.418841838836669922e+00,1.111672163009643555e+00,4.819490432739257812e+00,-1.959556732177734375e+02,-8.640950012207031250e+01,-1.677609710693359375e+02,4.030399620532989502e-01,-6.667216491699218750e+01,-1.826865997314453125e+02,-2.342819452285766602e+00,7.562197875976562500e+01,3.135619926452636719e+01
9.759610295295715332e-01,1.000000000000000000e+00,-5.481537818908691406e+00,1.165372967720031738e+00,4.829818725585937500e+00,-1.959010925292968750e+02,-8.633576202392578125e+01,-1.677004089355468750e+02,4.030399620532989502e-01,-6.667224884033203125e+01,-1.826865997314453125e+02,-2.342891216278076172e+00,7.562197875976562500e+01,3.135619926452636719e+01
9.799799919128417969e-01,1.000000000000000000e+00,-5.544204711914062500e+00,1.218847513198852539e+00,4.840310096740722656e+00,-1.958464202880859375e+02,-8.626171112060546875e+01,-1.676380004882812500e+02,4.030399620532989502e-01,-6.667224884033203125e+01,-1.826864318847656250e+02,-2.342819452285766602e+00,7.562197875976562500e+01,3.135619926452636719e+01
9.840000271797180176e-01,1.000000000000000000e+00,-5.606756687164306641e+00,1.272525668144226074e+00,4.850780963897705078e+00,-1.957919006347656250e+02,-8.618690490722656250e+01,-1.675764312744140625e+02,4.030399620532989502e-01,-6.667216491699218750e+01,-1.826865997314453125e+02,-2.342891216278076172e+00,7.562197875976562500e+01,3.135619926452636719e+01
9.879299998283386230e-01,1.000000000000000000e+00,-5.669653415679931641e+00,1.326090693473815918e+00,4.861129760742187500e+00,-1.957375946044921875e+02,-8.611338806152343750e+01,-1.675160675048828125e+02,4.030399620532989502e-01,-6.667224884033203125e+01,-1.826865997314453125e+02,-2.342747688293457031e+00,7.562197875976562500e+01,3.135619926452636719e+01
9.913100004196166992e-01,1.000000000000000000e+00,-5.732119560241699219e+00,1.379519939422607422e+00,4.871356487274169922e+00,-1.956825408935546875e+02,-8.603964996337890625e+01,-1.674544219970703125e+02,4.030399620532989502e-01,-6.667224884033203125e+01,-1.826865997314453125e+02,-2.342747688293457031e+00,7.562197875976562500e+01,3.135619926452636719e+01
9.961439967155456543e-01,1.000000000000000000e+00,-5.794729232788085938e+00,1.432881236076354980e+00,4.881644725799560547e+00,-1.956283569335937500e+02,-8.596607208251953125e+01,-1.673931121826171875e+02,4.030399620532989502e-01,-6.667224884033203125e+01,-1.826865997314453125e+02,-2.342819452285766602e+00,7.562197875976562500e+01,3.135619926452636719e+01
9.993240237236022949e-01,1.000000000000000000e+00,-5.857424736022949219e+00,1.486491560935974121e+00,4.892095088958740234e+00,-1.955735626220703125e+02,-8.589126586914062500e+01,-1.673319396972656250e+02,4.030399620532989502e-01,-6.667224884033203125e+01,-1.826867065429687500e+02,-2.342891216278076172e+00,7.562197875976562500e+01,3.135619926452636719e+01
1.004125952720642090e+00,1.000000000000000000e+00,-5.920148849487304688e+00,1.540079236030578613e+00,4.902545928955078125e+00,-1.955188903808593750e+02,-8.581752777099609375e+01,-1.672701110839843750e+02,4.030399620532989502e-01,-6.667224884033203125e+01,-1.826865997314453125e+02,-2.342891216278076172e+00,7.562197875976562500e+01,3.135619926452636719e+01
1.007436037063598633e+00,1.000000000000000000e+00,-5.982787132263183594e+00,1.593576312065124512e+00,4.913098335266113281e+00,-1.954645843505859375e+02,-8.574411773681640625e+01,-1.672085266113281250e+02,4.030399620532989502e-01,-6.667224884033203125e+01,-1.826867065429687500e+02,-2.342747688293457031e+00,7.562182617187500000e+01,3.135619926452636719e+01
1.011932969093322754e+00,1.000000000000000000e+00,-6.045511722564697266e+00,1.646847128868103027e+00,4.923365592956542969e+00,-1.954096984863281250e+02,-8.567037963867187500e+01,-1.671476898193359375e+02,4.030399620532989502e-01,-6.667224884033203125e+01,-1.826865997314453125e+02,-2.342747688293457031e+00,7.562197875976562500e+01,3.135642242431640625e+01
1.016422986984252930e+00,1.000000000000000000e+00,-6.171075344085693359e+00,1.753569841384887695e+00,4.943880081176757812e+00,-1.953010406494140625e+02,-8.552178955078125000e+01,-1.670237274169921875e+02,4.030399620532989502e-01,-6.667224884033203125e+01,-1.826865997314453125e+02,-2.342747688293457031e+00,7.562197875976562500e+01,3.135619926452636719e+01
1.020176053047180176e+00,1.000000000000000000e+00,-6.171075344085693359e+00,1.753569841384887695e+00,4.943880081176757812e+00,-1.953010406494140625e+02,-8.552178955078125000e+01,-1.670237274169921875e+02,4.030399620532989502e-01,-6.667224884033203125e+01,-1.826865997314453125e+02,-2.342747688293457031e+00,7.562197875976562500e+01,3.135619926452636719e+01
1.023512005805969238e+00,1.000000000000000000e+00,-6.233914375305175781e+00,1.806908607482910156e+00,4.954452991485595703e+00,-1.952456665039062500e+02,-8.544879913330078125e+01,-1.669624938964843750e+02,4.030399620532989502e-01,-6.667224884033203125e+01,-1.826865997314453125e+02,-2.342891216278076172e+00,7.562197875976562500e+01,3.135619926452636719e+01
1.028959989547729492e+00,1.000000000000000000e+00,-6.296724796295166016e+00,1.860496163368225098e+00,4.964984416961669922e+00,-1.951917266845703125e+02,-8.537500762939453125e+01,-1.669004211425781250e+02,4.031498432159423828e-01,-6.667224884033203125e+01,-1.826865997314453125e+02,-2.342747688293457031e+00,7.562197875976562500e+01,3.135619926452636719e+01
1.031998991966247559e+00,1.000000000000000000e+00,-6.359392166137695312e+00,1.913970828056335449e+00,4.975272655487060547e+00,-1.951374206542968750e+02,-8.530058288574218750e+01,-1.668391876220703125e+02,4.030399620532989502e-01,-6.667224884033203125e+01,-1.826865997314453125e+02,-2.342819452285766602e+00,7.562197875976562500e+01,3.135619926452636719e+01
1.035943031311035156e+00,1.000000000000000000e+00,-6.422116756439208984e+00,1.967580914497375488e+00,4.985458850860595703e+00,-1.950822753906250000e+02,-8.522652435302734375e+01,-1.667787628173828125e+02,4.030399620532989502e-01,-6.667224884033203125e+01,-1.826864318847656250e+02,-2.342891216278076172e+00,7.562197875976562500e+01,3.135619926452636719e+01
1.039939045906066895e+00,1.000000000000000000e+00,-6.484869480133056641e+00,2.021100759506225586e+00,4.995807647705078125e+00,-1.950279693603515625e+02,-8.515284729003906250e+01,-1.667161712646484375e+02,4.030399620532989502e-01,-6.667224884033203125e+01,-1.826864318847656250e+02,-2.342747688293457031e+00,7.562197875976562500e+01,3.135619926452636719e+01
1.044386029243469238e+00,1.000000000000000000e+00,-6.547479152679443359e+00,2.074597835540771484e+00,5.006319046020507812e+00,-1.949728698730468750e+02,-8.507942962646484375e+01,-1.666545257568359375e+02,4.030399620532989502e-01,-6.667224884033203125e+01,-1.826865997314453125e+02,-2.342891216278076172e+00,7.562197875976562500e+01,3.135619926452636719e+01
1.047772049903869629e+00,1.000000000000000000e+00,-6.610088348388671875e+00,2.128027200698852539e+00,5.016769886016845703e+00,-1.949183502197265625e+02,-8.500504302978515625e+01,-1.665939025878906250e+02,4.030399620532989502e-01,-6.667216491699218750e+01,-1.826864318847656250e+02,-2.342891216278076172e+00,7.562182617187500000e+01,3.135619926452636719e+01
1.052930951118469238e+00,1.000000000000000000e+00,-6.672554969787597656e+00,2.181411027908325195e+00,5.027118682861328125e+00,-1.948642578125000000e+02,-8.493093872070312500e+01,-1.665317687988281250e+02,4.030399620532989502e-01,-6.667224884033203125e+01,-1.826865997314453125e+02,-2.342891216278076172e+00,7.562197875976562500e+01,3.135619926452636719e+01
1.056123971939086914e+00,1.000000000000000000e+00,-6.735164165496826172e+00,2.235021591186523438e+00,5.037304878234863281e+00,-1.948093261718750000e+02,-8.485720825195312500e+01,-1.664704132080078125e+02,4.030399620532989502e-01,-6.667224884033203125e+01,-1.826865997314453125e+02,-2.342891216278076172e+00,7.562197875976562500e+01,3.135598182678222656e+01
1.059988975524902344e+00,1.000000000000000000e+00,-6.797659397125244141e+00,2.288450717926025391e+00,5.047511577606201172e+00,-1.947549591064453125e+02,-8.478388977050781250e+01,-1.664100494384765625e+02,4.030399620532989502e-01,-6.667224884033203125e+01,-1.826865997314453125e+02,-2.342819452285766602e+00,7.562197875976562500e+01,3.135619926452636719e+01
1.063961029052734375e+00,1.000000000000000000e+00,-6.860469818115234375e+00,2.341925144195556641e+00,5.057860374450683594e+00,-1.947000274658203125e+02,-8.470940399169921875e+01,-1.663481445312500000e+02,4.030399620532989502e-01,-6.667224884033203125e+01,-1.826865997314453125e+02,-2.342819452285766602e+00,7.562197875976562500e+01,3.135619926452636719e+01
1.068591952323913574e+00,1.000000000000000000e+00,-6.923021793365478516e+00,2.395150899887084961e+00,5.068249702453613281e+00,-1.946456146240234375e+02,-8.463572692871093750e+01,-1.662868957519531250e+02,4.030399620532989502e-01,-6.667224884033203125e+01,-1.826865997314453125e+02,-2.342819452285766602e+00,7.562197875976562500e+01,3.135619926452636719e+01
1.072034955024719238e+00,1.000000000000000000e+00,-6.985602378845214844e+00,2.448534727096557617e+00,5.078761577606201172e+00,-1.945914611816406250e+02,-8.456198883056640625e+01,-1.662261962890625000e+02,4.030399620532989502e-01,-6.667224884033203125e+01,-1.826865997314453125e+02,-2.342891216278076172e+00,7.562197875976562500e+01,3.135619926452636719e+01
1.076830983161926270e+00,1.000000000000000000e+00,-7.048126220703125000e+00,2.501850843429565430e+00,5.089008808135986328e+00,-1.945366363525390625e+02,-8.448857116699218750e+01,-1.661639404296875000e+02,4.030399620532989502e-01,-6.667224884033203125e+01,-1.826865997314453125e+02,-2.342819452285766602e+00,7.562197875976562500e+01,3.135619926452636719e+01
1.080006003379821777e+00,1.000000000000000000e+00,-7.110850334167480469e+00,2.555189609527587891e+00,5.099276065826416016e+00,-1.944822692871093750e+02,-8.441403198242187500e+01,-1.661023559570312500e+02,4.030399620532989502e-01,-6.667224884033203125e+01,-1.826865997314453125e+02,-2.342819452285766602e+00,7.562197875976562500e+01,3.135619926452636719e+01
1.083992958068847656e+00,1.000000000000000000e+00,-7.173259258270263672e+00,2.608550786972045898e+00,5.109645366668701172e+00,-1.944275970458984375e+02,-8.434051513671875000e+01,-1.660419464111328125e+02,4.030399620532989502e-01,-6.667224884033203125e+01,-1.826865997314453125e+02,-2.342819452285766602e+00,7.562197875976562500e+01,3.135619926452636719e+01
1.088132023811340332e+00,1.000000000000000000e+00,-7.235954761505126953e+00,2.662070512771606445e+00,5.120096206665039062e+00,-1.943726043701171875e+02,-8.426641082763671875e+01,-1.659796295166015625e+02,4.030399620532989502e-01,-6.667216491699218750e+01,-1.826865997314453125e+02,-2.342747688293457031e+00,7.562197875976562500e+01,3.135619926452636719e+01
1.092735052108764648e+00,1.000000000000000000e+00,-7.298707962036132812e+00,2.715703487396240234e+00,5.130587100982666016e+00,-1.943186645507812500e+02,-8.419309997558593750e+01,-1.659177703857421875e+02,4.030399620532989502e-01,-6.667216491699218750e+01,-1.826865997314453125e+02,-2.342819452285766602e+00,7.562197875976562500e+01,3.135619926452636719e+01
1.096076965332031250e+00,1.000000000000000000e+00,-7.361345767974853516e+00,2.769246101379394531e+00,5.140997409820556641e+00,-1.942640991210937500e+02,-8.411861419677734375e+01,-1.658570098876953125e+02,4.030399620532989502e-01,-6.667224884033203125e+01,-1.826865997314453125e+02,-2.342819452285766602e+00,7.562197875976562500e+01,3.135619926452636719e+01
1.100839972496032715e+00,1.000000000000000000e+00,-7.423984527587890625e+00,2.822629928588867188e+00,5.151142597198486328e+00,-1.942094116210937500e+02,-8.404535675048828125e+01,-1.657948150634765625e+02,4.030399620532989502e-01,-6.667224884033203125e+01,-1.826865997314453125e+02,-2.342819452285766602e+00,7.562197875976562500e+01,3.135619926452636719e+01
1.104204058647155762e+00,1.000000000000000000e+00,-7.486479282379150391e+00,2.876013755798339844e+00,5.161471366882324219e+00,-1.941548461914062500e+02,-8.397130584716796875e+01,-1.657331085205078125e+02,4.030399620532989502e-01,-6.667224884033203125e+01,-1.826865997314453125e+02,-2.342819452285766602e+00,7.562197875976562500e+01,3.135642242431640625e+01
1.108165025711059570e+00,1.000000000000000000e+00,-7.549002647399902344e+00,2.929465770721435547e+00,5.171881198883056641e+00,-1.941002197265625000e+02,-8.389767456054687500e+01,-1.656725311279296875e+02,4.030399620532989502e-01,-6.667224884033203125e+01,-1.826865997314453125e+02,-2.342747688293457031e+00,7.562197875976562500e+01,3.135619926452636719e+01
