rpiRobotics/ARM-21-02-F-19-Robot-Motion-Program/data_performance_abb/curve_2/curve_pose_opt2/100L/realrobot/run_3.csv
timestamp,cmd_num,J1,J2,J3,J4,J5,J6
1.292999950237572193e-03,-1.000000000000000000e+00,7.736314773559570312e+00,-1.011718082427978516e+01,2.641791820526123047e+00,-2.074213256835937500e+02,-1.019231719970703125e+02,-1.806663665771484375e+02,4.030399620532989502e-01,-6.667224884033203125e+01,-1.826865997314453125e+02,-2.342819452285766602e+00,7.562212371826171875e+01,3.135619926452636719e+01
6.448999978601932526e-03,1.000000000000000000e+00,7.736371994018554688e+00,-1.011713600158691406e+01,2.641852855682373047e+00,-2.074213256835937500e+02,-1.019231719970703125e+02,-1.806663665771484375e+02,4.030399620532989502e-01,-6.667224884033203125e+01,-1.826865997314453125e+02,-2.342819452285766602e+00,7.562197875976562500e+01,3.135619926452636719e+01
1.017600018531084061e-02,1.000000000000000000e+00,7.736314773559570312e+00,-1.011718082427978516e+01,2.641791820526123047e+00,-2.074213256835937500e+02,-1.019231719970703125e+02,-1.806665039062500000e+02,4.030399620532989502e-01,-6.667224884033203125e+01,-1.826865997314453125e+02,-2.342819452285766602e+00,7.562197875976562500e+01,3.135598182678222656e+01
1.584599912166595459e-02,1.000000000000000000e+00,7.736314773559570312e+00,-1.011718082427978516e+01,2.641791820526123047e+00,-2.074213256835937500e+02,-1.019231719970703125e+02,-1.806665039062500000e+02,4.030399620532989502e-01,-6.667224884033203125e+01,-1.826865997314453125e+02,-2.342819452285766602e+00,7.562197875976562500e+01,3.135598182678222656e+01
3.968499973416328430e-02,1.000000000000000000e+00,7.736314773559570312e+00,-1.011718082427978516e+01,2.641791820526123047e+00,-2.074212188720703125e+02,-1.019231719970703125e+02,-1.806661682128906250e+02,4.030399620532989502e-01,-6.667216491699218750e+01,-1.826865997314453125e+02,-2.342819452285766602e+00,7.562197875976562500e+01,3.135619926452636719e+01
4.216999933123588562e-02,1.000000000000000000e+00,7.736286640167236328e+00,-1.011713600158691406e+01,2.641751289367675781e+00,-2.074212188720703125e+02,-1.019231719970703125e+02,-1.806665039062500000e+02,4.030399620532989502e-01,-6.667224884033203125e+01,-1.826865997314453125e+02,-2.342891216278076172e+00,7.562197875976562500e+01,3.135619926452636719e+01
4.348099976778030396e-02,1.000000000000000000e+00,7.736286640167236328e+00,-1.011713600158691406e+01,2.641751289367675781e+00,-2.074212188720703125e+02,-1.019231719970703125e+02,-1.806665039062500000e+02,4.030399620532989502e-01,-6.667224884033203125e+01,-1.826865997314453125e+02,-2.342891216278076172e+00,7.562197875976562500e+01,3.135619926452636719e+01
5.058899894356727600e-02,1.000000000000000000e+00,7.736286640167236328e+00,-1.011718082427978516e+01,2.641751289367675781e+00,-2.074213256835937500e+02,-1.019231719970703125e+02,-1.806665039062500000e+02,4.030399620532989502e-01,-6.667216491699218750e+01,-1.826865997314453125e+02,-2.342819452285766602e+00,7.562197875976562500e+01,3.135619926452636719e+01
5.189799889922142029e-02,1.000000000000000000e+00,7.736286640167236328e+00,-1.011718082427978516e+01,2.641751289367675781e+00,-2.074213256835937500e+02,-1.019231719970703125e+02,-1.806665039062500000e+02,4.030399620532989502e-01,-6.667216491699218750e+01,-1.826865997314453125e+02,-2.342819452285766602e+00,7.562197875976562500e+01,3.135619926452636719e+01
5.526699870824813843e-02,1.000000000000000000e+00,7.736228466033935547e+00,-1.011706733703613281e+01,2.641791820526123047e+00,-2.074212188720703125e+02,-1.019231719970703125e+02,-1.806663665771484375e+02,4.030399620532989502e-01,-6.667224884033203125e+01,-1.826865997314453125e+02,-2.342891216278076172e+00,7.562197875976562500e+01,3.135619926452636719e+01
5.783300101757049561e-02,1.000000000000000000e+00,7.736228466033935547e+00,-1.011706733703613281e+01,2.641791820526123047e+00,-2.074212188720703125e+02,-1.019231719970703125e+02,-1.806663665771484375e+02,4.030399620532989502e-01,-6.667224884033203125e+01,-1.826865997314453125e+02,-2.342891216278076172e+00,7.562197875976562500e+01,3.135619926452636719e+01
6.219400092959403992e-02,1.000000000000000000e+00,7.734879493713378906e+00,-1.011620807647705078e+01,2.641852855682373047e+00,-2.074213256835937500e+02,-1.019230117797851562e+02,-1.806665039062500000e+02,4.030399620532989502e-01,-6.667216491699218750e+01,-1.826865997314453125e+02,-2.342819452285766602e+00,7.562197875976562500e+01,3.135619926452636719e+01
6.429500132799148560e-02,1.000000000000000000e+00,7.734879493713378906e+00,-1.011620807647705078e+01,2.641852855682373047e+00,-2.074213256835937500e+02,-1.019230117797851562e+02,-1.806665039062500000e+02,4.030399620532989502e-01,-6.667216491699218750e+01,-1.826865997314453125e+02,-2.342819452285766602e+00,7.562197875976562500e+01,3.135619926452636719e+01
6.686799973249435425e-02,1.000000000000000000e+00,7.733013153076171875e+00,-1.011500835418701172e+01,2.641852855682373047e+00,-2.074212188720703125e+02,-1.019230117797851562e+02,-1.806661682128906250e+02,4.030399620532989502e-01,-6.667224884033203125e+01,-1.826865997314453125e+02,-2.342819452285766602e+00,7.562182617187500000e+01,3.135619926452636719e+01
6.825400143861770630e-02,1.000000000000000000e+00,7.733013153076171875e+00,-1.011500835418701172e+01,2.641852855682373047e+00,-2.074212188720703125e+02,-1.019230117797851562e+02,-1.806661682128906250e+02,4.030399620532989502e-01,-6.667224884033203125e+01,-1.826865997314453125e+02,-2.342819452285766602e+00,7.562182617187500000e+01,3.135619926452636719e+01
7.260700315237045288e-02,1.000000000000000000e+00,7.730257987976074219e+00,-1.011303901672363281e+01,2.641852855682373047e+00,-2.074213256835937500e+02,-1.019229049682617188e+02,-1.806661682128906250e+02,4.030399620532989502e-01,-6.667224884033203125e+01,-1.826865997314453125e+02,-2.342891216278076172e+00,7.562197875976562500e+01,3.135619926452636719e+01
7.588499784469604492e-02,1.000000000000000000e+00,7.726526260375976562e+00,-1.011016559600830078e+01,2.641893625259399414e+00,-2.074213256835937500e+02,-1.019222717285156250e+02,-1.806661682128906250e+02,4.030399620532989502e-01,-6.667224884033203125e+01,-1.826865997314453125e+02,-2.342819452285766602e+00,7.562197875976562500e+01,3.135619926452636719e+01
7.828799635171890259e-02,1.000000000000000000e+00,7.721645832061767578e+00,-1.010625076293945312e+01,2.642015695571899414e+00,-2.074208526611328125e+02,-1.019213638305664062e+02,-1.806656188964843750e+02,4.030399620532989502e-01,-6.667224884033203125e+01,-1.826865997314453125e+02,-2.342819452285766602e+00,7.562197875976562500e+01,3.135619926452636719e+01
7.960399985313415527e-02,1.000000000000000000e+00,7.721645832061767578e+00,-1.010625076293945312e+01,2.642015695571899414e+00,-2.074208526611328125e+02,-1.019213638305664062e+02,-1.806656188964843750e+02,4.030399620532989502e-01,-6.667224884033203125e+01,-1.826865997314453125e+02,-2.342819452285766602e+00,7.562197875976562500e+01,3.135619926452636719e+01
8.198799937963485718e-02,1.000000000000000000e+00,7.721645832061767578e+00,-1.010625076293945312e+01,2.642015695571899414e+00,-2.074208526611328125e+02,-1.019213638305664062e+02,-1.806656188964843750e+02,4.030399620532989502e-01,-6.667224884033203125e+01,-1.826865997314453125e+02,-2.342819452285766602e+00,7.562197875976562500e+01,3.135619926452636719e+01
8.472999930381774902e-02,1.000000000000000000e+00,7.715645790100097656e+00,-1.010100078582763672e+01,2.642340898513793945e+00,-2.074197998046875000e+02,-1.019194412231445312e+02,-1.806649322509765625e+02,4.030399620532989502e-01,-6.667224884033203125e+01,-1.826865997314453125e+02,-2.342819452285766602e+00,7.562197875976562500e+01,3.135619926452636719e+01
8.811800181865692139e-02,1.000000000000000000e+00,7.708067417144775391e+00,-1.009380435943603516e+01,2.642971277236938477e+00,-2.074174804687500000e+02,-1.019164047241210938e+02,-1.806634521484375000e+02,4.030399620532989502e-01,-6.667224884033203125e+01,-1.826865997314453125e+02,-2.342819452285766602e+00,7.562197875976562500e+01,3.135598182678222656e+01
9.067299962043762207e-02,1.000000000000000000e+00,7.698794841766357422e+00,-1.008448028564453125e+01,2.643764019012451172e+00,-2.074141540527343750e+02,-1.019122467041015625e+02,-1.806608886718750000e+02,4.030399620532989502e-01,-6.667224884033203125e+01,-1.826865997314453125e+02,-2.342819452285766602e+00,7.562197875976562500e+01,3.135619926452636719e+01
9.192900359630584717e-02,1.000000000000000000e+00,7.698794841766357422e+00,-1.008448028564453125e+01,2.643764019012451172e+00,-2.074141540527343750e+02,-1.019122467041015625e+02,-1.806608886718750000e+02,4.030399620532989502e-01,-6.667224884033203125e+01,-1.826865997314453125e+02,-2.342819452285766602e+00,7.562197875976562500e+01,3.135619926452636719e+01
9.498599916696548462e-02,1.000000000000000000e+00,7.687455654144287109e+00,-1.007273578643798828e+01,2.644821405410766602e+00,-2.074093170166015625e+02,-1.019060592651367188e+02,-1.806580963134765625e+02,4.030399620532989502e-01,-6.667224884033203125e+01,-1.826865997314453125e+02,-2.342819452285766602e+00,7.562197875976562500e+01,3.135619926452636719e+01
9.631399810314178467e-02,1.000000000000000000e+00,7.687455654144287109e+00,-1.007273578643798828e+01,2.644821405410766602e+00,-2.074093170166015625e+02,-1.019060592651367188e+02,-1.806580963134765625e+02,4.030399620532989502e-01,-6.667224884033203125e+01,-1.826865997314453125e+02,-2.342819452285766602e+00,7.562197875976562500e+01,3.135619926452636719e+01
9.966699779033660889e-02,1.000000000000000000e+00,7.673733711242675781e+00,-1.005834293365478516e+01,2.646325826644897461e+00,-2.074027252197265625e+02,-1.018975296020507812e+02,-1.806524047851562500e+02,4.030399620532989502e-01,-6.667216491699218750e+01,-1.826865997314453125e+02,-2.342891216278076172e+00,7.562197875976562500e+01,3.135598182678222656e+01
1.046689972281455994e-01,1.000000000000000000e+00,7.673733711242675781e+00,-1.005834293365478516e+01,2.646325826644897461e+00,-2.074027252197265625e+02,-1.018975296020507812e+02,-1.806524047851562500e+02,4.030399620532989502e-01,-6.667216491699218750e+01,-1.826865997314453125e+02,-2.342891216278076172e+00,7.562197875976562500e+01,3.135598182678222656e+01
1.103210002183914185e-01,1.000000000000000000e+00,7.638166427612304688e+00,-1.002272415161132812e+01,2.650860071182250977e+00,-2.073825683593750000e+02,-1.018716735839843750e+02,-1.806306915283203125e+02,4.030399620532989502e-01,-6.667224884033203125e+01,-1.826865997314453125e+02,-2.342819452285766602e+00,7.562197875976562500e+01,3.135642242431640625e+01
1.125219985842704773e-01,1.000000000000000000e+00,7.616579055786132812e+00,-1.000249290466308594e+01,2.653848648071289062e+00,-2.073691253662109375e+02,-1.018536453247070312e+02,-1.806161804199218750e+02,4.030399620532989502e-01,-6.667224884033203125e+01,-1.826865997314453125e+02,-2.342819452285766602e+00,7.562197875976562500e+01,3.135642242431640625e+01
1.155799999833106995e-01,1.000000000000000000e+00,7.592780590057373047e+00,-9.980654716491699219e+00,2.657366275787353516e+00,-2.073526000976562500e+02,-1.018312606811523438e+02,-1.805980682373046875e+02,4.030399620532989502e-01,-6.667224884033203125e+01,-1.826867065429687500e+02,-2.342819452285766602e+00,7.562197875976562500e+01,3.135619926452636719e+01
1.196610033512115479e-01,1.000000000000000000e+00,7.592780590057373047e+00,-9.980654716491699219e+00,2.657366275787353516e+00,-2.073526000976562500e+02,-1.018312606811523438e+02,-1.805980682373046875e+02,4.030399620532989502e-01,-6.667224884033203125e+01,-1.826867065429687500e+02,-2.342819452285766602e+00,7.562197875976562500e+01,3.135619926452636719e+01
1.236200034618377686e-01,1.000000000000000000e+00,7.566743373870849609e+00,-9.957571983337402344e+00,2.661168098449707031e+00,-2.073328857421875000e+02,-1.018034820556640625e+02,-1.805759735107421875e+02,4.030399620532989502e-01,-6.667224884033203125e+01,-1.826867065429687500e+02,-2.342819452285766602e+00,7.562197875976562500e+01,3.135619926452636719e+01
1.276170015335083008e-01,1.000000000000000000e+00,7.537950515747070312e+00,-9.933063507080078125e+00,2.665376663208007812e+00,-2.073103485107421875e+02,-1.017717514038085938e+02,-1.805505371093750000e+02,4.030399620532989502e-01,-6.667224884033203125e+01,-1.826867065429687500e+02,-2.342819452285766602e+00,7.562197875976562500e+01,3.135619926452636719e+01
1.316210031509399414e-01,1.000000000000000000e+00,7.506745815277099609e+00,-9.906632423400878906e+00,2.670195579528808594e+00,-2.072843170166015625e+02,-1.017370452880859375e+02,-1.805205688476562500e+02,4.030399620532989502e-01,-6.667224884033203125e+01,-1.826867065429687500e+02,-2.342747688293457031e+00,7.562197875976562500e+01,3.135642242431640625e+01
1.357049942016601562e-01,1.000000000000000000e+00,7.472986698150634766e+00,-9.878797531127929688e+00,2.675583362579345703e+00,-2.072538299560546875e+02,-1.016977539062500000e+02,-1.804858398437500000e+02,4.030399620532989502e-01,-6.667234802246093750e+01,-1.826865997314453125e+02,-2.342819452285766602e+00,7.562197875976562500e+01,3.135598182678222656e+01
1.396079957485198975e-01,1.000000000000000000e+00,7.436242103576660156e+00,-9.849174499511718750e+00,2.681622028350830078e+00,-2.072185821533203125e+02,-1.016517944335937500e+02,-1.804467163085937500e+02,4.030399620532989502e-01,-6.667216491699218750e+01,-1.826865997314453125e+02,-2.342747688293457031e+00,7.562212371826171875e+01,3.135619926452636719e+01
1.436119973659515381e-01,1.000000000000000000e+00,7.396856784820556641e+00,-9.817696571350097656e+00,2.688128232955932617e+00,-2.071809234619140625e+02,-1.016006622314453125e+02,-1.804055480957031250e+02,4.030399620532989502e-01,-6.667224884033203125e+01,-1.826867065429687500e+02,-2.342747688293457031e+00,7.562197875976562500e+01,3.135619926452636719e+01
1.478569954633712769e-01,1.000000000000000000e+00,7.355202674865722656e+00,-9.784565925598144531e+00,2.695122241973876953e+00,-2.071419982910156250e+02,-1.015482025146484375e+02,-1.803618774414062500e+02,4.030399620532989502e-01,-6.667224884033203125e+01,-1.826865997314453125e+02,-2.342891216278076172e+00,7.562212371826171875e+01,3.135619926452636719e+01
1.516679972410202026e-01,1.000000000000000000e+00,7.311769485473632812e+00,-9.749987602233886719e+00,2.702482461929321289e+00,-2.070994415283203125e+02,-1.014916305541992188e+02,-1.803137817382812500e+02,4.030399620532989502e-01,-6.667224884033203125e+01,-1.826867065429687500e+02,-2.342891216278076172e+00,7.562197875976562500e+01,3.135619926452636719e+01
1.556089967489242554e-01,1.000000000000000000e+00,7.266297817230224609e+00,-9.713712692260742188e+00,2.710391521453857422e+00,-2.070524444580078125e+02,-1.014295730590820312e+02,-1.802607574462890625e+02,4.030399620532989502e-01,-6.667224884033203125e+01,-1.826865997314453125e+02,-2.342747688293457031e+00,7.562182617187500000e+01,3.135619926452636719e+01
1.596190035343170166e-01,1.000000000000000000e+00,7.219046592712402344e+00,-9.675422668457031250e+00,2.718564987182617188e+00,-2.070041503906250000e+02,-1.013653793334960938e+02,-1.802061004638671875e+02,4.030399620532989502e-01,-6.667224884033203125e+01,-1.826867065429687500e+02,-2.342819452285766602e+00,7.562197875976562500e+01,3.135619926452636719e+01
1.637089997529983521e-01,1.000000000000000000e+00,7.169125556945800781e+00,-9.634665489196777344e+00,2.727124452590942383e+00,-2.069560089111328125e+02,-1.012985763549804688e+02,-1.801520538330078125e+02,4.030399620532989502e-01,-6.667224884033203125e+01,-1.826867065429687500e+02,-2.342819452285766602e+00,7.562197875976562500e+01,3.135619926452636719e+01
1.676190048456192017e-01,1.000000000000000000e+00,7.116821765899658203e+00,-9.591487884521484375e+00,2.736294269561767578e+00,-2.069046936035156250e+02,-1.012310714721679688e+02,-1.800950164794921875e+02,4.030399620532989502e-01,-6.667224884033203125e+01,-1.826865997314453125e+02,-2.342819452285766602e+00,7.562197875976562500e+01,3.135598182678222656e+01
1.716209948062896729e-01,1.000000000000000000e+00,7.062709331512451172e+00,-9.545866012573242188e+00,2.745809555053710938e+00,-2.068523406982421875e+02,-1.011613922119140625e+02,-1.800347900390625000e+02,4.030399620532989502e-01,-6.667224884033203125e+01,-1.826865997314453125e+02,-2.342819452285766602e+00,7.562197875976562500e+01,3.135619926452636719e+01
1.756190061569213867e-01,1.000000000000000000e+00,7.006931781768798828e+00,-9.498116493225097656e+00,2.755568742752075195e+00,-2.067990264892578125e+02,-1.010893630981445312e+02,-1.799752502441406250e+02,4.030399620532989502e-01,-6.667224884033203125e+01,-1.826865997314453125e+02,-2.342819452285766602e+00,7.562197875976562500e+01,3.135619926452636719e+01
1.796679943799972534e-01,1.000000000000000000e+00,6.949661731719970703e+00,-9.449236869812011719e+00,2.765388965606689453e+00,-2.067446289062500000e+02,-1.010161056518554688e+02,-1.799148864746093750e+02,4.030399620532989502e-01,-6.667234802246093750e+01,-1.826867065429687500e+02,-2.342819452285766602e+00,7.562197875976562500e+01,3.135598182678222656e+01
1.836359947919845581e-01,1.000000000000000000e+00,6.891071319580078125e+00,-9.399178504943847656e+00,2.775453090667724609e+00,-2.066909484863281250e+02,-1.009433822631835938e+02,-1.798527679443359375e+02,4.030399620532989502e-01,-6.667224884033203125e+01,-1.826865997314453125e+02,-2.342819452285766602e+00,7.562197875976562500e+01,3.135598182678222656e+01
1.876070052385330200e-01,1.000000000000000000e+00,6.831504344940185547e+00,-9.348034858703613281e+00,2.785639524459838867e+00,-2.066367492675781250e+02,-1.008698043823242188e+02,-1.797920074462890625e+02,4.030399620532989502e-01,-6.667224884033203125e+01,-1.826865997314453125e+02,-2.342819452285766602e+00,7.562197875976562500e+01,3.135619926452636719e+01
1.916780024766921997e-01,1.000000000000000000e+00,6.770933151245117188e+00,-9.296076774597167969e+00,2.795825719833374023e+00,-2.065813751220703125e+02,-1.007957534790039062e+02,-1.797309112548828125e+02,4.030399620532989502e-01,-6.667224884033203125e+01,-1.826865997314453125e+02,-2.342819452285766602e+00,7.562197875976562500e+01,3.135619926452636719e+01
1.956370025873184204e-01,1.000000000000000000e+00,6.709615707397460938e+00,-9.243576049804687500e+00,2.806052684783935547e+00,-2.065268096923828125e+02,-1.007210006713867188e+02,-1.796685180664062500e+02,4.030399620532989502e-01,-6.667224884033203125e+01,-1.826865997314453125e+02,-2.342819452285766602e+00,7.562197875976562500e+01,3.135619926452636719e+01
1.997530013322830200e-01,1.000000000000000000e+00,6.647752285003662109e+00,-9.190440177917480469e+00,2.816218614578247070e+00,-2.064717712402343750e+02,-1.006464691162109375e+02,-1.796063995361328125e+02,4.030399620532989502e-01,-6.667224884033203125e+01,-1.826865997314453125e+02,-2.342819452285766602e+00,7.562197875976562500e+01,3.135619926452636719e+01
2.036589980125427246e-01,1.000000000000000000e+00,6.584941864013671875e+00,-9.136830329895019531e+00,2.826526641845703125e+00,-2.064168853759765625e+02,-1.005723037719726562e+02,-1.795447540283203125e+02,4.030399620532989502e-01,-6.667224884033203125e+01,-1.826865997314453125e+02,-2.342747688293457031e+00,7.562212371826171875e+01,3.135619926452636719e+01
2.078070044517517090e-01,1.000000000000000000e+00,6.521815776824951172e+00,-9.082790374755859375e+00,2.837079048156738281e+00,-2.063621063232421875e+02,-1.004977111816406250e+02,-1.794819488525390625e+02,4.030399620532989502e-01,-6.667224884033203125e+01,-1.826867065429687500e+02,-2.342819452285766602e+00,7.562197875976562500e+01,3.135619926452636719e+01
2.116349935531616211e-01,1.000000000000000000e+00,6.458832740783691406e+00,-9.028862953186035156e+00,2.847631216049194336e+00,-2.063065948486328125e+02,-1.004228591918945312e+02,-1.794199676513671875e+02,4.030399620532989502e-01,-6.667224884033203125e+01,-1.826867065429687500e+02,-2.342891216278076172e+00,7.562197875976562500e+01,3.135619926452636719e+01
2.156119942665100098e-01,1.000000000000000000e+00,6.395448207855224609e+00,-8.974912643432617188e+00,2.858142614364624023e+00,-2.062518005371093750e+02,-1.003486404418945312e+02,-1.793582611083984375e+02,4.030399620532989502e-01,-6.667224884033203125e+01,-1.826865997314453125e+02,-2.342819452285766602e+00,7.562197875976562500e+01,3.135619926452636719e+01
2.196729928255081177e-01,1.000000000000000000e+00,6.332407951354980469e+00,-8.920917510986328125e+00,2.868511915206909180e+00,-2.061965942382812500e+02,-1.002740478515625000e+02,-1.792953948974609375e+02,4.030399620532989502e-01,-6.667224884033203125e+01,-1.826865997314453125e+02,-2.342819452285766602e+00,7.562212371826171875e+01,3.135642242431640625e+01
2.237640023231506348e-01,1.000000000000000000e+00,6.269195556640625000e+00,-8.866991043090820312e+00,2.878880977630615234e+00,-2.061416168212890625e+02,-1.001993026733398438e+02,-1.792333374023437500e+02,4.030399620532989502e-01,-6.667234802246093750e+01,-1.826865997314453125e+02,-2.342891216278076172e+00,7.562197875976562500e+01,3.135619926452636719e+01
2.276179939508438110e-01,1.000000000000000000e+00,6.205925941467285156e+00,-8.812928199768066406e+00,2.889453649520874023e+00,-2.060867309570312500e+02,-1.001239624023437500e+02,-1.791711425781250000e+02,4.030399620532989502e-01,-6.667224884033203125e+01,-1.826865997314453125e+02,-2.342819452285766602e+00,7.562197875976562500e+01,3.135619926452636719e+01
2.323309928178787231e-01,1.000000000000000000e+00,6.142885684967041016e+00,-8.758888244628906250e+00,2.899965047836303711e+00,-2.060313568115234375e+02,-1.000501251220703125e+02,-1.791082153320312500e+02,4.030399620532989502e-01,-6.667224884033203125e+01,-1.826865997314453125e+02,-2.342819452285766602e+00,7.562197875976562500e+01,3.135619926452636719e+01
2.357410043478012085e-01,1.000000000000000000e+00,6.079874038696289062e+00,-8.705028533935546875e+00,2.910598754882812500e+00,-2.059765777587890625e+02,-9.997558593750000000e+01,-1.790464935302734375e+02,4.030399620532989502e-01,-6.667224884033203125e+01,-1.826867065429687500e+02,-2.342819452285766602e+00,7.562182617187500000e+01,3.135619926452636719e+01
2.396190017461776733e-01,1.000000000000000000e+00,6.017005920410156250e+00,-8.651350975036621094e+00,2.921008586883544922e+00,-2.059211730957031250e+02,-9.990100097656250000e+01,-1.789846496582031250e+02,4.030399620532989502e-01,-6.667224884033203125e+01,-1.826865997314453125e+02,-2.342747688293457031e+00,7.562212371826171875e+01,3.135619926452636719e+01
2.436120063066482544e-01,1.000000000000000000e+00,5.953966140747070312e+00,-8.597695350646972656e+00,2.931296586990356445e+00,-2.058662414550781250e+02,-9.982539367675781250e+01,-1.789221954345703125e+02,4.030399620532989502e-01,-6.667224884033203125e+01,-1.826867065429687500e+02,-2.342819452285766602e+00,7.562197875976562500e+01,3.135619926452636719e+01
2.482849955558776855e-01,1.000000000000000000e+00,5.891126632690429688e+00,-8.543745040893554688e+00,2.941686153411865234e+00,-2.058114013671875000e+02,-9.975149536132812500e+01,-1.788603973388671875e+02,4.030399620532989502e-01,-6.667224884033203125e+01,-1.826867065429687500e+02,-2.342819452285766602e+00,7.562197875976562500e+01,3.135619926452636719e+01
2.516129910945892334e-01,1.000000000000000000e+00,5.828287601470947266e+00,-8.489999771118164062e+00,2.952258586883544922e+00,-2.057560424804687500e+02,-9.967691040039062500e+01,-1.787987060546875000e+02,4.030399620532989502e-01,-6.667224884033203125e+01,-1.826865997314453125e+02,-2.342819452285766602e+00,7.562197875976562500e+01,3.135619926452636719e+01
2.563439905643463135e-01,1.000000000000000000e+00,5.765448093414306641e+00,-8.436207771301269531e+00,2.962851285934448242e+00,-2.057012634277343750e+02,-9.960253143310546875e+01,-1.787356262207031250e+02,4.030399620532989502e-01,-6.667224884033203125e+01,-1.826865997314453125e+02,-2.342819452285766602e+00,7.562212371826171875e+01,3.135619926452636719e+01
2.596870064735412598e-01,1.000000000000000000e+00,5.702666282653808594e+00,-8.382596969604492188e+00,2.973301887512207031e+00,-2.056462097167968750e+02,-9.952682495117187500e+01,-1.786741790771484375e+02,4.030399620532989502e-01,-6.667224884033203125e+01,-1.826865997314453125e+02,-2.342819452285766602e+00,7.562197875976562500e+01,3.135619926452636719e+01
2.636109888553619385e-01,1.000000000000000000e+00,5.639855861663818359e+00,-8.329010009765625000e+00,2.983569383621215820e+00,-2.055905456542968750e+02,-9.945260620117187500e+01,-1.786127471923828125e+02,4.030399620532989502e-01,-6.667224884033203125e+01,-1.826864318847656250e+02,-2.342819452285766602e+00,7.562197875976562500e+01,3.135619926452636719e+01
2.676810026168823242e-01,1.000000000000000000e+00,5.577045440673828125e+00,-8.275400161743164062e+00,2.993877649307250977e+00,-2.055360717773437500e+02,-9.937860107421875000e+01,-1.785503540039062500e+02,4.030399620532989502e-01,-6.667224884033203125e+01,-1.826865997314453125e+02,-2.342819452285766602e+00,7.562182617187500000e+01,3.135642242431640625e+01
2.721489965915679932e-01,1.000000000000000000e+00,5.514579772949218750e+00,-8.221947669982910156e+00,3.004328250885009766e+00,-2.054809722900390625e+02,-9.930385589599609375e+01,-1.784888458251953125e+02,4.030399620532989502e-01,-6.667224884033203125e+01,-1.826865997314453125e+02,-2.342819452285766602e+00,7.562197875976562500e+01,3.135619926452636719e+01
2.756760120391845703e-01,1.000000000000000000e+00,5.451711654663085938e+00,-8.168314933776855469e+00,3.014778852462768555e+00,-2.054256591796875000e+02,-9.922856903076171875e+01,-1.784270629882812500e+02,4.030399620532989502e-01,-6.667216491699218750e+01,-1.826865997314453125e+02,-2.342819452285766602e+00,7.562212371826171875e+01,3.135642242431640625e+01
2.803579866886138916e-01,1.000000000000000000e+00,5.388786315917968750e+00,-8.114908218383789062e+00,3.025270223617553711e+00,-2.053708801269531250e+02,-9.915425109863281250e+01,-1.783642578125000000e+02,4.030399620532989502e-01,-6.667224884033203125e+01,-1.826865997314453125e+02,-2.342891216278076172e+00,7.562212371826171875e+01,3.135619926452636719e+01
2.837280035018920898e-01,1.000000000000000000e+00,5.325889587402343750e+00,-8.061547279357910156e+00,3.035496950149536133e+00,-2.053152008056640625e+02,-9.908024597167968750e+01,-1.783025360107421875e+02,4.030399620532989502e-01,-6.667224884033203125e+01,-1.826865997314453125e+02,-2.342747688293457031e+00,7.562197875976562500e+01,3.135619926452636719e+01
2.878650128841400146e-01,1.000000000000000000e+00,5.262964248657226562e+00,-8.008072853088378906e+00,3.045723676681518555e+00,-2.052604217529296875e+02,-9.900560760498046875e+01,-1.782409057617187500e+02,4.030399620532989502e-01,-6.667224884033203125e+01,-1.826865997314453125e+02,-2.342747688293457031e+00,7.562197875976562500e+01,3.135619926452636719e+01
2.917340099811553955e-01,1.000000000000000000e+00,5.200124740600585938e+00,-7.954620361328125000e+00,3.056072711944580078e+00,-2.052057495117187500e+02,-9.893069458007812500e+01,-1.781779785156250000e+02,4.030399620532989502e-01,-6.667224884033203125e+01,-1.826865997314453125e+02,-2.342819452285766602e+00,7.562182617187500000e+01,3.135642242431640625e+01
2.965100109577178955e-01,1.000000000000000000e+00,5.137228012084960938e+00,-7.901191234588623047e+00,3.066584110260009766e+00,-2.051502838134765625e+02,-9.885626220703125000e+01,-1.781165924072265625e+02,4.030399620532989502e-01,-6.667224884033203125e+01,-1.826867065429687500e+02,-2.342819452285766602e+00,7.562197875976562500e+01,3.135619926452636719e+01
2.998670041561126709e-01,1.000000000000000000e+00,5.074303150177001953e+00,-7.847784996032714844e+00,3.077055215835571289e+00,-2.050956115722656250e+02,-9.878221130371093750e+01,-1.780546722412109375e+02,4.030399620532989502e-01,-6.667224884033203125e+01,-1.826865997314453125e+02,-2.342819452285766602e+00,7.562197875976562500e+01,3.135619926452636719e+01
3.044820129871368408e-01,1.000000000000000000e+00,5.011119365692138672e+00,-7.794151782989501953e+00,3.087546348571777344e+00,-2.050401916503906250e+02,-9.870735168457031250e+01,-1.779913940429687500e+02,4.030399620532989502e-01,-6.667224884033203125e+01,-1.826865997314453125e+02,-2.342819452285766602e+00,7.562197875976562500e+01,3.135619926452636719e+01
3.079209923744201660e-01,1.000000000000000000e+00,4.947763442993164062e+00,-7.740406036376953125e+00,3.097814083099365234e+00,-2.049853515625000000e+02,-9.863303375244140625e+01,-1.779305725097656250e+02,4.030399620532989502e-01,-6.667224884033203125e+01,-1.826865997314453125e+02,-2.342819452285766602e+00,7.562197875976562500e+01,3.135619926452636719e+01
3.120059967041015625e-01,1.000000000000000000e+00,4.884723186492919922e+00,-7.686591625213623047e+00,3.108264446258544922e+00,-2.049311065673828125e+02,-9.855860900878906250e+01,-1.778685913085937500e+02,4.030399620532989502e-01,-6.667216491699218750e+01,-1.826865997314453125e+02,-2.342819452285766602e+00,7.562197875976562500e+01,3.135619926452636719e+01
3.158969879150390625e-01,1.000000000000000000e+00,4.821712017059326172e+00,-7.632709980010986328e+00,3.118837118148803711e+00,-2.048754272460937500e+02,-9.848475646972656250e+01,-1.778063354492187500e+02,4.030399620532989502e-01,-6.667224884033203125e+01,-1.826865997314453125e+02,-2.342819452285766602e+00,7.562197875976562500e+01,3.135619926452636719e+01
3.205780088901519775e-01,1.000000000000000000e+00,4.758499145507812500e+00,-7.578737735748291016e+00,3.129470348358154297e+00,-2.048206481933593750e+02,-9.840969085693359375e+01,-1.777445526123046875e+02,4.030399620532989502e-01,-6.667224884033203125e+01,-1.826865997314453125e+02,-2.342819452285766602e+00,7.562197875976562500e+01,3.135619926452636719e+01
3.240190148353576660e-01,1.000000000000000000e+00,4.695085525512695312e+00,-7.524856090545654297e+00,3.139961719512939453e+00,-2.047656097412109375e+02,-9.833563232421875000e+01,-1.776830444335937500e+02,4.030399620532989502e-01,-6.667224884033203125e+01,-1.826867065429687500e+02,-2.342819452285766602e+00,7.562197875976562500e+01,3.135619926452636719e+01
3.265889883041381836e-01,1.000000000000000000e+00,4.632074832916259766e+00,-7.471177577972412109e+00,3.150269985198974609e+00,-2.047106628417968750e+02,-9.826120758056640625e+01,-1.776203155517578125e+02,4.030399620532989502e-01,-6.667224884033203125e+01,-1.826865997314453125e+02,-2.342747688293457031e+00,7.562197875976562500e+01,3.135619926452636719e+01
3.319239914417266846e-01,1.000000000000000000e+00,4.569091796875000000e+00,-7.417250633239746094e+00,3.160700082778930664e+00,-2.046560974121093750e+02,-9.818725585937500000e+01,-1.775592803955078125e+02,4.030399620532989502e-01,-6.667224884033203125e+01,-1.826867065429687500e+02,-2.342819452285766602e+00,7.562197875976562500e+01,3.135619926452636719e+01
3.361119925975799561e-01,1.000000000000000000e+00,4.505908012390136719e+00,-7.363255500793457031e+00,3.171252489089965820e+00,-2.046009979248046875e+02,-9.811261749267578125e+01,-1.774980468750000000e+02,4.030399620532989502e-01,-6.667216491699218750e+01,-1.826865997314453125e+02,-2.342891216278076172e+00,7.562197875976562500e+01,3.135619926452636719e+01
3.400759994983673096e-01,1.000000000000000000e+00,4.442637920379638672e+00,-7.309193134307861328e+00,3.181784391403198242e+00,-2.045460205078125000e+02,-9.803871917724609375e+01,-1.774354400634765625e+02,4.030399620532989502e-01,-6.667234802246093750e+01,-1.826865997314453125e+02,-2.342819452285766602e+00,7.562197875976562500e+01,3.135619926452636719e+01
3.449870049953460693e-01,1.000000000000000000e+00,4.379396915435791016e+00,-7.255288124084472656e+00,3.192417860031127930e+00,-2.044909667968750000e+02,-9.796423339843750000e+01,-1.773743286132812500e+02,4.030399620532989502e-01,-6.667224884033203125e+01,-1.826865997314453125e+02,-2.342747688293457031e+00,7.562197875976562500e+01,3.135619926452636719e+01
3.483619987964630127e-01,1.000000000000000000e+00,4.316557884216308594e+00,-7.201428890228271484e+00,3.202868223190307617e+00,-2.044359283447265625e+02,-9.788996124267578125e+01,-1.773125610351562500e+02,4.030399620532989502e-01,-6.667224884033203125e+01,-1.826867065429687500e+02,-2.342891216278076172e+00,7.562197875976562500e+01,3.135619926452636719e+01
3.520820140838623047e-01,1.000000000000000000e+00,4.253403186798095703e+00,-7.147750854492187500e+00,3.213278055191040039e+00,-2.043815002441406250e+02,-9.781521606445312500e+01,-1.772500152587890625e+02,4.030399620532989502e-01,-6.667224884033203125e+01,-1.826865997314453125e+02,-2.342747688293457031e+00,7.562197875976562500e+01,3.135619926452636719e+01
3.560439944267272949e-01,1.000000000000000000e+00,4.190535068511962891e+00,-7.093959808349609375e+00,3.223932027816772461e+00,-2.043264160156250000e+02,-9.774137115478515625e+01,-1.771887359619140625e+02,4.030399620532989502e-01,-6.667224884033203125e+01,-1.826865997314453125e+02,-2.342891216278076172e+00,7.562197875976562500e+01,3.135619926452636719e+01
3.603230118751525879e-01,1.000000000000000000e+00,4.127753257751464844e+00,-7.039896488189697266e+00,3.234484434127807617e+00,-2.042714691162109375e+02,-9.766753387451171875e+01,-1.771268005371093750e+02,4.030399620532989502e-01,-6.667224884033203125e+01,-1.826865997314453125e+02,-2.342819452285766602e+00,7.562197875976562500e+01,3.135619926452636719e+01
3.643690049648284912e-01,1.000000000000000000e+00,4.064626693725585938e+00,-6.985856533050537109e+00,3.245016098022460938e+00,-2.042165374755859375e+02,-9.759299468994140625e+01,-1.770638732910156250e+02,4.030399620532989502e-01,-6.667224884033203125e+01,-1.826865997314453125e+02,-2.342819452285766602e+00,7.562197875976562500e+01,3.135619926452636719e+01
3.690820038318634033e-01,1.000000000000000000e+00,4.001902580261230469e+00,-6.931770801544189453e+00,3.255446434020996094e+00,-2.041612243652343750e+02,-9.751824188232421875e+01,-1.770031127929687500e+02,4.030399620532989502e-01,-6.667224884033203125e+01,-1.826865997314453125e+02,-2.342747688293457031e+00,7.562197875976562500e+01,3.135619926452636719e+01
3.705559968948364258e-01,1.000000000000000000e+00,3.938948392868041992e+00,-6.878047466278076172e+00,3.265754699707031250e+00,-2.041067047119140625e+02,-9.744450378417968750e+01,-1.769413909912109375e+02,4.030399620532989502e-01,-6.667234802246093750e+01,-1.826865997314453125e+02,-2.342819452285766602e+00,7.562197875976562500e+01,3.135619926452636719e+01
3.762989938259124756e-01,1.000000000000000000e+00,3.875994443893432617e+00,-6.824301242828369141e+00,3.276184797286987305e+00,-2.040519256591796875e+02,-9.737034606933593750e+01,-1.768783264160156250e+02,4.030399620532989502e-01,-6.667224884033203125e+01,-1.826865997314453125e+02,-2.342819452285766602e+00,7.562197875976562500e+01,3.135619926452636719e+01
3.802439868450164795e-01,1.000000000000000000e+00,3.813269853591918945e+00,-6.770532608032226562e+00,3.286858797073364258e+00,-2.039971466064453125e+02,-9.729618072509765625e+01,-1.768170776367187500e+02,4.030399620532989502e-01,-6.667224884033203125e+01,-1.826865997314453125e+02,-2.342819452285766602e+00,7.562197875976562500e+01,3.135642242431640625e+01
3.845570087432861328e-01,1.000000000000000000e+00,3.750488042831420898e+00,-6.716877460479736328e+00,3.297472238540649414e+00,-2.039427795410156250e+02,-9.722154235839843750e+01,-1.767555084228515625e+02,4.030399620532989502e-01,-6.667224884033203125e+01,-1.826865997314453125e+02,-2.342819452285766602e+00,7.562197875976562500e+01,3.135598182678222656e+01
3.885779976844787598e-01,1.000000000000000000e+00,3.687706232070922852e+00,-6.663063049316406250e+00,3.307861804962158203e+00,-2.038869476318359375e+02,-9.714716339111328125e+01,-1.766931915283203125e+02,4.030399620532989502e-01,-6.667224884033203125e+01,-1.826865997314453125e+02,-2.342747688293457031e+00,7.562197875976562500e+01,3.135619926452636719e+01
3.927629888057708740e-01,1.000000000000000000e+00,3.625096797943115234e+00,-6.609520912170410156e+00,3.318109035491943359e+00,-2.038321838378906250e+02,-9.707316589355468750e+01,-1.766315307617187500e+02,4.030399620532989502e-01,-6.667216491699218750e+01,-1.826867065429687500e+02,-2.342819452285766602e+00,7.562197875976562500e+01,3.135619926452636719e+01
3.973830044269561768e-01,1.000000000000000000e+00,3.562314987182617188e+00,-6.555910587310791016e+00,3.328640937805175781e+00,-2.037778625488281250e+02,-9.699884033203125000e+01,-1.765698242187500000e+02,4.030399620532989502e-01,-6.667224884033203125e+01,-1.826865997314453125e+02,-2.342819452285766602e+00,7.562197875976562500e+01,3.135619926452636719e+01
4.005889892578125000e-01,1.000000000000000000e+00,3.499533176422119141e+00,-6.502300262451171875e+00,3.339274406433105469e+00,-2.037225494384765625e+02,-9.692424774169921875e+01,-1.765071563720703125e+02,4.030399620532989502e-01,-6.667234802246093750e+01,-1.826865997314453125e+02,-2.342747688293457031e+00,7.562197875976562500e+01,3.135619926452636719e+01
4.045319855213165283e-01,1.000000000000000000e+00,3.436894893646240234e+00,-6.448802947998046875e+00,3.349867105484008789e+00,-2.036680297851562500e+02,-9.685045623779296875e+01,-1.764461975097656250e+02,4.030399620532989502e-01,-6.667224884033203125e+01,-1.826865997314453125e+02,-2.342819452285766602e+00,7.562197875976562500e+01,3.135619926452636719e+01
4.089249968528747559e-01,1.000000000000000000e+00,3.374027013778686523e+00,-6.395328521728515625e+00,3.360297441482543945e+00,-2.036126861572265625e+02,-9.677587127685546875e+01,-1.763845520019531250e+02,4.030399620532989502e-01,-6.667224884033203125e+01,-1.826865997314453125e+02,-2.342819452285766602e+00,7.562197875976562500e+01,3.135619926452636719e+01
4.128029942512512207e-01,1.000000000000000000e+00,3.311073064804077148e+00,-6.341741085052490234e+00,3.370361566543579102e+00,-2.035575714111328125e+02,-9.670138549804687500e+01,-1.763221588134765625e+02,4.030399620532989502e-01,-6.667224884033203125e+01,-1.826865997314453125e+02,-2.342819452285766602e+00,7.562197875976562500e+01,3.135619926452636719e+01
4.166339933872222900e-01,1.000000000000000000e+00,3.248003959655761719e+00,-6.288062572479248047e+00,3.380690336227416992e+00,-2.035036468505859375e+02,-9.662626647949218750e+01,-1.762610473632812500e+02,4.030399620532989502e-01,-6.667216491699218750e+01,-1.826865997314453125e+02,-2.342819452285766602e+00,7.562197875976562500e+01,3.135619926452636719e+01
4.215379953384399414e-01,1.000000000000000000e+00,3.185193538665771484e+00,-6.234271526336669922e+00,3.391242504119873047e+00,-2.034485473632812500e+02,-9.655290222167968750e+01,-1.761990051269531250e+02,4.030399620532989502e-01,-6.667224884033203125e+01,-1.826867065429687500e+02,-2.342819452285766602e+00,7.562212371826171875e+01,3.135619926452636719e+01
4.247719943523406982e-01,1.000000000000000000e+00,3.122095823287963867e+00,-6.180502891540527344e+00,3.401814937591552734e+00,-2.033938751220703125e+02,-9.647863769531250000e+01,-1.761366729736328125e+02,4.030399620532989502e-01,-6.667224884033203125e+01,-1.826865997314453125e+02,-2.342819452285766602e+00,7.562212371826171875e+01,3.135642242431640625e+01
4.287840127944946289e-01,1.000000000000000000e+00,3.058826208114624023e+00,-6.126643657684326172e+00,3.412407875061035156e+00,-2.033386688232421875e+02,-9.640431213378906250e+01,-1.760757751464843750e+02,4.030399620532989502e-01,-6.667224884033203125e+01,-1.826867065429687500e+02,-2.342819452285766602e+00,7.562197875976562500e+01,3.135642242431640625e+01
4.328030049800872803e-01,1.000000000000000000e+00,2.995642423629760742e+00,-6.072875022888183594e+00,3.422817707061767578e+00,-2.032834625244140625e+02,-9.632918548583984375e+01,-1.760138702392578125e+02,4.030399620532989502e-01,-6.667224884033203125e+01,-1.826865997314453125e+02,-2.342819452285766602e+00,7.562197875976562500e+01,3.135619926452636719e+01
4.367739856243133545e-01,1.000000000000000000e+00,2.932602405548095703e+00,-6.019151210784912109e+00,3.433166742324829102e+00,-2.032291564941406250e+02,-9.625572204589843750e+01,-1.759512023925781250e+02,4.030399620532989502e-01,-6.667224884033203125e+01,-1.826865997314453125e+02,-2.342819452285766602e+00,7.562197875976562500e+01,3.135619926452636719e+01
4.409250020980834961e-01,1.000000000000000000e+00,2.869504690170288086e+00,-5.965382575988769531e+00,3.443657875061035156e+00,-2.031743164062500000e+02,-9.618155670166015625e+01,-1.758901062011718750e+02,4.030399620532989502e-01,-6.667224884033203125e+01,-1.826867065429687500e+02,-2.342747688293457031e+00,7.562197875976562500e+01,3.135619926452636719e+01
4.455859959125518799e-01,1.000000000000000000e+00,2.806091308593750000e+00,-5.911478519439697266e+00,3.454271078109741211e+00,-2.031194305419921875e+02,-9.610701751708984375e+01,-1.758279724121093750e+02,4.030399620532989502e-01,-6.667224884033203125e+01,-1.826867065429687500e+02,-2.342819452285766602e+00,7.562197875976562500e+01,3.135619926452636719e+01
4.489240050315856934e-01,1.000000000000000000e+00,2.742936372756958008e+00,-5.857573509216308594e+00,3.464965581893920898e+00,-2.030649719238281250e+02,-9.603205871582031250e+01,-1.757655181884765625e+02,4.030399620532989502e-01,-6.667224884033203125e+01,-1.826865997314453125e+02,-2.342819452285766602e+00,7.562197875976562500e+01,3.135619926452636719e+01
4.516530036926269531e-01,1.000000000000000000e+00,2.679924964904785156e+00,-5.803805351257324219e+00,3.475477218627929688e+00,-2.030098266601562500e+02,-9.595848083496093750e+01,-1.757046966552734375e+02,4.030399620532989502e-01,-6.667224884033203125e+01,-1.826865997314453125e+02,-2.342819452285766602e+00,7.562182617187500000e+01,3.135619926452636719e+01
4.555940032005310059e-01,1.000000000000000000e+00,2.616626262664794922e+00,-5.750013828277587891e+00,3.485744714736938477e+00,-2.029555206298828125e+02,-9.588432312011718750e+01,-1.756427001953125000e+02,4.030399620532989502e-01,-6.667224884033203125e+01,-1.826865997314453125e+02,-2.342819452285766602e+00,7.562197875976562500e+01,3.135619926452636719e+01
4.595470130443572998e-01,1.000000000000000000e+00,2.553385257720947266e+00,-5.696290493011474609e+00,3.496073246002197266e+00,-2.029005737304687500e+02,-9.580983734130859375e+01,-1.755803833007812500e+02,4.030399620532989502e-01,-6.667224884033203125e+01,-1.826865997314453125e+02,-2.342747688293457031e+00,7.562197875976562500e+01,3.135619926452636719e+01
4.636270105838775635e-01,1.000000000000000000e+00,2.490258932113647461e+00,-5.642747879028320312e+00,3.506726980209350586e+00,-2.028454284667968750e+02,-9.573514556884765625e+01,-1.755190124511718750e+02,4.030399620532989502e-01,-6.667224884033203125e+01,-1.826865997314453125e+02,-2.342819452285766602e+00,7.562197875976562500e+01,3.135619926452636719e+01
4.675559997558593750e-01,1.000000000000000000e+00,2.427103996276855469e+00,-5.588707447052001953e+00,3.517421483993530273e+00,-2.027908630371093750e+02,-9.566123962402343750e+01,-1.754572143554687500e+02,4.030399620532989502e-01,-6.667224884033203125e+01,-1.826865997314453125e+02,-2.342891216278076172e+00,7.562197875976562500e+01,3.135619926452636719e+01
4.715540111064910889e-01,1.000000000000000000e+00,2.363977670669555664e+00,-5.534848690032958984e+00,3.527892351150512695e+00,-2.027358093261718750e+02,-9.558734130859375000e+01,-1.753948364257812500e+02,4.030399620532989502e-01,-6.667224884033203125e+01,-1.826865997314453125e+02,-2.342819452285766602e+00,7.562197875976562500e+01,3.135619926452636719e+01
4.756219983100891113e-01,1.000000000000000000e+00,2.300937414169311523e+00,-5.480898380279541016e+00,3.538180351257324219e+00,-2.026812438964843750e+02,-9.551280975341796875e+01,-1.753342132568359375e+02,4.030399620532989502e-01,-6.667234802246093750e+01,-1.826865997314453125e+02,-2.342819452285766602e+00,7.562197875976562500e+01,3.135619926452636719e+01
4.795660078525543213e-01,1.000000000000000000e+00,2.237782478332519531e+00,-5.427016735076904297e+00,3.548610448837280273e+00,-2.026263122558593750e+02,-9.543811798095703125e+01,-1.752733001708984375e+02,4.030399620532989502e-01,-6.667224884033203125e+01,-1.826865997314453125e+02,-2.342747688293457031e+00,7.562197875976562500e+01,3.135619926452636719e+01
4.835479855537414551e-01,1.000000000000000000e+00,2.174713611602783203e+00,-5.373293876647949219e+00,3.559162855148315430e+00,-2.025711975097656250e+02,-9.536427307128906250e+01,-1.752109069824218750e+02,4.030399620532989502e-01,-6.667224884033203125e+01,-1.826867065429687500e+02,-2.342819452285766602e+00,7.562197875976562500e+01,3.135619926452636719e+01
4.877119958400726318e-01,1.000000000000000000e+00,2.111673355102539062e+00,-5.319434165954589844e+00,3.569776058197021484e+00,-2.025170593261718750e+02,-9.529053497314453125e+01,-1.751495971679687500e+02,4.030399620532989502e-01,-6.667224884033203125e+01,-1.826865997314453125e+02,-2.342819452285766602e+00,7.562197875976562500e+01,3.135642242431640625e+01
4.906499981880187988e-01,1.000000000000000000e+00,2.048748254776000977e+00,-5.265914440155029297e+00,3.580328226089477539e+00,-2.024620208740234375e+02,-9.521588897705078125e+01,-1.750880889892578125e+02,4.030399620532989502e-01,-6.667216491699218750e+01,-1.826867065429687500e+02,-2.342819452285766602e+00,7.562212371826171875e+01,3.135619926452636719e+01
4.955939948558807373e-01,1.000000000000000000e+00,2.048748254776000977e+00,-5.265914440155029297e+00,3.580328226089477539e+00,-2.024620208740234375e+02,-9.521588897705078125e+01,-1.750880889892578125e+02,4.030399620532989502e-01,-6.667216491699218750e+01,-1.826867065429687500e+02,-2.342819452285766602e+00,7.562212371826171875e+01,3.135619926452636719e+01
4.996300041675567627e-01,1.000000000000000000e+00,1.922868847846984863e+00,-5.158286571502685547e+00,3.600924491882324219e+00,-2.023524627685546875e+02,-9.506729888916015625e+01,-1.749643249511718750e+02,4.030399620532989502e-01,-6.667224884033203125e+01,-1.826867065429687500e+02,-2.342819452285766602e+00,7.562197875976562500e+01,3.135619926452636719e+01
5.035539865493774414e-01,1.000000000000000000e+00,1.859972119331359863e+00,-5.104744434356689453e+00,3.611354589462280273e+00,-2.022974090576171875e+02,-9.499382781982421875e+01,-1.749030914306640625e+02,4.030399620532989502e-01,-6.667234802246093750e+01,-1.826865997314453125e+02,-2.342819452285766602e+00,7.562197875976562500e+01,3.135619926452636719e+01
5.075479745864868164e-01,1.000000000000000000e+00,1.797391176223754883e+00,-5.051201820373535156e+00,3.621886253356933594e+00,-2.022427825927734375e+02,-9.491918945312500000e+01,-1.748404235839843750e+02,4.030399620532989502e-01,-6.667234802246093750e+01,-1.826865997314453125e+02,-2.342819452285766602e+00,7.562197875976562500e+01,3.135619926452636719e+01
5.116339921951293945e-01,1.000000000000000000e+00,1.734695553779602051e+00,-4.997749805450439453e+00,3.632519960403442383e+00,-2.021879425048828125e+02,-9.484513854980468750e+01,-1.747784576416015625e+02,4.030399620532989502e-01,-6.667224884033203125e+01,-1.826865997314453125e+02,-2.342891216278076172e+00,7.562197875976562500e+01,3.135619926452636719e+01
5.155749917030334473e-01,1.000000000000000000e+00,1.671885132789611816e+00,-4.944297790527343750e+00,3.642970323562622070e+00,-2.021325378417968750e+02,-9.477086639404296875e+01,-1.747167358398437500e+02,4.030399620532989502e-01,-6.667224884033203125e+01,-1.826867065429687500e+02,-2.342747688293457031e+00,7.562197875976562500e+01,3.135619926452636719e+01
5.195999741554260254e-01,1.000000000000000000e+00,1.609332919120788574e+00,-4.890868663787841797e+00,3.653197050094604492e+00,-2.020785522460937500e+02,-9.469691467285156250e+01,-1.746541442871093750e+02,4.030399620532989502e-01,-6.667234802246093750e+01,-1.826865997314453125e+02,-2.342819452285766602e+00,7.562197875976562500e+01,3.135619926452636719e+01
5.236660242080688477e-01,1.000000000000000000e+00,1.546780824661254883e+00,-4.837190628051757812e+00,3.663627624511718750e+00,-2.020233001708984375e+02,-9.462232971191406250e+01,-1.745926971435546875e+02,4.030399620532989502e-01,-6.667224884033203125e+01,-1.826867065429687500e+02,-2.342891216278076172e+00,7.562197875976562500e+01,3.135619926452636719e+01
5.275939702987670898e-01,1.000000000000000000e+00,1.483970284461975098e+00,-4.783535003662109375e+00,3.674159526824951172e+00,-2.019684143066406250e+02,-9.454869842529296875e+01,-1.745312500000000000e+02,4.030399620532989502e-01,-6.667224884033203125e+01,-1.826865997314453125e+02,-2.342819452285766602e+00,7.562197875976562500e+01,3.135598182678222656e+01
5.305699706077575684e-01,1.000000000000000000e+00,1.421389341354370117e+00,-4.729947566986083984e+00,3.684732198715209961e+00,-2.019139862060546875e+02,-9.447431945800781250e+01,-1.744690704345703125e+02,4.030399620532989502e-01,-6.667224884033203125e+01,-1.826865997314453125e+02,-2.342891216278076172e+00,7.562197875976562500e+01,3.135619926452636719e+01
5.355730056762695312e-01,1.000000000000000000e+00,1.358664989471435547e+00,-4.676291942596435547e+00,3.695121765136718750e+00,-2.018586273193359375e+02,-9.440000152587890625e+01,-1.744078369140625000e+02,4.030399620532989502e-01,-6.667224884033203125e+01,-1.826865997314453125e+02,-2.342819452285766602e+00,7.562197875976562500e+01,3.135598182678222656e+01
5.395680069923400879e-01,1.000000000000000000e+00,1.295969247817993164e+00,-4.622455120086669922e+00,3.705348253250122070e+00,-2.018038635253906250e+02,-9.432599639892578125e+01,-1.743460388183593750e+02,4.030399620532989502e-01,-6.667224884033203125e+01,-1.826865997314453125e+02,-2.342819452285766602e+00,7.562197875976562500e+01,3.135598182678222656e+01
5.435469746589660645e-01,1.000000000000000000e+00,1.233187437057495117e+00,-4.568912982940673828e+00,3.715595722198486328e+00,-2.017493438720703125e+02,-9.425236511230468750e+01,-1.742834472656250000e+02,4.030399620532989502e-01,-6.667216491699218750e+01,-1.826867065429687500e+02,-2.342819452285766602e+00,7.562197875976562500e+01,3.135619926452636719e+01
5.476250052452087402e-01,1.000000000000000000e+00,1.170405745506286621e+00,-4.515212059020996094e+00,3.726025819778442383e+00,-2.016945037841796875e+02,-9.417884063720703125e+01,-1.742226867675781250e+02,4.030399620532989502e-01,-6.667224884033203125e+01,-1.826867065429687500e+02,-2.342891216278076172e+00,7.562197875976562500e+01,3.135619926452636719e+01
5.515949726104736328e-01,1.000000000000000000e+00,1.107422947883605957e+00,-4.461534023284912109e+00,3.736516952514648438e+00,-2.016398773193359375e+02,-9.410436248779296875e+01,-1.741611175537109375e+02,4.030399620532989502e-01,-6.667224884033203125e+01,-1.826865997314453125e+02,-2.342747688293457031e+00,7.562197875976562500e+01,3.135619926452636719e+01
5.560240149497985840e-01,1.000000000000000000e+00,1.044641137123107910e+00,-4.407833099365234375e+00,3.747089624404907227e+00,-2.015845184326171875e+02,-9.402993011474609375e+01,-1.740991210937500000e+02,4.030399620532989502e-01,-6.667224884033203125e+01,-1.826865997314453125e+02,-2.342891216278076172e+00,7.562197875976562500e+01,3.135619926452636719e+01
5.596119761466979980e-01,1.000000000000000000e+00,9.817731976509094238e-01,-4.354109764099121094e+00,3.757438659667968750e+00,-2.015301055908203125e+02,-9.395613861083984375e+01,-1.740381469726562500e+02,4.030399620532989502e-01,-6.667224884033203125e+01,-1.826867065429687500e+02,-2.342819452285766602e+00,7.562197875976562500e+01,3.135619926452636719e+01
5.635899901390075684e-01,1.000000000000000000e+00,9.189627170562744141e-01,-4.300431251525878906e+00,3.767828226089477539e+00,-2.014758605957031250e+02,-9.388240814208984375e+01,-1.739764404296875000e+02,4.030399620532989502e-01,-6.667224884033203125e+01,-1.826865997314453125e+02,-2.342819452285766602e+00,7.562197875976562500e+01,3.135619926452636719e+01
5.675590038299560547e-01,1.000000000000000000e+00,8.561235070228576660e-01,-4.246685504913330078e+00,3.778359889984130859e+00,-2.014205474853515625e+02,-9.380845642089843750e+01,-1.739143218994140625e+02,4.030399620532989502e-01,-6.667234802246093750e+01,-1.826867065429687500e+02,-2.342747688293457031e+00,7.562197875976562500e+01,3.135619926452636719e+01
5.735650062561035156e-01,1.000000000000000000e+00,7.934278249740600586e-01,-4.193098068237304688e+00,3.788993358612060547e+00,-2.013660888671875000e+02,-9.373402404785156250e+01,-1.738533630371093750e+02,4.030399620532989502e-01,-6.667224884033203125e+01,-1.826865997314453125e+02,-2.342891216278076172e+00,7.562197875976562500e+01,3.135642242431640625e+01
5.755940079689025879e-01,1.000000000000000000e+00,7.306172847747802734e-01,-4.139533042907714844e+00,3.799566030502319336e+00,-2.013110809326171875e+02,-9.365981292724609375e+01,-1.737916412353515625e+02,4.030399620532989502e-01,-6.667234802246093750e+01,-1.826865997314453125e+02,-2.342819452285766602e+00,7.562212371826171875e+01,3.135619926452636719e+01
5.805760025978088379e-01,1.000000000000000000e+00,7.306172847747802734e-01,-4.139533042907714844e+00,3.799566030502319336e+00,-2.013110809326171875e+02,-9.365981292724609375e+01,-1.737916412353515625e+02,4.030399620532989502e-01,-6.667224884033203125e+01,-1.826867065429687500e+02,-2.342819452285766602e+00,7.562197875976562500e+01,3.135619926452636719e+01
5.835760235786437988e-01,1.000000000000000000e+00,6.044508218765258789e-01,-4.031746864318847656e+00,3.820284128189086914e+00,-2.012021026611328125e+02,-9.351196289062500000e+01,-1.736682128906250000e+02,4.030399620532989502e-01,-6.667224884033203125e+01,-1.826867065429687500e+02,-2.342819452285766602e+00,7.562197875976562500e+01,3.135619926452636719e+01
5.885660052299499512e-01,1.000000000000000000e+00,6.044508218765258789e-01,-4.031746864318847656e+00,3.820284128189086914e+00,-2.012021026611328125e+02,-9.351196289062500000e+01,-1.736682128906250000e+02,4.030399620532989502e-01,-6.667224884033203125e+01,-1.826867065429687500e+02,-2.342747688293457031e+00,7.562212371826171875e+01,3.135619926452636719e+01
5.920310020446777344e-01,1.000000000000000000e+00,4.786001741886138916e-01,-3.924005508422851562e+00,3.841205358505249023e+00,-2.010921783447265625e+02,-9.336363983154296875e+01,-1.735441741943359375e+02,4.030399620532989502e-01,-6.667224884033203125e+01,-1.826865997314453125e+02,-2.342747688293457031e+00,7.562197875976562500e+01,3.135642242431640625e+01
5.955889821052551270e-01,1.000000000000000000e+00,4.154738783836364746e-01,-3.870191335678100586e+00,3.851696491241455078e+00,-2.010374450683593750e+02,-9.328958129882812500e+01,-1.734830169677734375e+02,4.030399620532989502e-01,-6.667224884033203125e+01,-1.826865997314453125e+02,-2.342819452285766602e+00,7.562197875976562500e+01,3.135619926452636719e+01
6.007019877433776855e-01,1.000000000000000000e+00,4.154738783836364746e-01,-3.870191335678100586e+00,3.851696491241455078e+00,-2.010374450683593750e+02,-9.328958129882812500e+01,-1.734830169677734375e+02,4.030399620532989502e-01,-6.667224884033203125e+01,-1.826865997314453125e+02,-2.342819452285766602e+00,7.562197875976562500e+01,3.135619926452636719e+01
6.034399867057800293e-01,1.000000000000000000e+00,2.895657718181610107e-01,-3.762925863265991211e+00,3.872313022613525391e+00,-2.009285125732421875e+02,-9.314055633544921875e+01,-1.733595733642578125e+02,4.030399620532989502e-01,-6.667224884033203125e+01,-1.826867065429687500e+02,-2.342819452285766602e+00,7.562197875976562500e+01,3.135619926452636719e+01
6.075929999351501465e-01,1.000000000000000000e+00,2.895657718181610107e-01,-3.762925863265991211e+00,3.872313022613525391e+00,-2.009285125732421875e+02,-9.314055633544921875e+01,-1.733595733642578125e+02,4.030399620532989502e-01,-6.667224884033203125e+01,-1.826867065429687500e+02,-2.342819452285766602e+00,7.562197875976562500e+01,3.135619926452636719e+01
6.116549968719482422e-01,1.000000000000000000e+00,2.266404330730438232e-01,-3.709043741226196289e+00,3.882702589035034180e+00,-2.008736267089843750e+02,-9.306719207763671875e+01,-1.732985382080078125e+02,4.030399620532989502e-01,-6.667224884033203125e+01,-1.826865997314453125e+02,-2.342891216278076172e+00,7.562197875976562500e+01,3.135619926452636719e+01
6.156190037727355957e-01,1.000000000000000000e+00,1.635715663433074951e-01,-3.655252695083618164e+00,3.893254756927490234e+00,-2.008185272216796875e+02,-9.299298858642578125e+01,-1.732371063232421875e+02,4.030399620532989502e-01,-6.667224884033203125e+01,-1.826867065429687500e+02,-2.342747688293457031e+00,7.562197875976562500e+01,3.135619926452636719e+01
6.196069717407226562e-01,1.000000000000000000e+00,1.006175130605697632e-01,-3.601642370223999023e+00,3.903807163238525391e+00,-2.007640686035156250e+02,-9.291903686523437500e+01,-1.731746368408203125e+02,4.030399620532989502e-01,-6.667224884033203125e+01,-1.826867065429687500e+02,-2.342891216278076172e+00,7.562197875976562500e+01,3.135619926452636719e+01
6.236550211906433105e-01,1.000000000000000000e+00,3.786441311240196228e-02,-3.548054695129394531e+00,3.914379835128784180e+00,-2.007089233398437500e+02,-9.284396362304687500e+01,-1.731137390136718750e+02,4.030399620532989502e-01,-6.667224884033203125e+01,-1.826865997314453125e+02,-2.342747688293457031e+00,7.562197875976562500e+01,3.135619926452636719e+01
6.275950074195861816e-01,1.000000000000000000e+00,-2.508963458240032196e-02,-3.494716167449951172e+00,3.924687862396240234e+00,-2.006547698974609375e+02,-9.277059936523437500e+01,-1.730529785156250000e+02,4.030399620532989502e-01,-6.667216491699218750e+01,-1.826867065429687500e+02,-2.342891216278076172e+00,7.562197875976562500e+01,3.135619926452636719e+01
6.315969824790954590e-01,1.000000000000000000e+00,-8.781402558088302612e-02,-3.441105604171752930e+00,3.934996366500854492e+00,-2.005999755859375000e+02,-9.269638824462890625e+01,-1.729909973144531250e+02,4.030399620532989502e-01,-6.667224884033203125e+01,-1.826867065429687500e+02,-2.342891216278076172e+00,7.562197875976562500e+01,3.135619926452636719e+01
6.357210278511047363e-01,1.000000000000000000e+00,-1.506532430648803711e-01,-3.387653827667236328e+00,3.945446491241455078e+00,-2.005452575683593750e+02,-9.262222290039062500e+01,-1.729297637939453125e+02,4.030399620532989502e-01,-6.667224884033203125e+01,-1.826865997314453125e+02,-2.342819452285766602e+00,7.562197875976562500e+01,3.135619926452636719e+01
6.396160125732421875e-01,1.000000000000000000e+00,-2.134350538253784180e-01,-3.334066152572631836e+00,3.956100702285766602e+00,-2.004912109375000000e+02,-9.254731750488281250e+01,-1.728682556152343750e+02,4.030399620532989502e-01,-6.667224884033203125e+01,-1.826865997314453125e+02,-2.342819452285766602e+00,7.562197875976562500e+01,3.135619926452636719e+01
6.436049938201904297e-01,1.000000000000000000e+00,-2.761881351470947266e-01,-3.280274868011474609e+00,3.966611862182617188e+00,-2.004356994628906250e+02,-9.247373199462890625e+01,-1.728061218261718750e+02,4.030399620532989502e-01,-6.667224884033203125e+01,-1.826865997314453125e+02,-2.342819452285766602e+00,7.562197875976562500e+01,3.135619926452636719e+01
6.476699709892272949e-01,1.000000000000000000e+00,-3.389699757099151611e-01,-3.226732492446899414e+00,3.976899862289428711e+00,-2.003810119628906250e+02,-9.239973449707031250e+01,-1.727449493408203125e+02,4.030399620532989502e-01,-6.667224884033203125e+01,-1.826867065429687500e+02,-2.342819452285766602e+00,7.562212371826171875e+01,3.135619926452636719e+01
6.515970230102539062e-01,1.000000000000000000e+00,-4.016369283199310303e-01,-3.173099517822265625e+00,3.987045288085937500e+00,-2.003268127441406250e+02,-9.232546234130859375e+01,-1.726835021972656250e+02,4.030399620532989502e-01,-6.667224884033203125e+01,-1.826865997314453125e+02,-2.342747688293457031e+00,7.562197875976562500e+01,3.135619926452636719e+01
6.556370258331298828e-01,1.000000000000000000e+00,-4.642752408981323242e-01,-3.119398593902587891e+00,3.997434854507446289e+00,-2.002715606689453125e+02,-9.225082397460937500e+01,-1.726207122802734375e+02,4.030399620532989502e-01,-6.667224884033203125e+01,-1.826865997314453125e+02,-2.342819452285766602e+00,7.562197875976562500e+01,3.135619926452636719e+01
6.597409844398498535e-01,1.000000000000000000e+00,-5.271431207656860352e-01,-3.065743207931518555e+00,4.008048057556152344e+00,-2.002172546386718750e+02,-9.217681884765625000e+01,-1.725598754882812500e+02,4.030399620532989502e-01,-6.667224884033203125e+01,-1.826865997314453125e+02,-2.342819452285766602e+00,7.562197875976562500e+01,3.135619926452636719e+01
6.636270284652709961e-01,1.000000000000000000e+00,-5.899823307991027832e-01,-3.012245893478393555e+00,4.018641471862792969e+00,-2.001622619628906250e+02,-9.210334777832031250e+01,-1.724985809326171875e+02,4.030399620532989502e-01,-6.667224884033203125e+01,-1.826865997314453125e+02,-2.342819452285766602e+00,7.562197875976562500e+01,3.135619926452636719e+01
6.676040291786193848e-01,1.000000000000000000e+00,-6.527354717254638672e-01,-2.958703756332397461e+00,4.029010295867919922e+00,-2.001073760986328125e+02,-9.202912902832031250e+01,-1.724357147216796875e+02,4.030399620532989502e-01,-6.667224884033203125e+01,-1.826867065429687500e+02,-2.342819452285766602e+00,7.562197875976562500e+01,3.135619926452636719e+01
6.716430187225341797e-01,1.000000000000000000e+00,-7.156320810317993164e-01,-2.904980182647705078e+00,4.039196491241455078e+00,-2.000534973144531250e+02,-9.195427703857421875e+01,-1.723744659423828125e+02,4.030399620532989502e-01,-6.667224884033203125e+01,-1.826867065429687500e+02,-2.342819452285766602e+00,7.562197875976562500e+01,3.135598182678222656e+01
6.756190061569213867e-01,1.000000000000000000e+00,-7.785000205039978027e-01,-2.851460695266723633e+00,4.049545288085937500e+00,-1.999985046386718750e+02,-9.188048553466796875e+01,-1.723137054443359375e+02,4.030399620532989502e-01,-6.667224884033203125e+01,-1.826867065429687500e+02,-2.342747688293457031e+00,7.562197875976562500e+01,3.135598182678222656e+01
6.796079874038696289e-01,1.000000000000000000e+00,-8.413392305374145508e-01,-2.797872781753540039e+00,4.059975624084472656e+00,-1.999439239501953125e+02,-9.180696105957031250e+01,-1.722513885498046875e+02,4.030399620532989502e-01,-6.667224884033203125e+01,-1.826867065429687500e+02,-2.342819452285766602e+00,7.562197875976562500e+01,3.135619926452636719e+01
6.836079955101013184e-01,1.000000000000000000e+00,-9.042932391166687012e-01,-2.744239807128906250e+00,4.070527553558349609e+00,-1.998892059326171875e+02,-9.173248291015625000e+01,-1.721901550292968750e+02,4.030399620532989502e-01,-6.667224884033203125e+01,-1.826865997314453125e+02,-2.342747688293457031e+00,7.562197875976562500e+01,3.135619926452636719e+01
6.876699924468994141e-01,1.000000000000000000e+00,-9.671037793159484863e-01,-2.690991640090942383e+00,4.081059932708740234e+00,-1.998342132568359375e+02,-9.165842437744140625e+01,-1.721287078857421875e+02,4.030399620532989502e-01,-6.667224884033203125e+01,-1.826865997314453125e+02,-2.342891216278076172e+00,7.562212371826171875e+01,3.135598182678222656e+01
6.916790008544921875e-01,1.000000000000000000e+00,-1.029742121696472168e+00,-2.637313604354858398e+00,4.091286659240722656e+00,-1.997799072265625000e+02,-9.158431243896484375e+01,-1.720665130615234375e+02,4.030399620532989502e-01,-6.667224884033203125e+01,-1.826865997314453125e+02,-2.342819452285766602e+00,7.562197875976562500e+01,3.135619926452636719e+01
6.956089735031127930e-01,1.000000000000000000e+00,-1.092638731002807617e+00,-2.583590269088745117e+00,4.101737022399902344e+00,-1.997251739501953125e+02,-9.151052856445312500e+01,-1.720056152343750000e+02,4.030399620532989502e-01,-6.667224884033203125e+01,-1.826867065429687500e+02,-2.342819452285766602e+00,7.562197875976562500e+01,3.135619926452636719e+01
6.995959877967834473e-01,1.000000000000000000e+00,-1.155420541763305664e+00,-2.529798746109008789e+00,4.112146854400634766e+00,-1.996703338623046875e+02,-9.143657684326171875e+01,-1.719445037841796875e+02,4.030399620532989502e-01,-6.667224884033203125e+01,-1.826865997314453125e+02,-2.342819452285766602e+00,7.562212371826171875e+01,3.135619926452636719e+01
7.036529779434204102e-01,1.000000000000000000e+00,-1.218144893646240234e+00,-2.475939512252807617e+00,4.122699260711669922e+00,-1.996160888671875000e+02,-9.136209106445312500e+01,-1.718823242187500000e+02,4.030399620532989502e-01,-6.667224884033203125e+01,-1.826865997314453125e+02,-2.342819452285766602e+00,7.562197875976562500e+01,3.135619926452636719e+01
7.075989842414855957e-01,1.000000000000000000e+00,-1.281213760375976562e+00,-2.422284126281738281e+00,4.133312702178955078e+00,-1.995609436035156250e+02,-9.128835296630859375e+01,-1.718211517333984375e+02,4.030399620532989502e-01,-6.667224884033203125e+01,-1.826865997314453125e+02,-2.342747688293457031e+00,7.562182617187500000e+01,3.135619926452636719e+01
7.117949724197387695e-01,1.000000000000000000e+00,-1.344024300575256348e+00,-2.368628501892089844e+00,4.143640995025634766e+00,-1.995066833496093750e+02,-9.121467590332031250e+01,-1.717600555419921875e+02,4.030399620532989502e-01,-6.667224884033203125e+01,-1.826865997314453125e+02,-2.342819452285766602e+00,7.562197875976562500e+01,3.135642242431640625e+01
7.164940237998962402e-01,1.000000000000000000e+00,-1.406863451004028320e+00,-2.315086126327514648e+00,4.153847694396972656e+00,-1.994521179199218750e+02,-9.114088439941406250e+01,-1.716977996826171875e+02,4.030399620532989502e-01,-6.667224884033203125e+01,-1.826867065429687500e+02,-2.342819452285766602e+00,7.562197875976562500e+01,3.135619926452636719e+01
7.196490168571472168e-01,1.000000000000000000e+00,-1.469559192657470703e+00,-2.261340141296386719e+00,4.164237022399902344e+00,-1.993969726562500000e+02,-9.106710052490234375e+01,-1.716368865966796875e+02,4.030399620532989502e-01,-6.667224884033203125e+01,-1.826867065429687500e+02,-2.342819452285766602e+00,7.562197875976562500e+01,3.135619926452636719e+01
7.236499786376953125e-01,1.000000000000000000e+00,-1.532369732856750488e+00,-2.207526206970214844e+00,4.174809932708740234e+00,-1.993422851562500000e+02,-9.099336242675781250e+01,-1.715751800537109375e+02,4.030399620532989502e-01,-6.667224884033203125e+01,-1.826865997314453125e+02,-2.342747688293457031e+00,7.562197875976562500e+01,3.135619926452636719e+01
7.276510000228881836e-01,1.000000000000000000e+00,-1.595438599586486816e+00,-2.153893232345581055e+00,4.185361862182617188e+00,-1.992876739501953125e+02,-9.091914367675781250e+01,-1.715125885009765625e+02,4.030399620532989502e-01,-6.667224884033203125e+01,-1.826867065429687500e+02,-2.342819452285766602e+00,7.562182617187500000e+01,3.135619926452636719e+01
7.316640019416809082e-01,1.000000000000000000e+00,-1.658163070678710938e+00,-2.100328207015991211e+00,4.195690631866455078e+00,-1.992330932617187500e+02,-9.084529876708984375e+01,-1.714516906738281250e+02,4.030399620532989502e-01,-6.667224884033203125e+01,-1.826865997314453125e+02,-2.342819452285766602e+00,7.562197875976562500e+01,3.135619926452636719e+01
7.359150052070617676e-01,1.000000000000000000e+00,-1.720858573913574219e+00,-2.046830892562866211e+00,4.205835819244384766e+00,-1.991784667968750000e+02,-9.077124786376953125e+01,-1.713904418945312500e+02,4.030399620532989502e-01,-6.667224884033203125e+01,-1.826867065429687500e+02,-2.342891216278076172e+00,7.562212371826171875e+01,3.135619926452636719e+01
7.403500080108642578e-01,1.000000000000000000e+00,-1.783525586128234863e+00,-1.993356585502624512e+00,4.216083526611328125e+00,-1.991233825683593750e+02,-9.069841766357421875e+01,-1.713280639648437500e+02,4.030399620532989502e-01,-6.667224884033203125e+01,-1.826865997314453125e+02,-2.342747688293457031e+00,7.562197875976562500e+01,3.135619926452636719e+01
7.435939908027648926e-01,1.000000000000000000e+00,-1.846135258674621582e+00,-1.939723610877990723e+00,4.226737022399902344e+00,-1.990693359375000000e+02,-9.062430572509765625e+01,-1.712667541503906250e+02,4.030399620532989502e-01,-6.667224884033203125e+01,-1.826865997314453125e+02,-2.342747688293457031e+00,7.562197875976562500e+01,3.135619926452636719e+01
7.476339936256408691e-01,1.000000000000000000e+00,-1.908744812011718750e+00,-1.886226534843444824e+00,4.237390995025634766e+00,-1.990142364501953125e+02,-9.054987335205078125e+01,-1.712057189941406250e+02,4.030399620532989502e-01,-6.667224884033203125e+01,-1.826865997314453125e+02,-2.342747688293457031e+00,7.562197875976562500e+01,3.135598182678222656e+01
7.517070174217224121e-01,1.000000000000000000e+00,-1.971354365348815918e+00,-1.832548260688781738e+00,4.247902393341064453e+00,-1.989596099853515625e+02,-9.047576904296875000e+01,-1.711431274414062500e+02,4.030399620532989502e-01,-6.667224884033203125e+01,-1.826865997314453125e+02,-2.342747688293457031e+00,7.562197875976562500e+01,3.135619926452636719e+01
7.559710144996643066e-01,1.000000000000000000e+00,-2.033935070037841797e+00,-1.778915405273437500e+00,4.258048057556152344e+00,-1.989050903320312500e+02,-9.040240478515625000e+01,-1.710820922851562500e+02,4.030399620532989502e-01,-6.667234802246093750e+01,-1.826865997314453125e+02,-2.342819452285766602e+00,7.562197875976562500e+01,3.135619926452636719e+01
7.595099806785583496e-01,1.000000000000000000e+00,-2.096516132354736328e+00,-1.725305199623107910e+00,4.268356323242187500e+00,-1.988500976562500000e+02,-9.032882690429687500e+01,-1.710206451416015625e+02,4.030399620532989502e-01,-6.667224884033203125e+01,-1.826865997314453125e+02,-2.342819452285766602e+00,7.562197875976562500e+01,3.135598182678222656e+01
7.643049955368041992e-01,1.000000000000000000e+00,-2.159068346023559570e+00,-1.671513795852661133e+00,4.278766155242919922e+00,-1.987958068847656250e+02,-9.025444793701171875e+01,-1.709582519531250000e+02,4.030399620532989502e-01,-6.667224884033203125e+01,-1.826865997314453125e+02,-2.342891216278076172e+00,7.562182617187500000e+01,3.135619926452636719e+01
7.676560282707214355e-01,1.000000000000000000e+00,-2.221620321273803711e+00,-1.617948770523071289e+00,4.289358615875244141e+00,-1.987410583496093750e+02,-9.018039703369140625e+01,-1.708974304199218750e+02,4.030399620532989502e-01,-6.667224884033203125e+01,-1.826867065429687500e+02,-2.342819452285766602e+00,7.562197875976562500e+01,3.135619926452636719e+01
7.717149853706359863e-01,1.000000000000000000e+00,-2.284201145172119141e+00,-1.564406394958496094e+00,4.299911022186279297e+00,-1.986857604980468750e+02,-9.010655212402343750e+01,-1.708367156982421875e+02,4.030399620532989502e-01,-6.667224884033203125e+01,-1.826867065429687500e+02,-2.342819452285766602e+00,7.562197875976562500e+01,3.135619926452636719e+01
7.756119966506958008e-01,1.000000000000000000e+00,-2.346810817718505859e+00,-1.510886669158935547e+00,4.310280799865722656e+00,-1.986318817138671875e+02,-9.003281402587890625e+01,-1.707746734619140625e+02,4.030399620532989502e-01,-6.667224884033203125e+01,-1.826867065429687500e+02,-2.342891216278076172e+00,7.562197875976562500e+01,3.135619926452636719e+01
7.803140282630920410e-01,1.000000000000000000e+00,-2.409506320953369141e+00,-1.457344293594360352e+00,4.320446491241455078e+00,-1.985772399902343750e+02,-8.995822143554687500e+01,-1.707137756347656250e+02,4.030399620532989502e-01,-6.667216491699218750e+01,-1.826865997314453125e+02,-2.342819452285766602e+00,7.562182617187500000e+01,3.135598182678222656e+01
7.837600111961364746e-01,1.000000000000000000e+00,-2.472115993499755859e+00,-1.403620839118957520e+00,4.330957889556884766e+00,-1.985219879150390625e+02,-8.988459014892578125e+01,-1.706522674560546875e+02,4.030399620532989502e-01,-6.667224884033203125e+01,-1.826865997314453125e+02,-2.342819452285766602e+00,7.562197875976562500e+01,3.135619926452636719e+01
7.883179783821105957e-01,1.000000000000000000e+00,-2.534782886505126953e+00,-1.349987864494323730e+00,4.341428756713867188e+00,-1.984676971435546875e+02,-8.981065368652343750e+01,-1.705898132324218750e+02,4.030399620532989502e-01,-6.667224884033203125e+01,-1.826867065429687500e+02,-2.342891216278076172e+00,7.562197875976562500e+01,3.135598182678222656e+01
7.917249798774719238e-01,1.000000000000000000e+00,-2.597421407699584961e+00,-1.296558737754821777e+00,4.351940631866455078e+00,-1.984125518798828125e+02,-8.973670196533203125e+01,-1.705289154052734375e+02,4.030399620532989502e-01,-6.667224884033203125e+01,-1.826865997314453125e+02,-2.342891216278076172e+00,7.562197875976562500e+01,3.135619926452636719e+01
7.957879900932312012e-01,1.000000000000000000e+00,-2.660231828689575195e+00,-1.243174672126770020e+00,4.362288951873779297e+00,-1.983580322265625000e+02,-8.966178894042968750e+01,-1.704680633544921875e+02,4.030399620532989502e-01,-6.667224884033203125e+01,-1.826867065429687500e+02,-2.342819452285766602e+00,7.562197875976562500e+01,3.135619926452636719e+01
7.998489737510681152e-01,1.000000000000000000e+00,-2.723042249679565430e+00,-1.189926505088806152e+00,4.372536659240722656e+00,-1.983037719726562500e+02,-8.958847808837890625e+01,-1.704052734375000000e+02,4.030399620532989502e-01,-6.667224884033203125e+01,-1.826865997314453125e+02,-2.342891216278076172e+00,7.562197875976562500e+01,3.135619926452636719e+01
8.043429851531982422e-01,1.000000000000000000e+00,-2.785938978195190430e+00,-1.136180400848388672e+00,4.382803916931152344e+00,-1.982484588623046875e+02,-8.951437377929687500e+01,-1.703435668945312500e+02,4.030399620532989502e-01,-6.667224884033203125e+01,-1.826867065429687500e+02,-2.342819452285766602e+00,7.562197875976562500e+01,3.135619926452636719e+01
8.078730106353759766e-01,1.000000000000000000e+00,-2.848691940307617188e+00,-1.082457065582275391e+00,4.393274784088134766e+00,-1.981942138671875000e+02,-8.944052886962890625e+01,-1.702819213867187500e+02,4.030399620532989502e-01,-6.667224884033203125e+01,-1.826867065429687500e+02,-2.342819452285766602e+00,7.562197875976562500e+01,3.135619926452636719e+01
8.130139708518981934e-01,1.000000000000000000e+00,-2.911273002624511719e+00,-1.028846621513366699e+00,4.403847217559814453e+00,-1.981393280029296875e+02,-8.936556243896484375e+01,-1.702200622558593750e+02,4.030399620532989502e-01,-6.667224884033203125e+01,-1.826867065429687500e+02,-2.342747688293457031e+00,7.562212371826171875e+01,3.135642242431640625e+01
8.145319819450378418e-01,1.000000000000000000e+00,-2.973968505859375000e+00,-9.752137660980224609e-01,4.414277553558349609e+00,-1.980845794677734375e+02,-8.929203796386718750e+01,-1.701586914062500000e+02,4.030399620532989502e-01,-6.667224884033203125e+01,-1.826867065429687500e+02,-2.342747688293457031e+00,7.562197875976562500e+01,3.135619926452636719e+01
8.199290037155151367e-01,1.000000000000000000e+00,-3.036750316619873047e+00,-9.217392802238464355e-01,4.424463748931884766e+00,-1.980307617187500000e+02,-8.921776580810546875e+01,-1.700974426269531250e+02,4.030399620532989502e-01,-6.667216491699218750e+01,-1.826865997314453125e+02,-2.342819452285766602e+00,7.562197875976562500e+01,3.135619926452636719e+01
8.238869905471801758e-01,1.000000000000000000e+00,-3.099733114242553711e+00,-8.680611252784729004e-01,4.434772014617919922e+00,-1.979756622314453125e+02,-8.914398193359375000e+01,-1.700352630615234375e+02,4.030399620532989502e-01,-6.667224884033203125e+01,-1.826867065429687500e+02,-2.342747688293457031e+00,7.562197875976562500e+01,3.135619926452636719e+01
8.265659809112548828e-01,1.000000000000000000e+00,-3.162744522094726562e+00,-8.145187497138977051e-01,4.445202350616455078e+00,-1.979209289550781250e+02,-8.906902313232421875e+01,-1.699740905761718750e+02,4.030399620532989502e-01,-6.667224884033203125e+01,-1.826867065429687500e+02,-2.342819452285766602e+00,7.562197875976562500e+01,3.135619926452636719e+01
8.322240114212036133e-01,1.000000000000000000e+00,-3.225468873977661133e+00,-7.608405351638793945e-01,4.455774784088134766e+00,-1.978662567138671875e+02,-8.899512481689453125e+01,-1.699133300781250000e+02,4.030399620532989502e-01,-6.667224884033203125e+01,-1.826867065429687500e+02,-2.342819452285766602e+00,7.562197875976562500e+01,3.135619926452636719e+01
8.359310030937194824e-01,1.000000000000000000e+00,-3.288336992263793945e+00,-7.072755694389343262e-01,4.466245651245117188e+00,-1.978113708496093750e+02,-8.892154693603515625e+01,-1.698510742187500000e+02,4.030399620532989502e-01,-6.667224884033203125e+01,-1.826865997314453125e+02,-2.342747688293457031e+00,7.562197875976562500e+01,3.135619926452636719e+01
8.398830294609069824e-01,1.000000000000000000e+00,-3.351262331008911133e+00,-6.537784337997436523e-01,4.476574420928955078e+00,-1.977573852539062500e+02,-8.884754943847656250e+01,-1.697895660400390625e+02,4.030399620532989502e-01,-6.667224884033203125e+01,-1.826867065429687500e+02,-2.342819452285766602e+00,7.562197875976562500e+01,3.135619926452636719e+01
8.441619873046875000e-01,1.000000000000000000e+00,-3.414129972457885742e+00,-6.002359986305236816e-01,4.486821174621582031e+00,-1.977024841308593750e+02,-8.877252960205078125e+01,-1.697287445068359375e+02,4.030399620532989502e-01,-6.667224884033203125e+01,-1.826865997314453125e+02,-2.342747688293457031e+00,7.562197875976562500e+01,3.135619926452636719e+01
8.481270074844360352e-01,1.000000000000000000e+00,-3.477199077606201172e+00,-5.468972921371459961e-01,4.497210979461669922e+00,-1.976478271484375000e+02,-8.869895172119140625e+01,-1.696668243408203125e+02,4.030399620532989502e-01,-6.667224884033203125e+01,-1.826867065429687500e+02,-2.342747688293457031e+00,7.562197875976562500e+01,3.135619926452636719e+01
8.505370020866394043e-01,1.000000000000000000e+00,-3.540066957473754883e+00,-4.934680461883544922e-01,4.507681846618652344e+00,-1.975932464599609375e+02,-8.862548065185546875e+01,-1.696057128906250000e+02,4.030399620532989502e-01,-6.667234802246093750e+01,-1.826865997314453125e+02,-2.342819452285766602e+00,7.562197875976562500e+01,3.135598182678222656e+01
8.563730120658874512e-01,1.000000000000000000e+00,-3.602905988693237305e+00,-4.401067197322845459e-01,4.518112182617187500e+00,-1.975386810302734375e+02,-8.855169677734375000e+01,-1.695448913574218750e+02,4.030399620532989502e-01,-6.667224884033203125e+01,-1.826865997314453125e+02,-2.342819452285766602e+00,7.562197875976562500e+01,3.135619926452636719e+01
8.601350188255310059e-01,1.000000000000000000e+00,-3.665745496749877930e+00,-3.865869641304016113e-01,4.528419971466064453e+00,-1.974843292236328125e+02,-8.847731781005859375e+01,-1.694826202392578125e+02,4.030399620532989502e-01,-6.667216491699218750e+01,-1.826867065429687500e+02,-2.342819452285766602e+00,7.562197875976562500e+01,3.135619926452636719e+01
8.640879988670349121e-01,1.000000000000000000e+00,-3.728527307510375977e+00,-3.329993188381195068e-01,4.538647174835205078e+00,-1.974293823242187500e+02,-8.840332031250000000e+01,-1.694209899902343750e+02,4.030399620532989502e-01,-6.667216491699218750e+01,-1.826867065429687500e+02,-2.342819452285766602e+00,7.562197875976562500e+01,3.135619926452636719e+01
8.684229850769042969e-01,1.000000000000000000e+00,-3.791337728500366211e+00,-2.794569134712219238e-01,4.548995971679687500e+00,-1.973748016357421875e+02,-8.832968902587890625e+01,-1.693600921630859375e+02,4.030399620532989502e-01,-6.667224884033203125e+01,-1.826865997314453125e+02,-2.342819452285766602e+00,7.562197875976562500e+01,3.135598182678222656e+01
8.725079894065856934e-01,1.000000000000000000e+00,-3.854004621505737305e+00,-2.257561087608337402e-01,4.559446811676025391e+00,-1.973204040527343750e+02,-8.825578308105468750e+01,-1.692976226806640625e+02,4.030399620532989502e-01,-6.667234802246093750e+01,-1.826865997314453125e+02,-2.342819452285766602e+00,7.562197875976562500e+01,3.135619926452636719e+01
8.776950240135192871e-01,1.000000000000000000e+00,-3.979510784149169922e+00,-1.186034455895423889e-01,4.580307006835937500e+00,-1.972110443115234375e+02,-8.810768127441406250e+01,-1.691750793457031250e+02,4.030399620532989502e-01,-6.667224884033203125e+01,-1.826867065429687500e+02,-2.342819452285766602e+00,7.562197875976562500e+01,3.135619926452636719e+01
8.804579973220825195e-01,1.000000000000000000e+00,-3.979510784149169922e+00,-1.186034455895423889e-01,4.580307006835937500e+00,-1.972110443115234375e+02,-8.810768127441406250e+01,-1.691750793457031250e+02,4.030399620532989502e-01,-6.667224884033203125e+01,-1.826867065429687500e+02,-2.342819452285766602e+00,7.562197875976562500e+01,3.135619926452636719e+01
8.843200206756591797e-01,1.000000000000000000e+00,-4.042235374450683594e+00,-6.519683450460433960e-02,4.590615272521972656e+00,-1.971566314697265625e+02,-8.803409576416015625e+01,-1.691128234863281250e+02,4.030399620532989502e-01,-6.667234802246093750e+01,-1.826867065429687500e+02,-2.342819452285766602e+00,7.562197875976562500e+01,3.135619926452636719e+01
8.883630037307739258e-01,1.000000000000000000e+00,-4.104815959930419922e+00,-1.176759507507085800e-02,4.600821971893310547e+00,-1.971018066406250000e+02,-8.796041107177734375e+01,-1.690517120361328125e+02,4.030399620532989502e-01,-6.667224884033203125e+01,-1.826865997314453125e+02,-2.342819452285766602e+00,7.562197875976562500e+01,3.135619926452636719e+01
8.926640152931213379e-01,1.000000000000000000e+00,-4.167282104492187500e+00,4.175216704607009888e-02,4.611292362213134766e+00,-1.970477142333984375e+02,-8.788587951660156250e+01,-1.689908142089843750e+02,4.030399620532989502e-01,-6.667224884033203125e+01,-1.826867065429687500e+02,-2.342819452285766602e+00,7.562212371826171875e+01,3.135619926452636719e+01
8.964989781379699707e-01,1.000000000000000000e+00,-4.230006694793701172e+00,9.524929523468017578e-02,4.621804237365722656e+00,-1.969928283691406250e+02,-8.781225585937500000e+01,-1.689285583496093750e+02,4.030399620532989502e-01,-6.667216491699218750e+01,-1.826867065429687500e+02,-2.342819452285766602e+00,7.562197875976562500e+01,3.135619926452636719e+01
9.011170268058776855e-01,1.000000000000000000e+00,-4.292644977569580078e+00,1.487011760473251343e-01,4.632377147674560547e+00,-1.969379882812500000e+02,-8.773862457275390625e+01,-1.688674011230468750e+02,4.030399620532989502e-01,-6.667216491699218750e+01,-1.826865997314453125e+02,-2.342819452285766602e+00,7.562197875976562500e+01,3.135619926452636719e+01
9.046720266342163086e-01,1.000000000000000000e+00,-4.355225563049316406e+00,2.021304070949554443e-01,4.642583370208740234e+00,-1.968838806152343750e+02,-8.766493988037109375e+01,-1.688064880371093750e+02,4.030399620532989502e-01,-6.667224884033203125e+01,-1.826865997314453125e+02,-2.342747688293457031e+00,7.562197875976562500e+01,3.135619926452636719e+01
9.093120098114013672e-01,1.000000000000000000e+00,-4.417950153350830078e+00,2.555370032787322998e-01,4.652850627899169922e+00,-1.968288421630859375e+02,-8.759066772460937500e+01,-1.687440948486328125e+02,4.030399620532989502e-01,-6.667224884033203125e+01,-1.826867065429687500e+02,-2.342819452285766602e+00,7.562197875976562500e+01,3.135619926452636719e+01
9.126179814338684082e-01,1.000000000000000000e+00,-4.480473518371582031e+00,3.088304698467254639e-01,4.663301467895507812e+00,-1.967744903564453125e+02,-8.751735687255859375e+01,-1.686830596923828125e+02,4.030399620532989502e-01,-6.667216491699218750e+01,-1.826865997314453125e+02,-2.342819452285766602e+00,7.562197875976562500e+01,3.135619926452636719e+01
9.167500138282775879e-01,1.000000000000000000e+00,-4.543169021606445312e+00,3.624633848667144775e-01,4.673813343048095703e+00,-1.967198028564453125e+02,-8.744293212890625000e+01,-1.686225738525390625e+02,4.030399620532989502e-01,-6.667216491699218750e+01,-1.826867065429687500e+02,-2.342819452285766602e+00,7.562182617187500000e+01,3.135642242431640625e+01
9.207400083541870117e-01,1.000000000000000000e+00,-4.605835914611816406e+00,4.160736799240112305e-01,4.684304237365722656e+00,-1.966647186279296875e+02,-8.736924743652343750e+01,-1.685604553222656250e+02,4.030399620532989502e-01,-6.667224884033203125e+01,-1.826865997314453125e+02,-2.342819452285766602e+00,7.562197875976562500e+01,3.135619926452636719e+01
9.255840182304382324e-01,1.000000000000000000e+00,-4.668446063995361328e+00,4.697518646717071533e-01,4.694571971893310547e+00,-1.966108245849609375e+02,-8.729524230957031250e+01,-1.684993438720703125e+02,4.030399620532989502e-01,-6.667224884033203125e+01,-1.826865997314453125e+02,-2.342819452285766602e+00,7.562197875976562500e+01,3.135619926452636719e+01
9.288330078125000000e-01,1.000000000000000000e+00,-4.730940341949462891e+00,5.232716202735900879e-01,4.704758167266845703e+00,-1.965561981201171875e+02,-8.722193145751953125e+01,-1.684382476806640625e+02,4.030399620532989502e-01,-6.667224884033203125e+01,-1.826865997314453125e+02,-2.342819452285766602e+00,7.562212371826171875e+01,3.135619926452636719e+01
9.336439967155456543e-01,1.000000000000000000e+00,-4.793119430541992188e+00,5.767914056777954102e-01,4.714943885803222656e+00,-1.965014190673828125e+02,-8.714820098876953125e+01,-1.683759918212890625e+02,4.030399620532989502e-01,-6.667224884033203125e+01,-1.826867065429687500e+02,-2.342819452285766602e+00,7.562197875976562500e+01,3.135619926452636719e+01
9.366409778594970703e-01,1.000000000000000000e+00,-4.855642795562744141e+00,6.304469108581542969e-01,4.725394725799560547e+00,-1.964467468261718750e+02,-8.707414245605468750e+01,-1.683148193359375000e+02,4.030399620532989502e-01,-6.667224884033203125e+01,-1.826865997314453125e+02,-2.342819452285766602e+00,7.562197875976562500e+01,3.135619926452636719e+01
9.408450126647949219e-01,1.000000000000000000e+00,-4.918195247650146484e+00,6.838761568069458008e-01,4.735886096954345703e+00,-1.963919677734375000e+02,-8.700009155273437500e+01,-1.682539978027343750e+02,4.030399620532989502e-01,-6.667224884033203125e+01,-1.826865997314453125e+02,-2.342747688293457031e+00,7.562197875976562500e+01,3.135619926452636719e+01
9.447100162506103516e-01,1.000000000000000000e+00,-4.980689525604248047e+00,7.375543117523193359e-01,4.746376991271972656e+00,-1.963377075195312500e+02,-8.692677307128906250e+01,-1.681914520263671875e+02,4.030399620532989502e-01,-6.667224884033203125e+01,-1.826865997314453125e+02,-2.342819452285766602e+00,7.562197875976562500e+01,3.135619926452636719e+01
9.475499987602233887e-01,1.000000000000000000e+00,-5.043328285217285156e+00,7.910514473915100098e-01,4.756583690643310547e+00,-1.962831420898437500e+02,-8.685319519042968750e+01,-1.681302795410156250e+02,4.030399620532989502e-01,-6.667224884033203125e+01,-1.826867065429687500e+02,-2.342819452285766602e+00,7.562197875976562500e+01,3.135619926452636719e+01
9.515830278396606445e-01,1.000000000000000000e+00,-5.105621814727783203e+00,8.444806933403015137e-01,4.766891956329345703e+00,-1.962282562255859375e+02,-8.677893066406250000e+01,-1.680692443847656250e+02,4.030399620532989502e-01,-6.667224884033203125e+01,-1.826867065429687500e+02,-2.342819452285766602e+00,7.562197875976562500e+01,3.135619926452636719e+01
9.555490016937255859e-01,1.000000000000000000e+00,-5.168059349060058594e+00,8.980683684349060059e-01,4.777444362640380859e+00,-1.961740112304687500e+02,-8.670487213134765625e+01,-1.680068664550781250e+02,4.030399620532989502e-01,-6.667224884033203125e+01,-1.826867065429687500e+02,-2.342819452285766602e+00,7.562197875976562500e+01,3.135619926452636719e+01
9.595339894294738770e-01,1.000000000000000000e+00,-5.230841159820556641e+00,9.514070749282836914e-01,4.787975788116455078e+00,-1.961192169189453125e+02,-8.663098144531250000e+01,-1.679455566406250000e+02,4.030399620532989502e-01,-6.667224884033203125e+01,-1.826867065429687500e+02,-2.342819452285766602e+00,7.562197875976562500e+01,3.135619926452636719e+01
9.635879993438720703e-01,1.000000000000000000e+00,-5.293393135070800781e+00,1.004949450492858887e+00,4.798487663269042969e+00,-1.960649719238281250e+02,-8.655718994140625000e+01,-1.678848571777343750e+02,4.030399620532989502e-01,-6.667224884033203125e+01,-1.826867065429687500e+02,-2.342891216278076172e+00,7.562197875976562500e+01,3.135619926452636719e+01
9.676899909973144531e-01,1.000000000000000000e+00,-5.356146335601806641e+00,1.058220267295837402e+00,4.808775424957275391e+00,-1.960105438232421875e+02,-8.648286437988281250e+01,-1.678227386474609375e+02,4.030399620532989502e-01,-6.667224884033203125e+01,-1.826865997314453125e+02,-2.342819452285766602e+00,7.562197875976562500e+01,3.135598182678222656e+01
9.716010093688964844e-01,1.000000000000000000e+00,-5.418784618377685547e+00,1.111740112304687500e+00,4.818840026855468750e+00,-1.959554595947265625e+02,-8.640950012207031250e+01,-1.677613677978515625e+02,4.030399620532989502e-01,-6.667224884033203125e+01,-1.826867065429687500e+02,-2.342891216278076172e+00,7.562197875976562500e+01,3.135619926452636719e+01
9.755499958992004395e-01,1.000000000000000000e+00,-5.481451511383056641e+00,1.165395617485046387e+00,4.829249382019042969e+00,-1.959009399414062500e+02,-8.633566284179687500e+01,-1.677005310058593750e+02,4.030399620532989502e-01,-6.667224884033203125e+01,-1.826867065429687500e+02,-2.342819452285766602e+00,7.562197875976562500e+01,3.135642242431640625e+01
9.795950055122375488e-01,1.000000000000000000e+00,-5.544261932373046875e+00,1.218983292579650879e+00,4.839680194854736328e+00,-1.958463134765625000e+02,-8.626171112060546875e+01,-1.676382751464843750e+02,4.030399620532989502e-01,-6.667224884033203125e+01,-1.826867065429687500e+02,-2.342819452285766602e+00,7.562197875976562500e+01,3.135619926452636719e+01
9.835500121116638184e-01,1.000000000000000000e+00,-5.606813907623291016e+00,1.272525668144226074e+00,4.850232124328613281e+00,-1.957919006347656250e+02,-8.618711853027343750e+01,-1.675769042968750000e+02,4.030399620532989502e-01,-6.667224884033203125e+01,-1.826867065429687500e+02,-2.342819452285766602e+00,7.562197875976562500e+01,3.135619926452636719e+01
9.875329732894897461e-01,1.000000000000000000e+00,-5.669653415679931641e+00,1.326045393943786621e+00,4.860560894012451172e+00,-1.957373352050781250e+02,-8.611338806152343750e+01,-1.675159301757812500e+02,4.030399620532989502e-01,-6.667224884033203125e+01,-1.826867065429687500e+02,-2.342819452285766602e+00,7.562197875976562500e+01,3.135619926452636719e+01
9.915959835052490234e-01,1.000000000000000000e+00,-5.732119560241699219e+00,1.379451990127563477e+00,4.870685577392578125e+00,-1.956825408935546875e+02,-8.603975677490234375e+01,-1.674544219970703125e+02,4.030399620532989502e-01,-6.667224884033203125e+01,-1.826865997314453125e+02,-2.342747688293457031e+00,7.562197875976562500e+01,3.135619926452636719e+01
9.956060051918029785e-01,1.000000000000000000e+00,-5.794786453247070312e+00,1.432881236076354980e+00,4.880872249603271484e+00,-1.956280822753906250e+02,-8.596601867675781250e+01,-1.673932495117187500e+02,4.030399620532989502e-01,-6.667216491699218750e+01,-1.826867065429687500e+02,-2.342819452285766602e+00,7.562182617187500000e+01,3.135619926452636719e+01
9.996340274810791016e-01,1.000000000000000000e+00,-5.857539653778076172e+00,1.486446261405944824e+00,4.891424179077148438e+00,-1.955734710693359375e+02,-8.589138031005859375e+01,-1.673319396972656250e+02,4.030399620532989502e-01,-6.667224884033203125e+01,-1.826865997314453125e+02,-2.342819452285766602e+00,7.562197875976562500e+01,3.135619926452636719e+01
1.003672957420349121e+00,1.000000000000000000e+00,-5.920177936553955078e+00,1.540079236030578613e+00,4.901976585388183594e+00,-1.955188903808593750e+02,-8.581769561767578125e+01,-1.672701110839843750e+02,4.030399620532989502e-01,-6.667224884033203125e+01,-1.826867065429687500e+02,-2.342819452285766602e+00,7.562197875976562500e+01,3.135619926452636719e+01
1.007557034492492676e+00,1.000000000000000000e+00,-5.982959747314453125e+00,1.593440532684326172e+00,4.912487983703613281e+00,-1.954644317626953125e+02,-8.574422454833984375e+01,-1.672088623046875000e+02,4.030399620532989502e-01,-6.667224884033203125e+01,-1.826867065429687500e+02,-2.342747688293457031e+00,7.562197875976562500e+01,3.135619926452636719e+01
1.011528968811035156e+00,1.000000000000000000e+00,-6.045511722564697266e+00,1.646711349487304688e+00,4.922654151916503906e+00,-1.954095916748046875e+02,-8.567048645019531250e+01,-1.671480407714843750e+02,4.030399620532989502e-01,-6.667224884033203125e+01,-1.826865997314453125e+02,-2.342819452285766602e+00,7.562197875976562500e+01,3.135619926452636719e+01
1.015617966651916504e+00,1.000000000000000000e+00,-6.108322143554687500e+00,1.700050115585327148e+00,4.932839870452880859e+00,-1.953551788330078125e+02,-8.559622192382812500e+01,-1.670854492187500000e+02,4.030399620532989502e-01,-6.667224884033203125e+01,-1.826867065429687500e+02,-2.342891216278076172e+00,7.562197875976562500e+01,3.135619926452636719e+01
1.019534945487976074e+00,1.000000000000000000e+00,-6.171075344085693359e+00,1.753275632858276367e+00,4.943229675292968750e+00,-1.953009338378906250e+02,-8.552188873291015625e+01,-1.670238647460937500e+02,4.030399620532989502e-01,-6.667234802246093750e+01,-1.826865997314453125e+02,-2.342891216278076172e+00,7.562197875976562500e+01,3.135619926452636719e+01
1.023561954498291016e+00,1.000000000000000000e+00,-6.233828544616699219e+00,1.806682229042053223e+00,4.953720569610595703e+00,-1.952456665039062500e+02,-8.544869232177734375e+01,-1.669626312255859375e+02,4.030399620532989502e-01,-6.667234802246093750e+01,-1.826867065429687500e+02,-2.342819452285766602e+00,7.562197875976562500e+01,3.135619926452636719e+01
1.027588009834289551e+00,1.000000000000000000e+00,-6.296667575836181641e+00,1.860360383987426758e+00,4.964293479919433594e+00,-1.951914672851562500e+02,-8.537500762939453125e+01,-1.669005584716796875e+02,4.030399620532989502e-01,-6.667224884033203125e+01,-1.826867065429687500e+02,-2.342747688293457031e+00,7.562197875976562500e+01,3.135619926452636719e+01
1.031548023223876953e+00,1.000000000000000000e+00,-6.359334945678710938e+00,1.913948178291320801e+00,4.974682807922363281e+00,-1.951371612548828125e+02,-8.530058288574218750e+01,-1.668393859863281250e+02,4.030399620532989502e-01,-6.667224884033203125e+01,-1.826865997314453125e+02,-2.342747688293457031e+00,7.562197875976562500e+01,3.135598182678222656e+01
1.035532951354980469e+00,1.000000000000000000e+00,-6.422202587127685547e+00,1.967490434646606445e+00,4.984848976135253906e+00,-1.950820617675781250e+02,-8.522641754150390625e+01,-1.667787628173828125e+02,4.030399620532989502e-01,-6.667224884033203125e+01,-1.826865997314453125e+02,-2.342819452285766602e+00,7.562197875976562500e+01,3.135619926452636719e+01
1.039548039436340332e+00,1.000000000000000000e+00,-6.484869480133056641e+00,2.020851612091064453e+00,4.995156764984130859e+00,-1.950276031494140625e+02,-8.515284729003906250e+01,-1.667164459228515625e+02,4.030399620532989502e-01,-6.667216491699218750e+01,-1.826867065429687500e+02,-2.342819452285766602e+00,7.562197875976562500e+01,3.135619926452636719e+01
1.043545961380004883e+00,1.000000000000000000e+00,-6.547421455383300781e+00,2.074326276779174805e+00,5.005668640136718750e+00,-1.949728698730468750e+02,-8.507963562011718750e+01,-1.666548004150390625e+02,4.030399620532989502e-01,-6.667216491699218750e+01,-1.826865997314453125e+02,-2.342819452285766602e+00,7.562197875976562500e+01,3.135619926452636719e+01
1.047538995742797852e+00,1.000000000000000000e+00,-6.610174655914306641e+00,2.127846002578735352e+00,5.016180038452148438e+00,-1.949181365966796875e+02,-8.500504302978515625e+01,-1.665941772460937500e+02,4.030399620532989502e-01,-6.667224884033203125e+01,-1.826867065429687500e+02,-2.342819452285766602e+00,7.562197875976562500e+01,3.135619926452636719e+01
1.051524996757507324e+00,1.000000000000000000e+00,-6.672612190246582031e+00,2.181298017501831055e+00,5.026508808135986328e+00,-1.948640899658203125e+02,-8.493093872070312500e+01,-1.665319061279296875e+02,4.030399620532989502e-01,-6.667224884033203125e+01,-1.826865997314453125e+02,-2.342819452285766602e+00,7.562197875976562500e+01,3.135619926452636719e+01
1.055632948875427246e+00,1.000000000000000000e+00,-6.735164165496826172e+00,2.234908103942871094e+00,5.036695003509521484e+00,-1.948090667724609375e+02,-8.485730743408203125e+01,-1.664708099365234375e+02,4.030399620532989502e-01,-6.667216491699218750e+01,-1.826865997314453125e+02,-2.342819452285766602e+00,7.562197875976562500e+01,3.135619926452636719e+01
1.059641003608703613e+00,1.000000000000000000e+00,-6.797745227813720703e+00,2.288337469100952148e+00,5.046881198883056641e+00,-1.947548065185546875e+02,-8.478399658203125000e+01,-1.664103851318359375e+02,4.030399620532989502e-01,-6.667224884033203125e+01,-1.826865997314453125e+02,-2.342819452285766602e+00,7.562197875976562500e+01,3.135619926452636719e+01
1.063683032989501953e+00,1.000000000000000000e+00,-6.860239982604980469e+00,2.341743946075439453e+00,5.057189464569091797e+00,-1.947000274658203125e+02,-8.470951843261718750e+01,-1.663488159179687500e+02,4.030399620532989502e-01,-6.667224884033203125e+01,-1.826865997314453125e+02,-2.342747688293457031e+00,7.562197875976562500e+01,3.135619926452636719e+01
1.067582964897155762e+00,1.000000000000000000e+00,-6.923079013824462891e+00,2.395105600357055664e+00,5.067660331726074219e+00,-1.946453399658203125e+02,-8.463583374023437500e+01,-1.662870330810546875e+02,4.030399620532989502e-01,-6.667224884033203125e+01,-1.826867065429687500e+02,-2.342747688293457031e+00,7.562197875976562500e+01,3.135619926452636719e+01
1.074112057685852051e+00,1.000000000000000000e+00,-6.985516071319580078e+00,2.448444128036499023e+00,5.078151226043701172e+00,-1.945913543701171875e+02,-8.456198883056640625e+01,-1.662265319824218750e+02,4.030399620532989502e-01,-6.667224884033203125e+01,-1.826867065429687500e+02,-2.342891216278076172e+00,7.562197875976562500e+01,3.135619926452636719e+01
1.075561046600341797e+00,1.000000000000000000e+00,-7.048126220703125000e+00,2.501782894134521484e+00,5.088459968566894531e+00,-1.945367736816406250e+02,-8.448868560791015625e+01,-1.661644897460937500e+02,4.030399620532989502e-01,-6.667224884033203125e+01,-1.826867065429687500e+02,-2.342819452285766602e+00,7.562197875976562500e+01,3.135619926452636719e+01
1.081794023513793945e+00,1.000000000000000000e+00,-7.110706806182861328e+00,2.555121421813964844e+00,5.098645687103271484e+00,-1.944820098876953125e+02,-8.441403198242187500e+01,-1.661024932861328125e+02,4.030399620532989502e-01,-6.667234802246093750e+01,-1.826865997314453125e+02,-2.342819452285766602e+00,7.562197875976562500e+01,3.135619926452636719e+01
1.083552002906799316e+00,1.000000000000000000e+00,-7.173259258270263672e+00,2.608596086502075195e+00,5.109096527099609375e+00,-1.944272766113281250e+02,-8.434030151367187500e+01,-1.660422210693359375e+02,4.030399620532989502e-01,-6.667224884033203125e+01,-1.826867065429687500e+02,-2.342819452285766602e+00,7.562197875976562500e+01,3.135619926452636719e+01
1.088587045669555664e+00,1.000000000000000000e+00,-7.173259258270263672e+00,2.608596086502075195e+00,5.109096527099609375e+00,-1.944272766113281250e+02,-8.434030151367187500e+01,-1.660422210693359375e+02,4.030399620532989502e-01,-6.667224884033203125e+01,-1.826867065429687500e+02,-2.342819452285766602e+00,7.562197875976562500e+01,3.135619926452636719e+01
1.091585993766784668e+00,1.000000000000000000e+00,-7.298678874969482422e+00,2.715771436691284180e+00,5.130058765411376953e+00,-1.943184967041015625e+02,-8.419293212890625000e+01,-1.659181823730468750e+02,4.030399620532989502e-01,-6.667224884033203125e+01,-1.826865997314453125e+02,-2.342819452285766602e+00,7.562197875976562500e+01,3.135619926452636719e+01
1.098217010498046875e+00,1.000000000000000000e+00,-7.298678874969482422e+00,2.715771436691284180e+00,5.130058765411376953e+00,-1.943184967041015625e+02,-8.419293212890625000e+01,-1.659181823730468750e+02,4.030399620532989502e-01,-6.667224884033203125e+01,-1.826865997314453125e+02,-2.342819452285766602e+00,7.562197875976562500e+01,3.135619926452636719e+01
1.099676012992858887e+00,1.000000000000000000e+00,-7.423984527587890625e+00,2.822675228118896484e+00,5.150553226470947266e+00,-1.942091522216796875e+02,-8.404546356201171875e+01,-1.657950897216796875e+02,4.030399620532989502e-01,-6.667224884033203125e+01,-1.826867065429687500e+02,-2.342819452285766602e+00,7.562197875976562500e+01,3.135619926452636719e+01
1.106081962585449219e+00,1.000000000000000000e+00,-7.423984527587890625e+00,2.822675228118896484e+00,5.150553226470947266e+00,-1.942091522216796875e+02,-8.404546356201171875e+01,-1.657950897216796875e+02,4.030399620532989502e-01,-6.667224884033203125e+01,-1.826867065429687500e+02,-2.342819452285766602e+00,7.562197875976562500e+01,3.135619926452636719e+01
1.107547044754028320e+00,1.000000000000000000e+00,-7.549002647399902344e+00,2.929420471191406250e+00,5.171291828155517578e+00,-1.941001129150390625e+02,-8.389767456054687500e+01,-1.656726684570312500e+02,4.030399620532989502e-01,-6.667224884033203125e+01,-1.826867065429687500e+02,-2.342819452285766602e+00,7.562197875976562500e+01,3.135619926452636719e+01
