rpiRobotics/ARM-21-02-F-19-Robot-Motion-Program/data_performance_abb/curve_2/curve_pose_opt2/100L/realrobot/run_0.csv
timestamp,cmd_num,J1,J2,J3,J4,J5,J6
1.400000037392601371e-04,-1.000000000000000000e+00,7.736286640167236328e+00,-1.011602687835693359e+01,2.640856742858886719e+00,-2.074214324951171875e+02,-1.019232788085937500e+02,-1.806663665771484375e+02,4.030399620532989502e-01,-6.667224884033203125e+01,-1.826865997314453125e+02,-2.342891216278076172e+00,7.562197875976562500e+01,3.135619926452636719e+01
5.975999869406223297e-03,1.000000000000000000e+00,7.736286640167236328e+00,-1.011602687835693359e+01,2.640856742858886719e+00,-2.074215850830078125e+02,-1.019231719970703125e+02,-1.806665039062500000e+02,4.030399620532989502e-01,-6.667224884033203125e+01,-1.826865997314453125e+02,-2.342891216278076172e+00,7.562197875976562500e+01,3.135619926452636719e+01
9.616999886929988861e-03,1.000000000000000000e+00,7.736286640167236328e+00,-1.011602687835693359e+01,2.640856742858886719e+00,-2.074214324951171875e+02,-1.019231719970703125e+02,-1.806663665771484375e+02,4.030399620532989502e-01,-6.667224884033203125e+01,-1.826865997314453125e+02,-2.342891216278076172e+00,7.562197875976562500e+01,3.135619926452636719e+01
1.550600025802850723e-02,1.000000000000000000e+00,7.736286640167236328e+00,-1.011602687835693359e+01,2.640856742858886719e+00,-2.074215850830078125e+02,-1.019230117797851562e+02,-1.806661682128906250e+02,4.030399620532989502e-01,-6.667224884033203125e+01,-1.826865997314453125e+02,-2.342891216278076172e+00,7.562197875976562500e+01,3.135619926452636719e+01
3.971499949693679810e-02,1.000000000000000000e+00,7.736286640167236328e+00,-1.011602687835693359e+01,2.640815973281860352e+00,-2.074214324951171875e+02,-1.019231719970703125e+02,-1.806663665771484375e+02,4.030399620532989502e-01,-6.667224884033203125e+01,-1.826865997314453125e+02,-2.342819452285766602e+00,7.562197875976562500e+01,3.135619926452636719e+01
4.107899963855743408e-02,1.000000000000000000e+00,7.736286640167236328e+00,-1.011602687835693359e+01,2.640815973281860352e+00,-2.074214324951171875e+02,-1.019231719970703125e+02,-1.806663665771484375e+02,4.030399620532989502e-01,-6.667224884033203125e+01,-1.826865997314453125e+02,-2.342819452285766602e+00,7.562197875976562500e+01,3.135619926452636719e+01
4.362099990248680115e-02,1.000000000000000000e+00,7.736286640167236328e+00,-1.011602687835693359e+01,2.640815973281860352e+00,-2.074214324951171875e+02,-1.019231719970703125e+02,-1.806663665771484375e+02,4.030399620532989502e-01,-6.667224884033203125e+01,-1.826865997314453125e+02,-2.342819452285766602e+00,7.562197875976562500e+01,3.135619926452636719e+01
5.022000148892402649e-02,1.000000000000000000e+00,7.736286640167236328e+00,-1.011602687835693359e+01,2.640815973281860352e+00,-2.074215850830078125e+02,-1.019231719970703125e+02,-1.806661682128906250e+02,4.030399620532989502e-01,-6.667224884033203125e+01,-1.826865997314453125e+02,-2.342819452285766602e+00,7.562182617187500000e+01,3.135642242431640625e+01
5.346700176596641541e-02,1.000000000000000000e+00,7.736286640167236328e+00,-1.011602687835693359e+01,2.640856742858886719e+00,-2.074214324951171875e+02,-1.019231719970703125e+02,-1.806663665771484375e+02,4.030399620532989502e-01,-6.667224884033203125e+01,-1.826864318847656250e+02,-2.342891216278076172e+00,7.562197875976562500e+01,3.135619926452636719e+01
5.584799870848655701e-02,1.000000000000000000e+00,7.736228466033935547e+00,-1.011591434478759766e+01,2.640856742858886719e+00,-2.074214324951171875e+02,-1.019232788085937500e+02,-1.806663665771484375e+02,4.030399620532989502e-01,-6.667224884033203125e+01,-1.826865997314453125e+02,-2.342891216278076172e+00,7.562197875976562500e+01,3.135619926452636719e+01
5.714900046586990356e-02,1.000000000000000000e+00,7.736228466033935547e+00,-1.011591434478759766e+01,2.640856742858886719e+00,-2.074214324951171875e+02,-1.019232788085937500e+02,-1.806663665771484375e+02,4.030399620532989502e-01,-6.667224884033203125e+01,-1.826865997314453125e+02,-2.342891216278076172e+00,7.562197875976562500e+01,3.135619926452636719e+01
6.020199880003929138e-02,1.000000000000000000e+00,7.735884189605712891e+00,-1.011568832397460938e+01,2.640897274017333984e+00,-2.074214324951171875e+02,-1.019231719970703125e+02,-1.806665039062500000e+02,4.030399620532989502e-01,-6.667216491699218750e+01,-1.826867065429687500e+02,-2.342819452285766602e+00,7.562182617187500000e+01,3.135619926452636719e+01
6.233099848031997681e-02,1.000000000000000000e+00,7.735884189605712891e+00,-1.011568832397460938e+01,2.640897274017333984e+00,-2.074214324951171875e+02,-1.019231719970703125e+02,-1.806665039062500000e+02,4.030399620532989502e-01,-6.667216491699218750e+01,-1.826867065429687500e+02,-2.342819452285766602e+00,7.562182617187500000e+01,3.135619926452636719e+01
6.486999988555908203e-02,1.000000000000000000e+00,7.735080242156982422e+00,-1.011500835418701172e+01,2.640856742858886719e+00,-2.074215850830078125e+02,-1.019231719970703125e+02,-1.806663665771484375e+02,4.030399620532989502e-01,-6.667234802246093750e+01,-1.826864318847656250e+02,-2.342891216278076172e+00,7.562197875976562500e+01,3.135619926452636719e+01
6.612300127744674683e-02,1.000000000000000000e+00,7.735080242156982422e+00,-1.011500835418701172e+01,2.640856742858886719e+00,-2.074215850830078125e+02,-1.019231719970703125e+02,-1.806663665771484375e+02,4.030399620532989502e-01,-6.667234802246093750e+01,-1.826864318847656250e+02,-2.342891216278076172e+00,7.562197875976562500e+01,3.135619926452636719e+01
7.046700268983840942e-02,1.000000000000000000e+00,7.733530521392822266e+00,-1.011374092102050781e+01,2.640897274017333984e+00,-2.074214324951171875e+02,-1.019230117797851562e+02,-1.806661682128906250e+02,4.030399620532989502e-01,-6.667224884033203125e+01,-1.826864318847656250e+02,-2.342891216278076172e+00,7.562197875976562500e+01,3.135619926452636719e+01
7.298599928617477417e-02,1.000000000000000000e+00,7.730860710144042969e+00,-1.011177253723144531e+01,2.640958309173583984e+00,-2.074214324951171875e+02,-1.019228057861328125e+02,-1.806661682128906250e+02,4.030399620532989502e-01,-6.667224884033203125e+01,-1.826865997314453125e+02,-2.342891216278076172e+00,7.562197875976562500e+01,3.135619926452636719e+01
7.434099912643432617e-02,1.000000000000000000e+00,7.730860710144042969e+00,-1.011177253723144531e+01,2.640958309173583984e+00,-2.074214324951171875e+02,-1.019228057861328125e+02,-1.806661682128906250e+02,4.030399620532989502e-01,-6.667224884033203125e+01,-1.826865997314453125e+02,-2.342891216278076172e+00,7.562197875976562500e+01,3.135619926452636719e+01
7.763499766588211060e-02,1.000000000000000000e+00,7.727186203002929688e+00,-1.010883045196533203e+01,2.640999078750610352e+00,-2.074214324951171875e+02,-1.019223709106445312e+02,-1.806660308837890625e+02,4.030399620532989502e-01,-6.667216491699218750e+01,-1.826865997314453125e+02,-2.342819452285766602e+00,7.562197875976562500e+01,3.135619926452636719e+01
8.036699891090393066e-02,1.000000000000000000e+00,7.722362995147705078e+00,-1.010491561889648438e+01,2.641182184219360352e+00,-2.074213256835937500e+02,-1.019215164184570312e+02,-1.806658325195312500e+02,4.030399620532989502e-01,-6.667224884033203125e+01,-1.826865997314453125e+02,-2.342891216278076172e+00,7.562197875976562500e+01,3.135619926452636719e+01
8.479099720716476440e-02,1.000000000000000000e+00,7.716363430023193359e+00,-1.009950733184814453e+01,2.641527652740478516e+00,-2.074209594726562500e+02,-1.019197082519531250e+02,-1.806649322509765625e+02,4.030399620532989502e-01,-6.667224884033203125e+01,-1.826867065429687500e+02,-2.342819452285766602e+00,7.562197875976562500e+01,3.135642242431640625e+01
8.808799833059310913e-02,1.000000000000000000e+00,7.708899974822998047e+00,-1.009215259552001953e+01,2.642158031463623047e+00,-2.074193725585937500e+02,-1.019165573120117188e+02,-1.806635894775390625e+02,4.030399620532989502e-01,-6.667224884033203125e+01,-1.826865997314453125e+02,-2.342891216278076172e+00,7.562197875976562500e+01,3.135619926452636719e+01
8.947899937629699707e-02,1.000000000000000000e+00,7.708899974822998047e+00,-1.009215259552001953e+01,2.642158031463623047e+00,-2.074193725585937500e+02,-1.019165573120117188e+02,-1.806635894775390625e+02,4.030399620532989502e-01,-6.667224884033203125e+01,-1.826865997314453125e+02,-2.342891216278076172e+00,7.562197875976562500e+01,3.135619926452636719e+01
9.174600243568420410e-02,1.000000000000000000e+00,7.708899974822998047e+00,-1.009215259552001953e+01,2.642158031463623047e+00,-2.074193725585937500e+02,-1.019165573120117188e+02,-1.806635894775390625e+02,4.030399620532989502e-01,-6.667224884033203125e+01,-1.826865997314453125e+02,-2.342891216278076172e+00,7.562197875976562500e+01,3.135619926452636719e+01
9.642100334167480469e-02,1.000000000000000000e+00,7.688546657562255859e+00,-1.007087993621826172e+01,2.643886327743530273e+00,-2.074112701416015625e+02,-1.019063262939453125e+02,-1.806582336425781250e+02,4.030399620532989502e-01,-6.667224884033203125e+01,-1.826865997314453125e+02,-2.342891216278076172e+00,7.562197875976562500e+01,3.135598182678222656e+01
9.778100252151489258e-02,1.000000000000000000e+00,7.688546657562255859e+00,-1.007087993621826172e+01,2.643886327743530273e+00,-2.074112701416015625e+02,-1.019063262939453125e+02,-1.806582336425781250e+02,4.030399620532989502e-01,-6.667224884033203125e+01,-1.826865997314453125e+02,-2.342891216278076172e+00,7.562197875976562500e+01,3.135598182678222656e+01
1.014230027794837952e-01,1.000000000000000000e+00,7.674881935119628906e+00,-1.005641937255859375e+01,2.645309448242187500e+00,-2.074047851562500000e+02,-1.018977966308593750e+02,-1.806527404785156250e+02,4.030399620532989502e-01,-6.667224884033203125e+01,-1.826865997314453125e+02,-2.343034982681274414e+00,7.562197875976562500e+01,3.135619926452636719e+01
1.041039973497390747e-01,1.000000000000000000e+00,7.674881935119628906e+00,-1.005641937255859375e+01,2.645309448242187500e+00,-2.074047851562500000e+02,-1.018977966308593750e+02,-1.806527404785156250e+02,4.030399620532989502e-01,-6.667224884033203125e+01,-1.826865997314453125e+02,-2.343034982681274414e+00,7.562197875976562500e+01,3.135619926452636719e+01
1.081449985504150391e-01,1.000000000000000000e+00,7.658547878265380859e+00,-1.003946971893310547e+01,2.647200107574462891e+00,-2.073961029052734375e+02,-1.018862838745117188e+02,-1.806433105468750000e+02,4.030399620532989502e-01,-6.667234802246093750e+01,-1.826865997314453125e+02,-2.342891216278076172e+00,7.562212371826171875e+01,3.135619926452636719e+01
1.120679974555969238e-01,1.000000000000000000e+00,7.639400005340576172e+00,-1.002064132690429688e+01,2.649680852890014648e+00,-2.073849792480468750e+02,-1.018717727661132812e+02,-1.806308288574218750e+02,4.030399620532989502e-01,-6.667224884033203125e+01,-1.826865997314453125e+02,-2.342891216278076172e+00,7.562197875976562500e+01,3.135619926452636719e+01
1.161260008811950684e-01,1.000000000000000000e+00,7.617755413055419922e+00,-1.000020694732666016e+01,2.652730464935302734e+00,-2.073713836669921875e+02,-1.018539657592773438e+02,-1.806165313720703125e+02,4.030399620532989502e-01,-6.667224884033203125e+01,-1.826865997314453125e+02,-2.342891216278076172e+00,7.562197875976562500e+01,3.135619926452636719e+01
1.203719973564147949e-01,1.000000000000000000e+00,7.594015121459960938e+00,-9.978279113769531250e+00,2.656187057495117188e+00,-2.073546447753906250e+02,-1.018315811157226562e+02,-1.805985565185546875e+02,4.030399620532989502e-01,-6.667224884033203125e+01,-1.826865997314453125e+02,-2.342819452285766602e+00,7.562197875976562500e+01,3.135598182678222656e+01
1.243610009551048279e-01,1.000000000000000000e+00,7.568150043487548828e+00,-9.955218315124511719e+00,2.659989118576049805e+00,-2.073351440429687500e+02,-1.018040084838867188e+02,-1.805761718750000000e+02,4.030399620532989502e-01,-6.667224884033203125e+01,-1.826867065429687500e+02,-2.342819452285766602e+00,7.562197875976562500e+01,3.135619926452636719e+01
1.290960013866424561e-01,1.000000000000000000e+00,7.539472103118896484e+00,-9.930528640747070312e+00,2.664156913757324219e+00,-2.073126068115234375e+02,-1.017720718383789062e+02,-1.805505371093750000e+02,4.030399620532989502e-01,-6.667224884033203125e+01,-1.826865997314453125e+02,-2.342891216278076172e+00,7.562212371826171875e+01,3.135619926452636719e+01
1.324059963226318359e-01,1.000000000000000000e+00,7.508210182189941406e+00,-9.904143333435058594e+00,2.668975591659545898e+00,-2.072866973876953125e+02,-1.017373123168945312e+02,-1.805209045410156250e+02,4.030399620532989502e-01,-6.667224884033203125e+01,-1.826865997314453125e+02,-2.342819452285766602e+00,7.562197875976562500e+01,3.135619926452636719e+01
1.362719982862472534e-01,1.000000000000000000e+00,7.474451065063476562e+00,-9.876239776611328125e+00,2.674282312393188477e+00,-2.072561950683593750e+02,-1.016983413696289062e+02,-1.804863891601562500e+02,4.030399620532989502e-01,-6.667224884033203125e+01,-1.826865997314453125e+02,-2.342891216278076172e+00,7.562197875976562500e+01,3.135619926452636719e+01
1.403490006923675537e-01,1.000000000000000000e+00,7.437792778015136719e+00,-9.846527099609375000e+00,2.680341005325317383e+00,-2.072212829589843750e+02,-1.016522750854492188e+02,-1.804471740722656250e+02,4.030399620532989502e-01,-6.667224884033203125e+01,-1.826865997314453125e+02,-2.342891216278076172e+00,7.562197875976562500e+01,3.135619926452636719e+01
1.445389986038208008e-01,1.000000000000000000e+00,7.398406982421875000e+00,-9.814935684204101562e+00,2.686826944351196289e+00,-2.071833343505859375e+02,-1.016011428833007812e+02,-1.804055480957031250e+02,4.030399620532989502e-01,-6.667224884033203125e+01,-1.826865997314453125e+02,-2.342891216278076172e+00,7.562197875976562500e+01,3.135619926452636719e+01
1.484940052032470703e-01,1.000000000000000000e+00,7.356810569763183594e+00,-9.781669616699218750e+00,2.693841457366943359e+00,-2.071442108154296875e+02,-1.015486221313476562e+02,-1.803617401123046875e+02,4.030399620532989502e-01,-6.667224884033203125e+01,-1.826865997314453125e+02,-2.342891216278076172e+00,7.562197875976562500e+01,3.135619926452636719e+01
1.530099958181381226e-01,1.000000000000000000e+00,7.313377380371093750e+00,-9.747000694274902344e+00,2.701323509216308594e+00,-2.071019134521484375e+02,-1.014917907714843750e+02,-1.803139190673828125e+02,4.030399620532989502e-01,-6.667224884033203125e+01,-1.826865997314453125e+02,-2.342891216278076172e+00,7.562197875976562500e+01,3.135642242431640625e+01
1.566130071878433228e-01,1.000000000000000000e+00,7.268077850341796875e+00,-9.710701942443847656e+00,2.708887100219726562e+00,-2.070549163818359375e+02,-1.014298934936523438e+02,-1.802608947753906250e+02,4.030399620532989502e-01,-6.667224884033203125e+01,-1.826865997314453125e+02,-2.342891216278076172e+00,7.562197875976562500e+01,3.135619926452636719e+01
1.606239974498748779e-01,1.000000000000000000e+00,7.220740318298339844e+00,-9.672322273254394531e+00,2.717263698577880859e+00,-2.070066680908203125e+02,-1.013658599853515625e+02,-1.802062988281250000e+02,4.030399620532989502e-01,-6.667234802246093750e+01,-1.826865997314453125e+02,-2.342891216278076172e+00,7.562197875976562500e+01,3.135619926452636719e+01
1.645800024271011353e-01,1.000000000000000000e+00,7.170790195465087891e+00,-9.631497383117675781e+00,2.725904703140258789e+00,-2.069582672119140625e+02,-1.012990036010742188e+02,-1.801518402099609375e+02,4.030399620532989502e-01,-6.667224884033203125e+01,-1.826867065429687500e+02,-2.342819452285766602e+00,7.562197875976562500e+01,3.135619926452636719e+01
1.686549931764602661e-01,1.000000000000000000e+00,7.118659019470214844e+00,-9.588274002075195312e+00,2.735033512115478516e+00,-2.069071350097656250e+02,-1.012315063476562500e+02,-1.800950164794921875e+02,4.030399620532989502e-01,-6.667224884033203125e+01,-1.826865997314453125e+02,-2.342819452285766602e+00,7.562212371826171875e+01,3.135619926452636719e+01
1.726280003786087036e-01,1.000000000000000000e+00,7.064517498016357422e+00,-9.542562484741210938e+00,2.744467496871948242e+00,-2.068545532226562500e+02,-1.011616592407226562e+02,-1.800349273681640625e+02,4.030399620532989502e-01,-6.667224884033203125e+01,-1.826865997314453125e+02,-2.342819452285766602e+00,7.562197875976562500e+01,3.135619926452636719e+01
1.773740053176879883e-01,1.000000000000000000e+00,7.008711814880371094e+00,-9.494767189025878906e+00,2.754104852676391602e+00,-2.068013000488281250e+02,-1.010897369384765625e+02,-1.799750518798828125e+02,4.030399620532989502e-01,-6.667224884033203125e+01,-1.826865997314453125e+02,-2.342819452285766602e+00,7.562197875976562500e+01,3.135619926452636719e+01
1.806540042161941528e-01,1.000000000000000000e+00,6.951556682586669922e+00,-9.445796966552734375e+00,2.763904809951782227e+00,-2.067470397949218750e+02,-1.010165863037109375e+02,-1.799147491455078125e+02,4.030399620532989502e-01,-6.667224884033203125e+01,-1.826865997314453125e+02,-2.342819452285766602e+00,7.562197875976562500e+01,3.135619926452636719e+01
1.847530007362365723e-01,1.000000000000000000e+00,6.892850875854492188e+00,-9.395558357238769531e+00,2.773969173431396484e+00,-2.066932220458984375e+02,-1.009433822631835938e+02,-1.798526458740234375e+02,4.030399620532989502e-01,-6.667224884033203125e+01,-1.826865997314453125e+02,-2.342819452285766602e+00,7.562197875976562500e+01,3.135619926452636719e+01
1.884769946336746216e-01,1.000000000000000000e+00,6.833198547363281250e+00,-9.344437599182128906e+00,2.784114599227905273e+00,-2.066387481689453125e+02,-1.008700180053710938e+02,-1.797920074462890625e+02,4.030399620532989502e-01,-6.667216491699218750e+01,-1.826865997314453125e+02,-2.342891216278076172e+00,7.562197875976562500e+01,3.135619926452636719e+01
1.927579939365386963e-01,1.000000000000000000e+00,6.772655487060546875e+00,-9.292366027832031250e+00,2.794382095336914062e+00,-2.065835418701171875e+02,-1.007959671020507812e+02,-1.797304382324218750e+02,4.030399620532989502e-01,-6.667224884033203125e+01,-1.826865997314453125e+02,-2.342891216278076172e+00,7.562197875976562500e+01,3.135619926452636719e+01
1.954189985990524292e-01,1.000000000000000000e+00,6.711423873901367188e+00,-9.239750862121582031e+00,2.804588556289672852e+00,-2.065288238525390625e+02,-1.007213211059570312e+02,-1.796676330566406250e+02,4.030399620532989502e-01,-6.667224884033203125e+01,-1.826865997314453125e+02,-2.342819452285766602e+00,7.562197875976562500e+01,3.135619926452636719e+01
1.994490027427673340e-01,1.000000000000000000e+00,6.649474620819091797e+00,-9.186503410339355469e+00,2.814774990081787109e+00,-2.064737854003906250e+02,-1.006468353271484375e+02,-1.796062622070312500e+02,4.030399620532989502e-01,-6.667224884033203125e+01,-1.826867065429687500e+02,-2.342819452285766602e+00,7.562197875976562500e+01,3.135619926452636719e+01
2.034830003976821899e-01,1.000000000000000000e+00,6.586750030517578125e+00,-9.132824897766113281e+00,2.824981451034545898e+00,-2.064189910888671875e+02,-1.005724029541015625e+02,-1.795440673828125000e+02,4.030399620532989502e-01,-6.667224884033203125e+01,-1.826864318847656250e+02,-2.342891216278076172e+00,7.562197875976562500e+01,3.135619926452636719e+01
2.074239999055862427e-01,1.000000000000000000e+00,6.523681640625000000e+00,-9.078806877136230469e+00,2.835493087768554688e+00,-2.063640594482421875e+02,-1.004978179931640625e+02,-1.794816131591796875e+02,4.030399620532989502e-01,-6.667224884033203125e+01,-1.826865997314453125e+02,-2.342747688293457031e+00,7.562197875976562500e+01,3.135619926452636719e+01
2.114460021257400513e-01,1.000000000000000000e+00,6.460555076599121094e+00,-9.024857521057128906e+00,2.846065521240234375e+00,-2.063084716796875000e+02,-1.004229583740234375e+02,-1.794196319580078125e+02,4.030399620532989502e-01,-6.667224884033203125e+01,-1.826865997314453125e+02,-2.342891216278076172e+00,7.562197875976562500e+01,3.135598182678222656e+01
2.154140025377273560e-01,1.000000000000000000e+00,6.397256374359130859e+00,-8.970748901367187500e+00,2.856638193130493164e+00,-2.062536468505859375e+02,-1.003487472534179688e+02,-1.793576354980468750e+02,4.030399620532989502e-01,-6.667224884033203125e+01,-1.826865997314453125e+02,-2.342891216278076172e+00,7.562197875976562500e+01,3.135619926452636719e+01
2.194200009107589722e-01,1.000000000000000000e+00,6.334015369415283203e+00,-8.916731834411621094e+00,2.866946220397949219e+00,-2.061982879638671875e+02,-1.002739486694335938e+02,-1.792946472167968750e+02,4.030399620532989502e-01,-6.667224884033203125e+01,-1.826867065429687500e+02,-2.342891216278076172e+00,7.562197875976562500e+01,3.135598182678222656e+01
2.235250025987625122e-01,1.000000000000000000e+00,6.270975112915039062e+00,-8.862736701965332031e+00,2.877274751663208008e+00,-2.061433563232421875e+02,-1.001994628906250000e+02,-1.792329254150390625e+02,4.030399620532989502e-01,-6.667224884033203125e+01,-1.826865997314453125e+02,-2.342819452285766602e+00,7.562197875976562500e+01,3.135619926452636719e+01
2.274139970541000366e-01,1.000000000000000000e+00,6.207906723022460938e+00,-8.808650970458984375e+00,2.887806892395019531e+00,-2.060885162353515625e+02,-1.001241302490234375e+02,-1.791705322265625000e+02,4.030399620532989502e-01,-6.667224884033203125e+01,-1.826865997314453125e+02,-2.342891216278076172e+00,7.562197875976562500e+01,3.135619926452636719e+01
2.314220070838928223e-01,1.000000000000000000e+00,6.144722461700439453e+00,-8.754701614379882812e+00,2.898318290710449219e+00,-2.060330505371093750e+02,-1.000501251220703125e+02,-1.791077423095703125e+02,4.030399620532989502e-01,-6.667224884033203125e+01,-1.826865997314453125e+02,-2.342891216278076172e+00,7.562197875976562500e+01,3.135619926452636719e+01
2.354509979486465454e-01,1.000000000000000000e+00,6.081739902496337891e+00,-8.700752258300781250e+00,2.909053325653076172e+00,-2.059781646728515625e+02,-9.997558593750000000e+01,-1.790458221435546875e+02,4.030399620532989502e-01,-6.667224884033203125e+01,-1.826864318847656250e+02,-2.342819452285766602e+00,7.562197875976562500e+01,3.135642242431640625e+01
2.394019961357116699e-01,1.000000000000000000e+00,6.018900871276855469e+00,-8.647073745727539062e+00,2.919524192810058594e+00,-2.059229125976562500e+02,-9.990100097656250000e+01,-1.789844360351562500e+02,4.030399620532989502e-01,-6.667224884033203125e+01,-1.826865997314453125e+02,-2.342747688293457031e+00,7.562197875976562500e+01,3.135619926452636719e+01
2.435860037803649902e-01,1.000000000000000000e+00,5.955946922302246094e+00,-8.593441009521484375e+00,2.929771661758422852e+00,-2.058677062988281250e+02,-9.982544708251953125e+01,-1.789219207763671875e+02,4.030399620532989502e-01,-6.667224884033203125e+01,-1.826865997314453125e+02,-2.342891216278076172e+00,7.562197875976562500e+01,3.135619926452636719e+01
2.475810050964355469e-01,1.000000000000000000e+00,5.892935276031494141e+00,-8.539445877075195312e+00,2.940059423446655273e+00,-2.058132476806640625e+02,-9.975149536132812500e+01,-1.788601989746093750e+02,4.030399620532989502e-01,-6.667224884033203125e+01,-1.826865997314453125e+02,-2.342891216278076172e+00,7.562197875976562500e+01,3.135619926452636719e+01
2.514609992504119873e-01,1.000000000000000000e+00,5.830182075500488281e+00,-8.485609054565429688e+00,2.950611591339111328e+00,-2.057575683593750000e+02,-9.967701721191406250e+01,-1.787978057861328125e+02,4.030399620532989502e-01,-6.667224884033203125e+01,-1.826864318847656250e+02,-2.342891216278076172e+00,7.562197875976562500e+01,3.135619926452636719e+01
2.555289864540100098e-01,1.000000000000000000e+00,5.767285346984863281e+00,-8.431795120239257812e+00,2.961225032806396484e+00,-2.057024688720703125e+02,-9.960226440429687500e+01,-1.787349395751953125e+02,4.030399620532989502e-01,-6.667224884033203125e+01,-1.826865997314453125e+02,-2.342891216278076172e+00,7.562197875976562500e+01,3.135619926452636719e+01
2.595199942588806152e-01,1.000000000000000000e+00,5.704446315765380859e+00,-8.378207206726074219e+00,2.971777200698852539e+00,-2.056477355957031250e+02,-9.952671813964843750e+01,-1.786737823486328125e+02,4.030399620532989502e-01,-6.667224884033203125e+01,-1.826865997314453125e+02,-2.342891216278076172e+00,7.562197875976562500e+01,3.135619926452636719e+01
2.634679973125457764e-01,1.000000000000000000e+00,5.641693115234375000e+00,-8.324551582336425781e+00,2.981983661651611328e+00,-2.055918579101562500e+02,-9.945276641845703125e+01,-1.786124725341796875e+02,4.030399620532989502e-01,-6.667224884033203125e+01,-1.826865997314453125e+02,-2.342819452285766602e+00,7.562197875976562500e+01,3.135619926452636719e+01
2.674149870872497559e-01,1.000000000000000000e+00,5.578939914703369141e+00,-8.270918846130371094e+00,2.992271661758422852e+00,-2.055374908447265625e+02,-9.937860107421875000e+01,-1.785501556396484375e+02,4.030399620532989502e-01,-6.667224884033203125e+01,-1.826865997314453125e+02,-2.342891216278076172e+00,7.562197875976562500e+01,3.135619926452636719e+01
2.714129984378814697e-01,1.000000000000000000e+00,5.516387939453125000e+00,-8.217602729797363281e+00,3.002640724182128906e+00,-2.054825592041015625e+02,-9.930369567871093750e+01,-1.784884948730468750e+02,4.030399620532989502e-01,-6.667216491699218750e+01,-1.826867065429687500e+02,-2.342819452285766602e+00,7.562197875976562500e+01,3.135598182678222656e+01
2.754110097885131836e-01,1.000000000000000000e+00,5.453577518463134766e+00,-8.164014816284179688e+00,3.013111591339111328e+00,-2.054268188476562500e+02,-9.922856903076171875e+01,-1.784263916015625000e+02,4.030399620532989502e-01,-6.667224884033203125e+01,-1.826864318847656250e+02,-2.342891216278076172e+00,7.562197875976562500e+01,3.135619926452636719e+01
2.794179916381835938e-01,1.000000000000000000e+00,5.390709400177001953e+00,-8.110540390014648438e+00,3.023602962493896484e+00,-2.053721466064453125e+02,-9.915425109863281250e+01,-1.783637847900390625e+02,4.030399620532989502e-01,-6.667224884033203125e+01,-1.826865997314453125e+02,-2.342819452285766602e+00,7.562197875976562500e+01,3.135619926452636719e+01
2.835110127925872803e-01,1.000000000000000000e+00,5.327812671661376953e+00,-8.057156562805175781e+00,3.033951759338378906e+00,-2.053165283203125000e+02,-9.908024597167968750e+01,-1.783023986816406250e+02,4.030399620532989502e-01,-6.667224884033203125e+01,-1.826865997314453125e+02,-2.342891216278076172e+00,7.562197875976562500e+01,3.135619926452636719e+01
2.874299883842468262e-01,1.000000000000000000e+00,5.264801025390625000e+00,-8.003705024719238281e+00,3.044097423553466797e+00,-2.052616424560546875e+02,-9.900538635253906250e+01,-1.782407073974609375e+02,4.030399620532989502e-01,-6.667224884033203125e+01,-1.826865997314453125e+02,-2.342891216278076172e+00,7.562197875976562500e+01,3.135619926452636719e+01
2.913990020751953125e-01,1.000000000000000000e+00,5.201847553253173828e+00,-7.950253009796142578e+00,3.054405450820922852e+00,-2.052071228027343750e+02,-9.893059539794921875e+01,-1.781777038574218750e+02,4.030399620532989502e-01,-6.667224884033203125e+01,-1.826865997314453125e+02,-2.342819452285766602e+00,7.562197875976562500e+01,3.135619926452636719e+01
2.954240143299102783e-01,1.000000000000000000e+00,5.138864517211914062e+00,-7.896710395812988281e+00,3.064917087554931641e+00,-2.051515502929687500e+02,-9.885637664794921875e+01,-1.781164550781250000e+02,4.030399620532989502e-01,-6.667224884033203125e+01,-1.826865997314453125e+02,-2.342819452285766602e+00,7.562212371826171875e+01,3.135619926452636719e+01
2.994979918003082275e-01,1.000000000000000000e+00,5.076054096221923828e+00,-7.843394756317138672e+00,3.075448989868164062e+00,-2.050966644287109375e+02,-9.878247833251953125e+01,-1.780545349121093750e+02,4.030399620532989502e-01,-6.667224884033203125e+01,-1.826865997314453125e+02,-2.342819452285766602e+00,7.562197875976562500e+01,3.135619926452636719e+01
3.034990131855010986e-01,1.000000000000000000e+00,5.012813091278076172e+00,-7.789783954620361328e+00,3.085919857025146484e+00,-2.050412597656250000e+02,-9.870735168457031250e+01,-1.779913940429687500e+02,4.030399620532989502e-01,-6.667224884033203125e+01,-1.826865997314453125e+02,-2.342819452285766602e+00,7.562197875976562500e+01,3.135619926452636719e+01
3.073970079421997070e-01,1.000000000000000000e+00,4.949600219726562500e+00,-7.736061096191406250e+00,3.096228122711181641e+00,-2.049865264892578125e+02,-9.863292694091796875e+01,-1.779302215576171875e+02,4.030399620532989502e-01,-6.667224884033203125e+01,-1.826865997314453125e+02,-2.342891216278076172e+00,7.562197875976562500e+01,3.135619926452636719e+01
3.124290108680725098e-01,1.000000000000000000e+00,4.886388301849365234e+00,-7.682179450988769531e+00,3.106637954711914062e+00,-2.049321594238281250e+02,-9.855844116210937500e+01,-1.778683166503906250e+02,4.030399620532989502e-01,-6.667224884033203125e+01,-1.826867065429687500e+02,-2.342819452285766602e+00,7.562197875976562500e+01,3.135619926452636719e+01
3.154169917106628418e-01,1.000000000000000000e+00,4.823405265808105469e+00,-7.628229618072509766e+00,3.117149353027343750e+00,-2.048766479492187500e+02,-9.848475646972656250e+01,-1.778062591552734375e+02,4.030399620532989502e-01,-6.667224884033203125e+01,-1.826865997314453125e+02,-2.342891216278076172e+00,7.562197875976562500e+01,3.135619926452636719e+01
3.204550147056579590e-01,1.000000000000000000e+00,4.823405265808105469e+00,-7.628229618072509766e+00,3.117149353027343750e+00,-2.048766479492187500e+02,-9.848475646972656250e+01,-1.778062591552734375e+02,4.030399620532989502e-01,-6.667234802246093750e+01,-1.826865997314453125e+02,-2.342891216278076172e+00,7.562197875976562500e+01,3.135619926452636719e+01
3.241100013256072998e-01,1.000000000000000000e+00,4.696866035461425781e+00,-7.520374774932861328e+00,3.138314962387084961e+00,-2.047665557861328125e+02,-9.833542633056640625e+01,-1.776829071044921875e+02,4.030399620532989502e-01,-6.667234802246093750e+01,-1.826865997314453125e+02,-2.342891216278076172e+00,7.562197875976562500e+01,3.135619926452636719e+01
3.275370001792907715e-01,1.000000000000000000e+00,4.633681774139404297e+00,-7.466674327850341797e+00,3.148643493652343750e+00,-2.047116699218750000e+02,-9.826115417480468750e+01,-1.776203155517578125e+02,4.030399620532989502e-01,-6.667224884033203125e+01,-1.826865997314453125e+02,-2.342819452285766602e+00,7.562197875976562500e+01,3.135619926452636719e+01
3.325290083885192871e-01,1.000000000000000000e+00,4.633681774139404297e+00,-7.466674327850341797e+00,3.148643493652343750e+00,-2.047116699218750000e+02,-9.826115417480468750e+01,-1.776203155517578125e+02,4.030399620532989502e-01,-6.667224884033203125e+01,-1.826865997314453125e+02,-2.342891216278076172e+00,7.562197875976562500e+01,3.135619926452636719e+01
3.355000019073486328e-01,1.000000000000000000e+00,4.507371902465820312e+00,-7.358842372894287109e+00,3.169564962387084961e+00,-2.046019592285156250e+02,-9.811244964599609375e+01,-1.774974212646484375e+02,4.030399620532989502e-01,-6.667224884033203125e+01,-1.826864318847656250e+02,-2.342819452285766602e+00,7.562197875976562500e+01,3.135619926452636719e+01
3.394519984722137451e-01,1.000000000000000000e+00,4.444188594818115234e+00,-7.304801940917968750e+00,3.180157661437988281e+00,-2.045469055175781250e+02,-9.803881835937500000e+01,-1.774352416992187500e+02,4.030399620532989502e-01,-6.667224884033203125e+01,-1.826864318847656250e+02,-2.342819452285766602e+00,7.562197875976562500e+01,3.135619926452636719e+01
3.434939980506896973e-01,1.000000000000000000e+00,4.444188594818115234e+00,-7.304801940917968750e+00,3.180157661437988281e+00,-2.045469055175781250e+02,-9.803881835937500000e+01,-1.774352416992187500e+02,4.030399620532989502e-01,-6.667224884033203125e+01,-1.826864318847656250e+02,-2.342819452285766602e+00,7.562197875976562500e+01,3.135619926452636719e+01
3.500890135765075684e-01,1.000000000000000000e+00,4.381062030792236328e+00,-7.250943183898925781e+00,3.190750598907470703e+00,-2.044918670654296875e+02,-9.796412658691406250e+01,-1.773745422363281250e+02,4.030399620532989502e-01,-6.667224884033203125e+01,-1.826864318847656250e+02,-2.342819452285766602e+00,7.562197875976562500e+01,3.135619926452636719e+01
3.523589968681335449e-01,1.000000000000000000e+00,4.255039215087890625e+00,-7.143428325653076172e+00,3.211631298065185547e+00,-2.043822937011718750e+02,-9.781521606445312500e+01,-1.772498931884765625e+02,4.030399620532989502e-01,-6.667234802246093750e+01,-1.826865997314453125e+02,-2.342891216278076172e+00,7.562197875976562500e+01,3.135619926452636719e+01
3.553999960422515869e-01,1.000000000000000000e+00,4.191970348358154297e+00,-7.089546680450439453e+00,3.222224235534667969e+00,-2.043271484375000000e+02,-9.774126434326171875e+01,-1.771889190673828125e+02,4.030399620532989502e-01,-6.667216491699218750e+01,-1.826865997314453125e+02,-2.342891216278076172e+00,7.562197875976562500e+01,3.135619926452636719e+01
3.604730069637298584e-01,1.000000000000000000e+00,4.191970348358154297e+00,-7.089546680450439453e+00,3.222224235534667969e+00,-2.043271484375000000e+02,-9.774126434326171875e+01,-1.771889190673828125e+02,4.030399620532989502e-01,-6.667216491699218750e+01,-1.826865997314453125e+02,-2.342891216278076172e+00,7.562197875976562500e+01,3.135619926452636719e+01
3.634699881076812744e-01,1.000000000000000000e+00,4.066176891326904297e+00,-6.981465816497802734e+00,3.243409872055053711e+00,-2.042173156738281250e+02,-9.759283447265625000e+01,-1.770643463134765625e+02,4.030399620532989502e-01,-6.667224884033203125e+01,-1.826867065429687500e+02,-2.342819452285766602e+00,7.562197875976562500e+01,3.135619926452636719e+01
3.674480020999908447e-01,1.000000000000000000e+00,4.066176891326904297e+00,-6.981465816497802734e+00,3.243409872055053711e+00,-2.042173156738281250e+02,-9.759283447265625000e+01,-1.770643463134765625e+02,4.030399620532989502e-01,-6.667224884033203125e+01,-1.826867065429687500e+02,-2.342819452285766602e+00,7.562197875976562500e+01,3.135619926452636719e+01
3.715299963951110840e-01,1.000000000000000000e+00,4.003309249877929688e+00,-6.927538871765136719e+00,3.253779172897338867e+00,-2.041620178222656250e+02,-9.751840209960937500e+01,-1.770034484863281250e+02,4.030399620532989502e-01,-6.667224884033203125e+01,-1.826865997314453125e+02,-2.342819452285766602e+00,7.562197875976562500e+01,3.135619926452636719e+01
3.756560087203979492e-01,1.000000000000000000e+00,3.940527439117431641e+00,-6.873770713806152344e+00,3.264148235321044922e+00,-2.041074981689453125e+02,-9.744440460205078125e+01,-1.769413909912109375e+02,4.030399620532989502e-01,-6.667216491699218750e+01,-1.826865997314453125e+02,-2.342819452285766602e+00,7.562197875976562500e+01,3.135642242431640625e+01
3.794440031051635742e-01,1.000000000000000000e+00,3.877602100372314453e+00,-6.820001602172851562e+00,3.274619102478027344e+00,-2.040525665283203125e+02,-9.737039947509765625e+01,-1.768787384033203125e+02,4.030399620532989502e-01,-6.667224884033203125e+01,-1.826865997314453125e+02,-2.343034982681274414e+00,7.562197875976562500e+01,3.135619926452636719e+01
3.835090100765228271e-01,1.000000000000000000e+00,3.814820289611816406e+00,-6.766391277313232422e+00,3.285232543945312500e+00,-2.039977874755859375e+02,-9.729629516601562500e+01,-1.768171539306640625e+02,4.030399620532989502e-01,-6.667224884033203125e+01,-1.826865997314453125e+02,-2.342819452285766602e+00,7.562197875976562500e+01,3.135642242431640625e+01
3.875159919261932373e-01,1.000000000000000000e+00,3.751952409744262695e+00,-6.712623119354248047e+00,3.295845746994018555e+00,-2.039433746337890625e+02,-9.722143554687500000e+01,-1.767555084228515625e+02,4.030399620532989502e-01,-6.667224884033203125e+01,-1.826865997314453125e+02,-2.342891216278076172e+00,7.562182617187500000e+01,3.135619926452636719e+01
3.914470076560974121e-01,1.000000000000000000e+00,3.689170598983764648e+00,-6.658876419067382812e+00,3.306275844573974609e+00,-2.038875274658203125e+02,-9.714705657958984375e+01,-1.766934509277343750e+02,4.030399620532989502e-01,-6.667224884033203125e+01,-1.826865997314453125e+02,-2.342891216278076172e+00,7.562197875976562500e+01,3.135619926452636719e+01
3.954530060291290283e-01,1.000000000000000000e+00,3.626503467559814453e+00,-6.605311870574951172e+00,3.316604375839233398e+00,-2.038328094482421875e+02,-9.707316589355468750e+01,-1.766318054199218750e+02,4.030399620532989502e-01,-6.667224884033203125e+01,-1.826865997314453125e+02,-2.342819452285766602e+00,7.562197875976562500e+01,3.135619926452636719e+01
4.002839922904968262e-01,1.000000000000000000e+00,3.563635349273681641e+00,-6.551701545715332031e+00,3.327075242996215820e+00,-2.037784881591796875e+02,-9.699884033203125000e+01,-1.765698242187500000e+02,4.030399620532989502e-01,-6.667224884033203125e+01,-1.826867065429687500e+02,-2.342747688293457031e+00,7.562197875976562500e+01,3.135619926452636719e+01
4.034999907016754150e-01,1.000000000000000000e+00,3.438215494155883789e+00,-6.444752216339111328e+00,3.348261117935180664e+00,-2.036685638427734375e+02,-9.685045623779296875e+01,-1.764465332031250000e+02,4.030399620532989502e-01,-6.667224884033203125e+01,-1.826865997314453125e+02,-2.342819452285766602e+00,7.562197875976562500e+01,3.135619926452636719e+01
4.074479937553405762e-01,1.000000000000000000e+00,3.438215494155883789e+00,-6.444752216339111328e+00,3.348261117935180664e+00,-2.036685638427734375e+02,-9.685045623779296875e+01,-1.764465332031250000e+02,4.030399620532989502e-01,-6.667224884033203125e+01,-1.826865997314453125e+02,-2.342819452285766602e+00,7.562197875976562500e+01,3.135619926452636719e+01
4.115149974822998047e-01,1.000000000000000000e+00,3.375347614288330078e+00,-6.391300678253173828e+00,3.358731985092163086e+00,-2.036134185791015625e+02,-9.677576446533203125e+01,-1.763847656250000000e+02,4.030399620532989502e-01,-6.667224884033203125e+01,-1.826864318847656250e+02,-2.342891216278076172e+00,7.562212371826171875e+01,3.135619926452636719e+01
4.154930114746093750e-01,1.000000000000000000e+00,3.312307357788085938e+00,-6.337758064270019531e+00,3.368958950042724609e+00,-2.035582122802734375e+02,-9.670117950439453125e+01,-1.763223571777343750e+02,4.030399620532989502e-01,-6.667224884033203125e+01,-1.826867065429687500e+02,-2.342819452285766602e+00,7.562197875976562500e+01,3.135619926452636719e+01
4.194459915161132812e-01,1.000000000000000000e+00,3.249525547027587891e+00,-6.284079551696777344e+00,3.379165172576904297e+00,-2.035041198730468750e+02,-9.662648010253906250e+01,-1.762611846923828125e+02,4.030399620532989502e-01,-6.667224884033203125e+01,-1.826867065429687500e+02,-2.342819452285766602e+00,7.562197875976562500e+01,3.135619926452636719e+01
4.243400096893310547e-01,1.000000000000000000e+00,3.186571359634399414e+00,-6.230311393737792969e+00,3.389717578887939453e+00,-2.034490203857421875e+02,-9.655300903320312500e+01,-1.761996765136718750e+02,4.030399620532989502e-01,-6.667224884033203125e+01,-1.826865997314453125e+02,-2.342891216278076172e+00,7.562197875976562500e+01,3.135598182678222656e+01
4.274579882621765137e-01,1.000000000000000000e+00,3.060117959976196289e+00,-6.122592926025390625e+00,3.410943984985351562e+00,-2.033393554687500000e+02,-9.640425872802734375e+01,-1.760757751464843750e+02,4.030399620532989502e-01,-6.667224884033203125e+01,-1.826865997314453125e+02,-2.342891216278076172e+00,7.562197875976562500e+01,3.135619926452636719e+01
4.314450025558471680e-01,1.000000000000000000e+00,3.060117959976196289e+00,-6.122592926025390625e+00,3.410943984985351562e+00,-2.033393554687500000e+02,-9.640425872802734375e+01,-1.760757751464843750e+02,4.030399620532989502e-01,-6.667224884033203125e+01,-1.826865997314453125e+02,-2.342891216278076172e+00,7.562197875976562500e+01,3.135619926452636719e+01
4.354830086231231689e-01,1.000000000000000000e+00,2.996934175491333008e+00,-6.068960189819335938e+00,3.421333551406860352e+00,-2.032841491699218750e+02,-9.632907867431640625e+01,-1.760142059326171875e+02,4.030399620532989502e-01,-6.667224884033203125e+01,-1.826865997314453125e+02,-2.342819452285766602e+00,7.562197875976562500e+01,3.135619926452636719e+01
4.394930005073547363e-01,1.000000000000000000e+00,2.933894157409667969e+00,-6.015349864959716797e+00,3.431662082672119141e+00,-2.032296905517578125e+02,-9.625592803955078125e+01,-1.759513244628906250e+02,4.030399620532989502e-01,-6.667224884033203125e+01,-1.826865997314453125e+02,-2.342819452285766602e+00,7.562197875976562500e+01,3.135598182678222656e+01
4.435020089149475098e-01,1.000000000000000000e+00,2.870681762695312500e+00,-5.961490154266357422e+00,3.442132949829101562e+00,-2.031749572753906250e+02,-9.618165588378906250e+01,-1.758901062011718750e+02,4.030399620532989502e-01,-6.667224884033203125e+01,-1.826865997314453125e+02,-2.342819452285766602e+00,7.562197875976562500e+01,3.135619926452636719e+01
4.481840133666992188e-01,1.000000000000000000e+00,2.807469367980957031e+00,-5.907699108123779297e+00,3.452766418457031250e+00,-2.031199035644531250e+02,-9.610717773437500000e+01,-1.758282470703125000e+02,4.030399620532989502e-01,-6.667224884033203125e+01,-1.826865997314453125e+02,-2.343034982681274414e+00,7.562197875976562500e+01,3.135619926452636719e+01
4.514890015125274658e-01,1.000000000000000000e+00,2.744256973266601562e+00,-5.853771686553955078e+00,3.463460922241210938e+00,-2.030652770996093750e+02,-9.603216552734375000e+01,-1.757655181884765625e+02,4.030399620532989502e-01,-6.667216491699218750e+01,-1.826865997314453125e+02,-2.342891216278076172e+00,7.562197875976562500e+01,3.135619926452636719e+01
4.554579854011535645e-01,1.000000000000000000e+00,2.681130647659301758e+00,-5.800071239471435547e+00,3.474074125289916992e+00,-2.030101928710937500e+02,-9.595832061767578125e+01,-1.757043457031250000e+02,4.030399620532989502e-01,-6.667224884033203125e+01,-1.826865997314453125e+02,-2.342891216278076172e+00,7.562197875976562500e+01,3.135619926452636719e+01
4.594759941101074219e-01,1.000000000000000000e+00,2.617918252944946289e+00,-5.746280193328857422e+00,3.484382390975952148e+00,-2.029558410644531250e+02,-9.588447570800781250e+01,-1.756429138183593750e+02,4.030399620532989502e-01,-6.667216491699218750e+01,-1.826865997314453125e+02,-2.342819452285766602e+00,7.562197875976562500e+01,3.135619926452636719e+01
4.635460078716278076e-01,1.000000000000000000e+00,2.554791927337646484e+00,-5.692624092102050781e+00,3.494812488555908203e+00,-2.029009552001953125e+02,-9.580983734130859375e+01,-1.755802459716796875e+02,4.030399620532989502e-01,-6.667224884033203125e+01,-1.826865997314453125e+02,-2.342891216278076172e+00,7.562212371826171875e+01,3.135619926452636719e+01
4.674499928951263428e-01,1.000000000000000000e+00,2.491378545761108398e+00,-5.639036655426025391e+00,3.505385160446166992e+00,-2.028459014892578125e+02,-9.573524475097656250e+01,-1.755191497802734375e+02,4.030399620532989502e-01,-6.667234802246093750e+01,-1.826865997314453125e+02,-2.342891216278076172e+00,7.562197875976562500e+01,3.135619926452636719e+01
4.724430143833160400e-01,1.000000000000000000e+00,2.428481817245483398e+00,-5.584996223449707031e+00,3.515998363494873047e+00,-2.027912902832031250e+02,-9.566119384765625000e+01,-1.754572143554687500e+02,4.030399620532989502e-01,-6.667224884033203125e+01,-1.826865997314453125e+02,-2.342819452285766602e+00,7.562197875976562500e+01,3.135619926452636719e+01
4.754930138587951660e-01,1.000000000000000000e+00,2.365154743194580078e+00,-5.531159877777099609e+00,3.526530265808105469e+00,-2.027362823486328125e+02,-9.558734130859375000e+01,-1.753946990966796875e+02,4.030399620532989502e-01,-6.667224884033203125e+01,-1.826865997314453125e+02,-2.342819452285766602e+00,7.562212371826171875e+01,3.135642242431640625e+01
4.794740080833435059e-01,1.000000000000000000e+00,2.301999568939208984e+00,-5.477323532104492188e+00,3.536899566650390625e+00,-2.026814575195312500e+02,-9.551291656494140625e+01,-1.753342132568359375e+02,4.030399620532989502e-01,-6.667224884033203125e+01,-1.826865997314453125e+02,-2.342891216278076172e+00,7.562197875976562500e+01,3.135619926452636719e+01
4.835880100727081299e-01,1.000000000000000000e+00,2.239160299301147461e+00,-5.423350811004638672e+00,3.547268629074096680e+00,-2.026266784667968750e+02,-9.543816375732421875e+01,-1.752726898193359375e+02,4.030399620532989502e-01,-6.667224884033203125e+01,-1.826865997314453125e+02,-2.342819452285766602e+00,7.562197875976562500e+01,3.135619926452636719e+01
4.874979853630065918e-01,1.000000000000000000e+00,2.175948143005371094e+00,-5.369605064392089844e+00,3.557861566543579102e+00,-2.025717315673828125e+02,-9.536416625976562500e+01,-1.752104339599609375e+02,4.030399620532989502e-01,-6.667224884033203125e+01,-1.826867065429687500e+02,-2.343034982681274414e+00,7.562197875976562500e+01,3.135619926452636719e+01
4.914659857749938965e-01,1.000000000000000000e+00,2.112879037857055664e+00,-5.315790653228759766e+00,3.568434000015258789e+00,-2.025173187255859375e+02,-9.529064178466796875e+01,-1.751489410400390625e+02,4.030399620532989502e-01,-6.667224884033203125e+01,-1.826867065429687500e+02,-2.342747688293457031e+00,7.562197875976562500e+01,3.135642242431640625e+01
4.966500103473663330e-01,1.000000000000000000e+00,2.049839019775390625e+00,-5.262316226959228516e+00,3.579047441482543945e+00,-2.024622802734375000e+02,-9.521588897705078125e+01,-1.750872192382812500e+02,4.030399620532989502e-01,-6.667224884033203125e+01,-1.826867065429687500e+02,-2.342891216278076172e+00,7.562197875976562500e+01,3.135619926452636719e+01
4.995630085468292236e-01,1.000000000000000000e+00,1.986827611923217773e+00,-5.208525180816650391e+00,3.589437007904052734e+00,-2.024072418212890625e+02,-9.514162445068359375e+01,-1.750254364013671875e+02,4.030399620532989502e-01,-6.667224884033203125e+01,-1.826865997314453125e+02,-2.342819452285766602e+00,7.562197875976562500e+01,3.135619926452636719e+01
5.035089850425720215e-01,1.000000000000000000e+00,1.924045801162719727e+00,-5.154846668243408203e+00,3.599684000015258789e+00,-2.023527221679687500e+02,-9.506746673583984375e+01,-1.749641265869140625e+02,4.030399620532989502e-01,-6.667224884033203125e+01,-1.826865997314453125e+02,-2.342819452285766602e+00,7.562197875976562500e+01,3.135619926452636719e+01
5.074859857559204102e-01,1.000000000000000000e+00,1.861235380172729492e+00,-5.101259231567382812e+00,3.610094070434570312e+00,-2.022975158691406250e+02,-9.499382781982421875e+01,-1.749022827148437500e+02,4.030399620532989502e-01,-6.667224884033203125e+01,-1.826865997314453125e+02,-2.342891216278076172e+00,7.562197875976562500e+01,3.135619926452636719e+01
5.115349888801574707e-01,1.000000000000000000e+00,1.798482060432434082e+00,-5.047603607177734375e+00,3.620646238327026367e+00,-2.022431488037109375e+02,-9.491929626464843750e+01,-1.748394775390625000e+02,4.030399620532989502e-01,-6.667224884033203125e+01,-1.826865997314453125e+02,-2.342891216278076172e+00,7.562197875976562500e+01,3.135619926452636719e+01
5.154960155487060547e-01,1.000000000000000000e+00,1.735815167427062988e+00,-4.994265079498291016e+00,3.631279468536376953e+00,-2.021882781982421875e+02,-9.484491729736328125e+01,-1.747782440185546875e+02,4.030399620532989502e-01,-6.667224884033203125e+01,-1.826865997314453125e+02,-2.342891216278076172e+00,7.562197875976562500e+01,3.135619926452636719e+01
5.218250155448913574e-01,1.000000000000000000e+00,1.673033356666564941e+00,-4.940813064575195312e+00,3.641730070114135742e+00,-2.021328582763671875e+02,-9.477086639404296875e+01,-1.747163238525390625e+02,4.030399620532989502e-01,-6.667224884033203125e+01,-1.826867065429687500e+02,-2.342819452285766602e+00,7.562197875976562500e+01,3.135619926452636719e+01
5.244470238685607910e-01,1.000000000000000000e+00,1.547842860221862793e+00,-4.833818912506103516e+00,3.662448167800903320e+00,-2.020237579345703125e+02,-9.462248229980468750e+01,-1.745924987792968750e+02,4.030399620532989502e-01,-6.667224884033203125e+01,-1.826865997314453125e+02,-2.342891216278076172e+00,7.562212371826171875e+01,3.135619926452636719e+01
5.275009870529174805e-01,1.000000000000000000e+00,1.547842860221862793e+00,-4.833818912506103516e+00,3.662448167800903320e+00,-2.020237579345703125e+02,-9.462248229980468750e+01,-1.745924987792968750e+02,4.030399620532989502e-01,-6.667224884033203125e+01,-1.826865997314453125e+02,-2.342891216278076172e+00,7.562212371826171875e+01,3.135619926452636719e+01
5.315949916839599609e-01,1.000000000000000000e+00,1.484974980354309082e+00,-4.780117988586425781e+00,3.673020839691162109e+00,-2.019686737060546875e+02,-9.454859161376953125e+01,-1.745308380126953125e+02,4.030399620532989502e-01,-6.667224884033203125e+01,-1.826867065429687500e+02,-2.343034982681274414e+00,7.562197875976562500e+01,3.135619926452636719e+01
5.355769991874694824e-01,1.000000000000000000e+00,1.422193169593811035e+00,-4.726575374603271484e+00,3.683532476425170898e+00,-2.019141998291015625e+02,-9.447431945800781250e+01,-1.744687957763671875e+02,4.030399620532989502e-01,-6.667224884033203125e+01,-1.826865997314453125e+02,-2.342891216278076172e+00,7.562197875976562500e+01,3.135619926452636719e+01
5.395299792289733887e-01,1.000000000000000000e+00,1.359526276588439941e+00,-4.672920227050781250e+00,3.693962812423706055e+00,-2.018587493896484375e+02,-9.440026092529296875e+01,-1.744074859619140625e+02,4.030399620532989502e-01,-6.667224884033203125e+01,-1.826867065429687500e+02,-2.342819452285766602e+00,7.562197875976562500e+01,3.135598182678222656e+01
5.444210171699523926e-01,1.000000000000000000e+00,1.296887993812561035e+00,-4.619174003601074219e+00,3.704209804534912109e+00,-2.018042755126953125e+02,-9.432599639892578125e+01,-1.743459014892578125e+02,4.030399620532989502e-01,-6.667224884033203125e+01,-1.826865997314453125e+02,-2.342819452285766602e+00,7.562197875976562500e+01,3.135619926452636719e+01
5.484120249748229980e-01,1.000000000000000000e+00,1.234106183052062988e+00,-4.565586090087890625e+00,3.714436531066894531e+00,-2.017498016357421875e+02,-9.425236511230468750e+01,-1.742830505371093750e+02,4.030399620532989502e-01,-6.667224884033203125e+01,-1.826865997314453125e+02,-2.342891216278076172e+00,7.562197875976562500e+01,3.135619926452636719e+01
5.515549778938293457e-01,1.000000000000000000e+00,1.171238183975219727e+00,-4.511998653411865234e+00,3.724826097488403320e+00,-2.016947631835937500e+02,-9.417873382568359375e+01,-1.742223510742187500e+02,4.030399620532989502e-01,-6.667224884033203125e+01,-1.826865997314453125e+02,-2.342891216278076172e+00,7.562197875976562500e+01,3.135619926452636719e+01
5.557079911231994629e-01,1.000000000000000000e+00,1.108427643775939941e+00,-4.458411216735839844e+00,3.735399007797241211e+00,-2.016401367187500000e+02,-9.410462951660156250e+01,-1.741612396240234375e+02,4.030399620532989502e-01,-6.667224884033203125e+01,-1.826865997314453125e+02,-2.342819452285766602e+00,7.562182617187500000e+01,3.135619926452636719e+01
5.603989958763122559e-01,1.000000000000000000e+00,1.045645833015441895e+00,-4.404778480529785156e+00,3.745991706848144531e+00,-2.015849304199218750e+02,-9.402982330322265625e+01,-1.740993194580078125e+02,4.030399620532989502e-01,-6.667224884033203125e+01,-1.826865997314453125e+02,-2.342891216278076172e+00,7.562197875976562500e+01,3.135619926452636719e+01
5.639150142669677734e-01,1.000000000000000000e+00,9.827780127525329590e-01,-4.351077079772949219e+00,3.756320238113403320e+00,-2.015305328369140625e+02,-9.395603179931640625e+01,-1.740381469726562500e+02,4.030399620532989502e-01,-6.667224884033203125e+01,-1.826867065429687500e+02,-2.342891216278076172e+00,7.562197875976562500e+01,3.135619926452636719e+01
5.685269832611083984e-01,1.000000000000000000e+00,9.198526144027709961e-01,-4.297354221343994141e+00,3.766689300537109375e+00,-2.014761199951171875e+02,-9.388240814208984375e+01,-1.739762420654296875e+02,4.030399620532989502e-01,-6.667224884033203125e+01,-1.826867065429687500e+02,-2.342819452285766602e+00,7.562197875976562500e+01,3.135619926452636719e+01
5.723999738693237305e-01,1.000000000000000000e+00,8.571569323539733887e-01,-4.243630886077880859e+00,3.777261972427368164e+00,-2.014208068847656250e+02,-9.380845642089843750e+01,-1.739141235351562500e+02,4.030399620532989502e-01,-6.667224884033203125e+01,-1.826865997314453125e+02,-2.342819452285766602e+00,7.562197875976562500e+01,3.135619926452636719e+01
5.756629705429077148e-01,1.000000000000000000e+00,7.941741943359375000e-01,-4.190065383911132812e+00,3.787875175476074219e+00,-2.013662872314453125e+02,-9.373402404785156250e+01,-1.738532257080078125e+02,4.030399620532989502e-01,-6.667224884033203125e+01,-1.826865997314453125e+02,-2.342819452285766602e+00,7.562197875976562500e+01,3.135619926452636719e+01
5.798670053482055664e-01,1.000000000000000000e+00,7.314497828483581543e-01,-4.136568546295166016e+00,3.798468112945556641e+00,-2.013114013671875000e+02,-9.365981292724609375e+01,-1.737918395996093750e+02,4.030399620532989502e-01,-6.667224884033203125e+01,-1.826865997314453125e+02,-2.342891216278076172e+00,7.562197875976562500e+01,3.135619926452636719e+01
5.840960144996643066e-01,1.000000000000000000e+00,6.685244441032409668e-01,-4.082799911499023438e+00,3.808857679367065430e+00,-2.012565612792968750e+02,-9.358612823486328125e+01,-1.737288360595703125e+02,4.030399620532989502e-01,-6.667224884033203125e+01,-1.826865997314453125e+02,-2.342819452285766602e+00,7.562197875976562500e+01,3.135598182678222656e+01
5.877419710159301758e-01,1.000000000000000000e+00,6.054268479347229004e-01,-4.028985500335693359e+00,3.819226741790771484e+00,-2.012023010253906250e+02,-9.351196289062500000e+01,-1.736680145263671875e+02,4.030399620532989502e-01,-6.667234802246093750e+01,-1.826865997314453125e+02,-2.342891216278076172e+00,7.562197875976562500e+01,3.135598182678222656e+01
5.927479863166809082e-01,1.000000000000000000e+00,5.424728393554687500e-01,-3.974968194961547852e+00,3.829616308212280273e+00,-2.011472778320312500e+02,-9.343731689453125000e+01,-1.736065673828125000e+02,4.030399620532989502e-01,-6.667224884033203125e+01,-1.826865997314453125e+02,-2.342891216278076172e+00,7.562197875976562500e+01,3.135619926452636719e+01
5.964239835739135742e-01,1.000000000000000000e+00,4.794613420963287354e-01,-3.921244621276855469e+00,3.840087413787841797e+00,-2.010924987792968750e+02,-9.336363983154296875e+01,-1.735441741943359375e+02,4.030399620532989502e-01,-6.667224884033203125e+01,-1.826865997314453125e+02,-2.342891216278076172e+00,7.562197875976562500e+01,3.135642242431640625e+01
5.998560190200805664e-01,1.000000000000000000e+00,4.164786040782928467e-01,-3.867521286010742188e+00,3.850538015365600586e+00,-2.010377197265625000e+02,-9.328946685791015625e+01,-1.734830169677734375e+02,4.030399620532989502e-01,-6.667224884033203125e+01,-1.826865997314453125e+02,-2.342891216278076172e+00,7.562212371826171875e+01,3.135619926452636719e+01
6.041870117187500000e-01,1.000000000000000000e+00,3.534958660602569580e-01,-3.813730001449584961e+00,3.860968112945556641e+00,-2.009828338623046875e+02,-9.321546936035156250e+01,-1.734216308593750000e+02,4.030399620532989502e-01,-6.667224884033203125e+01,-1.826865997314453125e+02,-2.342819452285766602e+00,7.562197875976562500e+01,3.135619926452636719e+01
6.081420183181762695e-01,1.000000000000000000e+00,2.903408706188201904e-01,-3.760029077529907227e+00,3.871296644210815430e+00,-2.009286193847656250e+02,-9.314045715332031250e+01,-1.733594512939453125e+02,4.030399620532989502e-01,-6.667216491699218750e+01,-1.826865997314453125e+02,-2.342891216278076172e+00,7.562197875976562500e+01,3.135619926452636719e+01
6.121910214424133301e-01,1.000000000000000000e+00,2.274155318737030029e-01,-3.706283092498779297e+00,3.881686210632324219e+00,-2.008737335205078125e+02,-9.306741333007812500e+01,-1.732982177734375000e+02,4.030399620532989502e-01,-6.667224884033203125e+01,-1.826865997314453125e+02,-2.342819452285766602e+00,7.562197875976562500e+01,3.135619926452636719e+01
6.169670224189758301e-01,1.000000000000000000e+00,1.643753498792648315e-01,-3.652582406997680664e+00,3.892278909683227539e+00,-2.008189086914062500e+02,-9.299314117431640625e+01,-1.732369689941406250e+02,4.030399620532989502e-01,-6.667216491699218750e+01,-1.826865997314453125e+02,-2.342891216278076172e+00,7.562197875976562500e+01,3.135619926452636719e+01
6.214749813079833984e-01,1.000000000000000000e+00,1.013351827859878540e-01,-3.598994493484497070e+00,3.902790546417236328e+00,-2.007643280029296875e+02,-9.291903686523437500e+01,-1.731743621826171875e+02,4.030399620532989502e-01,-6.667224884033203125e+01,-1.826865997314453125e+02,-2.343034982681274414e+00,7.562197875976562500e+01,3.135619926452636719e+01
6.242039799690246582e-01,1.000000000000000000e+00,3.858208656311035156e-02,-3.545474767684936523e+00,3.913403987884521484e+00,-2.007091827392578125e+02,-9.284396362304687500e+01,-1.731139526367187500e+02,4.030399620532989502e-01,-6.667224884033203125e+01,-1.826865997314453125e+02,-2.343034982681274414e+00,7.562197875976562500e+01,3.135619926452636719e+01
6.284570097923278809e-01,1.000000000000000000e+00,-2.437196299433708191e-02,-3.491909980773925781e+00,3.923671483993530273e+00,-2.006550292968750000e+02,-9.277059936523437500e+01,-1.730528411865234375e+02,4.030399620532989502e-01,-6.667224884033203125e+01,-1.826865997314453125e+02,-2.342891216278076172e+00,7.562197875976562500e+01,3.135619926452636719e+01
6.323369741439819336e-01,1.000000000000000000e+00,-8.715377002954483032e-02,-3.438277006149291992e+00,3.934000015258789062e+00,-2.006002502441406250e+02,-9.269638824462890625e+01,-1.729905242919921875e+02,4.030399620532989502e-01,-6.667224884033203125e+01,-1.826865997314453125e+02,-2.342891216278076172e+00,7.562197875976562500e+01,3.135619926452636719e+01
6.361439824104309082e-01,1.000000000000000000e+00,-1.501078158617019653e-01,-3.385006189346313477e+00,3.944430112838745117e+00,-2.005456237792968750e+02,-9.262243652343750000e+01,-1.729297637939453125e+02,4.030399620532989502e-01,-6.667224884033203125e+01,-1.826865997314453125e+02,-2.342891216278076172e+00,7.562197875976562500e+01,3.135619926452636719e+01
6.410800218582153320e-01,1.000000000000000000e+00,-2.127747833728790283e-01,-3.331395864486694336e+00,3.955002784729003906e+00,-2.004915313720703125e+02,-9.254714965820312500e+01,-1.728681182861328125e+02,4.030399620532989502e-01,-6.667224884033203125e+01,-1.826865997314453125e+02,-2.342891216278076172e+00,7.562197875976562500e+01,3.135642242431640625e+01
6.454049944877624512e-01,1.000000000000000000e+00,-2.754417657852172852e-01,-3.277785539627075195e+00,3.965595483779907227e+00,-2.004359130859375000e+02,-9.247341918945312500e+01,-1.728057861328125000e+02,4.030399620532989502e-01,-6.667224884033203125e+01,-1.826865997314453125e+02,-2.342891216278076172e+00,7.562197875976562500e+01,3.135619926452636719e+01
6.483579874038696289e-01,1.000000000000000000e+00,-3.382522761821746826e-01,-3.224152565002441406e+00,3.975924015045166016e+00,-2.003812713623046875e+02,-9.239989471435546875e+01,-1.727449493408203125e+02,4.030399620532989502e-01,-6.667216491699218750e+01,-1.826865997314453125e+02,-2.342891216278076172e+00,7.562212371826171875e+01,3.135619926452636719e+01
6.525340080261230469e-01,1.000000000000000000e+00,-4.009479880332946777e-01,-3.170496940612792969e+00,3.986110448837280273e+00,-2.003271331787109375e+02,-9.232562255859375000e+01,-1.726835021972656250e+02,4.030399620532989502e-01,-6.667224884033203125e+01,-1.826864318847656250e+02,-2.342819452285766602e+00,7.562197875976562500e+01,3.135619926452636719e+01
6.565570235252380371e-01,1.000000000000000000e+00,-4.637297689914703369e-01,-3.116886854171752930e+00,3.996500015258789062e+00,-2.002719268798828125e+02,-9.225071716308593750e+01,-1.726205139160156250e+02,4.030399620532989502e-01,-6.667224884033203125e+01,-1.826867065429687500e+02,-2.342819452285766602e+00,7.562182617187500000e+01,3.135619926452636719e+01
6.606529951095581055e-01,1.000000000000000000e+00,-5.265690088272094727e-01,-3.063366889953613281e+00,4.007011413574218750e+00,-2.002176208496093750e+02,-9.217703247070312500e+01,-1.725597381591796875e+02,4.030399620532989502e-01,-6.667216491699218750e+01,-1.826865997314453125e+02,-2.342819452285766602e+00,7.562197875976562500e+01,3.135619926452636719e+01
6.661000251770019531e-01,1.000000000000000000e+00,-5.892646908760070801e-01,-3.009779453277587891e+00,4.017664909362792969e+00,-2.001624755859375000e+02,-9.210340118408203125e+01,-1.724981689453125000e+02,4.030399620532989502e-01,-6.667224884033203125e+01,-1.826865997314453125e+02,-2.342891216278076172e+00,7.562197875976562500e+01,3.135619926452636719e+01
6.687579751014709473e-01,1.000000000000000000e+00,-6.522186994552612305e-01,-2.956214427947998047e+00,4.028095722198486328e+00,-2.001072845458984375e+02,-9.202908325195312500e+01,-1.724353637695312500e+02,4.030399620532989502e-01,-6.667224884033203125e+01,-1.826865997314453125e+02,-2.342819452285766602e+00,7.562197875976562500e+01,3.135619926452636719e+01
6.724939942359924316e-01,1.000000000000000000e+00,-7.150292396545410156e-01,-2.902559041976928711e+00,4.038240909576416016e+00,-2.000536956787109375e+02,-9.195433044433593750e+01,-1.723743286132812500e+02,4.030399620532989502e-01,-6.667224884033203125e+01,-1.826865997314453125e+02,-2.342819452285766602e+00,7.562197875976562500e+01,3.135619926452636719e+01
6.766149997711181641e-01,1.000000000000000000e+00,-7.778971791267395020e-01,-2.849084377288818359e+00,4.048488616943359375e+00,-1.999987640380859375e+02,-9.188048553466796875e+01,-1.723131561279296875e+02,4.030399620532989502e-01,-6.667224884033203125e+01,-1.826865997314453125e+02,-2.342891216278076172e+00,7.562197875976562500e+01,3.135619926452636719e+01
6.805930137634277344e-01,1.000000000000000000e+00,-8.407363891601562500e-01,-2.795655250549316406e+00,4.058959007263183594e+00,-1.999441986083984375e+02,-9.180707550048828125e+01,-1.722511901855468750e+02,4.030399620532989502e-01,-6.667234802246093750e+01,-1.826865997314453125e+02,-2.342891216278076172e+00,7.562197875976562500e+01,3.135619926452636719e+01
6.845930218696594238e-01,1.000000000000000000e+00,-9.036042690277099609e-01,-2.742044687271118164e+00,4.069572448730468750e+00,-1.998892059326171875e+02,-9.173248291015625000e+01,-1.721898040771484375e+02,4.030399620532989502e-01,-6.667224884033203125e+01,-1.826865997314453125e+02,-2.342891216278076172e+00,7.562197875976562500e+01,3.135619926452636719e+01
6.873970031738281250e-01,1.000000000000000000e+00,-9.665870666503906250e-01,-2.688751459121704102e+00,4.080103874206542969e+00,-1.998343658447265625e+02,-9.165842437744140625e+01,-1.721283569335937500e+02,4.030399620532989502e-01,-6.667224884033203125e+01,-1.826867065429687500e+02,-2.342891216278076172e+00,7.562197875976562500e+01,3.135619926452636719e+01
6.926419734954833984e-01,1.000000000000000000e+00,-1.029282689094543457e+00,-2.635140895843505859e+00,4.090453147888183594e+00,-1.997801666259765625e+02,-9.158415985107421875e+01,-1.720662536621093750e+02,4.030399620532989502e-01,-6.667224884033203125e+01,-1.826865997314453125e+02,-2.342891216278076172e+00,7.562197875976562500e+01,3.135619926452636719e+01
6.965010166168212891e-01,1.000000000000000000e+00,-1.092150688171386719e+00,-2.581417798995971680e+00,4.100699901580810547e+00,-1.997253875732421875e+02,-9.151063537597656250e+01,-1.720053558349609375e+02,4.030399620532989502e-01,-6.667224884033203125e+01,-1.826865997314453125e+02,-2.342819452285766602e+00,7.562197875976562500e+01,3.135619926452636719e+01
7.007070183753967285e-01,1.000000000000000000e+00,-1.154817700386047363e+00,-2.527603626251220703e+00,4.111171245574951172e+00,-1.996705017089843750e+02,-9.143657684326171875e+01,-1.719442443847656250e+02,4.030399620532989502e-01,-6.667224884033203125e+01,-1.826865997314453125e+02,-2.342819452285766602e+00,7.562197875976562500e+01,3.135619926452636719e+01
7.034019827842712402e-01,1.000000000000000000e+00,-1.217685580253601074e+00,-2.473812341690063477e+00,4.121702671051025391e+00,-1.996161804199218750e+02,-9.136220550537109375e+01,-1.718823242187500000e+02,4.030399620532989502e-01,-6.667224884033203125e+01,-1.826867065429687500e+02,-2.342819452285766602e+00,7.562197875976562500e+01,3.135619926452636719e+01
7.074499726295471191e-01,1.000000000000000000e+00,-1.280496120452880859e+00,-2.420270204544067383e+00,4.132255077362060547e+00,-1.995609893798828125e+02,-9.128804016113281250e+01,-1.718210144042968750e+02,4.030399620532989502e-01,-6.667224884033203125e+01,-1.826865997314453125e+02,-2.342891216278076172e+00,7.562197875976562500e+01,3.135619926452636719e+01
7.114049792289733887e-01,1.000000000000000000e+00,-1.343478798866271973e+00,-2.366569280624389648e+00,4.142665386199951172e+00,-1.995067901611328125e+02,-9.121472167968750000e+01,-1.717595825195312500e+02,4.030399620532989502e-01,-6.667234802246093750e+01,-1.826865997314453125e+02,-2.342891216278076172e+00,7.562197875976562500e+01,3.135619926452636719e+01
7.153980135917663574e-01,1.000000000000000000e+00,-1.406260609626770020e+00,-2.313026666641235352e+00,4.152932643890380859e+00,-1.994523315429687500e+02,-9.114115142822265625e+01,-1.716977996826171875e+02,4.030399620532989502e-01,-6.667224884033203125e+01,-1.826867065429687500e+02,-2.342819452285766602e+00,7.562197875976562500e+01,3.135619926452636719e+01
7.194640040397644043e-01,1.000000000000000000e+00,-1.469042420387268066e+00,-2.259348630905151367e+00,4.163342475891113281e+00,-1.993971710205078125e+02,-9.106710052490234375e+01,-1.716365661621093750e+02,4.030399620532989502e-01,-6.667234802246093750e+01,-1.826865997314453125e+02,-2.342891216278076172e+00,7.562182617187500000e+01,3.135619926452636719e+01
7.233989834785461426e-01,1.000000000000000000e+00,-1.531795501708984375e+00,-2.205444097518920898e+00,4.173752307891845703e+00,-1.993424987792968750e+02,-9.099336242675781250e+01,-1.715753936767578125e+02,4.030399620532989502e-01,-6.667224884033203125e+01,-1.826865997314453125e+02,-2.342819452285766602e+00,7.562197875976562500e+01,3.135619926452636719e+01
7.273859977722167969e-01,1.000000000000000000e+00,-1.594835758209228516e+00,-2.151924371719360352e+00,4.184365749359130859e+00,-1.992878265380859375e+02,-9.091914367675781250e+01,-1.715125885009765625e+02,4.030399620532989502e-01,-6.667216491699218750e+01,-1.826865997314453125e+02,-2.342819452285766602e+00,7.562197875976562500e+01,3.135619926452636719e+01
7.314580082893371582e-01,1.000000000000000000e+00,-1.657560110092163086e+00,-2.098223686218261719e+00,4.194694042205810547e+00,-1.992332000732421875e+02,-9.084529876708984375e+01,-1.714512939453125000e+02,4.030399620532989502e-01,-6.667224884033203125e+01,-1.826865997314453125e+02,-2.342819452285766602e+00,7.562197875976562500e+01,3.135619926452636719e+01
7.353950142860412598e-01,1.000000000000000000e+00,-1.720341920852661133e+00,-2.044771671295166016e+00,4.204982280731201172e+00,-1.991786804199218750e+02,-9.077151489257812500e+01,-1.713900451660156250e+02,4.030399620532989502e-01,-6.667224884033203125e+01,-1.826865997314453125e+02,-2.342819452285766602e+00,7.562197875976562500e+01,3.135619926452636719e+01
7.410749793052673340e-01,1.000000000000000000e+00,-1.783095121383666992e+00,-1.991297245025634766e+00,4.215249538421630859e+00,-1.991237487792968750e+02,-9.069841766357421875e+01,-1.713277130126953125e+02,4.030399620532989502e-01,-6.667216491699218750e+01,-1.826867065429687500e+02,-2.342891216278076172e+00,7.562197875976562500e+01,3.135619926452636719e+01
7.433900237083435059e-01,1.000000000000000000e+00,-1.845848202705383301e+00,-1.937641620635986328e+00,4.225801944732666016e+00,-1.990693359375000000e+02,-9.062430572509765625e+01,-1.712665405273437500e+02,4.030399620532989502e-01,-6.667224884033203125e+01,-1.826865997314453125e+02,-2.342819452285766602e+00,7.562197875976562500e+01,3.135619926452636719e+01
7.474510073661804199e-01,1.000000000000000000e+00,-1.908457756042480469e+00,-1.884144663810729980e+00,4.236353874206542969e+00,-1.990143890380859375e+02,-9.054987335205078125e+01,-1.712054443359375000e+02,4.030399620532989502e-01,-6.667224884033203125e+01,-1.826867065429687500e+02,-2.342819452285766602e+00,7.562197875976562500e+01,3.135619926452636719e+01
7.514449954032897949e-01,1.000000000000000000e+00,-1.970895051956176758e+00,-1.830556869506835938e+00,4.246967315673828125e+00,-1.989598693847656250e+02,-9.047587585449218750e+01,-1.711430511474609375e+02,4.030399620532989502e-01,-6.667224884033203125e+01,-1.826865997314453125e+02,-2.342891216278076172e+00,7.562197875976562500e+01,3.135619926452636719e+01
7.553889751434326172e-01,1.000000000000000000e+00,-2.033590555191040039e+00,-1.776924014091491699e+00,4.257234573364257812e+00,-1.989054718017578125e+02,-9.040240478515625000e+01,-1.710817413330078125e+02,4.030399620532989502e-01,-6.667216491699218750e+01,-1.826865997314453125e+02,-2.342891216278076172e+00,7.562197875976562500e+01,3.135619926452636719e+01
7.594320178031921387e-01,1.000000000000000000e+00,-2.096028089523315430e+00,-1.723177909851074219e+00,4.267461776733398438e+00,-1.988500976562500000e+02,-9.032866668701171875e+01,-1.710205078125000000e+02,4.030399620532989502e-01,-6.667224884033203125e+01,-1.826865997314453125e+02,-2.342891216278076172e+00,7.562197875976562500e+01,3.135619926452636719e+01
7.635210156440734863e-01,1.000000000000000000e+00,-2.158694982528686523e+00,-1.669318795204162598e+00,4.277891635894775391e+00,-1.987958068847656250e+02,-9.025450134277343750e+01,-1.709579772949218750e+02,4.030399620532989502e-01,-6.667224884033203125e+01,-1.826867065429687500e+02,-2.342819452285766602e+00,7.562197875976562500e+01,3.135619926452636719e+01
7.674379944801330566e-01,1.000000000000000000e+00,-2.221247196197509766e+00,-1.615866899490356445e+00,4.288444042205810547e+00,-1.987412872314453125e+02,-9.018061065673828125e+01,-1.708974304199218750e+02,4.030399620532989502e-01,-6.667216491699218750e+01,-1.826865997314453125e+02,-2.342819452285766602e+00,7.562182617187500000e+01,3.135619926452636719e+01
7.714340090751647949e-01,1.000000000000000000e+00,-2.283971548080444336e+00,-1.562347054481506348e+00,4.298975944519042969e+00,-1.986859741210937500e+02,-9.010655212402343750e+01,-1.708365325927734375e+02,4.030399620532989502e-01,-6.667224884033203125e+01,-1.826867065429687500e+02,-2.342891216278076172e+00,7.562197875976562500e+01,3.135619926452636719e+01
7.754030227661132812e-01,1.000000000000000000e+00,-2.346609830856323242e+00,-1.508895158767700195e+00,4.309385776519775391e+00,-1.986320800781250000e+02,-9.003281402587890625e+01,-1.707742004394531250e+02,4.030399620532989502e-01,-6.667224884033203125e+01,-1.826865997314453125e+02,-2.342819452285766602e+00,7.562197875976562500e+01,3.135619926452636719e+01
7.794470191001892090e-01,1.000000000000000000e+00,-2.409133195877075195e+00,-1.455284953117370605e+00,4.319653511047363281e+00,-1.985771484375000000e+02,-8.995822143554687500e+01,-1.707133026123046875e+02,4.030399620532989502e-01,-6.667234802246093750e+01,-1.826865997314453125e+02,-2.342891216278076172e+00,7.562197875976562500e+01,3.135619926452636719e+01
7.834039926528930664e-01,1.000000000000000000e+00,-2.471685409545898438e+00,-1.401742577552795410e+00,4.330022811889648438e+00,-1.985220489501953125e+02,-8.988470458984375000e+01,-1.706517181396484375e+02,4.030399620532989502e-01,-6.667224884033203125e+01,-1.826865997314453125e+02,-2.342819452285766602e+00,7.562212371826171875e+01,3.135619926452636719e+01
7.874370217323303223e-01,1.000000000000000000e+00,-2.534266471862792969e+00,-1.348087072372436523e+00,4.340554714202880859e+00,-1.984679565429687500e+02,-8.981075286865234375e+01,-1.705895996093750000e+02,4.030399620532989502e-01,-6.667224884033203125e+01,-1.826867065429687500e+02,-2.342891216278076172e+00,7.562197875976562500e+01,3.135619926452636719e+01
7.914339900016784668e-01,1.000000000000000000e+00,-2.597162723541259766e+00,-1.294589877128601074e+00,4.351045608520507812e+00,-1.984128570556640625e+02,-8.973670196533203125e+01,-1.705285644531250000e+02,4.030399620532989502e-01,-6.667224884033203125e+01,-1.826865997314453125e+02,-2.342819452285766602e+00,7.562197875976562500e+01,3.135619926452636719e+01
7.954170107841491699e-01,1.000000000000000000e+00,-2.659973382949829102e+00,-1.241251111030578613e+00,4.361414909362792969e+00,-1.983580322265625000e+02,-8.966189575195312500e+01,-1.704673919677734375e+02,4.030399620532989502e-01,-6.667224884033203125e+01,-1.826865997314453125e+02,-2.342819452285766602e+00,7.562197875976562500e+01,3.135619926452636719e+01
7.993860244750976562e-01,1.000000000000000000e+00,-2.722669124603271484e+00,-1.188025593757629395e+00,4.371702671051025391e+00,-1.983039703369140625e+02,-8.958847808837890625e+01,-1.704046020507812500e+02,4.030399620532989502e-01,-6.667224884033203125e+01,-1.826865997314453125e+02,-2.342891216278076172e+00,7.562212371826171875e+01,3.135619926452636719e+01
8.034510016441345215e-01,1.000000000000000000e+00,-2.785508155822753906e+00,-1.134369969367980957e+00,4.381970405578613281e+00,-1.982488861083984375e+02,-8.951425933837890625e+01,-1.703432922363281250e+02,4.030399620532989502e-01,-6.667224884033203125e+01,-1.826865997314453125e+02,-2.342891216278076172e+00,7.562212371826171875e+01,3.135598182678222656e+01
8.074269890785217285e-01,1.000000000000000000e+00,-2.848204135894775391e+00,-1.080669283866882324e+00,4.392481803894042969e+00,-1.981944732666015625e+02,-8.944068908691406250e+01,-1.702817840576171875e+02,4.030399620532989502e-01,-6.667224884033203125e+01,-1.826867065429687500e+02,-2.342891216278076172e+00,7.562197875976562500e+01,3.135619926452636719e+01
8.115959763526916504e-01,1.000000000000000000e+00,-2.910842180252075195e+00,-1.026968479156494141e+00,4.402952671051025391e+00,-1.981393280029296875e+02,-8.936566925048828125e+01,-1.702197265625000000e+02,4.030399620532989502e-01,-6.667234802246093750e+01,-1.826865997314453125e+02,-2.342819452285766602e+00,7.562197875976562500e+01,3.135619926452636719e+01
8.154360055923461914e-01,1.000000000000000000e+00,-2.973767757415771484e+00,-9.734034538269042969e-01,4.413383007049560547e+00,-1.980848541259765625e+02,-8.929203796386718750e+01,-1.701584930419921875e+02,4.030399620532989502e-01,-6.667224884033203125e+01,-1.826865997314453125e+02,-2.342891216278076172e+00,7.562212371826171875e+01,3.135619926452636719e+01
8.204050064086914062e-01,1.000000000000000000e+00,-3.036520719528198242e+00,-9.198157191276550293e-01,4.423670768737792969e+00,-1.980309143066406250e+02,-8.921776580810546875e+01,-1.700972595214843750e+02,4.030399620532989502e-01,-6.667224884033203125e+01,-1.826867065429687500e+02,-2.342819452285766602e+00,7.562197875976562500e+01,3.135619926452636719e+01
8.234519958496093750e-01,1.000000000000000000e+00,-3.099359989166259766e+00,-8.661149740219116211e-01,4.433917999267578125e+00,-1.979757690429687500e+02,-8.914382171630859375e+01,-1.700354766845703125e+02,4.030399620532989502e-01,-6.667224884033203125e+01,-1.826867065429687500e+02,-2.342819452285766602e+00,7.562212371826171875e+01,3.135619926452636719e+01
8.283960223197937012e-01,1.000000000000000000e+00,-3.162285089492797852e+00,-8.127083778381347656e-01,4.444388866424560547e+00,-1.979211425781250000e+02,-8.906912231445312500e+01,-1.699740905761718750e+02,4.030399620532989502e-01,-6.667224884033203125e+01,-1.826865997314453125e+02,-2.342891216278076172e+00,7.562197875976562500e+01,3.135598182678222656e+01
8.316069841384887695e-01,1.000000000000000000e+00,-3.225210666656494141e+00,-7.590528130531311035e-01,4.454859733581542969e+00,-1.978664703369140625e+02,-8.899528503417968750e+01,-1.699127807617187500e+02,4.030399620532989502e-01,-6.667224884033203125e+01,-1.826864318847656250e+02,-2.342891216278076172e+00,7.562197875976562500e+01,3.135598182678222656e+01
8.363140225410461426e-01,1.000000000000000000e+00,-3.287935018539428711e+00,-7.054651975631713867e-01,4.465452671051025391e+00,-1.978115844726562500e+02,-8.892165374755859375e+01,-1.698505401611328125e+02,4.030399620532989502e-01,-6.667224884033203125e+01,-1.826867065429687500e+02,-2.342819452285766602e+00,7.562197875976562500e+01,3.135619926452636719e+01
8.395119905471801758e-01,1.000000000000000000e+00,-3.350889205932617188e+00,-6.520133018493652344e-01,4.475780963897705078e+00,-1.977575378417968750e+02,-8.884754943847656250e+01,-1.697895660400390625e+02,4.030399620532989502e-01,-6.667224884033203125e+01,-1.826867065429687500e+02,-2.342819452285766602e+00,7.562197875976562500e+01,3.135619926452636719e+01
8.444880247116088867e-01,1.000000000000000000e+00,-3.350889205932617188e+00,-6.520133018493652344e-01,4.475780963897705078e+00,-1.977575378417968750e+02,-8.884754943847656250e+01,-1.697895660400390625e+02,4.030399620532989502e-01,-6.667224884033203125e+01,-1.826867065429687500e+02,-2.342891216278076172e+00,7.562197875976562500e+01,3.135642242431640625e+01
8.474140167236328125e-01,1.000000000000000000e+00,-3.476768493652343750e+00,-5.450869202613830566e-01,4.496417999267578125e+00,-1.976478729248046875e+02,-8.869905853271484375e+01,-1.696668243408203125e+02,4.030399620532989502e-01,-6.667224884033203125e+01,-1.826865997314453125e+02,-2.342891216278076172e+00,7.562197875976562500e+01,3.135619926452636719e+01
8.514930009841918945e-01,1.000000000000000000e+00,-3.476768493652343750e+00,-5.450869202613830566e-01,4.496417999267578125e+00,-1.976478729248046875e+02,-8.869905853271484375e+01,-1.696668243408203125e+02,4.030399620532989502e-01,-6.667224884033203125e+01,-1.826865997314453125e+02,-2.342891216278076172e+00,7.562197875976562500e+01,3.135619926452636719e+01
8.581619858741760254e-01,1.000000000000000000e+00,-3.539636373519897461e+00,-4.915897846221923828e-01,4.506909370422363281e+00,-1.975935058593750000e+02,-8.862548065185546875e+01,-1.696060638427734375e+02,4.030399620532989502e-01,-6.667224884033203125e+01,-1.826865997314453125e+02,-2.342891216278076172e+00,7.562197875976562500e+01,3.135619926452636719e+01
8.604199886322021484e-01,1.000000000000000000e+00,-3.665544509887695312e+00,-3.847992122173309326e-01,4.527647495269775391e+00,-1.974844207763671875e+02,-8.847737121582031250e+01,-1.694822998046875000e+02,4.030399620532989502e-01,-6.667224884033203125e+01,-1.826865997314453125e+02,-2.342891216278076172e+00,7.562197875976562500e+01,3.135619926452636719e+01
8.634610176086425781e-01,1.000000000000000000e+00,-3.728354930877685547e+00,-3.310531377792358398e-01,4.537935256958007812e+00,-1.974295806884765625e+02,-8.840320587158203125e+01,-1.694211883544921875e+02,4.030399620532989502e-01,-6.667224884033203125e+01,-1.826865997314453125e+02,-2.342891216278076172e+00,7.562197875976562500e+01,3.135619926452636719e+01
8.674349784851074219e-01,1.000000000000000000e+00,-3.728354930877685547e+00,-3.310531377792358398e-01,4.537935256958007812e+00,-1.974295806884765625e+02,-8.840320587158203125e+01,-1.694211883544921875e+02,4.030399620532989502e-01,-6.667224884033203125e+01,-1.826865997314453125e+02,-2.342891216278076172e+00,7.562197875976562500e+01,3.135619926452636719e+01
8.714470267295837402e-01,1.000000000000000000e+00,-3.791136741638183594e+00,-2.775560021400451660e-01,4.548223495483398438e+00,-1.973749084472656250e+02,-8.832984161376953125e+01,-1.693606262207031250e+02,4.030399620532989502e-01,-6.667224884033203125e+01,-1.826865997314453125e+02,-2.342819452285766602e+00,7.562197875976562500e+01,3.135619926452636719e+01
8.755009770393371582e-01,1.000000000000000000e+00,-3.853775024414062500e+00,-2.239909917116165161e-01,4.558714389801025391e+00,-1.973206634521484375e+02,-8.825600433349609375e+01,-1.692979583740234375e+02,4.030399620532989502e-01,-6.667224884033203125e+01,-1.826865997314453125e+02,-2.342819452285766602e+00,7.562197875976562500e+01,3.135619926452636719e+01
8.794419765472412109e-01,1.000000000000000000e+00,-3.916442155838012695e+00,-1.704259663820266724e-01,4.569124698638916016e+00,-1.972654571533203125e+02,-8.818146514892578125e+01,-1.692365112304687500e+02,4.030399620532989502e-01,-6.667224884033203125e+01,-1.826865997314453125e+02,-2.342891216278076172e+00,7.562197875976562500e+01,3.135619926452636719e+01
8.841320276260375977e-01,1.000000000000000000e+00,-3.979195356369018555e+00,-1.168835759162902832e-01,4.579575061798095703e+00,-1.972113037109375000e+02,-8.810768127441406250e+01,-1.691753387451171875e+02,4.030399620532989502e-01,-6.667224884033203125e+01,-1.826865997314453125e+02,-2.342891216278076172e+00,7.562197875976562500e+01,3.135619926452636719e+01
8.874650001525878906e-01,1.000000000000000000e+00,-4.104557991027832031e+00,-9.957200847566127777e-03,4.600069522857666016e+00,-1.971019592285156250e+02,-8.796041107177734375e+01,-1.690518493652343750e+02,4.030399620532989502e-01,-6.667224884033203125e+01,-1.826867065429687500e+02,-2.342891216278076172e+00,7.562182617187500000e+01,3.135619926452636719e+01
8.914449810981750488e-01,1.000000000000000000e+00,-4.104557991027832031e+00,-9.957200847566127777e-03,4.600069522857666016e+00,-1.971019592285156250e+02,-8.796041107177734375e+01,-1.690518493652343750e+02,4.030399620532989502e-01,-6.667224884033203125e+01,-1.826867065429687500e+02,-2.342891216278076172e+00,7.562182617187500000e+01,3.135619926452636719e+01
8.954430222511291504e-01,1.000000000000000000e+00,-4.167167186737060547e+00,4.358518868684768677e-02,4.610519886016845703e+00,-1.970480804443359375e+02,-8.788603973388671875e+01,-1.689908905029296875e+02,4.030399620532989502e-01,-6.667224884033203125e+01,-1.826865997314453125e+02,-2.342891216278076172e+00,7.562197875976562500e+01,3.135619926452636719e+01
8.995749950408935547e-01,1.000000000000000000e+00,-4.229805469512939453e+00,9.715021401643753052e-02,4.621052265167236328e+00,-1.969928283691406250e+02,-8.781225585937500000e+01,-1.689289703369140625e+02,4.030399620532989502e-01,-6.667224884033203125e+01,-1.826867065429687500e+02,-2.342891216278076172e+00,7.562197875976562500e+01,3.135619926452636719e+01
9.034479856491088867e-01,1.000000000000000000e+00,-4.292415142059326172e+00,1.504663079977035522e-01,4.631604194641113281e+00,-1.969380798339843750e+02,-8.773845672607421875e+01,-1.688678588867187500e+02,4.030399620532989502e-01,-6.667224884033203125e+01,-1.826865997314453125e+02,-2.342891216278076172e+00,7.562212371826171875e+01,3.135619926452636719e+01
9.081799983978271484e-01,1.000000000000000000e+00,-4.355024814605712891e+00,2.039181739091873169e-01,4.641973495483398438e+00,-1.968840484619140625e+02,-8.766503906250000000e+01,-1.688069000244140625e+02,4.030399620532989502e-01,-6.667224884033203125e+01,-1.826865997314453125e+02,-2.342891216278076172e+00,7.562182617187500000e+01,3.135619926452636719e+01
9.124540090560913086e-01,1.000000000000000000e+00,-4.480416297912597656e+00,3.107087910175323486e-01,4.662610530853271484e+00,-1.967747497558593750e+02,-8.751725006103515625e+01,-1.686831970214843750e+02,4.030399620532989502e-01,-6.667224884033203125e+01,-1.826865997314453125e+02,-2.342819452285766602e+00,7.562197875976562500e+01,3.135619926452636719e+01
9.154549837112426758e-01,1.000000000000000000e+00,-4.543054103851318359e+00,3.642058968544006348e-01,4.673121452331542969e+00,-1.967199096679687500e+02,-8.744293212890625000e+01,-1.686225738525390625e+02,4.030399620532989502e-01,-6.667224884033203125e+01,-1.826865997314453125e+02,-2.342891216278076172e+00,7.562197875976562500e+01,3.135619926452636719e+01
9.194350242614746094e-01,1.000000000000000000e+00,-4.543054103851318359e+00,3.642058968544006348e-01,4.673121452331542969e+00,-1.967199096679687500e+02,-8.744293212890625000e+01,-1.686225738525390625e+02,4.030399620532989502e-01,-6.667224884033203125e+01,-1.826865997314453125e+02,-2.342891216278076172e+00,7.562197875976562500e+01,3.135619926452636719e+01
9.234420061111450195e-01,1.000000000000000000e+00,-4.605577945709228516e+00,4.177935421466827393e-01,4.683653831481933594e+00,-1.966649169921875000e+02,-8.736935424804687500e+01,-1.685607910156250000e+02,4.030399620532989502e-01,-6.667224884033203125e+01,-1.826865997314453125e+02,-2.342819452285766602e+00,7.562197875976562500e+01,3.135619926452636719e+01
9.275169968605041504e-01,1.000000000000000000e+00,-4.668216228485107422e+00,4.714943766593933105e-01,4.693921089172363281e+00,-1.966110382080078125e+02,-8.729524230957031250e+01,-1.684998321533203125e+02,4.030399620532989502e-01,-6.667224884033203125e+01,-1.826865997314453125e+02,-2.342819452285766602e+00,7.562197875976562500e+01,3.135619926452636719e+01
9.321770071983337402e-01,1.000000000000000000e+00,-4.730739593505859375e+00,5.249009728431701660e-01,4.704066753387451172e+00,-1.965563049316406250e+02,-8.722193145751953125e+01,-1.684384460449218750e+02,4.030399620532989502e-01,-6.667224884033203125e+01,-1.826865997314453125e+02,-2.342819452285766602e+00,7.562197875976562500e+01,3.135619926452636719e+01
9.364349842071533203e-01,1.000000000000000000e+00,-4.792975902557373047e+00,5.784885883331298828e-01,4.714293479919433594e+00,-1.965016326904296875e+02,-8.714846801757812500e+01,-1.683765411376953125e+02,4.030399620532989502e-01,-6.667224884033203125e+01,-1.826867065429687500e+02,-2.342891216278076172e+00,7.562197875976562500e+01,3.135619926452636719e+01
9.394270181655883789e-01,1.000000000000000000e+00,-4.918022632598876953e+00,6.855507493019104004e-01,4.735194683074951172e+00,-1.963922271728515625e+02,-8.699992370605468750e+01,-1.682543334960937500e+02,4.030399620532989502e-01,-6.667224884033203125e+01,-1.826865997314453125e+02,-2.342891216278076172e+00,7.562212371826171875e+01,3.135619926452636719e+01
9.434739947319030762e-01,1.000000000000000000e+00,-4.918022632598876953e+00,6.855507493019104004e-01,4.735194683074951172e+00,-1.963922271728515625e+02,-8.699992370605468750e+01,-1.682543334960937500e+02,4.030399620532989502e-01,-6.667224884033203125e+01,-1.826865997314453125e+02,-2.342891216278076172e+00,7.562212371826171875e+01,3.135619926452636719e+01
9.474340081214904785e-01,1.000000000000000000e+00,-4.980632305145263672e+00,7.393647432327270508e-01,4.745706558227539062e+00,-1.963378601074218750e+02,-8.692667388916015625e+01,-1.681914520263671875e+02,4.030399620532989502e-01,-6.667224884033203125e+01,-1.826867065429687500e+02,-2.342819452285766602e+00,7.562212371826171875e+01,3.135619926452636719e+01
9.516519904136657715e-01,1.000000000000000000e+00,-5.043299674987792969e+00,7.927939295768737793e-01,4.755993843078613281e+00,-1.962835083007812500e+02,-8.685319519042968750e+01,-1.681302795410156250e+02,4.030399620532989502e-01,-6.667224884033203125e+01,-1.826865997314453125e+02,-2.342819452285766602e+00,7.562197875976562500e+01,3.135619926452636719e+01
9.561650156974792480e-01,1.000000000000000000e+00,-5.105506896972656250e+00,8.461326360702514648e-01,4.766262054443359375e+00,-1.962285156250000000e+02,-8.677914428710937500e+01,-1.680692443847656250e+02,4.030399620532989502e-01,-6.667216491699218750e+01,-1.826865997314453125e+02,-2.342819452285766602e+00,7.562197875976562500e+01,3.135598182678222656e+01
9.594290256500244141e-01,1.000000000000000000e+00,-5.168059349060058594e+00,8.995845913887023926e-01,4.776711940765380859e+00,-1.961743774414062500e+02,-8.670487213134765625e+01,-1.680070037841796875e+02,4.030399620532989502e-01,-6.667224884033203125e+01,-1.826865997314453125e+02,-2.342891216278076172e+00,7.562197875976562500e+01,3.135598182678222656e+01
9.634810090065002441e-01,1.000000000000000000e+00,-5.230754852294921875e+00,9.530590176582336426e-01,4.787264347076416016e+00,-1.961194305419921875e+02,-8.663076782226562500e+01,-1.679456176757812500e+02,4.030399620532989502e-01,-6.667224884033203125e+01,-1.826865997314453125e+02,-2.342891216278076172e+00,7.562197875976562500e+01,3.135598182678222656e+01
9.674739837646484375e-01,1.000000000000000000e+00,-5.293306827545166016e+00,1.006556153297424316e+00,4.797735214233398438e+00,-1.960650634765625000e+02,-8.655740356445312500e+01,-1.678845214843750000e+02,4.030399620532989502e-01,-6.667224884033203125e+01,-1.826865997314453125e+02,-2.342891216278076172e+00,7.562197875976562500e+01,3.135619926452636719e+01
9.714339971542358398e-01,1.000000000000000000e+00,-5.355945587158203125e+00,1.059781789779663086e+00,4.808063983917236328e+00,-1.960108795166015625e+02,-8.648313140869140625e+01,-1.678224792480468750e+02,4.030399620532989502e-01,-6.667224884033203125e+01,-1.826867065429687500e+02,-2.342819452285766602e+00,7.562182617187500000e+01,3.135619926452636719e+01
9.756029844284057617e-01,1.000000000000000000e+00,-5.418468952178955078e+00,1.113233685493469238e+00,4.818168640136718750e+00,-1.959558258056640625e+02,-8.640934753417968750e+01,-1.677613677978515625e+02,4.030399620532989502e-01,-6.667224884033203125e+01,-1.826864318847656250e+02,-2.342891216278076172e+00,7.562197875976562500e+01,3.135642242431640625e+01
9.801740050315856934e-01,1.000000000000000000e+00,-5.481307983398437500e+00,1.166821241378784180e+00,4.828578948974609375e+00,-1.959010925292968750e+02,-8.633566284179687500e+01,-1.677005310058593750e+02,4.030399620532989502e-01,-6.667224884033203125e+01,-1.826864318847656250e+02,-2.342819452285766602e+00,7.562197875976562500e+01,3.135619926452636719e+01
9.835370182991027832e-01,1.000000000000000000e+00,-5.544003486633300781e+00,1.220499396324157715e+00,4.839008808135986328e+00,-1.958463134765625000e+02,-8.626171112060546875e+01,-1.676382751464843750e+02,4.030399620532989502e-01,-6.667224884033203125e+01,-1.826865997314453125e+02,-2.342819452285766602e+00,7.562197875976562500e+01,3.135619926452636719e+01
9.874780178070068359e-01,1.000000000000000000e+00,-5.606756687164306641e+00,1.274154901504516602e+00,4.849500179290771484e+00,-1.957919006347656250e+02,-8.618701934814453125e+01,-1.675769042968750000e+02,4.030399620532989502e-01,-6.667224884033203125e+01,-1.826867065429687500e+02,-2.342819452285766602e+00,7.562197875976562500e+01,3.135619926452636719e+01
9.915040135383605957e-01,1.000000000000000000e+00,-5.669509887695312500e+00,1.327606797218322754e+00,4.859807968139648438e+00,-1.957375946044921875e+02,-8.611338806152343750e+01,-1.675164184570312500e+02,4.030399620532989502e-01,-6.667224884033203125e+01,-1.826865997314453125e+02,-2.342819452285766602e+00,7.562197875976562500e+01,3.135619926452636719e+01
9.954400062561035156e-01,1.000000000000000000e+00,-5.731947422027587891e+00,1.381013512611389160e+00,4.870035171508789062e+00,-1.956828155517578125e+02,-8.603975677490234375e+01,-1.674545593261718750e+02,4.030399620532989502e-01,-6.667224884033203125e+01,-1.826865997314453125e+02,-2.342891216278076172e+00,7.562197875976562500e+01,3.135619926452636719e+01
9.999889731407165527e-01,1.000000000000000000e+00,-5.794499397277832031e+00,1.434442758560180664e+00,4.880261898040771484e+00,-1.956284484863281250e+02,-8.596617889404296875e+01,-1.673934631347656250e+02,4.030399620532989502e-01,-6.667216491699218750e+01,-1.826865997314453125e+02,-2.342891216278076172e+00,7.562197875976562500e+01,3.135619926452636719e+01
1.004168033599853516e+00,1.000000000000000000e+00,-5.857194900512695312e+00,1.487917184829711914e+00,4.890753269195556641e+00,-1.955735626220703125e+02,-8.589138031005859375e+01,-1.673322906494140625e+02,4.030399620532989502e-01,-6.667224884033203125e+01,-1.826865997314453125e+02,-2.342891216278076172e+00,7.562197875976562500e+01,3.135619926452636719e+01
1.007434010505676270e+00,1.000000000000000000e+00,-5.920005321502685547e+00,1.541482210159301758e+00,4.901244163513183594e+00,-1.955188903808593750e+02,-8.581758117675781250e+01,-1.672704467773437500e+02,4.030399620532989502e-01,-6.667224884033203125e+01,-1.826865997314453125e+02,-2.342891216278076172e+00,7.562197875976562500e+01,3.135619926452636719e+01
1.011471986770629883e+00,1.000000000000000000e+00,-5.982644081115722656e+00,1.594979405403137207e+00,4.911817073822021484e+00,-1.954645843505859375e+02,-8.574443054199218750e+01,-1.672088623046875000e+02,4.030399620532989502e-01,-6.667234802246093750e+01,-1.826865997314453125e+02,-2.342819452285766602e+00,7.562197875976562500e+01,3.135619926452636719e+01
1.015473961830139160e+00,1.000000000000000000e+00,-6.045454502105712891e+00,1.648272752761840820e+00,4.922043800354003906e+00,-1.954096984863281250e+02,-8.567037963867187500e+01,-1.671480407714843750e+02,4.030399620532989502e-01,-6.667224884033203125e+01,-1.826865997314453125e+02,-2.342891216278076172e+00,7.562197875976562500e+01,3.135619926452636719e+01
1.019446969032287598e+00,1.000000000000000000e+00,-6.108179092407226562e+00,1.701679468154907227e+00,4.932148933410644531e+00,-1.953554534912109375e+02,-8.559568786621093750e+01,-1.670855712890625000e+02,4.030399620532989502e-01,-6.667224884033203125e+01,-1.826865997314453125e+02,-2.342819452285766602e+00,7.562197875976562500e+01,3.135619926452636719e+01
1.023952960968017578e+00,1.000000000000000000e+00,-6.170845985412597656e+00,1.754882335662841797e+00,4.942497730255126953e+00,-1.953010406494140625e+02,-8.552188873291015625e+01,-1.670240020751953125e+02,4.030399620532989502e-01,-6.667224884033203125e+01,-1.826865997314453125e+02,-2.342891216278076172e+00,7.562182617187500000e+01,3.135619926452636719e+01
1.028437972068786621e+00,1.000000000000000000e+00,-6.233685016632080078e+00,1.808288931846618652e+00,4.953009128570556641e+00,-1.952457885742187500e+02,-8.544869232177734375e+01,-1.669631652832031250e+02,4.030399620532989502e-01,-6.667224884033203125e+01,-1.826865997314453125e+02,-2.342891216278076172e+00,7.562197875976562500e+01,3.135598182678222656e+01
1.031496047973632812e+00,1.000000000000000000e+00,-6.296466827392578125e+00,1.861899375915527344e+00,4.963602066040039062e+00,-1.951916351318359375e+02,-8.537500762939453125e+01,-1.669009704589843750e+02,4.030399620532989502e-01,-6.667224884033203125e+01,-1.826865997314453125e+02,-2.342819452285766602e+00,7.562212371826171875e+01,3.135642242431640625e+01
1.035508990287780762e+00,1.000000000000000000e+00,-6.359248638153076172e+00,1.915464282035827637e+00,4.974011898040771484e+00,-1.951374816894531250e+02,-8.530041503906250000e+01,-1.668397369384765625e+02,4.030399620532989502e-01,-6.667216491699218750e+01,-1.826867065429687500e+02,-2.342891216278076172e+00,7.562182617187500000e+01,3.135619926452636719e+01
1.039608001708984375e+00,1.000000000000000000e+00,-6.422116756439208984e+00,1.969074606895446777e+00,4.984177589416503906e+00,-1.950822753906250000e+02,-8.522641754150390625e+01,-1.667787628173828125e+02,4.030399620532989502e-01,-6.667224884033203125e+01,-1.826867065429687500e+02,-2.342819452285766602e+00,7.562197875976562500e+01,3.135619926452636719e+01
1.043568968772888184e+00,1.000000000000000000e+00,-6.484725952148437500e+00,2.022548913955688477e+00,4.994465827941894531e+00,-1.950280151367187500e+02,-8.515294647216796875e+01,-1.667165832519531250e+02,4.030399620532989502e-01,-6.667224884033203125e+01,-1.826865997314453125e+02,-2.342819452285766602e+00,7.562182617187500000e+01,3.135619926452636719e+01
1.048621058464050293e+00,1.000000000000000000e+00,-6.547421455383300781e+00,2.076023578643798828e+00,5.004977226257324219e+00,-1.949730834960937500e+02,-8.507952880859375000e+01,-1.666549377441406250e+02,4.030399620532989502e-01,-6.667224884033203125e+01,-1.826865997314453125e+02,-2.342819452285766602e+00,7.562197875976562500e+01,3.135619926452636719e+01
1.052423000335693359e+00,1.000000000000000000e+00,-6.609945297241210938e+00,2.129294395446777344e+00,5.015387058258056641e+00,-1.949183502197265625e+02,-8.500504302978515625e+01,-1.665943756103515625e+02,4.030399620532989502e-01,-6.667224884033203125e+01,-1.826867065429687500e+02,-2.342819452285766602e+00,7.562197875976562500e+01,3.135619926452636719e+01
1.055624008178710938e+00,1.000000000000000000e+00,-6.672325134277343750e+00,2.182723522186279297e+00,5.025878429412841797e+00,-1.948643646240234375e+02,-8.493104553222656250e+01,-1.665321807861328125e+02,4.030399620532989502e-01,-6.667224884033203125e+01,-1.826865997314453125e+02,-2.342819452285766602e+00,7.562197875976562500e+01,3.135619926452636719e+01
1.059556961059570312e+00,1.000000000000000000e+00,-6.735049247741699219e+00,2.236401796340942383e+00,5.036044597625732422e+00,-1.948094329833984375e+02,-8.485730743408203125e+01,-1.664708099365234375e+02,4.030399620532989502e-01,-6.667224884033203125e+01,-1.826865997314453125e+02,-2.342819452285766602e+00,7.562197875976562500e+01,3.135619926452636719e+01
1.063763976097106934e+00,1.000000000000000000e+00,-6.797745227813720703e+00,2.289898872375488281e+00,5.046210289001464844e+00,-1.947548065185546875e+02,-8.478388977050781250e+01,-1.664103851318359375e+02,4.030399620532989502e-01,-6.667224884033203125e+01,-1.826867065429687500e+02,-2.342819452285766602e+00,7.562197875976562500e+01,3.135619926452636719e+01
1.068498969078063965e+00,1.000000000000000000e+00,-6.860326290130615234e+00,2.343305587768554688e+00,5.056498050689697266e+00,-1.947001342773437500e+02,-8.470951843261718750e+01,-1.663489379882812500e+02,4.030399620532989502e-01,-6.667216491699218750e+01,-1.826865997314453125e+02,-2.342819452285766602e+00,7.562197875976562500e+01,3.135619926452636719e+01
1.072391986846923828e+00,1.000000000000000000e+00,-6.922935485839843750e+00,2.396576404571533203e+00,5.066948413848876953e+00,-1.946456146240234375e+02,-8.463583374023437500e+01,-1.662872314453125000e+02,4.030399620532989502e-01,-6.667224884033203125e+01,-1.826865997314453125e+02,-2.342819452285766602e+00,7.562197875976562500e+01,3.135619926452636719e+01
1.076637029647827148e+00,1.000000000000000000e+00,-6.985516071319580078e+00,2.449824571609497070e+00,5.077419757843017578e+00,-1.945916137695312500e+02,-8.456214904785156250e+01,-1.662259979248046875e+02,4.030399620532989502e-01,-6.667224884033203125e+01,-1.826865997314453125e+02,-2.342891216278076172e+00,7.562212371826171875e+01,3.135619926452636719e+01
1.079807996749877930e+00,1.000000000000000000e+00,-7.048126220703125000e+00,2.503231287002563477e+00,5.087707519531250000e+00,-1.945366363525390625e+02,-8.448868560791015625e+01,-1.661641540527343750e+02,4.030399620532989502e-01,-6.667224884033203125e+01,-1.826867065429687500e+02,-2.342819452285766602e+00,7.562197875976562500e+01,3.135642242431640625e+01
1.083685040473937988e+00,1.000000000000000000e+00,-7.110649585723876953e+00,2.556592464447021484e+00,5.097934246063232422e+00,-1.944822692871093750e+02,-8.441393280029296875e+01,-1.661027069091796875e+02,4.030399620532989502e-01,-6.667224884033203125e+01,-1.826865997314453125e+02,-2.342891216278076172e+00,7.562212371826171875e+01,3.135619926452636719e+01
1.087934017181396484e+00,1.000000000000000000e+00,-7.173201560974121094e+00,2.609931230545043945e+00,5.108303546905517578e+00,-1.944277038574218750e+02,-8.434040832519531250e+01,-1.660422210693359375e+02,4.030399620532989502e-01,-6.667224884033203125e+01,-1.826865997314453125e+02,-2.342819452285766602e+00,7.562197875976562500e+01,3.135619926452636719e+01
1.091956973075866699e+00,1.000000000000000000e+00,-7.235897541046142578e+00,2.663428544998168945e+00,5.118754386901855469e+00,-1.943728179931640625e+02,-8.426656341552734375e+01,-1.659800872802734375e+02,4.030399620532989502e-01,-6.667224884033203125e+01,-1.826865997314453125e+02,-2.342891216278076172e+00,7.562182617187500000e+01,3.135619926452636719e+01
1.096771001815795898e+00,1.000000000000000000e+00,-7.298507213592529297e+00,2.717015981674194336e+00,5.129265308380126953e+00,-1.943187561035156250e+02,-8.419319915771484375e+01,-1.659179077148437500e+02,4.030399620532989502e-01,-6.667224884033203125e+01,-1.826864318847656250e+02,-2.342819452285766602e+00,7.562197875976562500e+01,3.135619926452636719e+01
1.100025057792663574e+00,1.000000000000000000e+00,-7.361174106597900391e+00,2.770558595657348633e+00,5.139655113220214844e+00,-1.942642364501953125e+02,-8.411861419677734375e+01,-1.658572845458984375e+02,4.030399620532989502e-01,-6.667224884033203125e+01,-1.826865997314453125e+02,-2.343034982681274414e+00,7.562197875976562500e+01,3.135619926452636719e+01
1.103999972343444824e+00,1.000000000000000000e+00,-7.423869132995605469e+00,2.823965072631835938e+00,5.149780273437500000e+00,-1.942093200683593750e+02,-8.404546356201171875e+01,-1.657948150634765625e+02,4.030399620532989502e-01,-6.667224884033203125e+01,-1.826867065429687500e+02,-2.342891216278076172e+00,7.562197875976562500e+01,3.135619926452636719e+01
1.108487963676452637e+00,1.000000000000000000e+00,-7.486479282379150391e+00,2.877281188964843750e+00,5.160109043121337891e+00,-1.941548461914062500e+02,-8.397130584716796875e+01,-1.657331695556640625e+02,4.030399620532989502e-01,-6.667216491699218750e+01,-1.826865997314453125e+02,-2.342891216278076172e+00,7.562197875976562500e+01,3.135619926452636719e+01
