rpiRobotics/ARM-21-02-F-19-Robot-Motion-Program/data_performance_abb/curve_2/curve_pose_opt2/100L/realrobot/run_1.csv
timestamp,cmd_num,J1,J2,J3,J4,J5,J6
1.385999959893524647e-03,-1.000000000000000000e+00,7.736314773559570312e+00,-1.011718082427978516e+01,2.641751289367675781e+00,-2.074214324951171875e+02,-1.019231719970703125e+02,-1.806661682128906250e+02,4.030399620532989502e-01,-6.667224884033203125e+01,-1.826865997314453125e+02,-2.342819452285766602e+00,7.562197875976562500e+01,3.135619926452636719e+01
6.541999988257884979e-03,1.000000000000000000e+00,7.736371994018554688e+00,-1.011724853515625000e+01,2.641791820526123047e+00,-2.074214324951171875e+02,-1.019231719970703125e+02,-1.806663665771484375e+02,4.030399620532989502e-01,-6.667224884033203125e+01,-1.826865997314453125e+02,-2.342747688293457031e+00,7.562197875976562500e+01,3.135642242431640625e+01
1.039599999785423279e-02,1.000000000000000000e+00,7.736286640167236328e+00,-1.011718082427978516e+01,2.641751289367675781e+00,-2.074213256835937500e+02,-1.019231719970703125e+02,-1.806663665771484375e+02,4.030399620532989502e-01,-6.667216491699218750e+01,-1.826865997314453125e+02,-2.342819452285766602e+00,7.562212371826171875e+01,3.135619926452636719e+01
1.588100008666515350e-02,1.000000000000000000e+00,7.736371994018554688e+00,-1.011718082427978516e+01,2.641710519790649414e+00,-2.074212188720703125e+02,-1.019231719970703125e+02,-1.806663665771484375e+02,4.030399620532989502e-01,-6.667224884033203125e+01,-1.826867065429687500e+02,-2.342819452285766602e+00,7.562197875976562500e+01,3.135619926452636719e+01
4.002000018954277039e-02,1.000000000000000000e+00,7.736314773559570312e+00,-1.011718082427978516e+01,2.641751289367675781e+00,-2.074212188720703125e+02,-1.019231719970703125e+02,-1.806663665771484375e+02,4.030399620532989502e-01,-6.667224884033203125e+01,-1.826865997314453125e+02,-2.342819452285766602e+00,7.562197875976562500e+01,3.135619926452636719e+01
4.254800081253051758e-02,1.000000000000000000e+00,7.736314773559570312e+00,-1.011718082427978516e+01,2.641710519790649414e+00,-2.074213256835937500e+02,-1.019231719970703125e+02,-1.806661682128906250e+02,4.030399620532989502e-01,-6.667234802246093750e+01,-1.826865997314453125e+02,-2.342819452285766602e+00,7.562197875976562500e+01,3.135619926452636719e+01
4.380000010132789612e-02,1.000000000000000000e+00,7.736314773559570312e+00,-1.011718082427978516e+01,2.641710519790649414e+00,-2.074213256835937500e+02,-1.019231719970703125e+02,-1.806661682128906250e+02,4.030399620532989502e-01,-6.667234802246093750e+01,-1.826865997314453125e+02,-2.342819452285766602e+00,7.562197875976562500e+01,3.135619926452636719e+01
5.090000107884407043e-02,1.000000000000000000e+00,7.736314773559570312e+00,-1.011718082427978516e+01,2.641751289367675781e+00,-2.074214324951171875e+02,-1.019231719970703125e+02,-1.806663665771484375e+02,4.030399620532989502e-01,-6.667234802246093750e+01,-1.826865997314453125e+02,-2.342819452285766602e+00,7.562212371826171875e+01,3.135619926452636719e+01
5.226099863648414612e-02,1.000000000000000000e+00,7.736314773559570312e+00,-1.011718082427978516e+01,2.641751289367675781e+00,-2.074214324951171875e+02,-1.019231719970703125e+02,-1.806663665771484375e+02,4.030399620532989502e-01,-6.667234802246093750e+01,-1.826865997314453125e+02,-2.342819452285766602e+00,7.562212371826171875e+01,3.135619926452636719e+01
5.552599951624870300e-02,1.000000000000000000e+00,7.736228466033935547e+00,-1.011718082427978516e+01,2.641751289367675781e+00,-2.074213256835937500e+02,-1.019231719970703125e+02,-1.806663665771484375e+02,4.030399620532989502e-01,-6.667224884033203125e+01,-1.826865997314453125e+02,-2.342891216278076172e+00,7.562197875976562500e+01,3.135619926452636719e+01
5.814699828624725342e-02,1.000000000000000000e+00,7.736228466033935547e+00,-1.011718082427978516e+01,2.641751289367675781e+00,-2.074213256835937500e+02,-1.019231719970703125e+02,-1.806663665771484375e+02,4.030399620532989502e-01,-6.667224884033203125e+01,-1.826865997314453125e+02,-2.342819452285766602e+00,7.562197875976562500e+01,3.135619926452636719e+01
6.311000138521194458e-02,1.000000000000000000e+00,7.734908580780029297e+00,-1.011620807647705078e+01,2.641751289367675781e+00,-2.074213256835937500e+02,-1.019231719970703125e+02,-1.806661682128906250e+02,4.030399620532989502e-01,-6.667224884033203125e+01,-1.826865997314453125e+02,-2.342819452285766602e+00,7.562182617187500000e+01,3.135642242431640625e+01
6.455899775028228760e-02,1.000000000000000000e+00,7.734908580780029297e+00,-1.011620807647705078e+01,2.641751289367675781e+00,-2.074213256835937500e+02,-1.019231719970703125e+02,-1.806661682128906250e+02,4.030399620532989502e-01,-6.667224884033203125e+01,-1.826865997314453125e+02,-2.342819452285766602e+00,7.562182617187500000e+01,3.135642242431640625e+01
6.711699813604354858e-02,1.000000000000000000e+00,7.733071327209472656e+00,-1.011494064331054688e+01,2.641791820526123047e+00,-2.074213256835937500e+02,-1.019230117797851562e+02,-1.806663665771484375e+02,4.030399620532989502e-01,-6.667234802246093750e+01,-1.826867065429687500e+02,-2.342819452285766602e+00,7.562197875976562500e+01,3.135619926452636719e+01
6.838999688625335693e-02,1.000000000000000000e+00,7.733071327209472656e+00,-1.011494064331054688e+01,2.641791820526123047e+00,-2.074213256835937500e+02,-1.019230117797851562e+02,-1.806663665771484375e+02,4.030399620532989502e-01,-6.667234802246093750e+01,-1.826867065429687500e+02,-2.342819452285766602e+00,7.562197875976562500e+01,3.135619926452636719e+01
7.182399928569793701e-02,1.000000000000000000e+00,7.730343341827392578e+00,-1.011292648315429688e+01,2.641852855682373047e+00,-2.074214324951171875e+02,-1.019229049682617188e+02,-1.806660308837890625e+02,4.030399620532989502e-01,-6.667224884033203125e+01,-1.826865997314453125e+02,-2.342819452285766602e+00,7.562197875976562500e+01,3.135619926452636719e+01
7.513300329446792603e-02,1.000000000000000000e+00,7.726697921752929688e+00,-1.011005306243896484e+01,2.641852855682373047e+00,-2.074213256835937500e+02,-1.019223709106445312e+02,-1.806660308837890625e+02,4.030399620532989502e-01,-6.667224884033203125e+01,-1.826865997314453125e+02,-2.342891216278076172e+00,7.562197875976562500e+01,3.135619926452636719e+01
7.652100175619125366e-02,1.000000000000000000e+00,7.726697921752929688e+00,-1.011005306243896484e+01,2.641852855682373047e+00,-2.074213256835937500e+02,-1.019223709106445312e+02,-1.806660308837890625e+02,4.030399620532989502e-01,-6.667224884033203125e+01,-1.826865997314453125e+02,-2.342891216278076172e+00,7.562197875976562500e+01,3.135619926452636719e+01
7.908900082111358643e-02,1.000000000000000000e+00,7.721846580505371094e+00,-1.010607051849365234e+01,2.642076730728149414e+00,-2.074208526611328125e+02,-1.019210968017578125e+02,-1.806656188964843750e+02,4.030399620532989502e-01,-6.667224884033203125e+01,-1.826865997314453125e+02,-2.342747688293457031e+00,7.562197875976562500e+01,3.135619926452636719e+01
8.244799822568893433e-02,1.000000000000000000e+00,7.721846580505371094e+00,-1.010607051849365234e+01,2.642076730728149414e+00,-2.074208526611328125e+02,-1.019210968017578125e+02,-1.806656188964843750e+02,4.030399620532989502e-01,-6.667224884033203125e+01,-1.826865997314453125e+02,-2.342747688293457031e+00,7.562197875976562500e+01,3.135619926452636719e+01
8.376099914312362671e-02,1.000000000000000000e+00,7.715731620788574219e+00,-1.010077381134033203e+01,2.642381668090820312e+00,-2.074195861816406250e+02,-1.019194412231445312e+02,-1.806651458740234375e+02,4.030399620532989502e-01,-6.667224884033203125e+01,-1.826865997314453125e+02,-2.342891216278076172e+00,7.562197875976562500e+01,3.135619926452636719e+01
8.711200207471847534e-02,1.000000000000000000e+00,7.708153724670410156e+00,-1.009357738494873047e+01,2.642971277236938477e+00,-2.074174804687500000e+02,-1.019164047241210938e+02,-1.806632385253906250e+02,4.030399620532989502e-01,-6.667224884033203125e+01,-1.826865997314453125e+02,-2.342819452285766602e+00,7.562197875976562500e+01,3.135619926452636719e+01
8.858600258827209473e-02,1.000000000000000000e+00,7.708153724670410156e+00,-1.009357738494873047e+01,2.642971277236938477e+00,-2.074174804687500000e+02,-1.019164047241210938e+02,-1.806632385253906250e+02,4.030399620532989502e-01,-6.667224884033203125e+01,-1.826865997314453125e+02,-2.342819452285766602e+00,7.562197875976562500e+01,3.135619926452636719e+01
9.109000116586685181e-02,1.000000000000000000e+00,7.698937892913818359e+00,-1.008425426483154297e+01,2.643845558166503906e+00,-2.074142761230468750e+02,-1.019122467041015625e+02,-1.806610260009765625e+02,4.030399620532989502e-01,-6.667224884033203125e+01,-1.826864318847656250e+02,-2.342819452285766602e+00,7.562212371826171875e+01,3.135642242431640625e+01
9.458900243043899536e-02,1.000000000000000000e+00,7.687571048736572266e+00,-1.007246494293212891e+01,2.644923210144042969e+00,-2.074093170166015625e+02,-1.019060592651367188e+02,-1.806580963134765625e+02,4.030399620532989502e-01,-6.667224884033203125e+01,-1.826865997314453125e+02,-2.342819452285766602e+00,7.562197875976562500e+01,3.135642242431640625e+01
9.593799710273742676e-02,1.000000000000000000e+00,7.687571048736572266e+00,-1.007246494293212891e+01,2.644923210144042969e+00,-2.074093170166015625e+02,-1.019060592651367188e+02,-1.806580963134765625e+02,4.030399620532989502e-01,-6.667224884033203125e+01,-1.826865997314453125e+02,-2.342819452285766602e+00,7.562197875976562500e+01,3.135642242431640625e+01
1.004720032215118408e-01,1.000000000000000000e+00,7.673849105834960938e+00,-1.005800342559814453e+01,2.646366596221923828e+00,-2.074027252197265625e+02,-1.018975296020507812e+02,-1.806524047851562500e+02,4.030399620532989502e-01,-6.667224884033203125e+01,-1.826865997314453125e+02,-2.342819452285766602e+00,7.562197875976562500e+01,3.135619926452636719e+01
1.033990010619163513e-01,1.000000000000000000e+00,7.657428264617919922e+00,-1.004105472564697266e+01,2.648338794708251953e+00,-2.073939361572265625e+02,-1.018860626220703125e+02,-1.806428985595703125e+02,4.030399620532989502e-01,-6.667216491699218750e+01,-1.826865997314453125e+02,-2.342819452285766602e+00,7.562182617187500000e+01,3.135619926452636719e+01
1.074469983577728271e-01,1.000000000000000000e+00,7.657428264617919922e+00,-1.004105472564697266e+01,2.648338794708251953e+00,-2.073939361572265625e+02,-1.018860626220703125e+02,-1.806428985595703125e+02,4.030399620532989502e-01,-6.667216491699218750e+01,-1.826865997314453125e+02,-2.342819452285766602e+00,7.562182617187500000e+01,3.135619926452636719e+01
1.114090010523796082e-01,1.000000000000000000e+00,7.638194561004638672e+00,-1.002236175537109375e+01,2.650941371917724609e+00,-2.073826599121093750e+02,-1.018716735839843750e+02,-1.806308288574218750e+02,4.030399620532989502e-01,-6.667224884033203125e+01,-1.826865997314453125e+02,-2.342747688293457031e+00,7.562182617187500000e+01,3.135619926452636719e+01
1.155629977583885193e-01,1.000000000000000000e+00,7.616607189178466797e+00,-1.000199508666992188e+01,2.654011249542236328e+00,-2.073691253662109375e+02,-1.018536453247070312e+02,-1.806161804199218750e+02,4.030399620532989502e-01,-6.667224884033203125e+01,-1.826865997314453125e+02,-2.342819452285766602e+00,7.562212371826171875e+01,3.135619926452636719e+01
1.196620017290115356e-01,1.000000000000000000e+00,7.566858291625976562e+00,-9.957164764404296875e+00,2.661310434341430664e+00,-2.073329925537109375e+02,-1.018035888671875000e+02,-1.805761718750000000e+02,4.030399620532989502e-01,-6.667224884033203125e+01,-1.826867065429687500e+02,-2.342819452285766602e+00,7.562197875976562500e+01,3.135619926452636719e+01
1.234119981527328491e-01,1.000000000000000000e+00,7.566858291625976562e+00,-9.957164764404296875e+00,2.661310434341430664e+00,-2.073329925537109375e+02,-1.018035888671875000e+02,-1.805761718750000000e+02,4.030399620532989502e-01,-6.667224884033203125e+01,-1.826867065429687500e+02,-2.342819452285766602e+00,7.562197875976562500e+01,3.135619926452636719e+01
1.274729967117309570e-01,1.000000000000000000e+00,7.538151264190673828e+00,-9.932476043701171875e+00,2.665661573410034180e+00,-2.073104553222656250e+02,-1.017717514038085938e+02,-1.805505371093750000e+02,4.030399620532989502e-01,-6.667234802246093750e+01,-1.826865997314453125e+02,-2.342819452285766602e+00,7.562182617187500000e+01,3.135619926452636719e+01
1.314239948987960815e-01,1.000000000000000000e+00,7.506832122802734375e+00,-9.906248092651367188e+00,2.670480251312255859e+00,-2.072843170166015625e+02,-1.017369384765625000e+02,-1.805209045410156250e+02,4.030399620532989502e-01,-6.667224884033203125e+01,-1.826867065429687500e+02,-2.342819452285766602e+00,7.562197875976562500e+01,3.135619926452636719e+01
1.354530006647109985e-01,1.000000000000000000e+00,7.473073005676269531e+00,-9.878322601318359375e+00,2.675929069519042969e+00,-2.072538299560546875e+02,-1.016978073120117188e+02,-1.804861755371093750e+02,4.030399620532989502e-01,-6.667216491699218750e+01,-1.826865997314453125e+02,-2.342819452285766602e+00,7.562197875976562500e+01,3.135619926452636719e+01
1.394630074501037598e-01,1.000000000000000000e+00,7.436328411102294922e+00,-9.848676681518554688e+00,2.681926965713500977e+00,-2.072187500000000000e+02,-1.016515808105468750e+02,-1.804470520019531250e+02,4.030399620532989502e-01,-6.667224884033203125e+01,-1.826865997314453125e+02,-2.342747688293457031e+00,7.562212371826171875e+01,3.135619926452636719e+01
1.434119939804077148e-01,1.000000000000000000e+00,7.397057533264160156e+00,-9.817289352416992188e+00,2.688412904739379883e+00,-2.071810913085937500e+02,-1.016006622314453125e+02,-1.804057464599609375e+02,4.030399620532989502e-01,-6.667224884033203125e+01,-1.826865997314453125e+02,-2.342819452285766602e+00,7.562182617187500000e+01,3.135619926452636719e+01
1.474349945783615112e-01,1.000000000000000000e+00,7.355288982391357422e+00,-9.784158706665039062e+00,2.695406913757324219e+00,-2.071419982910156250e+02,-1.015483093261718750e+02,-1.803618774414062500e+02,4.030399620532989502e-01,-6.667234802246093750e+01,-1.826865997314453125e+02,-2.342819452285766602e+00,7.562197875976562500e+01,3.135619926452636719e+01
1.514299958944320679e-01,1.000000000000000000e+00,7.311826705932617188e+00,-9.749467849731445312e+00,2.702767133712768555e+00,-2.070993347167968750e+02,-1.014915237426757812e+02,-1.803136444091796875e+02,4.030399620532989502e-01,-6.667224884033203125e+01,-1.826867065429687500e+02,-2.342819452285766602e+00,7.562197875976562500e+01,3.135619926452636719e+01
1.554780006408691406e-01,1.000000000000000000e+00,7.266384124755859375e+00,-9.713305473327636719e+00,2.710594654083251953e+00,-2.070525512695312500e+02,-1.014294662475585938e+02,-1.802607574462890625e+02,4.030399620532989502e-01,-6.667224884033203125e+01,-1.826865997314453125e+02,-2.342819452285766602e+00,7.562212371826171875e+01,3.135619926452636719e+01
1.594720035791397095e-01,1.000000000000000000e+00,7.219046592712402344e+00,-9.675106048583984375e+00,2.718869686126708984e+00,-2.070042572021484375e+02,-1.013653793334960938e+02,-1.802062988281250000e+02,4.030399620532989502e-01,-6.667224884033203125e+01,-1.826864318847656250e+02,-2.342891216278076172e+00,7.562212371826171875e+01,3.135642242431640625e+01
1.634110063314437866e-01,1.000000000000000000e+00,7.169211864471435547e+00,-9.634462356567382812e+00,2.727429389953613281e+00,-2.069560089111328125e+02,-1.012985763549804688e+02,-1.801519165039062500e+02,4.030399620532989502e-01,-6.667234802246093750e+01,-1.826865997314453125e+02,-2.342747688293457031e+00,7.562197875976562500e+01,3.135619926452636719e+01
1.674440056085586548e-01,1.000000000000000000e+00,7.116993904113769531e+00,-9.591306686401367188e+00,2.736558437347412109e+00,-2.069048614501953125e+02,-1.012310714721679688e+02,-1.800950775146484375e+02,4.030399620532989502e-01,-6.667234802246093750e+01,-1.826867065429687500e+02,-2.342891216278076172e+00,7.562182617187500000e+01,3.135619926452636719e+01
1.715019941329956055e-01,1.000000000000000000e+00,7.062795639038085938e+00,-9.545617103576660156e+00,2.746053457260131836e+00,-2.068523406982421875e+02,-1.011611251831054688e+02,-1.800347900390625000e+02,4.030399620532989502e-01,-6.667224884033203125e+01,-1.826865997314453125e+02,-2.342819452285766602e+00,7.562182617187500000e+01,3.135619926452636719e+01
1.755480021238327026e-01,1.000000000000000000e+00,7.007133007049560547e+00,-9.497981071472167969e+00,2.755792379379272461e+00,-2.067990264892578125e+02,-1.010892028808593750e+02,-1.799751129150390625e+02,4.030399620532989502e-01,-6.667224884033203125e+01,-1.826865997314453125e+02,-2.342891216278076172e+00,7.562212371826171875e+01,3.135619926452636719e+01
1.794829964637756348e-01,1.000000000000000000e+00,6.949805736541748047e+00,-9.449122428894042969e+00,2.765633106231689453e+00,-2.067448883056640625e+02,-1.010161056518554688e+02,-1.799148864746093750e+02,4.030399620532989502e-01,-6.667234802246093750e+01,-1.826865997314453125e+02,-2.342819452285766602e+00,7.562197875976562500e+01,3.135619926452636719e+01
1.836320012807846069e-01,1.000000000000000000e+00,6.891214847564697266e+00,-9.398952484130859375e+00,2.775676965713500977e+00,-2.066909484863281250e+02,-1.009431686401367188e+02,-1.798529052734375000e+02,4.030399620532989502e-01,-6.667224884033203125e+01,-1.826865997314453125e+02,-2.342819452285766602e+00,7.562197875976562500e+01,3.135619926452636719e+01
1.875430047512054443e-01,1.000000000000000000e+00,6.831504344940185547e+00,-9.347808837890625000e+00,2.785862922668457031e+00,-2.066365814208984375e+02,-1.008696975708007812e+02,-1.797918701171875000e+02,4.030399620532989502e-01,-6.667224884033203125e+01,-1.826865997314453125e+02,-2.342819452285766602e+00,7.562197875976562500e+01,3.135598182678222656e+01
1.914270073175430298e-01,1.000000000000000000e+00,6.771048069000244141e+00,-9.295827865600585938e+00,2.796069622039794922e+00,-2.065813751220703125e+02,-1.007957992553710938e+02,-1.797309112548828125e+02,4.030399620532989502e-01,-6.667234802246093750e+01,-1.826864318847656250e+02,-2.342819452285766602e+00,7.562197875976562500e+01,3.135619926452636719e+01
1.954489946365356445e-01,1.000000000000000000e+00,6.709816455841064453e+00,-9.243327140808105469e+00,2.806276321411132812e+00,-2.065269165039062500e+02,-1.007209472656250000e+02,-1.796678466796875000e+02,4.030399620532989502e-01,-6.667224884033203125e+01,-1.826865997314453125e+02,-2.342819452285766602e+00,7.562212371826171875e+01,3.135619926452636719e+01
1.996960043907165527e-01,1.000000000000000000e+00,6.647752285003662109e+00,-9.190191268920898438e+00,2.816381216049194336e+00,-2.064717712402343750e+02,-1.006466751098632812e+02,-1.796060485839843750e+02,4.030399620532989502e-01,-6.667224884033203125e+01,-1.826865997314453125e+02,-2.342819452285766602e+00,7.562197875976562500e+01,3.135598182678222656e+01
2.034209966659545898e-01,1.000000000000000000e+00,6.585056781768798828e+00,-9.136604309082031250e+00,2.826709747314453125e+00,-2.064168853759765625e+02,-1.005721969604492188e+02,-1.795442047119140625e+02,4.030399620532989502e-01,-6.667216491699218750e+01,-1.826865997314453125e+02,-2.342819452285766602e+00,7.562197875976562500e+01,3.135619926452636719e+01
2.083790004253387451e-01,1.000000000000000000e+00,6.522016048431396484e+00,-9.082586288452148438e+00,2.837261915206909180e+00,-2.063621063232421875e+02,-1.004975509643554688e+02,-1.794816131591796875e+02,4.030399620532989502e-01,-6.667224884033203125e+01,-1.826865997314453125e+02,-2.342747688293457031e+00,7.562182617187500000e+01,3.135619926452636719e+01
2.114959955215454102e-01,1.000000000000000000e+00,6.458746433258056641e+00,-9.028591156005859375e+00,2.847834348678588867e+00,-2.063065948486328125e+02,-1.004226913452148438e+02,-1.794198303222656250e+02,4.030399620532989502e-01,-6.667224884033203125e+01,-1.826865997314453125e+02,-2.342819452285766602e+00,7.562197875976562500e+01,3.135598182678222656e+01
2.154960036277770996e-01,1.000000000000000000e+00,6.395505428314208984e+00,-8.974574089050292969e+00,2.858447551727294922e+00,-2.062518463134765625e+02,-1.003487472534179688e+02,-1.793576354980468750e+02,4.030399620532989502e-01,-6.667224884033203125e+01,-1.826865997314453125e+02,-2.342891216278076172e+00,7.562197875976562500e+01,3.135619926452636719e+01
2.194290012121200562e-01,1.000000000000000000e+00,6.332350254058837891e+00,-8.920600891113281250e+00,2.868715047836303711e+00,-2.061965942382812500e+02,-1.002739486694335938e+02,-1.792946472167968750e+02,4.030399620532989502e-01,-6.667224884033203125e+01,-1.826865997314453125e+02,-2.342819452285766602e+00,7.562197875976562500e+01,3.135598182678222656e+01
2.238519936800003052e-01,1.000000000000000000e+00,6.269195556640625000e+00,-8.866651535034179688e+00,2.879023313522338867e+00,-2.061414489746093750e+02,-1.001991958618164062e+02,-1.792329254150390625e+02,4.030399620532989502e-01,-6.667216491699218750e+01,-1.826864318847656250e+02,-2.342819452285766602e+00,7.562197875976562500e+01,3.135619926452636719e+01
2.274180054664611816e-01,1.000000000000000000e+00,6.206068992614746094e+00,-8.812702178955078125e+00,2.889555215835571289e+00,-2.060868377685546875e+02,-1.001239624023437500e+02,-1.791708068847656250e+02,4.030399620532989502e-01,-6.667224884033203125e+01,-1.826865997314453125e+02,-2.342891216278076172e+00,7.562182617187500000e+01,3.135619926452636719e+01
2.323739975690841675e-01,1.000000000000000000e+00,6.143086433410644531e+00,-8.758639335632324219e+00,2.900168657302856445e+00,-2.060313568115234375e+02,-1.000502319335937500e+02,-1.791078796386718750e+02,4.030399620532989502e-01,-6.667224884033203125e+01,-1.826865997314453125e+02,-2.342819452285766602e+00,7.562197875976562500e+01,3.135619926452636719e+01
2.354869991540908813e-01,1.000000000000000000e+00,6.079959869384765625e+00,-8.704779624938964844e+00,2.910862922668457031e+00,-2.059767456054687500e+02,-9.997553253173828125e+01,-1.790457458496093750e+02,4.030399620532989502e-01,-6.667234802246093750e+01,-1.826865997314453125e+02,-2.342747688293457031e+00,7.562197875976562500e+01,3.135619926452636719e+01
2.394270002841949463e-01,1.000000000000000000e+00,6.017235755920410156e+00,-8.651056289672851562e+00,2.921272754669189453e+00,-2.059212646484375000e+02,-9.990100097656250000e+01,-1.789842376708984375e+02,4.030399620532989502e-01,-6.667224884033203125e+01,-1.826865997314453125e+02,-2.342891216278076172e+00,7.562197875976562500e+01,3.135619926452636719e+01
2.434290051460266113e-01,1.000000000000000000e+00,5.954224109649658203e+00,-8.597423553466796875e+00,2.931479454040527344e+00,-2.058662414550781250e+02,-9.982544708251953125e+01,-1.789217834472656250e+02,4.030399620532989502e-01,-6.667216491699218750e+01,-1.826865997314453125e+02,-2.342819452285766602e+00,7.562197875976562500e+01,3.135619926452636719e+01
2.482440024614334106e-01,1.000000000000000000e+00,5.891212940216064453e+00,-8.543496131896972656e+00,2.941889286041259766e+00,-2.058115539550781250e+02,-9.975149536132812500e+01,-1.788601989746093750e+02,4.030399620532989502e-01,-6.667224884033203125e+01,-1.826865997314453125e+02,-2.342819452285766602e+00,7.562212371826171875e+01,3.135619926452636719e+01
2.515740096569061279e-01,1.000000000000000000e+00,5.828373908996582031e+00,-8.489795684814453125e+00,2.952543020248413086e+00,-2.057561950683593750e+02,-9.967691040039062500e+01,-1.787981567382812500e+02,4.030399620532989502e-01,-6.667224884033203125e+01,-1.826865997314453125e+02,-2.342819452285766602e+00,7.562212371826171875e+01,3.135642242431640625e+01
2.564609944820404053e-01,1.000000000000000000e+00,5.765448093414306641e+00,-8.435958862304687500e+00,2.963136196136474609e+00,-2.057012634277343750e+02,-9.960243225097656250e+01,-1.787353515625000000e+02,4.030399620532989502e-01,-6.667224884033203125e+01,-1.826865997314453125e+02,-2.342747688293457031e+00,7.562197875976562500e+01,3.135619926452636719e+01
2.595170140266418457e-01,1.000000000000000000e+00,5.702781200408935547e+00,-8.382349014282226562e+00,2.973627328872680664e+00,-2.056463165283203125e+02,-9.952682495117187500e+01,-1.786740417480468750e+02,4.030399620532989502e-01,-6.667224884033203125e+01,-1.826865997314453125e+02,-2.342891216278076172e+00,7.562212371826171875e+01,3.135619926452636719e+01
2.635500133037567139e-01,1.000000000000000000e+00,5.639913558959960938e+00,-8.328805923461914062e+00,2.983834028244018555e+00,-2.055906372070312500e+02,-9.945276641845703125e+01,-1.786124725341796875e+02,4.030399620532989502e-01,-6.667234802246093750e+01,-1.826865997314453125e+02,-2.342747688293457031e+00,7.562182617187500000e+01,3.135619926452636719e+01
2.677029967308044434e-01,1.000000000000000000e+00,5.577275276184082031e+00,-8.275218963623046875e+00,2.994081020355224609e+00,-2.055363311767578125e+02,-9.937860107421875000e+01,-1.785500183105468750e+02,4.030399620532989502e-01,-6.667224884033203125e+01,-1.826865997314453125e+02,-2.342819452285766602e+00,7.562197875976562500e+01,3.135642242431640625e+01
2.722789943218231201e-01,1.000000000000000000e+00,5.514665126800537109e+00,-8.221766471862792969e+00,3.004572391510009766e+00,-2.054811859130859375e+02,-9.930358886718750000e+01,-1.784884948730468750e+02,4.030399620532989502e-01,-6.667234802246093750e+01,-1.826865997314453125e+02,-2.342819452285766602e+00,7.562212371826171875e+01,3.135619926452636719e+01
2.755120098590850830e-01,1.000000000000000000e+00,5.451826095581054688e+00,-8.168156623840332031e+00,3.015083789825439453e+00,-2.054258270263671875e+02,-9.922856903076171875e+01,-1.784265747070312500e+02,4.030399620532989502e-01,-6.667224884033203125e+01,-1.826865997314453125e+02,-2.342819452285766602e+00,7.562212371826171875e+01,3.135619926452636719e+01
2.797020077705383301e-01,1.000000000000000000e+00,5.388901233673095703e+00,-8.114794731140136719e+00,3.025514125823974609e+00,-2.053710479736328125e+02,-9.915435791015625000e+01,-1.783639221191406250e+02,4.030399620532989502e-01,-6.667216491699218750e+01,-1.826865997314453125e+02,-2.342891216278076172e+00,7.562182617187500000e+01,3.135619926452636719e+01
2.836079895496368408e-01,1.000000000000000000e+00,5.326033115386962891e+00,-8.061456680297851562e+00,3.035741090774536133e+00,-2.053154754638671875e+02,-9.908024597167968750e+01,-1.783025360107421875e+02,4.030399620532989502e-01,-6.667224884033203125e+01,-1.826865997314453125e+02,-2.342747688293457031e+00,7.562212371826171875e+01,3.135642242431640625e+01
2.876240015029907227e-01,1.000000000000000000e+00,5.263222694396972656e+00,-8.007982254028320312e+00,3.045886278152465820e+00,-2.052605285644531250e+02,-9.900550079345703125e+01,-1.782409057617187500e+02,4.030399620532989502e-01,-6.667224884033203125e+01,-1.826864318847656250e+02,-2.342747688293457031e+00,7.562182617187500000e+01,3.135619926452636719e+01
2.917590141296386719e-01,1.000000000000000000e+00,5.200268268585205078e+00,-7.954529762268066406e+00,3.056357383728027344e+00,-2.052059020996093750e+02,-9.893059539794921875e+01,-1.781778411865234375e+02,4.030399620532989502e-01,-6.667224884033203125e+01,-1.826865997314453125e+02,-2.342819452285766602e+00,7.562197875976562500e+01,3.135619926452636719e+01
2.964589893817901611e-01,1.000000000000000000e+00,5.137285709381103516e+00,-7.901010036468505859e+00,3.066889286041259766e+00,-2.051504974365234375e+02,-9.885626220703125000e+01,-1.781164550781250000e+02,4.030399620532989502e-01,-6.667224884033203125e+01,-1.826865997314453125e+02,-2.342747688293457031e+00,7.562197875976562500e+01,3.135642242431640625e+01
2.999179959297180176e-01,1.000000000000000000e+00,5.074446201324462891e+00,-7.847626209259033203e+00,3.077380418777465820e+00,-2.050957641601562500e+02,-9.878237152099609375e+01,-1.780545349121093750e+02,4.030399620532989502e-01,-6.667224884033203125e+01,-1.826865997314453125e+02,-2.342819452285766602e+00,7.562197875976562500e+01,3.135619926452636719e+01
3.051559925079345703e-01,1.000000000000000000e+00,5.011377811431884766e+00,-7.794151782989501953e+00,3.087810754776000977e+00,-2.050404663085937500e+02,-9.870751953125000000e+01,-1.779918060302734375e+02,4.030399620532989502e-01,-6.667234802246093750e+01,-1.826865997314453125e+02,-2.342819452285766602e+00,7.562182617187500000e+01,3.135619926452636719e+01
3.078050017356872559e-01,1.000000000000000000e+00,4.948050498962402344e+00,-7.740315437316894531e+00,3.098078250885009766e+00,-2.049856262207031250e+02,-9.863292694091796875e+01,-1.779302215576171875e+02,4.030399620532989502e-01,-6.667234802246093750e+01,-1.826867065429687500e+02,-2.342891216278076172e+00,7.562197875976562500e+01,3.135642242431640625e+01
3.117899894714355469e-01,1.000000000000000000e+00,4.884895324707031250e+00,-7.686546325683593750e+00,3.108610153198242188e+00,-2.049311065673828125e+02,-9.855860900878906250e+01,-1.778688507080078125e+02,4.030399620532989502e-01,-6.667224884033203125e+01,-1.826865997314453125e+02,-2.342819452285766602e+00,7.562197875976562500e+01,3.135619926452636719e+01
3.159959912300109863e-01,1.000000000000000000e+00,4.821797847747802734e+00,-7.632528781890869141e+00,3.119182586669921875e+00,-2.048756408691406250e+02,-9.848475646972656250e+01,-1.778064575195312500e+02,4.030399620532989502e-01,-6.667224884033203125e+01,-1.826865997314453125e+02,-2.342819452285766602e+00,7.562197875976562500e+01,3.135619926452636719e+01
3.206430077552795410e-01,1.000000000000000000e+00,4.758614063262939453e+00,-7.578624248504638672e+00,3.129775524139404297e+00,-2.048208618164062500e+02,-9.840990447998046875e+01,-1.777445526123046875e+02,4.030399620532989502e-01,-6.667224884033203125e+01,-1.826864318847656250e+02,-2.342819452285766602e+00,7.562182617187500000e+01,3.135642242431640625e+01
3.238799870014190674e-01,1.000000000000000000e+00,4.695286750793457031e+00,-7.524674415588378906e+00,3.140266895294189453e+00,-2.047658233642578125e+02,-9.833563232421875000e+01,-1.776827087402343750e+02,4.030399620532989502e-01,-6.667224884033203125e+01,-1.826865997314453125e+02,-2.342891216278076172e+00,7.562197875976562500e+01,3.135598182678222656e+01
3.279460072517395020e-01,1.000000000000000000e+00,4.632074832916259766e+00,-7.470951557159423828e+00,3.150595426559448242e+00,-2.047106628417968750e+02,-9.826120758056640625e+01,-1.776204528808593750e+02,4.030399620532989502e-01,-6.667234802246093750e+01,-1.826865997314453125e+02,-2.342819452285766602e+00,7.562197875976562500e+01,3.135619926452636719e+01
3.324669897556304932e-01,1.000000000000000000e+00,4.569005489349365234e+00,-7.417115211486816406e+00,3.160984992980957031e+00,-2.046562500000000000e+02,-9.818725585937500000e+01,-1.775592803955078125e+02,4.030399620532989502e-01,-6.667224884033203125e+01,-1.826865997314453125e+02,-2.342819452285766602e+00,7.562197875976562500e+01,3.135619926452636719e+01
3.360530138015747070e-01,1.000000000000000000e+00,4.505850791931152344e+00,-7.363142013549804688e+00,3.171638727188110352e+00,-2.046011657714843750e+02,-9.811267089843750000e+01,-1.774976959228515625e+02,4.030399620532989502e-01,-6.667224884033203125e+01,-1.826865997314453125e+02,-2.342747688293457031e+00,7.562197875976562500e+01,3.135598182678222656e+01
3.401690125465393066e-01,1.000000000000000000e+00,4.442695617675781250e+00,-7.309079647064208984e+00,3.182129859924316406e+00,-2.045461578369140625e+02,-9.803871917724609375e+01,-1.774349670410156250e+02,4.030399620532989502e-01,-6.667234802246093750e+01,-1.826865997314453125e+02,-2.342819452285766602e+00,7.562197875976562500e+01,3.135619926452636719e+01
3.449209928512573242e-01,1.000000000000000000e+00,4.379511833190917969e+00,-7.255198001861572266e+00,3.192763328552246094e+00,-2.044911804199218750e+02,-9.796412658691406250e+01,-1.773743286132812500e+02,4.030399620532989502e-01,-6.667224884033203125e+01,-1.826865997314453125e+02,-2.342819452285766602e+00,7.562197875976562500e+01,3.135619926452636719e+01
3.484340012073516846e-01,1.000000000000000000e+00,4.316557884216308594e+00,-7.201271057128906250e+00,3.203213930130004883e+00,-2.044359283447265625e+02,-9.788996124267578125e+01,-1.773126983642578125e+02,4.030399620532989502e-01,-6.667234802246093750e+01,-1.826865997314453125e+02,-2.342819452285766602e+00,7.562197875976562500e+01,3.135619926452636719e+01
3.520190119743347168e-01,1.000000000000000000e+00,4.253603458404541016e+00,-7.147479057312011719e+00,3.213644266128540039e+00,-2.043816070556640625e+02,-9.781521606445312500e+01,-1.772500152587890625e+02,4.030399620532989502e-01,-6.667234802246093750e+01,-1.826865997314453125e+02,-2.342819452285766602e+00,7.562197875976562500e+01,3.135619926452636719e+01
3.564760088920593262e-01,1.000000000000000000e+00,4.190535068511962891e+00,-7.093688011169433594e+00,3.224236965179443359e+00,-2.043265228271484375e+02,-9.774137115478515625e+01,-1.771887359619140625e+02,4.030399620532989502e-01,-6.667234802246093750e+01,-1.826865997314453125e+02,-2.342819452285766602e+00,7.562197875976562500e+01,3.135619926452636719e+01
3.601729869842529297e-01,1.000000000000000000e+00,4.127753257751464844e+00,-7.039760589599609375e+00,3.234789133071899414e+00,-2.042716369628906250e+02,-9.766768646240234375e+01,-1.771271514892578125e+02,4.030399620532989502e-01,-6.667234802246093750e+01,-1.826865997314453125e+02,-2.342819452285766602e+00,7.562197875976562500e+01,3.135619926452636719e+01
3.643330037593841553e-01,1.000000000000000000e+00,4.064827919006347656e+00,-6.985652923583984375e+00,3.245422601699829102e+00,-2.042166290283203125e+02,-9.759310150146484375e+01,-1.770643463134765625e+02,4.030399620532989502e-01,-6.667234802246093750e+01,-1.826865997314453125e+02,-2.342747688293457031e+00,7.562197875976562500e+01,3.135619926452636719e+01
3.690730035305023193e-01,1.000000000000000000e+00,4.001959800720214844e+00,-6.931521892547607422e+00,3.255852937698364258e+00,-2.041613311767578125e+02,-9.751824188232421875e+01,-1.770031127929687500e+02,4.030399620532989502e-01,-6.667224884033203125e+01,-1.826865997314453125e+02,-2.342819452285766602e+00,7.562197875976562500e+01,3.135619926452636719e+01
3.723219931125640869e-01,1.000000000000000000e+00,3.939034700393676758e+00,-6.877866744995117188e+00,3.266161203384399414e+00,-2.041069641113281250e+02,-9.744423675537109375e+01,-1.769412536621093750e+02,4.030399620532989502e-01,-6.667224884033203125e+01,-1.826865997314453125e+02,-2.342819452285766602e+00,7.562197875976562500e+01,3.135619926452636719e+01
3.776949942111968994e-01,1.000000000000000000e+00,3.876137971878051758e+00,-6.824029922485351562e+00,3.276632070541381836e+00,-2.040519256591796875e+02,-9.737039947509765625e+01,-1.768787384033203125e+02,4.030399620532989502e-01,-6.667216491699218750e+01,-1.826865997314453125e+02,-2.342819452285766602e+00,7.562197875976562500e+01,3.135619926452636719e+01
3.804700076580047607e-01,1.000000000000000000e+00,3.813327550888061523e+00,-6.770419597625732422e+00,3.287245273590087891e+00,-2.039971466064453125e+02,-9.729629516601562500e+01,-1.768174896240234375e+02,4.030399620532989502e-01,-6.667224884033203125e+01,-1.826867065429687500e+02,-2.342819452285766602e+00,7.562197875976562500e+01,3.135619926452636719e+01
3.844560086727142334e-01,1.000000000000000000e+00,3.750488042831420898e+00,-6.716696262359619141e+00,3.297878742218017578e+00,-2.039427795410156250e+02,-9.722154235839843750e+01,-1.767557067871093750e+02,4.030399620532989502e-01,-6.667224884033203125e+01,-1.826865997314453125e+02,-2.342891216278076172e+00,7.562182617187500000e+01,3.135619926452636719e+01
3.886100053787231445e-01,1.000000000000000000e+00,3.687620401382446289e+00,-6.662881851196289062e+00,3.308309078216552734e+00,-2.038871612548828125e+02,-9.714732360839843750e+01,-1.766933898925781250e+02,4.030399620532989502e-01,-6.667224884033203125e+01,-1.826865997314453125e+02,-2.342819452285766602e+00,7.562197875976562500e+01,3.135619926452636719e+01
3.925530016422271729e-01,1.000000000000000000e+00,3.625096797943115234e+00,-6.609272003173828125e+00,3.318596839904785156e+00,-2.038323822021484375e+02,-9.707316589355468750e+01,-1.766320800781250000e+02,4.030399620532989502e-01,-6.667224884033203125e+01,-1.826865997314453125e+02,-2.342819452285766602e+00,7.562197875976562500e+01,3.135619926452636719e+01
3.973860144615173340e-01,1.000000000000000000e+00,3.562372446060180664e+00,-6.555684566497802734e+00,3.329047441482543945e+00,-2.037779693603515625e+02,-9.699884033203125000e+01,-1.765704345703125000e+02,4.030399620532989502e-01,-6.667224884033203125e+01,-1.826865997314453125e+02,-2.342891216278076172e+00,7.562197875976562500e+01,3.135619926452636719e+01
4.006280004978179932e-01,1.000000000000000000e+00,3.499590635299682617e+00,-6.502209663391113281e+00,3.339619874954223633e+00,-2.037227630615234375e+02,-9.692414093017578125e+01,-1.765078430175781250e+02,4.030399620532989502e-01,-6.667224884033203125e+01,-1.826865997314453125e+02,-2.342819452285766602e+00,7.562212371826171875e+01,3.135619926452636719e+01
4.044130146503448486e-01,1.000000000000000000e+00,3.436694145202636719e+00,-6.448689937591552734e+00,3.350233316421508789e+00,-2.036679840087890625e+02,-9.685018920898437500e+01,-1.764463958740234375e+02,4.030399620532989502e-01,-6.667224884033203125e+01,-1.826865997314453125e+02,-2.342819452285766602e+00,7.562197875976562500e+01,3.135619926452636719e+01
4.085449874401092529e-01,1.000000000000000000e+00,3.374084472656250000e+00,-6.395215511322021484e+00,3.360643148422241211e+00,-2.036127319335937500e+02,-9.677587127685546875e+01,-1.763848876953125000e+02,4.030399620532989502e-01,-6.667224884033203125e+01,-1.826865997314453125e+02,-2.342891216278076172e+00,7.562197875976562500e+01,3.135619926452636719e+01
4.126009941101074219e-01,1.000000000000000000e+00,3.310986757278442383e+00,-6.341695785522460938e+00,3.370768308639526367e+00,-2.035578002929687500e+02,-9.670138549804687500e+01,-1.763227081298828125e+02,4.030399620532989502e-01,-6.667224884033203125e+01,-1.826864318847656250e+02,-2.342747688293457031e+00,7.562197875976562500e+01,3.135619926452636719e+01
4.153589904308319092e-01,1.000000000000000000e+00,3.248147487640380859e+00,-6.288017272949218750e+00,3.381096839904785156e+00,-2.035036468505859375e+02,-9.662637329101562500e+01,-1.762615356445312500e+02,4.030399620532989502e-01,-6.667234802246093750e+01,-1.826865997314453125e+02,-2.342747688293457031e+00,7.562182617187500000e+01,3.135619926452636719e+01
4.193730056285858154e-01,1.000000000000000000e+00,3.185050010681152344e+00,-6.234180927276611328e+00,3.391588211059570312e+00,-2.034485473632812500e+02,-9.655290222167968750e+01,-1.761996765136718750e+02,4.030399620532989502e-01,-6.667234802246093750e+01,-1.826865997314453125e+02,-2.342747688293457031e+00,7.562197875976562500e+01,3.135619926452636719e+01
4.247339963912963867e-01,1.000000000000000000e+00,3.122009992599487305e+00,-6.180344581604003906e+00,3.402221679687500000e+00,-2.033938751220703125e+02,-9.647852325439453125e+01,-1.761370086669921875e+02,4.030399620532989502e-01,-6.667234802246093750e+01,-1.826865997314453125e+02,-2.342819452285766602e+00,7.562197875976562500e+01,3.135619926452636719e+01
4.273630082607269287e-01,1.000000000000000000e+00,3.058883666992187500e+00,-6.126507759094238281e+00,3.412814378738403320e+00,-2.033388366699218750e+02,-9.640415191650390625e+01,-1.760759124755859375e+02,4.030399620532989502e-01,-6.667216491699218750e+01,-1.826865997314453125e+02,-2.342819452285766602e+00,7.562212371826171875e+01,3.135619926452636719e+01
4.313560128211975098e-01,1.000000000000000000e+00,2.995728731155395508e+00,-6.072875022888183594e+00,3.423163414001464844e+00,-2.032837219238281250e+02,-9.632934570312500000e+01,-1.760142059326171875e+02,4.030399620532989502e-01,-6.667216491699218750e+01,-1.826865997314453125e+02,-2.342891216278076172e+00,7.562197875976562500e+01,3.135619926452636719e+01
4.354209899902343750e-01,1.000000000000000000e+00,2.932659864425659180e+00,-6.019151210784912109e+00,3.433512210845947266e+00,-2.032293243408203125e+02,-9.625592803955078125e+01,-1.759512023925781250e+02,4.030399620532989502e-01,-6.667224884033203125e+01,-1.826865997314453125e+02,-2.342819452285766602e+00,7.562197875976562500e+01,3.135642242431640625e+01
4.393610060214996338e-01,1.000000000000000000e+00,2.869562149047851562e+00,-5.965224266052246094e+00,3.444023609161376953e+00,-2.031745452880859375e+02,-9.618155670166015625e+01,-1.758898315429687500e+02,4.030399620532989502e-01,-6.667224884033203125e+01,-1.826867065429687500e+02,-2.342891216278076172e+00,7.562197875976562500e+01,3.135619926452636719e+01
4.434309899806976318e-01,1.000000000000000000e+00,2.806205987930297852e+00,-5.911365509033203125e+00,3.454677820205688477e+00,-2.031195373535156250e+02,-9.610728454589843750e+01,-1.758283843994140625e+02,4.030399620532989502e-01,-6.667224884033203125e+01,-1.826865997314453125e+02,-2.342747688293457031e+00,7.562197875976562500e+01,3.135619926452636719e+01
4.474309980869293213e-01,1.000000000000000000e+00,2.743079900741577148e+00,-5.857505798339843750e+00,3.465392589569091797e+00,-2.030650787353515625e+02,-9.603216552734375000e+01,-1.757655181884765625e+02,4.030399620532989502e-01,-6.667216491699218750e+01,-1.826867065429687500e+02,-2.342891216278076172e+00,7.562212371826171875e+01,3.135619926452636719e+01
4.514929950237274170e-01,1.000000000000000000e+00,2.679924964904785156e+00,-5.803760051727294922e+00,3.475822687149047852e+00,-2.030100402832031250e+02,-9.595832061767578125e+01,-1.757043457031250000e+02,4.030399620532989502e-01,-6.667216491699218750e+01,-1.826865997314453125e+02,-2.342819452285766602e+00,7.562197875976562500e+01,3.135619926452636719e+01
4.554130136966705322e-01,1.000000000000000000e+00,2.616683721542358398e+00,-5.749900341033935547e+00,3.486110687255859375e+00,-2.029554138183593750e+02,-9.588459014892578125e+01,-1.756425628662109375e+02,4.030399620532989502e-01,-6.667224884033203125e+01,-1.826865997314453125e+02,-2.342819452285766602e+00,7.562197875976562500e+01,3.135619926452636719e+01
4.593540132045745850e-01,1.000000000000000000e+00,2.553442716598510742e+00,-5.696222305297851562e+00,3.496500253677368164e+00,-2.029007873535156250e+02,-9.580983734130859375e+01,-1.755802459716796875e+02,4.030399620532989502e-01,-6.667224884033203125e+01,-1.826867065429687500e+02,-2.342747688293457031e+00,7.562212371826171875e+01,3.135619926452636719e+01
4.634369909763336182e-01,1.000000000000000000e+00,2.490316390991210938e+00,-5.642634868621826172e+00,3.507072687149047852e+00,-2.028455810546875000e+02,-9.573503112792968750e+01,-1.755191497802734375e+02,4.030399620532989502e-01,-6.667224884033203125e+01,-1.826867065429687500e+02,-2.342819452285766602e+00,7.562197875976562500e+01,3.135619926452636719e+01
4.673640131950378418e-01,1.000000000000000000e+00,2.427218675613403320e+00,-5.588616847991943359e+00,3.517726659774780273e+00,-2.027909088134765625e+02,-9.566119384765625000e+01,-1.754567413330078125e+02,4.030399620532989502e-01,-6.667224884033203125e+01,-1.826865997314453125e+02,-2.342819452285766602e+00,7.562197875976562500e+01,3.135619926452636719e+01
4.713599979877471924e-01,1.000000000000000000e+00,2.364034891128540039e+00,-5.534758090972900391e+00,3.528258562088012695e+00,-2.027358703613281250e+02,-9.558734130859375000e+01,-1.753945617675781250e+02,4.030399620532989502e-01,-6.667234802246093750e+01,-1.826865997314453125e+02,-2.342819452285766602e+00,7.562212371826171875e+01,3.135619926452636719e+01
4.754329919815063477e-01,1.000000000000000000e+00,2.300851583480834961e+00,-5.480762958526611328e+00,3.538526058197021484e+00,-2.026812438964843750e+02,-9.551291656494140625e+01,-1.753339385986328125e+02,4.030399620532989502e-01,-6.667224884033203125e+01,-1.826865997314453125e+02,-2.342819452285766602e+00,7.562197875976562500e+01,3.135619926452636719e+01
4.793699979782104492e-01,1.000000000000000000e+00,2.237926006317138672e+00,-5.426858425140380859e+00,3.548976659774780273e+00,-2.026265106201171875e+02,-9.543833160400390625e+01,-1.752724914550781250e+02,4.030399620532989502e-01,-6.667224884033203125e+01,-1.826865997314453125e+02,-2.342819452285766602e+00,7.562197875976562500e+01,3.135619926452636719e+01
4.833520054817199707e-01,1.000000000000000000e+00,2.174885988235473633e+00,-5.373157978057861328e+00,3.559569358825683594e+00,-2.025714721679687500e+02,-9.536427307128906250e+01,-1.752100982666015625e+02,4.030399620532989502e-01,-6.667224884033203125e+01,-1.826865997314453125e+02,-2.342819452285766602e+00,7.562197875976562500e+01,3.135642242431640625e+01
4.874579906463623047e-01,1.000000000000000000e+00,2.111845731735229492e+00,-5.319252967834472656e+00,3.570080995559692383e+00,-2.025171661376953125e+02,-9.529053497314453125e+01,-1.751489410400390625e+02,4.030399620532989502e-01,-6.667224884033203125e+01,-1.826865997314453125e+02,-2.342819452285766602e+00,7.562197875976562500e+01,3.135619926452636719e+01
4.913980066776275635e-01,1.000000000000000000e+00,2.048748254776000977e+00,-5.265801429748535156e+00,3.580693960189819336e+00,-2.024620208740234375e+02,-9.521588897705078125e+01,-1.750868682861328125e+02,4.030399620532989502e-01,-6.667234802246093750e+01,-1.826865997314453125e+02,-2.342819452285766602e+00,7.562197875976562500e+01,3.135619926452636719e+01
4.953700006008148193e-01,1.000000000000000000e+00,1.985736608505249023e+00,-5.211987495422363281e+00,3.591002225875854492e+00,-2.024069824218750000e+02,-9.514162445068359375e+01,-1.750249023437500000e+02,4.030399620532989502e-01,-6.667224884033203125e+01,-1.826865997314453125e+02,-2.342819452285766602e+00,7.562197875976562500e+01,3.135619926452636719e+01
4.993729889392852783e-01,1.000000000000000000e+00,1.922868847846984863e+00,-5.158173561096191406e+00,3.601269721984863281e+00,-2.023525543212890625e+02,-9.506746673583984375e+01,-1.749636535644531250e+02,4.030399620532989502e-01,-6.667224884033203125e+01,-1.826867065429687500e+02,-2.342891216278076172e+00,7.562197875976562500e+01,3.135619926452636719e+01
5.034379959106445312e-01,1.000000000000000000e+00,1.860115647315979004e+00,-5.104653835296630859e+00,3.611659288406372070e+00,-2.022974090576171875e+02,-9.499366760253906250e+01,-1.749022827148437500e+02,4.030399620532989502e-01,-6.667224884033203125e+01,-1.826865997314453125e+02,-2.342819452285766602e+00,7.562182617187500000e+01,3.135619926452636719e+01
5.073580145835876465e-01,1.000000000000000000e+00,1.797448635101318359e+00,-5.051066398620605469e+00,3.622272729873657227e+00,-2.022428894042968750e+02,-9.491929626464843750e+01,-1.748394775390625000e+02,4.030399620532989502e-01,-6.667224884033203125e+01,-1.826867065429687500e+02,-2.342819452285766602e+00,7.562197875976562500e+01,3.135619926452636719e+01
5.113610029220581055e-01,1.000000000000000000e+00,1.734638214111328125e+00,-4.997546195983886719e+00,3.632804393768310547e+00,-2.021880493164062500e+02,-9.484502410888671875e+01,-1.747779693603515625e+02,4.030399620532989502e-01,-6.667224884033203125e+01,-1.826865997314453125e+02,-2.342819452285766602e+00,7.562197875976562500e+01,3.135619926452636719e+01
5.153499841690063477e-01,1.000000000000000000e+00,1.672057271003723145e+00,-4.944117069244384766e+00,3.643193960189819336e+00,-2.021325378417968750e+02,-9.477075195312500000e+01,-1.747160491943359375e+02,4.030399620532989502e-01,-6.667224884033203125e+01,-1.826865997314453125e+02,-2.342747688293457031e+00,7.562197875976562500e+01,3.135619926452636719e+01
5.201129913330078125e-01,1.000000000000000000e+00,1.609275460243225098e+00,-4.890642642974853516e+00,3.653542995452880859e+00,-2.020786437988281250e+02,-9.469696807861328125e+01,-1.746536560058593750e+02,4.030399620532989502e-01,-6.667216491699218750e+01,-1.826865997314453125e+02,-2.342819452285766602e+00,7.562197875976562500e+01,3.135619926452636719e+01
5.253090262413024902e-01,1.000000000000000000e+00,1.546752095222473145e+00,-4.837100505828857422e+00,3.663953065872192383e+00,-2.020235595703125000e+02,-9.462253570556640625e+01,-1.745925598144531250e+02,4.030399620532989502e-01,-6.667224884033203125e+01,-1.826865997314453125e+02,-2.342819452285766602e+00,7.562182617187500000e+01,3.135619926452636719e+01
5.273799896240234375e-01,1.000000000000000000e+00,1.484085083007812500e+00,-4.783376693725585938e+00,3.674464225769042969e+00,-2.019685058593750000e+02,-9.454869842529296875e+01,-1.745309753417968750e+02,4.030399620532989502e-01,-6.667224884033203125e+01,-1.826865997314453125e+02,-2.342819452285766602e+00,7.562197875976562500e+01,3.135619926452636719e+01
5.314139723777770996e-01,1.000000000000000000e+00,1.421389341354370117e+00,-4.729834556579589844e+00,3.685016393661499023e+00,-2.019139862060546875e+02,-9.447442626953125000e+01,-1.744690704345703125e+02,4.030399620532989502e-01,-6.667224884033203125e+01,-1.826865997314453125e+02,-2.342747688293457031e+00,7.562197875976562500e+01,3.135619926452636719e+01
5.387610197067260742e-01,1.000000000000000000e+00,1.296026706695556641e+00,-4.622500419616699219e+00,3.705592393875122070e+00,-2.018040618896484375e+02,-9.432614898681640625e+01,-1.743459014892578125e+02,4.030399620532989502e-01,-6.667224884033203125e+01,-1.826865997314453125e+02,-2.342747688293457031e+00,7.562197875976562500e+01,3.135619926452636719e+01
5.402370095252990723e-01,1.000000000000000000e+00,1.296026706695556641e+00,-4.622500419616699219e+00,3.705592393875122070e+00,-2.018040618896484375e+02,-9.432614898681640625e+01,-1.743459014892578125e+02,4.030399620532989502e-01,-6.667224884033203125e+01,-1.826865997314453125e+02,-2.342747688293457031e+00,7.562197875976562500e+01,3.135619926452636719e+01
5.436329841613769531e-01,1.000000000000000000e+00,1.233101367950439453e+00,-4.568799972534179688e+00,3.715880393981933594e+00,-2.017494354248046875e+02,-9.425225067138671875e+01,-1.742831726074218750e+02,4.030399620532989502e-01,-6.667224884033203125e+01,-1.826867065429687500e+02,-2.342819452285766602e+00,7.562197875976562500e+01,3.135619926452636719e+01
5.494729876518249512e-01,1.000000000000000000e+00,1.170348286628723145e+00,-4.515167236328125000e+00,3.726249456405639648e+00,-2.016945037841796875e+02,-9.417900085449218750e+01,-1.742222137451171875e+02,4.030399620532989502e-01,-6.667216491699218750e+01,-1.826865997314453125e+02,-2.342819452285766602e+00,7.562212371826171875e+01,3.135642242431640625e+01
5.514299869537353516e-01,1.000000000000000000e+00,1.107537865638732910e+00,-4.461488723754882812e+00,3.736761093139648438e+00,-2.016399841308593750e+02,-9.410451507568359375e+01,-1.741613769531250000e+02,4.030399620532989502e-01,-6.667224884033203125e+01,-1.826865997314453125e+02,-2.342819452285766602e+00,7.562182617187500000e+01,3.135619926452636719e+01
5.563660264015197754e-01,1.000000000000000000e+00,1.107537865638732910e+00,-4.461488723754882812e+00,3.736761093139648438e+00,-2.016399841308593750e+02,-9.410451507568359375e+01,-1.741613769531250000e+02,4.030399620532989502e-01,-6.667224884033203125e+01,-1.826865997314453125e+02,-2.342891216278076172e+00,7.562212371826171875e+01,3.135619926452636719e+01
5.593569874763488770e-01,1.000000000000000000e+00,9.818593263626098633e-01,-4.354109764099121094e+00,3.757601261138916016e+00,-2.015302734375000000e+02,-9.395603179931640625e+01,-1.740379486083984375e+02,4.030399620532989502e-01,-6.667224884033203125e+01,-1.826867065429687500e+02,-2.342819452285766602e+00,7.562212371826171875e+01,3.135619926452636719e+01
5.643619894981384277e-01,1.000000000000000000e+00,9.818593263626098633e-01,-4.354109764099121094e+00,3.757601261138916016e+00,-2.015302734375000000e+02,-9.395603179931640625e+01,-1.740379486083984375e+02,4.030399620532989502e-01,-6.667224884033203125e+01,-1.826867065429687500e+02,-2.342819452285766602e+00,7.562212371826171875e+01,3.135619926452636719e+01
5.675550103187561035e-01,1.000000000000000000e+00,8.563531041145324707e-01,-4.246685504913330078e+00,3.778542995452880859e+00,-2.014206390380859375e+02,-9.380845642089843750e+01,-1.739141235351562500e+02,4.030399620532989502e-01,-6.667234802246093750e+01,-1.826865997314453125e+02,-2.342891216278076172e+00,7.562197875976562500e+01,3.135619926452636719e+01
5.724589824676513672e-01,1.000000000000000000e+00,8.563531041145324707e-01,-4.246685504913330078e+00,3.778542995452880859e+00,-2.014206390380859375e+02,-9.380845642089843750e+01,-1.739141235351562500e+02,4.030399620532989502e-01,-6.667224884033203125e+01,-1.826865997314453125e+02,-2.342819452285766602e+00,7.562197875976562500e+01,3.135619926452636719e+01
5.754749774932861328e-01,1.000000000000000000e+00,7.306172847747802734e-01,-4.139600753784179688e+00,3.799728631973266602e+00,-2.013112945556640625e+02,-9.365985870361328125e+01,-1.737918395996093750e+02,4.030399620532989502e-01,-6.667216491699218750e+01,-1.826865997314453125e+02,-2.342819452285766602e+00,7.562212371826171875e+01,3.135619926452636719e+01
5.803850293159484863e-01,1.000000000000000000e+00,7.306172847747802734e-01,-4.139600753784179688e+00,3.799728631973266602e+00,-2.013112945556640625e+02,-9.365985870361328125e+01,-1.737918395996093750e+02,4.030399620532989502e-01,-6.667216491699218750e+01,-1.826865997314453125e+02,-2.342819452285766602e+00,7.562212371826171875e+01,3.135619926452636719e+01
5.833569765090942383e-01,1.000000000000000000e+00,6.045943498611450195e-01,-4.031746864318847656e+00,3.820365190505981445e+00,-2.012021026611328125e+02,-9.351185607910156250e+01,-1.736680145263671875e+02,4.030399620532989502e-01,-6.667224884033203125e+01,-1.826867065429687500e+02,-2.342819452285766602e+00,7.562197875976562500e+01,3.135619926452636719e+01
5.874869823455810547e-01,1.000000000000000000e+00,6.045943498611450195e-01,-4.031746864318847656e+00,3.820365190505981445e+00,-2.012021026611328125e+02,-9.351185607910156250e+01,-1.736680145263671875e+02,4.030399620532989502e-01,-6.667224884033203125e+01,-1.826867065429687500e+02,-2.342819452285766602e+00,7.562197875976562500e+01,3.135619926452636719e+01
5.914139747619628906e-01,1.000000000000000000e+00,5.416402816772460938e-01,-3.977819442749023438e+00,3.830897331237792969e+00,-2.011471099853515625e+02,-9.343731689453125000e+01,-1.736064300537109375e+02,4.030399620532989502e-01,-6.667224884033203125e+01,-1.826865997314453125e+02,-2.342891216278076172e+00,7.562197875976562500e+01,3.135619926452636719e+01
5.954279899597167969e-01,1.000000000000000000e+00,4.788011312484741211e-01,-3.924096107482910156e+00,3.841306924819946289e+00,-2.010922698974609375e+02,-9.336373901367187500e+01,-1.735441741943359375e+02,4.030399620532989502e-01,-6.667224884033203125e+01,-1.826865997314453125e+02,-2.342819452285766602e+00,7.562197875976562500e+01,3.135642242431640625e+01
6.004449725151062012e-01,1.000000000000000000e+00,4.156173765659332275e-01,-3.870304584503173828e+00,3.851778030395507812e+00,-2.010375518798828125e+02,-9.328946685791015625e+01,-1.734828796386718750e+02,4.030399620532989502e-01,-6.667224884033203125e+01,-1.826865997314453125e+02,-2.342819452285766602e+00,7.562182617187500000e+01,3.135619926452636719e+01
6.033930182456970215e-01,1.000000000000000000e+00,2.896806001663208008e-01,-3.762925863265991211e+00,3.872313022613525391e+00,-2.009285125732421875e+02,-9.314055633544921875e+01,-1.733596496582031250e+02,4.030399620532989502e-01,-6.667224884033203125e+01,-1.826865997314453125e+02,-2.342819452285766602e+00,7.562197875976562500e+01,3.135619926452636719e+01
6.074069738388061523e-01,1.000000000000000000e+00,2.896806001663208008e-01,-3.762925863265991211e+00,3.872313022613525391e+00,-2.009285125732421875e+02,-9.314055633544921875e+01,-1.733596496582031250e+02,4.030399620532989502e-01,-6.667224884033203125e+01,-1.826865997314453125e+02,-2.342819452285766602e+00,7.562197875976562500e+01,3.135619926452636719e+01
6.114699840545654297e-01,1.000000000000000000e+00,2.266404330730438232e-01,-3.708998441696166992e+00,3.882763624191284180e+00,-2.008733673095703125e+02,-9.306752014160156250e+01,-1.732982177734375000e+02,4.030399620532989502e-01,-6.667216491699218750e+01,-1.826865997314453125e+02,-2.342819452285766602e+00,7.562197875976562500e+01,3.135619926452636719e+01
6.154239773750305176e-01,1.000000000000000000e+00,1.635715663433074951e-01,-3.655252695083618164e+00,3.893356323242187500e+00,-2.008187866210937500e+02,-9.299314117431640625e+01,-1.732371063232421875e+02,4.030399620532989502e-01,-6.667224884033203125e+01,-1.826865997314453125e+02,-2.342819452285766602e+00,7.562182617187500000e+01,3.135642242431640625e+01
6.194189786911010742e-01,1.000000000000000000e+00,1.006749272346496582e-01,-3.601732969284057617e+00,3.903868198394775391e+00,-2.007642211914062500e+02,-9.291903686523437500e+01,-1.731749114990234375e+02,4.030399620532989502e-01,-6.667224884033203125e+01,-1.826865997314453125e+02,-2.342819452285766602e+00,7.562197875976562500e+01,3.135619926452636719e+01
6.233959794044494629e-01,1.000000000000000000e+00,3.786441311240196228e-02,-3.548190355300903320e+00,3.914420366287231445e+00,-2.007091827392578125e+02,-9.284385681152343750e+01,-1.731137390136718750e+02,4.030399620532989502e-01,-6.667224884033203125e+01,-1.826865997314453125e+02,-2.342819452285766602e+00,7.562197875976562500e+01,3.135642242431640625e+01
6.274710297584533691e-01,1.000000000000000000e+00,-2.508963458240032196e-02,-3.494716167449951172e+00,3.924728393554687500e+00,-2.006547698974609375e+02,-9.277065277099609375e+01,-1.730528411865234375e+02,4.030399620532989502e-01,-6.667224884033203125e+01,-1.826864318847656250e+02,-2.342819452285766602e+00,7.562197875976562500e+01,3.135619926452636719e+01
6.314039826393127441e-01,1.000000000000000000e+00,-8.790014684200286865e-02,-3.441105604171752930e+00,3.934935092926025391e+00,-2.006000976562500000e+02,-9.269649505615234375e+01,-1.729906616210937500e+02,4.030399620532989502e-01,-6.667234802246093750e+01,-1.826865997314453125e+02,-2.342891216278076172e+00,7.562197875976562500e+01,3.135619926452636719e+01
6.354089975357055664e-01,1.000000000000000000e+00,-1.505958288908004761e-01,-3.387767076492309570e+00,3.945507526397705078e+00,-2.005453643798828125e+02,-9.262232971191406250e+01,-1.729297637939453125e+02,4.030399620532989502e-01,-6.667224884033203125e+01,-1.826865997314453125e+02,-2.342819452285766602e+00,7.562197875976562500e+01,3.135642242431640625e+01
6.394550204277038574e-01,1.000000000000000000e+00,-2.134350538253784180e-01,-3.334020853042602539e+00,3.956100702285766602e+00,-2.004914245605468750e+02,-9.254731750488281250e+01,-1.728684539794921875e+02,4.030399620532989502e-01,-6.667224884033203125e+01,-1.826865997314453125e+02,-2.342819452285766602e+00,7.562197875976562500e+01,3.135619926452636719e+01
6.434159874916076660e-01,1.000000000000000000e+00,-2.764178216457366943e-01,-3.280274868011474609e+00,3.966611862182617188e+00,-2.004356994628906250e+02,-9.247341918945312500e+01,-1.728059844970703125e+02,4.030399620532989502e-01,-6.667224884033203125e+01,-1.826865997314453125e+02,-2.342819452285766602e+00,7.562197875976562500e+01,3.135642242431640625e+01
6.474000215530395508e-01,1.000000000000000000e+00,-3.390847742557525635e-01,-3.226732492446899414e+00,3.976838827133178711e+00,-2.003809051513671875e+02,-9.239989471435546875e+01,-1.727448120117187500e+02,4.030399620532989502e-01,-6.667224884033203125e+01,-1.826865997314453125e+02,-2.342819452285766602e+00,7.562212371826171875e+01,3.135619926452636719e+01
6.514319777488708496e-01,1.000000000000000000e+00,-4.017517566680908203e-01,-3.173099517822265625e+00,3.987004756927490234e+00,-2.003268737792968750e+02,-9.232546234130859375e+01,-1.726831817626953125e+02,4.030399620532989502e-01,-6.667224884033203125e+01,-1.826865997314453125e+02,-2.342891216278076172e+00,7.562197875976562500e+01,3.135619926452636719e+01
6.554780006408691406e-01,1.000000000000000000e+00,-4.643900096416473389e-01,-3.119511842727661133e+00,3.997475862503051758e+00,-2.002719268798828125e+02,-9.225071716308593750e+01,-1.726205139160156250e+02,4.030399620532989502e-01,-6.667224884033203125e+01,-1.826865997314453125e+02,-2.342891216278076172e+00,7.562182617187500000e+01,3.135619926452636719e+01
6.594669818878173828e-01,1.000000000000000000e+00,-5.270857214927673340e-01,-3.065856456756591797e+00,4.008007526397705078e+00,-2.002175140380859375e+02,-9.217703247070312500e+01,-1.725597381591796875e+02,4.030399620532989502e-01,-6.667216491699218750e+01,-1.826865997314453125e+02,-2.342891216278076172e+00,7.562212371826171875e+01,3.135619926452636719e+01
6.634680032730102539e-01,1.000000000000000000e+00,-5.899249315261840820e-01,-3.012359142303466797e+00,4.018600463867187500e+00,-2.001622619628906250e+02,-9.210334777832031250e+01,-1.724979095458984375e+02,4.030399620532989502e-01,-6.667224884033203125e+01,-1.826865997314453125e+02,-2.342747688293457031e+00,7.562182617187500000e+01,3.135619926452636719e+01
6.675519943237304688e-01,1.000000000000000000e+00,-6.527354717254638672e-01,-2.958794116973876953e+00,4.028908729553222656e+00,-2.001072845458984375e+02,-9.202912902832031250e+01,-1.724355010986328125e+02,4.030399620532989502e-01,-6.667234802246093750e+01,-1.826865997314453125e+02,-2.342819452285766602e+00,7.562197875976562500e+01,3.135642242431640625e+01
6.714180111885070801e-01,1.000000000000000000e+00,-7.155746221542358398e-01,-2.905116081237792969e+00,4.039054393768310547e+00,-2.000535888671875000e+02,-9.195449066162109375e+01,-1.723743286132812500e+02,4.030399620532989502e-01,-6.667224884033203125e+01,-1.826865997314453125e+02,-2.342819452285766602e+00,7.562197875976562500e+01,3.135619926452636719e+01
6.754109859466552734e-01,1.000000000000000000e+00,-7.785000205039978027e-01,-2.851551055908203125e+00,4.049342155456542969e+00,-1.999987640380859375e+02,-9.188059234619140625e+01,-1.723130187988281250e+02,4.030399620532989502e-01,-6.667224884033203125e+01,-1.826865997314453125e+02,-2.342819452285766602e+00,7.562197875976562500e+01,3.135619926452636719e+01
6.794710159301757812e-01,1.000000000000000000e+00,-8.413679599761962891e-01,-2.798008680343627930e+00,4.059894561767578125e+00,-1.999439239501953125e+02,-9.180696105957031250e+01,-1.722510528564453125e+02,4.030399620532989502e-01,-6.667224884033203125e+01,-1.826865997314453125e+02,-2.342819452285766602e+00,7.562182617187500000e+01,3.135619926452636719e+01
6.834030151367187500e-01,1.000000000000000000e+00,-9.042358398437500000e-01,-2.744534254074096680e+00,4.070487022399902344e+00,-1.998893127441406250e+02,-9.173264312744140625e+01,-1.721901550292968750e+02,4.030399620532989502e-01,-6.667224884033203125e+01,-1.826865997314453125e+02,-2.342819452285766602e+00,7.562197875976562500e+01,3.135619926452636719e+01
6.875900030136108398e-01,1.000000000000000000e+00,-9.671611785888671875e-01,-2.691149950027465820e+00,4.080897331237792969e+00,-1.998342132568359375e+02,-9.165842437744140625e+01,-1.721284332275390625e+02,4.030399620532989502e-01,-6.667234802246093750e+01,-1.826865997314453125e+02,-2.342819452285766602e+00,7.562197875976562500e+01,3.135619926452636719e+01
6.921709775924682617e-01,1.000000000000000000e+00,-1.029799461364746094e+00,-2.637607812881469727e+00,4.091144084930419922e+00,-1.997800140380859375e+02,-9.158415985107421875e+01,-1.720662536621093750e+02,4.030399620532989502e-01,-6.667224884033203125e+01,-1.826865997314453125e+02,-2.342819452285766602e+00,7.562182617187500000e+01,3.135642242431640625e+01
6.954129934310913086e-01,1.000000000000000000e+00,-1.092581272125244141e+00,-2.583816528320312500e+00,4.101472854614257812e+00,-1.997252807617187500e+02,-9.151063537597656250e+01,-1.720054779052734375e+02,4.030399620532989502e-01,-6.667234802246093750e+01,-1.826867065429687500e+02,-2.342819452285766602e+00,7.562197875976562500e+01,3.135619926452636719e+01
6.994040012359619141e-01,1.000000000000000000e+00,-1.155478000640869141e+00,-2.529957056045532227e+00,4.112045288085937500e+00,-1.996705017089843750e+02,-9.143641662597656250e+01,-1.719443664550781250e+02,4.030399620532989502e-01,-6.667224884033203125e+01,-1.826865997314453125e+02,-2.342819452285766602e+00,7.562197875976562500e+01,3.135619926452636719e+01
7.034770250320434570e-01,1.000000000000000000e+00,-1.218259811401367188e+00,-2.476030111312866211e+00,4.122577190399169922e+00,-1.996159820556640625e+02,-9.136220550537109375e+01,-1.718823242187500000e+02,4.030399620532989502e-01,-6.667216491699218750e+01,-1.826865997314453125e+02,-2.342747688293457031e+00,7.562197875976562500e+01,3.135619926452636719e+01
7.074030041694641113e-01,1.000000000000000000e+00,-1.281185030937194824e+00,-2.422510385513305664e+00,4.133048057556152344e+00,-1.995610961914062500e+02,-9.128835296630859375e+01,-1.718210144042968750e+02,4.030399620532989502e-01,-6.667224884033203125e+01,-1.826865997314453125e+02,-2.342819452285766602e+00,7.562197875976562500e+01,3.135619926452636719e+01
7.116159796714782715e-01,1.000000000000000000e+00,-1.343938112258911133e+00,-2.368786811828613281e+00,4.143417358398437500e+00,-1.995066375732421875e+02,-9.121456909179687500e+01,-1.717597045898437500e+02,4.030399620532989502e-01,-6.667224884033203125e+01,-1.826865997314453125e+02,-2.342747688293457031e+00,7.562197875976562500e+01,3.135619926452636719e+01
7.161719799041748047e-01,1.000000000000000000e+00,-1.406662583351135254e+00,-2.315312385559082031e+00,4.153664588928222656e+00,-1.994522247314453125e+02,-9.114093780517578125e+01,-1.716977996826171875e+02,4.030399620532989502e-01,-6.667224884033203125e+01,-1.826864318847656250e+02,-2.342819452285766602e+00,7.562197875976562500e+01,3.135619926452636719e+01
7.194460034370422363e-01,1.000000000000000000e+00,-1.469501733779907227e+00,-2.261566400527954102e+00,4.164094924926757812e+00,-1.993971099853515625e+02,-9.106703948974609375e+01,-1.716365661621093750e+02,4.030399620532989502e-01,-6.667224884033203125e+01,-1.826865997314453125e+02,-2.342891216278076172e+00,7.562197875976562500e+01,3.135619926452636719e+01
7.234129905700683594e-01,1.000000000000000000e+00,-1.532312273979187012e+00,-2.207707166671752930e+00,4.174565792083740234e+00,-1.993424987792968750e+02,-9.099346923828125000e+01,-1.715753936767578125e+02,4.030399620532989502e-01,-6.667224884033203125e+01,-1.826865997314453125e+02,-2.342819452285766602e+00,7.562197875976562500e+01,3.135619926452636719e+01
7.275279760360717773e-01,1.000000000000000000e+00,-1.595352530479431152e+00,-2.154119491577148438e+00,4.185056686401367188e+00,-1.992877197265625000e+02,-9.091903686523437500e+01,-1.715122528076171875e+02,4.030399620532989502e-01,-6.667224884033203125e+01,-1.826865997314453125e+02,-2.342819452285766602e+00,7.562197875976562500e+01,3.135619926452636719e+01
7.314739823341369629e-01,1.000000000000000000e+00,-1.658048152923583984e+00,-2.100486516952514648e+00,4.195405960083007812e+00,-1.992330932617187500e+02,-9.084529876708984375e+01,-1.714511566162109375e+02,4.030399620532989502e-01,-6.667224884033203125e+01,-1.826865997314453125e+02,-2.342819452285766602e+00,7.562197875976562500e+01,3.135619926452636719e+01
7.360020279884338379e-01,1.000000000000000000e+00,-1.720858573913574219e+00,-2.046921491622924805e+00,4.205632686614990234e+00,-1.991785736083984375e+02,-9.077151489257812500e+01,-1.713897705078125000e+02,4.030399620532989502e-01,-6.667224884033203125e+01,-1.826865997314453125e+02,-2.342891216278076172e+00,7.562212371826171875e+01,3.135619926452636719e+01
7.402129769325256348e-01,1.000000000000000000e+00,-1.783525586128234863e+00,-1.993537545204162598e+00,4.215981483459472656e+00,-1.991233825683593750e+02,-9.069841766357421875e+01,-1.713275756835937500e+02,4.030399620532989502e-01,-6.667224884033203125e+01,-1.826867065429687500e+02,-2.342819452285766602e+00,7.562197875976562500e+01,3.135619926452636719e+01
7.434350252151489258e-01,1.000000000000000000e+00,-1.846135258674621582e+00,-1.939949870109558105e+00,4.226472854614257812e+00,-1.990692291259765625e+02,-9.062414550781250000e+01,-1.712665405273437500e+02,4.030399620532989502e-01,-6.667224884033203125e+01,-1.826867065429687500e+02,-2.342747688293457031e+00,7.562212371826171875e+01,3.135619926452636719e+01
7.474099993705749512e-01,1.000000000000000000e+00,-1.908888220787048340e+00,-1.886294484138488770e+00,4.237086296081542969e+00,-1.990142364501953125e+02,-9.054977416992187500e+01,-1.712052307128906250e+02,4.030399620532989502e-01,-6.667224884033203125e+01,-1.826865997314453125e+02,-2.342747688293457031e+00,7.562197875976562500e+01,3.135619926452636719e+01
7.515730261802673340e-01,1.000000000000000000e+00,-1.971411824226379395e+00,-1.832774519920349121e+00,4.247698783874511719e+00,-1.989597167968750000e+02,-9.047603607177734375e+01,-1.711426391601562500e+02,4.030399620532989502e-01,-6.667224884033203125e+01,-1.826865997314453125e+02,-2.342819452285766602e+00,7.562197875976562500e+01,3.135619926452636719e+01
7.561640143394470215e-01,1.000000000000000000e+00,-2.033849239349365234e+00,-1.779141664505004883e+00,4.257905960083007812e+00,-1.989053497314453125e+02,-9.040251159667968750e+01,-1.710817413330078125e+02,4.030399620532989502e-01,-6.667234802246093750e+01,-1.826865997314453125e+02,-2.342819452285766602e+00,7.562197875976562500e+01,3.135619926452636719e+01
7.594959735870361328e-01,1.000000000000000000e+00,-2.096516132354736328e+00,-1.725463509559631348e+00,4.268152713775634766e+00,-1.988500976562500000e+02,-9.032882690429687500e+01,-1.710203704833984375e+02,4.030399620532989502e-01,-6.667234802246093750e+01,-1.826865997314453125e+02,-2.342819452285766602e+00,7.562197875976562500e+01,3.135619926452636719e+01
7.644039988517761230e-01,1.000000000000000000e+00,-2.159068346023559570e+00,-1.671604275703430176e+00,4.278563022613525391e+00,-1.987958068847656250e+02,-9.025444793701171875e+01,-1.709579772949218750e+02,4.030399620532989502e-01,-6.667224884033203125e+01,-1.826864318847656250e+02,-2.342819452285766602e+00,7.562182617187500000e+01,3.135619926452636719e+01
7.675079703330993652e-01,1.000000000000000000e+00,-2.221677780151367188e+00,-1.618061900138854980e+00,4.289114952087402344e+00,-1.987412872314453125e+02,-9.018039703369140625e+01,-1.708971557617187500e+02,4.030399620532989502e-01,-6.667224884033203125e+01,-1.826865997314453125e+02,-2.342819452285766602e+00,7.562197875976562500e+01,3.135619926452636719e+01
7.715799808502197266e-01,1.000000000000000000e+00,-2.284258604049682617e+00,-1.564587354660034180e+00,4.299667358398437500e+00,-1.986860198974609375e+02,-9.010655212402343750e+01,-1.708362579345703125e+02,4.030399620532989502e-01,-6.667224884033203125e+01,-1.826865997314453125e+02,-2.342819452285766602e+00,7.562197875976562500e+01,3.135619926452636719e+01
7.755619883537292480e-01,1.000000000000000000e+00,-2.346810817718505859e+00,-1.510999798774719238e+00,4.310056686401367188e+00,-1.986319885253906250e+02,-9.003281402587890625e+01,-1.707739868164062500e+02,4.030399620532989502e-01,-6.667216491699218750e+01,-1.826865997314453125e+02,-2.342891216278076172e+00,7.562197875976562500e+01,3.135619926452636719e+01
7.802879810333251953e-01,1.000000000000000000e+00,-2.409506320953369141e+00,-1.457389473915100098e+00,4.320242881774902344e+00,-1.985771026611328125e+02,-8.995822143554687500e+01,-1.707129516601562500e+02,4.030399620532989502e-01,-6.667224884033203125e+01,-1.826867065429687500e+02,-2.342819452285766602e+00,7.562197875976562500e+01,3.135619926452636719e+01
7.837089896202087402e-01,1.000000000000000000e+00,-2.472029924392700195e+00,-1.403733968734741211e+00,4.330673217773437500e+00,-1.985221557617187500e+02,-8.988470458984375000e+01,-1.706515197753906250e+02,4.030399620532989502e-01,-6.667224884033203125e+01,-1.826865997314453125e+02,-2.342819452285766602e+00,7.562197875976562500e+01,3.135619926452636719e+01
7.884050011634826660e-01,1.000000000000000000e+00,-2.534782886505126953e+00,-1.350101113319396973e+00,4.341205120086669922e+00,-1.984678039550781250e+02,-8.981065368652343750e+01,-1.705894012451171875e+02,4.030399620532989502e-01,-6.667224884033203125e+01,-1.826865997314453125e+02,-2.342819452285766602e+00,7.562212371826171875e+01,3.135642242431640625e+01
7.917670011520385742e-01,1.000000000000000000e+00,-2.597392559051513672e+00,-1.296694517135620117e+00,4.351675987243652344e+00,-1.984127502441406250e+02,-8.973685455322265625e+01,-1.705285644531250000e+02,4.030399620532989502e-01,-6.667234802246093750e+01,-1.826865997314453125e+02,-2.342891216278076172e+00,7.562182617187500000e+01,3.135619926452636719e+01
7.955350279808044434e-01,1.000000000000000000e+00,-2.660289049148559570e+00,-1.243355751037597656e+00,4.362126350402832031e+00,-1.983580322265625000e+02,-8.966178894042968750e+01,-1.704672546386718750e+02,4.030399620532989502e-01,-6.667224884033203125e+01,-1.826865997314453125e+02,-2.342819452285766602e+00,7.562197875976562500e+01,3.135619926452636719e+01
7.998350262641906738e-01,1.000000000000000000e+00,-2.723013639450073242e+00,-1.189971804618835449e+00,4.372353553771972656e+00,-1.983038787841796875e+02,-8.958826446533203125e+01,-1.704046020507812500e+02,4.030399620532989502e-01,-6.667234802246093750e+01,-1.826865997314453125e+02,-2.342891216278076172e+00,7.562197875976562500e+01,3.135619926452636719e+01
8.044819831848144531e-01,1.000000000000000000e+00,-2.785766839981079102e+00,-1.136293530464172363e+00,4.382641315460205078e+00,-1.982489929199218750e+02,-8.951425933837890625e+01,-1.703431549072265625e+02,4.030399620532989502e-01,-6.667234802246093750e+01,-1.826865997314453125e+02,-2.342819452285766602e+00,7.562197875976562500e+01,3.135619926452636719e+01
8.077170252799987793e-01,1.000000000000000000e+00,-2.848548650741577148e+00,-1.082592844963073730e+00,4.393071651458740234e+00,-1.981943054199218750e+02,-8.944068908691406250e+01,-1.702816467285156250e+02,4.030399620532989502e-01,-6.667224884033203125e+01,-1.826865997314453125e+02,-2.342819452285766602e+00,7.562197875976562500e+01,3.135642242431640625e+01
8.130959868431091309e-01,1.000000000000000000e+00,-2.911215543746948242e+00,-1.028937220573425293e+00,4.403562545776367188e+00,-1.981391601562500000e+02,-8.936561584472656250e+01,-1.702194671630859375e+02,4.030399620532989502e-01,-6.667224884033203125e+01,-1.826865997314453125e+02,-2.342819452285766602e+00,7.562197875976562500e+01,3.135619926452636719e+01
8.164550065994262695e-01,1.000000000000000000e+00,-2.974025964736938477e+00,-9.753043055534362793e-01,4.414013385772705078e+00,-1.980847015380859375e+02,-8.929188537597656250e+01,-1.701584930419921875e+02,4.030399620532989502e-01,-6.667224884033203125e+01,-1.826865997314453125e+02,-2.342819452285766602e+00,7.562197875976562500e+01,3.135619926452636719e+01
8.198429942131042480e-01,1.000000000000000000e+00,-3.036980152130126953e+00,-9.216940402984619141e-01,4.424260616302490234e+00,-1.980307617187500000e+02,-8.921788024902343750e+01,-1.700971832275390625e+02,4.030399620532989502e-01,-6.667224884033203125e+01,-1.826865997314453125e+02,-2.342747688293457031e+00,7.562197875976562500e+01,3.135598182678222656e+01
8.240709900856018066e-01,1.000000000000000000e+00,-3.099761962890625000e+00,-8.681063652038574219e-01,4.434589385986328125e+00,-1.979758758544921875e+02,-8.914408874511718750e+01,-1.700354766845703125e+02,4.030399620532989502e-01,-6.667224884033203125e+01,-1.826865997314453125e+02,-2.342819452285766602e+00,7.562197875976562500e+01,3.135619926452636719e+01
8.288660049438476562e-01,1.000000000000000000e+00,-3.162629604339599609e+00,-8.145866394042968750e-01,4.445039749145507812e+00,-1.979210510253906250e+02,-8.906902313232421875e+01,-1.699741668701171875e+02,4.030399620532989502e-01,-6.667224884033203125e+01,-1.826865997314453125e+02,-2.342747688293457031e+00,7.562197875976562500e+01,3.135619926452636719e+01
8.322629928588867188e-01,1.000000000000000000e+00,-3.225354194641113281e+00,-7.608405351638793945e-01,4.455510616302490234e+00,-1.978663635253906250e+02,-8.899528503417968750e+01,-1.699129180908203125e+02,4.030399620532989502e-01,-6.667224884033203125e+01,-1.826865997314453125e+02,-2.342819452285766602e+00,7.562197875976562500e+01,3.135619926452636719e+01
8.358460068702697754e-01,1.000000000000000000e+00,-3.288193225860595703e+00,-7.072755694389343262e-01,4.466042041778564453e+00,-1.978115844726562500e+02,-8.892165374755859375e+01,-1.698506774902343750e+02,4.030399620532989502e-01,-6.667234802246093750e+01,-1.826865997314453125e+02,-2.342891216278076172e+00,7.562182617187500000e+01,3.135619926452636719e+01
8.400470018386840820e-01,1.000000000000000000e+00,-3.351118803024291992e+00,-6.538463234901428223e-01,4.476350784301757812e+00,-1.977576446533203125e+02,-8.884754943847656250e+01,-1.697895660400390625e+02,4.030399620532989502e-01,-6.667224884033203125e+01,-1.826865997314453125e+02,-2.342819452285766602e+00,7.562197875976562500e+01,3.135619926452636719e+01
8.441190123558044434e-01,1.000000000000000000e+00,-3.413986682891845703e+00,-6.002812981605529785e-01,4.486597537994384766e+00,-1.977026062011718750e+02,-8.877268981933593750e+01,-1.697287445068359375e+02,4.030399620532989502e-01,-6.667216491699218750e+01,-1.826865997314453125e+02,-2.342819452285766602e+00,7.562197875976562500e+01,3.135619926452636719e+01
8.481630086898803711e-01,1.000000000000000000e+00,-3.476940631866455078e+00,-5.468520522117614746e-01,4.497028350830078125e+00,-1.976477203369140625e+02,-8.869895172119140625e+01,-1.696668243408203125e+02,4.030399620532989502e-01,-6.667224884033203125e+01,-1.826865997314453125e+02,-2.342819452285766602e+00,7.562197875976562500e+01,3.135619926452636719e+01
8.530340194702148438e-01,1.000000000000000000e+00,-3.539894819259643555e+00,-4.934228062629699707e-01,4.507498741149902344e+00,-1.975934600830078125e+02,-8.862548065185546875e+01,-1.696060638427734375e+02,4.030399620532989502e-01,-6.667216491699218750e+01,-1.826865997314453125e+02,-2.342747688293457031e+00,7.562197875976562500e+01,3.135619926452636719e+01
8.561450242996215820e-01,1.000000000000000000e+00,-3.602791309356689453e+00,-4.399935603141784668e-01,4.517969608306884766e+00,-1.975388793945312500e+02,-8.855169677734375000e+01,-1.695447540283203125e+02,4.030399620532989502e-01,-6.667224884033203125e+01,-1.826865997314453125e+02,-2.342819452285766602e+00,7.562212371826171875e+01,3.135619926452636719e+01
8.601220250129699707e-01,1.000000000000000000e+00,-3.665745496749877930e+00,-3.864964544773101807e-01,4.528257369995117188e+00,-1.974843292236328125e+02,-8.847731781005859375e+01,-1.694822998046875000e+02,4.030399620532989502e-01,-6.667224884033203125e+01,-1.826865997314453125e+02,-2.342819452285766602e+00,7.562182617187500000e+01,3.135619926452636719e+01
8.641669750213623047e-01,1.000000000000000000e+00,-3.728527307510375977e+00,-3.328409194946289062e-01,4.538505077362060547e+00,-1.974294891357421875e+02,-8.840332031250000000e+01,-1.694211883544921875e+02,4.030399620532989502e-01,-6.667224884033203125e+01,-1.826865997314453125e+02,-2.342819452285766602e+00,7.562197875976562500e+01,3.135619926452636719e+01
8.682370185852050781e-01,1.000000000000000000e+00,-3.791280508041381836e+00,-2.793437838554382324e-01,4.548792839050292969e+00,-1.973749084472656250e+02,-8.832995605468750000e+01,-1.693606262207031250e+02,4.030399620532989502e-01,-6.667224884033203125e+01,-1.826867065429687500e+02,-2.342819452285766602e+00,7.562212371826171875e+01,3.135619926452636719e+01
8.724229931831359863e-01,1.000000000000000000e+00,-3.853832721710205078e+00,-2.257561087608337402e-01,4.559284210205078125e+00,-1.973206634521484375e+02,-8.825578308105468750e+01,-1.692979583740234375e+02,4.030399620532989502e-01,-6.667234802246093750e+01,-1.826865997314453125e+02,-2.342819452285766602e+00,7.562197875976562500e+01,3.135619926452636719e+01
8.770809769630432129e-01,1.000000000000000000e+00,-3.916585445404052734e+00,-1.720326840877532959e-01,4.569632530212402344e+00,-1.972653045654296875e+02,-8.818135833740234375e+01,-1.692366485595703125e+02,4.030399620532989502e-01,-6.667224884033203125e+01,-1.826865997314453125e+02,-2.342891216278076172e+00,7.562197875976562500e+01,3.135619926452636719e+01
8.805720210075378418e-01,1.000000000000000000e+00,-3.979367256164550781e+00,-1.186034455895423889e-01,4.580083370208740234e+00,-1.972111968994140625e+02,-8.810783386230468750e+01,-1.691753387451171875e+02,4.030399620532989502e-01,-6.667224884033203125e+01,-1.826865997314453125e+02,-2.342819452285766602e+00,7.562197875976562500e+01,3.135619926452636719e+01
8.852400183677673340e-01,1.000000000000000000e+00,-4.042091846466064453e+00,-6.515157222747802734e-02,4.590249061584472656e+00,-1.971565246582031250e+02,-8.803426361083984375e+01,-1.691135711669921875e+02,4.030399620532989502e-01,-6.667234802246093750e+01,-1.826865997314453125e+02,-2.342747688293457031e+00,7.562197875976562500e+01,3.135619926452636719e+01
8.883849978446960449e-01,1.000000000000000000e+00,-4.104644298553466797e+00,-1.160918455570936203e-02,4.600577831268310547e+00,-1.971019592285156250e+02,-8.796025848388671875e+01,-1.690518493652343750e+02,4.030399620532989502e-01,-6.667224884033203125e+01,-1.826867065429687500e+02,-2.342819452285766602e+00,7.562197875976562500e+01,3.135619926452636719e+01
8.925309777259826660e-01,1.000000000000000000e+00,-4.167282104492187500e+00,4.191057384014129639e-02,4.611048698425292969e+00,-1.970479736328125000e+02,-8.788577270507812500e+01,-1.689909515380859375e+02,4.030399620532989502e-01,-6.667234802246093750e+01,-1.826865997314453125e+02,-2.342819452285766602e+00,7.562182617187500000e+01,3.135619926452636719e+01
8.965820074081420898e-01,1.000000000000000000e+00,-4.229891777038574219e+00,9.545297175645828247e-02,4.621621131896972656e+00,-1.969927062988281250e+02,-8.781235504150390625e+01,-1.689291687011718750e+02,4.030399620532989502e-01,-6.667224884033203125e+01,-1.826865997314453125e+02,-2.342819452285766602e+00,7.562197875976562500e+01,3.135619926452636719e+01
9.012860059738159180e-01,1.000000000000000000e+00,-4.292558670043945312e+00,1.489274799823760986e-01,4.632153034210205078e+00,-1.969379882812500000e+02,-8.773845672607421875e+01,-1.688678588867187500e+02,4.030399620532989502e-01,-6.667224884033203125e+01,-1.826865997314453125e+02,-2.342819452285766602e+00,7.562197875976562500e+01,3.135619926452636719e+01
9.045169949531555176e-01,1.000000000000000000e+00,-4.355082511901855469e+00,2.023340910673141479e-01,4.642420768737792969e+00,-1.968840484619140625e+02,-8.766499328613281250e+01,-1.688069000244140625e+02,4.030399620532989502e-01,-6.667216491699218750e+01,-1.826865997314453125e+02,-2.342819452285766602e+00,7.562197875976562500e+01,3.135619926452636719e+01
9.093809723854064941e-01,1.000000000000000000e+00,-4.417864322662353516e+00,2.557180821895599365e-01,4.652769565582275391e+00,-1.968291015625000000e+02,-8.759066772460937500e+01,-1.687446441650390625e+02,4.030399620532989502e-01,-6.667224884033203125e+01,-1.826865997314453125e+02,-2.342819452285766602e+00,7.562197875976562500e+01,3.135619926452636719e+01
9.125959873199462891e-01,1.000000000000000000e+00,-4.480416297912597656e+00,3.090115189552307129e-01,4.663219928741455078e+00,-1.967745819091796875e+02,-8.751725006103515625e+01,-1.686831970214843750e+02,4.030399620532989502e-01,-6.667216491699218750e+01,-1.826865997314453125e+02,-2.342819452285766602e+00,7.562197875976562500e+01,3.135642242431640625e+01
9.164069890975952148e-01,1.000000000000000000e+00,-4.543111801147460938e+00,3.627123236656188965e-01,4.673711299896240234e+00,-1.967198028564453125e+02,-8.744308471679687500e+01,-1.686225738525390625e+02,4.030399620532989502e-01,-6.667224884033203125e+01,-1.826865997314453125e+02,-2.342819452285766602e+00,7.562197875976562500e+01,3.135619926452636719e+01
9.206150174140930176e-01,1.000000000000000000e+00,-4.605835914611816406e+00,4.163226187229156494e-01,4.684121131896972656e+00,-1.966648254394531250e+02,-8.736924743652343750e+01,-1.685607910156250000e+02,4.030399620532989502e-01,-6.667224884033203125e+01,-1.826865997314453125e+02,-2.342819452285766602e+00,7.562197875976562500e+01,3.135619926452636719e+01
9.233809709548950195e-01,1.000000000000000000e+00,-4.668388366699218750e+00,4.700460433959960938e-01,4.694490432739257812e+00,-1.966109313964843750e+02,-8.729497528076171875e+01,-1.684994812011718750e+02,4.030399620532989502e-01,-6.667224884033203125e+01,-1.826865997314453125e+02,-2.342891216278076172e+00,7.562197875976562500e+01,3.135619926452636719e+01
9.273560047149658203e-01,1.000000000000000000e+00,-4.730883121490478516e+00,5.234978795051574707e-01,4.704615592956542969e+00,-1.965561981201171875e+02,-8.722193145751953125e+01,-1.684386596679687500e+02,4.030399620532989502e-01,-6.667216491699218750e+01,-1.826865997314453125e+02,-2.342819452285766602e+00,7.562197875976562500e+01,3.135619926452636719e+01
9.338819980621337891e-01,1.000000000000000000e+00,-4.793119430541992188e+00,5.770176649093627930e-01,4.714801788330078125e+00,-1.965016326904296875e+02,-8.714846801757812500e+01,-1.683765411376953125e+02,4.030399620532989502e-01,-6.667224884033203125e+01,-1.826865997314453125e+02,-2.342891216278076172e+00,7.562197875976562500e+01,3.135619926452636719e+01
9.367460012435913086e-01,1.000000000000000000e+00,-4.855642795562744141e+00,6.306732296943664551e-01,4.725293159484863281e+00,-1.964470062255859375e+02,-8.707414245605468750e+01,-1.683151702880859375e+02,4.030399620532989502e-01,-6.667216491699218750e+01,-1.826865997314453125e+02,-2.342819452285766602e+00,7.562212371826171875e+01,3.135619926452636719e+01
9.393619894981384277e-01,1.000000000000000000e+00,-4.918137550354003906e+00,6.841024756431579590e-01,4.735743522644042969e+00,-1.963921203613281250e+02,-8.699992370605468750e+01,-1.682543334960937500e+02,4.030399620532989502e-01,-6.667224884033203125e+01,-1.826865997314453125e+02,-2.342819452285766602e+00,7.562212371826171875e+01,3.135598182678222656e+01
9.433940052986145020e-01,1.000000000000000000e+00,-4.980689525604248047e+00,7.378484606742858887e-01,4.746315956115722656e+00,-1.963377075195312500e+02,-8.692655944824218750e+01,-1.681914520263671875e+02,4.030399620532989502e-01,-6.667224884033203125e+01,-1.826867065429687500e+02,-2.342891216278076172e+00,7.562197875976562500e+01,3.135619926452636719e+01
9.473569989204406738e-01,1.000000000000000000e+00,-5.043213367462158203e+00,7.913230061531066895e-01,4.756482124328613281e+00,-1.962834014892578125e+02,-8.685330963134765625e+01,-1.681302795410156250e+02,4.030399620532989502e-01,-6.667224884033203125e+01,-1.826865997314453125e+02,-2.342819452285766602e+00,7.562197875976562500e+01,3.135619926452636719e+01
9.513409733772277832e-01,1.000000000000000000e+00,-5.105679035186767578e+00,8.447974920272827148e-01,4.766830921173095703e+00,-1.962283630371093750e+02,-8.677898406982421875e+01,-1.680695190429687500e+02,4.030399620532989502e-01,-6.667216491699218750e+01,-1.826865997314453125e+02,-2.342819452285766602e+00,7.562182617187500000e+01,3.135619926452636719e+01
9.554119706153869629e-01,1.000000000000000000e+00,-5.168202877044677734e+00,8.983398675918579102e-01,4.777322292327880859e+00,-1.961741485595703125e+02,-8.670481872558593750e+01,-1.680067291259765625e+02,4.030399620532989502e-01,-6.667224884033203125e+01,-1.826865997314453125e+02,-2.342747688293457031e+00,7.562197875976562500e+01,3.135642242431640625e+01
9.593459963798522949e-01,1.000000000000000000e+00,-5.230754852294921875e+00,9.517239332199096680e-01,4.787854194641113281e+00,-1.961193237304687500e+02,-8.663086700439453125e+01,-1.679457550048828125e+02,4.030399620532989502e-01,-6.667234802246093750e+01,-1.826865997314453125e+02,-2.342891216278076172e+00,7.562197875976562500e+01,3.135619926452636719e+01
9.633439779281616211e-01,1.000000000000000000e+00,-5.293306827545166016e+00,1.005130529403686523e+00,4.798365592956542969e+00,-1.960650634765625000e+02,-8.655729675292968750e+01,-1.678847198486328125e+02,4.030399620532989502e-01,-6.667224884033203125e+01,-1.826865997314453125e+02,-2.342747688293457031e+00,7.562182617187500000e+01,3.135619926452636719e+01
9.674140214920043945e-01,1.000000000000000000e+00,-5.356060028076171875e+00,1.058401346206665039e+00,4.808632850646972656e+00,-1.960107574462890625e+02,-8.648297882080078125e+01,-1.678226776123046875e+02,4.030399620532989502e-01,-6.667224884033203125e+01,-1.826865997314453125e+02,-2.342819452285766602e+00,7.562197875976562500e+01,3.135619926452636719e+01
9.714229702949523926e-01,1.000000000000000000e+00,-5.418583869934082031e+00,1.111921072006225586e+00,4.818758487701416016e+00,-1.959556121826171875e+02,-8.640950012207031250e+01,-1.677613677978515625e+02,4.030399620532989502e-01,-6.667224884033203125e+01,-1.826867065429687500e+02,-2.342747688293457031e+00,7.562197875976562500e+01,3.135619926452636719e+01
9.754499793052673340e-01,1.000000000000000000e+00,-5.481307983398437500e+00,1.165553927421569824e+00,4.829107284545898438e+00,-1.959010925292968750e+02,-8.633566284179687500e+01,-1.677004089355468750e+02,4.030399620532989502e-01,-6.667224884033203125e+01,-1.826865997314453125e+02,-2.342819452285766602e+00,7.562197875976562500e+01,3.135642242431640625e+01
9.795529842376708984e-01,1.000000000000000000e+00,-5.544176101684570312e+00,1.219118952751159668e+00,4.839578151702880859e+00,-1.958464202880859375e+02,-8.626171112060546875e+01,-1.676382751464843750e+02,4.030399620532989502e-01,-6.667234802246093750e+01,-1.826865997314453125e+02,-2.342819452285766602e+00,7.562197875976562500e+01,3.135619926452636719e+01
9.833639860153198242e-01,1.000000000000000000e+00,-5.606928825378417969e+00,1.272751927375793457e+00,4.850049018859863281e+00,-1.957919006347656250e+02,-8.618701934814453125e+01,-1.675770416259765625e+02,4.030399620532989502e-01,-6.667224884033203125e+01,-1.826865997314453125e+02,-2.342819452285766602e+00,7.562197875976562500e+01,3.135619926452636719e+01
9.873369932174682617e-01,1.000000000000000000e+00,-5.669567108154296875e+00,1.326249003410339355e+00,4.860418319702148438e+00,-1.957375946044921875e+02,-8.611338806152343750e+01,-1.675165557861328125e+02,4.030399620532989502e-01,-6.667224884033203125e+01,-1.826865997314453125e+02,-2.342819452285766602e+00,7.562212371826171875e+01,3.135619926452636719e+01
9.914399981498718262e-01,1.000000000000000000e+00,-5.731947422027587891e+00,1.379633069038391113e+00,4.870584011077880859e+00,-1.956825408935546875e+02,-8.603986358642578125e+01,-1.674547729492187500e+02,4.030399620532989502e-01,-6.667224884033203125e+01,-1.826865997314453125e+02,-2.342747688293457031e+00,7.562182617187500000e+01,3.135642242431640625e+01
9.953430294990539551e-01,1.000000000000000000e+00,-5.794585227966308594e+00,1.433062314987182617e+00,4.880811214447021484e+00,-1.956283569335937500e+02,-8.596617889404296875e+01,-1.673934631347656250e+02,4.030399620532989502e-01,-6.667224884033203125e+01,-1.826865997314453125e+02,-2.342819452285766602e+00,7.562212371826171875e+01,3.135619926452636719e+01
9.993439912796020508e-01,1.000000000000000000e+00,-5.857309818267822266e+00,1.486582040786743164e+00,4.891363143920898438e+00,-1.955735626220703125e+02,-8.589147949218750000e+01,-1.673322906494140625e+02,4.030399620532989502e-01,-6.667216491699218750e+01,-1.826867065429687500e+02,-2.342747688293457031e+00,7.562197875976562500e+01,3.135642242431640625e+01
1.003419041633605957e+00,1.000000000000000000e+00,-5.920148849487304688e+00,1.540147066116333008e+00,4.901813983917236328e+00,-1.955187835693359375e+02,-8.581742858886718750e+01,-1.672705841064453125e+02,4.030399620532989502e-01,-6.667224884033203125e+01,-1.826865997314453125e+02,-2.342819452285766602e+00,7.562197875976562500e+01,3.135619926452636719e+01
1.007361054420471191e+00,1.000000000000000000e+00,-5.982787132263183594e+00,1.593576312065124512e+00,4.912386417388916016e+00,-1.954646911621093750e+02,-8.574433135986328125e+01,-1.672088623046875000e+02,4.030399620532989502e-01,-6.667224884033203125e+01,-1.826865997314453125e+02,-2.342891216278076172e+00,7.562212371826171875e+01,3.135619926452636719e+01
1.011337041854858398e+00,1.000000000000000000e+00,-6.045282363891601562e+00,1.646892309188842773e+00,4.922613620758056641e+00,-1.954096984863281250e+02,-8.567048645019531250e+01,-1.671480407714843750e+02,4.030399620532989502e-01,-6.667216491699218750e+01,-1.826864318847656250e+02,-2.342891216278076172e+00,7.562197875976562500e+01,3.135642242431640625e+01
1.015401959419250488e+00,1.000000000000000000e+00,-6.108064174652099609e+00,1.700208544731140137e+00,4.932839870452880859e+00,-1.953551788330078125e+02,-8.559595489501953125e+01,-1.670857696533203125e+02,4.030399620532989502e-01,-6.667216491699218750e+01,-1.826865997314453125e+02,-2.342819452285766602e+00,7.562197875976562500e+01,3.135642242431640625e+01
1.019343972206115723e+00,1.000000000000000000e+00,-6.170931816101074219e+00,1.753569841384887695e+00,4.943229675292968750e+00,-1.953008270263671875e+02,-8.552178955078125000e+01,-1.670238647460937500e+02,4.030399620532989502e-01,-6.667216491699218750e+01,-1.826865997314453125e+02,-2.342819452285766602e+00,7.562197875976562500e+01,3.135619926452636719e+01
1.023365020751953125e+00,1.000000000000000000e+00,-6.233771324157714844e+00,1.806976556777954102e+00,4.953720569610595703e+00,-1.952456665039062500e+02,-8.544869232177734375e+01,-1.669631652832031250e+02,4.030399620532989502e-01,-6.667224884033203125e+01,-1.826867065429687500e+02,-2.342819452285766602e+00,7.562197875976562500e+01,3.135619926452636719e+01
1.027346968650817871e+00,1.000000000000000000e+00,-6.296610355377197266e+00,1.860586643218994141e+00,4.964293479919433594e+00,-1.951917266845703125e+02,-8.537500762939453125e+01,-1.669011077880859375e+02,4.030399620532989502e-01,-6.667224884033203125e+01,-1.826865997314453125e+02,-2.342891216278076172e+00,7.562197875976562500e+01,3.135619926452636719e+01
1.031394958496093750e+00,1.000000000000000000e+00,-6.359277248382568359e+00,1.914061307907104492e+00,4.974601268768310547e+00,-1.951375427246093750e+02,-8.530041503906250000e+01,-1.668395233154296875e+02,4.030399620532989502e-01,-6.667224884033203125e+01,-1.826865997314453125e+02,-2.342891216278076172e+00,7.562197875976562500e+01,3.135619926452636719e+01
1.035356044769287109e+00,1.000000000000000000e+00,-6.422087669372558594e+00,1.967626214027404785e+00,4.984767913818359375e+00,-1.950822296142578125e+02,-8.522641754150390625e+01,-1.667788391113281250e+02,4.030399620532989502e-01,-6.667224884033203125e+01,-1.826864318847656250e+02,-2.342747688293457031e+00,7.562197875976562500e+01,3.135642242431640625e+01
1.039348006248474121e+00,1.000000000000000000e+00,-6.484725952148437500e+00,2.021055459976196289e+00,4.995156764984130859e+00,-1.950278625488281250e+02,-8.515294647216796875e+01,-1.667163848876953125e+02,4.030399620532989502e-01,-6.667224884033203125e+01,-1.826865997314453125e+02,-2.342819452285766602e+00,7.562182617187500000e+01,3.135642242431640625e+01
1.043354034423828125e+00,1.000000000000000000e+00,-6.547364234924316406e+00,2.074597835540771484e+00,5.005668640136718750e+00,-1.949729766845703125e+02,-8.507963562011718750e+01,-1.666550750732421875e+02,4.030399620532989502e-01,-6.667224884033203125e+01,-1.826865997314453125e+02,-2.342819452285766602e+00,7.562182617187500000e+01,3.135619926452636719e+01
1.047458052635192871e+00,1.000000000000000000e+00,-6.610031127929687500e+00,2.128027200698852539e+00,5.016139507293701172e+00,-1.949183502197265625e+02,-8.500499725341796875e+01,-1.665943145751953125e+02,4.030399620532989502e-01,-6.667234802246093750e+01,-1.826865997314453125e+02,-2.342819452285766602e+00,7.562197875976562500e+01,3.135619926452636719e+01
1.051381945610046387e+00,1.000000000000000000e+00,-6.672468662261962891e+00,2.181569576263427734e+00,5.026529312133789062e+00,-1.948643646240234375e+02,-8.493093872070312500e+01,-1.665321807861328125e+02,4.030399620532989502e-01,-6.667224884033203125e+01,-1.826865997314453125e+02,-2.342819452285766602e+00,7.562197875976562500e+01,3.135619926452636719e+01
1.057770967483520508e+00,1.000000000000000000e+00,-6.735049247741699219e+00,2.235111951828002930e+00,5.036735534667968750e+00,-1.948092041015625000e+02,-8.485741424560546875e+01,-1.664705352783203125e+02,4.030399620532989502e-01,-6.667224884033203125e+01,-1.826865997314453125e+02,-2.342819452285766602e+00,7.562212371826171875e+01,3.135619926452636719e+01
1.059373974800109863e+00,1.000000000000000000e+00,-6.797745227813720703e+00,2.288473367691040039e+00,5.046901702880859375e+00,-1.947548065185546875e+02,-8.478388977050781250e+01,-1.664102478027343750e+02,4.030399620532989502e-01,-6.667234802246093750e+01,-1.826865997314453125e+02,-2.342819452285766602e+00,7.562197875976562500e+01,3.135619926452636719e+01
1.064350008964538574e+00,1.000000000000000000e+00,-6.797745227813720703e+00,2.288473367691040039e+00,5.046901702880859375e+00,-1.947548065185546875e+02,-8.478388977050781250e+01,-1.664102478027343750e+02,4.030399620532989502e-01,-6.667224884033203125e+01,-1.826865997314453125e+02,-2.342819452285766602e+00,7.562212371826171875e+01,3.135598182678222656e+01
1.067342996597290039e+00,1.000000000000000000e+00,-6.922906875610351562e+00,2.395195960998535156e+00,5.067700862884521484e+00,-1.946454467773437500e+02,-8.463599395751953125e+01,-1.662872314453125000e+02,4.030399620532989502e-01,-6.667234802246093750e+01,-1.826865997314453125e+02,-2.342891216278076172e+00,7.562197875976562500e+01,3.135619926452636719e+01
1.071395993232727051e+00,1.000000000000000000e+00,-6.922906875610351562e+00,2.395195960998535156e+00,5.067700862884521484e+00,-1.946454467773437500e+02,-8.463599395751953125e+01,-1.662872314453125000e+02,4.030399620532989502e-01,-6.667234802246093750e+01,-1.826865997314453125e+02,-2.342891216278076172e+00,7.562197875976562500e+01,3.135619926452636719e+01
1.076411962509155273e+00,1.000000000000000000e+00,-6.985458850860595703e+00,2.448489427566528320e+00,5.078171730041503906e+00,-1.945916137695312500e+02,-8.456214904785156250e+01,-1.662265319824218750e+02,4.030399620532989502e-01,-6.667224884033203125e+01,-1.826865997314453125e+02,-2.342819452285766602e+00,7.562197875976562500e+01,3.135619926452636719e+01
1.079846024513244629e+00,1.000000000000000000e+00,-7.110793113708496094e+00,2.555280208587646484e+00,5.098666191101074219e+00,-1.944821166992187500e+02,-8.441403198242187500e+01,-1.661023559570312500e+02,4.030399620532989502e-01,-6.667234802246093750e+01,-1.826865997314453125e+02,-2.342747688293457031e+00,7.562197875976562500e+01,3.135642242431640625e+01
1.084336996078491211e+00,1.000000000000000000e+00,-7.173259258270263672e+00,2.608777046203613281e+00,5.109117031097412109e+00,-1.944274902343750000e+02,-8.434051513671875000e+01,-1.660420837402343750e+02,4.030399620532989502e-01,-6.667216491699218750e+01,-1.826865997314453125e+02,-2.342819452285766602e+00,7.562197875976562500e+01,3.135619926452636719e+01
1.087342023849487305e+00,1.000000000000000000e+00,-7.236011981964111328e+00,2.662274360656738281e+00,5.119628429412841797e+00,-1.943726043701171875e+02,-8.426641082763671875e+01,-1.659797515869140625e+02,4.030399620532989502e-01,-6.667224884033203125e+01,-1.826865997314453125e+02,-2.342819452285766602e+00,7.562197875976562500e+01,3.135619926452636719e+01
1.091472983360290527e+00,1.000000000000000000e+00,-7.236011981964111328e+00,2.662274360656738281e+00,5.119628429412841797e+00,-1.943726043701171875e+02,-8.426641082763671875e+01,-1.659797515869140625e+02,4.030399620532989502e-01,-6.667224884033203125e+01,-1.826865997314453125e+02,-2.342819452285766602e+00,7.562197875976562500e+01,3.135619926452636719e+01
1.095394968986511230e+00,1.000000000000000000e+00,-7.298621654510498047e+00,2.715748786926269531e+00,5.130099296569824219e+00,-1.943188629150390625e+02,-8.419331359863281250e+01,-1.659179077148437500e+02,4.030399620532989502e-01,-6.667224884033203125e+01,-1.826865997314453125e+02,-2.342819452285766602e+00,7.562197875976562500e+01,3.135619926452636719e+01
1.099395036697387695e+00,1.000000000000000000e+00,-7.361259460449218750e+00,2.769246101379394531e+00,5.140427589416503906e+00,-1.942642364501953125e+02,-8.411866760253906250e+01,-1.658575439453125000e+02,4.030399620532989502e-01,-6.667234802246093750e+01,-1.826865997314453125e+02,-2.342747688293457031e+00,7.562197875976562500e+01,3.135619926452636719e+01
1.103474974632263184e+00,1.000000000000000000e+00,-7.423926353454589844e+00,2.822629928588867188e+00,5.150593757629394531e+00,-1.942092590332031250e+02,-8.404567718505859375e+01,-1.657949523925781250e+02,4.030399620532989502e-01,-6.667224884033203125e+01,-1.826865997314453125e+02,-2.342819452285766602e+00,7.562197875976562500e+01,3.135619926452636719e+01
1.107380032539367676e+00,1.000000000000000000e+00,-7.486479282379150391e+00,2.876013755798339844e+00,5.160942554473876953e+00,-1.941548004150390625e+02,-8.397119140625000000e+01,-1.657334289550781250e+02,4.030399620532989502e-01,-6.667224884033203125e+01,-1.826865997314453125e+02,-2.342747688293457031e+00,7.562197875976562500e+01,3.135619926452636719e+01
