rpiRobotics/ARM-21-02-F-19-Robot-Motion-Program/data_performance_abb/curve_2/curve_pose_opt2/100L/grad_result/sim/curve_exe_v1000_z10.csv
# timestamp,cmd_num,J1,J2,J3,J4,J5,J6
2.000000094994902611e-03,-1.000000000000000000e+00,8.460445404052734375e+00,-1.048641300201416016e+01,2.943459272384643555e+00,-2.076331176757812500e+02,-1.024175720214843750e+02,-1.802393035888671875e+02,1.166222991943359375e+02,8.770228385925292969e+00,3.480780029296875000e+01,-1.537292938232421875e+02,6.622257232666015625e+01,1.191414108276367188e+02
4.000000189989805222e-03,1.000000000000000000e+00,8.460445404052734375e+00,-1.048641300201416016e+01,2.943459272384643555e+00,-2.076331176757812500e+02,-1.024175720214843750e+02,-1.802393035888671875e+02,1.166222991943359375e+02,8.770228385925292969e+00,3.480780029296875000e+01,-1.537292938232421875e+02,6.622257232666015625e+01,1.191414108276367188e+02
8.000000379979610443e-03,1.000000000000000000e+00,8.460445404052734375e+00,-1.048641300201416016e+01,2.943459272384643555e+00,-2.076331176757812500e+02,-1.024175720214843750e+02,-1.802393035888671875e+02,1.166222991943359375e+02,8.770228385925292969e+00,3.480780029296875000e+01,-1.537292938232421875e+02,6.622257232666015625e+01,1.191414108276367188e+02
9.999999776482582092e-03,1.000000000000000000e+00,8.460445404052734375e+00,-1.048641300201416016e+01,2.943459272384643555e+00,-2.076331176757812500e+02,-1.024175720214843750e+02,-1.802393035888671875e+02,1.166222991943359375e+02,8.770228385925292969e+00,3.480780029296875000e+01,-1.537292938232421875e+02,6.622257232666015625e+01,1.191414108276367188e+02
1.400000043213367462e-02,1.000000000000000000e+00,8.460445404052734375e+00,-1.048641300201416016e+01,2.943459272384643555e+00,-2.076331176757812500e+02,-1.024175720214843750e+02,-1.802393035888671875e+02,1.166222991943359375e+02,8.770228385925292969e+00,3.480780029296875000e+01,-1.537292938232421875e+02,6.622257232666015625e+01,1.191414108276367188e+02
1.600000075995922089e-02,1.000000000000000000e+00,8.460445404052734375e+00,-1.048641300201416016e+01,2.943459272384643555e+00,-2.076331176757812500e+02,-1.024175720214843750e+02,-1.802393035888671875e+02,1.166222991943359375e+02,8.770228385925292969e+00,3.480780029296875000e+01,-1.537292938232421875e+02,6.622257232666015625e+01,1.191414108276367188e+02
1.999999955296516418e-02,1.000000000000000000e+00,8.460445404052734375e+00,-1.048641300201416016e+01,2.943459272384643555e+00,-2.076331176757812500e+02,-1.024175720214843750e+02,-1.802393035888671875e+02,1.166222991943359375e+02,8.770228385925292969e+00,3.480780029296875000e+01,-1.537292938232421875e+02,6.622257232666015625e+01,1.191414108276367188e+02
2.400000020861625671e-02,1.000000000000000000e+00,8.460445404052734375e+00,-1.048641300201416016e+01,2.943459272384643555e+00,-2.076331176757812500e+02,-1.024175720214843750e+02,-1.802393035888671875e+02,1.166222991943359375e+02,8.770228385925292969e+00,3.480780029296875000e+01,-1.537292938232421875e+02,6.622257232666015625e+01,1.191414108276367188e+02
2.800000086426734924e-02,1.000000000000000000e+00,8.460445404052734375e+00,-1.048641300201416016e+01,2.943459272384643555e+00,-2.076331176757812500e+02,-1.024175720214843750e+02,-1.802393035888671875e+02,1.166222991943359375e+02,8.770228385925292969e+00,3.480780029296875000e+01,-1.537292938232421875e+02,6.622257232666015625e+01,1.191414108276367188e+02
3.200000151991844177e-02,1.000000000000000000e+00,8.460445404052734375e+00,-1.048641300201416016e+01,2.943459272384643555e+00,-2.076331176757812500e+02,-1.024175720214843750e+02,-1.802393035888671875e+02,1.166222991943359375e+02,8.770228385925292969e+00,3.480780029296875000e+01,-1.537292938232421875e+02,6.622257232666015625e+01,1.191414108276367188e+02
3.599999845027923584e-02,1.000000000000000000e+00,8.460445404052734375e+00,-1.048641300201416016e+01,2.943459272384643555e+00,-2.076331176757812500e+02,-1.024175720214843750e+02,-1.802393035888671875e+02,1.166222991943359375e+02,8.770228385925292969e+00,3.480780029296875000e+01,-1.537292938232421875e+02,6.622257232666015625e+01,1.191414108276367188e+02
3.999999910593032837e-02,1.000000000000000000e+00,8.460445404052734375e+00,-1.048641300201416016e+01,2.943459272384643555e+00,-2.076331176757812500e+02,-1.024175720214843750e+02,-1.802393035888671875e+02,1.166222991943359375e+02,8.770228385925292969e+00,3.480780029296875000e+01,-1.537292938232421875e+02,6.622257232666015625e+01,1.191414108276367188e+02
4.399999976158142090e-02,1.000000000000000000e+00,8.460408210754394531e+00,-1.048638916015625000e+01,2.943461418151855469e+00,-2.076331176757812500e+02,-1.024175720214843750e+02,-1.802393035888671875e+02,1.166222991943359375e+02,8.770228385925292969e+00,3.480780029296875000e+01,-1.537292938232421875e+02,6.622257232666015625e+01,1.191414108276367188e+02
4.800000041723251343e-02,1.000000000000000000e+00,8.460186958312988281e+00,-1.048623466491699219e+01,2.943475246429443359e+00,-2.076331176757812500e+02,-1.024175643920898438e+02,-1.802393035888671875e+02,1.166222991943359375e+02,8.770228385925292969e+00,3.480780029296875000e+01,-1.537292938232421875e+02,6.622257232666015625e+01,1.191414108276367188e+02
5.200000107288360596e-02,1.000000000000000000e+00,8.459520339965820312e+00,-1.048576068878173828e+01,2.943518400192260742e+00,-2.076331176757812500e+02,-1.024175109863281250e+02,-1.802393035888671875e+02,1.166222991943359375e+02,8.770228385925292969e+00,3.480780029296875000e+01,-1.537292938232421875e+02,6.622257232666015625e+01,1.191414108276367188e+02
5.600000172853469849e-02,1.000000000000000000e+00,8.458159446716308594e+00,-1.048475074768066406e+01,2.943612098693847656e+00,-2.076330718994140625e+02,-1.024173965454101562e+02,-1.802392272949218750e+02,1.166222991943359375e+02,8.770228385925292969e+00,3.480780029296875000e+01,-1.537292938232421875e+02,6.622257232666015625e+01,1.191414108276367188e+02
5.999999865889549255e-02,1.000000000000000000e+00,8.455953598022460938e+00,-1.048303985595703125e+01,2.943774938583374023e+00,-2.076329498291015625e+02,-1.024171218872070312e+02,-1.802390594482421875e+02,1.166222991943359375e+02,8.770228385925292969e+00,3.480780029296875000e+01,-1.537292938232421875e+02,6.622257232666015625e+01,1.191414108276367188e+02
6.400000303983688354e-02,1.000000000000000000e+00,8.452827453613281250e+00,-1.048051452636718750e+01,2.944023847579956055e+00,-2.076326599121093750e+02,-1.024165802001953125e+02,-1.802387084960937500e+02,1.166222991943359375e+02,8.770228385925292969e+00,3.480780029296875000e+01,-1.537292938232421875e+02,6.622257232666015625e+01,1.191414108276367188e+02
6.800000369548797607e-02,1.000000000000000000e+00,8.448694229125976562e+00,-1.047705459594726562e+01,2.944378614425659180e+00,-2.076320800781250000e+02,-1.024156036376953125e+02,-1.802380065917968750e+02,1.166222991943359375e+02,8.770228385925292969e+00,3.480780029296875000e+01,-1.537292938232421875e+02,6.622257232666015625e+01,1.191414108276367188e+02
7.199999690055847168e-02,1.000000000000000000e+00,8.443444252014160156e+00,-1.047250938415527344e+01,2.944864273071289062e+00,-2.076310729980468750e+02,-1.024140090942382812e+02,-1.802368316650390625e+02,1.166222991943359375e+02,8.770228385925292969e+00,3.480780029296875000e+01,-1.537292938232421875e+02,6.622257232666015625e+01,1.191414108276367188e+02
7.599999755620956421e-02,1.000000000000000000e+00,8.436943054199218750e+00,-1.046667289733886719e+01,2.945511579513549805e+00,-2.076294403076171875e+02,-1.024115219116210938e+02,-1.802349700927734375e+02,1.166222991943359375e+02,8.770228385925292969e+00,3.480780029296875000e+01,-1.537292938232421875e+02,6.622257232666015625e+01,1.191414108276367188e+02
7.999999821186065674e-02,1.000000000000000000e+00,8.428987503051757812e+00,-1.045920276641845703e+01,2.946357011795043945e+00,-2.076269683837890625e+02,-1.024078521728515625e+02,-1.802321319580078125e+02,1.166222991943359375e+02,8.770228385925292969e+00,3.480780029296875000e+01,-1.537292938232421875e+02,6.622257232666015625e+01,1.191414108276367188e+02
8.399999886751174927e-02,1.000000000000000000e+00,8.419281005859375000e+00,-1.044964122772216797e+01,2.947441339492797852e+00,-2.076234283447265625e+02,-1.024026718139648438e+02,-1.802280883789062500e+02,1.166222991943359375e+02,8.770228385925292969e+00,3.480780029296875000e+01,-1.537292938232421875e+02,6.622257232666015625e+01,1.191414108276367188e+02
8.799999952316284180e-02,1.000000000000000000e+00,8.407450675964355469e+00,-1.043757343292236328e+01,2.948814392089843750e+00,-2.076184844970703125e+02,-1.023955688476562500e+02,-1.802225036621093750e+02,1.166222991943359375e+02,8.770228385925292969e+00,3.480780029296875000e+01,-1.537292938232421875e+02,6.622257232666015625e+01,1.191414108276367188e+02
9.200000017881393433e-02,1.000000000000000000e+00,8.393170356750488281e+00,-1.042283248901367188e+01,2.950529813766479492e+00,-2.076118469238281250e+02,-1.023861160278320312e+02,-1.802150268554687500e+02,1.166222991943359375e+02,8.770228385925292969e+00,3.480780029296875000e+01,-1.537292938232421875e+02,6.622257232666015625e+01,1.191414108276367188e+02
9.600000083446502686e-02,1.000000000000000000e+00,8.376325607299804688e+00,-1.040560531616210938e+01,2.952622175216674805e+00,-2.076031799316406250e+02,-1.023738708496093750e+02,-1.802052612304687500e+02,1.166222991943359375e+02,8.770228385925292969e+00,3.480780029296875000e+01,-1.537292938232421875e+02,6.622257232666015625e+01,1.191414108276367188e+02
1.000000014901161194e-01,1.000000000000000000e+00,8.357042312622070312e+00,-1.038630771636962891e+01,2.955097436904907227e+00,-2.075920867919921875e+02,-1.023583602905273438e+02,-1.801928100585937500e+02,1.166222991943359375e+02,8.770228385925292969e+00,3.480780029296875000e+01,-1.537292938232421875e+02,6.622257232666015625e+01,1.191414108276367188e+02
1.040000021457672119e-01,1.000000000000000000e+00,8.335490226745605469e+00,-1.036538028717041016e+01,2.957949638366699219e+00,-2.075782318115234375e+02,-1.023391647338867188e+02,-1.801773223876953125e+02,1.166222991943359375e+02,8.770228385925292969e+00,3.480780029296875000e+01,-1.537292938232421875e+02,6.622257232666015625e+01,1.191414108276367188e+02
1.080000028014183044e-01,1.000000000000000000e+00,8.311672210693359375e+00,-1.034311866760253906e+01,2.961187601089477539e+00,-2.075613403320312500e+02,-1.023159103393554688e+02,-1.801584472656250000e+02,1.166222991943359375e+02,8.770228385925292969e+00,3.480780029296875000e+01,-1.537292938232421875e+02,6.622257232666015625e+01,1.191414108276367188e+02
1.120000034570693970e-01,1.000000000000000000e+00,8.285411834716796875e+00,-1.031954002380371094e+01,2.964833498001098633e+00,-2.075411682128906250e+02,-1.022883071899414062e+02,-1.801359558105468750e+02,1.166222991943359375e+02,8.770228385925292969e+00,3.480780029296875000e+01,-1.537292938232421875e+02,6.622257232666015625e+01,1.191414108276367188e+02
1.159999966621398926e-01,1.000000000000000000e+00,8.256522178649902344e+00,-1.029442405700683594e+01,2.968902587890625000e+00,-2.075175781250000000e+02,-1.022561492919921875e+02,-1.801096801757812500e+02,1.166222991943359375e+02,8.770228385925292969e+00,3.480780029296875000e+01,-1.537292938232421875e+02,6.622257232666015625e+01,1.191414108276367188e+02
1.199999973177909851e-01,1.000000000000000000e+00,8.224877357482910156e+00,-1.026748275756835938e+01,2.973402500152587891e+00,-2.074905090332031250e+02,-1.022193450927734375e+02,-1.800795593261718750e+02,1.166222991943359375e+02,8.770228385925292969e+00,3.480780029296875000e+01,-1.537292938232421875e+02,6.622257232666015625e+01,1.191414108276367188e+02
1.239999979734420776e-01,1.000000000000000000e+00,8.190414428710937500e+00,-1.023860168457031250e+01,2.978346586227416992e+00,-2.074599456787109375e+02,-1.021778945922851562e+02,-1.800455780029296875e+02,1.166222991943359375e+02,8.770228385925292969e+00,3.480780029296875000e+01,-1.537292938232421875e+02,6.622257232666015625e+01,1.191414108276367188e+02
1.280000060796737671e-01,1.000000000000000000e+00,8.153150558471679688e+00,-1.020791530609130859e+01,2.983748674392700195e+00,-2.074259948730468750e+02,-1.021318969726562500e+02,-1.800078277587890625e+02,1.166222991943359375e+02,8.770228385925292969e+00,3.480780029296875000e+01,-1.537292938232421875e+02,6.622257232666015625e+01,1.191414108276367188e+02
1.309999972581863403e-01,1.000000000000000000e+00,8.113198280334472656e+00,-1.017561626434326172e+01,2.989606380462646484e+00,-2.073887481689453125e+02,-1.020815277099609375e+02,-1.799664916992187500e+02,1.166222991943359375e+02,8.770228385925292969e+00,3.480780029296875000e+01,-1.537292938232421875e+02,6.622257232666015625e+01,1.191414108276367188e+02
1.360000073909759521e-01,1.000000000000000000e+00,8.070791244506835938e+00,-1.014179801940917969e+01,2.995893478393554688e+00,-2.073484649658203125e+02,-1.020270614624023438e+02,-1.799217376708984375e+02,1.166222991943359375e+02,8.770228385925292969e+00,3.480780029296875000e+01,-1.537292938232421875e+02,6.622257232666015625e+01,1.191414108276367188e+02
1.389999985694885254e-01,1.000000000000000000e+00,8.026187896728515625e+00,-1.010643196105957031e+01,3.002574682235717773e+00,-2.073053741455078125e+02,-1.019688568115234375e+02,-1.798738708496093750e+02,1.166222991943359375e+02,8.770228385925292969e+00,3.480780029296875000e+01,-1.537292938232421875e+02,6.622257232666015625e+01,1.191414108276367188e+02
1.439999938011169434e-01,1.000000000000000000e+00,7.979479789733886719e+00,-1.006933879852294922e+01,3.009626150131225586e+00,-2.072597656250000000e+02,-1.019072952270507812e+02,-1.798232574462890625e+02,1.166222991943359375e+02,8.770228385925292969e+00,3.480780029296875000e+01,-1.537292938232421875e+02,6.622257232666015625e+01,1.191414108276367188e+02
1.480000019073486328e-01,1.000000000000000000e+00,7.930555820465087891e+00,-1.003014755249023438e+01,3.017035484313964844e+00,-2.072120361328125000e+02,-1.018428497314453125e+02,-1.797702484130859375e+02,1.166222991943359375e+02,8.770228385925292969e+00,3.480780029296875000e+01,-1.537292938232421875e+02,6.622257232666015625e+01,1.191414108276367188e+02
1.519999951124191284e-01,1.000000000000000000e+00,7.879289150238037109e+00,-9.988437652587890625e+00,3.024784326553344727e+00,-2.071625213623046875e+02,-1.017759552001953125e+02,-1.797152862548828125e+02,1.166222991943359375e+02,8.770228385925292969e+00,3.480780029296875000e+01,-1.537292938232421875e+02,6.622257232666015625e+01,1.191414108276367188e+02
1.560000032186508179e-01,1.000000000000000000e+00,7.825751781463623047e+00,-9.944091796875000000e+00,3.032839775085449219e+00,-2.071115875244140625e+02,-1.017070693969726562e+02,-1.796587066650390625e+02,1.166222991943359375e+02,8.770228385925292969e+00,3.480780029296875000e+01,-1.537292938232421875e+02,6.622257232666015625e+01,1.191414108276367188e+02
1.599999964237213135e-01,1.000000000000000000e+00,7.770215511322021484e+00,-9.897398948669433594e+00,3.041157484054565430e+00,-2.070595092773437500e+02,-1.016365890502929688e+02,-1.796008453369140625e+02,1.166222991943359375e+02,8.770228385925292969e+00,3.480780029296875000e+01,-1.537292938232421875e+02,6.622257232666015625e+01,1.191414108276367188e+02
1.640000045299530029e-01,1.000000000000000000e+00,7.713002204895019531e+00,-9.848830223083496094e+00,3.049694776535034180e+00,-2.070065612792968750e+02,-1.015648880004882812e+02,-1.795420227050781250e+02,1.166222991943359375e+02,8.770228385925292969e+00,3.480780029296875000e+01,-1.537292938232421875e+02,6.622257232666015625e+01,1.191414108276367188e+02
1.679999977350234985e-01,1.000000000000000000e+00,7.654406070709228516e+00,-9.798800468444824219e+00,3.058411836624145508e+00,-2.069529876708984375e+02,-1.014922485351562500e+02,-1.794824523925781250e+02,1.166222991943359375e+02,8.770228385925292969e+00,3.480780029296875000e+01,-1.537292938232421875e+02,6.622257232666015625e+01,1.191414108276367188e+02
1.720000058412551880e-01,1.000000000000000000e+00,7.594680309295654297e+00,-9.747623443603515625e+00,3.067269325256347656e+00,-2.068989257812500000e+02,-1.014189300537109375e+02,-1.794223632812500000e+02,1.166222991943359375e+02,8.770228385925292969e+00,3.480780029296875000e+01,-1.537292938232421875e+02,6.622257232666015625e+01,1.191414108276367188e+02
1.759999990463256836e-01,1.000000000000000000e+00,7.534031867980957031e+00,-9.695548057556152344e+00,3.076231718063354492e+00,-2.068445434570312500e+02,-1.013451385498046875e+02,-1.793619079589843750e+02,1.166222991943359375e+02,8.770228385925292969e+00,3.480780029296875000e+01,-1.537292938232421875e+02,6.622257232666015625e+01,1.191414108276367188e+02
1.800000071525573730e-01,1.000000000000000000e+00,7.472610473632812500e+00,-9.642757415771484375e+00,3.085272789001464844e+00,-2.067899627685546875e+02,-1.012710342407226562e+02,-1.793012084960937500e+02,1.166222991943359375e+02,8.770228385925292969e+00,3.480780029296875000e+01,-1.537292938232421875e+02,6.622257232666015625e+01,1.191414108276367188e+02
1.840000003576278687e-01,1.000000000000000000e+00,7.410503387451171875e+00,-9.589359283447265625e+00,3.094375371932983398e+00,-2.067352600097656250e+02,-1.011967315673828125e+02,-1.792403717041015625e+02,1.166222991943359375e+02,8.770228385925292969e+00,3.480780029296875000e+01,-1.537292938232421875e+02,6.622257232666015625e+01,1.191414108276367188e+02
1.879999935626983643e-01,1.000000000000000000e+00,7.347769737243652344e+00,-9.535441398620605469e+00,3.103527545928955078e+00,-2.066804962158203125e+02,-1.011223144531250000e+02,-1.791794586181640625e+02,1.166222991943359375e+02,8.770228385925292969e+00,3.480780029296875000e+01,-1.537292938232421875e+02,6.622257232666015625e+01,1.191414108276367188e+02
1.920000016689300537e-01,1.000000000000000000e+00,7.284523963928222656e+00,-9.481123924255371094e+00,3.112715005874633789e+00,-2.066257171630859375e+02,-1.010478515625000000e+02,-1.791184997558593750e+02,1.166222991943359375e+02,8.770228385925292969e+00,3.480780029296875000e+01,-1.537292938232421875e+02,6.622257232666015625e+01,1.191414108276367188e+02
1.959999948740005493e-01,1.000000000000000000e+00,7.220951080322265625e+00,-9.426568031311035156e+00,3.121922731399536133e+00,-2.065709381103515625e+02,-1.009733734130859375e+02,-1.790575714111328125e+02,1.166222991943359375e+02,8.770228385925292969e+00,3.480780029296875000e+01,-1.537292938232421875e+02,6.622257232666015625e+01,1.191414108276367188e+02
2.000000029802322388e-01,1.000000000000000000e+00,7.157240390777587891e+00,-9.371916770935058594e+00,3.131138086318969727e+00,-2.065161590576171875e+02,-1.008988876342773438e+02,-1.789966125488281250e+02,1.166222991943359375e+02,8.770228385925292969e+00,3.480780029296875000e+01,-1.537292938232421875e+02,6.622257232666015625e+01,1.191414108276367188e+02
2.039999961853027344e-01,1.000000000000000000e+00,7.093504428863525391e+00,-9.317250251770019531e+00,3.140354156494140625e+00,-2.064613800048828125e+02,-1.008244094848632812e+02,-1.789356689453125000e+02,1.166222991943359375e+02,8.770228385925292969e+00,3.480780029296875000e+01,-1.537292938232421875e+02,6.622257232666015625e+01,1.191414108276367188e+02
2.080000042915344238e-01,1.000000000000000000e+00,7.029773235321044922e+00,-9.262586593627929688e+00,3.149569511413574219e+00,-2.064066009521484375e+02,-1.007499465942382812e+02,-1.788747406005859375e+02,1.166222991943359375e+02,8.770228385925292969e+00,3.480780029296875000e+01,-1.537292938232421875e+02,6.622257232666015625e+01,1.191414108276367188e+02
2.119999974966049194e-01,1.000000000000000000e+00,6.966048240661621094e+00,-9.207930564880371094e+00,3.158784151077270508e+00,-2.063518371582031250e+02,-1.006754837036132812e+02,-1.788138122558593750e+02,1.166222991943359375e+02,8.770228385925292969e+00,3.480780029296875000e+01,-1.537292938232421875e+02,6.622257232666015625e+01,1.191414108276367188e+02
2.160000056028366089e-01,1.000000000000000000e+00,6.902329444885253906e+00,-9.153277397155761719e+00,3.167997598648071289e+00,-2.062970886230468750e+02,-1.006010208129882812e+02,-1.787528839111328125e+02,1.166222991943359375e+02,8.770228385925292969e+00,3.480780029296875000e+01,-1.537292938232421875e+02,6.622257232666015625e+01,1.191414108276367188e+02
2.199999988079071045e-01,1.000000000000000000e+00,6.838616847991943359e+00,-9.098630905151367188e+00,3.177210330963134766e+00,-2.062423248291015625e+02,-1.005265731811523438e+02,-1.786919708251953125e+02,1.166222991943359375e+02,8.770228385925292969e+00,3.480780029296875000e+01,-1.537292938232421875e+02,6.622257232666015625e+01,1.191414108276367188e+02
2.240000069141387939e-01,1.000000000000000000e+00,6.774910449981689453e+00,-9.043989181518554688e+00,3.186422109603881836e+00,-2.061875762939453125e+02,-1.004521331787109375e+02,-1.786310577392578125e+02,1.166222991943359375e+02,8.770228385925292969e+00,3.480780029296875000e+01,-1.537292938232421875e+02,6.622257232666015625e+01,1.191414108276367188e+02
2.280000001192092896e-01,1.000000000000000000e+00,6.711209774017333984e+00,-8.989353179931640625e+00,3.195632934570312500e+00,-2.061328277587890625e+02,-1.003777008056640625e+02,-1.785701599121093750e+02,1.166222991943359375e+02,8.770228385925292969e+00,3.480780029296875000e+01,-1.537292938232421875e+02,6.622257232666015625e+01,1.191414108276367188e+02
2.319999933242797852e-01,1.000000000000000000e+00,6.647515773773193359e+00,-8.934722900390625000e+00,3.204843044281005859e+00,-2.060780944824218750e+02,-1.003032760620117188e+02,-1.785092620849609375e+02,1.166222991943359375e+02,8.770228385925292969e+00,3.480780029296875000e+01,-1.537292938232421875e+02,6.622257232666015625e+01,1.191414108276367188e+02
2.360000014305114746e-01,1.000000000000000000e+00,6.583827972412109375e+00,-8.880096435546875000e+00,3.214051961898803711e+00,-2.060233612060546875e+02,-1.002288589477539062e+02,-1.784483642578125000e+02,1.166222991943359375e+02,8.770228385925292969e+00,3.480780029296875000e+01,-1.537292938232421875e+02,6.622257232666015625e+01,1.191414108276367188e+02
2.399999946355819702e-01,1.000000000000000000e+00,6.520145416259765625e+00,-8.825476646423339844e+00,3.223260402679443359e+00,-2.059686279296875000e+02,-1.001544494628906250e+02,-1.783874816894531250e+02,1.166222991943359375e+02,8.770228385925292969e+00,3.480780029296875000e+01,-1.537292938232421875e+02,6.622257232666015625e+01,1.191414108276367188e+02
2.440000027418136597e-01,1.000000000000000000e+00,6.456469535827636719e+00,-8.770860671997070312e+00,3.232467651367187500e+00,-2.059139099121093750e+02,-1.000800399780273438e+02,-1.783265991210937500e+02,1.166222991943359375e+02,8.770228385925292969e+00,3.480780029296875000e+01,-1.537292938232421875e+02,6.622257232666015625e+01,1.191414108276367188e+02
2.479999959468841553e-01,1.000000000000000000e+00,6.392799377441406250e+00,-8.716250419616699219e+00,3.241674423217773438e+00,-2.058591918945312500e+02,-1.000056457519531250e+02,-1.782657318115234375e+02,1.166222991943359375e+02,8.770228385925292969e+00,3.480780029296875000e+01,-1.537292938232421875e+02,6.622257232666015625e+01,1.191414108276367188e+02
2.520000040531158447e-01,1.000000000000000000e+00,6.329134941101074219e+00,-8.661644935607910156e+00,3.250880002975463867e+00,-2.058044738769531250e+02,-9.993125152587890625e+01,-1.782048492431640625e+02,1.166222991943359375e+02,8.770228385925292969e+00,3.480780029296875000e+01,-1.537292938232421875e+02,6.622257232666015625e+01,1.191414108276367188e+02
2.560000121593475342e-01,1.000000000000000000e+00,6.265476703643798828e+00,-8.607045173645019531e+00,3.260084867477416992e+00,-2.057497711181640625e+02,-9.985686492919921875e+01,-1.781439819335937500e+02,1.166222991943359375e+02,8.770228385925292969e+00,3.480780029296875000e+01,-1.537292938232421875e+02,6.622257232666015625e+01,1.191414108276367188e+02
2.599999904632568359e-01,1.000000000000000000e+00,6.201824188232421875e+00,-8.552449226379394531e+00,3.269289016723632812e+00,-2.056950683593750000e+02,-9.978248596191406250e+01,-1.780831298828125000e+02,1.166222991943359375e+02,8.770228385925292969e+00,3.480780029296875000e+01,-1.537292938232421875e+02,6.622257232666015625e+01,1.191414108276367188e+02
2.639999985694885254e-01,1.000000000000000000e+00,6.138176918029785156e+00,-8.497859001159667969e+00,3.278492212295532227e+00,-2.056403656005859375e+02,-9.970811462402343750e+01,-1.780222778320312500e+02,1.166222991943359375e+02,8.770228385925292969e+00,3.480780029296875000e+01,-1.537292938232421875e+02,6.622257232666015625e+01,1.191414108276367188e+02
2.680000066757202148e-01,1.000000000000000000e+00,6.074535846710205078e+00,-8.443273544311523438e+00,3.287694454193115234e+00,-2.055856781005859375e+02,-9.963375091552734375e+01,-1.779614257812500000e+02,1.166222991943359375e+02,8.770228385925292969e+00,3.480780029296875000e+01,-1.537292938232421875e+02,6.622257232666015625e+01,1.191414108276367188e+02
2.720000147819519043e-01,1.000000000000000000e+00,6.010900497436523438e+00,-8.388692855834960938e+00,3.296895980834960938e+00,-2.055309753417968750e+02,-9.955939483642578125e+01,-1.779005889892578125e+02,1.166222991943359375e+02,8.770228385925292969e+00,3.480780029296875000e+01,-1.537292938232421875e+02,6.622257232666015625e+01,1.191414108276367188e+02
2.759999930858612061e-01,1.000000000000000000e+00,5.947270393371582031e+00,-8.334117889404296875e+00,3.306097030639648438e+00,-2.054763031005859375e+02,-9.948503875732421875e+01,-1.778397369384765625e+02,1.166222991943359375e+02,8.770228385925292969e+00,3.480780029296875000e+01,-1.537292938232421875e+02,6.622257232666015625e+01,1.191414108276367188e+02
2.800000011920928955e-01,1.000000000000000000e+00,5.883646488189697266e+00,-8.279546737670898438e+00,3.315296888351440430e+00,-2.054216156005859375e+02,-9.941069030761718750e+01,-1.777789154052734375e+02,1.166222991943359375e+02,8.770228385925292969e+00,3.480780029296875000e+01,-1.537292938232421875e+02,6.622257232666015625e+01,1.191414108276367188e+02
2.840000092983245850e-01,1.000000000000000000e+00,5.820027828216552734e+00,-8.224980354309082031e+00,3.324495792388916016e+00,-2.053669433593750000e+02,-9.933635711669921875e+01,-1.777180786132812500e+02,1.166222991943359375e+02,8.770228385925292969e+00,3.480780029296875000e+01,-1.537292938232421875e+02,6.622257232666015625e+01,1.191414108276367188e+02
2.879999876022338867e-01,1.000000000000000000e+00,5.756414890289306641e+00,-8.170419692993164062e+00,3.333694219589233398e+00,-2.053122711181640625e+02,-9.926202392578125000e+01,-1.776572723388671875e+02,1.166222991943359375e+02,8.770228385925292969e+00,3.480780029296875000e+01,-1.537292938232421875e+02,6.622257232666015625e+01,1.191414108276367188e+02
2.919999957084655762e-01,1.000000000000000000e+00,5.692807197570800781e+00,-8.115862846374511719e+00,3.342891693115234375e+00,-2.052576141357421875e+02,-9.918769836425781250e+01,-1.775964508056640625e+02,1.166222991943359375e+02,8.770228385925292969e+00,3.480780029296875000e+01,-1.537292938232421875e+02,6.622257232666015625e+01,1.191414108276367188e+02
2.960000038146972656e-01,1.000000000000000000e+00,5.629205703735351562e+00,-8.061310768127441406e+00,3.352088212966918945e+00,-2.052029571533203125e+02,-9.911338043212890625e+01,-1.775356445312500000e+02,1.166222991943359375e+02,8.770228385925292969e+00,3.480780029296875000e+01,-1.537292938232421875e+02,6.622257232666015625e+01,1.191414108276367188e+02
3.000000119209289551e-01,1.000000000000000000e+00,5.565608501434326172e+00,-8.006764411926269531e+00,3.361284255981445312e+00,-2.051483001708984375e+02,-9.903907012939453125e+01,-1.774748382568359375e+02,1.166222991943359375e+02,8.770228385925292969e+00,3.480780029296875000e+01,-1.537292938232421875e+02,6.622257232666015625e+01,1.191414108276367188e+02
3.039999902248382568e-01,1.000000000000000000e+00,5.502017974853515625e+00,-7.952221870422363281e+00,3.370479106903076172e+00,-2.050936431884765625e+02,-9.896475982666015625e+01,-1.774140472412109375e+02,1.166222991943359375e+02,8.770228385925292969e+00,3.480780029296875000e+01,-1.537292938232421875e+02,6.622257232666015625e+01,1.191414108276367188e+02
3.079999983310699463e-01,1.000000000000000000e+00,5.438432216644287109e+00,-7.897684574127197266e+00,3.379673480987548828e+00,-2.050390014648437500e+02,-9.889046478271484375e+01,-1.773532409667968750e+02,1.166222991943359375e+02,8.770228385925292969e+00,3.480780029296875000e+01,-1.537292938232421875e+02,6.622257232666015625e+01,1.191414108276367188e+02
3.120000064373016357e-01,1.000000000000000000e+00,5.374852657318115234e+00,-7.843151569366455078e+00,3.388867139816284180e+00,-2.049843597412109375e+02,-9.881616973876953125e+01,-1.772924499511718750e+02,1.166222991943359375e+02,8.770228385925292969e+00,3.480780029296875000e+01,-1.537292938232421875e+02,6.622257232666015625e+01,1.191414108276367188e+02
3.160000145435333252e-01,1.000000000000000000e+00,5.311277866363525391e+00,-7.788623809814453125e+00,3.398059606552124023e+00,-2.049297332763671875e+02,-9.874188995361328125e+01,-1.772316589355468750e+02,1.166222991943359375e+02,8.770228385925292969e+00,3.480780029296875000e+01,-1.537292938232421875e+02,6.622257232666015625e+01,1.191414108276367188e+02
3.199999928474426270e-01,1.000000000000000000e+00,5.247708797454833984e+00,-7.734099864959716797e+00,3.407251834869384766e+00,-2.048750915527343750e+02,-9.866760253906250000e+01,-1.771708831787109375e+02,1.166222991943359375e+02,8.770228385925292969e+00,3.480780029296875000e+01,-1.537292938232421875e+02,6.622257232666015625e+01,1.191414108276367188e+02
3.240000009536743164e-01,1.000000000000000000e+00,5.184144496917724609e+00,-7.679580688476562500e+00,3.416442871093750000e+00,-2.048204803466796875e+02,-9.859333038330078125e+01,-1.771101074218750000e+02,1.166222991943359375e+02,8.770228385925292969e+00,3.480780029296875000e+01,-1.537292938232421875e+02,6.622257232666015625e+01,1.191414108276367188e+02
3.280000090599060059e-01,1.000000000000000000e+00,5.120585918426513672e+00,-7.625066280364990234e+00,3.425633430480957031e+00,-2.047658538818359375e+02,-9.851905822753906250e+01,-1.770493469238281250e+02,1.166222991943359375e+02,8.770228385925292969e+00,3.480780029296875000e+01,-1.537292938232421875e+02,6.622257232666015625e+01,1.191414108276367188e+02
3.319999873638153076e-01,1.000000000000000000e+00,5.057032585144042969e+00,-7.570556163787841797e+00,3.434823036193847656e+00,-2.047112426757812500e+02,-9.844480133056640625e+01,-1.769885711669921875e+02,1.166222991943359375e+02,8.770228385925292969e+00,3.480780029296875000e+01,-1.537292938232421875e+02,6.622257232666015625e+01,1.191414108276367188e+02
3.359999954700469971e-01,1.000000000000000000e+00,4.993484497070312500e+00,-7.516051292419433594e+00,3.444011688232421875e+00,-2.046566162109375000e+02,-9.837054443359375000e+01,-1.769278259277343750e+02,1.166222991943359375e+02,8.770228385925292969e+00,3.480780029296875000e+01,-1.537292938232421875e+02,6.622257232666015625e+01,1.191414108276367188e+02
3.400000035762786865e-01,1.000000000000000000e+00,4.929941654205322266e+00,-7.461550712585449219e+00,3.453199863433837891e+00,-2.046020050048828125e+02,-9.829629516601562500e+01,-1.768670654296875000e+02,1.166222991943359375e+02,8.770228385925292969e+00,3.480780029296875000e+01,-1.537292938232421875e+02,6.622257232666015625e+01,1.191414108276367188e+02
3.440000116825103760e-01,1.000000000000000000e+00,4.866404056549072266e+00,-7.407054424285888672e+00,3.462387323379516602e+00,-2.045474090576171875e+02,-9.822205352783203125e+01,-1.768063201904296875e+02,1.166222991943359375e+02,8.770228385925292969e+00,3.480780029296875000e+01,-1.537292938232421875e+02,6.622257232666015625e+01,1.191414108276367188e+02
3.479999899864196777e-01,1.000000000000000000e+00,4.802871704101562500e+00,-7.352561950683593750e+00,3.471573829650878906e+00,-2.044928131103515625e+02,-9.814781951904296875e+01,-1.767455749511718750e+02,1.166222991943359375e+02,8.770228385925292969e+00,3.480780029296875000e+01,-1.537292938232421875e+02,6.622257232666015625e+01,1.191414108276367188e+02
3.519999980926513672e-01,1.000000000000000000e+00,4.739344596862792969e+00,-7.298074245452880859e+00,3.480759620666503906e+00,-2.044382019042968750e+02,-9.807357788085937500e+01,-1.766848449707031250e+02,1.166222991943359375e+02,8.770228385925292969e+00,3.480780029296875000e+01,-1.537292938232421875e+02,6.622257232666015625e+01,1.191414108276367188e+02
3.560000061988830566e-01,1.000000000000000000e+00,4.675822257995605469e+00,-7.243591785430908203e+00,3.489944696426391602e+00,-2.043836212158203125e+02,-9.799935913085937500e+01,-1.766240997314453125e+02,1.166222991943359375e+02,8.770228385925292969e+00,3.480780029296875000e+01,-1.537292938232421875e+02,6.622257232666015625e+01,1.191414108276367188e+02
3.600000143051147461e-01,1.000000000000000000e+00,4.612305164337158203e+00,-7.189113140106201172e+00,3.499129295349121094e+00,-2.043290252685546875e+02,-9.792514038085937500e+01,-1.765633697509765625e+02,1.166222991943359375e+02,8.770228385925292969e+00,3.480780029296875000e+01,-1.537292938232421875e+02,6.622257232666015625e+01,1.191414108276367188e+02
3.639999926090240479e-01,1.000000000000000000e+00,4.548793315887451172e+00,-7.134638309478759766e+00,3.508312940597534180e+00,-2.042744598388671875e+02,-9.785092163085937500e+01,-1.765026550292968750e+02,1.166222991943359375e+02,8.770228385925292969e+00,3.480780029296875000e+01,-1.537292938232421875e+02,6.622257232666015625e+01,1.191414108276367188e+02
3.680000007152557373e-01,1.000000000000000000e+00,4.485286235809326172e+00,-7.080168724060058594e+00,3.517495870590209961e+00,-2.042198791503906250e+02,-9.777671813964843750e+01,-1.764419250488281250e+02,1.166222991943359375e+02,8.770228385925292969e+00,3.480780029296875000e+01,-1.537292938232421875e+02,6.622257232666015625e+01,1.191414108276367188e+02
3.720000088214874268e-01,1.000000000000000000e+00,4.421784400939941406e+00,-7.025702953338623047e+00,3.526677846908569336e+00,-2.041652984619140625e+02,-9.770251464843750000e+01,-1.763812103271484375e+02,1.166222991943359375e+02,8.770228385925292969e+00,3.480780029296875000e+01,-1.537292938232421875e+02,6.622257232666015625e+01,1.191414108276367188e+02
3.759999871253967285e-01,1.000000000000000000e+00,4.358287334442138672e+00,-6.971241474151611328e+00,3.535859346389770508e+00,-2.041107330322265625e+02,-9.762831878662109375e+01,-1.763204956054687500e+02,1.166222991943359375e+02,8.770228385925292969e+00,3.480780029296875000e+01,-1.537292938232421875e+02,6.622257232666015625e+01,1.191414108276367188e+02
3.799999952316284180e-01,1.000000000000000000e+00,4.294795513153076172e+00,-6.916784286499023438e+00,3.545040130615234375e+00,-2.040561676025390625e+02,-9.755413055419921875e+01,-1.762597961425781250e+02,1.166222991943359375e+02,8.770228385925292969e+00,3.480780029296875000e+01,-1.537292938232421875e+02,6.622257232666015625e+01,1.191414108276367188e+02
3.840000033378601074e-01,1.000000000000000000e+00,4.231308460235595703e+00,-6.862331867218017578e+00,3.554219961166381836e+00,-2.040016021728515625e+02,-9.747994995117187500e+01,-1.761990966796875000e+02,1.166222991943359375e+02,8.770228385925292969e+00,3.480780029296875000e+01,-1.537292938232421875e+02,6.622257232666015625e+01,1.191414108276367188e+02
3.880000114440917969e-01,1.000000000000000000e+00,4.167826652526855469e+00,-6.807883262634277344e+00,3.563399314880371094e+00,-2.039470520019531250e+02,-9.740576934814453125e+01,-1.761384124755859375e+02,1.166222991943359375e+02,8.770228385925292969e+00,3.480780029296875000e+01,-1.537292938232421875e+02,6.622257232666015625e+01,1.191414108276367188e+02
3.919999897480010986e-01,1.000000000000000000e+00,4.104349613189697266e+00,-6.753438949584960938e+00,3.572577953338623047e+00,-2.038925018310546875e+02,-9.733159637451171875e+01,-1.760777130126953125e+02,1.166222991943359375e+02,8.770228385925292969e+00,3.480780029296875000e+01,-1.537292938232421875e+02,6.622257232666015625e+01,1.191414108276367188e+02
3.959999978542327881e-01,1.000000000000000000e+00,4.040876865386962891e+00,-6.698998451232910156e+00,3.581755876541137695e+00,-2.038379516601562500e+02,-9.725743103027343750e+01,-1.760170288085937500e+02,1.166222991943359375e+02,8.770228385925292969e+00,3.480780029296875000e+01,-1.537292938232421875e+02,6.622257232666015625e+01,1.191414108276367188e+02
4.000000059604644775e-01,1.000000000000000000e+00,3.977409601211547852e+00,-6.644562721252441406e+00,3.590933084487915039e+00,-2.037834014892578125e+02,-9.718327331542968750e+01,-1.759563446044921875e+02,1.166222991943359375e+02,8.770228385925292969e+00,3.480780029296875000e+01,-1.537292938232421875e+02,6.622257232666015625e+01,1.191414108276367188e+02
4.040000140666961670e-01,1.000000000000000000e+00,3.913946866989135742e+00,-6.590130805969238281e+00,3.600109577178955078e+00,-2.037288665771484375e+02,-9.710911560058593750e+01,-1.758956604003906250e+02,1.166222991943359375e+02,8.770228385925292969e+00,3.480780029296875000e+01,-1.537292938232421875e+02,6.622257232666015625e+01,1.191414108276367188e+02
4.079999923706054688e-01,1.000000000000000000e+00,3.850489377975463867e+00,-6.535702705383300781e+00,3.609285354614257812e+00,-2.036743316650390625e+02,-9.703496551513671875e+01,-1.758349914550781250e+02,1.166222991943359375e+02,8.770228385925292969e+00,3.480780029296875000e+01,-1.537292938232421875e+02,6.622257232666015625e+01,1.191414108276367188e+02
4.120000004768371582e-01,1.000000000000000000e+00,3.787035942077636719e+00,-6.481279373168945312e+00,3.618460416793823242e+00,-2.036197967529296875e+02,-9.696082305908203125e+01,-1.757743377685546875e+02,1.166222991943359375e+02,8.770228385925292969e+00,3.480780029296875000e+01,-1.537292938232421875e+02,6.622257232666015625e+01,1.191414108276367188e+02
4.160000085830688477e-01,1.000000000000000000e+00,3.723587751388549805e+00,-6.426859378814697266e+00,3.627634763717651367e+00,-2.035652770996093750e+02,-9.688668060302734375e+01,-1.757136688232421875e+02,1.166222991943359375e+02,8.770228385925292969e+00,3.480780029296875000e+01,-1.537292938232421875e+02,6.622257232666015625e+01,1.191414108276367188e+02
4.199999868869781494e-01,1.000000000000000000e+00,3.660143852233886719e+00,-6.372444152832031250e+00,3.636808633804321289e+00,-2.035107421875000000e+02,-9.681255340576171875e+01,-1.756529998779296875e+02,1.166222991943359375e+02,8.770228385925292969e+00,3.480780029296875000e+01,-1.537292938232421875e+02,6.622257232666015625e+01,1.191414108276367188e+02
4.239999949932098389e-01,1.000000000000000000e+00,3.596705198287963867e+00,-6.318032741546630859e+00,3.645981550216674805e+00,-2.034562225341796875e+02,-9.673841857910156250e+01,-1.755923461914062500e+02,1.166222991943359375e+02,8.770228385925292969e+00,3.480780029296875000e+01,-1.537292938232421875e+02,6.622257232666015625e+01,1.191414108276367188e+02
4.280000030994415283e-01,1.000000000000000000e+00,3.533270835876464844e+00,-6.263624668121337891e+00,3.655153989791870117e+00,-2.034017181396484375e+02,-9.666429901123046875e+01,-1.755316925048828125e+02,1.166222991943359375e+02,8.770228385925292969e+00,3.480780029296875000e+01,-1.537292938232421875e+02,6.622257232666015625e+01,1.191414108276367188e+02
4.320000112056732178e-01,1.000000000000000000e+00,3.469841480255126953e+00,-6.209220886230468750e+00,3.664325237274169922e+00,-2.033471984863281250e+02,-9.659017944335937500e+01,-1.754710540771484375e+02,1.166222991943359375e+02,8.770228385925292969e+00,3.480780029296875000e+01,-1.537292938232421875e+02,6.622257232666015625e+01,1.191414108276367188e+02
4.359999895095825195e-01,1.000000000000000000e+00,3.406416654586791992e+00,-6.154820919036865234e+00,3.673496007919311523e+00,-2.032926940917968750e+02,-9.651607513427734375e+01,-1.754104156494140625e+02,1.166222991943359375e+02,8.770228385925292969e+00,3.480780029296875000e+01,-1.537292938232421875e+02,6.622257232666015625e+01,1.191414108276367188e+02
4.399999976158142090e-01,1.000000000000000000e+00,3.342996358871459961e+00,-6.100424766540527344e+00,3.682666540145874023e+00,-2.032381896972656250e+02,-9.644196319580078125e+01,-1.753497772216796875e+02,1.166222991943359375e+02,8.770228385925292969e+00,3.480780029296875000e+01,-1.537292938232421875e+02,6.622257232666015625e+01,1.191414108276367188e+02
4.440000057220458984e-01,1.000000000000000000e+00,3.279580354690551758e+00,-6.046033382415771484e+00,3.691836357116699219e+00,-2.031836853027343750e+02,-9.636786651611328125e+01,-1.752891387939453125e+02,1.166222991943359375e+02,8.770228385925292969e+00,3.480780029296875000e+01,-1.537292938232421875e+02,6.622257232666015625e+01,1.191414108276367188e+02
4.480000138282775879e-01,1.000000000000000000e+00,3.216168642044067383e+00,-5.991645336151123047e+00,3.701005458831787109e+00,-2.031291961669921875e+02,-9.629376983642578125e+01,-1.752285156250000000e+02,1.166222991943359375e+02,8.770228385925292969e+00,3.480780029296875000e+01,-1.537292938232421875e+02,6.622257232666015625e+01,1.191414108276367188e+02
4.519999921321868896e-01,1.000000000000000000e+00,3.152761220932006836e+00,-5.937261581420898438e+00,3.710173845291137695e+00,-2.030747070312500000e+02,-9.621967315673828125e+01,-1.751678924560546875e+02,1.166222991943359375e+02,8.770228385925292969e+00,3.480780029296875000e+01,-1.537292938232421875e+02,6.622257232666015625e+01,1.191414108276367188e+02
4.560000002384185791e-01,1.000000000000000000e+00,3.089358091354370117e+00,-5.882881164550781250e+00,3.719341516494750977e+00,-2.030202178955078125e+02,-9.614559173583984375e+01,-1.751072845458984375e+02,1.166222991943359375e+02,8.770228385925292969e+00,3.480780029296875000e+01,-1.537292938232421875e+02,6.622257232666015625e+01,1.191414108276367188e+02
4.600000083446502686e-01,1.000000000000000000e+00,3.025959253311157227e+00,-5.828504562377929688e+00,3.728508949279785156e+00,-2.029657440185546875e+02,-9.607151031494140625e+01,-1.750466613769531250e+02,1.166222991943359375e+02,8.770228385925292969e+00,3.480780029296875000e+01,-1.537292938232421875e+02,6.622257232666015625e+01,1.191414108276367188e+02
4.639999866485595703e-01,1.000000000000000000e+00,2.962565183639526367e+00,-5.774131298065185547e+00,3.737675428390502930e+00,-2.029112548828125000e+02,-9.599743652343750000e+01,-1.749860534667968750e+02,1.166222991943359375e+02,8.770228385925292969e+00,3.480780029296875000e+01,-1.537292938232421875e+02,6.622257232666015625e+01,1.191414108276367188e+02
4.679999947547912598e-01,1.000000000000000000e+00,2.899175167083740234e+00,-5.719762325286865234e+00,3.746841669082641602e+00,-2.028567810058593750e+02,-9.592337036132812500e+01,-1.749254455566406250e+02,1.166222991943359375e+02,8.770228385925292969e+00,3.480780029296875000e+01,-1.537292938232421875e+02,6.622257232666015625e+01,1.191414108276367188e+02
4.720000028610229492e-01,1.000000000000000000e+00,2.835789680480957031e+00,-5.665396213531494141e+00,3.756006956100463867e+00,-2.028023071289062500e+02,-9.584930419921875000e+01,-1.748648376464843750e+02,1.166222991943359375e+02,8.770228385925292969e+00,3.480780029296875000e+01,-1.537292938232421875e+02,6.622257232666015625e+01,1.191414108276367188e+02
4.760000109672546387e-01,1.000000000000000000e+00,2.772408723831176758e+00,-5.611034393310546875e+00,3.765171766281127930e+00,-2.027478485107421875e+02,-9.577524566650390625e+01,-1.748042449951171875e+02,1.166222991943359375e+02,8.770228385925292969e+00,3.480780029296875000e+01,-1.537292938232421875e+02,6.622257232666015625e+01,1.191414108276367188e+02
4.799999892711639404e-01,1.000000000000000000e+00,2.709031581878662109e+00,-5.556675910949707031e+00,3.774335622787475586e+00,-2.026933746337890625e+02,-9.570118713378906250e+01,-1.747436370849609375e+02,1.166222991943359375e+02,8.770228385925292969e+00,3.480780029296875000e+01,-1.537292938232421875e+02,6.622257232666015625e+01,1.191414108276367188e+02
4.839999973773956299e-01,1.000000000000000000e+00,2.645658493041992188e+00,-5.502320766448974609e+00,3.783499240875244141e+00,-2.026389160156250000e+02,-9.562713623046875000e+01,-1.746830596923828125e+02,1.166222991943359375e+02,8.770228385925292969e+00,3.480780029296875000e+01,-1.537292938232421875e+02,6.622257232666015625e+01,1.191414108276367188e+02
4.880000054836273193e-01,1.000000000000000000e+00,2.582289695739746094e+00,-5.447968959808349609e+00,3.792662382125854492e+00,-2.025844573974609375e+02,-9.555309295654296875e+01,-1.746224822998046875e+02,1.166222991943359375e+02,8.770228385925292969e+00,3.480780029296875000e+01,-1.537292938232421875e+02,6.622257232666015625e+01,1.191414108276367188e+02
4.920000135898590088e-01,1.000000000000000000e+00,2.518924951553344727e+00,-5.393620967864990234e+00,3.801824569702148438e+00,-2.025299987792968750e+02,-9.547904968261718750e+01,-1.745618896484375000e+02,1.166222991943359375e+02,8.770228385925292969e+00,3.480780029296875000e+01,-1.537292938232421875e+02,6.622257232666015625e+01,1.191414108276367188e+02
4.959999918937683105e-01,1.000000000000000000e+00,2.455564260482788086e+00,-5.339276313781738281e+00,3.810986518859863281e+00,-2.024755554199218750e+02,-9.540501403808593750e+01,-1.745013122558593750e+02,1.166222991943359375e+02,8.770228385925292969e+00,3.480780029296875000e+01,-1.537292938232421875e+02,6.622257232666015625e+01,1.191414108276367188e+02
5.000000000000000000e-01,1.000000000000000000e+00,2.392207622528076172e+00,-5.284935474395751953e+00,3.820147514343261719e+00,-2.024210968017578125e+02,-9.533097839355468750e+01,-1.744407348632812500e+02,1.166222991943359375e+02,8.770228385925292969e+00,3.480780029296875000e+01,-1.537292938232421875e+02,6.622257232666015625e+01,1.191414108276367188e+02
5.040000081062316895e-01,1.000000000000000000e+00,2.328855037689208984e+00,-5.230597972869873047e+00,3.829308509826660156e+00,-2.023666534423828125e+02,-9.525695800781250000e+01,-1.743801574707031250e+02,1.166222991943359375e+02,8.770228385925292969e+00,3.480780029296875000e+01,-1.537292938232421875e+02,6.622257232666015625e+01,1.191414108276367188e+02
5.080000162124633789e-01,1.000000000000000000e+00,2.265506505966186523e+00,-5.176263809204101562e+00,3.838468074798583984e+00,-2.023122100830078125e+02,-9.518293762207031250e+01,-1.743195953369140625e+02,1.166222991943359375e+02,8.770228385925292969e+00,3.480780029296875000e+01,-1.537292938232421875e+02,6.622257232666015625e+01,1.191414108276367188e+02
5.120000243186950684e-01,1.000000000000000000e+00,2.202162027359008789e+00,-5.121932983398437500e+00,3.847627878189086914e+00,-2.022577819824218750e+02,-9.510891723632812500e+01,-1.742590332031250000e+02,1.166222991943359375e+02,8.770228385925292969e+00,3.480780029296875000e+01,-1.537292938232421875e+02,6.622257232666015625e+01,1.191414108276367188e+02
5.159999728202819824e-01,1.000000000000000000e+00,2.138821363449096680e+00,-5.067605018615722656e+00,3.856786727905273438e+00,-2.022033386230468750e+02,-9.503490447998046875e+01,-1.741984710693359375e+02,1.166222991943359375e+02,8.770228385925292969e+00,3.480780029296875000e+01,-1.537292938232421875e+02,6.622257232666015625e+01,1.191414108276367188e+02
5.199999809265136719e-01,1.000000000000000000e+00,2.075484514236450195e+00,-5.013281345367431641e+00,3.865945100784301758e+00,-2.021489105224609375e+02,-9.496089172363281250e+01,-1.741379089355468750e+02,1.166222991943359375e+02,8.770228385925292969e+00,3.480780029296875000e+01,-1.537292938232421875e+02,6.622257232666015625e+01,1.191414108276367188e+02
5.239999890327453613e-01,1.000000000000000000e+00,2.012151479721069336e+00,-4.958960056304931641e+00,3.875103235244750977e+00,-2.020944824218750000e+02,-9.488688659667968750e+01,-1.740773620605468750e+02,1.166222991943359375e+02,8.770228385925292969e+00,3.480780029296875000e+01,-1.537292938232421875e+02,6.622257232666015625e+01,1.191414108276367188e+02
5.279999971389770508e-01,1.000000000000000000e+00,1.948822498321533203e+00,-4.904642581939697266e+00,3.884260416030883789e+00,-2.020400543212890625e+02,-9.481288909912109375e+01,-1.740167999267578125e+02,1.166222991943359375e+02,8.770228385925292969e+00,3.480780029296875000e+01,-1.537292938232421875e+02,6.622257232666015625e+01,1.191414108276367188e+02
5.320000052452087402e-01,1.000000000000000000e+00,1.885496973991394043e+00,-4.850328445434570312e+00,3.893417119979858398e+00,-2.019856414794921875e+02,-9.473889160156250000e+01,-1.739562530517578125e+02,1.166222991943359375e+02,8.770228385925292969e+00,3.480780029296875000e+01,-1.537292938232421875e+02,6.622257232666015625e+01,1.191414108276367188e+02
5.360000133514404297e-01,1.000000000000000000e+00,1.822175383567810059e+00,-4.796017169952392578e+00,3.902573347091674805e+00,-2.019312133789062500e+02,-9.466490173339843750e+01,-1.738957214355468750e+02,1.166222991943359375e+02,8.770228385925292969e+00,3.480780029296875000e+01,-1.537292938232421875e+02,6.622257232666015625e+01,1.191414108276367188e+02
5.400000214576721191e-01,1.000000000000000000e+00,1.758857369422912598e+00,-4.741709232330322266e+00,3.911729097366333008e+00,-2.018768005371093750e+02,-9.459091186523437500e+01,-1.738351745605468750e+02,1.166222991943359375e+02,8.770228385925292969e+00,3.480780029296875000e+01,-1.537292938232421875e+02,6.622257232666015625e+01,1.191414108276367188e+02
5.440000295639038086e-01,1.000000000000000000e+00,1.695543289184570312e+00,-4.687404155731201172e+00,3.920884132385253906e+00,-2.018223724365234375e+02,-9.451692962646484375e+01,-1.737746429443359375e+02,1.166222991943359375e+02,8.770228385925292969e+00,3.480780029296875000e+01,-1.537292938232421875e+02,6.622257232666015625e+01,1.191414108276367188e+02
5.479999780654907227e-01,1.000000000000000000e+00,1.632232785224914551e+00,-4.633102893829345703e+00,3.930038928985595703e+00,-2.017679748535156250e+02,-9.444295501708984375e+01,-1.737141113281250000e+02,1.166222991943359375e+02,8.770228385925292969e+00,3.480780029296875000e+01,-1.537292938232421875e+02,6.622257232666015625e+01,1.191414108276367188e+02
5.519999861717224121e-01,1.000000000000000000e+00,1.568926215171813965e+00,-4.578804969787597656e+00,3.939193010330200195e+00,-2.017135772705078125e+02,-9.436898040771484375e+01,-1.736535797119140625e+02,1.166222991943359375e+02,8.770228385925292969e+00,3.480780029296875000e+01,-1.537292938232421875e+02,6.622257232666015625e+01,1.191414108276367188e+02
5.559999942779541016e-01,1.000000000000000000e+00,1.505623340606689453e+00,-4.524509429931640625e+00,3.948346376419067383e+00,-2.016591644287109375e+02,-9.429501342773437500e+01,-1.735930633544921875e+02,1.166222991943359375e+02,8.770228385925292969e+00,3.480780029296875000e+01,-1.537292938232421875e+02,6.622257232666015625e+01,1.191414108276367188e+02
5.600000023841857910e-01,1.000000000000000000e+00,1.442324161529541016e+00,-4.470217704772949219e+00,3.957499265670776367e+00,-2.016047668457031250e+02,-9.422104644775390625e+01,-1.735325469970703125e+02,1.166222991943359375e+02,8.770228385925292969e+00,3.480780029296875000e+01,-1.537292938232421875e+02,6.622257232666015625e+01,1.191414108276367188e+02
5.640000104904174805e-01,1.000000000000000000e+00,1.379028558731079102e+00,-4.415929317474365234e+00,3.966651678085327148e+00,-2.015503692626953125e+02,-9.414707946777343750e+01,-1.734720306396484375e+02,1.166222991943359375e+02,8.770228385925292969e+00,3.480780029296875000e+01,-1.537292938232421875e+02,6.622257232666015625e+01,1.191414108276367188e+02
5.680000185966491699e-01,1.000000000000000000e+00,1.315736651420593262e+00,-4.361643791198730469e+00,3.975803613662719727e+00,-2.014959716796875000e+02,-9.407312774658203125e+01,-1.734115142822265625e+02,1.166222991943359375e+02,8.770228385925292969e+00,3.480780029296875000e+01,-1.537292938232421875e+02,6.622257232666015625e+01,1.191414108276367188e+02
5.720000267028808594e-01,1.000000000000000000e+00,1.252448558807373047e+00,-4.307361125946044922e+00,3.984955310821533203e+00,-2.014415893554687500e+02,-9.399917602539062500e+01,-1.733509979248046875e+02,1.166222991943359375e+02,8.770228385925292969e+00,3.480780029296875000e+01,-1.537292938232421875e+02,6.622257232666015625e+01,1.191414108276367188e+02
5.759999752044677734e-01,1.000000000000000000e+00,1.189164161682128906e+00,-4.253081798553466797e+00,3.994106054306030273e+00,-2.013872070312500000e+02,-9.392523193359375000e+01,-1.732904968261718750e+02,1.166222991943359375e+02,8.770228385925292969e+00,3.480780029296875000e+01,-1.537292938232421875e+02,6.622257232666015625e+01,1.191414108276367188e+02
5.799999833106994629e-01,1.000000000000000000e+00,1.125883340835571289e+00,-4.198805809020996094e+00,4.003256320953369141e+00,-2.013328247070312500e+02,-9.385128784179687500e+01,-1.732299804687500000e+02,1.166222991943359375e+02,8.770228385925292969e+00,3.480780029296875000e+01,-1.537292938232421875e+02,6.622257232666015625e+01,1.191414108276367188e+02
5.839999914169311523e-01,1.000000000000000000e+00,1.062606215476989746e+00,-4.144533157348632812e+00,4.012405872344970703e+00,-2.012784423828125000e+02,-9.377734375000000000e+01,-1.731694946289062500e+02,1.166222991943359375e+02,8.770228385925292969e+00,3.480780029296875000e+01,-1.537292938232421875e+02,6.622257232666015625e+01,1.191414108276367188e+02
5.879999995231628418e-01,1.000000000000000000e+00,9.993326663970947266e-01,-4.090263366699218750e+00,4.021555423736572266e+00,-2.012240753173828125e+02,-9.370341491699218750e+01,-1.731089935302734375e+02,1.166222991943359375e+02,8.770228385925292969e+00,3.480780029296875000e+01,-1.537292938232421875e+02,6.622257232666015625e+01,1.191414108276367188e+02
5.920000076293945312e-01,1.000000000000000000e+00,9.360628128051757812e-01,-4.035996913909912109e+00,4.030704021453857422e+00,-2.011696929931640625e+02,-9.362948608398437500e+01,-1.730484924316406250e+02,1.166222991943359375e+02,8.770228385925292969e+00,3.480780029296875000e+01,-1.537292938232421875e+02,6.622257232666015625e+01,1.191414108276367188e+02
5.960000157356262207e-01,1.000000000000000000e+00,8.727965354919433594e-01,-3.981733560562133789e+00,4.039852142333984375e+00,-2.011153259277343750e+02,-9.355555725097656250e+01,-1.729880065917968750e+02,1.166222991943359375e+02,8.770228385925292969e+00,3.480780029296875000e+01,-1.537292938232421875e+02,6.622257232666015625e+01,1.191414108276367188e+02
6.000000238418579102e-01,1.000000000000000000e+00,8.095338940620422363e-01,-3.927472829818725586e+00,4.048999786376953125e+00,-2.010609436035156250e+02,-9.348162841796875000e+01,-1.729275207519531250e+02,1.166222991943359375e+02,8.770228385925292969e+00,3.480780029296875000e+01,-1.537292938232421875e+02,6.622257232666015625e+01,1.191414108276367188e+02
6.039999723434448242e-01,1.000000000000000000e+00,7.462748289108276367e-01,-3.873215436935424805e+00,4.058146476745605469e+00,-2.010065765380859375e+02,-9.340771484375000000e+01,-1.728670349121093750e+02,1.166222991943359375e+02,8.770228385925292969e+00,3.480780029296875000e+01,-1.537292938232421875e+02,6.622257232666015625e+01,1.191414108276367188e+02
6.079999804496765137e-01,1.000000000000000000e+00,6.830193996429443359e-01,-3.818961620330810547e+00,4.067293643951416016e+00,-2.009522247314453125e+02,-9.333380126953125000e+01,-1.728065643310546875e+02,1.166222991943359375e+02,8.770228385925292969e+00,3.480780029296875000e+01,-1.537292938232421875e+02,6.622257232666015625e+01,1.191414108276367188e+02
6.119999885559082031e-01,1.000000000000000000e+00,6.197675466537475586e-01,-3.764710187911987305e+00,4.076439857482910156e+00,-2.008978576660156250e+02,-9.325988769531250000e+01,-1.727460937500000000e+02,1.166222991943359375e+02,8.770228385925292969e+00,3.480780029296875000e+01,-1.537292938232421875e+02,6.622257232666015625e+01,1.191414108276367188e+02
6.159999966621398926e-01,1.000000000000000000e+00,5.565192103385925293e-01,-3.710462331771850586e+00,4.085585117340087891e+00,-2.008435058593750000e+02,-9.318598937988281250e+01,-1.726856079101562500e+02,1.166222991943359375e+02,8.770228385925292969e+00,3.480780029296875000e+01,-1.537292938232421875e+02,6.622257232666015625e+01,1.191414108276367188e+02
6.200000047683715820e-01,1.000000000000000000e+00,4.932744503021240234e-01,-3.656216859817504883e+00,4.094730377197265625e+00,-2.007891693115234375e+02,-9.311208343505859375e+01,-1.726251373291015625e+02,1.166222991943359375e+02,8.770228385925292969e+00,3.480780029296875000e+01,-1.537292938232421875e+02,6.622257232666015625e+01,1.191414108276367188e+02
6.240000128746032715e-01,1.000000000000000000e+00,4.300332665443420410e-01,-3.601974964141845703e+00,4.103874683380126953e+00,-2.007348022460937500e+02,-9.303818511962890625e+01,-1.725646820068359375e+02,1.166222991943359375e+02,8.770228385925292969e+00,3.480780029296875000e+01,-1.537292938232421875e+02,6.622257232666015625e+01,1.191414108276367188e+02
6.280000209808349609e-01,1.000000000000000000e+00,3.667956292629241943e-01,-3.547736167907714844e+00,4.113018512725830078e+00,-2.006804656982421875e+02,-9.296429443359375000e+01,-1.725042114257812500e+02,1.166222991943359375e+02,8.770228385925292969e+00,3.480780029296875000e+01,-1.537292938232421875e+02,6.622257232666015625e+01,1.191414108276367188e+02
6.320000290870666504e-01,1.000000000000000000e+00,3.035614788532257080e-01,-3.493500232696533203e+00,4.122162342071533203e+00,-2.006261138916015625e+02,-9.289040374755859375e+01,-1.724437561035156250e+02,1.166222991943359375e+02,8.770228385925292969e+00,3.480780029296875000e+01,-1.537292938232421875e+02,6.622257232666015625e+01,1.191414108276367188e+02
6.359999775886535645e-01,1.000000000000000000e+00,2.403308749198913574e-01,-3.439267635345458984e+00,4.131305217742919922e+00,-2.005717773437500000e+02,-9.281652069091796875e+01,-1.723833007812500000e+02,1.166222991943359375e+02,8.770228385925292969e+00,3.480780029296875000e+01,-1.537292938232421875e+02,6.622257232666015625e+01,1.191414108276367188e+02
6.399999856948852539e-01,1.000000000000000000e+00,1.771037727594375610e-01,-3.385037660598754883e+00,4.140448093414306641e+00,-2.005174407958984375e+02,-9.274263763427734375e+01,-1.723228454589843750e+02,1.166222991943359375e+02,8.770228385925292969e+00,3.480780029296875000e+01,-1.537292938232421875e+02,6.622257232666015625e+01,1.191414108276367188e+02
6.439999938011169434e-01,1.000000000000000000e+00,1.138801723718643188e-01,-3.330811023712158203e+00,4.149590015411376953e+00,-2.004631042480468750e+02,-9.266876220703125000e+01,-1.722624053955078125e+02,1.166222991943359375e+02,8.770228385925292969e+00,3.480780029296875000e+01,-1.537292938232421875e+02,6.622257232666015625e+01,1.191414108276367188e+02
6.480000019073486328e-01,1.000000000000000000e+00,5.066006258130073547e-02,-3.276587247848510742e+00,4.158731460571289062e+00,-2.004087829589843750e+02,-9.259489440917968750e+01,-1.722019500732421875e+02,1.166222991943359375e+02,8.770228385925292969e+00,3.480780029296875000e+01,-1.537292938232421875e+02,6.622257232666015625e+01,1.191414108276367188e+02
6.520000100135803223e-01,1.000000000000000000e+00,-1.255657523870468140e-02,-3.222366094589233398e+00,4.167872428894042969e+00,-2.003544464111328125e+02,-9.252102661132812500e+01,-1.721415100097656250e+02,1.166222991943359375e+02,8.770228385925292969e+00,3.480780029296875000e+01,-1.537292938232421875e+02,6.622257232666015625e+01,1.191414108276367188e+02
6.560000181198120117e-01,1.000000000000000000e+00,-7.576974481344223022e-02,-3.168148279190063477e+00,4.177012920379638672e+00,-2.003001251220703125e+02,-9.244715881347656250e+01,-1.720810699462890625e+02,1.166222991943359375e+02,8.770228385925292969e+00,3.480780029296875000e+01,-1.537292938232421875e+02,6.622257232666015625e+01,1.191414108276367188e+02
6.600000262260437012e-01,1.000000000000000000e+00,-1.389794498682022095e-01,-3.113933324813842773e+00,4.186152935028076172e+00,-2.002457885742187500e+02,-9.237329864501953125e+01,-1.720206451416015625e+02,1.166222991943359375e+02,8.770228385925292969e+00,3.480780029296875000e+01,-1.537292938232421875e+02,6.622257232666015625e+01,1.191414108276367188e+02
6.639999747276306152e-01,1.000000000000000000e+00,-2.021857053041458130e-01,-3.059721469879150391e+00,4.195291996002197266e+00,-2.001914825439453125e+02,-9.229943847656250000e+01,-1.719602050781250000e+02,1.166222991943359375e+02,8.770228385925292969e+00,3.480780029296875000e+01,-1.537292938232421875e+02,6.622257232666015625e+01,1.191414108276367188e+02
6.679999828338623047e-01,1.000000000000000000e+00,-2.653885185718536377e-01,-3.005512475967407227e+00,4.204431533813476562e+00,-2.001371612548828125e+02,-9.222559356689453125e+01,-1.718997650146484375e+02,1.166222991943359375e+02,8.770228385925292969e+00,3.480780029296875000e+01,-1.537292938232421875e+02,6.622257232666015625e+01,1.191414108276367188e+02
6.719999909400939941e-01,1.000000000000000000e+00,-3.285879194736480713e-01,-2.951306581497192383e+00,4.213569641113281250e+00,-2.000828552246093750e+02,-9.215174865722656250e+01,-1.718393554687500000e+02,1.166222991943359375e+02,8.770228385925292969e+00,3.480780029296875000e+01,-1.537292938232421875e+02,6.622257232666015625e+01,1.191414108276367188e+02
6.759999990463256836e-01,1.000000000000000000e+00,-3.917838931083679199e-01,-2.897103548049926758e+00,4.222707748413085938e+00,-2.000285339355468750e+02,-9.207789611816406250e+01,-1.717789306640625000e+02,1.166222991943359375e+02,8.770228385925292969e+00,3.480780029296875000e+01,-1.537292938232421875e+02,6.622257232666015625e+01,1.191414108276367188e+02
6.800000071525573730e-01,1.000000000000000000e+00,-4.549764692783355713e-01,-2.842903375625610352e+00,4.231845378875732422e+00,-1.999742431640625000e+02,-9.200405883789062500e+01,-1.717185058593750000e+02,1.166222991943359375e+02,8.770228385925292969e+00,3.480780029296875000e+01,-1.537292938232421875e+02,6.622257232666015625e+01,1.191414108276367188e+02
6.840000152587890625e-01,1.000000000000000000e+00,-5.181656479835510254e-01,-2.788706064224243164e+00,4.240982532501220703e+00,-1.999199218750000000e+02,-9.193022155761718750e+01,-1.716580963134765625e+02,1.166222991943359375e+02,8.770228385925292969e+00,3.480780029296875000e+01,-1.537292938232421875e+02,6.622257232666015625e+01,1.191414108276367188e+02
6.880000233650207520e-01,1.000000000000000000e+00,-5.813514590263366699e-01,-2.734511613845825195e+00,4.250119209289550781e+00,-1.998656311035156250e+02,-9.185639190673828125e+01,-1.715976867675781250e+02,1.166222991943359375e+02,8.770228385925292969e+00,3.480780029296875000e+01,-1.537292938232421875e+02,6.622257232666015625e+01,1.191414108276367188e+02
6.919999718666076660e-01,1.000000000000000000e+00,-6.445338726043701172e-01,-2.680320262908935547e+00,4.259254932403564453e+00,-1.998113250732421875e+02,-9.178256225585937500e+01,-1.715372772216796875e+02,1.166222991943359375e+02,8.770228385925292969e+00,3.480780029296875000e+01,-1.537292938232421875e+02,6.622257232666015625e+01,1.191414108276367188e+02
6.959999799728393555e-01,1.000000000000000000e+00,-7.077128887176513672e-01,-2.626132011413574219e+00,4.268390655517578125e+00,-1.997570190429687500e+02,-9.170874023437500000e+01,-1.714768676757812500e+02,1.166222991943359375e+02,8.770228385925292969e+00,3.480780029296875000e+01,-1.537292938232421875e+02,6.622257232666015625e+01,1.191414108276367188e+02
6.999999880790710449e-01,1.000000000000000000e+00,-7.708885669708251953e-01,-2.571946144104003906e+00,4.277525424957275391e+00,-1.997027435302734375e+02,-9.163491821289062500e+01,-1.714164733886718750e+02,1.166222991943359375e+02,8.770228385925292969e+00,3.480780029296875000e+01,-1.537292938232421875e+02,6.622257232666015625e+01,1.191414108276367188e+02
7.039999961853027344e-01,1.000000000000000000e+00,-8.340608477592468262e-01,-2.517763614654541016e+00,4.286660194396972656e+00,-1.996484527587890625e+02,-9.156110382080078125e+01,-1.713560638427734375e+02,1.166222991943359375e+02,8.770228385925292969e+00,3.480780029296875000e+01,-1.537292938232421875e+02,6.622257232666015625e+01,1.191414108276367188e+02
7.080000042915344238e-01,1.000000000000000000e+00,-8.972299098968505859e-01,-2.463583707809448242e+00,4.295794010162353516e+00,-1.995941619873046875e+02,-9.148728942871093750e+01,-1.712956695556640625e+02,1.166222991943359375e+02,8.770228385925292969e+00,3.480780029296875000e+01,-1.537292938232421875e+02,6.622257232666015625e+01,1.191414108276367188e+02
7.120000123977661133e-01,1.000000000000000000e+00,-9.603955745697021484e-01,-2.409406661987304688e+00,4.304927825927734375e+00,-1.995398864746093750e+02,-9.141348266601562500e+01,-1.712352752685546875e+02,1.166222991943359375e+02,8.770228385925292969e+00,3.480780029296875000e+01,-1.537292938232421875e+02,6.622257232666015625e+01,1.191414108276367188e+02
7.160000205039978027e-01,1.000000000000000000e+00,-1.023558020591735840e+00,-2.355232477188110352e+00,4.314061164855957031e+00,-1.994855957031250000e+02,-9.133967590332031250e+01,-1.711748809814453125e+02,1.166222991943359375e+02,8.770228385925292969e+00,3.480780029296875000e+01,-1.537292938232421875e+02,6.622257232666015625e+01,1.191414108276367188e+02
7.200000286102294922e-01,1.000000000000000000e+00,-1.086716890335083008e+00,-2.301061153411865234e+00,4.323193550109863281e+00,-1.994313201904296875e+02,-9.126587677001953125e+01,-1.711145019531250000e+02,1.166222991943359375e+02,8.770228385925292969e+00,3.480780029296875000e+01,-1.537292938232421875e+02,6.622257232666015625e+01,1.191414108276367188e+02
7.239999771118164062e-01,1.000000000000000000e+00,-1.149872660636901855e+00,-2.246892690658569336e+00,4.332325935363769531e+00,-1.993770446777343750e+02,-9.119207763671875000e+01,-1.710541076660156250e+02,1.166222991943359375e+02,8.770228385925292969e+00,3.480780029296875000e+01,-1.537292938232421875e+02,6.622257232666015625e+01,1.191414108276367188e+02
7.279999852180480957e-01,1.000000000000000000e+00,-1.213025212287902832e+00,-2.192727088928222656e+00,4.341457366943359375e+00,-1.993227691650390625e+02,-9.111828613281250000e+01,-1.709937286376953125e+02,1.166222991943359375e+02,8.770228385925292969e+00,3.480780029296875000e+01,-1.537292938232421875e+02,6.622257232666015625e+01,1.191414108276367188e+02
7.319999933242797852e-01,1.000000000000000000e+00,-1.276174306869506836e+00,-2.138564348220825195e+00,4.350588321685791016e+00,-1.992685089111328125e+02,-9.104449462890625000e+01,-1.709333496093750000e+02,1.166222991943359375e+02,8.770228385925292969e+00,3.480780029296875000e+01,-1.537292938232421875e+02,6.622257232666015625e+01,1.191414108276367188e+02
7.360000014305114746e-01,1.000000000000000000e+00,-1.339320302009582520e+00,-2.084403991699218750e+00,4.359719753265380859e+00,-1.992142333984375000e+02,-9.097071075439453125e+01,-1.708729858398437500e+02,1.166222991943359375e+02,8.770228385925292969e+00,3.480780029296875000e+01,-1.537292938232421875e+02,6.622257232666015625e+01,1.191414108276367188e+02
7.400000095367431641e-01,1.000000000000000000e+00,-1.402462959289550781e+00,-2.030246973037719727e+00,4.368849754333496094e+00,-1.991599731445312500e+02,-9.089692687988281250e+01,-1.708126068115234375e+02,1.166222991943359375e+02,8.770228385925292969e+00,3.480780029296875000e+01,-1.537292938232421875e+02,6.622257232666015625e+01,1.191414108276367188e+02
7.440000176429748535e-01,1.000000000000000000e+00,-1.465602397918701172e+00,-1.976092457771301270e+00,4.377979755401611328e+00,-1.991057128906250000e+02,-9.082315063476562500e+01,-1.707522430419921875e+02,1.166222991943359375e+02,8.770228385925292969e+00,3.480780029296875000e+01,-1.537292938232421875e+02,6.622257232666015625e+01,1.191414108276367188e+02
7.480000257492065430e-01,1.000000000000000000e+00,-1.528738617897033691e+00,-1.921940803527832031e+00,4.387108802795410156e+00,-1.990514526367187500e+02,-9.074937438964843750e+01,-1.706918792724609375e+02,1.166222991943359375e+02,8.770228385925292969e+00,3.480780029296875000e+01,-1.537292938232421875e+02,6.622257232666015625e+01,1.191414108276367188e+02
7.519999742507934570e-01,1.000000000000000000e+00,-1.591871500015258789e+00,-1.867791891098022461e+00,4.396237850189208984e+00,-1.989971923828125000e+02,-9.067560577392578125e+01,-1.706315155029296875e+02,1.166222991943359375e+02,8.770228385925292969e+00,3.480780029296875000e+01,-1.537292938232421875e+02,6.622257232666015625e+01,1.191414108276367188e+02
7.559999823570251465e-01,1.000000000000000000e+00,-1.655001282691955566e+00,-1.813645720481872559e+00,4.405366420745849609e+00,-1.989429321289062500e+02,-9.060183715820312500e+01,-1.705711669921875000e+02,1.166222991943359375e+02,8.770228385925292969e+00,3.480780029296875000e+01,-1.537292938232421875e+02,6.622257232666015625e+01,1.191414108276367188e+02
7.599999904632568359e-01,1.000000000000000000e+00,-1.718127846717834473e+00,-1.759502410888671875e+00,4.414494037628173828e+00,-1.988886871337890625e+02,-9.052807617187500000e+01,-1.705108184814453125e+02,1.166222991943359375e+02,8.770228385925292969e+00,3.480780029296875000e+01,-1.537292938232421875e+02,6.622257232666015625e+01,1.191414108276367188e+02
7.639999985694885254e-01,1.000000000000000000e+00,-1.781251192092895508e+00,-1.705361843109130859e+00,4.423621654510498047e+00,-1.988344421386718750e+02,-9.045432281494140625e+01,-1.704504394531250000e+02,1.166222991943359375e+02,8.770228385925292969e+00,3.480780029296875000e+01,-1.537292938232421875e+02,6.622257232666015625e+01,1.191414108276367188e+02
7.680000066757202148e-01,1.000000000000000000e+00,-1.844371318817138672e+00,-1.651224017143249512e+00,4.432748317718505859e+00,-1.987801971435546875e+02,-9.038056182861328125e+01,-1.703901062011718750e+02,1.166222991943359375e+02,8.770228385925292969e+00,3.480780029296875000e+01,-1.537292938232421875e+02,6.622257232666015625e+01,1.191414108276367188e+02
7.720000147819519043e-01,1.000000000000000000e+00,-1.907488346099853516e+00,-1.597088813781738281e+00,4.441874980926513672e+00,-1.987259521484375000e+02,-9.030681610107421875e+01,-1.703297576904296875e+02,1.166222991943359375e+02,8.770228385925292969e+00,3.480780029296875000e+01,-1.537292938232421875e+02,6.622257232666015625e+01,1.191414108276367188e+02
7.760000228881835938e-01,1.000000000000000000e+00,-1.970602035522460938e+00,-1.542956352233886719e+00,4.451001167297363281e+00,-1.986717071533203125e+02,-9.023306274414062500e+01,-1.702694244384765625e+02,1.166222991943359375e+02,8.770228385925292969e+00,3.480780029296875000e+01,-1.537292938232421875e+02,6.622257232666015625e+01,1.191414108276367188e+02
7.799999713897705078e-01,1.000000000000000000e+00,-2.033712863922119141e+00,-1.488826751708984375e+00,4.460126876831054688e+00,-1.986174774169921875e+02,-9.015931701660156250e+01,-1.702090606689453125e+02,1.166222991943359375e+02,8.770228385925292969e+00,3.480780029296875000e+01,-1.537292938232421875e+02,6.622257232666015625e+01,1.191414108276367188e+02
7.839999794960021973e-01,1.000000000000000000e+00,-2.096820354461669922e+00,-1.434699773788452148e+00,4.469252109527587891e+00,-1.985632476806640625e+02,-9.008557891845703125e+01,-1.701487274169921875e+02,1.166222991943359375e+02,8.770228385925292969e+00,3.480780029296875000e+01,-1.537292938232421875e+02,6.622257232666015625e+01,1.191414108276367188e+02
7.879999876022338867e-01,1.000000000000000000e+00,-2.159924507141113281e+00,-1.380575418472290039e+00,4.478376865386962891e+00,-1.985090179443359375e+02,-9.001184082031250000e+01,-1.700884094238281250e+02,1.166222991943359375e+02,8.770228385925292969e+00,3.480780029296875000e+01,-1.537292938232421875e+02,6.622257232666015625e+01,1.191414108276367188e+02
7.919999957084655762e-01,1.000000000000000000e+00,-2.223025798797607422e+00,-1.326453804969787598e+00,4.487501144409179688e+00,-1.984547882080078125e+02,-8.993811035156250000e+01,-1.700280609130859375e+02,1.166222991943359375e+02,8.770228385925292969e+00,3.480780029296875000e+01,-1.537292938232421875e+02,6.622257232666015625e+01,1.191414108276367188e+02
7.960000038146972656e-01,1.000000000000000000e+00,-2.286123991012573242e+00,-1.272334814071655273e+00,4.496624946594238281e+00,-1.984005432128906250e+02,-8.986437988281250000e+01,-1.699677429199218750e+02,1.166222991943359375e+02,8.770228385925292969e+00,3.480780029296875000e+01,-1.537292938232421875e+02,6.622257232666015625e+01,1.191414108276367188e+02
8.000000119209289551e-01,1.000000000000000000e+00,-2.349219083786010742e+00,-1.218218445777893066e+00,4.505748271942138672e+00,-1.983463287353515625e+02,-8.979065704345703125e+01,-1.699074249267578125e+02,1.166222991943359375e+02,8.770228385925292969e+00,3.480780029296875000e+01,-1.537292938232421875e+02,6.622257232666015625e+01,1.191414108276367188e+02
8.040000200271606445e-01,1.000000000000000000e+00,-2.412311315536499023e+00,-1.164104580879211426e+00,4.514870643615722656e+00,-1.982921142578125000e+02,-8.971693420410156250e+01,-1.698470916748046875e+02,1.166222991943359375e+02,8.770228385925292969e+00,3.480780029296875000e+01,-1.537292938232421875e+02,6.622257232666015625e+01,1.191414108276367188e+02
8.080000281333923340e-01,1.000000000000000000e+00,-2.475400447845458984e+00,-1.109993219375610352e+00,4.523993492126464844e+00,-1.982378997802734375e+02,-8.964321136474609375e+01,-1.697867736816406250e+02,1.166222991943359375e+02,8.770228385925292969e+00,3.480780029296875000e+01,-1.537292938232421875e+02,6.622257232666015625e+01,1.191414108276367188e+02
8.119999766349792480e-01,1.000000000000000000e+00,-2.538486719131469727e+00,-1.055884480476379395e+00,4.533115386962890625e+00,-1.981836853027343750e+02,-8.956949615478515625e+01,-1.697264556884765625e+02,1.166222991943359375e+02,8.770228385925292969e+00,3.480780029296875000e+01,-1.537292938232421875e+02,6.622257232666015625e+01,1.191414108276367188e+02
8.159999847412109375e-01,1.000000000000000000e+00,-2.601570129394531250e+00,-1.001778244972229004e+00,4.542236804962158203e+00,-1.981294555664062500e+02,-8.949578857421875000e+01,-1.696661529541015625e+02,1.166222991943359375e+02,8.770228385925292969e+00,3.480780029296875000e+01,-1.537292938232421875e+02,6.622257232666015625e+01,1.191414108276367188e+02
8.199999928474426270e-01,1.000000000000000000e+00,-2.664650678634643555e+00,-9.476744532585144043e-01,4.551358222961425781e+00,-1.980752563476562500e+02,-8.942208099365234375e+01,-1.696058349609375000e+02,1.166222991943359375e+02,8.770228385925292969e+00,3.480780029296875000e+01,-1.537292938232421875e+02,6.622257232666015625e+01,1.191414108276367188e+02
8.240000009536743164e-01,1.000000000000000000e+00,-2.727728128433227539e+00,-8.935731053352355957e-01,4.560479164123535156e+00,-1.980210571289062500e+02,-8.934837341308593750e+01,-1.695455322265625000e+02,1.166222991943359375e+02,8.770228385925292969e+00,3.480780029296875000e+01,-1.537292938232421875e+02,6.622257232666015625e+01,1.191414108276367188e+02
8.280000090599060059e-01,1.000000000000000000e+00,-2.790802478790283203e+00,-8.394743204116821289e-01,4.569599151611328125e+00,-1.979668426513671875e+02,-8.927467346191406250e+01,-1.694852142333984375e+02,1.166222991943359375e+02,8.770228385925292969e+00,3.480780029296875000e+01,-1.537292938232421875e+02,6.622257232666015625e+01,1.191414108276367188e+02
8.320000171661376953e-01,1.000000000000000000e+00,-2.853873968124389648e+00,-7.853779792785644531e-01,4.578719615936279297e+00,-1.979126434326171875e+02,-8.920097351074218750e+01,-1.694249267578125000e+02,1.166222991943359375e+02,8.770228385925292969e+00,3.480780029296875000e+01,-1.537292938232421875e+02,6.622257232666015625e+01,1.191414108276367188e+02
8.360000252723693848e-01,1.000000000000000000e+00,-2.916942358016967773e+00,-7.312841415405273438e-01,4.587839126586914062e+00,-1.978584442138671875e+02,-8.912728118896484375e+01,-1.693646240234375000e+02,1.166222991943359375e+02,8.770228385925292969e+00,3.480780029296875000e+01,-1.537292938232421875e+02,6.622257232666015625e+01,1.191414108276367188e+02
8.399999737739562988e-01,1.000000000000000000e+00,-2.980008125305175781e+00,-6.771927475929260254e-01,4.596958160400390625e+00,-1.978042297363281250e+02,-8.905358886718750000e+01,-1.693043212890625000e+02,1.166222991943359375e+02,8.770228385925292969e+00,3.480780029296875000e+01,-1.537292938232421875e+02,6.622257232666015625e+01,1.191414108276367188e+02
8.439999818801879883e-01,1.000000000000000000e+00,-3.043071031570434570e+00,-6.231036782264709473e-01,4.606076717376708984e+00,-1.977500457763671875e+02,-8.897990417480468750e+01,-1.692440338134765625e+02,1.166222991943359375e+02,8.770228385925292969e+00,3.480780029296875000e+01,-1.537292938232421875e+02,6.622257232666015625e+01,1.191414108276367188e+02
8.479999899864196777e-01,1.000000000000000000e+00,-3.106131076812744141e+00,-5.690171122550964355e-01,4.615195274353027344e+00,-1.976958465576171875e+02,-8.890621948242187500e+01,-1.691837310791015625e+02,1.166222991943359375e+02,8.770228385925292969e+00,3.480780029296875000e+01,-1.537292938232421875e+02,6.622257232666015625e+01,1.191414108276367188e+02
8.519999980926513672e-01,1.000000000000000000e+00,-3.169188022613525391e+00,-5.149329304695129395e-01,4.624312877655029297e+00,-1.976416625976562500e+02,-8.883253479003906250e+01,-1.691234436035156250e+02,1.166222991943359375e+02,8.770228385925292969e+00,3.480780029296875000e+01,-1.537292938232421875e+02,6.622257232666015625e+01,1.191414108276367188e+02
8.560000061988830566e-01,1.000000000000000000e+00,-3.232242107391357422e+00,-4.608511626720428467e-01,4.633430957794189453e+00,-1.975874786376953125e+02,-8.875885772705078125e+01,-1.690631561279296875e+02,1.166222991943359375e+02,8.770228385925292969e+00,3.480780029296875000e+01,-1.537292938232421875e+02,6.622257232666015625e+01,1.191414108276367188e+02
8.600000143051147461e-01,1.000000000000000000e+00,-3.295293569564819336e+00,-4.067718386650085449e-01,4.642548084259033203e+00,-1.975332794189453125e+02,-8.868518829345703125e+01,-1.690028686523437500e+02,1.166222991943359375e+02,8.770228385925292969e+00,3.480780029296875000e+01,-1.537292938232421875e+02,6.622257232666015625e+01,1.191414108276367188e+02
8.640000224113464355e-01,1.000000000000000000e+00,-3.358341932296752930e+00,-3.526949286460876465e-01,4.651664733886718750e+00,-1.974791107177734375e+02,-8.861151123046875000e+01,-1.689425811767578125e+02,1.166222991943359375e+02,8.770228385925292969e+00,3.480780029296875000e+01,-1.537292938232421875e+02,6.622257232666015625e+01,1.191414108276367188e+02
8.679999709129333496e-01,1.000000000000000000e+00,-3.421387434005737305e+00,-2.986204028129577637e-01,4.660781383514404297e+00,-1.974249267578125000e+02,-8.853783416748046875e+01,-1.688823242187500000e+02,1.166222991943359375e+02,8.770228385925292969e+00,3.480780029296875000e+01,-1.537292938232421875e+02,6.622257232666015625e+01,1.191414108276367188e+02
8.719999790191650391e-01,1.000000000000000000e+00,-3.484430074691772461e+00,-2.445482611656188965e-01,4.669897079467773438e+00,-1.973707427978515625e+02,-8.846417236328125000e+01,-1.688220367431640625e+02,1.166222991943359375e+02,8.770228385925292969e+00,3.480780029296875000e+01,-1.537292938232421875e+02,6.622257232666015625e+01,1.191414108276367188e+02
8.759999871253967285e-01,1.000000000000000000e+00,-3.547469854354858398e+00,-1.904784440994262695e-01,4.679013252258300781e+00,-1.973165588378906250e+02,-8.839051055908203125e+01,-1.687617645263671875e+02,1.166222991943359375e+02,8.770228385925292969e+00,3.480780029296875000e+01,-1.537292938232421875e+02,6.622257232666015625e+01,1.191414108276367188e+02
8.799999952316284180e-01,1.000000000000000000e+00,-3.610507249832153320e+00,-1.364109367132186890e-01,4.688128471374511719e+00,-1.972623748779296875e+02,-8.831685638427734375e+01,-1.687014923095703125e+02,1.166222991943359375e+02,8.770228385925292969e+00,3.480780029296875000e+01,-1.537292938232421875e+02,6.622257232666015625e+01,1.191414108276367188e+02
8.840000033378601074e-01,1.000000000000000000e+00,-3.673541784286499023e+00,-8.234577625989913940e-02,4.697243213653564453e+00,-1.972082214355468750e+02,-8.824319458007812500e+01,-1.686412200927734375e+02,1.166222991943359375e+02,8.770228385925292969e+00,3.480780029296875000e+01,-1.537292938232421875e+02,6.622257232666015625e+01,1.191414108276367188e+02
8.880000114440917969e-01,1.000000000000000000e+00,-3.736573219299316406e+00,-2.828295715153217316e-02,4.706357479095458984e+00,-1.971540374755859375e+02,-8.816954040527343750e+01,-1.685809478759765625e+02,1.166222991943359375e+02,8.770228385925292969e+00,3.480780029296875000e+01,-1.537292938232421875e+02,6.622257232666015625e+01,1.191414108276367188e+02
8.920000195503234863e-01,1.000000000000000000e+00,-3.799602270126342773e+00,2.577749639749526978e-02,4.715472221374511719e+00,-1.970998840332031250e+02,-8.809589385986328125e+01,-1.685207061767578125e+02,1.166222991943359375e+02,8.770228385925292969e+00,3.480780029296875000e+01,-1.537292938232421875e+02,6.622257232666015625e+01,1.191414108276367188e+02
8.960000276565551758e-01,1.000000000000000000e+00,-3.862628698348999023e+00,7.983556389808654785e-02,4.724585533142089844e+00,-1.970457153320312500e+02,-8.802224731445312500e+01,-1.684604339599609375e+02,1.166222991943359375e+02,8.770228385925292969e+00,3.480780029296875000e+01,-1.537292938232421875e+02,6.622257232666015625e+01,1.191414108276367188e+02
8.999999761581420898e-01,1.000000000000000000e+00,-3.925652027130126953e+00,1.338912546634674072e-01,4.733698844909667969e+00,-1.969915466308593750e+02,-8.794860076904296875e+01,-1.684001770019531250e+02,1.166222991943359375e+02,8.770228385925292969e+00,3.480780029296875000e+01,-1.537292938232421875e+02,6.622257232666015625e+01,1.191414108276367188e+02
9.039999842643737793e-01,1.000000000000000000e+00,-3.988672494888305664e+00,1.879445165395736694e-01,4.742812156677246094e+00,-1.969373931884765625e+02,-8.787496185302734375e+01,-1.683399200439453125e+02,1.166222991943359375e+02,8.770228385925292969e+00,3.480780029296875000e+01,-1.537292938232421875e+02,6.622257232666015625e+01,1.191414108276367188e+02
9.079999923706054688e-01,1.000000000000000000e+00,-4.051690578460693359e+00,2.419953644275665283e-01,4.751924514770507812e+00,-1.968832244873046875e+02,-8.780132293701171875e+01,-1.682796630859375000e+02,1.166222991943359375e+02,8.770228385925292969e+00,3.480780029296875000e+01,-1.537292938232421875e+02,6.622257232666015625e+01,1.191414108276367188e+02
9.120000004768371582e-01,1.000000000000000000e+00,-4.114705562591552734e+00,2.960437536239624023e-01,4.761036396026611328e+00,-1.968290710449218750e+02,-8.772769165039062500e+01,-1.682194213867187500e+02,1.166222991943359375e+02,8.770228385925292969e+00,3.480780029296875000e+01,-1.537292938232421875e+02,6.622257232666015625e+01,1.191414108276367188e+02
9.160000085830688477e-01,1.000000000000000000e+00,-4.177717685699462891e+00,3.500896692276000977e-01,4.770148277282714844e+00,-1.967749176025390625e+02,-8.765406036376953125e+01,-1.681591644287109375e+02,1.166222991943359375e+02,8.770228385925292969e+00,3.480780029296875000e+01,-1.537292938232421875e+02,6.622257232666015625e+01,1.191414108276367188e+02
9.200000166893005371e-01,1.000000000000000000e+00,-4.240726470947265625e+00,4.041331410408020020e-01,4.779259204864501953e+00,-1.967207794189453125e+02,-8.758042907714843750e+01,-1.680989227294921875e+02,1.166222991943359375e+02,8.770228385925292969e+00,3.480780029296875000e+01,-1.537292938232421875e+02,6.622257232666015625e+01,1.191414108276367188e+02
9.240000247955322266e-01,1.000000000000000000e+00,-4.303732872009277344e+00,4.581741094589233398e-01,4.788370132446289062e+00,-1.966666259765625000e+02,-8.750680541992187500e+01,-1.680386810302734375e+02,1.166222991943359375e+02,8.770228385925292969e+00,3.480780029296875000e+01,-1.537292938232421875e+02,6.622257232666015625e+01,1.191414108276367188e+02
9.279999732971191406e-01,1.000000000000000000e+00,-4.366736412048339844e+00,5.122125148773193359e-01,4.797480583190917969e+00,-1.966124725341796875e+02,-8.743318176269531250e+01,-1.679784393310546875e+02,1.166222991943359375e+02,8.770228385925292969e+00,3.480780029296875000e+01,-1.537292938232421875e+02,6.622257232666015625e+01,1.191414108276367188e+02
9.319999814033508301e-01,1.000000000000000000e+00,-4.429736614227294922e+00,5.662484765052795410e-01,4.806590557098388672e+00,-1.965583343505859375e+02,-8.735956573486328125e+01,-1.679182128906250000e+02,1.166222991943359375e+02,8.770228385925292969e+00,3.480780029296875000e+01,-1.537292938232421875e+02,6.622257232666015625e+01,1.191414108276367188e+02
9.359999895095825195e-01,1.000000000000000000e+00,-4.492733955383300781e+00,6.202818155288696289e-01,4.815700054168701172e+00,-1.965041961669921875e+02,-8.728595733642578125e+01,-1.678579711914062500e+02,1.166222991943359375e+02,8.770228385925292969e+00,3.480780029296875000e+01,-1.537292938232421875e+02,6.622257232666015625e+01,1.191414108276367188e+02
9.399999976158142090e-01,1.000000000000000000e+00,-4.555728435516357422e+00,6.743126511573791504e-01,4.824809551239013672e+00,-1.964500579833984375e+02,-8.721234130859375000e+01,-1.677977447509765625e+02,1.166222991943359375e+02,8.770228385925292969e+00,3.480780029296875000e+01,-1.537292938232421875e+02,6.622257232666015625e+01,1.191414108276367188e+02
9.440000057220458984e-01,1.000000000000000000e+00,-4.618720531463623047e+00,7.283409237861633301e-01,4.833918094635009766e+00,-1.963959197998046875e+02,-8.713874053955078125e+01,-1.677375030517578125e+02,1.166222991943359375e+02,8.770228385925292969e+00,3.480780029296875000e+01,-1.537292938232421875e+02,6.622257232666015625e+01,1.191414108276367188e+02
9.480000138282775879e-01,1.000000000000000000e+00,-4.681708812713623047e+00,7.823665142059326172e-01,4.843026161193847656e+00,-1.963417816162109375e+02,-8.706513977050781250e+01,-1.676772918701171875e+02,1.166222991943359375e+02,8.770228385925292969e+00,3.480780029296875000e+01,-1.537292938232421875e+02,6.622257232666015625e+01,1.191414108276367188e+02
9.520000219345092773e-01,1.000000000000000000e+00,-4.744693756103515625e+00,8.363896012306213379e-01,4.852134227752685547e+00,-1.962876586914062500e+02,-8.699153900146484375e+01,-1.676170654296875000e+02,1.166222991943359375e+02,8.770228385925292969e+00,3.480780029296875000e+01,-1.537292938232421875e+02,6.622257232666015625e+01,1.191414108276367188e+02
9.559999704360961914e-01,1.000000000000000000e+00,-4.807676315307617188e+00,8.904100060462951660e-01,4.861241817474365234e+00,-1.962335205078125000e+02,-8.691794586181640625e+01,-1.675568542480468750e+02,1.166222991943359375e+02,8.770228385925292969e+00,3.480780029296875000e+01,-1.537292938232421875e+02,6.622257232666015625e+01,1.191414108276367188e+02
9.599999785423278809e-01,1.000000000000000000e+00,-4.870655536651611328e+00,9.444277882575988770e-01,4.870348453521728516e+00,-1.961793975830078125e+02,-8.684434509277343750e+01,-1.674966278076171875e+02,1.166222991943359375e+02,8.770228385925292969e+00,3.480780029296875000e+01,-1.537292938232421875e+02,6.622257232666015625e+01,1.191414108276367188e+02
9.639999866485595703e-01,1.000000000000000000e+00,-4.933631896972656250e+00,9.984428286552429199e-01,4.879454612731933594e+00,-1.961252746582031250e+02,-8.677075958251953125e+01,-1.674364166259765625e+02,1.166222991943359375e+02,8.770228385925292969e+00,3.480780029296875000e+01,-1.537292938232421875e+02,6.622257232666015625e+01,1.191414108276367188e+02
9.679999947547912598e-01,1.000000000000000000e+00,-4.996604919433593750e+00,1.052455306053161621e+00,4.888561248779296875e+00,-1.960711517333984375e+02,-8.669717407226562500e+01,-1.673762054443359375e+02,1.166222991943359375e+02,8.770228385925292969e+00,3.480780029296875000e+01,-1.537292938232421875e+02,6.622257232666015625e+01,1.191414108276367188e+02
9.720000028610229492e-01,1.000000000000000000e+00,-5.059575080871582031e+00,1.106465101242065430e+00,4.897666454315185547e+00,-1.960170440673828125e+02,-8.662359619140625000e+01,-1.673160095214843750e+02,1.166222991943359375e+02,8.770228385925292969e+00,3.480780029296875000e+01,-1.537292938232421875e+02,6.622257232666015625e+01,1.191414108276367188e+02
9.760000109672546387e-01,1.000000000000000000e+00,-5.122541427612304688e+00,1.160472154617309570e+00,4.906771659851074219e+00,-1.959629211425781250e+02,-8.655001831054687500e+01,-1.672557983398437500e+02,1.166222991943359375e+02,8.770228385925292969e+00,3.480780029296875000e+01,-1.537292938232421875e+02,6.622257232666015625e+01,1.191414108276367188e+02
9.800000190734863281e-01,1.000000000000000000e+00,-5.185505390167236328e+00,1.214476346969604492e+00,4.915876388549804688e+00,-1.959088134765625000e+02,-8.647644805908203125e+01,-1.671956024169921875e+02,1.166222991943359375e+02,8.770228385925292969e+00,3.480780029296875000e+01,-1.537292938232421875e+02,6.622257232666015625e+01,1.191414108276367188e+02
9.840000271797180176e-01,1.000000000000000000e+00,-5.248465538024902344e+00,1.268478035926818848e+00,4.924980640411376953e+00,-1.958547058105468750e+02,-8.640287780761718750e+01,-1.671354064941406250e+02,1.166222991943359375e+02,8.770228385925292969e+00,3.480780029296875000e+01,-1.537292938232421875e+02,6.622257232666015625e+01,1.191414108276367188e+02
9.879999756813049316e-01,1.000000000000000000e+00,-5.311422824859619141e+00,1.322476863861083984e+00,4.934084415435791016e+00,-1.958005981445312500e+02,-8.632930755615234375e+01,-1.670751953125000000e+02,1.166222991943359375e+02,8.770228385925292969e+00,3.480780029296875000e+01,-1.537292938232421875e+02,6.622257232666015625e+01,1.191414108276367188e+02
9.919999837875366211e-01,1.000000000000000000e+00,-5.374376773834228516e+00,1.376472830772399902e+00,4.943187236785888672e+00,-1.957465057373046875e+02,-8.625574493408203125e+01,-1.670150146484375000e+02,1.166222991943359375e+02,8.770228385925292969e+00,3.480780029296875000e+01,-1.537292938232421875e+02,6.622257232666015625e+01,1.191414108276367188e+02
9.959999918937683105e-01,1.000000000000000000e+00,-5.437327384948730469e+00,1.430466055870056152e+00,4.952290058135986328e+00,-1.956923980712890625e+02,-8.618218994140625000e+01,-1.669548187255859375e+02,1.166222991943359375e+02,8.770228385925292969e+00,3.480780029296875000e+01,-1.537292938232421875e+02,6.622257232666015625e+01,1.191414108276367188e+02
1.000000000000000000e+00,1.000000000000000000e+00,-5.500275135040283203e+00,1.484456539154052734e+00,4.961392879486083984e+00,-1.956383056640625000e+02,-8.610863494873046875e+01,-1.668946380615234375e+02,1.166222991943359375e+02,8.770228385925292969e+00,3.480780029296875000e+01,-1.537292938232421875e+02,6.622257232666015625e+01,1.191414108276367188e+02
1.003999948501586914e+00,1.000000000000000000e+00,-5.563219070434570312e+00,1.538444161415100098e+00,4.970494270324707031e+00,-1.955841979980468750e+02,-8.603507995605468750e+01,-1.668344573974609375e+02,1.166222991943359375e+02,8.770228385925292969e+00,3.480780029296875000e+01,-1.537292938232421875e+02,6.622257232666015625e+01,1.191414108276367188e+02
1.008000016212463379e+00,1.000000000000000000e+00,-5.626160144805908203e+00,1.592428922653198242e+00,4.979595661163330078e+00,-1.955301055908203125e+02,-8.596153259277343750e+01,-1.667742767333984375e+02,1.166222991943359375e+02,8.770228385925292969e+00,3.480780029296875000e+01,-1.537292938232421875e+02,6.622257232666015625e+01,1.191414108276367188e+02
1.011999964714050293e+00,1.000000000000000000e+00,-5.689097404479980469e+00,1.646410942077636719e+00,4.988696575164794922e+00,-1.954760284423828125e+02,-8.588799285888671875e+01,-1.667140960693359375e+02,1.166222991943359375e+02,8.770228385925292969e+00,3.480780029296875000e+01,-1.537292938232421875e+02,6.622257232666015625e+01,1.191414108276367188e+02
1.016000032424926758e+00,1.000000000000000000e+00,-5.752031326293945312e+00,1.700389981269836426e+00,4.997797012329101562e+00,-1.954219360351562500e+02,-8.581445312500000000e+01,-1.666539306640625000e+02,1.166222991943359375e+02,8.770228385925292969e+00,3.480780029296875000e+01,-1.537292938232421875e+02,6.622257232666015625e+01,1.191414108276367188e+02
1.019999980926513672e+00,1.000000000000000000e+00,-5.814962387084960938e+00,1.754366159439086914e+00,5.006896972656250000e+00,-1.953678436279296875e+02,-8.574091339111328125e+01,-1.665937500000000000e+02,1.166222991943359375e+02,8.770228385925292969e+00,3.480780029296875000e+01,-1.537292938232421875e+02,6.622257232666015625e+01,1.191414108276367188e+02
1.024000048637390137e+00,1.000000000000000000e+00,-5.877889633178710938e+00,1.808339357376098633e+00,5.015995979309082031e+00,-1.953137664794921875e+02,-8.566738128662109375e+01,-1.665335998535156250e+02,1.166222991943359375e+02,8.770228385925292969e+00,3.480780029296875000e+01,-1.537292938232421875e+02,6.622257232666015625e+01,1.191414108276367188e+02
1.026999950408935547e+00,1.000000000000000000e+00,-5.940814018249511719e+00,1.862309813499450684e+00,5.025095462799072266e+00,-1.952597045898437500e+02,-8.559385681152343750e+01,-1.664734344482421875e+02,1.166222991943359375e+02,8.770228385925292969e+00,3.480780029296875000e+01,-1.537292938232421875e+02,6.622257232666015625e+01,1.191414108276367188e+02
1.031999945640563965e+00,1.000000000000000000e+00,-6.003734588623046875e+00,1.916277289390563965e+00,5.034193992614746094e+00,-1.952056274414062500e+02,-8.552033233642578125e+01,-1.664132690429687500e+02,1.166222991943359375e+02,8.770228385925292969e+00,3.480780029296875000e+01,-1.537292938232421875e+02,6.622257232666015625e+01,1.191414108276367188e+02
1.036000013351440430e+00,1.000000000000000000e+00,-6.066651821136474609e+00,1.970241785049438477e+00,5.043291568756103516e+00,-1.951515502929687500e+02,-8.544681549072265625e+01,-1.663531188964843750e+02,1.166222991943359375e+02,8.770228385925292969e+00,3.480780029296875000e+01,-1.537292938232421875e+02,6.622257232666015625e+01,1.191414108276367188e+02
1.039999961853027344e+00,1.000000000000000000e+00,-6.129565715789794922e+00,2.024203300476074219e+00,5.052389144897460938e+00,-1.950974884033203125e+02,-8.537329101562500000e+01,-1.662929687500000000e+02,1.166222991943359375e+02,8.770228385925292969e+00,3.480780029296875000e+01,-1.537292938232421875e+02,6.622257232666015625e+01,1.191414108276367188e+02
1.044000029563903809e+00,1.000000000000000000e+00,-6.192475795745849609e+00,2.078161716461181641e+00,5.061486244201660156e+00,-1.950434112548828125e+02,-8.529978942871093750e+01,-1.662328033447265625e+02,1.166222991943359375e+02,8.770228385925292969e+00,3.480780029296875000e+01,-1.537292938232421875e+02,6.622257232666015625e+01,1.191414108276367188e+02
1.047999978065490723e+00,1.000000000000000000e+00,-6.255382061004638672e+00,2.132117271423339844e+00,5.070582866668701172e+00,-1.949893493652343750e+02,-8.522628021240234375e+01,-1.661726531982421875e+02,1.166222991943359375e+02,8.770228385925292969e+00,3.480780029296875000e+01,-1.537292938232421875e+02,6.622257232666015625e+01,1.191414108276367188e+02
1.052000045776367188e+00,1.000000000000000000e+00,-6.318285942077636719e+00,2.186069726943969727e+00,5.079678535461425781e+00,-1.949352874755859375e+02,-8.515277862548828125e+01,-1.661125183105468750e+02,1.166222991943359375e+02,8.770228385925292969e+00,3.480780029296875000e+01,-1.537292938232421875e+02,6.622257232666015625e+01,1.191414108276367188e+02
1.054999947547912598e+00,1.000000000000000000e+00,-6.381185531616210938e+00,2.240019321441650391e+00,5.088774204254150391e+00,-1.948812408447265625e+02,-8.507927703857421875e+01,-1.660523834228515625e+02,1.166222991943359375e+02,8.770228385925292969e+00,3.480780029296875000e+01,-1.537292938232421875e+02,6.622257232666015625e+01,1.191414108276367188e+02
1.059999942779541016e+00,1.000000000000000000e+00,-6.444081783294677734e+00,2.293965578079223633e+00,5.097868919372558594e+00,-1.948271942138671875e+02,-8.500578308105468750e+01,-1.659922485351562500e+02,1.166222991943359375e+02,8.770228385925292969e+00,3.480780029296875000e+01,-1.537292938232421875e+02,6.622257232666015625e+01,1.191414108276367188e+02
1.064000010490417480e+00,1.000000000000000000e+00,-6.506974220275878906e+00,2.347908973693847656e+00,5.106963157653808594e+00,-1.947731323242187500e+02,-8.493228912353515625e+01,-1.659321136474609375e+02,1.166222991943359375e+02,8.770228385925292969e+00,3.480780029296875000e+01,-1.537292938232421875e+02,6.622257232666015625e+01,1.191414108276367188e+02
1.067999958992004395e+00,1.000000000000000000e+00,-6.569862842559814453e+00,2.401849269866943359e+00,5.116057395935058594e+00,-1.947190856933593750e+02,-8.485880279541015625e+01,-1.658719787597656250e+02,1.166222991943359375e+02,8.770228385925292969e+00,3.480780029296875000e+01,-1.537292938232421875e+02,6.622257232666015625e+01,1.191414108276367188e+02
1.072000026702880859e+00,1.000000000000000000e+00,-6.632748603820800781e+00,2.455786466598510742e+00,5.125150203704833984e+00,-1.946650390625000000e+02,-8.478532409667968750e+01,-1.658118591308593750e+02,1.166222991943359375e+02,8.770228385925292969e+00,3.480780029296875000e+01,-1.537292938232421875e+02,6.622257232666015625e+01,1.191414108276367188e+02
1.075999975204467773e+00,1.000000000000000000e+00,-6.695630073547363281e+00,2.509720563888549805e+00,5.134243488311767578e+00,-1.946109924316406250e+02,-8.471184539794921875e+01,-1.657517242431640625e+02,1.166222991943359375e+02,8.770228385925292969e+00,3.480780029296875000e+01,-1.537292938232421875e+02,6.622257232666015625e+01,1.191414108276367188e+02
1.080000042915344238e+00,1.000000000000000000e+00,-6.758508205413818359e+00,2.563651323318481445e+00,5.143335819244384766e+00,-1.945569610595703125e+02,-8.463837432861328125e+01,-1.656916046142578125e+02,1.166222991943359375e+02,8.770228385925292969e+00,3.480780029296875000e+01,-1.537292938232421875e+02,6.622257232666015625e+01,1.191414108276367188e+02
1.083999991416931152e+00,1.000000000000000000e+00,-6.821382522583007812e+00,2.617579221725463867e+00,5.152427196502685547e+00,-1.945029296875000000e+02,-8.456490325927734375e+01,-1.656315002441406250e+02,1.166222991943359375e+02,8.770228385925292969e+00,3.480780029296875000e+01,-1.537292938232421875e+02,6.622257232666015625e+01,1.191414108276367188e+02
1.088000059127807617e+00,1.000000000000000000e+00,-6.884253025054931641e+00,2.671503782272338867e+00,5.161518573760986328e+00,-1.944488830566406250e+02,-8.449143218994140625e+01,-1.655713806152343750e+02,1.166222991943359375e+02,8.770228385925292969e+00,3.480780029296875000e+01,-1.537292938232421875e+02,6.622257232666015625e+01,1.191414108276367188e+02
1.090999960899353027e+00,1.000000000000000000e+00,-6.947120189666748047e+00,2.725425243377685547e+00,5.170608997344970703e+00,-1.943948669433593750e+02,-8.441797637939453125e+01,-1.655112762451171875e+02,1.166222991943359375e+02,8.770228385925292969e+00,3.480780029296875000e+01,-1.537292938232421875e+02,6.622257232666015625e+01,1.191414108276367188e+02
1.095999956130981445e+00,1.000000000000000000e+00,-7.009983539581298828e+00,2.779343605041503906e+00,5.179699420928955078e+00,-1.943408355712890625e+02,-8.434452056884765625e+01,-1.654511718750000000e+02,1.166222991943359375e+02,8.770228385925292969e+00,3.480780029296875000e+01,-1.537292938232421875e+02,6.622257232666015625e+01,1.191414108276367188e+02
1.100000023841857910e+00,1.000000000000000000e+00,-7.072843074798583984e+00,2.833258628845214844e+00,5.188788890838623047e+00,-1.942868194580078125e+02,-8.427106475830078125e+01,-1.653910675048828125e+02,1.166222991943359375e+02,8.770228385925292969e+00,3.480780029296875000e+01,-1.537292938232421875e+02,6.622257232666015625e+01,1.191414108276367188e+02
1.103999972343444824e+00,1.000000000000000000e+00,-7.135699272155761719e+00,2.887170553207397461e+00,5.197878360748291016e+00,-1.942328033447265625e+02,-8.419762420654296875e+01,-1.653309783935546875e+02,1.166222991943359375e+02,8.770228385925292969e+00,3.480780029296875000e+01,-1.537292938232421875e+02,6.622257232666015625e+01,1.191414108276367188e+02
1.108000040054321289e+00,1.000000000000000000e+00,-7.198551654815673828e+00,2.941079139709472656e+00,5.206966400146484375e+00,-1.941787872314453125e+02,-8.412417602539062500e+01,-1.652708740234375000e+02,1.166222991943359375e+02,8.770228385925292969e+00,3.480780029296875000e+01,-1.537292938232421875e+02,6.622257232666015625e+01,1.191414108276367188e+02
1.111999988555908203e+00,1.000000000000000000e+00,-7.261399745941162109e+00,2.994984388351440430e+00,5.216054439544677734e+00,-1.941247711181640625e+02,-8.405073547363281250e+01,-1.652107849121093750e+02,1.166222991943359375e+02,8.770228385925292969e+00,3.480780029296875000e+01,-1.537292938232421875e+02,6.622257232666015625e+01,1.191414108276367188e+02
1.116000056266784668e+00,1.000000000000000000e+00,-7.324244022369384766e+00,3.048886299133300781e+00,5.225142002105712891e+00,-1.940707550048828125e+02,-8.397730255126953125e+01,-1.651506958007812500e+02,1.166222991943359375e+02,8.770228385925292969e+00,3.480780029296875000e+01,-1.537292938232421875e+02,6.622257232666015625e+01,1.191414108276367188e+02
