rpiRobotics/ARM-21-02-F-19-Robot-Motion-Program/data_performance_abb/curve_1/curve_pose_opt1/100L/grad_result/sim/curve_exe_v400_z10.csv
# timestamp,cmd_num,J1,J2,J3,J4,J5,J6
0.000000000000000000e+00,-1.000000000000000000e+00,-3.429727172851562500e+01,4.898739242553710938e+01,3.003597259521484375e+01,1.098959426879882812e+02,9.609557342529296875e+01,-1.136211872100830078e+00,1.166222991943359375e+02,8.770228385925292969e+00,3.480780029296875000e+01,-1.537292938232421875e+02,6.622257232666015625e+01,1.191414108276367188e+02
4.000000189989805222e-03,1.000000000000000000e+00,-3.429727172851562500e+01,4.898739242553710938e+01,3.003597259521484375e+01,1.098959426879882812e+02,9.609557342529296875e+01,-1.136211872100830078e+00,1.166222991943359375e+02,8.770228385925292969e+00,3.480780029296875000e+01,-1.537292938232421875e+02,6.622257232666015625e+01,1.191414108276367188e+02
6.000000052154064178e-03,1.000000000000000000e+00,-3.429727172851562500e+01,4.898739242553710938e+01,3.003597259521484375e+01,1.098959426879882812e+02,9.609557342529296875e+01,-1.136211872100830078e+00,1.166222991943359375e+02,8.770228385925292969e+00,3.480780029296875000e+01,-1.537292938232421875e+02,6.622257232666015625e+01,1.191414108276367188e+02
9.999999776482582092e-03,1.000000000000000000e+00,-3.429727172851562500e+01,4.898739242553710938e+01,3.003597259521484375e+01,1.098959426879882812e+02,9.609557342529296875e+01,-1.136211872100830078e+00,1.166222991943359375e+02,8.770228385925292969e+00,3.480780029296875000e+01,-1.537292938232421875e+02,6.622257232666015625e+01,1.191414108276367188e+02
1.200000010430812836e-02,1.000000000000000000e+00,-3.429727172851562500e+01,4.898739242553710938e+01,3.003597259521484375e+01,1.098959426879882812e+02,9.609557342529296875e+01,-1.136211872100830078e+00,1.166222991943359375e+02,8.770228385925292969e+00,3.480780029296875000e+01,-1.537292938232421875e+02,6.622257232666015625e+01,1.191414108276367188e+02
1.600000075995922089e-02,1.000000000000000000e+00,-3.429727172851562500e+01,4.898739242553710938e+01,3.003597259521484375e+01,1.098959426879882812e+02,9.609557342529296875e+01,-1.136211872100830078e+00,1.166222991943359375e+02,8.770228385925292969e+00,3.480780029296875000e+01,-1.537292938232421875e+02,6.622257232666015625e+01,1.191414108276367188e+02
1.999999955296516418e-02,1.000000000000000000e+00,-3.429727172851562500e+01,4.898739242553710938e+01,3.003597259521484375e+01,1.098959426879882812e+02,9.609557342529296875e+01,-1.136211872100830078e+00,1.166222991943359375e+02,8.770228385925292969e+00,3.480780029296875000e+01,-1.537292938232421875e+02,6.622257232666015625e+01,1.191414108276367188e+02
2.400000020861625671e-02,1.000000000000000000e+00,-3.429727172851562500e+01,4.898739242553710938e+01,3.003597259521484375e+01,1.098959426879882812e+02,9.609557342529296875e+01,-1.136211872100830078e+00,1.166222991943359375e+02,8.770228385925292969e+00,3.480780029296875000e+01,-1.537292938232421875e+02,6.622257232666015625e+01,1.191414108276367188e+02
2.800000086426734924e-02,1.000000000000000000e+00,-3.429727172851562500e+01,4.898739242553710938e+01,3.003597259521484375e+01,1.098959426879882812e+02,9.609557342529296875e+01,-1.136211872100830078e+00,1.166222991943359375e+02,8.770228385925292969e+00,3.480780029296875000e+01,-1.537292938232421875e+02,6.622257232666015625e+01,1.191414108276367188e+02
3.200000151991844177e-02,1.000000000000000000e+00,-3.429727172851562500e+01,4.898739242553710938e+01,3.003597259521484375e+01,1.098959426879882812e+02,9.609557342529296875e+01,-1.136211872100830078e+00,1.166222991943359375e+02,8.770228385925292969e+00,3.480780029296875000e+01,-1.537292938232421875e+02,6.622257232666015625e+01,1.191414108276367188e+02
3.599999845027923584e-02,1.000000000000000000e+00,-3.429727172851562500e+01,4.898739242553710938e+01,3.003597259521484375e+01,1.098959426879882812e+02,9.609557342529296875e+01,-1.136211872100830078e+00,1.166222991943359375e+02,8.770228385925292969e+00,3.480780029296875000e+01,-1.537292938232421875e+02,6.622257232666015625e+01,1.191414108276367188e+02
3.999999910593032837e-02,1.000000000000000000e+00,-3.429727172851562500e+01,4.898739242553710938e+01,3.003597259521484375e+01,1.098959426879882812e+02,9.609557342529296875e+01,-1.136211872100830078e+00,1.166222991943359375e+02,8.770228385925292969e+00,3.480780029296875000e+01,-1.537292938232421875e+02,6.622257232666015625e+01,1.191414108276367188e+02
4.399999976158142090e-02,1.000000000000000000e+00,-3.429730987548828125e+01,4.898736572265625000e+01,3.003596878051757812e+01,1.098959350585937500e+02,9.609557342529296875e+01,-1.136211991310119629e+00,1.166222991943359375e+02,8.770228385925292969e+00,3.480780029296875000e+01,-1.537292938232421875e+02,6.622257232666015625e+01,1.191414108276367188e+02
4.800000041723251343e-02,1.000000000000000000e+00,-3.429750442504882812e+01,4.898723220825195312e+01,3.003596878051757812e+01,1.098959350585937500e+02,9.609558105468750000e+01,-1.136213421821594238e+00,1.166222991943359375e+02,8.770228385925292969e+00,3.480780029296875000e+01,-1.537292938232421875e+02,6.622257232666015625e+01,1.191414108276367188e+02
5.200000107288360596e-02,1.000000000000000000e+00,-3.429802703857421875e+01,4.898679351806640625e+01,3.003596305847167969e+01,1.098959121704101562e+02,9.609560394287109375e+01,-1.136219859123229980e+00,1.166222991943359375e+02,8.770228385925292969e+00,3.480780029296875000e+01,-1.537292938232421875e+02,6.622257232666015625e+01,1.191414108276367188e+02
5.600000172853469849e-02,1.000000000000000000e+00,-3.429899978637695312e+01,4.898583984375000000e+01,3.003595542907714844e+01,1.098958358764648438e+02,9.609566497802734375e+01,-1.136242032051086426e+00,1.166222991943359375e+02,8.770228385925292969e+00,3.480780029296875000e+01,-1.537292938232421875e+02,6.622257232666015625e+01,1.191414108276367188e+02
5.999999865889549255e-02,1.000000000000000000e+00,-3.430046081542968750e+01,4.898415374755859375e+01,3.003596496582031250e+01,1.098956604003906250e+02,9.609577941894531250e+01,-1.136300206184387207e+00,1.166222991943359375e+02,8.770228385925292969e+00,3.480780029296875000e+01,-1.537292938232421875e+02,6.622257232666015625e+01,1.191414108276367188e+02
6.400000303983688354e-02,1.000000000000000000e+00,-3.430239868164062500e+01,4.898150253295898438e+01,3.003601264953613281e+01,1.098952865600585938e+02,9.609597015380859375e+01,-1.136426925659179688e+00,1.166222991943359375e+02,8.770228385925292969e+00,3.480780029296875000e+01,-1.537292938232421875e+02,6.622257232666015625e+01,1.191414108276367188e+02
6.800000369548797607e-02,1.000000000000000000e+00,-3.430482864379882812e+01,4.897761154174804688e+01,3.003614234924316406e+01,1.098945617675781250e+02,9.609626770019531250e+01,-1.136668086051940918e+00,1.166222991943359375e+02,8.770228385925292969e+00,3.480780029296875000e+01,-1.537292938232421875e+02,6.622257232666015625e+01,1.191414108276367188e+02
7.199999690055847168e-02,1.000000000000000000e+00,-3.430773162841796875e+01,4.897218704223632812e+01,3.003640556335449219e+01,1.098933334350585938e+02,9.609673309326171875e+01,-1.137082338333129883e+00,1.166222991943359375e+02,8.770228385925292969e+00,3.480780029296875000e+01,-1.537292938232421875e+02,6.622257232666015625e+01,1.191414108276367188e+02
7.599999755620956421e-02,1.000000000000000000e+00,-3.431113052368164062e+01,4.896503829956054688e+01,3.003685760498046875e+01,1.098913879394531250e+02,9.609740447998046875e+01,-1.137741804122924805e+00,1.166222991943359375e+02,8.770228385925292969e+00,3.480780029296875000e+01,-1.537292938232421875e+02,6.622257232666015625e+01,1.191414108276367188e+02
7.999999821186065674e-02,1.000000000000000000e+00,-3.431510162353515625e+01,4.895605087280273438e+01,3.003757476806640625e+01,1.098884658813476562e+02,9.609834289550781250e+01,-1.138731718063354492e+00,1.166222991943359375e+02,8.770228385925292969e+00,3.480780029296875000e+01,-1.537292938232421875e+02,6.622257232666015625e+01,1.191414108276367188e+02
8.399999886751174927e-02,1.000000000000000000e+00,-3.431984710693359375e+01,4.894509124755859375e+01,3.003863906860351562e+01,1.098842849731445312e+02,9.609963226318359375e+01,-1.140150785446166992e+00,1.166222991943359375e+02,8.770228385925292969e+00,3.480780029296875000e+01,-1.537292938232421875e+02,6.622257232666015625e+01,1.191414108276367188e+02
8.799999952316284180e-02,1.000000000000000000e+00,-3.432560729980468750e+01,4.893197250366210938e+01,3.004014968872070312e+01,1.098785018920898438e+02,9.610135650634765625e+01,-1.142110705375671387e+00,1.166222991943359375e+02,8.770228385925292969e+00,3.480780029296875000e+01,-1.537292938232421875e+02,6.622257232666015625e+01,1.191414108276367188e+02
9.200000017881393433e-02,1.000000000000000000e+00,-3.433260726928710938e+01,4.891650390625000000e+01,3.004221534729003906e+01,1.098707809448242188e+02,9.610359954833984375e+01,-1.144736289978027344e+00,1.166222991943359375e+02,8.770228385925292969e+00,3.480780029296875000e+01,-1.537292938232421875e+02,6.622257232666015625e+01,1.191414108276367188e+02
9.600000083446502686e-02,1.000000000000000000e+00,-3.434098434448242188e+01,4.889860916137695312e+01,3.004495429992675781e+01,1.098606948852539062e+02,9.610644531250000000e+01,-1.148162841796875000e+00,1.166222991943359375e+02,8.770228385925292969e+00,3.480780029296875000e+01,-1.537292938232421875e+02,6.622257232666015625e+01,1.191414108276367188e+02
1.000000014901161194e-01,1.000000000000000000e+00,-3.435078811645507812e+01,4.887826156616210938e+01,3.004850959777832031e+01,1.098478469848632812e+02,9.610998535156250000e+01,-1.152530431747436523e+00,1.166222991943359375e+02,8.770228385925292969e+00,3.480780029296875000e+01,-1.537292938232421875e+02,6.622257232666015625e+01,1.191414108276367188e+02
1.040000021457672119e-01,1.000000000000000000e+00,-3.436205673217773438e+01,4.885537338256835938e+01,3.005300331115722656e+01,1.098318481445312500e+02,9.611428070068359375e+01,-1.157974600791931152e+00,1.166222991943359375e+02,8.770228385925292969e+00,3.480780029296875000e+01,-1.537292938232421875e+02,6.622257232666015625e+01,1.191414108276367188e+02
1.080000028014183044e-01,1.000000000000000000e+00,-3.437488174438476562e+01,4.882970428466796875e+01,3.005854988098144531e+01,1.098123397827148438e+02,9.611942291259765625e+01,-1.164615750312805176e+00,1.166222991943359375e+02,8.770228385925292969e+00,3.480780029296875000e+01,-1.537292938232421875e+02,6.622257232666015625e+01,1.191414108276367188e+02
1.120000034570693970e-01,1.000000000000000000e+00,-3.438939285278320312e+01,4.880093765258789062e+01,3.006523704528808594e+01,1.097890319824218750e+02,9.612548065185546875e+01,-1.172553539276123047e+00,1.166222991943359375e+02,8.770228385925292969e+00,3.480780029296875000e+01,-1.537292938232421875e+02,6.622257232666015625e+01,1.191414108276367188e+02
1.159999966621398926e-01,1.000000000000000000e+00,-3.440571212768554688e+01,4.876883697509765625e+01,3.007312583923339844e+01,1.097616958618164062e+02,9.613249206542968750e+01,-1.181863307952880859e+00,1.166222991943359375e+02,8.770228385925292969e+00,3.480780029296875000e+01,-1.537292938232421875e+02,6.622257232666015625e+01,1.191414108276367188e+02
1.199999973177909851e-01,1.000000000000000000e+00,-3.442390823364257812e+01,4.873328018188476562e+01,3.008226776123046875e+01,1.097301864624023438e+02,9.614051818847656250e+01,-1.192595601081848145e+00,1.166222991943359375e+02,8.770228385925292969e+00,3.480780029296875000e+01,-1.537292938232421875e+02,6.622257232666015625e+01,1.191414108276367188e+02
1.239999979734420776e-01,1.000000000000000000e+00,-3.444399261474609375e+01,4.869424057006835938e+01,3.009267616271972656e+01,1.096944351196289062e+02,9.614955902099609375e+01,-1.204775333404541016e+00,1.166222991943359375e+02,8.770228385925292969e+00,3.480780029296875000e+01,-1.537292938232421875e+02,6.622257232666015625e+01,1.191414108276367188e+02
1.280000060796737671e-01,1.000000000000000000e+00,-3.446594619750976562e+01,4.865176773071289062e+01,3.010435676574707031e+01,1.096544570922851562e+02,9.615961456298828125e+01,-1.218400716781616211e+00,1.166222991943359375e+02,8.770228385925292969e+00,3.480780029296875000e+01,-1.537292938232421875e+02,6.622257232666015625e+01,1.191414108276367188e+02
1.309999972581863403e-01,1.000000000000000000e+00,-3.448971176147460938e+01,4.860597991943359375e+01,3.011727523803710938e+01,1.096103134155273438e+02,9.617065429687500000e+01,-1.233441829681396484e+00,1.166222991943359375e+02,8.770228385925292969e+00,3.480780029296875000e+01,-1.537292938232421875e+02,6.622257232666015625e+01,1.191414108276367188e+02
1.360000073909759521e-01,1.000000000000000000e+00,-3.451520156860351562e+01,4.855706787109375000e+01,3.013138389587402344e+01,1.095621948242187500e+02,9.618264007568359375e+01,-1.249840378761291504e+00,1.166222991943359375e+02,8.770228385925292969e+00,3.480780029296875000e+01,-1.537292938232421875e+02,6.622257232666015625e+01,1.191414108276367188e+02
1.389999985694885254e-01,1.000000000000000000e+00,-3.454228973388671875e+01,4.850525283813476562e+01,3.014660453796386719e+01,1.095103607177734375e+02,9.619552612304687500e+01,-1.267510771751403809e+00,1.166222991943359375e+02,8.770228385925292969e+00,3.480780029296875000e+01,-1.537292938232421875e+02,6.622257232666015625e+01,1.191414108276367188e+02
1.439999938011169434e-01,1.000000000000000000e+00,-3.457090377807617188e+01,4.845066833496093750e+01,3.016283035278320312e+01,1.094551162719726562e+02,9.620922088623046875e+01,-1.286340951919555664e+00,1.166222991943359375e+02,8.770228385925292969e+00,3.480780029296875000e+01,-1.537292938232421875e+02,6.622257232666015625e+01,1.191414108276367188e+02
1.480000019073486328e-01,1.000000000000000000e+00,-3.460103225708007812e+01,4.839336395263671875e+01,3.017993545532226562e+01,1.093968505859375000e+02,9.622365570068359375e+01,-1.306200385093688965e+00,1.166222991943359375e+02,8.770228385925292969e+00,3.480780029296875000e+01,-1.537292938232421875e+02,6.622257232666015625e+01,1.191414108276367188e+02
1.519999951124191284e-01,1.000000000000000000e+00,-3.463262939453125000e+01,4.833343887329101562e+01,3.019779396057128906e+01,1.093359832763671875e+02,9.623876953125000000e+01,-1.326949357986450195e+00,1.166222991943359375e+02,8.770228385925292969e+00,3.480780029296875000e+01,-1.537292938232421875e+02,6.622257232666015625e+01,1.191414108276367188e+02
1.560000032186508179e-01,1.000000000000000000e+00,-3.466556549072265625e+01,4.827111434936523438e+01,3.021626853942871094e+01,1.092729034423828125e+02,9.625444793701171875e+01,-1.348449110984802246e+00,1.166222991943359375e+02,8.770228385925292969e+00,3.480780029296875000e+01,-1.537292938232421875e+02,6.622257232666015625e+01,1.191414108276367188e+02
1.599999964237213135e-01,1.000000000000000000e+00,-3.469960784912109375e+01,4.820665740966796875e+01,3.023525047302246094e+01,1.092080154418945312e+02,9.627061462402343750e+01,-1.370569229125976562e+00,1.166222991943359375e+02,8.770228385925292969e+00,3.480780029296875000e+01,-1.537292938232421875e+02,6.622257232666015625e+01,1.191414108276367188e+02
1.640000045299530029e-01,1.000000000000000000e+00,-3.473448562622070312e+01,4.814027786254882812e+01,3.025463676452636719e+01,1.091416397094726562e+02,9.628717803955078125e+01,-1.393189907073974609e+00,1.166222991943359375e+02,8.770228385925292969e+00,3.480780029296875000e+01,-1.537292938232421875e+02,6.622257232666015625e+01,1.191414108276367188e+02
1.679999977350234985e-01,1.000000000000000000e+00,-3.476999664306640625e+01,4.807211303710937500e+01,3.027433967590332031e+01,1.090741195678710938e+02,9.630406188964843750e+01,-1.416202783584594727e+00,1.166222991943359375e+02,8.770228385925292969e+00,3.480780029296875000e+01,-1.537292938232421875e+02,6.622257232666015625e+01,1.191414108276367188e+02
1.720000058412551880e-01,1.000000000000000000e+00,-3.480605316162109375e+01,4.800223541259765625e+01,3.029426574707031250e+01,1.090057220458984375e+02,9.632118988037109375e+01,-1.439512252807617188e+00,1.166222991943359375e+02,8.770228385925292969e+00,3.480780029296875000e+01,-1.537292938232421875e+02,6.622257232666015625e+01,1.191414108276367188e+02
1.759999990463256836e-01,1.000000000000000000e+00,-3.484266281127929688e+01,4.793070602416992188e+01,3.031435775756835938e+01,1.089366989135742188e+02,9.633851623535156250e+01,-1.463035702705383301e+00,1.166222991943359375e+02,8.770228385925292969e+00,3.480780029296875000e+01,-1.537292938232421875e+02,6.622257232666015625e+01,1.191414108276367188e+02
1.800000071525573730e-01,1.000000000000000000e+00,-3.487983703613281250e+01,4.785764312744140625e+01,3.033454704284667969e+01,1.088672409057617188e+02,9.635597229003906250e+01,-1.486705422401428223e+00,1.166222991943359375e+02,8.770228385925292969e+00,3.480780029296875000e+01,-1.537292938232421875e+02,6.622257232666015625e+01,1.191414108276367188e+02
1.840000003576278687e-01,1.000000000000000000e+00,-3.491757583618164062e+01,4.778328323364257812e+01,3.035479927062988281e+01,1.087975006103515625e+02,9.637353515625000000e+01,-1.510468840599060059e+00,1.166222991943359375e+02,8.770228385925292969e+00,3.480780029296875000e+01,-1.537292938232421875e+02,6.622257232666015625e+01,1.191414108276367188e+02
1.879999935626983643e-01,1.000000000000000000e+00,-3.495588684082031250e+01,4.770792007446289062e+01,3.037507820129394531e+01,1.087276000976562500e+02,9.639116668701171875e+01,-1.534287691116333008e+00,1.166222991943359375e+02,8.770228385925292969e+00,3.480780029296875000e+01,-1.537292938232421875e+02,6.622257232666015625e+01,1.191414108276367188e+02
1.920000016689300537e-01,1.000000000000000000e+00,-3.499473571777343750e+01,4.763185882568359375e+01,3.039537048339843750e+01,1.086576156616210938e+02,9.640885162353515625e+01,-1.558138251304626465e+00,1.166222991943359375e+02,8.770228385925292969e+00,3.480780029296875000e+01,-1.537292938232421875e+02,6.622257232666015625e+01,1.191414108276367188e+02
1.959999948740005493e-01,1.000000000000000000e+00,-3.503398132324218750e+01,4.755538940429687500e+01,3.041566848754882812e+01,1.085875549316406250e+02,9.642655944824218750e+01,-1.582008242607116699e+00,1.166222991943359375e+02,8.770228385925292969e+00,3.480780029296875000e+01,-1.537292938232421875e+02,6.622257232666015625e+01,1.191414108276367188e+02
2.000000029802322388e-01,1.000000000000000000e+00,-3.507343292236328125e+01,4.747873306274414062e+01,3.043597602844238281e+01,1.085174560546875000e+02,9.644429016113281250e+01,-1.605892419815063477e+00,1.166222991943359375e+02,8.770228385925292969e+00,3.480780029296875000e+01,-1.537292938232421875e+02,6.622257232666015625e+01,1.191414108276367188e+02
2.039999961853027344e-01,1.000000000000000000e+00,-3.511294937133789062e+01,4.740200424194335938e+01,3.045629501342773438e+01,1.084473266601562500e+02,9.646203613281250000e+01,-1.629789710044860840e+00,1.166222991943359375e+02,8.770228385925292969e+00,3.480780029296875000e+01,-1.537292938232421875e+02,6.622257232666015625e+01,1.191414108276367188e+02
2.080000042915344238e-01,1.000000000000000000e+00,-3.515248870849609375e+01,4.732523345947265625e+01,3.047662162780761719e+01,1.083771514892578125e+02,9.647978210449218750e+01,-1.653699755668640137e+00,1.166222991943359375e+02,8.770228385925292969e+00,3.480780029296875000e+01,-1.537292938232421875e+02,6.622257232666015625e+01,1.191414108276367188e+02
2.119999974966049194e-01,1.000000000000000000e+00,-3.519205093383789062e+01,4.724842071533203125e+01,3.049696159362792969e+01,1.083069458007812500e+02,9.649755096435546875e+01,-1.677622795104980469e+00,1.166222991943359375e+02,8.770228385925292969e+00,3.480780029296875000e+01,-1.537292938232421875e+02,6.622257232666015625e+01,1.191414108276367188e+02
2.160000056028366089e-01,1.000000000000000000e+00,-3.523163604736328125e+01,4.717156982421875000e+01,3.051731300354003906e+01,1.082366943359375000e+02,9.651531219482421875e+01,-1.701558709144592285e+00,1.166222991943359375e+02,8.770228385925292969e+00,3.480780029296875000e+01,-1.537292938232421875e+02,6.622257232666015625e+01,1.191414108276367188e+02
2.199999988079071045e-01,1.000000000000000000e+00,-3.527124023437500000e+01,4.709467315673828125e+01,3.053767395019531250e+01,1.081664047241210938e+02,9.653309631347656250e+01,-1.725507616996765137e+00,1.166222991943359375e+02,8.770228385925292969e+00,3.480780029296875000e+01,-1.537292938232421875e+02,6.622257232666015625e+01,1.191414108276367188e+02
2.240000069141387939e-01,1.000000000000000000e+00,-3.531086730957031250e+01,4.701773452758789062e+01,3.055804443359375000e+01,1.080960845947265625e+02,9.655088806152343750e+01,-1.749469518661499023e+00,1.166222991943359375e+02,8.770228385925292969e+00,3.480780029296875000e+01,-1.537292938232421875e+02,6.622257232666015625e+01,1.191414108276367188e+02
2.280000001192092896e-01,1.000000000000000000e+00,-3.535051345825195312e+01,4.694075775146484375e+01,3.057843017578125000e+01,1.080257186889648438e+02,9.656868743896484375e+01,-1.773444414138793945e+00,1.166222991943359375e+02,8.770228385925292969e+00,3.480780029296875000e+01,-1.537292938232421875e+02,6.622257232666015625e+01,1.191414108276367188e+02
2.319999933242797852e-01,1.000000000000000000e+00,-3.539018630981445312e+01,4.686373901367187500e+01,3.059882354736328125e+01,1.079553222656250000e+02,9.658649444580078125e+01,-1.797432422637939453e+00,1.166222991943359375e+02,8.770228385925292969e+00,3.480780029296875000e+01,-1.537292938232421875e+02,6.622257232666015625e+01,1.191414108276367188e+02
2.360000014305114746e-01,1.000000000000000000e+00,-3.542987442016601562e+01,4.678667449951171875e+01,3.061923027038574219e+01,1.078848800659179688e+02,9.660430908203125000e+01,-1.821433424949645996e+00,1.166222991943359375e+02,8.770228385925292969e+00,3.480780029296875000e+01,-1.537292938232421875e+02,6.622257232666015625e+01,1.191414108276367188e+02
2.399999946355819702e-01,1.000000000000000000e+00,-3.546958923339843750e+01,4.670957183837890625e+01,3.063964462280273438e+01,1.078143997192382812e+02,9.662213897705078125e+01,-1.845447540283203125e+00,1.166222991943359375e+02,8.770228385925292969e+00,3.480780029296875000e+01,-1.537292938232421875e+02,6.622257232666015625e+01,1.191414108276367188e+02
2.440000027418136597e-01,1.000000000000000000e+00,-3.550932312011718750e+01,4.663242340087890625e+01,3.066007423400878906e+01,1.077438888549804688e+02,9.663997650146484375e+01,-1.869474887847900391e+00,1.166222991943359375e+02,8.770228385925292969e+00,3.480780029296875000e+01,-1.537292938232421875e+02,6.622257232666015625e+01,1.191414108276367188e+02
2.479999959468841553e-01,1.000000000000000000e+00,-3.554907989501953125e+01,4.655523300170898438e+01,3.068051338195800781e+01,1.076733322143554688e+02,9.665782928466796875e+01,-1.893515467643737793e+00,1.166222991943359375e+02,8.770228385925292969e+00,3.480780029296875000e+01,-1.537292938232421875e+02,6.622257232666015625e+01,1.191414108276367188e+02
2.520000040531158447e-01,1.000000000000000000e+00,-3.558885955810546875e+01,4.647800445556640625e+01,3.070096206665039062e+01,1.076027297973632812e+02,9.667568969726562500e+01,-1.917569041252136230e+00,1.166222991943359375e+02,8.770228385925292969e+00,3.480780029296875000e+01,-1.537292938232421875e+02,6.622257232666015625e+01,1.191414108276367188e+02
2.560000121593475342e-01,1.000000000000000000e+00,-3.562865829467773438e+01,4.640073013305664062e+01,3.072142601013183594e+01,1.075321044921875000e+02,9.669355010986328125e+01,-1.941635847091674805e+00,1.166222991943359375e+02,8.770228385925292969e+00,3.480780029296875000e+01,-1.537292938232421875e+02,6.622257232666015625e+01,1.191414108276367188e+02
2.599999904632568359e-01,1.000000000000000000e+00,-3.566847991943359375e+01,4.632341384887695312e+01,3.074189949035644531e+01,1.074614334106445312e+02,9.671142578125000000e+01,-1.965715885162353516e+00,1.166222991943359375e+02,8.770228385925292969e+00,3.480780029296875000e+01,-1.537292938232421875e+02,6.622257232666015625e+01,1.191414108276367188e+02
2.639999985694885254e-01,1.000000000000000000e+00,-3.570832061767578125e+01,4.624605178833007812e+01,3.076238441467285156e+01,1.073907241821289062e+02,9.672931671142578125e+01,-1.989809155464172363e+00,1.166222991943359375e+02,8.770228385925292969e+00,3.480780029296875000e+01,-1.537292938232421875e+02,6.622257232666015625e+01,1.191414108276367188e+02
2.680000066757202148e-01,1.000000000000000000e+00,-3.574818801879882812e+01,4.616865539550781250e+01,3.078287696838378906e+01,1.073199691772460938e+02,9.674721527099609375e+01,-2.013915777206420898e+00,1.166222991943359375e+02,8.770228385925292969e+00,3.480780029296875000e+01,-1.537292938232421875e+02,6.622257232666015625e+01,1.191414108276367188e+02
2.720000147819519043e-01,1.000000000000000000e+00,-3.578807449340820312e+01,4.609120941162109375e+01,3.080338478088378906e+01,1.072491836547851562e+02,9.676512145996093750e+01,-2.038035631179809570e+00,1.166222991943359375e+02,8.770228385925292969e+00,3.480780029296875000e+01,-1.537292938232421875e+02,6.622257232666015625e+01,1.191414108276367188e+02
2.759999930858612061e-01,1.000000000000000000e+00,-3.582798385620117188e+01,4.601372146606445312e+01,3.082390213012695312e+01,1.071783523559570312e+02,9.678303527832031250e+01,-2.062168836593627930e+00,1.166222991943359375e+02,8.770228385925292969e+00,3.480780029296875000e+01,-1.537292938232421875e+02,6.622257232666015625e+01,1.191414108276367188e+02
2.800000011920928955e-01,1.000000000000000000e+00,-3.586791610717773438e+01,4.593619155883789062e+01,3.084443092346191406e+01,1.071074905395507812e+02,9.680095672607421875e+01,-2.086315155029296875e+00,1.166222991943359375e+02,8.770228385925292969e+00,3.480780029296875000e+01,-1.537292938232421875e+02,6.622257232666015625e+01,1.191414108276367188e+02
2.840000092983245850e-01,1.000000000000000000e+00,-3.590786743164062500e+01,4.585861968994140625e+01,3.086497306823730469e+01,1.070365829467773438e+02,9.681889343261718750e+01,-2.110475063323974609e+00,1.166222991943359375e+02,8.770228385925292969e+00,3.480780029296875000e+01,-1.537292938232421875e+02,6.622257232666015625e+01,1.191414108276367188e+02
2.879999876022338867e-01,1.000000000000000000e+00,-3.594784164428710938e+01,4.578100204467773438e+01,3.088552474975585938e+01,1.069656372070312500e+02,9.683684539794921875e+01,-2.134648323059082031e+00,1.166222991943359375e+02,8.770228385925292969e+00,3.480780029296875000e+01,-1.537292938232421875e+02,6.622257232666015625e+01,1.191414108276367188e+02
2.919999957084655762e-01,1.000000000000000000e+00,-3.598783874511718750e+01,4.570334243774414062e+01,3.090608787536621094e+01,1.068946533203125000e+02,9.685480499267578125e+01,-2.158834934234619141e+00,1.166222991943359375e+02,8.770228385925292969e+00,3.480780029296875000e+01,-1.537292938232421875e+02,6.622257232666015625e+01,1.191414108276367188e+02
2.960000038146972656e-01,1.000000000000000000e+00,-3.602786254882812500e+01,4.562564086914062500e+01,3.092666244506835938e+01,1.068236312866210938e+02,9.687276458740234375e+01,-2.183034896850585938e+00,1.166222991943359375e+02,8.770228385925292969e+00,3.480780029296875000e+01,-1.537292938232421875e+02,6.622257232666015625e+01,1.191414108276367188e+02
3.000000119209289551e-01,1.000000000000000000e+00,-3.606790161132812500e+01,4.554789352416992188e+01,3.094724845886230469e+01,1.067525711059570312e+02,9.689073944091796875e+01,-2.207248210906982422e+00,1.166222991943359375e+02,8.770228385925292969e+00,3.480780029296875000e+01,-1.537292938232421875e+02,6.622257232666015625e+01,1.191414108276367188e+02
3.039999902248382568e-01,1.000000000000000000e+00,-3.610796737670898438e+01,4.547010421752929688e+01,3.096784591674804688e+01,1.066814727783203125e+02,9.690872955322265625e+01,-2.231474876403808594e+00,1.166222991943359375e+02,8.770228385925292969e+00,3.480780029296875000e+01,-1.537292938232421875e+02,6.622257232666015625e+01,1.191414108276367188e+02
3.079999983310699463e-01,1.000000000000000000e+00,-3.614805221557617188e+01,4.539226913452148438e+01,3.098845672607421875e+01,1.066103286743164062e+02,9.692672729492187500e+01,-2.255715131759643555e+00,1.166222991943359375e+02,8.770228385925292969e+00,3.480780029296875000e+01,-1.537292938232421875e+02,6.622257232666015625e+01,1.191414108276367188e+02
3.120000064373016357e-01,1.000000000000000000e+00,-3.618815994262695312e+01,4.531439590454101562e+01,3.100907707214355469e+01,1.065391464233398438e+02,9.694472503662109375e+01,-2.279968738555908203e+00,1.166222991943359375e+02,8.770228385925292969e+00,3.480780029296875000e+01,-1.537292938232421875e+02,6.622257232666015625e+01,1.191414108276367188e+02
3.160000145435333252e-01,1.000000000000000000e+00,-3.622829055786132812e+01,4.523647689819335938e+01,3.102970695495605469e+01,1.064679260253906250e+02,9.696274566650390625e+01,-2.304235935211181641e+00,1.166222991943359375e+02,8.770228385925292969e+00,3.480780029296875000e+01,-1.537292938232421875e+02,6.622257232666015625e+01,1.191414108276367188e+02
3.199999928474426270e-01,1.000000000000000000e+00,-3.626844024658203125e+01,4.515851211547851562e+01,3.105035018920898438e+01,1.063966674804687500e+02,9.698077392578125000e+01,-2.328516483306884766e+00,1.166222991943359375e+02,8.770228385925292969e+00,3.480780029296875000e+01,-1.537292938232421875e+02,6.622257232666015625e+01,1.191414108276367188e+02
3.240000009536743164e-01,1.000000000000000000e+00,-3.630861663818359375e+01,4.508050918579101562e+01,3.107100486755371094e+01,1.063253631591796875e+02,9.699880981445312500e+01,-2.352810621261596680e+00,1.166222991943359375e+02,8.770228385925292969e+00,3.480780029296875000e+01,-1.537292938232421875e+02,6.622257232666015625e+01,1.191414108276367188e+02
3.280000090599060059e-01,1.000000000000000000e+00,-3.634881591796875000e+01,4.500246047973632812e+01,3.109167289733886719e+01,1.062540206909179688e+02,9.701685333251953125e+01,-2.377118349075317383e+00,1.166222991943359375e+02,8.770228385925292969e+00,3.480780029296875000e+01,-1.537292938232421875e+02,6.622257232666015625e+01,1.191414108276367188e+02
3.319999873638153076e-01,1.000000000000000000e+00,-3.638903427124023438e+01,4.492436981201171875e+01,3.111234855651855469e+01,1.061826477050781250e+02,9.703491210937500000e+01,-2.401439428329467773e+00,1.166222991943359375e+02,8.770228385925292969e+00,3.480780029296875000e+01,-1.537292938232421875e+02,6.622257232666015625e+01,1.191414108276367188e+02
3.359999954700469971e-01,1.000000000000000000e+00,-3.642927932739257812e+01,4.484623336791992188e+01,3.113304138183593750e+01,1.061112213134765625e+02,9.705297851562500000e+01,-2.425774335861206055e+00,1.166222991943359375e+02,8.770228385925292969e+00,3.480780029296875000e+01,-1.537292938232421875e+02,6.622257232666015625e+01,1.191414108276367188e+02
3.400000035762786865e-01,1.000000000000000000e+00,-3.646954345703125000e+01,4.476805496215820312e+01,3.115373992919921875e+01,1.060397644042968750e+02,9.707105255126953125e+01,-2.450122594833374023e+00,1.166222991943359375e+02,8.770228385925292969e+00,3.480780029296875000e+01,-1.537292938232421875e+02,6.622257232666015625e+01,1.191414108276367188e+02
3.440000116825103760e-01,1.000000000000000000e+00,-3.650983047485351562e+01,4.468983078002929688e+01,3.117445182800292969e+01,1.059682693481445312e+02,9.708914184570312500e+01,-2.474484682083129883e+00,1.166222991943359375e+02,8.770228385925292969e+00,3.480780029296875000e+01,-1.537292938232421875e+02,6.622257232666015625e+01,1.191414108276367188e+02
3.479999899864196777e-01,1.000000000000000000e+00,-3.655014038085937500e+01,4.461156463623046875e+01,3.119517898559570312e+01,1.058967285156250000e+02,9.710723876953125000e+01,-2.498860120773315430e+00,1.166222991943359375e+02,8.770228385925292969e+00,3.480780029296875000e+01,-1.537292938232421875e+02,6.622257232666015625e+01,1.191414108276367188e+02
3.519999980926513672e-01,1.000000000000000000e+00,-3.659047317504882812e+01,4.453325271606445312e+01,3.121591186523437500e+01,1.058251495361328125e+02,9.712534332275390625e+01,-2.523249387741088867e+00,1.166222991943359375e+02,8.770228385925292969e+00,3.480780029296875000e+01,-1.537292938232421875e+02,6.622257232666015625e+01,1.191414108276367188e+02
3.560000061988830566e-01,1.000000000000000000e+00,-3.663082885742187500e+01,4.445490264892578125e+01,3.123666191101074219e+01,1.057535324096679688e+02,9.714346313476562500e+01,-2.547652244567871094e+00,1.166222991943359375e+02,8.770228385925292969e+00,3.480780029296875000e+01,-1.537292938232421875e+02,6.622257232666015625e+01,1.191414108276367188e+02
3.600000143051147461e-01,1.000000000000000000e+00,-3.667120361328125000e+01,4.437650299072265625e+01,3.125741767883300781e+01,1.056818695068359375e+02,9.716158294677734375e+01,-2.572068691253662109e+00,1.166222991943359375e+02,8.770228385925292969e+00,3.480780029296875000e+01,-1.537292938232421875e+02,6.622257232666015625e+01,1.191414108276367188e+02
3.639999926090240479e-01,1.000000000000000000e+00,-3.671160507202148438e+01,4.429806137084960938e+01,3.127818870544433594e+01,1.056101760864257812e+02,9.717971801757812500e+01,-2.596498966217041016e+00,1.166222991943359375e+02,8.770228385925292969e+00,3.480780029296875000e+01,-1.537292938232421875e+02,6.622257232666015625e+01,1.191414108276367188e+02
3.680000007152557373e-01,1.000000000000000000e+00,-3.675202560424804688e+01,4.421957397460937500e+01,3.129897308349609375e+01,1.055384368896484375e+02,9.719786834716796875e+01,-2.620942831039428711e+00,1.166222991943359375e+02,8.770228385925292969e+00,3.480780029296875000e+01,-1.537292938232421875e+02,6.622257232666015625e+01,1.191414108276367188e+02
3.720000088214874268e-01,1.000000000000000000e+00,-3.679246902465820312e+01,4.414104461669921875e+01,3.131976509094238281e+01,1.054666519165039062e+02,9.721603393554687500e+01,-2.645400285720825195e+00,1.166222991943359375e+02,8.770228385925292969e+00,3.480780029296875000e+01,-1.537292938232421875e+02,6.622257232666015625e+01,1.191414108276367188e+02
3.759999871253967285e-01,1.000000000000000000e+00,-3.683293914794921875e+01,4.406246948242187500e+01,3.134057235717773438e+01,1.053948364257812500e+02,9.723419952392578125e+01,-2.669871807098388672e+00,1.166222991943359375e+02,8.770228385925292969e+00,3.480780029296875000e+01,-1.537292938232421875e+02,6.622257232666015625e+01,1.191414108276367188e+02
3.799999952316284180e-01,1.000000000000000000e+00,-3.687343215942382812e+01,4.398385238647460938e+01,3.136138725280761719e+01,1.053229751586914062e+02,9.725237274169921875e+01,-2.694357156753540039e+00,1.166222991943359375e+02,8.770228385925292969e+00,3.480780029296875000e+01,-1.537292938232421875e+02,6.622257232666015625e+01,1.191414108276367188e+02
3.840000033378601074e-01,1.000000000000000000e+00,-3.691394424438476562e+01,4.390518951416015625e+01,3.138221549987792969e+01,1.052510681152343750e+02,9.727056121826171875e+01,-2.718855857849121094e+00,1.166222991943359375e+02,8.770228385925292969e+00,3.480780029296875000e+01,-1.537292938232421875e+02,6.622257232666015625e+01,1.191414108276367188e+02
3.880000114440917969e-01,1.000000000000000000e+00,-3.695447921752929688e+01,4.382648468017578125e+01,3.140305900573730469e+01,1.051791381835937500e+02,9.728875732421875000e+01,-2.743368625640869141e+00,1.166222991943359375e+02,8.770228385925292969e+00,3.480780029296875000e+01,-1.537292938232421875e+02,6.622257232666015625e+01,1.191414108276367188e+02
3.919999897480010986e-01,1.000000000000000000e+00,-3.699504089355468750e+01,4.374773025512695312e+01,3.142391204833984375e+01,1.051071548461914062e+02,9.730696868896484375e+01,-2.767895221710205078e+00,1.166222991943359375e+02,8.770228385925292969e+00,3.480780029296875000e+01,-1.537292938232421875e+02,6.622257232666015625e+01,1.191414108276367188e+02
3.959999978542327881e-01,1.000000000000000000e+00,-3.703562164306640625e+01,4.366893386840820312e+01,3.144477462768554688e+01,1.050351257324218750e+02,9.732518768310546875e+01,-2.792435407638549805e+00,1.166222991943359375e+02,8.770228385925292969e+00,3.480780029296875000e+01,-1.537292938232421875e+02,6.622257232666015625e+01,1.191414108276367188e+02
4.000000059604644775e-01,1.000000000000000000e+00,-3.707622909545898438e+01,4.359009552001953125e+01,3.146565055847167969e+01,1.049630661010742188e+02,9.734341430664062500e+01,-2.816989660263061523e+00,1.166222991943359375e+02,8.770228385925292969e+00,3.480780029296875000e+01,-1.537292938232421875e+02,6.622257232666015625e+01,1.191414108276367188e+02
4.040000140666961670e-01,1.000000000000000000e+00,-3.711685180664062500e+01,4.351120758056640625e+01,3.148653984069824219e+01,1.048909606933593750e+02,9.736165618896484375e+01,-2.841557741165161133e+00,1.166222991943359375e+02,8.770228385925292969e+00,3.480780029296875000e+01,-1.537292938232421875e+02,6.622257232666015625e+01,1.191414108276367188e+02
4.079999923706054688e-01,1.000000000000000000e+00,-3.715750503540039062e+01,4.343228149414062500e+01,3.150743675231933594e+01,1.048188171386718750e+02,9.737990570068359375e+01,-2.866139650344848633e+00,1.166222991943359375e+02,8.770228385925292969e+00,3.480780029296875000e+01,-1.537292938232421875e+02,6.622257232666015625e+01,1.191414108276367188e+02
4.120000004768371582e-01,1.000000000000000000e+00,-3.719818115234375000e+01,4.335330963134765625e+01,3.152835083007812500e+01,1.047466354370117188e+02,9.739816284179687500e+01,-2.890735387802124023e+00,1.166222991943359375e+02,8.770228385925292969e+00,3.480780029296875000e+01,-1.537292938232421875e+02,6.622257232666015625e+01,1.191414108276367188e+02
4.160000085830688477e-01,1.000000000000000000e+00,-3.723887634277343750e+01,4.327428436279296875e+01,3.154927253723144531e+01,1.046744079589843750e+02,9.741643524169921875e+01,-2.915345191955566406e+00,1.166222991943359375e+02,8.770228385925292969e+00,3.480780029296875000e+01,-1.537292938232421875e+02,6.622257232666015625e+01,1.191414108276367188e+02
4.199999868869781494e-01,1.000000000000000000e+00,-3.727959823608398438e+01,4.319522476196289062e+01,3.157020759582519531e+01,1.046021423339843750e+02,9.743472290039062500e+01,-2.939969062805175781e+00,1.166222991943359375e+02,8.770228385925292969e+00,3.480780029296875000e+01,-1.537292938232421875e+02,6.622257232666015625e+01,1.191414108276367188e+02
4.239999949932098389e-01,1.000000000000000000e+00,-3.732033920288085938e+01,4.311611557006835938e+01,3.159115600585937500e+01,1.045298309326171875e+02,9.745301055908203125e+01,-2.964606761932373047e+00,1.166222991943359375e+02,8.770228385925292969e+00,3.480780029296875000e+01,-1.537292938232421875e+02,6.622257232666015625e+01,1.191414108276367188e+02
4.280000030994415283e-01,1.000000000000000000e+00,-3.736110305786132812e+01,4.303696060180664062e+01,3.161211395263671875e+01,1.044574890136718750e+02,9.747130584716796875e+01,-2.989258289337158203e+00,1.166222991943359375e+02,8.770228385925292969e+00,3.480780029296875000e+01,-1.537292938232421875e+02,6.622257232666015625e+01,1.191414108276367188e+02
4.320000112056732178e-01,1.000000000000000000e+00,-3.740189361572265625e+01,4.295776367187500000e+01,3.163308525085449219e+01,1.043850936889648438e+02,9.748962402343750000e+01,-3.013924121856689453e+00,1.166222991943359375e+02,8.770228385925292969e+00,3.480780029296875000e+01,-1.537292938232421875e+02,6.622257232666015625e+01,1.191414108276367188e+02
4.359999895095825195e-01,1.000000000000000000e+00,-3.744270706176757812e+01,4.287852096557617188e+01,3.165406799316406250e+01,1.043126602172851562e+02,9.750794219970703125e+01,-3.038603782653808594e+00,1.166222991943359375e+02,8.770228385925292969e+00,3.480780029296875000e+01,-1.537292938232421875e+02,6.622257232666015625e+01,1.191414108276367188e+02
4.399999976158142090e-01,1.000000000000000000e+00,-3.748354339599609375e+01,4.279923248291015625e+01,3.167506408691406250e+01,1.042401885986328125e+02,9.752627563476562500e+01,-3.063297510147094727e+00,1.166222991943359375e+02,8.770228385925292969e+00,3.480780029296875000e+01,-1.537292938232421875e+02,6.622257232666015625e+01,1.191414108276367188e+02
4.440000057220458984e-01,1.000000000000000000e+00,-3.752439880371093750e+01,4.271989822387695312e+01,3.169606971740722656e+01,1.041676712036132812e+02,9.754461669921875000e+01,-3.088005304336547852e+00,1.166222991943359375e+02,8.770228385925292969e+00,3.480780029296875000e+01,-1.537292938232421875e+02,6.622257232666015625e+01,1.191414108276367188e+02
4.480000138282775879e-01,1.000000000000000000e+00,-3.756528091430664062e+01,4.264051818847656250e+01,3.171708679199218750e+01,1.040951232910156250e+02,9.756297302246093750e+01,-3.112727165222167969e+00,1.166222991943359375e+02,8.770228385925292969e+00,3.480780029296875000e+01,-1.537292938232421875e+02,6.622257232666015625e+01,1.191414108276367188e+02
4.519999921321868896e-01,1.000000000000000000e+00,-3.760618972778320312e+01,4.256109619140625000e+01,3.173811721801757812e+01,1.040225219726562500e+02,9.758133697509765625e+01,-3.137463092803955078e+00,1.166222991943359375e+02,8.770228385925292969e+00,3.480780029296875000e+01,-1.537292938232421875e+02,6.622257232666015625e+01,1.191414108276367188e+02
4.560000002384185791e-01,1.000000000000000000e+00,-3.764711761474609375e+01,4.248162078857421875e+01,3.175916099548339844e+01,1.039498901367187500e+02,9.759970855712890625e+01,-3.162213087081909180e+00,1.166222991943359375e+02,8.770228385925292969e+00,3.480780029296875000e+01,-1.537292938232421875e+02,6.622257232666015625e+01,1.191414108276367188e+02
4.600000083446502686e-01,1.000000000000000000e+00,-3.768806838989257812e+01,4.240210342407226562e+01,3.178021430969238281e+01,1.038772048950195312e+02,9.761809539794921875e+01,-3.186977148056030273e+00,1.166222991943359375e+02,8.770228385925292969e+00,3.480780029296875000e+01,-1.537292938232421875e+02,6.622257232666015625e+01,1.191414108276367188e+02
4.639999866485595703e-01,1.000000000000000000e+00,-3.772904205322265625e+01,4.232254409790039062e+01,3.180128288269042969e+01,1.038044891357421875e+02,9.763648986816406250e+01,-3.211755514144897461e+00,1.166222991943359375e+02,8.770228385925292969e+00,3.480780029296875000e+01,-1.537292938232421875e+02,6.622257232666015625e+01,1.191414108276367188e+02
4.679999947547912598e-01,1.000000000000000000e+00,-3.777004623413085938e+01,4.224293899536132812e+01,3.182236099243164062e+01,1.037317199707031250e+02,9.765489959716796875e+01,-3.236547946929931641e+00,1.166222991943359375e+02,8.770228385925292969e+00,3.480780029296875000e+01,-1.537292938232421875e+02,6.622257232666015625e+01,1.191414108276367188e+02
4.720000028610229492e-01,1.000000000000000000e+00,-3.781106567382812500e+01,4.216328430175781250e+01,3.184345245361328125e+01,1.036589202880859375e+02,9.767330932617187500e+01,-3.261354446411132812e+00,1.166222991943359375e+02,8.770228385925292969e+00,3.480780029296875000e+01,-1.537292938232421875e+02,6.622257232666015625e+01,1.191414108276367188e+02
4.760000109672546387e-01,1.000000000000000000e+00,-3.785211181640625000e+01,4.208358764648437500e+01,3.186455345153808594e+01,1.035860748291015625e+02,9.769174194335937500e+01,-3.286175489425659180e+00,1.166222991943359375e+02,8.770228385925292969e+00,3.480780029296875000e+01,-1.537292938232421875e+02,6.622257232666015625e+01,1.191414108276367188e+02
4.799999892711639404e-01,1.000000000000000000e+00,-3.789318084716796875e+01,4.200384140014648438e+01,3.188566970825195312e+01,1.035131835937500000e+02,9.771018218994140625e+01,-3.311010360717773438e+00,1.166222991943359375e+02,8.770228385925292969e+00,3.480780029296875000e+01,-1.537292938232421875e+02,6.622257232666015625e+01,1.191414108276367188e+02
4.839999973773956299e-01,1.000000000000000000e+00,-3.793427276611328125e+01,4.192404937744140625e+01,3.190679550170898438e+01,1.034402618408203125e+02,9.772863006591796875e+01,-3.335860013961791992e+00,1.166222991943359375e+02,8.770228385925292969e+00,3.480780029296875000e+01,-1.537292938232421875e+02,6.622257232666015625e+01,1.191414108276367188e+02
4.880000054836273193e-01,1.000000000000000000e+00,-3.797539138793945312e+01,4.184421539306640625e+01,3.192793464660644531e+01,1.033672866821289062e+02,9.774708557128906250e+01,-3.360723495483398438e+00,1.166222991943359375e+02,8.770228385925292969e+00,3.480780029296875000e+01,-1.537292938232421875e+02,6.622257232666015625e+01,1.191414108276367188e+02
4.920000135898590088e-01,1.000000000000000000e+00,-3.801652908325195312e+01,4.176433181762695312e+01,3.194908523559570312e+01,1.032942733764648438e+02,9.776555633544921875e+01,-3.385601282119750977e+00,1.166222991943359375e+02,8.770228385925292969e+00,3.480780029296875000e+01,-1.537292938232421875e+02,6.622257232666015625e+01,1.191414108276367188e+02
4.959999918937683105e-01,1.000000000000000000e+00,-3.805768966674804688e+01,4.168440628051757812e+01,3.197024726867675781e+01,1.032212219238281250e+02,9.778403472900390625e+01,-3.410493373870849609e+00,1.166222991943359375e+02,8.770228385925292969e+00,3.480780029296875000e+01,-1.537292938232421875e+02,6.622257232666015625e+01,1.191414108276367188e+02
5.000000000000000000e-01,1.000000000000000000e+00,-3.809888076782226562e+01,4.160443115234375000e+01,3.199142456054687500e+01,1.031481246948242188e+02,9.780252838134765625e+01,-3.435400009155273438e+00,1.166222991943359375e+02,8.770228385925292969e+00,3.480780029296875000e+01,-1.537292938232421875e+02,6.622257232666015625e+01,1.191414108276367188e+02
5.040000081062316895e-01,1.000000000000000000e+00,-3.814009094238281250e+01,4.152441406250000000e+01,3.201261138916015625e+01,1.030749816894531250e+02,9.782102966308593750e+01,-3.460320711135864258e+00,1.166222991943359375e+02,8.770228385925292969e+00,3.480780029296875000e+01,-1.537292938232421875e+02,6.622257232666015625e+01,1.191414108276367188e+02
5.080000162124633789e-01,1.000000000000000000e+00,-3.818132781982421875e+01,4.144434356689453125e+01,3.203381347656250000e+01,1.030018005371093750e+02,9.783953857421875000e+01,-3.485255956649780273e+00,1.166222991943359375e+02,8.770228385925292969e+00,3.480780029296875000e+01,-1.537292938232421875e+02,6.622257232666015625e+01,1.191414108276367188e+02
5.120000243186950684e-01,1.000000000000000000e+00,-3.822258758544921875e+01,4.136423492431640625e+01,3.205502319335937500e+01,1.029285736083984375e+02,9.785806274414062500e+01,-3.510205507278442383e+00,1.166222991943359375e+02,8.770228385925292969e+00,3.480780029296875000e+01,-1.537292938232421875e+02,6.622257232666015625e+01,1.191414108276367188e+02
5.159999728202819824e-01,1.000000000000000000e+00,-3.826387023925781250e+01,4.128407669067382812e+01,3.207624816894531250e+01,1.028553161621093750e+02,9.787659454345703125e+01,-3.535169601440429688e+00,1.166222991943359375e+02,8.770228385925292969e+00,3.480780029296875000e+01,-1.537292938232421875e+02,6.622257232666015625e+01,1.191414108276367188e+02
5.199999809265136719e-01,1.000000000000000000e+00,-3.830517578125000000e+01,4.120387268066406250e+01,3.209748840332031250e+01,1.027820053100585938e+02,9.789513397216796875e+01,-3.560148000717163086e+00,1.166222991943359375e+02,8.770228385925292969e+00,3.480780029296875000e+01,-1.537292938232421875e+02,6.622257232666015625e+01,1.191414108276367188e+02
5.239999890327453613e-01,1.000000000000000000e+00,-3.834650802612304688e+01,4.112361907958984375e+01,3.211873626708984375e+01,1.027086563110351562e+02,9.791369628906250000e+01,-3.585140705108642578e+00,1.166222991943359375e+02,8.770228385925292969e+00,3.480780029296875000e+01,-1.537292938232421875e+02,6.622257232666015625e+01,1.191414108276367188e+02
5.279999971389770508e-01,1.000000000000000000e+00,-3.838786697387695312e+01,4.104331970214843750e+01,3.213999557495117188e+01,1.026352615356445312e+02,9.793225860595703125e+01,-3.610148191452026367e+00,1.166222991943359375e+02,8.770228385925292969e+00,3.480780029296875000e+01,-1.537292938232421875e+02,6.622257232666015625e+01,1.191414108276367188e+02
5.320000052452087402e-01,1.000000000000000000e+00,-3.842924499511718750e+01,4.096297454833984375e+01,3.216127014160156250e+01,1.025618286132812500e+02,9.795083618164062500e+01,-3.635170221328735352e+00,1.166222991943359375e+02,8.770228385925292969e+00,3.480780029296875000e+01,-1.537292938232421875e+02,6.622257232666015625e+01,1.191414108276367188e+02
5.360000133514404297e-01,1.000000000000000000e+00,-3.847064971923828125e+01,4.088258361816406250e+01,3.218255233764648438e+01,1.024883499145507812e+02,9.796942138671875000e+01,-3.660206556320190430e+00,1.166222991943359375e+02,8.770228385925292969e+00,3.480780029296875000e+01,-1.537292938232421875e+02,6.622257232666015625e+01,1.191414108276367188e+02
5.400000214576721191e-01,1.000000000000000000e+00,-3.851207733154296875e+01,4.080214309692382812e+01,3.220385360717773438e+01,1.024148254394531250e+02,9.798802185058593750e+01,-3.685257673263549805e+00,1.166222991943359375e+02,8.770228385925292969e+00,3.480780029296875000e+01,-1.537292938232421875e+02,6.622257232666015625e+01,1.191414108276367188e+02
5.440000295639038086e-01,1.000000000000000000e+00,-3.855352783203125000e+01,4.072166061401367188e+01,3.222516250610351562e+01,1.023412628173828125e+02,9.800662994384765625e+01,-3.710323572158813477e+00,1.166222991943359375e+02,8.770228385925292969e+00,3.480780029296875000e+01,-1.537292938232421875e+02,6.622257232666015625e+01,1.191414108276367188e+02
5.479999780654907227e-01,1.000000000000000000e+00,-3.859500503540039062e+01,4.064112472534179688e+01,3.224648666381835938e+01,1.022676544189453125e+02,9.802525329589843750e+01,-3.735404014587402344e+00,1.166222991943359375e+02,8.770228385925292969e+00,3.480780029296875000e+01,-1.537292938232421875e+02,6.622257232666015625e+01,1.191414108276367188e+02
5.519999861717224121e-01,1.000000000000000000e+00,-3.863650894165039062e+01,4.056054687500000000e+01,3.226782608032226562e+01,1.021940002441406250e+02,9.804388427734375000e+01,-3.760499477386474609e+00,1.166222991943359375e+02,8.770228385925292969e+00,3.480780029296875000e+01,-1.537292938232421875e+02,6.622257232666015625e+01,1.191414108276367188e+02
5.559999942779541016e-01,1.000000000000000000e+00,-3.867803192138671875e+01,4.047991561889648438e+01,3.228917312622070312e+01,1.021203079223632812e+02,9.806252288818359375e+01,-3.785609245300292969e+00,1.166222991943359375e+02,8.770228385925292969e+00,3.480780029296875000e+01,-1.537292938232421875e+02,6.622257232666015625e+01,1.191414108276367188e+02
5.600000023841857910e-01,1.000000000000000000e+00,-3.871958160400390625e+01,4.039924240112304688e+01,3.231053543090820312e+01,1.020465698242187500e+02,9.808117675781250000e+01,-3.810734272003173828e+00,1.166222991943359375e+02,8.770228385925292969e+00,3.480780029296875000e+01,-1.537292938232421875e+02,6.622257232666015625e+01,1.191414108276367188e+02
5.640000104904174805e-01,1.000000000000000000e+00,-3.876115798950195312e+01,4.031851959228515625e+01,3.233190536499023438e+01,1.019727935791015625e+02,9.809983825683593750e+01,-3.835873603820800781e+00,1.166222991943359375e+02,8.770228385925292969e+00,3.480780029296875000e+01,-1.537292938232421875e+02,6.622257232666015625e+01,1.191414108276367188e+02
5.680000185966491699e-01,1.000000000000000000e+00,-3.880275344848632812e+01,4.023774719238281250e+01,3.235329437255859375e+01,1.018989639282226562e+02,9.811850738525390625e+01,-3.861028194427490234e+00,1.166222991943359375e+02,8.770228385925292969e+00,3.480780029296875000e+01,-1.537292938232421875e+02,6.622257232666015625e+01,1.191414108276367188e+02
5.720000267028808594e-01,1.000000000000000000e+00,-3.884437561035156250e+01,4.015692520141601562e+01,3.237469482421875000e+01,1.018250961303710938e+02,9.813719940185546875e+01,-3.886197566986083984e+00,1.166222991943359375e+02,8.770228385925292969e+00,3.480780029296875000e+01,-1.537292938232421875e+02,6.622257232666015625e+01,1.191414108276367188e+02
5.759999752044677734e-01,1.000000000000000000e+00,-3.888602447509765625e+01,4.007606124877929688e+01,3.239610290527343750e+01,1.017511901855468750e+02,9.815589904785156250e+01,-3.911381721496582031e+00,1.166222991943359375e+02,8.770228385925292969e+00,3.480780029296875000e+01,-1.537292938232421875e+02,6.622257232666015625e+01,1.191414108276367188e+02
5.799999833106994629e-01,1.000000000000000000e+00,-3.892769241333007812e+01,3.999514389038085938e+01,3.241753005981445312e+01,1.016772308349609375e+02,9.817460632324218750e+01,-3.936580896377563477e+00,1.166222991943359375e+02,8.770228385925292969e+00,3.480780029296875000e+01,-1.537292938232421875e+02,6.622257232666015625e+01,1.191414108276367188e+02
5.839999914169311523e-01,1.000000000000000000e+00,-3.896939086914062500e+01,3.991417312622070312e+01,3.243896484375000000e+01,1.016032333374023438e+02,9.819332122802734375e+01,-3.961794853210449219e+00,1.166222991943359375e+02,8.770228385925292969e+00,3.480780029296875000e+01,-1.537292938232421875e+02,6.622257232666015625e+01,1.191414108276367188e+02
5.879999995231628418e-01,1.000000000000000000e+00,-3.901111221313476562e+01,3.983316040039062500e+01,3.246041488647460938e+01,1.015291824340820312e+02,9.821205139160156250e+01,-3.987023830413818359e+00,1.166222991943359375e+02,8.770228385925292969e+00,3.480780029296875000e+01,-1.537292938232421875e+02,6.622257232666015625e+01,1.191414108276367188e+02
5.920000076293945312e-01,1.000000000000000000e+00,-3.905285644531250000e+01,3.975210189819335938e+01,3.248187637329101562e+01,1.014551010131835938e+02,9.823078918457031250e+01,-4.012267589569091797e+00,1.166222991943359375e+02,8.770228385925292969e+00,3.480780029296875000e+01,-1.537292938232421875e+02,6.622257232666015625e+01,1.191414108276367188e+02
5.960000157356262207e-01,1.000000000000000000e+00,-3.909462738037109375e+01,3.967099380493164062e+01,3.250335311889648438e+01,1.013809738159179688e+02,9.824954986572265625e+01,-4.037526130676269531e+00,1.166222991943359375e+02,8.770228385925292969e+00,3.480780029296875000e+01,-1.537292938232421875e+02,6.622257232666015625e+01,1.191414108276367188e+02
6.000000238418579102e-01,1.000000000000000000e+00,-3.913642120361328125e+01,3.958983230590820312e+01,3.252484130859375000e+01,1.013067932128906250e+02,9.826831054687500000e+01,-4.062800407409667969e+00,1.166222991943359375e+02,8.770228385925292969e+00,3.480780029296875000e+01,-1.537292938232421875e+02,6.622257232666015625e+01,1.191414108276367188e+02
6.039999723434448242e-01,1.000000000000000000e+00,-3.917824172973632812e+01,3.950862503051757812e+01,3.254634094238281250e+01,1.012325744628906250e+02,9.828708648681640625e+01,-4.088089466094970703e+00,1.166222991943359375e+02,8.770228385925292969e+00,3.480780029296875000e+01,-1.537292938232421875e+02,6.622257232666015625e+01,1.191414108276367188e+02
6.079999804496765137e-01,1.000000000000000000e+00,-3.922008895874023438e+01,3.942737197875976562e+01,3.256785583496093750e+01,1.011583099365234375e+02,9.830587005615234375e+01,-4.113393306732177734e+00,1.166222991943359375e+02,8.770228385925292969e+00,3.480780029296875000e+01,-1.537292938232421875e+02,6.622257232666015625e+01,1.191414108276367188e+02
6.119999885559082031e-01,1.000000000000000000e+00,-3.926195526123046875e+01,3.934606933593750000e+01,3.258938217163085938e+01,1.010839996337890625e+02,9.832466888427734375e+01,-4.138712406158447266e+00,1.166222991943359375e+02,8.770228385925292969e+00,3.480780029296875000e+01,-1.537292938232421875e+02,6.622257232666015625e+01,1.191414108276367188e+02
6.159999966621398926e-01,1.000000000000000000e+00,-3.930384826660156250e+01,3.926472091674804688e+01,3.261091995239257812e+01,1.010096511840820312e+02,9.834347534179687500e+01,-4.164046287536621094e+00,1.166222991943359375e+02,8.770228385925292969e+00,3.480780029296875000e+01,-1.537292938232421875e+02,6.622257232666015625e+01,1.191414108276367188e+02
6.200000047683715820e-01,1.000000000000000000e+00,-3.934576797485351562e+01,3.918331909179687500e+01,3.263247299194335938e+01,1.009352493286132812e+02,9.836228942871093750e+01,-4.189394950866699219e+00,1.166222991943359375e+02,8.770228385925292969e+00,3.480780029296875000e+01,-1.537292938232421875e+02,6.622257232666015625e+01,1.191414108276367188e+02
6.240000128746032715e-01,1.000000000000000000e+00,-3.938771438598632812e+01,3.910187149047851562e+01,3.265403366088867188e+01,1.008608169555664062e+02,9.838112640380859375e+01,-4.214758872985839844e+00,1.166222991943359375e+02,8.770228385925292969e+00,3.480780029296875000e+01,-1.537292938232421875e+02,6.622257232666015625e+01,1.191414108276367188e+02
6.280000209808349609e-01,1.000000000000000000e+00,-3.942968368530273438e+01,3.902037429809570312e+01,3.267561340332031250e+01,1.007863311767578125e+02,9.839997100830078125e+01,-4.240138530731201172e+00,1.166222991943359375e+02,8.770228385925292969e+00,3.480780029296875000e+01,-1.537292938232421875e+02,6.622257232666015625e+01,1.191414108276367188e+02
6.320000290870666504e-01,1.000000000000000000e+00,-3.947167587280273438e+01,3.893883132934570312e+01,3.269720458984375000e+01,1.007117996215820312e+02,9.841882324218750000e+01,-4.265532970428466797e+00,1.166222991943359375e+02,8.770228385925292969e+00,3.480780029296875000e+01,-1.537292938232421875e+02,6.622257232666015625e+01,1.191414108276367188e+02
6.359999775886535645e-01,1.000000000000000000e+00,-3.951369476318359375e+01,3.885723876953125000e+01,3.271880722045898438e+01,1.006372299194335938e+02,9.843768310546875000e+01,-4.290942192077636719e+00,1.166222991943359375e+02,8.770228385925292969e+00,3.480780029296875000e+01,-1.537292938232421875e+02,6.622257232666015625e+01,1.191414108276367188e+02
6.399999856948852539e-01,1.000000000000000000e+00,-3.955574035644531250e+01,3.877559280395507812e+01,3.274042510986328125e+01,1.005626144409179688e+02,9.845655822753906250e+01,-4.316366672515869141e+00,1.166222991943359375e+02,8.770228385925292969e+00,3.480780029296875000e+01,-1.537292938232421875e+02,6.622257232666015625e+01,1.191414108276367188e+02
6.439999938011169434e-01,1.000000000000000000e+00,-3.959780883789062500e+01,3.869389343261718750e+01,3.276205062866210938e+01,1.004879531860351562e+02,9.847544097900390625e+01,-4.341806411743164062e+00,1.166222991943359375e+02,8.770228385925292969e+00,3.480780029296875000e+01,-1.537292938232421875e+02,6.622257232666015625e+01,1.191414108276367188e+02
6.480000019073486328e-01,1.000000000000000000e+00,-3.963990402221679688e+01,3.861214065551757812e+01,3.278369140625000000e+01,1.004132385253906250e+02,9.849433898925781250e+01,-4.367261409759521484e+00,1.166222991943359375e+02,8.770228385925292969e+00,3.480780029296875000e+01,-1.537292938232421875e+02,6.622257232666015625e+01,1.191414108276367188e+02
6.520000100135803223e-01,1.000000000000000000e+00,-3.968202209472656250e+01,3.853032684326171875e+01,3.280534744262695312e+01,1.003384933471679688e+02,9.851325225830078125e+01,-4.392731666564941406e+00,1.166222991943359375e+02,8.770228385925292969e+00,3.480780029296875000e+01,-1.537292938232421875e+02,6.622257232666015625e+01,1.191414108276367188e+02
6.560000181198120117e-01,1.000000000000000000e+00,-3.972417068481445312e+01,3.844846343994140625e+01,3.282701492309570312e+01,1.002636947631835938e+02,9.853217315673828125e+01,-4.418217182159423828e+00,1.166222991943359375e+02,8.770228385925292969e+00,3.480780029296875000e+01,-1.537292938232421875e+02,6.622257232666015625e+01,1.191414108276367188e+02
6.600000262260437012e-01,1.000000000000000000e+00,-3.976633834838867188e+01,3.836655426025390625e+01,3.284869384765625000e+01,1.001888580322265625e+02,9.855110168457031250e+01,-4.443717479705810547e+00,1.166222991943359375e+02,8.770228385925292969e+00,3.480780029296875000e+01,-1.537292938232421875e+02,6.622257232666015625e+01,1.191414108276367188e+02
6.639999747276306152e-01,1.000000000000000000e+00,-3.980853271484375000e+01,3.828459548950195312e+01,3.287039184570312500e+01,1.001139678955078125e+02,9.857004547119140625e+01,-4.469233036041259766e+00,1.166222991943359375e+02,8.770228385925292969e+00,3.480780029296875000e+01,-1.537292938232421875e+02,6.622257232666015625e+01,1.191414108276367188e+02
6.679999828338623047e-01,1.000000000000000000e+00,-3.985075378417968750e+01,3.820259857177734375e+01,3.289209747314453125e+01,1.000390396118164062e+02,9.858899688720703125e+01,-4.494764328002929688e+00,1.166222991943359375e+02,8.770228385925292969e+00,3.480780029296875000e+01,-1.537292938232421875e+02,6.622257232666015625e+01,1.191414108276367188e+02
6.719999909400939941e-01,1.000000000000000000e+00,-3.989299774169921875e+01,3.812055969238281250e+01,3.291381835937500000e+01,9.996406555175781250e+01,9.860797119140625000e+01,-4.520310401916503906e+00,1.166222991943359375e+02,8.770228385925292969e+00,3.480780029296875000e+01,-1.537292938232421875e+02,6.622257232666015625e+01,1.191414108276367188e+02
6.759999990463256836e-01,1.000000000000000000e+00,-3.993526840209960938e+01,3.803847885131835938e+01,3.293554687500000000e+01,9.988904571533203125e+01,9.862694549560546875e+01,-4.545872211456298828e+00,1.166222991943359375e+02,8.770228385925292969e+00,3.480780029296875000e+01,-1.537292938232421875e+02,6.622257232666015625e+01,1.191414108276367188e+02
6.800000071525573730e-01,1.000000000000000000e+00,-3.997756576538085938e+01,3.795635604858398438e+01,3.295729446411132812e+01,9.981398010253906250e+01,9.864592742919921875e+01,-4.571449279785156250e+00,1.166222991943359375e+02,8.770228385925292969e+00,3.480780029296875000e+01,-1.537292938232421875e+02,6.622257232666015625e+01,1.191414108276367188e+02
6.840000152587890625e-01,1.000000000000000000e+00,-4.001988601684570312e+01,3.787417984008789062e+01,3.297905349731445312e+01,9.973887634277343750e+01,9.866493225097656250e+01,-4.597041606903076172e+00,1.166222991943359375e+02,8.770228385925292969e+00,3.480780029296875000e+01,-1.537292938232421875e+02,6.622257232666015625e+01,1.191414108276367188e+02
6.880000233650207520e-01,1.000000000000000000e+00,-4.006223297119140625e+01,3.779195785522460938e+01,3.300082397460937500e+01,9.966371917724609375e+01,9.868393707275390625e+01,-4.622649192810058594e+00,1.166222991943359375e+02,8.770228385925292969e+00,3.480780029296875000e+01,-1.537292938232421875e+02,6.622257232666015625e+01,1.191414108276367188e+02
6.919999718666076660e-01,1.000000000000000000e+00,-4.010460281372070312e+01,3.770968246459960938e+01,3.302260971069335938e+01,9.958851623535156250e+01,9.870296478271484375e+01,-4.648271560668945312e+00,1.166222991943359375e+02,8.770228385925292969e+00,3.480780029296875000e+01,-1.537292938232421875e+02,6.622257232666015625e+01,1.191414108276367188e+02
6.959999799728393555e-01,1.000000000000000000e+00,-4.014700317382812500e+01,3.762736511230468750e+01,3.304440689086914062e+01,9.951327514648437500e+01,9.872200012207031250e+01,-4.673910140991210938e+00,1.166222991943359375e+02,8.770228385925292969e+00,3.480780029296875000e+01,-1.537292938232421875e+02,6.622257232666015625e+01,1.191414108276367188e+02
6.999999880790710449e-01,1.000000000000000000e+00,-4.018942260742187500e+01,3.754499816894531250e+01,3.306621551513671875e+01,9.943798828125000000e+01,9.874104309082031250e+01,-4.699563980102539062e+00,1.166222991943359375e+02,8.770228385925292969e+00,3.480780029296875000e+01,-1.537292938232421875e+02,6.622257232666015625e+01,1.191414108276367188e+02
7.039999961853027344e-01,1.000000000000000000e+00,-4.023186874389648438e+01,3.746257781982421875e+01,3.308804321289062500e+01,9.936264801025390625e+01,9.876009368896484375e+01,-4.725233078002929688e+00,1.166222991943359375e+02,8.770228385925292969e+00,3.480780029296875000e+01,-1.537292938232421875e+02,6.622257232666015625e+01,1.191414108276367188e+02
7.080000042915344238e-01,1.000000000000000000e+00,-4.027434921264648438e+01,3.738010787963867188e+01,3.310987854003906250e+01,9.928726959228515625e+01,9.877916717529296875e+01,-4.750916957855224609e+00,1.166222991943359375e+02,8.770228385925292969e+00,3.480780029296875000e+01,-1.537292938232421875e+02,6.622257232666015625e+01,1.191414108276367188e+02
7.120000123977661133e-01,1.000000000000000000e+00,-4.031684494018554688e+01,3.729759216308593750e+01,3.313172912597656250e+01,9.921184539794921875e+01,9.879824829101562500e+01,-4.776617527008056641e+00,1.166222991943359375e+02,8.770228385925292969e+00,3.480780029296875000e+01,-1.537292938232421875e+02,6.622257232666015625e+01,1.191414108276367188e+02
7.160000205039978027e-01,1.000000000000000000e+00,-4.035937118530273438e+01,3.721502685546875000e+01,3.315359115600585938e+01,9.913637542724609375e+01,9.881733703613281250e+01,-4.802332401275634766e+00,1.166222991943359375e+02,8.770228385925292969e+00,3.480780029296875000e+01,-1.537292938232421875e+02,6.622257232666015625e+01,1.191414108276367188e+02
7.200000286102294922e-01,1.000000000000000000e+00,-4.040191650390625000e+01,3.713241195678710938e+01,3.317546844482421875e+01,9.906085968017578125e+01,9.883644104003906250e+01,-4.828063011169433594e+00,1.166222991943359375e+02,8.770228385925292969e+00,3.480780029296875000e+01,-1.537292938232421875e+02,6.622257232666015625e+01,1.191414108276367188e+02
7.239999771118164062e-01,1.000000000000000000e+00,-4.044449615478515625e+01,3.704974746704101562e+01,3.319735717773437500e+01,9.898529815673828125e+01,9.885555267333984375e+01,-4.853809356689453125e+00,1.166222991943359375e+02,8.770228385925292969e+00,3.480780029296875000e+01,-1.537292938232421875e+02,6.622257232666015625e+01,1.191414108276367188e+02
7.279999852180480957e-01,1.000000000000000000e+00,-4.048709869384765625e+01,3.696702957153320312e+01,3.321926116943359375e+01,9.890969085693359375e+01,9.887467956542968750e+01,-4.879571437835693359e+00,1.166222991943359375e+02,8.770228385925292969e+00,3.480780029296875000e+01,-1.537292938232421875e+02,6.622257232666015625e+01,1.191414108276367188e+02
7.319999933242797852e-01,1.000000000000000000e+00,-4.052972412109375000e+01,3.688426589965820312e+01,3.324117660522460938e+01,9.883403015136718750e+01,9.889382171630859375e+01,-4.905348300933837891e+00,1.166222991943359375e+02,8.770228385925292969e+00,3.480780029296875000e+01,-1.537292938232421875e+02,6.622257232666015625e+01,1.191414108276367188e+02
7.360000014305114746e-01,1.000000000000000000e+00,-4.057237625122070312e+01,3.680144882202148438e+01,3.326310348510742188e+01,9.875833892822265625e+01,9.891297149658203125e+01,-4.931141376495361328e+00,1.166222991943359375e+02,8.770228385925292969e+00,3.480780029296875000e+01,-1.537292938232421875e+02,6.622257232666015625e+01,1.191414108276367188e+02
7.400000095367431641e-01,1.000000000000000000e+00,-4.061505508422851562e+01,3.671858596801757812e+01,3.328504562377929688e+01,9.868259429931640625e+01,9.893212890625000000e+01,-4.956949710845947266e+00,1.166222991943359375e+02,8.770228385925292969e+00,3.480780029296875000e+01,-1.537292938232421875e+02,6.622257232666015625e+01,1.191414108276367188e+02
7.440000176429748535e-01,1.000000000000000000e+00,-4.065776062011718750e+01,3.663566970825195312e+01,3.330700302124023438e+01,9.860680389404296875e+01,9.895130157470703125e+01,-4.982773780822753906e+00,1.166222991943359375e+02,8.770228385925292969e+00,3.480780029296875000e+01,-1.537292938232421875e+02,6.622257232666015625e+01,1.191414108276367188e+02
7.480000257492065430e-01,1.000000000000000000e+00,-4.070048904418945312e+01,3.655270385742187500e+01,3.332897186279296875e+01,9.853096771240234375e+01,9.897048187255859375e+01,-5.008613109588623047e+00,1.166222991943359375e+02,8.770228385925292969e+00,3.480780029296875000e+01,-1.537292938232421875e+02,6.622257232666015625e+01,1.191414108276367188e+02
7.519999742507934570e-01,1.000000000000000000e+00,-4.074324417114257812e+01,3.646968841552734375e+01,3.335095214843750000e+01,9.845508575439453125e+01,9.898967742919921875e+01,-5.034468173980712891e+00,1.166222991943359375e+02,8.770228385925292969e+00,3.480780029296875000e+01,-1.537292938232421875e+02,6.622257232666015625e+01,1.191414108276367188e+02
7.559999823570251465e-01,1.000000000000000000e+00,-4.078602600097656250e+01,3.638662338256835938e+01,3.337295150756835938e+01,9.837916564941406250e+01,9.900888824462890625e+01,-5.060338497161865234e+00,1.166222991943359375e+02,8.770228385925292969e+00,3.480780029296875000e+01,-1.537292938232421875e+02,6.622257232666015625e+01,1.191414108276367188e+02
7.599999904632568359e-01,1.000000000000000000e+00,-4.082883071899414062e+01,3.630350875854492188e+01,3.339495849609375000e+01,9.830319213867187500e+01,9.902809906005859375e+01,-5.086225032806396484e+00,1.166222991943359375e+02,8.770228385925292969e+00,3.480780029296875000e+01,-1.537292938232421875e+02,6.622257232666015625e+01,1.191414108276367188e+02
7.639999985694885254e-01,1.000000000000000000e+00,-4.087166976928710938e+01,3.622034454345703125e+01,3.341697692871093750e+01,9.822717285156250000e+01,9.904733276367187500e+01,-5.112126827239990234e+00,1.166222991943359375e+02,8.770228385925292969e+00,3.480780029296875000e+01,-1.537292938232421875e+02,6.622257232666015625e+01,1.191414108276367188e+02
7.680000066757202148e-01,1.000000000000000000e+00,-4.091452407836914062e+01,3.613713073730468750e+01,3.343901443481445312e+01,9.815110778808593750e+01,9.906657409667968750e+01,-5.138044357299804688e+00,1.166222991943359375e+02,8.770228385925292969e+00,3.480780029296875000e+01,-1.537292938232421875e+02,6.622257232666015625e+01,1.191414108276367188e+02
7.720000147819519043e-01,1.000000000000000000e+00,-4.095741271972656250e+01,3.605386352539062500e+01,3.346106338500976562e+01,9.807499694824218750e+01,9.908582305908203125e+01,-5.163977622985839844e+00,1.166222991943359375e+02,8.770228385925292969e+00,3.480780029296875000e+01,-1.537292938232421875e+02,6.622257232666015625e+01,1.191414108276367188e+02
7.760000228881835938e-01,1.000000000000000000e+00,-4.100032043457031250e+01,3.597055435180664062e+01,3.348312377929687500e+01,9.799884033203125000e+01,9.910508728027343750e+01,-5.189927101135253906e+00,1.166222991943359375e+02,8.770228385925292969e+00,3.480780029296875000e+01,-1.537292938232421875e+02,6.622257232666015625e+01,1.191414108276367188e+02
7.799999713897705078e-01,1.000000000000000000e+00,-4.104325866699218750e+01,3.588718795776367188e+01,3.350519943237304688e+01,9.792263793945312500e+01,9.912436676025390625e+01,-5.215891361236572266e+00,1.166222991943359375e+02,8.770228385925292969e+00,3.480780029296875000e+01,-1.537292938232421875e+02,6.622257232666015625e+01,1.191414108276367188e+02
7.839999794960021973e-01,1.000000000000000000e+00,-4.108621978759765625e+01,3.580377578735351562e+01,3.352729034423828125e+01,9.784638977050781250e+01,9.914365386962890625e+01,-5.241871833801269531e+00,1.166222991943359375e+02,8.770228385925292969e+00,3.480780029296875000e+01,-1.537292938232421875e+02,6.622257232666015625e+01,1.191414108276367188e+02
7.879999876022338867e-01,1.000000000000000000e+00,-4.112921142578125000e+01,3.572032165527343750e+01,3.354939270019531250e+01,9.777009582519531250e+01,9.916295623779296875e+01,-5.267868041992187500e+00,1.166222991943359375e+02,8.770228385925292969e+00,3.480780029296875000e+01,-1.537292938232421875e+02,6.622257232666015625e+01,1.191414108276367188e+02
7.919999957084655762e-01,1.000000000000000000e+00,-4.117222213745117188e+01,3.563682556152343750e+01,3.357150650024414062e+01,9.769375610351562500e+01,9.918226623535156250e+01,-5.293879985809326172e+00,1.166222991943359375e+02,8.770228385925292969e+00,3.480780029296875000e+01,-1.537292938232421875e+02,6.622257232666015625e+01,1.191414108276367188e+02
7.960000038146972656e-01,1.000000000000000000e+00,-4.121526336669921875e+01,3.555329132080078125e+01,3.359363174438476562e+01,9.761736297607421875e+01,9.920158386230468750e+01,-5.319907665252685547e+00,1.166222991943359375e+02,8.770228385925292969e+00,3.480780029296875000e+01,-1.537292938232421875e+02,6.622257232666015625e+01,1.191414108276367188e+02
8.000000119209289551e-01,1.000000000000000000e+00,-4.125833129882812500e+01,3.546970748901367188e+01,3.361577606201171875e+01,9.754093170166015625e+01,9.922092437744140625e+01,-5.345951080322265625e+00,1.166222991943359375e+02,8.770228385925292969e+00,3.480780029296875000e+01,-1.537292938232421875e+02,6.622257232666015625e+01,1.191414108276367188e+02
8.040000200271606445e-01,1.000000000000000000e+00,-4.130142211914062500e+01,3.538607406616210938e+01,3.363793182373046875e+01,9.746445465087890625e+01,9.924026489257812500e+01,-5.372010231018066406e+00,1.166222991943359375e+02,8.770228385925292969e+00,3.480780029296875000e+01,-1.537292938232421875e+02,6.622257232666015625e+01,1.191414108276367188e+02
8.080000281333923340e-01,1.000000000000000000e+00,-4.134454345703125000e+01,3.530238723754882812e+01,3.366010284423828125e+01,9.738792419433593750e+01,9.925962829589843750e+01,-5.398085117340087891e+00,1.166222991943359375e+02,8.770228385925292969e+00,3.480780029296875000e+01,-1.537292938232421875e+02,6.622257232666015625e+01,1.191414108276367188e+02
8.119999766349792480e-01,1.000000000000000000e+00,-4.138768768310546875e+01,3.521864318847656250e+01,3.368228149414062500e+01,9.731135559082031250e+01,9.927899932861328125e+01,-5.424176216125488281e+00,1.166222991943359375e+02,8.770228385925292969e+00,3.480780029296875000e+01,-1.537292938232421875e+02,6.622257232666015625e+01,1.191414108276367188e+02
8.159999847412109375e-01,1.000000000000000000e+00,-4.143085861206054688e+01,3.513484191894531250e+01,3.370447921752929688e+01,9.723473358154296875e+01,9.929837799072265625e+01,-5.450282573699951172e+00,1.166222991943359375e+02,8.770228385925292969e+00,3.480780029296875000e+01,-1.537292938232421875e+02,6.622257232666015625e+01,1.191414108276367188e+02
8.199999928474426270e-01,1.000000000000000000e+00,-4.147405624389648438e+01,3.505097961425781250e+01,3.372668838500976562e+01,9.715806579589843750e+01,9.931777191162109375e+01,-5.476405620574951172e+00,1.166222991943359375e+02,8.770228385925292969e+00,3.480780029296875000e+01,-1.537292938232421875e+02,6.622257232666015625e+01,1.191414108276367188e+02
8.240000009536743164e-01,1.000000000000000000e+00,-4.151728057861328125e+01,3.496706390380859375e+01,3.374891281127929688e+01,9.708135223388671875e+01,9.933718109130859375e+01,-5.502543926239013672e+00,1.166222991943359375e+02,8.770228385925292969e+00,3.480780029296875000e+01,-1.537292938232421875e+02,6.622257232666015625e+01,1.191414108276367188e+02
8.280000090599060059e-01,1.000000000000000000e+00,-4.156053161621093750e+01,3.488309860229492188e+01,3.377114868164062500e+01,9.700459289550781250e+01,9.935659027099609375e+01,-5.528698444366455078e+00,1.166222991943359375e+02,8.770228385925292969e+00,3.480780029296875000e+01,-1.537292938232421875e+02,6.622257232666015625e+01,1.191414108276367188e+02
8.320000171661376953e-01,1.000000000000000000e+00,-4.160380554199218750e+01,3.479907989501953125e+01,3.379339981079101562e+01,9.692778778076171875e+01,9.937602233886718750e+01,-5.554868698120117188e+00,1.166222991943359375e+02,8.770228385925292969e+00,3.480780029296875000e+01,-1.537292938232421875e+02,6.622257232666015625e+01,1.191414108276367188e+02
8.360000252723693848e-01,1.000000000000000000e+00,-4.164710998535156250e+01,3.471501541137695312e+01,3.381566238403320312e+01,9.685093688964843750e+01,9.939546203613281250e+01,-5.581054687500000000e+00,1.166222991943359375e+02,8.770228385925292969e+00,3.480780029296875000e+01,-1.537292938232421875e+02,6.622257232666015625e+01,1.191414108276367188e+02
8.399999737739562988e-01,1.000000000000000000e+00,-4.169043731689453125e+01,3.463089370727539062e+01,3.383794021606445312e+01,9.677403259277343750e+01,9.941491699218750000e+01,-5.607256889343261719e+00,1.166222991943359375e+02,8.770228385925292969e+00,3.480780029296875000e+01,-1.537292938232421875e+02,6.622257232666015625e+01,1.191414108276367188e+02
8.439999818801879883e-01,1.000000000000000000e+00,-4.173379516601562500e+01,3.454672622680664062e+01,3.386022949218750000e+01,9.669709014892578125e+01,9.943437957763671875e+01,-5.633475303649902344e+00,1.166222991943359375e+02,8.770228385925292969e+00,3.480780029296875000e+01,-1.537292938232421875e+02,6.622257232666015625e+01,1.191414108276367188e+02
8.479999899864196777e-01,1.000000000000000000e+00,-4.177717590332031250e+01,3.446250534057617188e+01,3.388253784179687500e+01,9.662009429931640625e+01,9.945385742187500000e+01,-5.659709453582763672e+00,1.166222991943359375e+02,8.770228385925292969e+00,3.480780029296875000e+01,-1.537292938232421875e+02,6.622257232666015625e+01,1.191414108276367188e+02
8.519999980926513672e-01,1.000000000000000000e+00,-4.182058715820312500e+01,3.437823104858398438e+01,3.390485382080078125e+01,9.654306030273437500e+01,9.947334289550781250e+01,-5.685959815979003906e+00,1.166222991943359375e+02,8.770228385925292969e+00,3.480780029296875000e+01,-1.537292938232421875e+02,6.622257232666015625e+01,1.191414108276367188e+02
8.560000061988830566e-01,1.000000000000000000e+00,-4.186402130126953125e+01,3.429390716552734375e+01,3.392718505859375000e+01,9.646597290039062500e+01,9.949284362792968750e+01,-5.712225437164306641e+00,1.166222991943359375e+02,8.770228385925292969e+00,3.480780029296875000e+01,-1.537292938232421875e+02,6.622257232666015625e+01,1.191414108276367188e+02
8.600000143051147461e-01,1.000000000000000000e+00,-4.190748214721679688e+01,3.420953369140625000e+01,3.394953155517578125e+01,9.638883209228515625e+01,9.951235961914062500e+01,-5.738507747650146484e+00,1.166222991943359375e+02,8.770228385925292969e+00,3.480780029296875000e+01,-1.537292938232421875e+02,6.622257232666015625e+01,1.191414108276367188e+02
8.640000224113464355e-01,1.000000000000000000e+00,-4.195096969604492188e+01,3.412510299682617188e+01,3.397188949584960938e+01,9.631165313720703125e+01,9.953188323974609375e+01,-5.764806270599365234e+00,1.166222991943359375e+02,8.770228385925292969e+00,3.480780029296875000e+01,-1.537292938232421875e+02,6.622257232666015625e+01,1.191414108276367188e+02
8.679999709129333496e-01,1.000000000000000000e+00,-4.199448776245117188e+01,3.404062652587890625e+01,3.399426269531250000e+01,9.623442077636718750e+01,9.955141448974609375e+01,-5.791120529174804688e+00,1.166222991943359375e+02,8.770228385925292969e+00,3.480780029296875000e+01,-1.537292938232421875e+02,6.622257232666015625e+01,1.191414108276367188e+02
8.719999790191650391e-01,1.000000000000000000e+00,-4.203802490234375000e+01,3.395609283447265625e+01,3.401664733886718750e+01,9.615714263916015625e+01,9.957096099853515625e+01,-5.817451000213623047e+00,1.166222991943359375e+02,8.770228385925292969e+00,3.480780029296875000e+01,-1.537292938232421875e+02,6.622257232666015625e+01,1.191414108276367188e+02
8.759999871253967285e-01,1.000000000000000000e+00,-4.208159637451171875e+01,3.387151336669921875e+01,3.403904724121093750e+01,9.607982635498046875e+01,9.959052276611328125e+01,-5.843797206878662109e+00,1.166222991943359375e+02,8.770228385925292969e+00,3.480780029296875000e+01,-1.537292938232421875e+02,6.622257232666015625e+01,1.191414108276367188e+02
8.799999952316284180e-01,1.000000000000000000e+00,-4.212518692016601562e+01,3.378687667846679688e+01,3.406146240234375000e+01,9.600245666503906250e+01,9.961009216308593750e+01,-5.870160102844238281e+00,1.166222991943359375e+02,8.770228385925292969e+00,3.480780029296875000e+01,-1.537292938232421875e+02,6.622257232666015625e+01,1.191414108276367188e+02
8.840000033378601074e-01,1.000000000000000000e+00,-4.216881179809570312e+01,3.370219039916992188e+01,3.408388900756835938e+01,9.592503356933593750e+01,9.962968444824218750e+01,-5.896538734436035156e+00,1.166222991943359375e+02,8.770228385925292969e+00,3.480780029296875000e+01,-1.537292938232421875e+02,6.622257232666015625e+01,1.191414108276367188e+02
8.880000114440917969e-01,1.000000000000000000e+00,-4.221246337890625000e+01,3.361744308471679688e+01,3.410632705688476562e+01,9.584757232666015625e+01,9.964927673339843750e+01,-5.922933578491210938e+00,1.166222991943359375e+02,8.770228385925292969e+00,3.480780029296875000e+01,-1.537292938232421875e+02,6.622257232666015625e+01,1.191414108276367188e+02
8.920000195503234863e-01,1.000000000000000000e+00,-4.225613784790039062e+01,3.353264617919921875e+01,3.412878417968750000e+01,9.577005767822265625e+01,9.966888427734375000e+01,-5.949344635009765625e+00,1.166222991943359375e+02,8.770228385925292969e+00,3.480780029296875000e+01,-1.537292938232421875e+02,6.622257232666015625e+01,1.191414108276367188e+02
8.960000276565551758e-01,1.000000000000000000e+00,-4.229983901977539062e+01,3.344780349731445312e+01,3.415124893188476562e+01,9.569250488281250000e+01,9.968850708007812500e+01,-5.975771903991699219e+00,1.166222991943359375e+02,8.770228385925292969e+00,3.480780029296875000e+01,-1.537292938232421875e+02,6.622257232666015625e+01,1.191414108276367188e+02
8.999999761581420898e-01,1.000000000000000000e+00,-4.234356689453125000e+01,3.336290359497070312e+01,3.417373657226562500e+01,9.561489105224609375e+01,9.970813751220703125e+01,-6.002215385437011719e+00,1.166222991943359375e+02,8.770228385925292969e+00,3.480780029296875000e+01,-1.537292938232421875e+02,6.622257232666015625e+01,1.191414108276367188e+02
9.039999842643737793e-01,1.000000000000000000e+00,-4.238732528686523438e+01,3.327795410156250000e+01,3.419623184204101562e+01,9.553723907470703125e+01,9.972777557373046875e+01,-6.028675079345703125e+00,1.166222991943359375e+02,8.770228385925292969e+00,3.480780029296875000e+01,-1.537292938232421875e+02,6.622257232666015625e+01,1.191414108276367188e+02
9.079999923706054688e-01,1.000000000000000000e+00,-4.243110656738281250e+01,3.319295501708984375e+01,3.421873855590820312e+01,9.545953369140625000e+01,9.974743652343750000e+01,-6.055150985717773438e+00,1.166222991943359375e+02,8.770228385925292969e+00,3.480780029296875000e+01,-1.537292938232421875e+02,6.622257232666015625e+01,1.191414108276367188e+02
9.120000004768371582e-01,1.000000000000000000e+00,-4.247491455078125000e+01,3.310789871215820312e+01,3.424126434326171875e+01,9.538178253173828125e+01,9.976709747314453125e+01,-6.081643104553222656e+00,1.166222991943359375e+02,8.770228385925292969e+00,3.480780029296875000e+01,-1.537292938232421875e+02,6.622257232666015625e+01,1.191414108276367188e+02
9.160000085830688477e-01,1.000000000000000000e+00,-4.251874923706054688e+01,3.302279281616210938e+01,3.426380157470703125e+01,9.530398559570312500e+01,9.978678131103515625e+01,-6.108151912689208984e+00,1.166222991943359375e+02,8.770228385925292969e+00,3.480780029296875000e+01,-1.537292938232421875e+02,6.622257232666015625e+01,1.191414108276367188e+02
9.200000166893005371e-01,1.000000000000000000e+00,-4.256261444091796875e+01,3.293762969970703125e+01,3.428635025024414062e+01,9.522613525390625000e+01,9.980647277832031250e+01,-6.134676456451416016e+00,1.166222991943359375e+02,8.770228385925292969e+00,3.480780029296875000e+01,-1.537292938232421875e+02,6.622257232666015625e+01,1.191414108276367188e+02
9.240000247955322266e-01,1.000000000000000000e+00,-4.260651016235351562e+01,3.285241699218750000e+01,3.430891799926757812e+01,9.514824676513671875e+01,9.982617950439453125e+01,-6.161217689514160156e+00,1.166222991943359375e+02,8.770228385925292969e+00,3.480780029296875000e+01,-1.537292938232421875e+02,6.622257232666015625e+01,1.191414108276367188e+02
9.279999732971191406e-01,1.000000000000000000e+00,-4.265042877197265625e+01,3.276715087890625000e+01,3.433149719238281250e+01,9.507029724121093750e+01,9.984589385986328125e+01,-6.187775611877441406e+00,1.166222991943359375e+02,8.770228385925292969e+00,3.480780029296875000e+01,-1.537292938232421875e+02,6.622257232666015625e+01,1.191414108276367188e+02
9.319999814033508301e-01,1.000000000000000000e+00,-4.269437408447265625e+01,3.268183135986328125e+01,3.435409164428710938e+01,9.499230194091796875e+01,9.986562347412109375e+01,-6.214349746704101562e+00,1.166222991943359375e+02,8.770228385925292969e+00,3.480780029296875000e+01,-1.537292938232421875e+02,6.622257232666015625e+01,1.191414108276367188e+02
9.359999895095825195e-01,1.000000000000000000e+00,-4.273834991455078125e+01,3.259645843505859375e+01,3.437669754028320312e+01,9.491426849365234375e+01,9.988536071777343750e+01,-6.240940570831298828e+00,1.166222991943359375e+02,8.770228385925292969e+00,3.480780029296875000e+01,-1.537292938232421875e+02,6.622257232666015625e+01,1.191414108276367188e+02
9.399999976158142090e-01,1.000000000000000000e+00,-4.278235244750976562e+01,3.251103210449218750e+01,3.439931869506835938e+01,9.483618164062500000e+01,9.990511322021484375e+01,-6.267547607421875000e+00,1.166222991943359375e+02,8.770228385925292969e+00,3.480780029296875000e+01,-1.537292938232421875e+02,6.622257232666015625e+01,1.191414108276367188e+02
9.440000057220458984e-01,1.000000000000000000e+00,-4.282637786865234375e+01,3.242555236816406250e+01,3.442195510864257812e+01,9.475804138183593750e+01,9.992488098144531250e+01,-6.294171810150146484e+00,1.166222991943359375e+02,8.770228385925292969e+00,3.480780029296875000e+01,-1.537292938232421875e+02,6.622257232666015625e+01,1.191414108276367188e+02
9.480000138282775879e-01,1.000000000000000000e+00,-4.287043762207031250e+01,3.234001922607421875e+01,3.444460296630859375e+01,9.467985534667968750e+01,9.994466400146484375e+01,-6.320812225341796875e+00,1.166222991943359375e+02,8.770228385925292969e+00,3.480780029296875000e+01,-1.537292938232421875e+02,6.622257232666015625e+01,1.191414108276367188e+02
9.520000219345092773e-01,1.000000000000000000e+00,-4.291452026367187500e+01,3.225443649291992188e+01,3.446726989746093750e+01,9.460162353515625000e+01,9.996444702148437500e+01,-6.347469329833984375e+00,1.166222991943359375e+02,8.770228385925292969e+00,3.480780029296875000e+01,-1.537292938232421875e+02,6.622257232666015625e+01,1.191414108276367188e+02
9.559999704360961914e-01,1.000000000000000000e+00,-4.295863342285156250e+01,3.216879272460937500e+01,3.448994445800781250e+01,9.452333831787109375e+01,9.998425292968750000e+01,-6.374143600463867188e+00,1.166222991943359375e+02,8.770228385925292969e+00,3.480780029296875000e+01,-1.537292938232421875e+02,6.622257232666015625e+01,1.191414108276367188e+02
9.599999785423278809e-01,1.000000000000000000e+00,-4.300276947021484375e+01,3.208310317993164062e+01,3.451263809204101562e+01,9.444499969482421875e+01,1.000040740966796875e+02,-6.400833606719970703e+00,1.166222991943359375e+02,8.770228385925292969e+00,3.480780029296875000e+01,-1.537292938232421875e+02,6.622257232666015625e+01,1.191414108276367188e+02
9.639999866485595703e-01,1.000000000000000000e+00,-4.304693603515625000e+01,3.199735641479492188e+01,3.453534698486328125e+01,9.436662292480468750e+01,1.000238952636718750e+02,-6.427541255950927734e+00,1.166222991943359375e+02,8.770228385925292969e+00,3.480780029296875000e+01,-1.537292938232421875e+02,6.622257232666015625e+01,1.191414108276367188e+02
9.679999947547912598e-01,1.000000000000000000e+00,-4.309112930297851562e+01,3.191155624389648438e+01,3.455806732177734375e+01,9.428819274902343750e+01,1.000437316894531250e+02,-6.454265594482421875e+00,1.166222991943359375e+02,8.770228385925292969e+00,3.480780029296875000e+01,-1.537292938232421875e+02,6.622257232666015625e+01,1.191414108276367188e+02
9.720000028610229492e-01,1.000000000000000000e+00,-4.313534545898437500e+01,3.182570457458496094e+01,3.458079910278320312e+01,9.420970916748046875e+01,1.000635910034179688e+02,-6.481006145477294922e+00,1.166222991943359375e+02,8.770228385925292969e+00,3.480780029296875000e+01,-1.537292938232421875e+02,6.622257232666015625e+01,1.191414108276367188e+02
9.760000109672546387e-01,1.000000000000000000e+00,-4.317959594726562500e+01,3.173979759216308594e+01,3.460355377197265625e+01,9.413117980957031250e+01,1.000834503173828125e+02,-6.507763862609863281e+00,1.166222991943359375e+02,8.770228385925292969e+00,3.480780029296875000e+01,-1.537292938232421875e+02,6.622257232666015625e+01,1.191414108276367188e+02
9.800000190734863281e-01,1.000000000000000000e+00,-4.322387313842773438e+01,3.165383529663085938e+01,3.462631225585937500e+01,9.405259704589843750e+01,1.001033325195312500e+02,-6.534538269042968750e+00,1.166222991943359375e+02,8.770228385925292969e+00,3.480780029296875000e+01,-1.537292938232421875e+02,6.622257232666015625e+01,1.191414108276367188e+02
9.840000271797180176e-01,1.000000000000000000e+00,-4.326817703247070312e+01,3.156781959533691406e+01,3.464909362792968750e+01,9.397396850585937500e+01,1.001232147216796875e+02,-6.561329364776611328e+00,1.166222991943359375e+02,8.770228385925292969e+00,3.480780029296875000e+01,-1.537292938232421875e+02,6.622257232666015625e+01,1.191414108276367188e+02
9.879999756813049316e-01,1.000000000000000000e+00,-4.331250762939453125e+01,3.148174858093261719e+01,3.467188644409179688e+01,9.389529418945312500e+01,1.001431198120117188e+02,-6.588137626647949219e+00,1.166222991943359375e+02,8.770228385925292969e+00,3.480780029296875000e+01,-1.537292938232421875e+02,6.622257232666015625e+01,1.191414108276367188e+02
9.919999837875366211e-01,1.000000000000000000e+00,-4.335686492919921875e+01,3.139562797546386719e+01,3.469469070434570312e+01,9.381656646728515625e+01,1.001630401611328125e+02,-6.614962100982666016e+00,1.166222991943359375e+02,8.770228385925292969e+00,3.480780029296875000e+01,-1.537292938232421875e+02,6.622257232666015625e+01,1.191414108276367188e+02
9.959999918937683105e-01,1.000000000000000000e+00,-4.340125274658203125e+01,3.130945014953613281e+01,3.471751022338867188e+01,9.373779296875000000e+01,1.001829681396484375e+02,-6.641804218292236328e+00,1.166222991943359375e+02,8.770228385925292969e+00,3.480780029296875000e+01,-1.537292938232421875e+02,6.622257232666015625e+01,1.191414108276367188e+02
1.000000000000000000e+00,1.000000000000000000e+00,-4.344567108154296875e+01,3.122321891784667969e+01,3.474034881591796875e+01,9.365896606445312500e+01,1.002029037475585938e+02,-6.668663024902343750e+00,1.166222991943359375e+02,8.770228385925292969e+00,3.480780029296875000e+01,-1.537292938232421875e+02,6.622257232666015625e+01,1.191414108276367188e+02
1.003999948501586914e+00,1.000000000000000000e+00,-4.349010848999023438e+01,3.113693428039550781e+01,3.476319885253906250e+01,9.358008575439453125e+01,1.002228546142578125e+02,-6.695538520812988281e+00,1.166222991943359375e+02,8.770228385925292969e+00,3.480780029296875000e+01,-1.537292938232421875e+02,6.622257232666015625e+01,1.191414108276367188e+02
1.008000016212463379e+00,1.000000000000000000e+00,-4.353458023071289062e+01,3.105059432983398438e+01,3.478606033325195312e+01,9.350116729736328125e+01,1.002428207397460938e+02,-6.722430706024169922e+00,1.166222991943359375e+02,8.770228385925292969e+00,3.480780029296875000e+01,-1.537292938232421875e+02,6.622257232666015625e+01,1.191414108276367188e+02
1.011999964714050293e+00,1.000000000000000000e+00,-4.357907867431640625e+01,3.096419906616210938e+01,3.480894088745117188e+01,9.342218780517578125e+01,1.002628021240234375e+02,-6.749340057373046875e+00,1.166222991943359375e+02,8.770228385925292969e+00,3.480780029296875000e+01,-1.537292938232421875e+02,6.622257232666015625e+01,1.191414108276367188e+02
1.016000032424926758e+00,1.000000000000000000e+00,-4.362360763549804688e+01,3.087774848937988281e+01,3.483182907104492188e+01,9.334317016601562500e+01,1.002827911376953125e+02,-6.776266098022460938e+00,1.166222991943359375e+02,8.770228385925292969e+00,3.480780029296875000e+01,-1.537292938232421875e+02,6.622257232666015625e+01,1.191414108276367188e+02
1.019999980926513672e+00,1.000000000000000000e+00,-4.366816329956054688e+01,3.079124450683593750e+01,3.485474014282226562e+01,9.326409912109375000e+01,1.003027877807617188e+02,-6.803209304809570312e+00,1.166222991943359375e+02,8.770228385925292969e+00,3.480780029296875000e+01,-1.537292938232421875e+02,6.622257232666015625e+01,1.191414108276367188e+02
1.024000048637390137e+00,1.000000000000000000e+00,-4.371274566650390625e+01,3.070468902587890625e+01,3.487765884399414062e+01,9.318496704101562500e+01,1.003228073120117188e+02,-6.830169200897216797e+00,1.166222991943359375e+02,8.770228385925292969e+00,3.480780029296875000e+01,-1.537292938232421875e+02,6.622257232666015625e+01,1.191414108276367188e+02
1.026999950408935547e+00,1.000000000000000000e+00,-4.375735855102539062e+01,3.061807441711425781e+01,3.490059280395507812e+01,9.310579681396484375e+01,1.003428344726562500e+02,-6.857145786285400391e+00,1.166222991943359375e+02,8.770228385925292969e+00,3.480780029296875000e+01,-1.537292938232421875e+02,6.622257232666015625e+01,1.191414108276367188e+02
1.031999945640563965e+00,1.000000000000000000e+00,-4.380199813842773438e+01,3.053140640258789062e+01,3.492354583740234375e+01,9.302657318115234375e+01,1.003628768920898438e+02,-6.884139537811279297e+00,1.166222991943359375e+02,8.770228385925292969e+00,3.480780029296875000e+01,-1.537292938232421875e+02,6.622257232666015625e+01,1.191414108276367188e+02
1.036000013351440430e+00,1.000000000000000000e+00,-4.384666442871093750e+01,3.044468688964843750e+01,3.494651031494140625e+01,9.294729614257812500e+01,1.003829269409179688e+02,-6.911150455474853516e+00,1.166222991943359375e+02,8.770228385925292969e+00,3.480780029296875000e+01,-1.537292938232421875e+02,6.622257232666015625e+01,1.191414108276367188e+02
1.039999961853027344e+00,1.000000000000000000e+00,-4.389135742187500000e+01,3.035791015625000000e+01,3.496949005126953125e+01,9.286798095703125000e+01,1.004029998779296875e+02,-6.938178539276123047e+00,1.166222991943359375e+02,8.770228385925292969e+00,3.480780029296875000e+01,-1.537292938232421875e+02,6.622257232666015625e+01,1.191414108276367188e+02
1.044000029563903809e+00,1.000000000000000000e+00,-4.393608093261718750e+01,3.027107810974121094e+01,3.499248504638671875e+01,9.278860473632812500e+01,1.004230728149414062e+02,-6.965222835540771484e+00,1.166222991943359375e+02,8.770228385925292969e+00,3.480780029296875000e+01,-1.537292938232421875e+02,6.622257232666015625e+01,1.191414108276367188e+02
1.047999978065490723e+00,1.000000000000000000e+00,-4.398083114624023438e+01,3.018419456481933594e+01,3.501549148559570312e+01,9.270918273925781250e+01,1.004431686401367188e+02,-6.992284774780273438e+00,1.166222991943359375e+02,8.770228385925292969e+00,3.480780029296875000e+01,-1.537292938232421875e+02,6.622257232666015625e+01,1.191414108276367188e+02
1.052000045776367188e+00,1.000000000000000000e+00,-4.402561187744140625e+01,3.009725189208984375e+01,3.503851318359375000e+01,9.262971496582031250e+01,1.004632644653320312e+02,-7.019363403320312500e+00,1.166222991943359375e+02,8.770228385925292969e+00,3.480780029296875000e+01,-1.537292938232421875e+02,6.622257232666015625e+01,1.191414108276367188e+02
1.054999947547912598e+00,1.000000000000000000e+00,-4.407041549682617188e+01,3.001025962829589844e+01,3.506155014038085938e+01,9.255019378662109375e+01,1.004833831787109375e+02,-7.046459197998046875e+00,1.166222991943359375e+02,8.770228385925292969e+00,3.480780029296875000e+01,-1.537292938232421875e+02,6.622257232666015625e+01,1.191414108276367188e+02
1.059999942779541016e+00,1.000000000000000000e+00,-4.411525344848632812e+01,2.992321014404296875e+01,3.508459854125976562e+01,9.247061920166015625e+01,1.005035095214843750e+02,-7.073572158813476562e+00,1.166222991943359375e+02,8.770228385925292969e+00,3.480780029296875000e+01,-1.537292938232421875e+02,6.622257232666015625e+01,1.191414108276367188e+02
1.064000010490417480e+00,1.000000000000000000e+00,-4.416011428833007812e+01,2.983610725402832031e+01,3.510766601562500000e+01,9.239099121093750000e+01,1.005236511230468750e+02,-7.100701332092285156e+00,1.166222991943359375e+02,8.770228385925292969e+00,3.480780029296875000e+01,-1.537292938232421875e+02,6.622257232666015625e+01,1.191414108276367188e+02
1.067999958992004395e+00,1.000000000000000000e+00,-4.420500946044921875e+01,2.974894714355468750e+01,3.513074874877929688e+01,9.231132507324218750e+01,1.005438079833984375e+02,-7.127848625183105469e+00,1.166222991943359375e+02,8.770228385925292969e+00,3.480780029296875000e+01,-1.537292938232421875e+02,6.622257232666015625e+01,1.191414108276367188e+02
1.072000026702880859e+00,1.000000000000000000e+00,-4.424992752075195312e+01,2.966173171997070312e+01,3.515383911132812500e+01,9.223160552978515625e+01,1.005639724731445312e+02,-7.155012130737304688e+00,1.166222991943359375e+02,8.770228385925292969e+00,3.480780029296875000e+01,-1.537292938232421875e+02,6.622257232666015625e+01,1.191414108276367188e+02
1.075999975204467773e+00,1.000000000000000000e+00,-4.429487228393554688e+01,2.957446670532226562e+01,3.517694854736328125e+01,9.215182495117187500e+01,1.005841522216796875e+02,-7.182193279266357422e+00,1.166222991943359375e+02,8.770228385925292969e+00,3.480780029296875000e+01,-1.537292938232421875e+02,6.622257232666015625e+01,1.191414108276367188e+02
1.080000042915344238e+00,1.000000000000000000e+00,-4.433985137939453125e+01,2.948714256286621094e+01,3.520007324218750000e+01,9.207200622558593750e+01,1.006043472290039062e+02,-7.209391117095947266e+00,1.166222991943359375e+02,8.770228385925292969e+00,3.480780029296875000e+01,-1.537292938232421875e+02,6.622257232666015625e+01,1.191414108276367188e+02
1.083999991416931152e+00,1.000000000000000000e+00,-4.438485336303710938e+01,2.939976501464843750e+01,3.522320938110351562e+01,9.199213409423828125e+01,1.006245498657226562e+02,-7.236606121063232422e+00,1.166222991943359375e+02,8.770228385925292969e+00,3.480780029296875000e+01,-1.537292938232421875e+02,6.622257232666015625e+01,1.191414108276367188e+02
1.088000059127807617e+00,1.000000000000000000e+00,-4.442988967895507812e+01,2.931233406066894531e+01,3.524636459350585938e+01,9.191220855712890625e+01,1.006447677612304688e+02,-7.263837814331054688e+00,1.166222991943359375e+02,8.770228385925292969e+00,3.480780029296875000e+01,-1.537292938232421875e+02,6.622257232666015625e+01,1.191414108276367188e+02
1.090999960899353027e+00,1.000000000000000000e+00,-4.447494888305664062e+01,2.922484588623046875e+01,3.526953506469726562e+01,9.183224487304687500e+01,1.006649932861328125e+02,-7.291087627410888672e+00,1.166222991943359375e+02,8.770228385925292969e+00,3.480780029296875000e+01,-1.537292938232421875e+02,6.622257232666015625e+01,1.191414108276367188e+02
1.095999956130981445e+00,1.000000000000000000e+00,-4.452003860473632812e+01,2.913730430603027344e+01,3.529271316528320312e+01,9.175222015380859375e+01,1.006852340698242188e+02,-7.318354129791259766e+00,1.166222991943359375e+02,8.770228385925292969e+00,3.480780029296875000e+01,-1.537292938232421875e+02,6.622257232666015625e+01,1.191414108276367188e+02
1.100000023841857910e+00,1.000000000000000000e+00,-4.456515502929687500e+01,2.904970741271972656e+01,3.531591033935546875e+01,9.167214202880859375e+01,1.007054901123046875e+02,-7.345637321472167969e+00,1.166222991943359375e+02,8.770228385925292969e+00,3.480780029296875000e+01,-1.537292938232421875e+02,6.622257232666015625e+01,1.191414108276367188e+02
1.103999972343444824e+00,1.000000000000000000e+00,-4.461030197143554688e+01,2.896205520629882812e+01,3.533911895751953125e+01,9.159202575683593750e+01,1.007257537841796875e+02,-7.372938156127929688e+00,1.166222991943359375e+02,8.770228385925292969e+00,3.480780029296875000e+01,-1.537292938232421875e+02,6.622257232666015625e+01,1.191414108276367188e+02
1.108000040054321289e+00,1.000000000000000000e+00,-4.465547561645507812e+01,2.887434577941894531e+01,3.536234664916992188e+01,9.151185607910156250e+01,1.007460403442382812e+02,-7.400255680084228516e+00,1.166222991943359375e+02,8.770228385925292969e+00,3.480780029296875000e+01,-1.537292938232421875e+02,6.622257232666015625e+01,1.191414108276367188e+02
1.111999988555908203e+00,1.000000000000000000e+00,-4.470067977905273438e+01,2.878658485412597656e+01,3.538558578491210938e+01,9.143162536621093750e+01,1.007663345336914062e+02,-7.427590847015380859e+00,1.166222991943359375e+02,8.770228385925292969e+00,3.480780029296875000e+01,-1.537292938232421875e+02,6.622257232666015625e+01,1.191414108276367188e+02
1.116000056266784668e+00,1.000000000000000000e+00,-4.474590682983398438e+01,2.869876480102539062e+01,3.540884017944335938e+01,9.135134887695312500e+01,1.007866439819335938e+02,-7.454942226409912109e+00,1.166222991943359375e+02,8.770228385925292969e+00,3.480780029296875000e+01,-1.537292938232421875e+02,6.622257232666015625e+01,1.191414108276367188e+02
1.118999958038330078e+00,1.000000000000000000e+00,-4.479116821289062500e+01,2.861089324951171875e+01,3.543210983276367188e+01,9.127102661132812500e+01,1.008069610595703125e+02,-7.482311725616455078e+00,1.166222991943359375e+02,8.770228385925292969e+00,3.480780029296875000e+01,-1.537292938232421875e+02,6.622257232666015625e+01,1.191414108276367188e+02
1.123999953269958496e+00,1.000000000000000000e+00,-4.483645629882812500e+01,2.852296638488769531e+01,3.545539474487304688e+01,9.119065093994140625e+01,1.008272857666015625e+02,-7.509698390960693359e+00,1.166222991943359375e+02,8.770228385925292969e+00,3.480780029296875000e+01,-1.537292938232421875e+02,6.622257232666015625e+01,1.191414108276367188e+02
