rpiRobotics/ARM-21-02-F-19-Robot-Motion-Program/data_performance_abb/curve_1/baseline/150L/curve_exe_v136.23046875_z10.csv
timestamp, cmd_num, J1, J2, J3, J4, J5, J6
0, -1, 11.44, 13.9721, 17.1477, -145.549, -98.3457, 141.962
0.002, -1, 11.44, 13.9721, 17.1477, -145.549, -98.3457, 141.962
0.006, -1, 11.44, 13.9721, 17.1477, -145.549, -98.3457, 141.962
0.008, -1, 11.44, 13.9721, 17.1477, -145.549, -98.3457, 141.962
0.011, -1, 11.44, 13.9721, 17.1477, -145.549, -98.3457, 141.962
0.016, -1, 11.44, 13.9721, 17.1477, -145.549, -98.3457, 141.962
0.02, -1, 11.44, 13.9721, 17.1477, -145.549, -98.3457, 141.962
0.024, -1, 11.44, 13.9721, 17.1477, -145.549, -98.3457, 141.962
0.028, -1, 11.44, 13.9721, 17.1477, -145.549, -98.3457, 141.962
0.032, -1, 11.44, 13.9721, 17.1477, -145.549, -98.3457, 141.962
0.036, -1, 11.4399, 13.9721, 17.1477, -145.549, -98.3457, 141.962
0.04, -1, 11.4396, 13.9721, 17.1476, -145.549, -98.3457, 141.962
0.044, -1, 11.4389, 13.972, 17.1476, -145.549, -98.3457, 141.962
0.048, -1, 11.4376, 13.9718, 17.1474, -145.549, -98.3457, 141.962
0.052, -1, 11.4356, 13.9715, 17.1472, -145.549, -98.3457, 141.961
0.056, -1, 11.4326, 13.971, 17.1469, -145.549, -98.3456, 141.961
0.06, -1, 11.4285, 13.9702, 17.1465, -145.549, -98.3456, 141.96
0.064, -1, 11.4233, 13.9692, 17.1459, -145.55, -98.3455, 141.958
0.068, -1, 11.4167, 13.9678, 17.1453, -145.55, -98.3453, 141.954
0.072, -1, 11.4086, 13.9659, 17.1446, -145.551, -98.345, 141.949
0.076, -1, 11.3986, 13.9635, 17.1439, -145.552, -98.3446, 141.942
0.08, -1, 11.3863, 13.9605, 17.1431, -145.554, -98.344, 141.932
0.084, -1, 11.3713, 13.9568, 17.1424, -145.557, -98.3432, 141.917
0.088, -1, 11.3536, 13.9522, 17.1417, -145.56, -98.342, 141.899
0.092, -1, 11.3329, 13.9469, 17.1413, -145.564, -98.3405, 141.875
0.096, -1, 11.3094, 13.9407, 17.1413, -145.569, -98.3385, 141.845
0.1, -1, 11.2831, 13.9336, 17.1417, -145.576, -98.3361, 141.807
0.104, -1, 11.2539, 13.9257, 17.1427, -145.583, -98.3332, 141.762
0.108, -1, 11.2216, 13.9169, 17.1443, -145.592, -98.3297, 141.709
0.112, -1, 11.1863, 13.9071, 17.1466, -145.603, -98.3256, 141.647
0.116, -1, 11.1477, 13.8964, 17.1496, -145.615, -98.3209, 141.576
0.12, -1, 11.1058, 13.8846, 17.1531, -145.629, -98.3156, 141.497
0.124, -1, 11.0606, 13.8719, 17.1573, -145.644, -98.3098, 141.409
0.128, -1, 11.0123, 13.8583, 17.162, -145.66, -98.3034, 141.314
0.131, -1, 10.9609, 13.8438, 17.1672, -145.678, -98.2965, 141.211
0.136, -1, 10.9067, 13.8285, 17.1728, -145.697, -98.2891, 141.101
0.139, -1, 10.8498, 13.8123, 17.1787, -145.717, -98.2814, 140.986
0.144, -1, 10.79, 13.7954, 17.1848, -145.737, -98.2733, 140.865
0.148, -1, 10.7276, 13.7778, 17.191, -145.759, -98.265, 140.741
0.152, -1, 10.6626, 13.7595, 17.1972, -145.781, -98.2564, 140.612
0.156, -1, 10.5954, 13.7405, 17.2033, -145.803, -98.2477, 140.482
0.16, -1, 10.5262, 13.7211, 17.2093, -145.826, -98.2388, 140.349
0.164, -1, 10.4554, 13.7012, 17.2152, -145.849, -98.2298, 140.214
0.168, -1, 10.3833, 13.681, 17.2211, -145.872, -98.2208, 140.078
0.172, -1, 10.31, 13.6605, 17.2269, -145.896, -98.2117, 139.941
0.176, -1, 10.2359, 13.6398, 17.2326, -145.919, -98.2025, 139.804
0.18, -1, 10.161, 13.6189, 17.2382, -145.943, -98.1934, 139.666
0.184, -1, 10.0855, 13.5979, 17.2438, -145.967, -98.1842, 139.528
0.188, -1, 10.0094, 13.5769, 17.2494, -145.99, -98.175, 139.39
0.192, -1, 9.93295, 13.5557, 17.2549, -146.014, -98.1658, 139.251
0.196, -1, 9.85626, 13.5345, 17.2604, -146.038, -98.1566, 139.112
0.2, -1, 9.77938, 13.5133, 17.2659, -146.062, -98.1474, 138.974
0.204, -1, 9.70238, 13.4921, 17.2714, -146.086, -98.1381, 138.835
0.208, -1, 9.62529, 13.4708, 17.2769, -146.11, -98.1289, 138.696
0.212, -1, 9.54814, 13.4496, 17.2824, -146.133, -98.1197, 138.557
0.216, -1, 9.47095, 13.4283, 17.2879, -146.157, -98.1105, 138.418
0.22, -1, 9.39373, 13.407, 17.2934, -146.181, -98.1013, 138.279
0.224, -1, 9.31648, 13.3857, 17.2989, -146.205, -98.092, 138.14
0.228, -1, 9.23921, 13.3644, 17.3044, -146.229, -98.0828, 138.001
0.232, -1, 9.16193, 13.3432, 17.3098, -146.253, -98.0736, 137.862
0.236, -1, 9.08464, 13.3219, 17.3153, -146.277, -98.0643, 137.723
0.24, -1, 9.00733, 13.3006, 17.3208, -146.3, -98.0551, 137.584
0.244, -1, 8.93002, 13.2793, 17.3263, -146.324, -98.0459, 137.445
0.248, -1, 8.8527, 13.258, 17.3318, -146.348, -98.0366, 137.306
0.252, -1, 8.77537, 13.2367, 17.3373, -146.372, -98.0274, 137.167
0.256, -1, 8.69803, 13.2154, 17.3428, -146.396, -98.0182, 137.028
0.26, -1, 8.62068, 13.1941, 17.3482, -146.42, -98.0089, 136.889
0.264, -1, 8.54333, 13.1728, 17.3537, -146.444, -97.9997, 136.75
0.268, -1, 8.46597, 13.1514, 17.3592, -146.468, -97.9905, 136.61
0.272, -1, 8.3886, 13.1301, 17.3647, -146.491, -97.9812, 136.471
0.276, -1, 8.31122, 13.1088, 17.3702, -146.515, -97.972, 136.332
0.28, -1, 8.23384, 13.0875, 17.3757, -146.539, -97.9628, 136.193
0.284, -1, 8.15645, 13.0662, 17.3812, -146.563, -97.9535, 136.054
0.288, -1, 8.07905, 13.0449, 17.3867, -146.587, -97.9443, 135.915
0.292, -1, 8.00165, 13.0235, 17.3921, -146.611, -97.935, 135.775
0.296, -1, 7.92424, 13.0022, 17.3976, -146.635, -97.9258, 135.636
0.3, -1, 7.84682, 12.9809, 17.4031, -146.659, -97.9165, 135.497
0.304, -1, 7.76939, 12.9596, 17.4086, -146.683, -97.9073, 135.358
0.308, -1, 7.69196, 12.9382, 17.4141, -146.706, -97.8981, 135.218
0.312, -1, 7.61452, 12.9169, 17.4196, -146.73, -97.8888, 135.079
0.316, -1, 7.53707, 12.8956, 17.4251, -146.754, -97.8796, 134.94
0.32, -1, 7.45961, 12.8742, 17.4306, -146.778, -97.8703, 134.801
0.324, -1, 7.38215, 12.8529, 17.4361, -146.802, -97.8611, 134.661
0.328, -1, 7.30468, 12.8315, 17.4416, -146.826, -97.8518, 134.522
0.332, -1, 7.2272, 12.8102, 17.4471, -146.85, -97.8426, 134.383
0.336, -1, 7.14972, 12.7889, 17.4526, -146.874, -97.8333, 134.243
0.34, -1, 7.07223, 12.7675, 17.4581, -146.898, -97.8241, 134.104
0.344, -1, 6.99473, 12.7462, 17.4636, -146.922, -97.8148, 133.964
0.348, -1, 6.91722, 12.7248, 17.4691, -146.946, -97.8055, 133.825
0.352, -1, 6.83971, 12.7035, 17.4746, -146.97, -97.7963, 133.686
0.356, -1, 6.76219, 12.6821, 17.4801, -146.993, -97.787, 133.546
0.36, -1, 6.68466, 12.6607, 17.4856, -147.017, -97.7778, 133.407
0.364, -1, 6.60712, 12.6394, 17.4911, -147.041, -97.7685, 133.267
0.368, -1, 6.52958, 12.618, 17.4965, -147.065, -97.7593, 133.128
0.372, -1, 6.45203, 12.5967, 17.5021, -147.089, -97.75, 132.988
0.376, -1, 6.37448, 12.5753, 17.5076, -147.113, -97.7408, 132.849
0.38, -1, 6.29691, 12.5539, 17.5131, -147.137, -97.7315, 132.709
0.384, -1, 6.21934, 12.5326, 17.5186, -147.161, -97.7222, 132.57
0.388, -1, 6.14176, 12.5112, 17.5241, -147.185, -97.713, 132.43
0.392, -1, 6.06417, 12.4898, 17.5296, -147.209, -97.7037, 132.291
0.396, -1, 5.98658, 12.4684, 17.5351, -147.233, -97.6944, 132.151
0.4, -1, 5.90898, 12.4471, 17.5406, -147.257, -97.6852, 132.012
0.404, -1, 5.83137, 12.4257, 17.5461, -147.281, -97.6759, 131.872
0.408, -1, 5.75375, 12.4043, 17.5516, -147.305, -97.6666, 131.733
0.412, -1, 5.67613, 12.3829, 17.5571, -147.329, -97.6574, 131.593
0.416, -1, 5.5985, 12.3615, 17.5626, -147.353, -97.6481, 131.453
0.42, -1, 5.52086, 12.3402, 17.5681, -147.377, -97.6388, 131.314
0.424, -1, 5.44321, 12.3188, 17.5736, -147.401, -97.6296, 131.174
0.428, -1, 5.36556, 12.2974, 17.5791, -147.425, -97.6203, 131.034
0.432, -1, 5.28789, 12.276, 17.5846, -147.449, -97.611, 130.895
0.436, -1, 5.21023, 12.2546, 17.5901, -147.473, -97.6017, 130.755
0.44, -1, 5.13255, 12.2332, 17.5956, -147.497, -97.5925, 130.615
0.444, -1, 5.05486, 12.2118, 17.6011, -147.521, -97.5832, 130.476
0.448, -1, 4.97717, 12.1904, 17.6067, -147.545, -97.5739, 130.336
0.452, -1, 4.89947, 12.169, 17.6122, -147.569, -97.5646, 130.196
0.456, -1, 4.82177, 12.1476, 17.6177, -147.593, -97.5554, 130.056
0.46, -1, 4.74405, 12.1262, 17.6232, -147.617, -97.5461, 129.917
0.464, -1, 4.66633, 12.1048, 17.6287, -147.641, -97.5368, 129.777
0.468, -1, 4.5886, 12.0834, 17.6342, -147.665, -97.5275, 129.637
0.472, -1, 4.51086, 12.0619, 17.6397, -147.689, -97.5182, 129.497
0.476, -1, 4.43312, 12.0405, 17.6452, -147.713, -97.5089, 129.358
0.48, -1, 4.35537, 12.0191, 17.6508, -147.737, -97.4997, 129.218
0.484, -1, 4.27761, 11.9977, 17.6563, -147.761, -97.4904, 129.078
0.488, -1, 4.19984, 11.9763, 17.6618, -147.785, -97.4811, 128.938
0.492, -1, 4.12206, 11.9548, 17.6673, -147.809, -97.4718, 128.798
0.496, -1, 4.04428, 11.9334, 17.6728, -147.833, -97.4625, 128.658
0.5, -1, 3.96649, 11.912, 17.6783, -147.857, -97.4532, 128.518
0.504, -1, 3.88869, 11.8905, 17.6839, -147.881, -97.4439, 128.378
0.508, -1, 3.81088, 11.8691, 17.6894, -147.905, -97.4347, 128.238
0.512, -1, 3.73307, 11.8477, 17.6949, -147.929, -97.4254, 128.098
0.516, -1, 3.65525, 11.8262, 17.7004, -147.953, -97.4161, 127.959
0.52, -1, 3.57742, 11.8048, 17.7059, -147.977, -97.4068, 127.819
0.524, -1, 3.49958, 11.7834, 17.7114, -148.001, -97.3975, 127.679
0.528, -1, 3.42174, 11.7619, 17.717, -148.025, -97.3882, 127.539
0.532, -1, 3.34388, 11.7405, 17.7225, -148.049, -97.3789, 127.399
0.536, -1, 3.26602, 11.719, 17.728, -148.073, -97.3696, 127.259
0.54, -1, 3.18815, 11.6976, 17.7335, -148.097, -97.3603, 127.118
0.544, -1, 3.11028, 11.6761, 17.7391, -148.121, -97.351, 126.978
0.548, -1, 3.03239, 11.6547, 17.7446, -148.145, -97.3417, 126.838
0.552, -1, 2.9545, 11.6332, 17.7501, -148.169, -97.3324, 126.698
0.556, -1, 2.8766, 11.6118, 17.7556, -148.193, -97.3231, 126.558
0.56, -1, 2.79869, 11.5903, 17.7612, -148.217, -97.3138, 126.418
0.564, -1, 2.72078, 11.5688, 17.7667, -148.241, -97.3045, 126.278
0.568, -1, 2.64286, 11.5474, 17.7722, -148.265, -97.2952, 126.138
0.572, -1, 2.56492, 11.5259, 17.7777, -148.289, -97.2859, 125.998
0.576, -1, 2.48699, 11.5044, 17.7833, -148.313, -97.2766, 125.857
0.58, -1, 2.40904, 11.483, 17.7888, -148.337, -97.2673, 125.717
0.584, -1, 2.33109, 11.4615, 17.7943, -148.361, -97.258, 125.577
0.588, -1, 2.25312, 11.44, 17.7999, -148.386, -97.2487, 125.437
0.592, -1, 2.17515, 11.4185, 17.8054, -148.41, -97.2394, 125.297
0.596, -1, 2.09718, 11.397, 17.8109, -148.434, -97.23, 125.156
0.6, -1, 2.01919, 11.3756, 17.8164, -148.458, -97.2207, 125.016
0.604, -1, 1.9412, 11.3541, 17.822, -148.482, -97.2114, 124.876
0.608, -1, 1.8632, 11.3326, 17.8275, -148.506, -97.2021, 124.736
0.612, -1, 1.78519, 11.3111, 17.833, -148.53, -97.1928, 124.595
0.616, -1, 1.70717, 11.2896, 17.8386, -148.554, -97.1835, 124.455
0.62, -1, 1.62914, 11.2681, 17.8441, -148.578, -97.1742, 124.315
0.624, -1, 1.55111, 11.2466, 17.8496, -148.602, -97.1648, 124.174
0.628, -1, 1.47307, 11.2251, 17.8552, -148.626, -97.1555, 124.034
0.632, -1, 1.39502, 11.2036, 17.8607, -148.65, -97.1462, 123.894
0.636, -1, 1.31697, 11.1821, 17.8662, -148.675, -97.1369, 123.753
0.64, -1, 1.2389, 11.1606, 17.8718, -148.699, -97.1276, 123.613
0.644, -1, 1.16083, 11.1391, 17.8773, -148.723, -97.1182, 123.472
0.648, -1, 1.08275, 11.1176, 17.8829, -148.747, -97.1089, 123.332
0.652, -1, 1.00466, 11.0961, 17.8884, -148.771, -97.0996, 123.192
0.656, -1, 0.926565, 11.0746, 17.8939, -148.795, -97.0903, 123.051
0.66, -1, 0.848461, 11.0531, 17.8995, -148.819, -97.081, 122.911
0.664, -1, 0.77035, 11.0315, 17.905, -148.843, -97.0716, 122.77
0.668, -1, 0.69223, 11.01, 17.9106, -148.867, -97.0623, 122.63
0.672, -1, 0.614102, 10.9885, 17.9161, -148.892, -97.053, 122.489
0.676, -1, 0.535966, 10.967, 17.9216, -148.916, -97.0436, 122.349
0.68, -1, 0.457823, 10.9455, 17.9272, -148.94, -97.0343, 122.208
0.684, -1, 0.379671, 10.9239, 17.9327, -148.964, -97.025, 122.068
0.688, -1, 0.301511, 10.9024, 17.9383, -148.988, -97.0156, 121.927
0.692, -1, 0.223343, 10.8809, 17.9438, -149.012, -97.0063, 121.786
0.696, -1, 0.145167, 10.8593, 17.9494, -149.036, -96.997, 121.646
0.7, -1, 0.0669832, 10.8378, 17.9549, -149.06, -96.9876, 121.505
0.704, -1, -0.0112092, 10.8163, 17.9604, -149.085, -96.9783, 121.365
0.708, -1, -0.0894096, 10.7947, 17.966, -149.109, -96.969, 121.224
0.712, -1, -0.167618, 10.7732, 17.9715, -149.133, -96.9596, 121.083
0.716, -1, -0.245835, 10.7516, 17.9771, -149.157, -96.9503, 120.943
0.72, -1, -0.32406, 10.7301, 17.9826, -149.181, -96.941, 120.802
0.724, -1, -0.402293, 10.7085, 17.9882, -149.205, -96.9316, 120.661
0.728, -1, -0.480535, 10.687, 17.9937, -149.229, -96.9223, 120.521
0.732, -1, -0.558784, 10.6654, 17.9993, -149.254, -96.9129, 120.38
0.736, -1, -0.637042, 10.6439, 18.0048, -149.278, -96.9036, 120.239
0.74, -1, -0.715308, 10.6223, 18.0104, -149.302, -96.8942, 120.098
0.744, -1, -0.793583, 10.6007, 18.0159, -149.326, -96.8849, 119.958
0.748, -1, -0.871865, 10.5792, 18.0215, -149.35, -96.8755, 119.817
0.752, -1, -0.950156, 10.5576, 18.027, -149.374, -96.8662, 119.676
0.756, -1, -1.02846, 10.536, 18.0326, -149.399, -96.8569, 119.535
0.76, -1, -1.10676, 10.5145, 18.0381, -149.423, -96.8475, 119.394
0.764, -1, -1.18508, 10.4929, 18.0437, -149.447, -96.8382, 119.253
0.768, -1, -1.2634, 10.4713, 18.0493, -149.471, -96.8288, 119.113
0.772, -1, -1.34174, 10.4497, 18.0548, -149.495, -96.8194, 118.972
0.776, -1, -1.42008, 10.4282, 18.0604, -149.52, -96.8101, 118.831
0.78, -1, -1.49843, 10.4066, 18.0659, -149.544, -96.8007, 118.69
0.784, -1, -1.57678, 10.385, 18.0715, -149.568, -96.7914, 118.549
0.788, -1, -1.65515, 10.3634, 18.077, -149.592, -96.782, 118.408
0.792, -1, -1.73353, 10.3418, 18.0826, -149.616, -96.7727, 118.267
0.796, -1, -1.81191, 10.3202, 18.0882, -149.64, -96.7633, 118.126
0.8, -1, -1.8903, 10.2986, 18.0937, -149.665, -96.7539, 117.985
0.804, -1, -1.9687, 10.277, 18.0993, -149.689, -96.7446, 117.844
0.808, -1, -2.04711, 10.2554, 18.1048, -149.713, -96.7352, 117.703
0.812, -1, -2.12553, 10.2338, 18.1104, -149.737, -96.7259, 117.562
0.816, -1, -2.20395, 10.2122, 18.116, -149.762, -96.7165, 117.421
0.82, -1, -2.28239, 10.1906, 18.1215, -149.786, -96.7071, 117.28
0.824, -1, -2.36083, 10.169, 18.1271, -149.81, -96.6978, 117.139
0.828, -1, -2.43928, 10.1474, 18.1327, -149.834, -96.6884, 116.998
0.832, -1, -2.51774, 10.1258, 18.1382, -149.858, -96.679, 116.857
0.836, -1, -2.59621, 10.1042, 18.1438, -149.883, -96.6697, 116.716
0.84, -1, -2.67469, 10.0826, 18.1493, -149.907, -96.6603, 116.574
0.844, -1, -2.75318, 10.0609, 18.1549, -149.931, -96.6509, 116.433
0.848, -1, -2.83167, 10.0393, 18.1605, -149.955, -96.6415, 116.292
0.852, -1, -2.91017, 10.0177, 18.166, -149.98, -96.6322, 116.151
0.856, -1, -2.98868, 9.99606, 18.1716, -150.004, -96.6228, 116.01
0.86, -1, -3.0672, 9.97443, 18.1772, -150.028, -96.6134, 115.868
0.864, -1, -3.14573, 9.95279, 18.1828, -150.052, -96.6041, 115.727
0.868, -1, -3.22427, 9.93116, 18.1883, -150.076, -96.5947, 115.586
0.872, -1, -3.30282, 9.90952, 18.1939, -150.101, -96.5853, 115.445
0.876, -1, -3.38137, 9.88788, 18.1995, -150.125, -96.5759, 115.303
0.88, -1, -3.45993, 9.86624, 18.205, -150.149, -96.5665, 115.162
0.884, -1, -3.53851, 9.8446, 18.2106, -150.174, -96.5572, 115.021
0.888, -1, -3.61709, 9.82295, 18.2162, -150.198, -96.5478, 114.88
0.892, -1, -3.69567, 9.8013, 18.2218, -150.222, -96.5384, 114.738
0.896, -1, -3.77427, 9.77965, 18.2273, -150.246, -96.529, 114.597
0.9, -1, -3.85288, 9.758, 18.2329, -150.271, -96.5196, 114.455
0.904, -1, -3.93149, 9.73634, 18.2385, -150.295, -96.5102, 114.314
0.908, -1, -4.01012, 9.71468, 18.2441, -150.319, -96.5008, 114.173
0.912, -1, -4.08875, 9.69302, 18.2496, -150.343, -96.4914, 114.031
0.916, -1, -4.16739, 9.67136, 18.2552, -150.368, -96.4821, 113.89
0.92, -1, -4.24604, 9.6497, 18.2608, -150.392, -96.4727, 113.748
0.924, -1, -4.3247, 9.62803, 18.2664, -150.416, -96.4633, 113.607
0.928, -1, -4.40337, 9.60636, 18.272, -150.44, -96.4539, 113.465
0.932, -1, -4.48204, 9.58468, 18.2775, -150.465, -96.4445, 113.324
0.936, -1, -4.56073, 9.56301, 18.2831, -150.489, -96.4351, 113.182
0.94, -1, -4.63942, 9.54133, 18.2887, -150.513, -96.4257, 113.041
0.944, -1, -4.71812, 9.51965, 18.2943, -150.538, -96.4163, 112.899
0.948, -1, -4.79683, 9.49797, 18.2999, -150.562, -96.4069, 112.758
0.952, -1, -4.87555, 9.47628, 18.3054, -150.586, -96.3975, 112.616
0.956, -1, -4.95428, 9.4546, 18.311, -150.611, -96.3881, 112.475
0.96, -1, -5.03302, 9.43291, 18.3166, -150.635, -96.3787, 112.333
0.964, -1, -5.11176, 9.41122, 18.3222, -150.659, -96.3693, 112.191
0.968, -1, -5.19052, 9.38952, 18.3278, -150.684, -96.3599, 112.05
0.972, -1, -5.26928, 9.36783, 18.3334, -150.708, -96.3505, 111.908
0.976, -1, -5.34805, 9.34613, 18.339, -150.732, -96.3411, 111.766
0.98, -1, -5.42683, 9.32443, 18.3445, -150.756, -96.3317, 111.625
0.984, -1, -5.50562, 9.30272, 18.3501, -150.781, -96.3223, 111.483
0.988, -1, -5.58442, 9.28102, 18.3557, -150.805, -96.3129, 111.341
0.992, -1, -5.66323, 9.25931, 18.3613, -150.829, -96.3035, 111.2
0.996, -1, -5.74204, 9.2376, 18.3669, -150.854, -96.2941, 111.058
1, -1, -5.82087, 9.21588, 18.3725, -150.878, -96.2846, 110.916
1.004, -1, -5.8997, 9.19417, 18.3781, -150.902, -96.2752, 110.774
1.008, -1, -5.97854, 9.17245, 18.3837, -150.927, -96.2658, 110.633
1.012, -1, -6.05739, 9.15073, 18.3893, -150.951, -96.2564, 110.491
1.016, -1, -6.13625, 9.129, 18.3949, -150.975, -96.247, 110.349
1.02, -1, -6.21512, 9.10728, 18.4004, -151, -96.2376, 110.207
1.024, -1, -6.294, 9.08555, 18.406, -151.024, -96.2281, 110.065
1.027, -1, -6.37289, 9.06382, 18.4116, -151.049, -96.2187, 109.923
1.032, -1, -6.45178, 9.04208, 18.4172, -151.073, -96.2093, 109.781
1.036, -1, -6.53069, 9.02035, 18.4228, -151.097, -96.1999, 109.64
1.04, -1, -6.6096, 8.99861, 18.4284, -151.122, -96.1905, 109.498
1.044, -1, -6.68852, 8.97687, 18.434, -151.146, -96.1811, 109.356
1.048, -1, -6.76745, 8.95513, 18.4396, -151.17, -96.1716, 109.214
1.052, -1, -6.84639, 8.93338, 18.4452, -151.195, -96.1622, 109.072
1.055, -1, -6.92534, 8.91164, 18.4508, -151.219, -96.1528, 108.93
1.06, -1, -7.0043, 8.88989, 18.4564, -151.243, -96.1433, 108.788
1.064, -1, -7.08326, 8.86813, 18.462, -151.268, -96.1339, 108.646
1.068, -1, -7.16224, 8.84638, 18.4676, -151.292, -96.1245, 108.504
1.072, -1, -7.24123, 8.82462, 18.4732, -151.317, -96.1151, 108.362
1.076, -1, -7.32022, 8.80286, 18.4788, -151.341, -96.1056, 108.22
1.08, -1, -7.39922, 8.7811, 18.4844, -151.365, -96.0962, 108.078
1.084, -1, -7.47824, 8.75933, 18.49, -151.39, -96.0868, 107.935
1.088, -1, -7.55726, 8.73756, 18.4956, -151.414, -96.0773, 107.793
1.091, -1, -7.63629, 8.71579, 18.5012, -151.439, -96.0679, 107.651
1.096, -1, -7.71533, 8.69402, 18.5068, -151.463, -96.0584, 107.509
1.1, -1, -7.79438, 8.67225, 18.5125, -151.487, -96.049, 107.367
1.104, -1, -7.87344, 8.65047, 18.5181, -151.512, -96.0396, 107.225
1.108, -1, -7.9525, 8.62869, 18.5237, -151.536, -96.0301, 107.083
1.112, -1, -8.03158, 8.6069, 18.5293, -151.561, -96.0207, 106.94
1.116, -1, -8.11067, 8.58512, 18.5349, -151.585, -96.0112, 106.798
1.119, -1, -8.18976, 8.56333, 18.5405, -151.609, -96.0018, 106.656
1.124, -1, -8.26886, 8.54154, 18.5461, -151.634, -95.9924, 106.514
1.128, -1, -8.34798, 8.51975, 18.5517, -151.658, -95.9829, 106.371
1.132, -1, -8.4271, 8.49795, 18.5573, -151.683, -95.9735, 106.229
1.136, -1, -8.50623, 8.47615, 18.5629, -151.707, -95.964, 106.087
1.14, -1, -8.58538, 8.45435, 18.5686, -151.732, -95.9546, 105.944
1.144, -1, -8.66453, 8.43255, 18.5742, -151.756, -95.9451, 105.802
1.147, -1, -8.74369, 8.41074, 18.5798, -151.78, -95.9357, 105.66
1.152, -1, -8.82286, 8.38893, 18.5854, -151.805, -95.9262, 105.517
1.156, -1, -8.90204, 8.36712, 18.591, -151.829, -95.9168, 105.375
1.16, -1, -8.98123, 8.34531, 18.5966, -151.854, -95.9073, 105.232
1.164, -1, -9.06043, 8.32349, 18.6022, -151.878, -95.8978, 105.09
1.168, -1, -9.13964, 8.30167, 18.6079, -151.903, -95.8884, 104.947
1.172, -1, -9.21885, 8.27985, 18.6135, -151.927, -95.8789, 104.805
1.175, -1, -9.29808, 8.25803, 18.6191, -151.952, -95.8695, 104.663
1.18, -1, -9.37732, 8.2362, 18.6247, -151.976, -95.86, 104.52
1.184, -1, -9.45656, 8.21437, 18.6303, -152.001, -95.8505, 104.378
1.188, -1, -9.53582, 8.19254, 18.636, -152.025, -95.8411, 104.235
1.192, -1, -9.61509, 8.1707, 18.6416, -152.049, -95.8316, 104.092
1.196, -1, -9.69436, 8.14886, 18.6472, -152.074, -95.8222, 103.95
1.2, -1, -9.77365, 8.12702, 18.6528, -152.098, -95.8127, 103.807
1.204, -1, -9.85294, 8.10518, 18.6585, -152.123, -95.8032, 103.665
1.208, -1, -9.93224, 8.08333, 18.6641, -152.147, -95.7938, 103.522
1.212, -1, -10.0116, 8.06149, 18.6697, -152.172, -95.7843, 103.379
1.216, -1, -10.0909, 8.03963, 18.6753, -152.196, -95.7748, 103.237
1.22, -1, -10.1702, 8.01778, 18.681, -152.221, -95.7653, 103.094
1.224, -1, -10.2496, 7.99592, 18.6866, -152.245, -95.7559, 102.951
1.228, -1, -10.3289, 7.97407, 18.6922, -152.27, -95.7464, 102.809
1.232, -1, -10.4083, 7.95221, 18.6978, -152.294, -95.7369, 102.666
1.236, -1, -10.4876, 7.93034, 18.7035, -152.319, -95.7274, 102.523
1.24, -1, -10.567, 7.90847, 18.7091, -152.343, -95.718, 102.38
1.244, -1, -10.6464, 7.8866, 18.7147, -152.368, -95.7085, 102.238
1.248, -1, -10.7258, 7.86473, 18.7204, -152.392, -95.699, 102.095
1.252, -1, -10.8052, 7.84286, 18.726, -152.417, -95.6895, 101.952
1.256, -1, -10.8846, 7.82098, 18.7316, -152.441, -95.68, 101.809
1.26, -1, -10.9641, 7.7991, 18.7373, -152.466, -95.6706, 101.666
1.264, -1, -11.0435, 7.77722, 18.7429, -152.49, -95.6611, 101.523
1.267, -1, -11.123, 7.75533, 18.7485, -152.515, -95.6516, 101.381
1.272, -1, -11.2024, 7.73344, 18.7542, -152.539, -95.6421, 101.238
1.276, -1, -11.2819, 7.71155, 18.7598, -152.564, -95.6326, 101.095
1.28, -1, -11.3614, 7.68966, 18.7654, -152.589, -95.6231, 100.952
1.284, -1, -11.4408, 7.66776, 18.7711, -152.613, -95.6136, 100.809
1.288, -1, -11.5203, 7.64587, 18.7767, -152.638, -95.6041, 100.666
1.292, -1, -11.5998, 7.62396, 18.7824, -152.662, -95.5946, 100.523
1.295, -1, -11.6794, 7.60206, 18.788, -152.687, -95.5851, 100.38
1.3, -1, -11.7589, 7.58015, 18.7936, -152.711, -95.5757, 100.237
1.304, -1, -11.8384, 7.55824, 18.7993, -152.736, -95.5662, 100.094
1.308, -1, -11.918, 7.53633, 18.8049, -152.76, -95.5567, 99.9508
1.312, -1, -11.9975, 7.51442, 18.8106, -152.785, -95.5472, 99.8077
1.316, -1, -12.0771, 7.4925, 18.8162, -152.81, -95.5377, 99.6646
1.32, -1, -12.1567, 7.47058, 18.8218, -152.834, -95.5282, 99.5215
1.324, -1, -12.2362, 7.44866, 18.8275, -152.859, -95.5187, 99.3784
1.328, -1, -12.3158, 7.42673, 18.8331, -152.883, -95.5092, 99.2352
1.332, -1, -12.3954, 7.4048, 18.8388, -152.908, -95.4996, 99.092
1.336, -1, -12.4751, 7.38287, 18.8444, -152.932, -95.4901, 98.9489
1.34, -1, -12.5547, 7.36094, 18.8501, -152.957, -95.4806, 98.8057
1.344, -1, -12.6343, 7.339, 18.8557, -152.982, -95.4711, 98.6624
1.348, -1, -12.714, 7.31706, 18.8614, -153.006, -95.4616, 98.5192
1.352, -1, -12.7936, 7.29512, 18.867, -153.031, -95.4521, 98.376
1.356, -1, -12.8733, 7.27318, 18.8727, -153.055, -95.4426, 98.2327
1.36, -1, -12.9529, 7.25123, 18.8783, -153.08, -95.4331, 98.0894
1.364, -1, -13.0326, 7.22928, 18.884, -153.104, -95.4236, 97.9461
1.368, -1, -13.1123, 7.20733, 18.8896, -153.129, -95.4141, 97.8028
1.372, -1, -13.192, 7.18537, 18.8953, -153.154, -95.4045, 97.6594
1.376, -1, -13.2717, 7.16341, 18.9009, -153.178, -95.395, 97.5161
1.38, -1, -13.3515, 7.14145, 18.9066, -153.203, -95.3855, 97.3727
1.384, -1, -13.4312, 7.11949, 18.9122, -153.228, -95.376, 97.2293
1.388, -1, -13.5109, 7.09752, 18.9179, -153.252, -95.3665, 97.0859
1.392, -1, -13.5907, 7.07555, 18.9236, -153.277, -95.3569, 96.9425
1.396, -1, -13.6704, 7.05358, 18.9292, -153.301, -95.3474, 96.799
1.4, -1, -13.7502, 7.03161, 18.9349, -153.326, -95.3379, 96.6555
1.404, -1, -13.83, 7.00963, 18.9405, -153.351, -95.3284, 96.5121
1.408, -1, -13.9098, 6.98765, 18.9462, -153.375, -95.3188, 96.3686
1.412, -1, -13.9896, 6.96567, 18.9518, -153.4, -95.3093, 96.2251
1.416, -1, -14.0694, 6.94368, 18.9575, -153.425, -95.2998, 96.0815
1.42, -1, -14.1492, 6.92169, 18.9632, -153.449, -95.2903, 95.938
1.424, -1, -14.2291, 6.8997, 18.9688, -153.474, -95.2807, 95.7944
1.428, -1, -14.3089, 6.87771, 18.9745, -153.498, -95.2712, 95.6508
1.432, -1, -14.3887, 6.85571, 18.9802, -153.523, -95.2617, 95.5072
1.436, -1, -14.4686, 6.83372, 18.9858, -153.548, -95.2521, 95.3636
1.44, -1, -14.5485, 6.81171, 18.9915, -153.572, -95.2426, 95.2199
1.444, -1, -14.6284, 6.78971, 18.9971, -153.597, -95.233, 95.0763
1.448, -1, -14.7082, 6.7677, 19.0028, -153.622, -95.2235, 94.9326
1.452, -1, -14.7881, 6.74569, 19.0085, -153.646, -95.214, 94.7889
1.456, -1, -14.8681, 6.72368, 19.0141, -153.671, -95.2044, 94.6452
1.46, -1, -14.948, 6.70166, 19.0198, -153.696, -95.1949, 94.5014
1.464, -1, -15.0279, 6.67964, 19.0255, -153.72, -95.1853, 94.3577
1.468, -1, -15.1079, 6.65762, 19.0312, -153.745, -95.1758, 94.2139
1.472, -1, -15.1878, 6.6356, 19.0368, -153.77, -95.1662, 94.0701
1.476, -1, -15.2678, 6.61357, 19.0425, -153.795, -95.1567, 93.9263
1.48, -1, -15.3477, 6.59154, 19.0482, -153.819, -95.1471, 93.7825
1.484, -1, -15.4277, 6.56951, 19.0538, -153.844, -95.1376, 93.6386
1.488, -1, -15.5077, 6.54747, 19.0595, -153.869, -95.128, 93.4948
1.492, -1, -15.5877, 6.52544, 19.0652, -153.893, -95.1185, 93.3509
1.496, -1, -15.6677, 6.50339, 19.0709, -153.918, -95.1089, 93.207
1.5, -1, -15.7478, 6.48135, 19.0765, -153.943, -95.0994, 93.0631
1.504, -1, -15.8278, 6.4593, 19.0822, -153.967, -95.0898, 92.9191
1.508, -1, -15.9078, 6.43725, 19.0879, -153.992, -95.0803, 92.7752
1.512, -1, -15.9879, 6.4152, 19.0936, -154.017, -95.0707, 92.6312
1.516, -1, -16.068, 6.39314, 19.0992, -154.042, -95.0612, 92.4872
1.52, -1, -16.148, 6.37109, 19.1049, -154.066, -95.0516, 92.3432
1.524, -1, -16.2281, 6.34902, 19.1106, -154.091, -95.042, 92.1991
1.528, -1, -16.3082, 6.32696, 19.1163, -154.116, -95.0325, 92.0551
1.532, -1, -16.3883, 6.30489, 19.122, -154.14, -95.0229, 91.911
1.536, -1, -16.4685, 6.28282, 19.1277, -154.165, -95.0133, 91.7669
1.54, -1, -16.5486, 6.26075, 19.1333, -154.19, -95.0038, 91.6228
1.544, -1, -16.6287, 6.23867, 19.139, -154.215, -94.9942, 91.4787
1.548, -1, -16.7089, 6.21659, 19.1447, -154.239, -94.9846, 91.3345
1.552, -1, -16.789, 6.19451, 19.1504, -154.264, -94.9751, 91.1904
1.556, -1, -16.8692, 6.17243, 19.1561, -154.289, -94.9655, 91.0462
1.56, -1, -16.9494, 6.15034, 19.1618, -154.314, -94.9559, 90.902
1.564, -1, -17.0296, 6.12825, 19.1674, -154.338, -94.9463, 90.7577
1.568, -1, -17.1098, 6.10616, 19.1731, -154.363, -94.9368, 90.6135
1.572, -1, -17.19, 6.08406, 19.1788, -154.388, -94.9272, 90.4692
1.576, -1, -17.2702, 6.06196, 19.1845, -154.413, -94.9176, 90.325
1.58, -1, -17.3505, 6.03986, 19.1902, -154.437, -94.908, 90.1807
1.584, -1, -17.4307, 6.01775, 19.1959, -154.462, -94.8985, 90.0363
1.588, -1, -17.511, 5.99564, 19.2016, -154.487, -94.8889, 89.892
1.592, -1, -17.5912, 5.97353, 19.2073, -154.512, -94.8793, 89.7476
1.596, -1, -17.6715, 5.95142, 19.213, -154.537, -94.8697, 89.6033
1.6, -1, -17.7518, 5.9293, 19.2187, -154.561, -94.8601, 89.4589
1.604, -1, -17.8321, 5.90718, 19.2244, -154.586, -94.8505, 89.3145
1.608, -1, -17.9124, 5.88506, 19.2301, -154.611, -94.8409, 89.17
1.612, -1, -17.9927, 5.86293, 19.2358, -154.636, -94.8313, 89.0256
1.616, -1, -18.0731, 5.8408, 19.2415, -154.661, -94.8217, 88.8811
1.62, -1, -18.1534, 5.81867, 19.2472, -154.685, -94.8122, 88.7366
1.624, -1, -18.2338, 5.79654, 19.2529, -154.71, -94.8026, 88.5921
1.628, -1, -18.3141, 5.7744, 19.2586, -154.735, -94.793, 88.4476
1.632, -1, -18.3945, 5.75226, 19.2643, -154.76, -94.7834, 88.303
1.636, -1, -18.4749, 5.73012, 19.27, -154.785, -94.7738, 88.1584
1.64, -1, -18.5553, 5.70797, 19.2757, -154.809, -94.7642, 88.0138
1.644, -1, -18.6357, 5.68582, 19.2814, -154.834, -94.7546, 87.8692
1.648, -1, -18.7161, 5.66367, 19.2871, -154.859, -94.745, 87.7246
1.652, -1, -18.7965, 5.64151, 19.2928, -154.884, -94.7354, 87.58
1.656, -1, -18.877, 5.61936, 19.2985, -154.909, -94.7258, 87.4353
1.66, -1, -18.9574, 5.59719, 19.3042, -154.934, -94.7162, 87.2906
1.664, -1, -19.0379, 5.57503, 19.3099, -154.958, -94.7066, 87.1459
1.668, -1, -19.1184, 5.55286, 19.3156, -154.983, -94.6969, 87.0012
1.672, -1, -19.1988, 5.53069, 19.3213, -155.008, -94.6873, 86.8564
1.676, -1, -19.2793, 5.50852, 19.327, -155.033, -94.6777, 86.7117
1.68, -1, -19.3598, 5.48634, 19.3327, -155.058, -94.6681, 86.5669
1.684, -1, -19.4403, 5.46417, 19.3384, -155.083, -94.6585, 86.4221
1.688, -1, -19.5209, 5.44198, 19.3441, -155.108, -94.6489, 86.2773
1.692, -1, -19.6014, 5.4198, 19.3499, -155.132, -94.6393, 86.1324
1.696, -1, -19.6819, 5.39761, 19.3556, -155.157, -94.6297, 85.9876
1.7, -1, -19.7625, 5.37542, 19.3613, -155.182, -94.62, 85.8427
1.704, -1, -19.8431, 5.35323, 19.367, -155.207, -94.6104, 85.6978
1.708, -1, -19.9237, 5.33103, 19.3727, -155.232, -94.6008, 85.5529
1.712, -1, -20.0042, 5.30883, 19.3784, -155.257, -94.5912, 85.408
1.716, -1, -20.0848, 5.28663, 19.3841, -155.282, -94.5816, 85.263
1.72, -1, -20.1654, 5.26442, 19.3899, -155.307, -94.5719, 85.118
1.724, -1, -20.2461, 5.24221, 19.3956, -155.331, -94.5623, 84.973
1.728, -1, -20.3267, 5.22, 19.4013, -155.356, -94.5527, 84.828
1.732, -1, -20.4073, 5.19779, 19.407, -155.381, -94.543, 84.683
1.736, -1, -20.488, 5.17557, 19.4127, -155.406, -94.5334, 84.5379
1.74, -1, -20.5687, 5.15335, 19.4185, -155.431, -94.5238, 84.3929
1.744, -1, -20.6493, 5.13113, 19.4242, -155.456, -94.5141, 84.2478
1.748, -1, -20.73, 5.1089, 19.4299, -155.481, -94.5045, 84.1027
1.752, -1, -20.8107, 5.08667, 19.4356, -155.506, -94.4949, 83.9575
1.756, -1, -20.8914, 5.06444, 19.4413, -155.531, -94.4852, 83.8124
1.76, -1, -20.9722, 5.0422, 19.4471, -155.556, -94.4756, 83.6672
1.764, -1, -21.0529, 5.01996, 19.4528, -155.58, -94.466, 83.522
1.768, -1, -21.1336, 4.99772, 19.4585, -155.605, -94.4563, 83.3768
1.772, -1, -21.2144, 4.97548, 19.4643, -155.63, -94.4467, 83.2316
1.776, -1, -21.2951, 4.95323, 19.47, -155.655, -94.437, 83.0863
1.78, -1, -21.3759, 4.93098, 19.4757, -155.68, -94.4274, 82.9411
1.784, -1, -21.4567, 4.90873, 19.4814, -155.705, -94.4177, 82.7958
1.788, -1, -21.5375, 4.88647, 19.4872, -155.73, -94.4081, 82.6505
1.792, -1, -21.6183, 4.86421, 19.4929, -155.755, -94.3985, 82.5051
1.796, -1, -21.6991, 4.84195, 19.4986, -155.78, -94.3888, 82.3598
1.8, -1, -21.7799, 4.81968, 19.5044, -155.805, -94.3792, 82.2144
1.804, -1, -21.8608, 4.79742, 19.5101, -155.83, -94.3695, 82.069
1.808, -1, -21.9416, 4.77515, 19.5158, -155.855, -94.3598, 81.9236
1.812, -1, -22.0225, 4.75287, 19.5216, -155.88, -94.3502, 81.7782
1.816, -1, -22.1034, 4.73059, 19.5273, -155.905, -94.3405, 81.6328
1.82, -1, -22.1842, 4.70831, 19.533, -155.93, -94.3309, 81.4873
1.824, -1, -22.2651, 4.68603, 19.5388, -155.955, -94.3212, 81.3418
1.828, -1, -22.346, 4.66374, 19.5445, -155.98, -94.3116, 81.1963
1.832, -1, -22.427, 4.64145, 19.5503, -156.005, -94.3019, 81.0508
1.836, -1, -22.5079, 4.61916, 19.556, -156.03, -94.2922, 80.9053
1.84, -1, -22.5888, 4.59686, 19.5617, -156.055, -94.2826, 80.7597
1.844, -1, -22.6698, 4.57456, 19.5675, -156.08, -94.2729, 80.6141
1.848, -1, -22.7507, 4.55226, 19.5732, -156.105, -94.2632, 80.4685
1.852, -1, -22.8317, 4.52996, 19.579, -156.13, -94.2536, 80.3229
1.856, -1, -22.9127, 4.50765, 19.5847, -156.155, -94.2439, 80.1772
1.86, -1, -22.9937, 4.48534, 19.5904, -156.18, -94.2342, 80.0316
1.864, -1, -23.0747, 4.46302, 19.5962, -156.205, -94.2246, 79.8859
1.868, -1, -23.1557, 4.4407, 19.6019, -156.23, -94.2149, 79.7402
1.872, -1, -23.2367, 4.41838, 19.6077, -156.255, -94.2052, 79.5944
1.876, -1, -23.3178, 4.39606, 19.6134, -156.28, -94.1955, 79.4487
1.88, -1, -23.3988, 4.37373, 19.6192, -156.305, -94.1859, 79.3029
1.884, -1, -23.4799, 4.3514, 19.6249, -156.33, -94.1762, 79.1571
1.888, -1, -23.561, 4.32907, 19.6307, -156.355, -94.1665, 79.0113
1.892, -1, -23.6421, 4.30673, 19.6364, -156.38, -94.1568, 78.8655
1.896, -1, -23.7232, 4.28439, 19.6422, -156.405, -94.1471, 78.7196
1.9, -1, -23.8043, 4.26205, 19.6479, -156.43, -94.1375, 78.5738
1.904, -1, -23.8854, 4.2397, 19.6537, -156.455, -94.1278, 78.4279
1.908, -1, -23.9665, 4.21735, 19.6594, -156.48, -94.1181, 78.282
1.912, -1, -24.0477, 4.195, 19.6652, -156.505, -94.1084, 78.136
1.916, -1, -24.1288, 4.17264, 19.671, -156.53, -94.0987, 77.9901
1.92, -1, -24.21, 4.15028, 19.6767, -156.555, -94.089, 77.8441
1.924, -1, -24.2912, 4.12792, 19.6825, -156.58, -94.0793, 77.6981
1.928, -1, -24.3724, 4.10556, 19.6882, -156.605, -94.0696, 77.5521
1.932, -1, -24.4536, 4.08319, 19.694, -156.63, -94.0599, 77.406
1.936, -1, -24.5348, 4.06082, 19.6997, -156.655, -94.0502, 77.26
1.94, -1, -24.616, 4.03844, 19.7055, -156.68, -94.0405, 77.1139
1.944, -1, -24.6972, 4.01606, 19.7113, -156.706, -94.0308, 76.9678
1.948, -1, -24.7785, 3.99368, 19.717, -156.731, -94.0211, 76.8217
1.952, -1, -24.8598, 3.9713, 19.7228, -156.756, -94.0114, 76.6755
1.956, -1, -24.941, 3.94891, 19.7286, -156.781, -94.0017, 76.5294
1.96, -1, -25.0223, 3.92652, 19.7343, -156.806, -93.992, 76.3832
1.964, -1, -25.1036, 3.90413, 19.7401, -156.831, -93.9823, 76.237
1.968, -1, -25.1849, 3.88173, 19.7459, -156.856, -93.9726, 76.0907
1.972, -1, -25.2662, 3.85933, 19.7516, -156.881, -93.9629, 75.9445
1.976, -1, -25.3476, 3.83693, 19.7574, -156.906, -93.9532, 75.7982
1.98, -1, -25.4289, 3.81452, 19.7632, -156.931, -93.9435, 75.6519
1.984, -1, -25.5103, 3.79211, 19.7689, -156.957, -93.9338, 75.5056
1.988, -1, -25.5916, 3.7697, 19.7747, -156.982, -93.924, 75.3593
1.992, -1, -25.673, 3.74728, 19.7805, -157.007, -93.9143, 75.2129
1.996, -1, -25.7544, 3.72486, 19.7862, -157.032, -93.9046, 75.0666
1.999, -1, -25.8358, 3.70244, 19.792, -157.057, -93.8949, 74.9202
2.004, -1, -25.9172, 3.68001, 19.7978, -157.082, -93.8852, 74.7738
2.008, -1, -25.9986, 3.65758, 19.8036, -157.107, -93.8755, 74.6273
2.012, -1, -26.08, 3.63515, 19.8093, -157.132, -93.8657, 74.4809
2.015, -1, -26.1615, 3.61272, 19.8151, -157.158, -93.856, 74.3344
2.019, -1, -26.2429, 3.59028, 19.8209, -157.183, -93.8463, 74.1879
2.024, -1, -26.3244, 3.56784, 19.8267, -157.208, -93.8366, 74.0414
2.028, -1, -26.4059, 3.54539, 19.8325, -157.233, -93.8268, 73.8949
2.031, -1, -26.4874, 3.52294, 19.8382, -157.258, -93.8171, 73.7483
2.036, -1, -26.5689, 3.50049, 19.844, -157.283, -93.8074, 73.6017
2.04, -1, -26.6504, 3.47804, 19.8498, -157.309, -93.7976, 73.4551
2.044, -1, -26.7319, 3.45558, 19.8556, -157.334, -93.7879, 73.3085
2.048, -1, -26.8135, 3.43312, 19.8614, -157.359, -93.7782, 73.1619
2.051, -1, -26.895, 3.41065, 19.8671, -157.384, -93.7684, 73.0152
2.055, -1, -26.9766, 3.38819, 19.8729, -157.409, -93.7587, 72.8685
2.06, -1, -27.0581, 3.36572, 19.8787, -157.434, -93.7489, 72.7218
2.064, -1, -27.1397, 3.34324, 19.8845, -157.46, -93.7392, 72.5751
2.068, -1, -27.2213, 3.32077, 19.8903, -157.485, -93.7295, 72.4283
2.071, -1, -27.3029, 3.29829, 19.8961, -157.51, -93.7197, 72.2816
2.076, -1, -27.3845, 3.2758, 19.9019, -157.535, -93.71, 72.1348
2.08, -1, -27.4662, 3.25332, 19.9077, -157.56, -93.7002, 71.988
2.084, -1, -27.5478, 3.23083, 19.9134, -157.586, -93.6905, 71.8411
2.087, -1, -27.6295, 3.20833, 19.9192, -157.611, -93.6807, 71.6943
2.092, -1, -27.7111, 3.18584, 19.925, -157.636, -93.671, 71.5474
2.096, -1, -27.7928, 3.16334, 19.9308, -157.661, -93.6612, 71.4005
2.1, -1, -27.8745, 3.14084, 19.9366, -157.686, -93.6515, 71.2536
2.104, -1, -27.9562, 3.11833, 19.9424, -157.712, -93.6417, 71.1067
2.107, -1, -28.0379, 3.09582, 19.9482, -157.737, -93.632, 70.9597
2.111, -1, -28.1196, 3.07331, 19.954, -157.762, -93.6222, 70.8127
2.116, -1, -28.2014, 3.0508, 19.9598, -157.787, -93.6124, 70.6657
2.12, -1, -28.2831, 3.02828, 19.9656, -157.813, -93.6027, 70.5187
2.124, -1, -28.3649, 3.00576, 19.9714, -157.838, -93.5929, 70.3717
2.127, -1, -28.4466, 2.98323, 19.9772, -157.863, -93.5832, 70.2246
2.132, -1, -28.5284, 2.9607, 19.983, -157.888, -93.5734, 70.0776
2.136, -1, -28.6102, 2.93817, 19.9888, -157.914, -93.5636, 69.9305
2.14, -1, -28.692, 2.91564, 19.9946, -157.939, -93.5539, 69.7833
2.143, -1, -28.7738, 2.8931, 20.0004, -157.964, -93.5441, 69.6362
2.148, -1, -28.8557, 2.87056, 20.0062, -157.989, -93.5343, 69.489
2.152, -1, -28.9375, 2.84801, 20.012, -158.015, -93.5246, 69.3418
2.156, -1, -29.0194, 2.82547, 20.0178, -158.04, -93.5148, 69.1946
2.16, -1, -29.1012, 2.80292, 20.0236, -158.065, -93.505, 69.0474
2.163, -1, -29.1831, 2.78036, 20.0294, -158.09, -93.4952, 68.9002
2.168, -1, -29.265, 2.75781, 20.0352, -158.116, -93.4855, 68.7529
2.172, -1, -29.3469, 2.73525, 20.041, -158.141, -93.4757, 68.6056
2.176, -1, -29.4288, 2.71268, 20.0469, -158.166, -93.4659, 68.4583
2.179, -1, -29.5107, 2.69012, 20.0527, -158.192, -93.4561, 68.311
2.184, -1, -29.5926, 2.66755, 20.0585, -158.217, -93.4463, 68.1636
2.188, -1, -29.6746, 2.64497, 20.0643, -158.242, -93.4365, 68.0162
2.192, -1, -29.7565, 2.6224, 20.0701, -158.267, -93.4268, 67.8688
2.196, -1, -29.8385, 2.59982, 20.0759, -158.293, -93.417, 67.7214
2.199, -1, -29.9205, 2.57723, 20.0817, -158.318, -93.4072, 67.574
2.204, -1, -30.0025, 2.55465, 20.0875, -158.343, -93.3974, 67.4265
2.208, -1, -30.0845, 2.53206, 20.0934, -158.369, -93.3876, 67.279
2.212, -1, -30.1665, 2.50946, 20.0992, -158.394, -93.3778, 67.1315
2.216, -1, -30.2485, 2.48687, 20.105, -158.419, -93.368, 66.984
2.219, -1, -30.3306, 2.46427, 20.1108, -158.445, -93.3582, 66.8365
2.224, -1, -30.4126, 2.44167, 20.1166, -158.47, -93.3484, 66.6889
2.228, -1, -30.4947, 2.41906, 20.1224, -158.495, -93.3386, 66.5413
2.232, -1, -30.5768, 2.39645, 20.1283, -158.521, -93.3288, 66.3937
2.235, -1, -30.6589, 2.37384, 20.1341, -158.546, -93.319, 66.2461
2.24, -1, -30.741, 2.35122, 20.1399, -158.571, -93.3092, 66.0984
2.244, -1, -30.8231, 2.3286, 20.1457, -158.597, -93.2994, 65.9507
2.248, -1, -30.9052, 2.30598, 20.1516, -158.622, -93.2896, 65.803
2.252, -1, -30.9873, 2.28335, 20.1574, -158.647, -93.2798, 65.6553
2.255, -1, -31.0695, 2.26072, 20.1632, -158.673, -93.27, 65.5076
2.259, -1, -31.1516, 2.23809, 20.169, -158.698, -93.2602, 65.3598
2.264, -1, -31.2338, 2.21545, 20.1749, -158.724, -93.2504, 65.212
2.268, -1, -31.316, 2.19282, 20.1807, -158.749, -93.2406, 65.0642
2.272, -1, -31.3982, 2.17017, 20.1865, -158.774, -93.2308, 64.9164
2.275, -1, -31.4804, 2.14753, 20.1924, -158.8, -93.2209, 64.7685
2.28, -1, -31.5626, 2.12488, 20.1982, -158.825, -93.2111, 64.6207
2.284, -1, -31.6449, 2.10222, 20.204, -158.85, -93.2013, 64.4728
2.288, -1, -31.7271, 2.07957, 20.2099, -158.876, -93.1915, 64.3248
2.291, -1, -31.8094, 2.05691, 20.2157, -158.901, -93.1816, 64.1769
2.296, -1, -31.8916, 2.03425, 20.2215, -158.927, -93.1718, 64.0289
2.3, -1, -31.9739, 2.01158, 20.2274, -158.952, -93.162, 63.881
2.304, -1, -32.0562, 1.98891, 20.2332, -158.977, -93.1522, 63.733
2.308, -1, -32.1385, 1.96624, 20.239, -159.003, -93.1423, 63.5849
2.311, -1, -32.2208, 1.94356, 20.2449, -159.028, -93.1325, 63.4369
2.316, -1, -32.3032, 1.92088, 20.2507, -159.054, -93.1227, 63.2888
2.32, -1, -32.3855, 1.8982, 20.2566, -159.079, -93.1129, 63.1407
2.324, -1, -32.4679, 1.87551, 20.2624, -159.104, -93.103, 62.9926
2.328, -1, -32.5502, 1.85282, 20.2682, -159.13, -93.0932, 62.8445
2.331, -1, -32.6326, 1.83013, 20.2741, -159.155, -93.0834, 62.6963
2.336, -1, -32.715, 1.80744, 20.2799, -159.181, -93.0735, 62.5481
2.34, -1, -32.7974, 1.78474, 20.2858, -159.206, -93.0637, 62.3999
2.344, -1, -32.8798, 1.76203, 20.2916, -159.232, -93.0538, 62.2517
2.347, -1, -32.9623, 1.73933, 20.2975, -159.257, -93.044, 62.1035
2.352, -1, -33.0447, 1.71662, 20.3033, -159.283, -93.0342, 61.9552
2.356, -1, -33.1272, 1.69391, 20.3092, -159.308, -93.0243, 61.8069
2.36, -1, -33.2096, 1.67119, 20.315, -159.333, -93.0145, 61.6586
2.364, -1, -33.2921, 1.64847, 20.3209, -159.359, -93.0046, 61.5103
2.367, -1, -33.3746, 1.62575, 20.3267, -159.384, -92.9948, 61.3619
2.372, -1, -33.4571, 1.60302, 20.3326, -159.41, -92.9849, 61.2136
2.376, -1, -33.5396, 1.58029, 20.3384, -159.435, -92.9751, 61.0652
2.38, -1, -33.6221, 1.55756, 20.3443, -159.461, -92.9652, 60.9167
2.383, -1, -33.7047, 1.53482, 20.3501, -159.486, -92.9554, 60.7683
2.388, -1, -33.7872, 1.51208, 20.356, -159.512, -92.9455, 60.6198
2.392, -1, -33.8698, 1.48934, 20.3618, -159.537, -92.9356, 60.4714
2.396, -1, -33.9523, 1.46659, 20.3677, -159.563, -92.9258, 60.3229
2.4, -1, -34.0349, 1.44385, 20.3735, -159.588, -92.9159, 60.1743
2.403, -1, -34.1175, 1.42109, 20.3794, -159.614, -92.9061, 60.0258
2.408, -1, -34.2001, 1.39834, 20.3853, -159.639, -92.8962, 59.8772
2.412, -1, -34.2827, 1.37558, 20.3911, -159.665, -92.8863, 59.7286
2.416, -1, -34.3654, 1.35282, 20.397, -159.69, -92.8765, 59.58
2.42, -1, -34.448, 1.33005, 20.4028, -159.716, -92.8666, 59.4314
2.423, -1, -34.5307, 1.30728, 20.4087, -159.741, -92.8567, 59.2827
2.428, -1, -34.6133, 1.28451, 20.4146, -159.767, -92.8469, 59.1341
2.432, -1, -34.696, 1.26173, 20.4204, -159.792, -92.837, 58.9854
2.436, -1, -34.7787, 1.23895, 20.4263, -159.818, -92.8271, 58.8366
2.439, -1, -34.8614, 1.21617, 20.4322, -159.843, -92.8172, 58.6879
2.444, -1, -34.9441, 1.19338, 20.438, -159.869, -92.8074, 58.5391
2.448, -1, -35.0269, 1.17059, 20.4439, -159.895, -92.7975, 58.3903
2.452, -1, -35.1096, 1.1478, 20.4498, -159.92, -92.7876, 58.2415
2.456, -1, -35.1924, 1.12501, 20.4556, -159.946, -92.7777, 58.0927
2.459, -1, -35.2751, 1.10221, 20.4615, -159.971, -92.7678, 57.9438
2.464, -1, -35.3579, 1.07941, 20.4674, -159.997, -92.758, 57.795
2.468, -1, -35.4406, 1.05662, 20.4733, -160.022, -92.7481, 57.6461
2.472, -1, -35.523, 1.03387, 20.4792, -160.048, -92.7382, 57.4972
2.476, -1, -35.605, 1.01121, 20.4851, -160.073, -92.7283, 57.3483
2.479, -1, -35.6865, 0.988667, 20.4911, -160.099, -92.7184, 57.1995
2.484, -1, -35.7672, 0.966298, 20.4972, -160.124, -92.7085, 57.051
2.488, -1, -35.847, 0.944146, 20.5034, -160.15, -92.6987, 56.9029
2.492, -1, -35.9259, 0.922258, 20.5096, -160.175, -92.6889, 56.7554
2.495, -1, -36.0037, 0.900683, 20.5159, -160.2, -92.6791, 56.609
2.5, -1, -36.0803, 0.879491, 20.5223, -160.225, -92.6695, 56.4641
2.504, -1, -36.1553, 0.858768, 20.5286, -160.249, -92.6599, 56.3211
2.508, -1, -36.2285, 0.838609, 20.535, -160.274, -92.6506, 56.1806
2.512, -1, -36.2995, 0.819101, 20.5413, -160.297, -92.6414, 56.0434
2.515, -1, -36.368, 0.800317, 20.5475, -160.32, -92.6325, 55.91
2.52, -1, -36.4337, 0.782311, 20.5536, -160.342, -92.6239, 55.7815
2.524, -1, -36.4966, 0.765122, 20.5594, -160.363, -92.6157, 55.6584
2.528, -1, -36.5564, 0.748781, 20.5649, -160.383, -92.6079, 55.5417
2.531, -1, -36.613, 0.733324, 20.57, -160.402, -92.6006, 55.4321
2.536, -1, -36.6662, 0.718795, 20.5747, -160.419, -92.5938, 55.3303
2.54, -1, -36.7158, 0.705238, 20.5788, -160.435, -92.5875, 55.2366
2.544, -1, -36.7617, 0.692686, 20.5824, -160.45, -92.5819, 55.1516
2.548, -1, -36.8038, 0.681145, 20.5854, -160.463, -92.5768, 55.0754
2.551, -1, -36.8422, 0.670598, 20.5879, -160.474, -92.5723, 55.008
2.556, -1, -36.8771, 0.661015, 20.5898, -160.484, -92.5684, 54.9494
2.56, -1, -36.9084, 0.652375, 20.5912, -160.493, -92.5651, 54.8991
2.564, -1, -36.9363, 0.644663, 20.592, -160.5, -92.5624, 54.8568
2.568, -1, -36.9609, 0.637864, 20.5925, -160.507, -92.5601, 54.8217
2.571, -1, -36.9822, 0.63195, 20.5926, -160.512, -92.5582, 54.7933
2.576, -1, -37.0006, 0.626881, 20.5925, -160.515, -92.5568, 54.7705
2.58, -1, -37.0162, 0.622602, 20.5922, -160.519, -92.5556, 54.7528
2.584, -1, -37.0294, 0.61904, 20.5918, -160.521, -92.5548, 54.7392
2.587, -1, -37.0405, 0.616119, 20.5913, -160.523, -92.5542, 54.7291
2.592, -1, -37.0496, 0.613762, 20.5908, -160.524, -92.5537, 54.7217
2.596, -1, -37.057, 0.611903, 20.5903, -160.525, -92.5534, 54.7164
2.6, -1, -37.0629, 0.610477, 20.5899, -160.526, -92.5532, 54.7127
2.604, 2, -37.0674, 0.609421, 20.5896, -160.526, -92.553, 54.7101
2.607, 2, -37.0706, 0.608667, 20.5894, -160.526, -92.5529, 54.7084
2.612, 2, -37.0729, 0.608145, 20.5892, -160.527, -92.5528, 54.7072
2.616, 2, -37.0745, 0.60779, 20.5891, -160.527, -92.5528, 54.7064
2.62, 2, -37.0755, 0.607549, 20.589, -160.527, -92.5528, 54.7059
2.624, 2, -37.0762, 0.607386, 20.589, -160.527, -92.5528, 54.7055
2.627, 2, -37.0767, 0.607275, 20.5889, -160.527, -92.5527, 54.7053
2.632, 2, -37.0771, 0.6072, 20.5889, -160.527, -92.5527, 54.7051
2.636, 2, -37.0773, 0.60715, 20.5889, -160.527, -92.5527, 54.705
2.64, 2, -37.0774, 0.607115, 20.5889, -160.527, -92.5527, 54.7049
2.643, 2, -37.0775, 0.607092, 20.5889, -160.527, -92.5527, 54.7048
2.648, 2, -37.0776, 0.607076, 20.5889, -160.527, -92.5527, 54.7048
2.652, 2, -37.0777, 0.607065, 20.5889, -160.527, -92.5527, 54.7048
2.656, 2, -37.0777, 0.607058, 20.5889, -160.527, -92.5527, 54.7048
2.66, 2, -37.0777, 0.607053, 20.5889, -160.527, -92.5527, 54.7048
2.663, 2, -37.0777, 0.60705, 20.5888, -160.527, -92.5527, 54.7047
2.668, 2, -37.0777, 0.607048, 20.5888, -160.527, -92.5527, 54.7047
2.672, 2, -37.0777, 0.607046, 20.5888, -160.527, -92.5527, 54.7047
2.676, 2, -37.0777, 0.607045, 20.5888, -160.527, -92.5527, 54.7047
2.679, 2, -37.0777, 0.607044, 20.5888, -160.527, -92.5527, 54.7047
2.684, 2, -37.0777, 0.607044, 20.5888, -160.527, -92.5527, 54.7047
2.688, 2, -37.0777, 0.607044, 20.5888, -160.527, -92.5527, 54.7047
2.692, 2, -37.0777, 0.607044, 20.5888, -160.527, -92.5527, 54.7047
2.696, 2, -37.0777, 0.607043, 20.5888, -160.527, -92.5527, 54.7047
2.699, 2, -37.0778, 0.607043, 20.5888, -160.527, -92.5527, 54.7047
2.704, 2, -37.0778, 0.607043, 20.5888, -160.527, -92.5527, 54.7047
2.708, 2, -37.0778, 0.607043, 20.5888, -160.527, -92.5527, 54.7047
2.712, 2, -37.0778, 0.607043, 20.5888, -160.527, -92.5527, 54.7047
2.716, 2, -37.0778, 0.607043, 20.5888, -160.527, -92.5527, 54.7047
2.719, 2, -37.0778, 0.607043, 20.5888, -160.527, -92.5527, 54.7047
2.724, 2, -37.0778, 0.607043, 20.5888, -160.527, -92.5527, 54.7047
2.728, 2, -37.0778, 0.607043, 20.5888, -160.527, -92.5527, 54.7047
2.732, 2, -37.0778, 0.607043, 20.5888, -160.527, -92.5527, 54.7047
2.735, 2, -37.0778, 0.607043, 20.5888, -160.527, -92.5527, 54.7047
2.74, 2, -37.0778, 0.607043, 20.5888, -160.527, -92.5527, 54.7047
2.744, 2, -37.0778, 0.607043, 20.5888, -160.527, -92.5527, 54.7047
2.748, 2, -37.0778, 0.607043, 20.5888, -160.527, -92.5527, 54.7047
2.752, 2, -37.0778, 0.607043, 20.5888, -160.527, -92.5527, 54.7047
2.755, 2, -37.0778, 0.607043, 20.5888, -160.527, -92.5527, 54.7047
2.76, 2, -37.0778, 0.607043, 20.5888, -160.527, -92.5527, 54.7047
2.764, 2, -37.0778, 0.607043, 20.5888, -160.527, -92.5527, 54.7047
2.768, 2, -37.0778, 0.607043, 20.5888, -160.527, -92.5527, 54.7047
2.772, 2, -37.0778, 0.607043, 20.5888, -160.527, -92.5527, 54.7047
2.775, 2, -37.0778, 0.607043, 20.5888, -160.527, -92.5527, 54.7047
2.78, 2, -37.0778, 0.607043, 20.5888, -160.527, -92.5527, 54.7047
2.784, 2, -37.0778, 0.607043, 20.5888, -160.527, -92.5527, 54.7047
2.788, 2, -37.0778, 0.607043, 20.5888, -160.527, -92.5527, 54.7047
2.791, 2, -37.0778, 0.607043, 20.5888, -160.527, -92.5527, 54.7047
2.796, 2, -37.0778, 0.607043, 20.5888, -160.527, -92.5527, 54.7047
2.8, 2, -37.0778, 0.607043, 20.5888, -160.527, -92.5527, 54.7047
2.804, 2, -37.0778, 0.607043, 20.5888, -160.527, -92.5527, 54.7047
2.808, 2, -37.0778, 0.607043, 20.5888, -160.527, -92.5527, 54.7047
2.811, 2, -37.0778, 0.607043, 20.5888, -160.527, -92.5527, 54.7047
2.816, 2, -37.0778, 0.607043, 20.5888, -160.527, -92.5527, 54.7047
2.82, 2, -37.0778, 0.607043, 20.5888, -160.527, -92.5527, 54.7047
2.824, 2, -37.0778, 0.607043, 20.5888, -160.527, -92.5527, 54.7047
2.828, 2, -37.0778, 0.607043, 20.5888, -160.527, -92.5527, 54.7047
2.831, 2, -37.0778, 0.607043, 20.5888, -160.527, -92.5527, 54.7047
2.836, 2, -37.0778, 0.607043, 20.5888, -160.527, -92.5527, 54.7047
2.84, 2, -37.0778, 0.607043, 20.5888, -160.527, -92.5527, 54.7047
2.844, 2, -37.0778, 0.607043, 20.5888, -160.527, -92.5527, 54.7047
2.847, 2, -37.0778, 0.607043, 20.5888, -160.527, -92.5527, 54.7047
2.852, 2, -37.0778, 0.607043, 20.5888, -160.527, -92.5527, 54.7047
2.856, 2, -37.0778, 0.607043, 20.5888, -160.527, -92.5527, 54.7047
2.86, 2, -37.0778, 0.607043, 20.5888, -160.527, -92.5527, 54.7047
2.864, 2, -37.0778, 0.607043, 20.5888, -160.527, -92.5527, 54.7047
2.867, 2, -37.0778, 0.607043, 20.5888, -160.527, -92.5527, 54.7047
2.872, 2, -37.0778, 0.607043, 20.5888, -160.527, -92.5527, 54.7047
2.876, 2, -37.0778, 0.607043, 20.5888, -160.527, -92.5527, 54.7047
2.88, 2, -37.0778, 0.607043, 20.5888, -160.527, -92.5527, 54.7047
2.883, 2, -37.0778, 0.607043, 20.5888, -160.527, -92.5527, 54.7047
2.888, 2, -37.0778, 0.607043, 20.5888, -160.527, -92.5527, 54.7047
2.892, 2, -37.0778, 0.607043, 20.5888, -160.527, -92.5527, 54.7047
2.896, 2, -37.0778, 0.607043, 20.5888, -160.527, -92.5527, 54.7047
2.9, 2, -37.0778, 0.607043, 20.5888, -160.527, -92.5527, 54.7047
2.903, 2, -37.0778, 0.607043, 20.5888, -160.527, -92.5527, 54.7047
2.908, 2, -37.0778, 0.607043, 20.5888, -160.527, -92.5527, 54.7047
2.912, 2, -37.0778, 0.607043, 20.5888, -160.527, -92.5527, 54.7047
2.916, 2, -37.0778, 0.607043, 20.5888, -160.527, -92.5527, 54.7047
2.92, 2, -37.0778, 0.607043, 20.5888, -160.527, -92.5527, 54.7047
2.923, 2, -37.0778, 0.607043, 20.5888, -160.527, -92.5527, 54.7047
2.928, 2, -37.0778, 0.607043, 20.5888, -160.527, -92.5527, 54.7047
2.932, 2, -37.0778, 0.607043, 20.5888, -160.527, -92.5527, 54.7047
2.936, 2, -37.0778, 0.607043, 20.5888, -160.527, -92.5527, 54.7047
2.939, 2, -37.0778, 0.607043, 20.5888, -160.527, -92.5527, 54.7047
2.944, 2, -37.0778, 0.607043, 20.5888, -160.527, -92.5527, 54.7047
2.948, 2, -37.0778, 0.607043, 20.5888, -160.527, -92.5527, 54.7047
2.952, 2, -37.0778, 0.607043, 20.5888, -160.527, -92.5527, 54.7047
2.956, 2, -37.0778, 0.607043, 20.5888, -160.527, -92.5527, 54.7047
2.959, 2, -37.0778, 0.607043, 20.5888, -160.527, -92.5527, 54.7047
2.964, 2, -37.0778, 0.607043, 20.5888, -160.527, -92.5527, 54.7047
2.968, 2, -37.0778, 0.607043, 20.5888, -160.527, -92.5527, 54.7047
2.972, 2, -37.0778, 0.607043, 20.5888, -160.527, -92.5527, 54.7047
2.976, 2, -37.0778, 0.607043, 20.5888, -160.527, -92.5527, 54.7047
2.98, 2, -37.0778, 0.607043, 20.5888, -160.527, -92.5527, 54.7047
2.984, 2, -37.0778, 0.607043, 20.5888, -160.527, -92.5527, 54.7047
2.988, 2, -37.0778, 0.607043, 20.5888, -160.527, -92.5527, 54.7047
2.992, 2, -37.0778, 0.607043, 20.5888, -160.527, -92.5527, 54.7047
2.995, 2, -37.0778, 0.607043, 20.5888, -160.527, -92.5527, 54.7047
3, 2, -37.0778, 0.607043, 20.5888, -160.527, -92.5527, 54.7047
3.004, 2, -37.0778, 0.607043, 20.5888, -160.527, -92.5527, 54.7047
3.008, 2, -37.0778, 0.607043, 20.5888, -160.527, -92.5527, 54.7047
3.012, 2, -37.0778, 0.607043, 20.5888, -160.527, -92.5527, 54.7047
3.015, 2, -37.0778, 0.607043, 20.5888, -160.527, -92.5527, 54.7047
3.02, 2, -37.0778, 0.607043, 20.5888, -160.527, -92.5527, 54.7047
3.024, 2, -37.0778, 0.607043, 20.5888, -160.527, -92.5527, 54.7047
3.028, 2, -37.0778, 0.607043, 20.5888, -160.527, -92.5527, 54.7047
3.031, 2, -37.0778, 0.607043, 20.5888, -160.527, -92.5527, 54.7047
3.036, 2, -37.0778, 0.607043, 20.5888, -160.527, -92.5527, 54.7047
3.04, 2, -37.0778, 0.607043, 20.5888, -160.527, -92.5527, 54.7047
3.044, 2, -37.0778, 0.607043, 20.5888, -160.527, -92.5527, 54.7047
3.048, 2, -37.0778, 0.607043, 20.5888, -160.527, -92.5527, 54.7047
3.051, 2, -37.0778, 0.607043, 20.5888, -160.527, -92.5527, 54.7047
3.056, 2, -37.0778, 0.607043, 20.5888, -160.527, -92.5527, 54.7047
3.06, 2, -37.0778, 0.607043, 20.5888, -160.527, -92.5527, 54.7047
3.064, 2, -37.0778, 0.607043, 20.5888, -160.527, -92.5527, 54.7047
3.068, 2, -37.0778, 0.607043, 20.5888, -160.527, -92.5527, 54.7047
3.071, 2, -37.0778, 0.607043, 20.5888, -160.527, -92.5527, 54.7047
3.076, 2, -37.0778, 0.607043, 20.5888, -160.527, -92.5527, 54.7047
3.08, 2, -37.0778, 0.607043, 20.5888, -160.527, -92.5527, 54.7047
3.084, 2, -37.0778, 0.607043, 20.5888, -160.527, -92.5527, 54.7047
3.087, 2, -37.0778, 0.607043, 20.5888, -160.527, -92.5527, 54.7047
3.092, 2, -37.0778, 0.607043, 20.5888, -160.527, -92.5527, 54.7047
3.096, 2, -37.0778, 0.607043, 20.5888, -160.527, -92.5527, 54.7047
3.1, 2, -37.0778, 0.607043, 20.5888, -160.527, -92.5527, 54.7047
3.104, 2, -37.0778, 0.607043, 20.5888, -160.527, -92.5527, 54.7047
3.107, 2, -37.0778, 0.607043, 20.5888, -160.527, -92.5527, 54.7047
3.112, 2, -37.0778, 0.607043, 20.5888, -160.527, -92.5527, 54.7047
3.116, 2, -37.0778, 0.607043, 20.5888, -160.527, -92.5527, 54.7047
3.12, 2, -37.0778, 0.607043, 20.5888, -160.527, -92.5527, 54.7047
3.124, 2, -37.0778, 0.607043, 20.5888, -160.527, -92.5527, 54.7047
3.128, 2, -37.0778, 0.607043, 20.5888, -160.527, -92.5527, 54.7047
3.132, 2, -37.0778, 0.607043, 20.5888, -160.527, -92.5527, 54.7047
3.136, 2, -37.0778, 0.607043, 20.5888, -160.527, -92.5527, 54.7047
3.14, 2, -37.0778, 0.607043, 20.5888, -160.527, -92.5527, 54.7047
3.143, 2, -37.0778, 0.607043, 20.5888, -160.527, -92.5527, 54.7047
3.148, 2, -37.0778, 0.607043, 20.5888, -160.527, -92.5527, 54.7047
3.152, 2, -37.0778, 0.607043, 20.5888, -160.527, -92.5527, 54.7047
3.156, 2, -37.0778, 0.607043, 20.5888, -160.527, -92.5527, 54.7047
3.16, 2, -37.0778, 0.607043, 20.5888, -160.527, -92.5527, 54.7047
3.163, 2, -37.0778, 0.607043, 20.5888, -160.527, -92.5527, 54.7047
3.168, 2, -37.0778, 0.607043, 20.5888, -160.527, -92.5527, 54.7047
3.172, 2, -37.0778, 0.607043, 20.5888, -160.527, -92.5527, 54.7047
3.176, 2, -37.0778, 0.607043, 20.5888, -160.527, -92.5527, 54.7047
3.179, 2, -37.0778, 0.607043, 20.5888, -160.527, -92.5527, 54.7047
3.184, 2, -37.0778, 0.607043, 20.5888, -160.527, -92.5527, 54.7047
3.188, 2, -37.0778, 0.607043, 20.5888, -160.527, -92.5527, 54.7047
3.192, 2, -37.0778, 0.607043, 20.5888, -160.527, -92.5527, 54.7047
3.196, 2, -37.0778, 0.607043, 20.5888, -160.527, -92.5527, 54.7047
3.199, 2, -37.0778, 0.607043, 20.5888, -160.527, -92.5527, 54.7047
3.204, 2, -37.0778, 0.607043, 20.5888, -160.527, -92.5527, 54.7047
3.208, 2, -37.0778, 0.607043, 20.5888, -160.527, -92.5527, 54.7047
3.212, 2, -37.0778, 0.607043, 20.5888, -160.527, -92.5527, 54.7047
3.216, 2, -37.0778, 0.607043, 20.5888, -160.527, -92.5527, 54.7047
3.22, 2, -37.0778, 0.607043, 20.5888, -160.527, -92.5527, 54.7047
3.224, 2, -37.0778, 0.607043, 20.5888, -160.527, -92.5527, 54.7047
3.228, 2, -37.0778, 0.607043, 20.5888, -160.527, -92.5527, 54.7047
3.232, 2, -37.0778, 0.607043, 20.5888, -160.527, -92.5527, 54.7047
3.235, 2, -37.0778, 0.607043, 20.5888, -160.527, -92.5527, 54.7047
3.24, 2, -37.0778, 0.607043, 20.5888, -160.527, -92.5527, 54.7047
3.244, 2, -37.0778, 0.607043, 20.5888, -160.527, -92.5527, 54.7047
3.248, 2, -37.0778, 0.607043, 20.5888, -160.527, -92.5527, 54.7047
3.252, 2, -37.0778, 0.607043, 20.5888, -160.527, -92.5527, 54.7047
3.255, 2, -37.0778, 0.607043, 20.5888, -160.527, -92.5527, 54.7047
3.26, 2, -37.0778, 0.607043, 20.5888, -160.527, -92.5527, 54.7047
3.264, 2, -37.0778, 0.607043, 20.5888, -160.527, -92.5527, 54.7047
3.268, 2, -37.0778, 0.607043, 20.5888, -160.527, -92.5527, 54.7047
3.272, 2, -37.0778, 0.607043, 20.5888, -160.527, -92.5527, 54.7047
3.276, 2, -37.0778, 0.607043, 20.5888, -160.527, -92.5527, 54.7047
3.28, 2, -37.0778, 0.607043, 20.5888, -160.527, -92.5527, 54.7047
3.284, 2, -37.0778, 0.607043, 20.5888, -160.527, -92.5527, 54.7047
3.288, 2, -37.0778, 0.607043, 20.5888, -160.527, -92.5527, 54.7047
3.291, 2, -37.0778, 0.607043, 20.5888, -160.527, -92.5527, 54.7047
3.296, 2, -37.0778, 0.607043, 20.5888, -160.527, -92.5527, 54.7047
3.3, 2, -37.0778, 0.607043, 20.5888, -160.527, -92.5527, 54.7047
3.304, 2, -37.0778, 0.607043, 20.5888, -160.527, -92.5527, 54.7047
3.308, 2, -37.0778, 0.607043, 20.5888, -160.527, -92.5527, 54.7047
3.312, 2, -37.0778, 0.607043, 20.5888, -160.527, -92.5527, 54.7047
3.316, 2, -37.0778, 0.607043, 20.5888, -160.527, -92.5527, 54.7047
3.32, 2, -37.0778, 0.607043, 20.5888, -160.527, -92.5527, 54.7047
3.324, 2, -37.0778, 0.607043, 20.5888, -160.527, -92.5527, 54.7047
3.328, 2, -37.0778, 0.607043, 20.5888, -160.527, -92.5527, 54.7047
3.332, 2, -37.0778, 0.607043, 20.5888, -160.527, -92.5527, 54.7047
3.336, 2, -37.0778, 0.607043, 20.5888, -160.527, -92.5527, 54.7047
3.34, 2, -37.0778, 0.607043, 20.5888, -160.527, -92.5527, 54.7047
3.344, 2, -37.0778, 0.607043, 20.5888, -160.527, -92.5527, 54.7047
3.347, 2, -37.0778, 0.607043, 20.5888, -160.527, -92.5527, 54.7047
3.352, 2, -37.0778, 0.607043, 20.5888, -160.527, -92.5527, 54.7047
3.356, 2, -37.0778, 0.607043, 20.5888, -160.527, -92.5527, 54.7047
3.36, 2, -37.0778, 0.607043, 20.5888, -160.527, -92.5527, 54.7047
3.364, 2, -37.0778, 0.607043, 20.5888, -160.527, -92.5527, 54.7047
3.368, 2, -37.0778, 0.607043, 20.5888, -160.527, -92.5527, 54.7047
3.372, 2, -37.0778, 0.607043, 20.5888, -160.527, -92.5527, 54.7047
3.376, 2, -37.0778, 0.607043, 20.5888, -160.527, -92.5527, 54.7047
3.38, 2, -37.0778, 0.607043, 20.5888, -160.527, -92.5527, 54.7047
3.383, 2, -37.0778, 0.607043, 20.5888, -160.527, -92.5527, 54.7047
3.388, 2, -37.0778, 0.607043, 20.5888, -160.527, -92.5527, 54.7047
3.392, 2, -37.0778, 0.607043, 20.5888, -160.527, -92.5527, 54.7047
3.396, 2, -37.0778, 0.607043, 20.5888, -160.527, -92.5527, 54.7047
3.4, 2, -37.0778, 0.607043, 20.5888, -160.527, -92.5527, 54.7047
3.403, 2, -37.0778, 0.607043, 20.5888, -160.527, -92.5527, 54.7047
3.408, 2, -37.0778, 0.607043, 20.5888, -160.527, -92.5527, 54.7047
3.412, 2, -37.0778, 0.607043, 20.5888, -160.527, -92.5527, 54.7047
3.416, 2, -37.0778, 0.607043, 20.5888, -160.527, -92.5527, 54.7047
3.42, 2, -37.0778, 0.607043, 20.5888, -160.527, -92.5527, 54.7047
3.424, 2, -37.0778, 0.607043, 20.5888, -160.527, -92.5527, 54.7047
3.428, 2, -37.0778, 0.607043, 20.5888, -160.527, -92.5527, 54.7047
3.432, 2, -37.0778, 0.607043, 20.5888, -160.527, -92.5527, 54.7047
3.436, 2, -37.0778, 0.607043, 20.5888, -160.527, -92.5527, 54.7047
3.439, 2, -37.0778, 0.607043, 20.5888, -160.527, -92.5527, 54.7047
3.444, 2, -37.0778, 0.607043, 20.5888, -160.527, -92.5527, 54.7047
3.448, 2, -37.0778, 0.607043, 20.5888, -160.527, -92.5527, 54.7047
3.452, 2, -37.0778, 0.607043, 20.5888, -160.527, -92.5527, 54.7047
3.456, 2, -37.0778, 0.607043, 20.5888, -160.527, -92.5527, 54.7047
3.46, 2, -37.0778, 0.607043, 20.5888, -160.527, -92.5527, 54.7047
3.464, 2, -37.0778, 0.607043, 20.5888, -160.527, -92.5527, 54.7047
3.468, 2, -37.0778, 0.607043, 20.5888, -160.527, -92.5527, 54.7047
3.472, 2, -37.0778, 0.607043, 20.5888, -160.527, -92.5527, 54.7047
3.476, 2, -37.0778, 0.607043, 20.5888, -160.527, -92.5527, 54.7047
3.48, 2, -37.0778, 0.607043, 20.5888, -160.527, -92.5527, 54.7047
3.484, 2, -37.0778, 0.607043, 20.5888, -160.527, -92.5527, 54.7047
3.488, 2, -37.0778, 0.607043, 20.5888, -160.527, -92.5527, 54.7047
3.492, 2, -37.0778, 0.607043, 20.5888, -160.527, -92.5527, 54.7047
3.495, 2, -37.0778, 0.607043, 20.5888, -160.527, -92.5527, 54.7047
3.5, 2, -37.0778, 0.607043, 20.5888, -160.527, -92.5527, 54.7047
3.504, 2, -37.0778, 0.607043, 20.5888, -160.527, -92.5527, 54.7047
3.508, 2, -37.0778, 0.607043, 20.5888, -160.527, -92.5527, 54.7047
3.512, 2, -37.0778, 0.607043, 20.5888, -160.527, -92.5527, 54.7047
3.516, 2, -37.0778, 0.607043, 20.5888, -160.527, -92.5527, 54.7047
3.52, 2, -37.0778, 0.607043, 20.5888, -160.527, -92.5527, 54.7047
3.524, 2, -37.0778, 0.607043, 20.5888, -160.527, -92.5527, 54.7047
3.528, 2, -37.0778, 0.607043, 20.5888, -160.527, -92.5527, 54.7047
3.531, 2, -37.0778, 0.607043, 20.5888, -160.527, -92.5527, 54.7047
3.536, 2, -37.0778, 0.607043, 20.5888, -160.527, -92.5527, 54.7047
3.54, 2, -37.0778, 0.607043, 20.5888, -160.527, -92.5527, 54.7047
3.544, 2, -37.0778, 0.607043, 20.5888, -160.527, -92.5527, 54.7047
3.548, 2, -37.0778, 0.607043, 20.5888, -160.527, -92.5527, 54.7047
3.552, 2, -37.0778, 0.607043, 20.5888, -160.527, -92.5527, 54.7047
3.556, 2, -37.0778, 0.607043, 20.5888, -160.527, -92.5527, 54.7047
3.56, 2, -37.0778, 0.607043, 20.5888, -160.527, -92.5527, 54.7047
3.564, 2, -37.0778, 0.607043, 20.5888, -160.527, -92.5527, 54.7047
3.568, 2, -37.0778, 0.607043, 20.5888, -160.527, -92.5527, 54.7047
3.572, 2, -37.0778, 0.607043, 20.5888, -160.527, -92.5527, 54.7047
3.576, 2, -37.0778, 0.607043, 20.5888, -160.527, -92.5527, 54.7047
3.58, 2, -37.0778, 0.607043, 20.5888, -160.527, -92.5527, 54.7047
3.584, 2, -37.0778, 0.607043, 20.5888, -160.527, -92.5527, 54.7047
3.587, 2, -37.0778, 0.607043, 20.5888, -160.527, -92.5527, 54.7047
3.592, 2, -37.0778, 0.607043, 20.5888, -160.527, -92.5527, 54.7047
3.596, 2, -37.0778, 0.607043, 20.5888, -160.527, -92.5527, 54.7047
3.6, 2, -37.0778, 0.607043, 20.5888, -160.527, -92.5527, 54.7047
3.604, 2, -37.0778, 0.607043, 20.5888, -160.527, -92.5527, 54.7047
3.608, 2, -37.0778, 0.607043, 20.5888, -160.527, -92.5527, 54.7047
3.612, 2, -37.0778, 0.607043, 20.5888, -160.527, -92.5527, 54.7047
3.616, 2, -37.0778, 0.607043, 20.5888, -160.527, -92.5527, 54.7047
3.62, 2, -37.0778, 0.607043, 20.5888, -160.527, -92.5527, 54.7047
3.624, 2, -37.0778, 0.607043, 20.5888, -160.527, -92.5527, 54.7047
3.628, 2, -37.0778, 0.607043, 20.5888, -160.527, -92.5527, 54.7047
3.632, 2, -37.0778, 0.607043, 20.5888, -160.527, -92.5527, 54.7047
3.636, 2, -37.0778, 0.607043, 20.5888, -160.527, -92.5527, 54.7047
3.64, 2, -37.0778, 0.607043, 20.5888, -160.527, -92.5527, 54.7047
3.644, 2, -37.0778, 0.607043, 20.5888, -160.527, -92.5527, 54.7047
3.648, 2, -37.0778, 0.607043, 20.5888, -160.527, -92.5527, 54.7047
3.652, 2, -37.0778, 0.607043, 20.5888, -160.527, -92.5527, 54.7047
3.656, 2, -37.0778, 0.607043, 20.5888, -160.527, -92.5527, 54.7047
3.66, 2, -37.0778, 0.607043, 20.5888, -160.527, -92.5527, 54.7047
3.664, 2, -37.0778, 0.607043, 20.5888, -160.527, -92.5527, 54.7047
3.668, 2, -37.0778, 0.607043, 20.5888, -160.527, -92.5527, 54.7047
3.672, 2, -37.0778, 0.607043, 20.5888, -160.527, -92.5527, 54.7047
3.676, 4, -37.0778, 0.607043, 20.5888, -160.527, -92.5527, 54.7047
3.679, 4, -37.0778, 0.607043, 20.5888, -160.527, -92.5527, 54.7047
3.684, 4, -37.0778, 0.607043, 20.5888, -160.527, -92.5527, 54.7047
3.688, 4, -37.0778, 0.607043, 20.5888, -160.527, -92.5527, 54.7047
3.692, 4, -37.0778, 0.607043, 20.5888, -160.527, -92.5527, 54.7047
3.696, 4, -37.0778, 0.607043, 20.5888, -160.527, -92.5527, 54.7047
3.7, 4, -37.0778, 0.607043, 20.5888, -160.527, -92.5527, 54.7047
3.704, 4, -37.0778, 0.607043, 20.5888, -160.527, -92.5527, 54.7047
3.708, 4, -37.0778, 0.607043, 20.5888, -160.527, -92.5527, 54.7047
3.712, 4, -37.0778, 0.607043, 20.5888, -160.527, -92.5527, 54.7047
3.716, 4, -37.0778, 0.607043, 20.5888, -160.527, -92.5527, 54.7047
3.72, 4, -37.0778, 0.607043, 20.5888, -160.527, -92.5527, 54.7047
3.724, 4, -37.0778, 0.607043, 20.5888, -160.527, -92.5527, 54.7047
3.728, 4, -37.0778, 0.607043, 20.5888, -160.527, -92.5527, 54.7047
3.732, 4, -37.0778, 0.607043, 20.5888, -160.527, -92.5527, 54.7047
3.735, 4, -37.0778, 0.607043, 20.5888, -160.527, -92.5527, 54.7047
3.74, 4, -37.0778, 0.607043, 20.5888, -160.527, -92.5527, 54.7047
3.744, 4, -37.0778, 0.607043, 20.5888, -160.527, -92.5527, 54.7047
3.748, 4, -37.0778, 0.607043, 20.5888, -160.527, -92.5527, 54.7047
3.752, 4, -37.0778, 0.607043, 20.5888, -160.527, -92.5527, 54.7047
3.756, 4, -37.0778, 0.607043, 20.5888, -160.527, -92.5527, 54.7047
3.76, 4, -37.0778, 0.607043, 20.5888, -160.527, -92.5527, 54.7047
3.764, 4, -37.0778, 0.607043, 20.5888, -160.527, -92.5527, 54.7047
3.768, 4, -37.0778, 0.607043, 20.5888, -160.527, -92.5527, 54.7047
3.772, 4, -37.0778, 0.607043, 20.5888, -160.527, -92.5527, 54.7047
3.776, 4, -37.0778, 0.607043, 20.5888, -160.527, -92.5527, 54.7047
3.78, 4, -37.0778, 0.607043, 20.5888, -160.527, -92.5527, 54.7047
3.784, 4, -37.0778, 0.607043, 20.5888, -160.527, -92.5527, 54.7047
3.788, 4, -37.0778, 0.607043, 20.5888, -160.527, -92.5527, 54.7047
3.792, 4, -37.0778, 0.607043, 20.5888, -160.527, -92.5527, 54.7047
3.796, 4, -37.0778, 0.607043, 20.5888, -160.527, -92.5527, 54.7047
3.8, 4, -37.0778, 0.607043, 20.5888, -160.527, -92.5527, 54.7047
3.804, 4, -37.0778, 0.607043, 20.5888, -160.527, -92.5527, 54.7047
3.808, 4, -37.0777, 0.60704, 20.5888, -160.527, -92.5527, 54.7047
3.812, 4, -37.0777, 0.607012, 20.5889, -160.527, -92.5527, 54.7047
3.816, 4, -37.0774, 0.606904, 20.5889, -160.527, -92.5527, 54.7047
3.82, 4, -37.0768, 0.60662, 20.589, -160.527, -92.5527, 54.7047
3.824, 4, -37.0756, 0.606037, 20.5893, -160.527, -92.5527, 54.7047
3.828, 4, -37.0737, 0.60503, 20.5897, -160.527, -92.5528, 54.7047
3.832, 4, -37.0709, 0.603493, 20.5904, -160.527, -92.5528, 54.7047
3.836, 4, -37.0672, 0.601365, 20.5915, -160.527, -92.5529, 54.7047
3.84, 4, -37.0627, 0.598641, 20.5931, -160.527, -92.553, 54.7047
3.844, 4, -37.0575, 0.595355, 20.5951, -160.526, -92.553, 54.7047
3.848, 4, -37.0518, 0.591541, 20.5979, -160.526, -92.5531, 54.7047
3.852, 4, -37.0456, 0.587205, 20.6013, -160.525, -92.5532, 54.7047
3.856, 5, -37.0388, 0.582313, 20.6055, -160.525, -92.5532, 54.7047
3.86, 5, -37.0313, 0.576804, 20.6107, -160.524, -92.5532, 54.7047
3.864, 5, -37.0232, 0.57062, 20.6168, -160.523, -92.5532, 54.7046
3.868, 5, -37.0142, 0.563736, 20.6239, -160.521, -92.5532, 54.7046
3.872, 5, -37.0045, 0.556173, 20.632, -160.52, -92.5531, 54.7046
3.876, 5, -36.9942, 0.547985, 20.641, -160.518, -92.553, 54.7046
3.88, 5, -36.9833, 0.539227, 20.651, -160.516, -92.5529, 54.7045
3.884, 5, -36.972, 0.529927, 20.6619, -160.514, -92.5528, 54.7045
3.888, 5, -36.9601, 0.520068, 20.6735, -160.512, -92.5526, 54.7045
3.892, 5, -36.9476, 0.509602, 20.6859, -160.509, -92.5525, 54.7045
3.896, 5, -36.9342, 0.498484, 20.6988, -160.506, -92.5523, 54.7045
3.9, 5, -36.9199, 0.486701, 20.7123, -160.504, -92.5522, 54.7044
3.904, 5, -36.9047, 0.474288, 20.7263, -160.501, -92.552, 54.7044
3.908, 5, -36.8886, 0.461323, 20.7406, -160.498, -92.5519, 54.7044
3.912, 5, -36.8717, 0.447919, 20.7551, -160.495, -92.5518, 54.7044
3.916, 5, -36.8543, 0.434195, 20.7699, -160.492, -92.5517, 54.7045
3.92, 5, -36.8365, 0.420253, 20.7847, -160.49, -92.5516, 54.7045
3.924, 5, -36.8184, 0.406164, 20.7997, -160.487, -92.5515, 54.7045
3.928, 5, -36.8001, 0.391979, 20.8147, -160.484, -92.5514, 54.7045
3.932, 5, -36.7816, 0.37773, 20.8297, -160.481, -92.5513, 54.7046
3.936, 5, -36.7631, 0.36344, 20.8447, -160.478, -92.5512, 54.7046
3.94, 5, -36.7445, 0.349125, 20.8598, -160.475, -92.5511, 54.7047
3.944, 5, -36.7259, 0.334794, 20.8748, -160.472, -92.551, 54.7047
3.948, 5, -36.7072, 0.320456, 20.8899, -160.469, -92.5509, 54.7048
3.952, 5, -36.6885, 0.306115, 20.9049, -160.466, -92.5508, 54.7049
3.956, 5, -36.6698, 0.291773, 20.9199, -160.463, -92.5507, 54.705
3.96, 5, -36.6511, 0.277434, 20.935, -160.46, -92.5507, 54.705
3.964, 5, -36.6324, 0.263099, 20.95, -160.457, -92.5506, 54.7052
3.968, 5, -36.6136, 0.248768, 20.965, -160.454, -92.5505, 54.7053
3.972, 5, -36.5949, 0.234443, 20.98, -160.451, -92.5504, 54.7054
3.976, 5, -36.5761, 0.220124, 20.995, -160.448, -92.5503, 54.7055
3.98, 5, -36.5573, 0.205811, 21.01, -160.445, -92.5502, 54.7056
3.984, 5, -36.5385, 0.191504, 21.0249, -160.442, -92.5501, 54.7058
3.988, 5, -36.5197, 0.177205, 21.0399, -160.439, -92.55, 54.7059
3.992, 5, -36.5009, 0.162911, 21.0548, -160.436, -92.55, 54.7061
3.996, 5, -36.4821, 0.148625, 21.0698, -160.433, -92.5499, 54.7062
3.999, 5, -36.4633, 0.134346, 21.0847, -160.43, -92.5498, 54.7064
4.004, 5, -36.4445, 0.120073, 21.0996, -160.427, -92.5497, 54.7066
4.008, 5, -36.4256, 0.105807, 21.1145, -160.424, -92.5496, 54.7067
4.012, 5, -36.4068, 0.0915484, 21.1294, -160.421, -92.5495, 54.7069
4.016, 5, -36.388, 0.0772966, 21.1443, -160.418, -92.5494, 54.7071
4.02, 5, -36.3691, 0.0630518, 21.1592, -160.415, -92.5493, 54.7073
4.024, 5, -36.3502, 0.0488139, 21.1741, -160.412, -92.5493, 54.7075
4.028, 5, -36.3314, 0.034583, 21.1889, -160.409, -92.5492, 54.7078
4.032, 5, -36.3125, 0.0203591, 21.2038, -160.406, -92.5491, 54.708
4.036, 5, -36.2936, 0.00614227, 21.2186, -160.403, -92.549, 54.7082
4.04, 5, -36.2747, -0.00806758, 21.2334, -160.4, -92.5489, 54.7085
4.044, 5, -36.2558, -0.0222704, 21.2482, -160.397, -92.5488, 54.7087
4.048, 5, -36.2369, -0.0364662, 21.263, -160.394, -92.5487, 54.709
4.052, 5, -36.218, -0.0506549, 21.2778, -160.391, -92.5486, 54.7092
4.056, 5, -36.199, -0.0648366, 21.2926, -160.388, -92.5486, 54.7095
4.06, 5, -36.1801, -0.0790112, 21.3074, -160.385, -92.5485, 54.7098
4.064, 5, -36.1612, -0.0931788, 21.3222, -160.382, -92.5484, 54.7101
4.068, 5, -36.1422, -0.107339, 21.3369, -160.379, -92.5483, 54.7104
4.072, 5, -36.1233, -0.121493, 21.3516, -160.376, -92.5482, 54.7107
4.076, 5, -36.1043, -0.135639, 21.3664, -160.373, -92.5481, 54.711
4.08, 5, -36.0853, -0.149778, 21.3811, -160.37, -92.548, 54.7113
4.084, 5, -36.0663, -0.16391, 21.3958, -160.366, -92.5479, 54.7116
4.088, 5, -36.0474, -0.178035, 21.4105, -160.363, -92.5479, 54.7119
4.092, 5, -36.0284, -0.192153, 21.4252, -160.36, -92.5478, 54.7123
4.096, 5, -36.0094, -0.206264, 21.4399, -160.357, -92.5477, 54.7126
4.1, 5, -35.9903, -0.220367, 21.4545, -160.354, -92.5476, 54.713
4.104, 5, -35.9713, -0.234464, 21.4692, -160.351, -92.5475, 54.7133
4.108, 5, -35.9523, -0.248553, 21.4839, -160.348, -92.5474, 54.7137
4.112, 5, -35.9333, -0.262635, 21.4985, -160.345, -92.5473, 54.7141
4.116, 5, -35.9142, -0.27671, 21.5131, -160.342, -92.5472, 54.7145
4.12, 5, -35.8952, -0.290778, 21.5277, -160.339, -92.5471, 54.7149
4.124, 5, -35.8761, -0.304838, 21.5423, -160.336, -92.5471, 54.7153
4.128, 5, -35.8571, -0.318892, 21.5569, -160.333, -92.547, 54.7157
4.132, 5, -35.838, -0.332938, 21.5715, -160.329, -92.5469, 54.7161
4.136, 5, -35.8189, -0.346977, 21.5861, -160.326, -92.5468, 54.7165
4.14, 5, -35.7998, -0.361009, 21.6007, -160.323, -92.5467, 54.7169
4.144, 5, -35.7807, -0.375033, 21.6152, -160.32, -92.5466, 54.7174
4.148, 5, -35.7616, -0.38905, 21.6298, -160.317, -92.5465, 54.7178
4.152, 5, -35.7425, -0.40306, 21.6443, -160.314, -92.5464, 54.7183
4.156, 5, -35.7234, -0.417063, 21.6588, -160.311, -92.5463, 54.7187
4.16, 5, -35.7043, -0.431059, 21.6733, -160.308, -92.5462, 54.7192
4.164, 5, -35.6851, -0.445047, 21.6878, -160.304, -92.5462, 54.7197
4.168, 5, -35.666, -0.459028, 21.7023, -160.301, -92.5461, 54.7201
4.172, 5, -35.6468, -0.473001, 21.7168, -160.298, -92.546, 54.7206
4.176, 5, -35.6277, -0.486968, 21.7313, -160.295, -92.5459, 54.7211
4.18, 5, -35.6085, -0.500927, 21.7457, -160.292, -92.5458, 54.7216
4.184, 5, -35.5893, -0.514879, 21.7602, -160.289, -92.5457, 54.7221
4.188, 5, -35.5701, -0.528823, 21.7746, -160.286, -92.5456, 54.7227
4.192, 5, -35.551, -0.54276, 21.789, -160.282, -92.5455, 54.7232
4.196, 5, -35.5318, -0.55669, 21.8034, -160.279, -92.5454, 54.7237
4.2, 5, -35.5126, -0.570613, 21.8179, -160.276, -92.5453, 54.7243
4.204, 5, -35.4933, -0.584528, 21.8322, -160.273, -92.5452, 54.7248
4.208, 5, -35.4741, -0.598436, 21.8466, -160.27, -92.5451, 54.7254
4.212, 5, -35.4549, -0.612337, 21.861, -160.267, -92.545, 54.7259
4.216, 5, -35.4357, -0.62623, 21.8754, -160.263, -92.5449, 54.7265
4.22, 5, -35.4164, -0.640116, 21.8897, -160.26, -92.5448, 54.7271
4.224, 5, -35.3972, -0.653995, 21.9041, -160.257, -92.5447, 54.7277
4.228, 5, -35.3779, -0.667866, 21.9184, -160.254, -92.5446, 54.7283
4.232, 5, -35.3586, -0.68173, 21.9327, -160.251, -92.5445, 54.7289
4.236, 5, -35.3394, -0.695587, 21.947, -160.247, -92.5445, 54.7295
4.24, 5, -35.3201, -0.709436, 21.9613, -160.244, -92.5443, 54.7301
4.244, 5, -35.3008, -0.723278, 21.9756, -160.241, -92.5443, 54.7307
4.248, 5, -35.2815, -0.737113, 21.9899, -160.238, -92.5442, 54.7313
4.252, 5, -35.2622, -0.75094, 22.0042, -160.235, -92.5441, 54.732
4.256, 5, -35.2429, -0.76476, 22.0184, -160.231, -92.544, 54.7326
4.26, 5, -35.2235, -0.778572, 22.0327, -160.228, -92.5439, 54.7333
4.264, 5, -35.2042, -0.792378, 22.0469, -160.225, -92.5438, 54.7339
4.268, 5, -35.1849, -0.806175, 22.0611, -160.222, -92.5437, 54.7346
4.272, 5, -35.1655, -0.819966, 22.0754, -160.218, -92.5436, 54.7353
4.276, 5, -35.1462, -0.833749, 22.0896, -160.215, -92.5435, 54.736
4.28, 5, -35.1268, -0.847525, 22.1038, -160.212, -92.5434, 54.7367
4.284, 5, -35.1075, -0.861293, 22.118, -160.209, -92.5433, 54.7374
4.288, 5, -35.0881, -0.875054, 22.1321, -160.206, -92.5432, 54.7381
4.292, 5, -35.0687, -0.888807, 22.1463, -160.202, -92.5431, 54.7388
4.296, 5, -35.0493, -0.902553, 22.1604, -160.199, -92.5429, 54.7395
4.3, 5, -35.0299, -0.916292, 22.1746, -160.196, -92.5428, 54.7402
4.304, 5, -35.0105, -0.930023, 22.1887, -160.193, -92.5427, 54.741
4.308, 5, -34.9911, -0.943747, 22.2028, -160.189, -92.5426, 54.7417
4.312, 5, -34.9717, -0.957463, 22.217, -160.186, -92.5425, 54.7425
4.316, 5, -34.9522, -0.971172, 22.2311, -160.183, -92.5424, 54.7432
4.32, 5, -34.9328, -0.984873, 22.2451, -160.18, -92.5423, 54.744
4.324, 5, -34.9133, -0.998567, 22.2592, -160.176, -92.5422, 54.7448
4.328, 5, -34.8939, -1.01225, 22.2733, -160.173, -92.5421, 54.7455
4.332, 5, -34.8744, -1.02593, 22.2874, -160.17, -92.542, 54.7463
4.336, 5, -34.855, -1.0396, 22.3014, -160.166, -92.5419, 54.7471
4.34, 5, -34.8355, -1.05327, 22.3154, -160.163, -92.5418, 54.7479
4.344, 5, -34.816, -1.06693, 22.3295, -160.16, -92.5417, 54.7487
4.348, 5, -34.7965, -1.08057, 22.3435, -160.157, -92.5416, 54.7496
4.352, 5, -34.777, -1.09422, 22.3575, -160.153, -92.5415, 54.7504
4.356, 5, -34.7575, -1.10785, 22.3715, -160.15, -92.5414, 54.7512
4.36, 5, -34.738, -1.12148, 22.3855, -160.147, -92.5412, 54.752
4.364, 5, -34.7185, -1.1351, 22.3995, -160.143, -92.5411, 54.7529
4.368, 5, -34.6989, -1.14871, 22.4134, -160.14, -92.541, 54.7537
4.372, 5, -34.6794, -1.16231, 22.4274, -160.137, -92.5409, 54.7546
4.376, 5, -34.6599, -1.17591, 22.4413, -160.133, -92.5408, 54.7555
4.38, 5, -34.6403, -1.1895, 22.4553, -160.13, -92.5407, 54.7564
4.384, 5, -34.6207, -1.20308, 22.4692, -160.127, -92.5406, 54.7572
4.388, 5, -34.6012, -1.21665, 22.4831, -160.124, -92.5405, 54.7581
4.392, 5, -34.5816, -1.23022, 22.497, -160.12, -92.5403, 54.759
4.396, 5, -34.562, -1.24378, 22.5109, -160.117, -92.5402, 54.7599
4.4, 5, -34.5424, -1.25733, 22.5248, -160.114, -92.5401, 54.7609
4.404, 5, -34.5228, -1.27087, 22.5386, -160.11, -92.54, 54.7618
4.408, 5, -34.5032, -1.28441, 22.5525, -160.107, -92.5399, 54.7627
4.412, 5, -34.4836, -1.29794, 22.5663, -160.104, -92.5398, 54.7636
4.416, 5, -34.464, -1.31146, 22.5802, -160.1, -92.5396, 54.7646
4.42, 5, -34.4443, -1.32497, 22.594, -160.097, -92.5395, 54.7655
4.424, 5, -34.4247, -1.33848, 22.6078, -160.093, -92.5394, 54.7665
4.428, 5, -34.405, -1.35198, 22.6216, -160.09, -92.5393, 54.7675
4.432, 5, -34.3854, -1.36547, 22.6354, -160.087, -92.5392, 54.7684
4.436, 5, -34.3657, -1.37895, 22.6492, -160.083, -92.539, 54.7694
4.44, 5, -34.3461, -1.39242, 22.663, -160.08, -92.5389, 54.7704
4.444, 5, -34.3264, -1.40589, 22.6768, -160.077, -92.5388, 54.7714
4.448, 5, -34.3067, -1.41935, 22.6905, -160.073, -92.5387, 54.7724
4.452, 5, -34.287, -1.4328, 22.7043, -160.07, -92.5386, 54.7734
4.456, 5, -34.2673, -1.44625, 22.718, -160.067, -92.5384, 54.7744
4.46, 5, -34.2476, -1.45969, 22.7317, -160.063, -92.5383, 54.7754
4.464, 5, -34.2279, -1.47311, 22.7454, -160.06, -92.5382, 54.7765
4.468, 5, -34.2082, -1.48654, 22.7591, -160.056, -92.538, 54.7775
4.472, 5, -34.1884, -1.49995, 22.7728, -160.053, -92.5379, 54.7786
4.476, 5, -34.1687, -1.51336, 22.7865, -160.05, -92.5378, 54.7796
4.48, 5, -34.1489, -1.52676, 22.8002, -160.046, -92.5377, 54.7807
4.484, 5, -34.1292, -1.54015, 22.8138, -160.043, -92.5375, 54.7817
4.488, 5, -34.1094, -1.55353, 22.8275, -160.039, -92.5374, 54.7828
4.492, 5, -34.0896, -1.56691, 22.8411, -160.036, -92.5373, 54.7839
4.496, 5, -34.0699, -1.58027, 22.8548, -160.033, -92.5371, 54.785
4.5, 5, -34.0501, -1.59363, 22.8684, -160.029, -92.537, 54.7861
4.504, 5, -34.0303, -1.60699, 22.882, -160.026, -92.5369, 54.7872
4.508, 5, -34.0105, -1.62033, 22.8956, -160.022, -92.5367, 54.7883
4.512, 5, -33.9907, -1.63367, 22.9092, -160.019, -92.5366, 54.7894
4.516, 5, -33.9709, -1.647, 22.9227, -160.015, -92.5365, 54.7906
4.52, 5, -33.951, -1.66032, 22.9363, -160.012, -92.5363, 54.7917
4.524, 5, -33.9312, -1.67363, 22.9499, -160.009, -92.5362, 54.7928
4.528, 5, -33.9114, -1.68694, 22.9634, -160.005, -92.536, 54.794
4.532, 5, -33.8915, -1.70024, 22.9769, -160.002, -92.5359, 54.7951
4.536, 5, -33.8717, -1.71353, 22.9905, -159.998, -92.5358, 54.7963
4.54, 5, -33.8518, -1.72681, 23.004, -159.995, -92.5356, 54.7975
4.544, 5, -33.8319, -1.74008, 23.0175, -159.991, -92.5355, 54.7986
4.548, 5, -33.812, -1.75335, 23.031, -159.988, -92.5353, 54.7998
4.552, 5, -33.7922, -1.76661, 23.0444, -159.984, -92.5352, 54.801
4.556, 5, -33.7723, -1.77986, 23.0579, -159.981, -92.5351, 54.8022
4.56, 5, -33.7524, -1.79311, 23.0714, -159.978, -92.5349, 54.8034
4.564, 5, -33.7325, -1.80634, 23.0848, -159.974, -92.5348, 54.8046
4.568, 5, -33.7125, -1.81957, 23.0983, -159.971, -92.5346, 54.8059
4.572, 5, -33.6926, -1.83279, 23.1117, -159.967, -92.5345, 54.8071
4.576, 5, -33.6727, -1.846, 23.1251, -159.964, -92.5343, 54.8083
4.58, 5, -33.6527, -1.85921, 23.1385, -159.96, -92.5342, 54.8096
4.584, 5, -33.6328, -1.87242, 23.1519, -159.957, -92.534, 54.8108
4.588, 5, -33.6129, -1.88563, 23.1653, -159.953, -92.5339, 54.8121
4.592, 5, -33.5929, -1.89885, 23.1787, -159.95, -92.5337, 54.8133
4.596, 5, -33.573, -1.91209, 23.1921, -159.946, -92.5336, 54.8146
4.6, 5, -33.5531, -1.92534, 23.2054, -159.943, -92.5334, 54.8159
4.604, 5, -33.5332, -1.93861, 23.2188, -159.939, -92.5332, 54.8171
4.608, 5, -33.5133, -1.9519, 23.2322, -159.936, -92.533, 54.8183
4.612, 5, -33.4934, -1.96522, 23.2456, -159.932, -92.5328, 54.8195
4.616, 5, -33.4735, -1.97858, 23.259, -159.928, -92.5325, 54.8207
4.62, 6, -33.4537, -1.99197, 23.2724, -159.925, -92.5322, 54.8218
4.624, 6, -33.4338, -2.00541, 23.2859, -159.921, -92.5318, 54.8229
4.628, 6, -33.414, -2.0189, 23.2994, -159.917, -92.5314, 54.8238
4.632, 6, -33.3942, -2.03244, 23.3129, -159.914, -92.5309, 54.8248
4.636, 6, -33.3744, -2.04603, 23.3265, -159.91, -92.5304, 54.8256
4.64, 6, -33.3547, -2.05969, 23.3402, -159.906, -92.5298, 54.8263
4.644, 6, -33.3349, -2.07342, 23.3539, -159.902, -92.5291, 54.827
4.648, 6, -33.3152, -2.08721, 23.3677, -159.898, -92.5283, 54.8275
4.652, 6, -33.2955, -2.10108, 23.3815, -159.894, -92.5274, 54.8279
4.656, 6, -33.2759, -2.11503, 23.3954, -159.89, -92.5264, 54.8282
4.66, 6, -33.2563, -2.12907, 23.4094, -159.886, -92.5253, 54.8283
4.664, 6, -33.2367, -2.1432, 23.4234, -159.881, -92.5241, 54.8284
4.668, 7, -33.2171, -2.15742, 23.4375, -159.877, -92.5228, 54.8283
4.672, 7, -33.1976, -2.17173, 23.4517, -159.873, -92.5214, 54.8281
4.676, 7, -33.1782, -2.18614, 23.466, -159.868, -92.52, 54.8278
4.68, 7, -33.1588, -2.20064, 23.4803, -159.863, -92.5184, 54.8274
4.684, 7, -33.1394, -2.21525, 23.4948, -159.859, -92.5167, 54.8268
4.688, 7, -33.12, -2.22995, 23.5092, -159.854, -92.5149, 54.8261
4.692, 7, -33.1007, -2.24475, 23.5238, -159.849, -92.513, 54.8253
4.696, 7, -33.0815, -2.25965, 23.5384, -159.844, -92.511, 54.8244
4.7, 7, -33.0623, -2.27464, 23.5532, -159.839, -92.5089, 54.8234
4.704, 7, -33.0431, -2.28974, 23.5679, -159.834, -92.5067, 54.8222
4.708, 7, -33.024, -2.30494, 23.5828, -159.829, -92.5044, 54.8209
4.712, 7, -33.0049, -2.32023, 23.5977, -159.824, -92.502, 54.8195
4.716, 8, -32.9859, -2.33563, 23.6128, -159.819, -92.4995, 54.818
4.72, 8, -32.9669, -2.35112, 23.6278, -159.813, -92.4969, 54.8163
4.724, 8, -32.9479, -2.36671, 23.643, -159.808, -92.4942, 54.8145
4.728, 8, -32.929, -2.38241, 23.6582, -159.802, -92.4914, 54.8127
4.732, 8, -32.9101, -2.3982, 23.6735, -159.797, -92.4885, 54.8106
4.736, 8, -32.8913, -2.4141, 23.6889, -159.791, -92.4854, 54.8085
4.74, 8, -32.8725, -2.43009, 23.7044, -159.785, -92.4823, 54.8062
4.744, 8, -32.8538, -2.44619, 23.7199, -159.78, -92.4791, 54.8039
4.748, 8, -32.8351, -2.46238, 23.7355, -159.774, -92.4758, 54.8014
4.752, 8, -32.8164, -2.47868, 23.7512, -159.768, -92.4724, 54.7988
4.756, 8, -32.7978, -2.49507, 23.7669, -159.762, -92.4688, 54.796
4.76, 8, -32.7792, -2.51157, 23.7828, -159.756, -92.4652, 54.7932
4.764, 8, -32.7607, -2.52816, 23.7987, -159.749, -92.4615, 54.7902
4.768, 9, -32.7422, -2.54486, 23.8146, -159.743, -92.4576, 54.7871
4.772, 9, -32.7237, -2.56166, 23.8307, -159.737, -92.4537, 54.7839
4.776, 9, -32.7053, -2.57856, 23.8468, -159.73, -92.4496, 54.7806
4.78, 9, -32.687, -2.59556, 23.863, -159.724, -92.4455, 54.7771
4.784, 9, -32.6686, -2.61266, 23.8793, -159.717, -92.4412, 54.7735
4.788, 9, -32.6503, -2.62986, 23.8956, -159.711, -92.4369, 54.7698
4.792, 9, -32.6321, -2.64717, 23.9121, -159.704, -92.4324, 54.766
4.796, 9, -32.6139, -2.66457, 23.9286, -159.697, -92.4279, 54.7621
4.8, 9, -32.5958, -2.68208, 23.9451, -159.69, -92.4232, 54.758
4.804, 9, -32.5776, -2.69969, 23.9618, -159.684, -92.4185, 54.7539
4.808, 9, -32.5596, -2.7174, 23.9785, -159.677, -92.4136, 54.7496
4.812, 9, -32.5415, -2.73521, 23.9953, -159.669, -92.4086, 54.7452
4.816, 10, -32.5235, -2.75312, 24.0122, -159.662, -92.4035, 54.7406
4.82, 10, -32.5056, -2.77114, 24.0291, -159.655, -92.3984, 54.736
4.824, 10, -32.4877, -2.78926, 24.0461, -159.648, -92.3931, 54.7312
4.828, 10, -32.4698, -2.80748, 24.0632, -159.64, -92.3877, 54.7263
4.832, 10, -32.452, -2.8258, 24.0804, -159.633, -92.3822, 54.7213
4.836, 10, -32.4342, -2.84422, 24.0976, -159.626, -92.3766, 54.7162
4.84, 10, -32.4165, -2.86275, 24.115, -159.618, -92.371, 54.7109
4.844, 10, -32.3988, -2.88137, 24.1323, -159.61, -92.3652, 54.7056
4.848, 10, -32.3811, -2.9001, 24.1498, -159.603, -92.3593, 54.7001
4.852, 10, -32.3635, -2.91894, 24.1674, -159.595, -92.3533, 54.6945
4.856, 10, -32.3459, -2.93787, 24.185, -159.587, -92.3472, 54.6888
4.86, 10, -32.3284, -2.95691, 24.2027, -159.579, -92.341, 54.6829
4.864, 10, -32.3109, -2.97605, 24.2204, -159.571, -92.3347, 54.677
4.868, 11, -32.2934, -2.99529, 24.2383, -159.563, -92.3282, 54.6709
4.872, 11, -32.276, -3.01464, 24.2562, -159.555, -92.3217, 54.6647
4.876, 11, -32.2586, -3.03409, 24.2742, -159.546, -92.3151, 54.6584
4.88, 11, -32.2413, -3.05364, 24.2922, -159.538, -92.3084, 54.652
4.884, 11, -32.224, -3.07329, 24.3104, -159.53, -92.3016, 54.6454
4.888, 11, -32.2068, -3.09305, 24.3286, -159.521, -92.2947, 54.6387
4.892, 11, -32.1895, -3.11291, 24.3469, -159.513, -92.2876, 54.632
4.896, 11, -32.1724, -3.13287, 24.3652, -159.504, -92.2805, 54.6251
4.9, 11, -32.1553, -3.15294, 24.3837, -159.496, -92.2733, 54.618
4.904, 11, -32.1382, -3.17311, 24.4022, -159.487, -92.2659, 54.6109
4.908, 11, -32.1211, -3.19338, 24.4207, -159.478, -92.2585, 54.6036
4.912, 11, -32.1041, -3.21376, 24.4394, -159.469, -92.251, 54.5963
4.916, 12, -32.0871, -3.23424, 24.4581, -159.46, -92.2433, 54.5888
4.92, 12, -32.0702, -3.25482, 24.4769, -159.451, -92.2356, 54.5812
4.924, 12, -32.0533, -3.27551, 24.4958, -159.442, -92.2277, 54.5734
4.928, 12, -32.0365, -3.2963, 24.5148, -159.433, -92.2197, 54.5656
4.932, 12, -32.0197, -3.3172, 24.5338, -159.424, -92.2117, 54.5576
4.936, 12, -32.0029, -3.33819, 24.5529, -159.415, -92.2035, 54.5496
4.94, 12, -31.9862, -3.3593, 24.5721, -159.405, -92.1953, 54.5414
4.944, 12, -31.9695, -3.38051, 24.5914, -159.396, -92.1869, 54.533
4.948, 12, -31.9529, -3.40182, 24.6107, -159.386, -92.1784, 54.5246
4.952, 12, -31.9363, -3.42323, 24.6301, -159.377, -92.1699, 54.5161
4.956, 12, -31.9197, -3.44475, 24.6496, -159.367, -92.1612, 54.5074
4.96, 12, -31.9032, -3.46638, 24.6691, -159.357, -92.1524, 54.4986
4.964, 12, -31.8867, -3.48811, 24.6888, -159.348, -92.1435, 54.4897
4.968, 13, -31.8703, -3.50994, 24.7085, -159.338, -92.1346, 54.4807
4.972, 13, -31.8539, -3.53188, 24.7283, -159.328, -92.1255, 54.4716
4.976, 13, -31.8375, -3.55392, 24.7481, -159.318, -92.1163, 54.4623
4.98, 13, -31.8212, -3.57607, 24.768, -159.308, -92.107, 54.4529
4.984, 13, -31.8049, -3.59832, 24.788, -159.298, -92.0976, 54.4435
4.988, 13, -31.7887, -3.62068, 24.8081, -159.287, -92.0881, 54.4339
4.992, 13, -31.7725, -3.64314, 24.8283, -159.277, -92.0785, 54.4241
4.996, 13, -31.7563, -3.66571, 24.8485, -159.267, -92.0688, 54.4143
5, 13, -31.7402, -3.68838, 24.8688, -159.256, -92.059, 54.4043
5.004, 13, -31.7241, -3.71116, 24.8892, -159.246, -92.0491, 54.3943
5.008, 13, -31.7081, -3.73404, 24.9096, -159.235, -92.0391, 54.3841
5.012, 13, -31.6921, -3.75703, 24.9302, -159.225, -92.0289, 54.3738
5.016, 14, -31.6761, -3.78012, 24.9508, -159.214, -92.0187, 54.3634
5.02, 14, -31.6602, -3.80332, 24.9715, -159.203, -92.0084, 54.3528
5.024, 14, -31.6443, -3.82662, 24.9922, -159.192, -91.998, 54.3422
5.028, 14, -31.6285, -3.85003, 25.013, -159.181, -91.9874, 54.3314
5.032, 14, -31.6127, -3.87354, 25.0339, -159.17, -91.9768, 54.3205
5.036, 14, -31.5969, -3.89716, 25.0549, -159.159, -91.9661, 54.3096
5.04, 14, -31.5812, -3.92089, 25.076, -159.148, -91.9552, 54.2984
5.044, 14, -31.5655, -3.94472, 25.0971, -159.137, -91.9443, 54.2872
5.048, 14, -31.5499, -3.96865, 25.1183, -159.126, -91.9333, 54.2759
5.052, 14, -31.5343, -3.99269, 25.1396, -159.114, -91.9221, 54.2644
5.056, 14, -31.5187, -4.01684, 25.161, -159.103, -91.9109, 54.2528
5.06, 14, -31.5032, -4.0411, 25.1824, -159.092, -91.8995, 54.2411
5.064, 14, -31.4877, -4.06545, 25.2039, -159.08, -91.8881, 54.2293
5.068, 15, -31.4723, -4.08992, 25.2255, -159.069, -91.8765, 54.2174
5.072, 15, -31.4569, -4.11449, 25.2471, -159.057, -91.8649, 54.2054
5.076, 15, -31.4415, -4.13917, 25.2689, -159.045, -91.8531, 54.1932
5.08, 15, -31.4262, -4.16395, 25.2907, -159.033, -91.8412, 54.181
5.084, 15, -31.4109, -4.18884, 25.3125, -159.021, -91.8293, 54.1686
5.088, 15, -31.3956, -4.21384, 25.3345, -159.01, -91.8172, 54.1561
5.092, 15, -31.3804, -4.23894, 25.3565, -158.997, -91.8051, 54.1435
5.096, 15, -31.3653, -4.26415, 25.3786, -158.985, -91.7928, 54.1308
5.1, 15, -31.3501, -4.28947, 25.4008, -158.973, -91.7804, 54.1179
5.104, 15, -31.335, -4.31489, 25.4231, -158.961, -91.7679, 54.105
5.108, 15, -31.32, -4.34042, 25.4454, -158.949, -91.7553, 54.0919
5.112, 15, -31.305, -4.36605, 25.4678, -158.936, -91.7427, 54.0787
5.116, 16, -31.29, -4.3918, 25.4903, -158.924, -91.7299, 54.0654
5.12, 16, -31.2751, -4.41764, 25.5129, -158.912, -91.717, 54.052
5.124, 16, -31.2602, -4.4436, 25.5355, -158.899, -91.704, 54.0385
5.128, 16, -31.2453, -4.46966, 25.5582, -158.886, -91.6909, 54.0248
5.132, 16, -31.2305, -4.49583, 25.581, -158.874, -91.6777, 54.0111
5.136, 16, -31.2158, -4.52211, 25.6039, -158.861, -91.6644, 53.9972
5.14, 16, -31.201, -4.54849, 25.6268, -158.848, -91.651, 53.9832
5.144, 16, -31.1863, -4.57498, 25.6498, -158.835, -91.6375, 53.9691
5.148, 16, -31.1717, -4.60158, 25.6729, -158.822, -91.6239, 53.9549
5.152, 16, -31.157, -4.62829, 25.6961, -158.809, -91.6102, 53.9406
5.156, 16, -31.1425, -4.6551, 25.7193, -158.796, -91.5964, 53.9261
5.16, 16, -31.1279, -4.68202, 25.7427, -158.783, -91.5825, 53.9116
5.164, 16, -31.1134, -4.70904, 25.7661, -158.77, -91.5685, 53.8969
5.168, 17, -31.099, -4.73618, 25.7895, -158.756, -91.5544, 53.8821
5.172, 17, -31.0845, -4.76342, 25.8131, -158.743, -91.5402, 53.8672
5.176, 17, -31.0701, -4.79076, 25.8367, -158.729, -91.5259, 53.8522
5.18, 17, -31.0558, -4.81822, 25.8604, -158.716, -91.5114, 53.8371
5.184, 17, -31.0415, -4.84578, 25.8842, -158.702, -91.4969, 53.8219
5.188, 17, -31.0272, -4.87345, 25.908, -158.689, -91.4823, 53.8065
5.192, 17, -31.013, -4.90123, 25.9319, -158.675, -91.4676, 53.7911
5.196, 17, -30.9988, -4.92911, 25.9559, -158.661, -91.4527, 53.7755
5.2, 17, -30.9847, -4.95711, 25.98, -158.647, -91.4378, 53.7598
5.204, 17, -30.9705, -4.98521, 26.0042, -158.633, -91.4228, 53.744
5.208, 17, -30.9565, -5.01341, 26.0284, -158.62, -91.4077, 53.7281
5.212, 17, -30.9424, -5.04173, 26.0527, -158.605, -91.3924, 53.7121
5.216, 18, -30.9284, -5.07015, 26.0771, -158.591, -91.3771, 53.696
5.22, 18, -30.9145, -5.09868, 26.1016, -158.577, -91.3617, 53.6797
5.224, 18, -30.9006, -5.12732, 26.1261, -158.563, -91.3461, 53.6634
5.228, 18, -30.8867, -5.15607, 26.1507, -158.549, -91.3305, 53.6469
5.232, 18, -30.8728, -5.18492, 26.1754, -158.534, -91.3148, 53.6303
5.236, 18, -30.859, -5.21388, 26.2001, -158.52, -91.2989, 53.6136
5.24, 18, -30.8453, -5.24295, 26.225, -158.505, -91.283, 53.5968
5.244, 18, -30.8315, -5.27213, 26.2499, -158.491, -91.267, 53.5799
5.248, 18, -30.8178, -5.30141, 26.2749, -158.476, -91.2508, 53.5629
5.252, 18, -30.8042, -5.33081, 26.3, -158.461, -91.2346, 53.5457
5.256, 18, -30.7906, -5.36031, 26.3251, -158.446, -91.2182, 53.5285
5.26, 18, -30.777, -5.38992, 26.3503, -158.432, -91.2018, 53.5111
5.264, 18, -30.7635, -5.41963, 26.3756, -158.417, -91.1852, 53.4936
5.268, 19, -30.75, -5.44946, 26.401, -158.402, -91.1686, 53.4761
5.272, 19, -30.7365, -5.47939, 26.4264, -158.387, -91.1518, 53.4584
5.276, 19, -30.7231, -5.50943, 26.452, -158.371, -91.135, 53.4406
5.28, 19, -30.7097, -5.53958, 26.4776, -158.356, -91.1181, 53.4226
5.284, 19, -30.6964, -5.56984, 26.5032, -158.341, -91.101, 53.4046
5.288, 19, -30.6831, -5.60021, 26.529, -158.326, -91.0839, 53.3865
5.292, 19, -30.6698, -5.63068, 26.5548, -158.31, -91.0666, 53.3682
5.296, 19, -30.6566, -5.66126, 26.5807, -158.295, -91.0493, 53.3499
5.3, 19, -30.6434, -5.69195, 26.6067, -158.279, -91.0318, 53.3314
5.304, 19, -30.6302, -5.72275, 26.6328, -158.264, -91.0143, 53.3128
5.308, 19, -30.6171, -5.75365, 26.6589, -158.248, -90.9966, 53.2942
5.312, 19, -30.604, -5.78467, 26.6851, -158.232, -90.9789, 53.2754
5.316, 20, -30.591, -5.81579, 26.7114, -158.216, -90.961, 53.2565
5.32, 20, -30.578, -5.84702, 26.7378, -158.2, -90.9431, 53.2374
5.324, 20, -30.565, -5.87836, 26.7642, -158.185, -90.925, 53.2183
5.328, 20, -30.5521, -5.9098, 26.7907, -158.168, -90.9069, 53.1991
5.332, 20, -30.5392, -5.94136, 26.8173, -158.152, -90.8886, 53.1797
5.336, 20, -30.5264, -5.97302, 26.844, -158.136, -90.8703, 53.1603
5.34, 20, -30.5136, -6.00479, 26.8707, -158.12, -90.8518, 53.1407
5.344, 20, -30.5008, -6.03667, 26.8975, -158.104, -90.8333, 53.1211
5.348, 20, -30.4881, -6.06865, 26.9244, -158.087, -90.8146, 53.1013
5.352, 20, -30.4754, -6.10075, 26.9514, -158.071, -90.7959, 53.0814
5.356, 20, -30.4627, -6.13295, 26.9785, -158.055, -90.7771, 53.0614
5.36, 20, -30.4501, -6.16526, 27.0056, -158.038, -90.7581, 53.0414
5.364, 20, -30.4375, -6.19768, 27.0328, -158.021, -90.7391, 53.0211
5.368, 21, -30.4249, -6.23021, 27.0601, -158.005, -90.7199, 53.0008
5.372, 21, -30.4124, -6.26284, 27.0874, -157.988, -90.7007, 52.9804
5.376, 21, -30.4, -6.29558, 27.1149, -157.971, -90.6814, 52.9599
5.38, 21, -30.3875, -6.32843, 27.1424, -157.954, -90.6619, 52.9393
5.384, 21, -30.3751, -6.36139, 27.17, -157.937, -90.6424, 52.9185
5.388, 21, -30.3628, -6.39446, 27.1976, -157.92, -90.6228, 52.8977
5.392, 21, -30.3505, -6.42763, 27.2254, -157.903, -90.603, 52.8767
5.396, 21, -30.3382, -6.46092, 27.2532, -157.886, -90.5832, 52.8557
5.4, 21, -30.3259, -6.49431, 27.2811, -157.869, -90.5633, 52.8345
5.404, 21, -30.3137, -6.5278, 27.3091, -157.852, -90.5433, 52.8132
5.408, 21, -30.3015, -6.56141, 27.3371, -157.834, -90.5231, 52.7919
5.412, 21, -30.2894, -6.59512, 27.3652, -157.817, -90.5029, 52.7704
5.416, 22, -30.2773, -6.62895, 27.3934, -157.799, -90.4826, 52.7488
5.42, 22, -30.2652, -6.66288, 27.4217, -157.782, -90.4622, 52.7271
5.424, 22, -30.2532, -6.69691, 27.4501, -157.764, -90.4417, 52.7053
5.428, 22, -30.2412, -6.73106, 27.4785, -157.746, -90.4211, 52.6834
5.432, 22, -30.2293, -6.76531, 27.507, -157.729, -90.4004, 52.6614
5.436, 22, -30.2174, -6.79967, 27.5356, -157.711, -90.3796, 52.6393
5.44, 22, -30.2055, -6.83414, 27.5642, -157.693, -90.3587, 52.6171
5.444, 22, -30.1937, -6.86872, 27.593, -157.675, -90.3377, 52.5948
5.448, 22, -30.1819, -6.9034, 27.6218, -157.657, -90.3166, 52.5724
5.452, 22, -30.1701, -6.93819, 27.6507, -157.639, -90.2954, 52.5498
5.456, 22, -30.1584, -6.97309, 27.6796, -157.621, -90.2741, 52.5272
5.46, 22, -30.1467, -7.0081, 27.7087, -157.603, -90.2527, 52.5045
5.464, 22, -30.135, -7.04321, 27.7378, -157.584, -90.2313, 52.4817
5.468, 23, -30.1234, -7.07843, 27.767, -157.566, -90.2097, 52.4587
5.472, 23, -30.1119, -7.11376, 27.7962, -157.547, -90.188, 52.4357
5.476, 23, -30.1003, -7.14919, 27.8256, -157.529, -90.1663, 52.4125
5.48, 23, -30.0888, -7.18473, 27.855, -157.51, -90.1444, 52.3893
5.484, 23, -30.0773, -7.22038, 27.8845, -157.492, -90.1225, 52.366
5.488, 23, -30.0659, -7.25613, 27.9141, -157.473, -90.1004, 52.3425
5.492, 23, -30.0545, -7.292, 27.9437, -157.454, -90.0783, 52.319
5.496, 23, -30.0432, -7.32797, 27.9734, -157.436, -90.056, 52.2953
5.5, 23, -30.0318, -7.36404, 28.0032, -157.417, -90.0337, 52.2716
5.504, 23, -30.0206, -7.40022, 28.0331, -157.398, -90.0113, 52.2478
5.508, 23, -30.0093, -7.43651, 28.0631, -157.379, -89.9887, 52.2238
5.512, 23, -29.9981, -7.47291, 28.0931, -157.36, -89.9661, 52.1998
5.516, 24, -29.9869, -7.50941, 28.1232, -157.34, -89.9434, 52.1756
5.52, 24, -29.9758, -7.54602, 28.1534, -157.321, -89.9206, 52.1514
5.524, 24, -29.9647, -7.58273, 28.1836, -157.302, -89.8977, 52.127
5.528, 24, -29.9536, -7.61955, 28.214, -157.283, -89.8747, 52.1026
5.532, 24, -29.9426, -7.65648, 28.2444, -157.263, -89.8516, 52.0781
5.536, 24, -29.9316, -7.69351, 28.2749, -157.244, -89.8285, 52.0534
5.54, 24, -29.9206, -7.73065, 28.3054, -157.224, -89.8052, 52.0287
5.544, 24, -29.9097, -7.76789, 28.3361, -157.204, -89.7818, 52.0038
5.548, 24, -29.8988, -7.80525, 28.3668, -157.185, -89.7584, 51.9789
5.552, 24, -29.888, -7.8427, 28.3976, -157.165, -89.7348, 51.9539
5.556, 24, -29.8771, -7.88026, 28.4284, -157.145, -89.7112, 51.9287
5.56, 24, -29.8664, -7.91793, 28.4594, -157.125, -89.6874, 51.9035
5.564, 24, -29.8556, -7.95571, 28.4904, -157.105, -89.6636, 51.8782
5.568, 25, -29.8449, -7.99359, 28.5215, -157.085, -89.6397, 51.8528
5.572, 25, -29.8342, -8.03157, 28.5526, -157.065, -89.6157, 51.8273
5.576, 25, -29.8236, -8.06966, 28.5839, -157.045, -89.5916, 51.8017
5.58, 25, -29.813, -8.10785, 28.6152, -157.025, -89.5674, 51.776
5.584, 25, -29.8024, -8.14616, 28.6466, -157.004, -89.5431, 51.7502
5.588, 25, -29.7919, -8.18456, 28.678, -156.984, -89.5187, 51.7243
5.592, 25, -29.7814, -8.22307, 28.7096, -156.964, -89.4942, 51.6983
5.596, 25, -29.771, -8.26168, 28.7412, -156.943, -89.4697, 51.6722
5.6, 25, -29.7605, -8.3004, 28.7729, -156.923, -89.445, 51.646
5.604, 25, -29.7501, -8.33922, 28.8046, -156.902, -89.4203, 51.6198
5.608, 25, -29.7398, -8.37815, 28.8365, -156.881, -89.3955, 51.5934
5.612, 25, -29.7295, -8.41718, 28.8684, -156.861, -89.3705, 51.567
5.616, 26, -29.7192, -8.45632, 28.9004, -156.84, -89.3455, 51.5404
5.62, 26, -29.7089, -8.49556, 28.9325, -156.819, -89.3204, 51.5138
5.624, 26, -29.6987, -8.5349, 28.9646, -156.798, -89.2953, 51.4871
5.628, 26, -29.6885, -8.57435, 28.9968, -156.777, -89.27, 51.4602
5.632, 26, -29.6784, -8.6139, 29.0291, -156.756, -89.2446, 51.4333
5.636, 26, -29.6683, -8.65355, 29.0615, -156.735, -89.2192, 51.4063
5.64, 26, -29.6582, -8.6933, 29.0939, -156.713, -89.1936, 51.3792
5.644, 26, -29.6482, -8.73316, 29.1264, -156.692, -89.168, 51.3521
5.648, 26, -29.6382, -8.77313, 29.159, -156.671, -89.1423, 51.3248
5.652, 26, -29.6282, -8.81319, 29.1917, -156.649, -89.1165, 51.2974
5.656, 26, -29.6183, -8.85336, 29.2244, -156.628, -89.0906, 51.27
5.66, 26, -29.6084, -8.89363, 29.2572, -156.606, -89.0646, 51.2425
5.664, 27, -29.5985, -8.934, 29.2901, -156.585, -89.0385, 51.2149
5.668, 27, -29.5887, -8.97447, 29.323, -156.563, -89.0124, 51.1871
5.672, 27, -29.5789, -9.01505, 29.3561, -156.541, -88.9861, 51.1593
5.676, 27, -29.5691, -9.05573, 29.3892, -156.519, -88.9598, 51.1315
5.68, 27, -29.5594, -9.09651, 29.4223, -156.497, -88.9334, 51.1035
5.684, 27, -29.5497, -9.13739, 29.4556, -156.476, -88.9069, 51.0754
5.688, 27, -29.54, -9.17837, 29.4889, -156.454, -88.8803, 51.0473
5.692, 27, -29.5304, -9.21946, 29.5223, -156.431, -88.8536, 51.0191
5.696, 27, -29.5208, -9.26064, 29.5558, -156.409, -88.8269, 50.9908
5.7, 27, -29.5112, -9.30193, 29.5893, -156.387, -88.8, 50.9624
5.704, 27, -29.5017, -9.34332, 29.6229, -156.365, -88.7731, 50.9339
5.708, 27, -29.4922, -9.3848, 29.6566, -156.342, -88.7461, 50.9053
5.712, 27, -29.4827, -9.42639, 29.6904, -156.32, -88.719, 50.8767
5.716, 28, -29.4733, -9.46808, 29.7242, -156.298, -88.6918, 50.848
5.72, 28, -29.4639, -9.50987, 29.7581, -156.275, -88.6646, 50.8192
5.724, 28, -29.4545, -9.55176, 29.7921, -156.252, -88.6372, 50.7903
5.728, 28, -29.4452, -9.59374, 29.8261, -156.23, -88.6098, 50.7613
5.732, 28, -29.4359, -9.63583, 29.8603, -156.207, -88.5823, 50.7323
5.736, 28, -29.4266, -9.67802, 29.8945, -156.184, -88.5547, 50.7031
5.74, 28, -29.4174, -9.7203, 29.9287, -156.161, -88.527, 50.6739
5.744, 28, -29.4082, -9.76269, 29.9631, -156.138, -88.4993, 50.6446
5.748, 28, -29.399, -9.80517, 29.9975, -156.115, -88.4714, 50.6153
5.752, 28, -29.3899, -9.84775, 30.032, -156.092, -88.4435, 50.5858
5.756, 28, -29.3808, -9.89043, 30.0665, -156.069, -88.4155, 50.5563
5.76, 28, -29.3717, -9.93321, 30.1011, -156.046, -88.3874, 50.5267
5.764, 29, -29.3627, -9.97608, 30.1358, -156.023, -88.3592, 50.497
5.768, 29, -29.3537, -10.0191, 30.1706, -155.999, -88.331, 50.4672
5.772, 29, -29.3447, -10.0621, 30.2054, -155.976, -88.3027, 50.4374
5.776, 29, -29.3358, -10.1053, 30.2404, -155.952, -88.2742, 50.4075
5.78, 29, -29.3269, -10.1486, 30.2753, -155.929, -88.2458, 50.3775
5.784, 29, -29.318, -10.1919, 30.3104, -155.905, -88.2172, 50.3475
5.788, 29, -29.3091, -10.2354, 30.3455, -155.882, -88.1886, 50.3173
5.792, 29, -29.3003, -10.2789, 30.3807, -155.858, -88.1598, 50.2871
5.796, 29, -29.2915, -10.3226, 30.416, -155.834, -88.131, 50.2569
5.8, 29, -29.2828, -10.3663, 30.4513, -155.81, -88.1022, 50.2265
5.804, 29, -29.2741, -10.4102, 30.4867, -155.786, -88.0732, 50.1961
5.808, 29, -29.2654, -10.4541, 30.5222, -155.762, -88.0442, 50.1656
5.812, 29, -29.2567, -10.4981, 30.5577, -155.738, -88.0151, 50.1351
5.816, 30, -29.2481, -10.5422, 30.5933, -155.714, -87.9859, 50.1044
5.82, 30, -29.2395, -10.5865, 30.629, -155.69, -87.9566, 50.0737
5.824, 30, -29.2309, -10.6308, 30.6647, -155.666, -87.9273, 50.043
5.828, 30, -29.2224, -10.6752, 30.7005, -155.641, -87.8979, 50.0121
5.832, 30, -29.2139, -10.7197, 30.7364, -155.617, -87.8684, 49.9812
5.836, 30, -29.2054, -10.7643, 30.7724, -155.593, -87.8388, 49.9503
