rpiRobotics/ARM-21-02-F-19-Robot-Motion-Program/data_performance_abb/curve_1/baseline/0.5/curve_exe_v146.484375_z10.csv
timestamp, cmd_num, J1, J2, J3, J4, J5, J6
0, -1, 12.1994, 19.2169, 14.4517, -145.926, -104.533, 138.355
0.003, -1, 12.1994, 19.2169, 14.4517, -145.926, -104.533, 138.355
0.006, -1, 12.1994, 19.2169, 14.4517, -145.926, -104.533, 138.355
0.008, -1, 12.1994, 19.2169, 14.4517, -145.926, -104.533, 138.355
0.011, -1, 12.1994, 19.2169, 14.4517, -145.926, -104.533, 138.355
0.016, -1, 12.1994, 19.2169, 14.4517, -145.926, -104.533, 138.355
0.02, -1, 12.1994, 19.2169, 14.4517, -145.926, -104.533, 138.355
0.024, -1, 12.1994, 19.2169, 14.4517, -145.926, -104.533, 138.355
0.028, -1, 12.1994, 19.2169, 14.4517, -145.926, -104.533, 138.355
0.032, -1, 12.1993, 19.2169, 14.4517, -145.926, -104.533, 138.355
0.036, -1, 12.1993, 19.2169, 14.4517, -145.926, -104.533, 138.355
0.04, -1, 12.199, 19.2168, 14.4517, -145.926, -104.533, 138.355
0.044, -1, 12.1983, 19.2167, 14.4516, -145.926, -104.533, 138.355
0.048, -1, 12.1971, 19.2165, 14.4515, -145.926, -104.533, 138.354
0.052, -1, 12.195, 19.2161, 14.4513, -145.926, -104.533, 138.354
0.056, -1, 12.1922, 19.2155, 14.451, -145.926, -104.533, 138.354
0.06, -1, 12.1883, 19.2146, 14.4505, -145.926, -104.533, 138.353
0.064, -1, 12.1833, 19.2134, 14.45, -145.926, -104.533, 138.351
0.068, -1, 12.1771, 19.2118, 14.4494, -145.927, -104.533, 138.348
0.072, -1, 12.1694, 19.2097, 14.4488, -145.928, -104.532, 138.344
0.076, -1, 12.1601, 19.207, 14.4481, -145.929, -104.532, 138.338
0.08, -1, 12.1487, 19.2035, 14.4475, -145.931, -104.531, 138.329
0.084, -1, 12.1349, 19.1993, 14.4468, -145.933, -104.529, 138.317
0.088, -1, 12.1185, 19.1941, 14.4463, -145.936, -104.528, 138.302
0.092, -1, 12.0994, 19.188, 14.4461, -145.94, -104.525, 138.282
0.096, -1, 12.0776, 19.1809, 14.4462, -145.945, -104.522, 138.256
0.1, -1, 12.0531, 19.1728, 14.4468, -145.951, -104.518, 138.225
0.104, -1, 12.0258, 19.1636, 14.448, -145.959, -104.514, 138.187
0.108, -1, 11.9955, 19.1534, 14.4499, -145.968, -104.508, 138.142
0.112, -1, 11.9622, 19.1419, 14.4524, -145.978, -104.502, 138.089
0.116, -1, 11.9256, 19.1293, 14.4556, -145.99, -104.495, 138.029
0.12, -1, 11.8859, 19.1155, 14.4596, -146.003, -104.486, 137.961
0.124, -1, 11.8429, 19.1004, 14.4642, -146.018, -104.477, 137.885
0.128, -1, 11.7969, 19.0843, 14.4695, -146.035, -104.467, 137.802
0.131, -1, 11.7479, 19.067, 14.4755, -146.052, -104.456, 137.712
0.136, -1, 11.6959, 19.0486, 14.482, -146.071, -104.444, 137.615
0.139, -1, 11.6411, 19.0293, 14.489, -146.092, -104.431, 137.512
0.144, -1, 11.5833, 19.0089, 14.4964, -146.113, -104.417, 137.403
0.148, -1, 11.5227, 18.9875, 14.504, -146.135, -104.403, 137.29
0.152, -1, 11.4596, 18.9652, 14.5117, -146.158, -104.389, 137.173
0.156, -1, 11.394, 18.9421, 14.5195, -146.182, -104.374, 137.053
0.16, -1, 11.3265, 18.9183, 14.5273, -146.206, -104.359, 136.93
0.164, -1, 11.2572, 18.8939, 14.5352, -146.231, -104.343, 136.805
0.168, -1, 11.1863, 18.8689, 14.5429, -146.256, -104.328, 136.678
0.172, -1, 11.1141, 18.8435, 14.5507, -146.281, -104.312, 136.549
0.176, -1, 11.0407, 18.8177, 14.5583, -146.306, -104.296, 136.42
0.18, -1, 10.9661, 18.7916, 14.5659, -146.332, -104.28, 136.29
0.184, -1, 10.8906, 18.7653, 14.5734, -146.358, -104.264, 136.16
0.188, -1, 10.8143, 18.7388, 14.5808, -146.383, -104.248, 136.029
0.192, -1, 10.7373, 18.7121, 14.5882, -146.409, -104.232, 135.898
0.196, -1, 10.6599, 18.6854, 14.5956, -146.435, -104.216, 135.767
0.2, -1, 10.5823, 18.6586, 14.6029, -146.461, -104.2, 135.636
0.204, -1, 10.5044, 18.6317, 14.6102, -146.486, -104.184, 135.504
0.208, -1, 10.4264, 18.6048, 14.6175, -146.512, -104.168, 135.373
0.212, -1, 10.3484, 18.5779, 14.6248, -146.538, -104.151, 135.241
0.216, -1, 10.2702, 18.551, 14.6321, -146.564, -104.135, 135.11
0.22, -1, 10.192, 18.5241, 14.6394, -146.59, -104.119, 134.979
0.224, -1, 10.1138, 18.4972, 14.6467, -146.616, -104.103, 134.847
0.228, -1, 10.0356, 18.4702, 14.654, -146.642, -104.087, 134.716
0.232, -1, 9.95729, 18.4433, 14.6613, -146.667, -104.071, 134.584
0.236, -1, 9.87902, 18.4163, 14.6686, -146.693, -104.055, 134.452
0.24, -1, 9.80073, 18.3894, 14.6759, -146.719, -104.038, 134.321
0.244, -1, 9.72243, 18.3624, 14.6832, -146.745, -104.022, 134.189
0.248, -1, 9.64413, 18.3355, 14.6905, -146.771, -104.006, 134.058
0.252, -1, 9.56582, 18.3085, 14.6978, -146.797, -103.99, 133.926
0.256, -1, 9.48751, 18.2815, 14.705, -146.823, -103.974, 133.795
0.26, -1, 9.40919, 18.2546, 14.7123, -146.849, -103.958, 133.663
0.264, -1, 9.33087, 18.2276, 14.7196, -146.875, -103.942, 133.531
0.268, -1, 9.25254, 18.2007, 14.7269, -146.9, -103.925, 133.4
0.272, -1, 9.1742, 18.1737, 14.7342, -146.926, -103.909, 133.268
0.276, -1, 9.09586, 18.1467, 14.7415, -146.952, -103.893, 133.137
0.28, -1, 9.01752, 18.1198, 14.7488, -146.978, -103.877, 133.005
0.284, -1, 8.93917, 18.0928, 14.7561, -147.004, -103.861, 132.873
0.288, -1, 8.86081, 18.0658, 14.7634, -147.03, -103.845, 132.742
0.292, -1, 8.78245, 18.0388, 14.7707, -147.056, -103.828, 132.61
0.296, -1, 8.70409, 18.0119, 14.778, -147.082, -103.812, 132.478
0.3, -1, 8.62572, 17.9849, 14.7853, -147.108, -103.796, 132.347
0.304, -1, 8.54735, 17.9579, 14.7926, -147.134, -103.78, 132.215
0.308, -1, 8.46897, 17.9309, 14.7999, -147.159, -103.764, 132.083
0.312, -1, 8.39059, 17.904, 14.8072, -147.185, -103.748, 131.952
0.316, -1, 8.3122, 17.877, 14.8145, -147.211, -103.732, 131.82
0.32, -1, 8.23381, 17.85, 14.8218, -147.237, -103.715, 131.688
0.324, -1, 8.15541, 17.823, 14.8291, -147.263, -103.699, 131.556
0.328, -1, 8.07701, 17.796, 14.8364, -147.289, -103.683, 131.425
0.332, -1, 7.9986, 17.769, 14.8437, -147.315, -103.667, 131.293
0.336, -1, 7.92019, 17.742, 14.851, -147.341, -103.651, 131.161
0.34, -1, 7.84178, 17.715, 14.8583, -147.367, -103.635, 131.029
0.344, -1, 7.76336, 17.688, 14.8656, -147.393, -103.618, 130.898
0.348, -1, 7.68494, 17.6611, 14.8729, -147.419, -103.602, 130.766
0.352, -1, 7.60651, 17.6341, 14.8802, -147.445, -103.586, 130.634
0.356, -1, 7.52807, 17.6071, 14.8875, -147.47, -103.57, 130.502
0.36, -1, 7.44964, 17.5801, 14.8948, -147.496, -103.554, 130.371
0.364, -1, 7.37119, 17.5531, 14.9021, -147.522, -103.537, 130.239
0.368, -1, 7.29275, 17.526, 14.9094, -147.548, -103.521, 130.107
0.372, -1, 7.21429, 17.499, 14.9167, -147.574, -103.505, 129.975
0.376, -1, 7.13584, 17.472, 14.924, -147.6, -103.489, 129.843
0.38, -1, 7.05738, 17.445, 14.9313, -147.626, -103.473, 129.711
0.384, -1, 6.97891, 17.418, 14.9386, -147.652, -103.457, 129.58
0.388, -1, 6.90044, 17.391, 14.9459, -147.678, -103.44, 129.448
0.392, -1, 6.82197, 17.364, 14.9532, -147.704, -103.424, 129.316
0.396, -1, 6.74349, 17.337, 14.9605, -147.73, -103.408, 129.184
0.4, -1, 6.66501, 17.31, 14.9678, -147.756, -103.392, 129.052
0.404, -1, 6.58652, 17.2829, 14.9752, -147.782, -103.376, 128.92
0.408, -1, 6.50802, 17.2559, 14.9825, -147.808, -103.36, 128.788
0.412, -1, 6.42953, 17.2289, 14.9898, -147.834, -103.343, 128.657
0.416, -1, 6.35102, 17.2019, 14.9971, -147.859, -103.327, 128.525
0.42, -1, 6.27252, 17.1749, 15.0044, -147.885, -103.311, 128.393
0.424, -1, 6.194, 17.1478, 15.0117, -147.911, -103.295, 128.261
0.428, -1, 6.11549, 17.1208, 15.019, -147.937, -103.279, 128.129
0.432, -1, 6.03697, 17.0938, 15.0263, -147.963, -103.262, 127.997
0.436, -1, 5.95844, 17.0667, 15.0336, -147.989, -103.246, 127.865
0.44, -1, 5.87991, 17.0397, 15.0409, -148.015, -103.23, 127.733
0.444, -1, 5.80138, 17.0127, 15.0483, -148.041, -103.214, 127.601
0.448, -1, 5.72284, 16.9856, 15.0556, -148.067, -103.198, 127.469
0.452, -1, 5.64429, 16.9586, 15.0629, -148.093, -103.181, 127.337
0.456, -1, 5.56574, 16.9316, 15.0702, -148.119, -103.165, 127.205
0.46, -1, 5.48719, 16.9045, 15.0775, -148.145, -103.149, 127.073
0.464, -1, 5.40863, 16.8775, 15.0848, -148.171, -103.133, 126.941
0.468, -1, 5.33007, 16.8504, 15.0921, -148.197, -103.117, 126.809
0.472, -1, 5.2515, 16.8234, 15.0995, -148.223, -103.1, 126.677
0.476, -1, 5.17293, 16.7964, 15.1068, -148.249, -103.084, 126.545
0.48, -1, 5.09435, 16.7693, 15.1141, -148.275, -103.068, 126.413
0.484, -1, 5.01577, 16.7423, 15.1214, -148.301, -103.052, 126.281
0.488, -1, 4.93719, 16.7152, 15.1287, -148.327, -103.036, 126.149
0.492, -1, 4.85859, 16.6882, 15.136, -148.353, -103.019, 126.017
0.496, -1, 4.78, 16.6611, 15.1434, -148.379, -103.003, 125.885
0.5, -1, 4.7014, 16.634, 15.1507, -148.405, -102.987, 125.753
0.504, -1, 4.62279, 16.607, 15.158, -148.431, -102.971, 125.621
0.508, -1, 4.54418, 16.5799, 15.1653, -148.457, -102.955, 125.489
0.512, -1, 4.46557, 16.5529, 15.1726, -148.483, -102.938, 125.357
0.516, -1, 4.38695, 16.5258, 15.18, -148.509, -102.922, 125.225
0.52, -1, 4.30833, 16.4987, 15.1873, -148.535, -102.906, 125.093
0.524, -1, 4.2297, 16.4717, 15.1946, -148.561, -102.89, 124.96
0.528, -1, 4.15106, 16.4446, 15.2019, -148.587, -102.874, 124.828
0.532, -1, 4.07243, 16.4175, 15.2092, -148.613, -102.857, 124.696
0.536, -1, 3.99378, 16.3905, 15.2166, -148.639, -102.841, 124.564
0.54, -1, 3.91514, 16.3634, 15.2239, -148.665, -102.825, 124.432
0.544, -1, 3.83649, 16.3363, 15.2312, -148.691, -102.809, 124.3
0.548, -1, 3.75783, 16.3092, 15.2385, -148.717, -102.792, 124.168
0.552, -1, 3.67917, 16.2822, 15.2459, -148.743, -102.776, 124.035
0.556, -1, 3.6005, 16.2551, 15.2532, -148.769, -102.76, 123.903
0.56, -1, 3.52183, 16.228, 15.2605, -148.795, -102.744, 123.771
0.564, -1, 3.44316, 16.2009, 15.2678, -148.821, -102.728, 123.639
0.568, -1, 3.36448, 16.1738, 15.2752, -148.847, -102.711, 123.507
0.572, -1, 3.28579, 16.1467, 15.2825, -148.873, -102.695, 123.375
0.576, -1, 3.2071, 16.1197, 15.2898, -148.899, -102.679, 123.242
0.58, -1, 3.12841, 16.0926, 15.2971, -148.925, -102.663, 123.11
0.584, -1, 3.04971, 16.0655, 15.3045, -148.951, -102.646, 122.978
0.588, -1, 2.97101, 16.0384, 15.3118, -148.977, -102.63, 122.846
0.592, -1, 2.8923, 16.0113, 15.3191, -149.003, -102.614, 122.713
0.596, -1, 2.81359, 15.9842, 15.3264, -149.029, -102.598, 122.581
0.6, -1, 2.73487, 15.9571, 15.3338, -149.055, -102.582, 122.449
0.604, -1, 2.65615, 15.93, 15.3411, -149.081, -102.565, 122.317
0.608, -1, 2.57742, 15.9029, 15.3484, -149.107, -102.549, 122.184
0.612, -1, 2.49869, 15.8758, 15.3558, -149.133, -102.533, 122.052
0.616, -1, 2.41996, 15.8487, 15.3631, -149.159, -102.517, 121.92
0.62, -1, 2.34122, 15.8216, 15.3704, -149.185, -102.5, 121.787
0.624, -1, 2.26247, 15.7945, 15.3778, -149.211, -102.484, 121.655
0.628, -1, 2.18372, 15.7674, 15.3851, -149.237, -102.468, 121.523
0.632, -1, 2.10497, 15.7403, 15.3924, -149.263, -102.452, 121.39
0.636, -1, 2.02621, 15.7132, 15.3998, -149.289, -102.435, 121.258
0.64, -1, 1.94745, 15.6861, 15.4071, -149.315, -102.419, 121.126
0.644, -1, 1.86868, 15.6589, 15.4144, -149.341, -102.403, 120.993
0.648, -1, 1.78991, 15.6318, 15.4218, -149.367, -102.387, 120.861
0.652, -1, 1.71113, 15.6047, 15.4291, -149.393, -102.37, 120.729
0.656, -1, 1.63235, 15.5776, 15.4364, -149.419, -102.354, 120.596
0.66, -1, 1.55356, 15.5505, 15.4438, -149.445, -102.338, 120.464
0.664, -1, 1.47477, 15.5233, 15.4511, -149.471, -102.322, 120.332
0.668, -1, 1.39598, 15.4962, 15.4584, -149.497, -102.306, 120.199
0.672, -1, 1.31718, 15.4691, 15.4658, -149.523, -102.289, 120.067
0.676, -1, 1.23837, 15.442, 15.4731, -149.549, -102.273, 119.934
0.68, -1, 1.15956, 15.4148, 15.4804, -149.575, -102.257, 119.802
0.684, -1, 1.08075, 15.3877, 15.4878, -149.601, -102.241, 119.67
0.688, -1, 1.00193, 15.3606, 15.4951, -149.627, -102.224, 119.537
0.692, -1, 0.923108, 15.3334, 15.5025, -149.654, -102.208, 119.405
0.696, -1, 0.844281, 15.3063, 15.5098, -149.68, -102.192, 119.272
0.7, -1, 0.76545, 15.2792, 15.5171, -149.706, -102.175, 119.14
0.704, -1, 0.686613, 15.252, 15.5245, -149.732, -102.159, 119.007
0.708, -1, 0.607772, 15.2249, 15.5318, -149.758, -102.143, 118.875
0.712, -1, 0.528927, 15.1978, 15.5392, -149.784, -102.127, 118.742
0.716, -1, 0.450076, 15.1706, 15.5465, -149.81, -102.11, 118.61
0.72, -1, 0.371221, 15.1435, 15.5538, -149.836, -102.094, 118.477
0.724, -1, 0.292361, 15.1163, 15.5612, -149.862, -102.078, 118.345
0.728, -1, 0.213497, 15.0892, 15.5685, -149.888, -102.062, 118.212
0.732, -1, 0.134627, 15.062, 15.5759, -149.914, -102.045, 118.08
0.736, -1, 0.0557533, 15.0349, 15.5832, -149.94, -102.029, 117.947
0.74, -1, -0.0231255, 15.0077, 15.5906, -149.966, -102.013, 117.815
0.744, -1, -0.102009, 14.9806, 15.5979, -149.992, -101.997, 117.682
0.748, -1, -0.180897, 14.9534, 15.6053, -150.018, -101.98, 117.55
0.752, -1, -0.25979, 14.9263, 15.6126, -150.044, -101.964, 117.417
0.756, -1, -0.338687, 14.8991, 15.6199, -150.071, -101.948, 117.285
0.76, -1, -0.41759, 14.8719, 15.6273, -150.097, -101.932, 117.152
0.764, -1, -0.496496, 14.8448, 15.6346, -150.123, -101.915, 117.02
0.768, -1, -0.575408, 14.8176, 15.642, -150.149, -101.899, 116.887
0.772, -1, -0.654324, 14.7905, 15.6493, -150.175, -101.883, 116.754
0.776, -1, -0.733245, 14.7633, 15.6567, -150.201, -101.866, 116.622
0.78, -1, -0.812171, 14.7361, 15.664, -150.227, -101.85, 116.489
0.784, -1, -0.891102, 14.709, 15.6714, -150.253, -101.834, 116.357
0.788, -1, -0.970037, 14.6818, 15.6787, -150.279, -101.818, 116.224
0.792, -1, -1.04898, 14.6546, 15.6861, -150.305, -101.801, 116.091
0.796, -1, -1.12792, 14.6274, 15.6934, -150.331, -101.785, 115.959
0.8, -1, -1.20687, 14.6003, 15.7008, -150.358, -101.769, 115.826
0.804, -1, -1.28583, 14.5731, 15.7081, -150.384, -101.753, 115.693
0.808, -1, -1.36479, 14.5459, 15.7155, -150.41, -101.736, 115.561
0.812, -1, -1.44375, 14.5187, 15.7228, -150.436, -101.72, 115.428
0.816, -1, -1.52272, 14.4915, 15.7302, -150.462, -101.704, 115.295
0.82, -1, -1.6017, 14.4643, 15.7375, -150.488, -101.687, 115.163
0.824, -1, -1.68067, 14.4372, 15.7449, -150.514, -101.671, 115.03
0.828, -1, -1.75966, 14.41, 15.7522, -150.54, -101.655, 114.897
0.832, -1, -1.83865, 14.3828, 15.7596, -150.566, -101.639, 114.764
0.836, -1, -1.91764, 14.3556, 15.767, -150.592, -101.622, 114.632
0.84, -1, -1.99664, 14.3284, 15.7743, -150.619, -101.606, 114.499
0.844, -1, -2.07564, 14.3012, 15.7817, -150.645, -101.59, 114.366
0.848, -1, -2.15465, 14.274, 15.789, -150.671, -101.573, 114.234
0.852, -1, -2.23366, 14.2468, 15.7964, -150.697, -101.557, 114.101
0.856, -1, -2.31268, 14.2196, 15.8037, -150.723, -101.541, 113.968
0.86, -1, -2.3917, 14.1924, 15.8111, -150.749, -101.525, 113.835
0.864, -1, -2.47073, 14.1652, 15.8185, -150.775, -101.508, 113.702
0.868, -1, -2.54976, 14.138, 15.8258, -150.801, -101.492, 113.57
0.872, -1, -2.6288, 14.1108, 15.8332, -150.827, -101.476, 113.437
0.876, -1, -2.70784, 14.0836, 15.8405, -150.854, -101.459, 113.304
0.88, -1, -2.78689, 14.0564, 15.8479, -150.88, -101.443, 113.171
0.884, -1, -2.86594, 14.0292, 15.8553, -150.906, -101.427, 113.038
0.888, -1, -2.945, 14.0019, 15.8626, -150.932, -101.41, 112.906
0.892, -1, -3.02406, 13.9747, 15.87, -150.958, -101.394, 112.773
0.896, -1, -3.10313, 13.9475, 15.8773, -150.984, -101.378, 112.64
0.9, -1, -3.1822, 13.9203, 15.8847, -151.01, -101.362, 112.507
0.904, -1, -3.26127, 13.8931, 15.8921, -151.037, -101.345, 112.374
0.908, -1, -3.34035, 13.8659, 15.8994, -151.063, -101.329, 112.241
0.912, -1, -3.41944, 13.8386, 15.9068, -151.089, -101.313, 112.108
0.916, -1, -3.49853, 13.8114, 15.9142, -151.115, -101.296, 111.976
0.92, -1, -3.57763, 13.7842, 15.9215, -151.141, -101.28, 111.843
0.924, -1, -3.65673, 13.757, 15.9289, -151.167, -101.264, 111.71
0.928, -1, -3.73583, 13.7297, 15.9362, -151.193, -101.247, 111.577
0.932, -1, -3.81494, 13.7025, 15.9436, -151.22, -101.231, 111.444
0.936, -1, -3.89405, 13.6753, 15.951, -151.246, -101.215, 111.311
0.94, -1, -3.97317, 13.648, 15.9583, -151.272, -101.198, 111.178
0.944, -1, -4.0523, 13.6208, 15.9657, -151.298, -101.182, 111.045
0.948, -1, -4.13143, 13.5935, 15.9731, -151.324, -101.166, 110.912
0.952, -1, -4.21056, 13.5663, 15.9804, -151.35, -101.15, 110.779
0.956, -1, -4.2897, 13.5391, 15.9878, -151.376, -101.133, 110.646
0.96, -1, -4.36884, 13.5118, 15.9952, -151.403, -101.117, 110.513
0.964, -1, -4.44799, 13.4846, 16.0026, -151.429, -101.101, 110.38
0.968, -1, -4.52714, 13.4573, 16.0099, -151.455, -101.084, 110.247
0.972, -1, -4.6063, 13.4301, 16.0173, -151.481, -101.068, 110.114
0.976, -1, -4.68546, 13.4028, 16.0247, -151.507, -101.052, 109.981
0.98, -1, -4.76463, 13.3756, 16.032, -151.533, -101.035, 109.848
0.984, -1, -4.8438, 13.3483, 16.0394, -151.56, -101.019, 109.715
0.988, -1, -4.92298, 13.3211, 16.0468, -151.586, -101.003, 109.582
0.992, -1, -5.00216, 13.2938, 16.0542, -151.612, -100.986, 109.449
0.996, -1, -5.08135, 13.2666, 16.0615, -151.638, -100.97, 109.316
1, -1, -5.16054, 13.2393, 16.0689, -151.664, -100.954, 109.183
1.004, -1, -5.23974, 13.212, 16.0763, -151.69, -100.937, 109.05
1.008, -1, -5.31894, 13.1848, 16.0836, -151.717, -100.921, 108.917
1.012, -1, -5.39814, 13.1575, 16.091, -151.743, -100.905, 108.784
1.016, -1, -5.47735, 13.1302, 16.0984, -151.769, -100.888, 108.651
1.02, -1, -5.55657, 13.103, 16.1058, -151.795, -100.872, 108.518
1.024, -1, -5.63579, 13.0757, 16.1131, -151.821, -100.856, 108.385
1.027, -1, -5.71501, 13.0484, 16.1205, -151.848, -100.839, 108.251
1.032, -1, -5.79424, 13.0212, 16.1279, -151.874, -100.823, 108.118
1.036, -1, -5.87348, 12.9939, 16.1353, -151.9, -100.807, 107.985
1.04, -1, -5.95272, 12.9666, 16.1427, -151.926, -100.79, 107.852
1.044, -1, -6.03196, 12.9393, 16.15, -151.952, -100.774, 107.719
1.048, -1, -6.11121, 12.9121, 16.1574, -151.979, -100.758, 107.586
1.052, -1, -6.19046, 12.8848, 16.1648, -152.005, -100.741, 107.453
1.055, -1, -6.26972, 12.8575, 16.1722, -152.031, -100.725, 107.319
1.06, -1, -6.34898, 12.8302, 16.1796, -152.057, -100.709, 107.186
1.064, -1, -6.42825, 12.8029, 16.1869, -152.083, -100.692, 107.053
1.068, -1, -6.50752, 12.7756, 16.1943, -152.109, -100.676, 106.92
1.072, -1, -6.5868, 12.7483, 16.2017, -152.136, -100.66, 106.787
1.076, -1, -6.66608, 12.7211, 16.2091, -152.162, -100.643, 106.653
1.08, -1, -6.74537, 12.6938, 16.2165, -152.188, -100.627, 106.52
1.084, -1, -6.82466, 12.6665, 16.2238, -152.214, -100.611, 106.387
1.088, -1, -6.90396, 12.6392, 16.2312, -152.241, -100.594, 106.254
1.091, -1, -6.98326, 12.6119, 16.2386, -152.267, -100.578, 106.121
1.096, -1, -7.06257, 12.5846, 16.246, -152.293, -100.562, 105.987
1.1, -1, -7.14188, 12.5573, 16.2534, -152.319, -100.545, 105.854
1.104, -1, -7.22119, 12.53, 16.2608, -152.345, -100.529, 105.721
1.108, -1, -7.30051, 12.5027, 16.2681, -152.372, -100.512, 105.588
1.112, -1, -7.37984, 12.4754, 16.2755, -152.398, -100.496, 105.454
1.116, -1, -7.45917, 12.4481, 16.2829, -152.424, -100.48, 105.321
1.119, -1, -7.53851, 12.4207, 16.2903, -152.45, -100.463, 105.188
1.124, -1, -7.61785, 12.3934, 16.2977, -152.476, -100.447, 105.054
1.128, -1, -7.6972, 12.3661, 16.3051, -152.503, -100.431, 104.921
1.132, -1, -7.77655, 12.3388, 16.3125, -152.529, -100.414, 104.788
1.136, -1, -7.8559, 12.3115, 16.3199, -152.555, -100.398, 104.654
1.14, -1, -7.93526, 12.2842, 16.3272, -152.581, -100.382, 104.521
1.144, -1, -8.01463, 12.2569, 16.3346, -152.608, -100.365, 104.388
1.147, -1, -8.094, 12.2295, 16.342, -152.634, -100.349, 104.254
1.152, -1, -8.17338, 12.2022, 16.3494, -152.66, -100.332, 104.121
1.156, -1, -8.25276, 12.1749, 16.3568, -152.686, -100.316, 103.988
1.16, -1, -8.33214, 12.1476, 16.3642, -152.713, -100.3, 103.854
1.164, -1, -8.41153, 12.1202, 16.3716, -152.739, -100.283, 103.721
1.168, -1, -8.49093, 12.0929, 16.379, -152.765, -100.267, 103.587
1.172, -1, -8.57033, 12.0656, 16.3864, -152.791, -100.251, 103.454
1.175, -1, -8.64974, 12.0382, 16.3938, -152.818, -100.234, 103.321
1.18, -1, -8.72915, 12.0109, 16.4012, -152.844, -100.218, 103.187
1.184, -1, -8.80857, 11.9836, 16.4086, -152.87, -100.202, 103.054
1.188, -1, -8.88799, 11.9562, 16.416, -152.896, -100.185, 102.92
1.192, -1, -8.96742, 11.9289, 16.4233, -152.923, -100.169, 102.787
1.196, -1, -9.04685, 11.9015, 16.4307, -152.949, -100.152, 102.653
1.2, -1, -9.12629, 11.8742, 16.4381, -152.975, -100.136, 102.52
1.204, -1, -9.20573, 11.8468, 16.4455, -153.001, -100.12, 102.386
1.208, -1, -9.28518, 11.8195, 16.4529, -153.028, -100.103, 102.253
1.212, -1, -9.36463, 11.7922, 16.4603, -153.054, -100.087, 102.119
1.216, -1, -9.44409, 11.7648, 16.4677, -153.08, -100.07, 101.986
1.22, -1, -9.52355, 11.7374, 16.4751, -153.106, -100.054, 101.852
1.224, -1, -9.60302, 11.7101, 16.4825, -153.133, -100.038, 101.719
1.228, -1, -9.6825, 11.6827, 16.4899, -153.159, -100.021, 101.585
1.232, -1, -9.76198, 11.6554, 16.4973, -153.185, -100.005, 101.452
1.236, -1, -9.84146, 11.628, 16.5047, -153.211, -99.9885, 101.318
1.24, -1, -9.92095, 11.6007, 16.5121, -153.238, -99.9721, 101.185
1.244, -1, -10.0004, 11.5733, 16.5195, -153.264, -99.9558, 101.051
1.248, -1, -10.0799, 11.5459, 16.5269, -153.29, -99.9394, 100.918
1.252, -1, -10.1594, 11.5186, 16.5343, -153.317, -99.923, 100.784
1.256, -1, -10.239, 11.4912, 16.5417, -153.343, -99.9066, 100.65
1.26, -1, -10.3185, 11.4638, 16.5491, -153.369, -99.8902, 100.517
1.264, -1, -10.398, 11.4364, 16.5565, -153.395, -99.8738, 100.383
1.267, -1, -10.4775, 11.4091, 16.5639, -153.422, -99.8574, 100.25
1.272, -1, -10.5571, 11.3817, 16.5714, -153.448, -99.841, 100.116
1.276, -1, -10.6366, 11.3543, 16.5788, -153.474, -99.8246, 99.9823
1.28, -1, -10.7161, 11.3269, 16.5862, -153.501, -99.8082, 99.8486
1.284, -1, -10.7957, 11.2995, 16.5936, -153.527, -99.7918, 99.715
1.288, -1, -10.8752, 11.2722, 16.601, -153.553, -99.7754, 99.5813
1.292, -1, -10.9548, 11.2448, 16.6084, -153.579, -99.759, 99.4477
1.295, -1, -11.0344, 11.2174, 16.6158, -153.606, -99.7426, 99.314
1.3, -1, -11.1139, 11.19, 16.6232, -153.632, -99.7262, 99.1803
1.304, -1, -11.1935, 11.1626, 16.6306, -153.658, -99.7098, 99.0466
1.308, -1, -11.2731, 11.1352, 16.638, -153.685, -99.6934, 98.9129
1.312, -1, -11.3527, 11.1078, 16.6454, -153.711, -99.6769, 98.7792
1.316, -1, -11.4322, 11.0804, 16.6528, -153.737, -99.6605, 98.6454
1.32, -1, -11.5118, 11.053, 16.6603, -153.764, -99.6441, 98.5117
1.324, -1, -11.5914, 11.0256, 16.6677, -153.79, -99.6277, 98.378
1.328, -1, -11.671, 10.9982, 16.6751, -153.816, -99.6113, 98.2442
1.332, -1, -11.7506, 10.9708, 16.6825, -153.842, -99.5949, 98.1105
1.336, -1, -11.8303, 10.9434, 16.6899, -153.869, -99.5785, 97.9767
1.34, -1, -11.9099, 10.916, 16.6973, -153.895, -99.5621, 97.8429
1.344, -1, -11.9895, 10.8886, 16.7047, -153.921, -99.5456, 97.7091
1.348, -1, -12.0691, 10.8612, 16.7121, -153.948, -99.5292, 97.5753
1.352, -1, -12.1488, 10.8338, 16.7196, -153.974, -99.5128, 97.4415
1.356, -1, -12.2284, 10.8064, 16.727, -154, -99.4964, 97.3077
1.36, -1, -12.3081, 10.7789, 16.7344, -154.027, -99.48, 97.1739
1.364, -1, -12.3877, 10.7515, 16.7418, -154.053, -99.4635, 97.0401
1.368, -1, -12.4674, 10.7241, 16.7492, -154.079, -99.4471, 96.9062
1.372, -1, -12.547, 10.6967, 16.7566, -154.106, -99.4307, 96.7724
1.376, -1, -12.6267, 10.6693, 16.7641, -154.132, -99.4143, 96.6385
1.38, -1, -12.7064, 10.6418, 16.7715, -154.158, -99.3978, 96.5047
1.384, -1, -12.786, 10.6144, 16.7789, -154.185, -99.3814, 96.3708
1.388, -1, -12.8657, 10.587, 16.7863, -154.211, -99.365, 96.2369
1.392, -1, -12.9454, 10.5596, 16.7937, -154.237, -99.3485, 96.103
1.396, -1, -13.0251, 10.5321, 16.8011, -154.264, -99.3321, 95.9691
1.4, -1, -13.1048, 10.5047, 16.8086, -154.29, -99.3157, 95.8352
1.404, -1, -13.1845, 10.4773, 16.816, -154.316, -99.2993, 95.7013
1.408, -1, -13.2642, 10.4498, 16.8234, -154.343, -99.2828, 95.5674
1.412, -1, -13.3439, 10.4224, 16.8308, -154.369, -99.2664, 95.4335
1.416, -1, -13.4236, 10.3949, 16.8383, -154.395, -99.2499, 95.2995
1.42, -1, -13.5034, 10.3675, 16.8457, -154.422, -99.2335, 95.1656
1.424, -1, -13.5831, 10.3401, 16.8531, -154.448, -99.2171, 95.0316
1.428, -1, -13.6628, 10.3126, 16.8605, -154.474, -99.2006, 94.8976
1.432, -1, -13.7426, 10.2852, 16.868, -154.501, -99.1842, 94.7637
1.436, -1, -13.8223, 10.2577, 16.8754, -154.527, -99.1678, 94.6297
1.44, -1, -13.9021, 10.2303, 16.8828, -154.554, -99.1513, 94.4957
1.444, -1, -13.9818, 10.2028, 16.8902, -154.58, -99.1349, 94.3617
1.448, -1, -14.0616, 10.1753, 16.8977, -154.606, -99.1184, 94.2277
1.452, -1, -14.1413, 10.1479, 16.9051, -154.633, -99.102, 94.0937
1.456, -1, -14.2211, 10.1204, 16.9125, -154.659, -99.0855, 93.9596
1.46, -1, -14.3009, 10.093, 16.9199, -154.685, -99.0691, 93.8256
1.464, -1, -14.3807, 10.0655, 16.9274, -154.712, -99.0526, 93.6915
1.468, -1, -14.4605, 10.038, 16.9348, -154.738, -99.0362, 93.5575
1.472, -1, -14.5402, 10.0106, 16.9422, -154.764, -99.0197, 93.4234
1.476, -1, -14.62, 9.98311, 16.9496, -154.791, -99.0033, 93.2893
1.48, -1, -14.6998, 9.95564, 16.9571, -154.817, -98.9868, 93.1553
1.484, -1, -14.7796, 9.92817, 16.9645, -154.844, -98.9704, 93.0212
1.488, -1, -14.8595, 9.90069, 16.9719, -154.87, -98.9539, 92.8871
1.492, -1, -14.9393, 9.87322, 16.9794, -154.896, -98.9375, 92.753
1.496, -1, -15.0191, 9.84574, 16.9868, -154.923, -98.921, 92.6189
1.5, -1, -15.0989, 9.81826, 16.9942, -154.949, -98.9045, 92.4847
1.504, -1, -15.1788, 9.79078, 17.0017, -154.976, -98.8881, 92.3506
1.508, -1, -15.2586, 9.7633, 17.0091, -155.002, -98.8716, 92.2164
1.512, -1, -15.3385, 9.73582, 17.0165, -155.028, -98.8552, 92.0823
1.516, -1, -15.4183, 9.70833, 17.024, -155.055, -98.8387, 91.9481
1.52, -1, -15.4982, 9.68084, 17.0314, -155.081, -98.8222, 91.814
1.524, -1, -15.578, 9.65335, 17.0388, -155.107, -98.8058, 91.6798
1.528, -1, -15.6579, 9.62586, 17.0463, -155.134, -98.7893, 91.5456
1.532, -1, -15.7378, 9.59837, 17.0537, -155.16, -98.7728, 91.4114
1.536, -1, -15.8176, 9.57087, 17.0612, -155.187, -98.7564, 91.2772
1.54, -1, -15.8975, 9.54337, 17.0686, -155.213, -98.7399, 91.143
1.544, -1, -15.9774, 9.51587, 17.076, -155.239, -98.7234, 91.0087
1.548, -1, -16.0573, 9.48837, 17.0835, -155.266, -98.7069, 90.8745
1.552, -1, -16.1372, 9.46087, 17.0909, -155.292, -98.6905, 90.7402
1.556, -1, -16.2171, 9.43336, 17.0983, -155.319, -98.674, 90.606
1.56, -1, -16.297, 9.40585, 17.1058, -155.345, -98.6575, 90.4717
1.564, -1, -16.3769, 9.37835, 17.1132, -155.372, -98.641, 90.3375
1.568, -1, -16.4569, 9.35083, 17.1207, -155.398, -98.6246, 90.2032
1.572, -1, -16.5368, 9.32332, 17.1281, -155.424, -98.6081, 90.0689
1.576, -1, -16.6167, 9.2958, 17.1356, -155.451, -98.5916, 89.9346
1.58, -1, -16.6967, 9.26829, 17.143, -155.477, -98.5751, 89.8003
1.584, -1, -16.7766, 9.24077, 17.1504, -155.504, -98.5586, 89.6659
1.588, -1, -16.8566, 9.21325, 17.1579, -155.53, -98.5421, 89.5316
1.592, -1, -16.9365, 9.18573, 17.1653, -155.557, -98.5257, 89.3973
1.596, -1, -17.0165, 9.1582, 17.1728, -155.583, -98.5092, 89.2629
1.6, -1, -17.0965, 9.13067, 17.1802, -155.609, -98.4927, 89.1285
1.604, -1, -17.1764, 9.10314, 17.1877, -155.636, -98.4762, 88.9942
1.608, -1, -17.2564, 9.07561, 17.1951, -155.662, -98.4597, 88.8598
1.612, -1, -17.3364, 9.04808, 17.2026, -155.689, -98.4432, 88.7254
1.616, -1, -17.4164, 9.02055, 17.21, -155.715, -98.4267, 88.591
1.62, -1, -17.4964, 8.99301, 17.2175, -155.742, -98.4102, 88.4566
1.624, -1, -17.5764, 8.96547, 17.2249, -155.768, -98.3937, 88.3222
1.628, -1, -17.6564, 8.93793, 17.2324, -155.794, -98.3772, 88.1877
1.632, -1, -17.7364, 8.91039, 17.2398, -155.821, -98.3607, 88.0533
1.636, -1, -17.8164, 8.88284, 17.2473, -155.847, -98.3442, 87.9189
1.64, -1, -17.8964, 8.8553, 17.2547, -155.874, -98.3277, 87.7844
1.644, -1, -17.9765, 8.82775, 17.2622, -155.9, -98.3112, 87.6499
1.648, -1, -18.0565, 8.8002, 17.2696, -155.927, -98.2947, 87.5155
1.652, -1, -18.1366, 8.77264, 17.2771, -155.953, -98.2782, 87.381
1.656, -1, -18.2166, 8.74509, 17.2845, -155.98, -98.2617, 87.2465
1.66, -1, -18.2967, 8.71753, 17.292, -156.006, -98.2452, 87.112
1.664, -1, -18.3767, 8.68997, 17.2994, -156.033, -98.2287, 86.9775
1.668, -1, -18.4568, 8.66241, 17.3069, -156.059, -98.2122, 86.8429
1.672, -1, -18.5369, 8.63485, 17.3143, -156.085, -98.1957, 86.7084
1.676, -1, -18.6169, 8.60729, 17.3218, -156.112, -98.1792, 86.5739
1.68, -1, -18.697, 8.57972, 17.3292, -156.138, -98.1627, 86.4393
1.684, -1, -18.7771, 8.55215, 17.3367, -156.165, -98.1462, 86.3047
1.688, -1, -18.8572, 8.52458, 17.3442, -156.191, -98.1297, 86.1702
1.692, -1, -18.9373, 8.49701, 17.3516, -156.218, -98.1131, 86.0356
1.696, -1, -19.0174, 8.46944, 17.3591, -156.244, -98.0966, 85.901
1.7, -1, -19.0975, 8.44186, 17.3665, -156.271, -98.0801, 85.7664
1.704, -1, -19.1776, 8.41428, 17.374, -156.297, -98.0636, 85.6318
1.708, -1, -19.2577, 8.3867, 17.3815, -156.324, -98.0471, 85.4972
1.712, -1, -19.3379, 8.35912, 17.3889, -156.35, -98.0305, 85.3625
1.716, -1, -19.418, 8.33154, 17.3964, -156.377, -98.014, 85.2279
1.72, -1, -19.4981, 8.30395, 17.4038, -156.403, -97.9975, 85.0932
1.724, -1, -19.5783, 8.27636, 17.4113, -156.43, -97.981, 84.9586
1.728, -1, -19.6584, 8.24877, 17.4188, -156.456, -97.9644, 84.8239
1.732, -1, -19.7386, 8.22118, 17.4262, -156.483, -97.9479, 84.6892
1.736, -1, -19.8188, 8.19359, 17.4337, -156.509, -97.9314, 84.5546
1.74, -1, -19.8989, 8.16599, 17.4412, -156.536, -97.9149, 84.4199
1.744, -1, -19.9791, 8.1384, 17.4486, -156.562, -97.8983, 84.2851
1.748, -1, -20.0593, 8.1108, 17.4561, -156.589, -97.8818, 84.1504
1.752, -1, -20.1395, 8.08319, 17.4635, -156.615, -97.8653, 84.0157
1.756, -1, -20.2197, 8.05559, 17.471, -156.642, -97.8487, 83.881
1.76, -1, -20.2999, 8.02799, 17.4785, -156.668, -97.8322, 83.7462
1.764, -1, -20.3801, 8.00038, 17.4859, -156.695, -97.8157, 83.6115
1.768, -1, -20.4603, 7.97277, 17.4934, -156.721, -97.7991, 83.4767
1.772, -1, -20.5405, 7.94516, 17.5009, -156.748, -97.7826, 83.3419
1.776, -1, -20.6207, 7.91754, 17.5084, -156.774, -97.766, 83.2072
1.78, -1, -20.7009, 7.88993, 17.5158, -156.801, -97.7495, 83.0724
1.784, -1, -20.7811, 7.86231, 17.5233, -156.827, -97.733, 82.9376
1.788, -1, -20.8614, 7.83469, 17.5308, -156.854, -97.7164, 82.8027
1.792, -1, -20.9416, 7.80707, 17.5382, -156.88, -97.6999, 82.6679
1.796, -1, -21.0219, 7.77945, 17.5457, -156.907, -97.6833, 82.5331
1.8, -1, -21.1021, 7.75182, 17.5532, -156.933, -97.6668, 82.3983
1.804, -1, -21.1824, 7.7242, 17.5607, -156.96, -97.6502, 82.2634
1.808, -1, -21.2626, 7.69657, 17.5681, -156.986, -97.6337, 82.1285
1.812, -1, -21.3429, 7.66894, 17.5756, -157.013, -97.6171, 81.9937
1.816, -1, -21.4232, 7.6413, 17.5831, -157.039, -97.6006, 81.8588
1.82, -1, -21.5035, 7.61367, 17.5905, -157.066, -97.584, 81.7239
1.824, -1, -21.5838, 7.58603, 17.598, -157.093, -97.5675, 81.589
1.828, -1, -21.6641, 7.55839, 17.6055, -157.119, -97.5509, 81.4541
1.832, -1, -21.7444, 7.53075, 17.613, -157.146, -97.5344, 81.3192
1.836, -1, -21.8247, 7.50311, 17.6205, -157.172, -97.5178, 81.1843
1.84, -1, -21.905, 7.47546, 17.6279, -157.199, -97.5013, 81.0493
1.844, -1, -21.9853, 7.44782, 17.6354, -157.225, -97.4847, 80.9144
1.848, -1, -22.0656, 7.42017, 17.6429, -157.252, -97.4681, 80.7794
1.852, -1, -22.1459, 7.39252, 17.6504, -157.278, -97.4516, 80.6445
1.856, -1, -22.2263, 7.36487, 17.6578, -157.305, -97.435, 80.5095
1.86, -1, -22.3066, 7.33721, 17.6653, -157.331, -97.4184, 80.3745
1.864, -1, -22.387, 7.30956, 17.6728, -157.358, -97.4019, 80.2395
1.868, -1, -22.4673, 7.2819, 17.6803, -157.385, -97.3853, 80.1045
1.872, -1, -22.5477, 7.25424, 17.6878, -157.411, -97.3687, 79.9695
1.876, -1, -22.628, 7.22657, 17.6953, -157.438, -97.3522, 79.8345
1.88, -1, -22.7084, 7.19891, 17.7027, -157.464, -97.3356, 79.6994
1.884, -1, -22.7888, 7.17124, 17.7102, -157.491, -97.319, 79.5644
1.888, -1, -22.8691, 7.14357, 17.7177, -157.517, -97.3025, 79.4293
1.892, -1, -22.9495, 7.1159, 17.7252, -157.544, -97.2859, 79.2943
1.896, -1, -23.0299, 7.08823, 17.7327, -157.57, -97.2693, 79.1592
1.9, -1, -23.1103, 7.06055, 17.7402, -157.597, -97.2527, 79.0241
1.904, -1, -23.1907, 7.03288, 17.7476, -157.624, -97.2362, 78.889
1.908, -1, -23.2711, 7.0052, 17.7551, -157.65, -97.2196, 78.7539
1.912, -1, -23.3516, 6.97752, 17.7626, -157.677, -97.203, 78.6188
1.916, -1, -23.432, 6.94983, 17.7701, -157.703, -97.1864, 78.4837
1.92, -1, -23.5124, 6.92215, 17.7776, -157.73, -97.1698, 78.3486
1.924, -1, -23.5928, 6.89446, 17.7851, -157.757, -97.1532, 78.2134
1.928, -1, -23.6733, 6.86677, 17.7926, -157.783, -97.1367, 78.0783
1.932, -1, -23.7537, 6.83908, 17.8001, -157.81, -97.1201, 77.9431
1.936, -1, -23.8342, 6.81139, 17.8076, -157.836, -97.1035, 77.8079
1.94, -1, -23.9146, 6.78369, 17.815, -157.863, -97.0869, 77.6727
1.944, -1, -23.9951, 6.75599, 17.8225, -157.89, -97.0703, 77.5375
1.948, -1, -24.0756, 6.72829, 17.83, -157.916, -97.0537, 77.4023
1.952, -1, -24.1561, 6.70059, 17.8375, -157.943, -97.0371, 77.2671
1.956, -1, -24.2365, 6.67289, 17.845, -157.969, -97.0205, 77.1319
1.96, -1, -24.317, 6.64518, 17.8525, -157.996, -97.0039, 76.9966
1.964, -1, -24.3975, 6.61747, 17.86, -158.023, -96.9873, 76.8614
1.968, -1, -24.478, 6.58976, 17.8675, -158.049, -96.9707, 76.7261
1.972, -1, -24.5585, 6.56205, 17.875, -158.076, -96.9541, 76.5909
1.976, -1, -24.6391, 6.53433, 17.8825, -158.102, -96.9375, 76.4556
1.98, -1, -24.7196, 6.50661, 17.89, -158.129, -96.9209, 76.3203
1.984, -1, -24.8001, 6.47889, 17.8975, -158.156, -96.9043, 76.185
1.988, -1, -24.8806, 6.45117, 17.905, -158.182, -96.8877, 76.0497
1.992, -1, -24.9612, 6.42345, 17.9125, -158.209, -96.8711, 75.9144
1.996, -1, -25.0417, 6.39572, 17.92, -158.235, -96.8545, 75.779
1.999, -1, -25.1223, 6.36799, 17.9275, -158.262, -96.8379, 75.6437
2.004, -1, -25.2028, 6.34026, 17.935, -158.289, -96.8213, 75.5083
2.008, -1, -25.2834, 6.31253, 17.9425, -158.315, -96.8047, 75.373
2.012, -1, -25.364, 6.2848, 17.95, -158.342, -96.7881, 75.2376
2.015, -1, -25.4446, 6.25706, 17.9575, -158.369, -96.7715, 75.1022
2.019, -1, -25.5251, 6.22932, 17.965, -158.395, -96.7548, 74.9668
2.024, -1, -25.6057, 6.20158, 17.9725, -158.422, -96.7382, 74.8314
2.028, -1, -25.6863, 6.17384, 17.98, -158.448, -96.7216, 74.696
2.031, -1, -25.7669, 6.14609, 17.9875, -158.475, -96.705, 74.5606
2.036, -1, -25.8475, 6.11835, 17.995, -158.502, -96.6884, 74.4251
2.04, -1, -25.9282, 6.0906, 18.0025, -158.528, -96.6718, 74.2897
2.044, -1, -26.0088, 6.06284, 18.01, -158.555, -96.6551, 74.1542
2.048, -1, -26.0894, 6.03509, 18.0175, -158.582, -96.6385, 74.0187
2.051, -1, -26.17, 6.00733, 18.025, -158.608, -96.6219, 73.8833
2.055, -1, -26.2507, 5.97958, 18.0325, -158.635, -96.6052, 73.7478
2.06, -1, -26.3313, 5.95182, 18.0401, -158.662, -96.5886, 73.6123
2.064, -1, -26.412, 5.92405, 18.0476, -158.688, -96.572, 73.4768
2.068, -1, -26.4926, 5.89629, 18.0551, -158.715, -96.5554, 73.3412
2.071, -1, -26.5733, 5.86852, 18.0626, -158.742, -96.5387, 73.2057
2.076, -1, -26.654, 5.84075, 18.0701, -158.768, -96.5221, 73.0702
2.08, -1, -26.7346, 5.81298, 18.0776, -158.795, -96.5055, 72.9346
2.084, -1, -26.8153, 5.78521, 18.0851, -158.822, -96.4888, 72.799
2.087, -1, -26.896, 5.75743, 18.0926, -158.848, -96.4722, 72.6635
2.092, -1, -26.9767, 5.72966, 18.1001, -158.875, -96.4556, 72.5279
2.096, -1, -27.0574, 5.70188, 18.1077, -158.902, -96.4389, 72.3923
2.1, -1, -27.1381, 5.67409, 18.1152, -158.928, -96.4223, 72.2567
2.104, -1, -27.2188, 5.64631, 18.1227, -158.955, -96.4056, 72.1211
2.107, -1, -27.2996, 5.61852, 18.1302, -158.982, -96.389, 71.9854
2.111, -1, -27.3803, 5.59074, 18.1377, -159.008, -96.3723, 71.8498
2.116, -1, -27.461, 5.56295, 18.1452, -159.035, -96.3557, 71.7142
2.12, -1, -27.5418, 5.53515, 18.1528, -159.062, -96.3391, 71.5785
2.124, -1, -27.6225, 5.50736, 18.1603, -159.088, -96.3224, 71.4428
2.127, -1, -27.7033, 5.47956, 18.1678, -159.115, -96.3057, 71.3072
2.132, -1, -27.784, 5.45176, 18.1753, -159.142, -96.2891, 71.1715
2.136, -1, -27.8648, 5.42396, 18.1828, -159.169, -96.2725, 71.0358
2.14, -1, -27.9455, 5.39616, 18.1904, -159.195, -96.2558, 70.9001
2.143, -1, -28.0263, 5.36835, 18.1979, -159.222, -96.2391, 70.7643
2.148, -1, -28.1071, 5.34055, 18.2054, -159.249, -96.2225, 70.6286
2.152, -1, -28.1879, 5.31274, 18.2129, -159.275, -96.2058, 70.4929
2.156, -1, -28.2687, 5.28493, 18.2204, -159.302, -96.1892, 70.3571
2.16, -1, -28.3495, 5.25711, 18.228, -159.329, -96.1725, 70.2214
2.163, -1, -28.4303, 5.2293, 18.2355, -159.355, -96.1558, 70.0856
2.168, -1, -28.5111, 5.20148, 18.243, -159.382, -96.1392, 69.9498
2.172, -1, -28.5919, 5.17366, 18.2505, -159.409, -96.1225, 69.814
2.176, -1, -28.6728, 5.14584, 18.2581, -159.436, -96.1059, 69.6782
2.179, -1, -28.7536, 5.11801, 18.2656, -159.462, -96.0892, 69.5424
2.184, -1, -28.8344, 5.09018, 18.2731, -159.489, -96.0725, 69.4066
2.188, -1, -28.9153, 5.06236, 18.2806, -159.516, -96.0558, 69.2707
2.192, -1, -28.9961, 5.03452, 18.2882, -159.542, -96.0392, 69.1349
2.196, -1, -29.077, 5.00669, 18.2957, -159.569, -96.0225, 68.999
2.199, -1, -29.1579, 4.97886, 18.3032, -159.596, -96.0058, 68.8632
2.204, -1, -29.2387, 4.95102, 18.3108, -159.623, -95.9892, 68.7273
2.208, -1, -29.3196, 4.92318, 18.3183, -159.649, -95.9725, 68.5914
2.212, -1, -29.4005, 4.89534, 18.3258, -159.676, -95.9558, 68.4555
2.216, -1, -29.4814, 4.8675, 18.3334, -159.703, -95.9391, 68.3196
2.219, -1, -29.5623, 4.83965, 18.3409, -159.73, -95.9225, 68.1837
2.224, -1, -29.6432, 4.8118, 18.3484, -159.756, -95.9058, 68.0477
2.228, -1, -29.7241, 4.78395, 18.3559, -159.783, -95.8891, 67.9118
2.232, -1, -29.805, 4.7561, 18.3635, -159.81, -95.8724, 67.7759
2.235, -1, -29.8859, 4.72824, 18.371, -159.837, -95.8557, 67.6399
2.24, -1, -29.9668, 4.70039, 18.3786, -159.863, -95.839, 67.5039
2.244, -1, -30.0478, 4.67253, 18.3861, -159.89, -95.8223, 67.3679
2.248, -1, -30.1287, 4.64467, 18.3936, -159.917, -95.8057, 67.2319
2.252, -1, -30.2097, 4.61681, 18.4012, -159.944, -95.789, 67.0959
2.255, -1, -30.2906, 4.58894, 18.4087, -159.97, -95.7723, 66.9599
2.259, -1, -30.3716, 4.56107, 18.4162, -159.997, -95.7556, 66.8239
2.264, -1, -30.4525, 4.5332, 18.4238, -160.024, -95.7389, 66.6879
2.268, -1, -30.5335, 4.50533, 18.4313, -160.051, -95.7222, 66.5518
2.272, -1, -30.6145, 4.47746, 18.4389, -160.077, -95.7055, 66.4158
2.275, -1, -30.6955, 4.44958, 18.4464, -160.104, -95.6888, 66.2797
2.28, -1, -30.7764, 4.4217, 18.4539, -160.131, -95.6721, 66.1436
2.284, -1, -30.8574, 4.39382, 18.4615, -160.158, -95.6554, 66.0076
2.288, -1, -30.9384, 4.36594, 18.469, -160.184, -95.6387, 65.8715
2.291, -1, -31.0195, 4.33805, 18.4766, -160.211, -95.622, 65.7353
2.296, -1, -31.1005, 4.31017, 18.4841, -160.238, -95.6053, 65.5992
2.3, -1, -31.1815, 4.28228, 18.4916, -160.265, -95.5886, 65.4631
2.304, -1, -31.2625, 4.25439, 18.4992, -160.292, -95.5719, 65.327
2.308, -1, -31.3436, 4.22649, 18.5067, -160.318, -95.5552, 65.1908
2.311, -1, -31.4246, 4.1986, 18.5143, -160.345, -95.5385, 65.0546
2.316, -1, -31.5056, 4.1707, 18.5218, -160.372, -95.5218, 64.9185
2.32, -1, -31.5867, 4.1428, 18.5294, -160.399, -95.5051, 64.7823
2.324, -1, -31.6678, 4.11489, 18.5369, -160.425, -95.4883, 64.6461
2.328, -1, -31.7488, 4.08699, 18.5445, -160.452, -95.4716, 64.5099
2.331, -1, -31.8299, 4.05908, 18.552, -160.479, -95.4549, 64.3736
2.336, -1, -31.911, 4.03117, 18.5596, -160.506, -95.4382, 64.2374
2.34, -1, -31.9921, 4.00326, 18.5671, -160.533, -95.4215, 64.1012
2.344, -1, -32.0732, 3.97534, 18.5747, -160.559, -95.4048, 63.9649
2.347, -1, -32.1543, 3.94743, 18.5822, -160.586, -95.388, 63.8287
2.352, -1, -32.2354, 3.91951, 18.5898, -160.613, -95.3713, 63.6924
2.356, -1, -32.3165, 3.89159, 18.5973, -160.64, -95.3546, 63.5561
2.36, -1, -32.3976, 3.86366, 18.6049, -160.667, -95.3379, 63.4198
2.364, -1, -32.4787, 3.83574, 18.6124, -160.694, -95.3211, 63.2835
2.367, -1, -32.5599, 3.80781, 18.62, -160.72, -95.3044, 63.1472
2.372, -1, -32.641, 3.77988, 18.6275, -160.747, -95.2877, 63.0108
2.376, -1, -32.7222, 3.75195, 18.6351, -160.774, -95.2709, 62.8745
2.38, -1, -32.8033, 3.72401, 18.6426, -160.801, -95.2542, 62.7381
2.383, -1, -32.8845, 3.69607, 18.6502, -160.828, -95.2375, 62.6018
2.388, -1, -32.9656, 3.66813, 18.6578, -160.854, -95.2207, 62.4654
2.392, -1, -33.0468, 3.64019, 18.6653, -160.881, -95.204, 62.329
2.396, -1, -33.128, 3.61225, 18.6729, -160.908, -95.1873, 62.1926
2.4, -1, -33.2092, 3.5843, 18.6804, -160.935, -95.1705, 62.0562
2.403, -1, -33.2904, 3.55635, 18.688, -160.962, -95.1538, 61.9198
2.408, -1, -33.3716, 3.5284, 18.6956, -160.989, -95.137, 61.7834
2.412, -1, -33.4528, 3.50045, 18.7031, -161.015, -95.1203, 61.6469
2.416, -1, -33.534, 3.4725, 18.7107, -161.042, -95.1036, 61.5105
2.42, -1, -33.6152, 3.44454, 18.7182, -161.069, -95.0868, 61.374
2.423, -1, -33.6964, 3.41658, 18.7258, -161.096, -95.0701, 61.2375
2.428, -1, -33.7777, 3.38862, 18.7334, -161.123, -95.0533, 61.101
2.432, -1, -33.8589, 3.36065, 18.7409, -161.15, -95.0366, 60.9646
2.436, -1, -33.9401, 3.33269, 18.7485, -161.177, -95.0198, 60.828
2.439, -1, -34.0214, 3.30472, 18.7561, -161.203, -95.0031, 60.6915
2.444, -1, -34.1027, 3.27675, 18.7636, -161.23, -94.9863, 60.555
2.448, -1, -34.1839, 3.24877, 18.7712, -161.257, -94.9696, 60.4185
2.452, -1, -34.2652, 3.2208, 18.7788, -161.284, -94.9528, 60.2819
2.456, -1, -34.3465, 3.19282, 18.7863, -161.311, -94.936, 60.1453
2.459, -1, -34.4277, 3.16484, 18.7939, -161.338, -94.9193, 60.0088
2.464, -1, -34.509, 3.13687, 18.8015, -161.365, -94.9025, 59.8722
2.468, -1, -34.59, 3.10894, 18.8091, -161.391, -94.8858, 59.7356
2.472, -1, -34.6707, 3.08109, 18.8167, -161.418, -94.869, 59.599
2.476, -1, -34.7509, 3.05337, 18.8244, -161.445, -94.8522, 59.4625
2.479, -1, -34.8305, 3.02585, 18.8322, -161.472, -94.8355, 59.3262
2.484, -1, -34.9092, 2.99858, 18.84, -161.499, -94.8188, 59.1902
2.488, -1, -34.9869, 2.97162, 18.8479, -161.525, -94.8021, 59.0547
2.492, -1, -35.0637, 2.94502, 18.8559, -161.552, -94.7856, 58.92
2.495, -1, -35.1393, 2.91886, 18.8639, -161.578, -94.7691, 58.7865
2.5, -1, -35.2135, 2.89323, 18.8719, -161.604, -94.7529, 58.6546
2.504, -1, -35.286, 2.86825, 18.8799, -161.629, -94.7369, 58.5248
2.508, -1, -35.3565, 2.84404, 18.8878, -161.654, -94.7213, 58.3977
2.512, -1, -35.4246, 2.82068, 18.8957, -161.679, -94.706, 58.2739
2.515, -1, -35.4902, 2.79827, 18.9034, -161.702, -94.6912, 58.1541
2.52, -1, -35.553, 2.77685, 18.9108, -161.725, -94.677, 58.0391
2.524, -1, -35.6129, 2.75646, 18.9178, -161.746, -94.6635, 57.9297
2.528, -1, -35.6697, 2.73714, 18.9244, -161.766, -94.6508, 57.8264
2.531, -1, -35.7233, 2.71892, 18.9305, -161.785, -94.6389, 57.73
2.536, -1, -35.7734, 2.70185, 18.9359, -161.803, -94.6279, 57.6409
2.54, -1, -35.82, 2.68597, 18.9408, -161.819, -94.6179, 57.5595
2.544, -1, -35.863, 2.67129, 18.945, -161.833, -94.6089, 57.4861
2.548, -1, -35.9023, 2.65779, 18.9485, -161.846, -94.6009, 57.4208
2.551, -1, -35.9381, 2.64546, 18.9513, -161.857, -94.5939, 57.3635
2.556, -1, -35.9704, 2.63427, 18.9535, -161.867, -94.5878, 57.3141
2.56, -1, -35.9994, 2.6242, 18.9551, -161.875, -94.5827, 57.2721
2.564, -1, -36.025, 2.61525, 18.9561, -161.882, -94.5785, 57.2369
2.568, -1, -36.0475, 2.6074, 18.9567, -161.888, -94.575, 57.2081
2.571, -1, -36.067, 2.60063, 18.9569, -161.893, -94.5722, 57.1849
2.576, -1, -36.0836, 2.59487, 18.9569, -161.896, -94.57, 57.1666
2.58, -1, -36.0978, 2.59003, 18.9566, -161.899, -94.5684, 57.1524
2.584, -1, -36.1097, 2.58603, 18.9563, -161.901, -94.5671, 57.1417
2.587, -1, -36.1197, 2.58277, 18.9559, -161.903, -94.5662, 57.1338
2.592, -1, -36.1279, 2.58016, 18.9554, -161.904, -94.5655, 57.1281
2.596, -1, -36.1344, 2.57812, 18.955, -161.905, -94.5651, 57.124
2.6, 2, -36.1396, 2.57658, 18.9547, -161.906, -94.5648, 57.1212
2.604, 2, -36.1434, 2.57546, 18.9544, -161.906, -94.5646, 57.1193
2.607, 2, -36.1462, 2.57467, 18.9542, -161.906, -94.5644, 57.118
2.612, 2, -36.148, 2.57413, 18.9541, -161.907, -94.5643, 57.1171
2.616, 2, -36.1493, 2.57377, 18.954, -161.907, -94.5642, 57.1165
2.62, 2, -36.1502, 2.57352, 18.9539, -161.907, -94.5642, 57.1161
2.624, 2, -36.1508, 2.57335, 18.9539, -161.907, -94.5642, 57.1158
2.627, 2, -36.1512, 2.57324, 18.9538, -161.907, -94.5642, 57.1156
2.632, 2, -36.1515, 2.57316, 18.9538, -161.907, -94.5641, 57.1155
2.636, 2, -36.1516, 2.57311, 18.9538, -161.907, -94.5641, 57.1154
2.64, 2, -36.1518, 2.57307, 18.9538, -161.907, -94.5641, 57.1153
2.643, 2, -36.1518, 2.57305, 18.9538, -161.907, -94.5641, 57.1153
2.648, 2, -36.1519, 2.57303, 18.9538, -161.907, -94.5641, 57.1153
2.652, 2, -36.1519, 2.57302, 18.9538, -161.907, -94.5641, 57.1152
2.656, 2, -36.152, 2.57301, 18.9538, -161.907, -94.5641, 57.1152
2.66, 2, -36.152, 2.57301, 18.9538, -161.907, -94.5641, 57.1152
2.663, 2, -36.152, 2.573, 18.9538, -161.907, -94.5641, 57.1152
2.668, 2, -36.152, 2.573, 18.9538, -161.907, -94.5641, 57.1152
2.672, 2, -36.152, 2.573, 18.9538, -161.907, -94.5641, 57.1152
2.676, 2, -36.152, 2.573, 18.9538, -161.907, -94.5641, 57.1152
2.679, 2, -36.152, 2.573, 18.9538, -161.907, -94.5641, 57.1152
2.684, 2, -36.152, 2.573, 18.9538, -161.907, -94.5641, 57.1152
2.688, 2, -36.152, 2.573, 18.9538, -161.907, -94.5641, 57.1152
2.692, 2, -36.152, 2.573, 18.9538, -161.907, -94.5641, 57.1152
2.696, 2, -36.152, 2.573, 18.9538, -161.907, -94.5641, 57.1152
2.699, 2, -36.152, 2.573, 18.9538, -161.907, -94.5641, 57.1152
2.704, 2, -36.152, 2.573, 18.9538, -161.907, -94.5641, 57.1152
2.708, 2, -36.152, 2.573, 18.9538, -161.907, -94.5641, 57.1152
2.712, 2, -36.152, 2.573, 18.9538, -161.907, -94.5641, 57.1152
2.716, 2, -36.152, 2.573, 18.9538, -161.907, -94.5641, 57.1152
2.719, 2, -36.152, 2.573, 18.9538, -161.907, -94.5641, 57.1152
2.724, 2, -36.152, 2.573, 18.9538, -161.907, -94.5641, 57.1152
2.728, 2, -36.152, 2.573, 18.9538, -161.907, -94.5641, 57.1152
2.732, 2, -36.152, 2.573, 18.9538, -161.907, -94.5641, 57.1152
2.735, 2, -36.152, 2.573, 18.9538, -161.907, -94.5641, 57.1152
2.74, 2, -36.152, 2.573, 18.9538, -161.907, -94.5641, 57.1152
2.744, 2, -36.152, 2.573, 18.9538, -161.907, -94.5641, 57.1152
2.748, 2, -36.152, 2.573, 18.9538, -161.907, -94.5641, 57.1152
2.752, 2, -36.152, 2.573, 18.9538, -161.907, -94.5641, 57.1152
2.755, 2, -36.152, 2.573, 18.9538, -161.907, -94.5641, 57.1152
2.76, 2, -36.152, 2.573, 18.9538, -161.907, -94.5641, 57.1152
2.764, 2, -36.152, 2.573, 18.9538, -161.907, -94.5641, 57.1152
2.768, 2, -36.152, 2.573, 18.9538, -161.907, -94.5641, 57.1152
2.772, 2, -36.152, 2.573, 18.9538, -161.907, -94.5641, 57.1152
2.775, 2, -36.152, 2.573, 18.9538, -161.907, -94.5641, 57.1152
2.78, 2, -36.152, 2.573, 18.9538, -161.907, -94.5641, 57.1152
2.784, 2, -36.152, 2.573, 18.9538, -161.907, -94.5641, 57.1152
2.788, 2, -36.152, 2.573, 18.9538, -161.907, -94.5641, 57.1152
2.791, 2, -36.152, 2.573, 18.9538, -161.907, -94.5641, 57.1152
2.796, 2, -36.152, 2.573, 18.9538, -161.907, -94.5641, 57.1152
2.8, 2, -36.152, 2.573, 18.9538, -161.907, -94.5641, 57.1152
2.804, 2, -36.152, 2.573, 18.9538, -161.907, -94.5641, 57.1152
2.808, 2, -36.152, 2.573, 18.9538, -161.907, -94.5641, 57.1152
2.811, 2, -36.152, 2.573, 18.9538, -161.907, -94.5641, 57.1152
2.816, 2, -36.152, 2.573, 18.9538, -161.907, -94.5641, 57.1152
2.82, 2, -36.152, 2.573, 18.9538, -161.907, -94.5641, 57.1152
2.824, 2, -36.152, 2.573, 18.9538, -161.907, -94.5641, 57.1152
2.828, 2, -36.152, 2.573, 18.9538, -161.907, -94.5641, 57.1152
2.831, 2, -36.152, 2.573, 18.9538, -161.907, -94.5641, 57.1152
2.836, 2, -36.152, 2.573, 18.9538, -161.907, -94.5641, 57.1152
2.84, 2, -36.152, 2.573, 18.9538, -161.907, -94.5641, 57.1152
2.844, 2, -36.152, 2.573, 18.9538, -161.907, -94.5641, 57.1152
2.847, 2, -36.152, 2.573, 18.9538, -161.907, -94.5641, 57.1152
2.852, 2, -36.152, 2.573, 18.9538, -161.907, -94.5641, 57.1152
2.856, 2, -36.152, 2.573, 18.9538, -161.907, -94.5641, 57.1152
2.86, 2, -36.152, 2.573, 18.9538, -161.907, -94.5641, 57.1152
2.864, 2, -36.152, 2.573, 18.9538, -161.907, -94.5641, 57.1152
2.867, 2, -36.152, 2.573, 18.9538, -161.907, -94.5641, 57.1152
2.872, 2, -36.152, 2.573, 18.9538, -161.907, -94.5641, 57.1152
2.876, 2, -36.152, 2.573, 18.9538, -161.907, -94.5641, 57.1152
2.88, 2, -36.152, 2.573, 18.9538, -161.907, -94.5641, 57.1152
2.883, 2, -36.152, 2.573, 18.9538, -161.907, -94.5641, 57.1152
2.888, 2, -36.152, 2.573, 18.9538, -161.907, -94.5641, 57.1152
2.892, 2, -36.152, 2.573, 18.9538, -161.907, -94.5641, 57.1152
2.896, 2, -36.152, 2.573, 18.9538, -161.907, -94.5641, 57.1152
2.9, 2, -36.152, 2.573, 18.9538, -161.907, -94.5641, 57.1152
2.903, 2, -36.152, 2.573, 18.9538, -161.907, -94.5641, 57.1152
2.908, 2, -36.152, 2.573, 18.9538, -161.907, -94.5641, 57.1152
2.912, 2, -36.152, 2.573, 18.9538, -161.907, -94.5641, 57.1152
2.916, 2, -36.152, 2.573, 18.9538, -161.907, -94.5641, 57.1152
2.92, 2, -36.152, 2.573, 18.9538, -161.907, -94.5641, 57.1152
2.923, 2, -36.152, 2.573, 18.9538, -161.907, -94.5641, 57.1152
2.928, 2, -36.152, 2.573, 18.9538, -161.907, -94.5641, 57.1152
2.932, 2, -36.152, 2.573, 18.9538, -161.907, -94.5641, 57.1152
2.936, 2, -36.152, 2.573, 18.9538, -161.907, -94.5641, 57.1152
2.939, 2, -36.152, 2.573, 18.9538, -161.907, -94.5641, 57.1152
2.944, 2, -36.152, 2.573, 18.9538, -161.907, -94.5641, 57.1152
2.948, 2, -36.152, 2.573, 18.9538, -161.907, -94.5641, 57.1152
2.952, 2, -36.152, 2.573, 18.9538, -161.907, -94.5641, 57.1152
2.956, 2, -36.152, 2.573, 18.9538, -161.907, -94.5641, 57.1152
2.959, 2, -36.152, 2.573, 18.9538, -161.907, -94.5641, 57.1152
2.964, 2, -36.152, 2.573, 18.9538, -161.907, -94.5641, 57.1152
2.968, 2, -36.152, 2.573, 18.9538, -161.907, -94.5641, 57.1152
2.972, 2, -36.152, 2.573, 18.9538, -161.907, -94.5641, 57.1152
2.976, 2, -36.152, 2.573, 18.9538, -161.907, -94.5641, 57.1152
2.98, 2, -36.152, 2.573, 18.9538, -161.907, -94.5641, 57.1152
2.984, 2, -36.152, 2.573, 18.9538, -161.907, -94.5641, 57.1152
2.988, 2, -36.152, 2.573, 18.9538, -161.907, -94.5641, 57.1152
2.992, 2, -36.152, 2.573, 18.9538, -161.907, -94.5641, 57.1152
2.995, 2, -36.152, 2.573, 18.9538, -161.907, -94.5641, 57.1152
3, 2, -36.152, 2.573, 18.9538, -161.907, -94.5641, 57.1152
3.004, 2, -36.152, 2.573, 18.9538, -161.907, -94.5641, 57.1152
3.008, 2, -36.152, 2.573, 18.9538, -161.907, -94.5641, 57.1152
3.012, 2, -36.152, 2.573, 18.9538, -161.907, -94.5641, 57.1152
3.015, 2, -36.152, 2.573, 18.9538, -161.907, -94.5641, 57.1152
3.02, 2, -36.152, 2.573, 18.9538, -161.907, -94.5641, 57.1152
3.024, 2, -36.152, 2.573, 18.9538, -161.907, -94.5641, 57.1152
3.028, 2, -36.152, 2.573, 18.9538, -161.907, -94.5641, 57.1152
3.031, 2, -36.152, 2.573, 18.9538, -161.907, -94.5641, 57.1152
3.036, 2, -36.152, 2.573, 18.9538, -161.907, -94.5641, 57.1152
3.04, 2, -36.152, 2.573, 18.9538, -161.907, -94.5641, 57.1152
3.044, 2, -36.152, 2.573, 18.9538, -161.907, -94.5641, 57.1152
3.048, 2, -36.152, 2.573, 18.9538, -161.907, -94.5641, 57.1152
3.051, 2, -36.152, 2.573, 18.9538, -161.907, -94.5641, 57.1152
3.056, 2, -36.152, 2.573, 18.9538, -161.907, -94.5641, 57.1152
3.06, 2, -36.152, 2.573, 18.9538, -161.907, -94.5641, 57.1152
3.064, 2, -36.152, 2.573, 18.9538, -161.907, -94.5641, 57.1152
3.068, 2, -36.152, 2.573, 18.9538, -161.907, -94.5641, 57.1152
3.071, 2, -36.152, 2.573, 18.9538, -161.907, -94.5641, 57.1152
3.076, 2, -36.152, 2.573, 18.9538, -161.907, -94.5641, 57.1152
3.08, 2, -36.152, 2.573, 18.9538, -161.907, -94.5641, 57.1152
3.084, 2, -36.152, 2.573, 18.9538, -161.907, -94.5641, 57.1152
3.087, 2, -36.152, 2.573, 18.9538, -161.907, -94.5641, 57.1152
3.092, 2, -36.152, 2.573, 18.9538, -161.907, -94.5641, 57.1152
3.096, 2, -36.152, 2.573, 18.9538, -161.907, -94.5641, 57.1152
3.1, 2, -36.152, 2.573, 18.9538, -161.907, -94.5641, 57.1152
3.104, 2, -36.152, 2.573, 18.9538, -161.907, -94.5641, 57.1152
3.107, 2, -36.152, 2.573, 18.9538, -161.907, -94.5641, 57.1152
3.112, 2, -36.152, 2.573, 18.9538, -161.907, -94.5641, 57.1152
3.116, 2, -36.152, 2.573, 18.9538, -161.907, -94.5641, 57.1152
3.12, 2, -36.152, 2.573, 18.9538, -161.907, -94.5641, 57.1152
3.124, 2, -36.152, 2.573, 18.9538, -161.907, -94.5641, 57.1152
3.128, 2, -36.152, 2.573, 18.9538, -161.907, -94.5641, 57.1152
3.132, 2, -36.152, 2.573, 18.9538, -161.907, -94.5641, 57.1152
3.136, 2, -36.152, 2.573, 18.9538, -161.907, -94.5641, 57.1152
3.14, 2, -36.152, 2.573, 18.9538, -161.907, -94.5641, 57.1152
3.143, 2, -36.152, 2.573, 18.9538, -161.907, -94.5641, 57.1152
3.148, 2, -36.152, 2.573, 18.9538, -161.907, -94.5641, 57.1152
3.152, 2, -36.152, 2.573, 18.9538, -161.907, -94.5641, 57.1152
3.156, 2, -36.152, 2.573, 18.9538, -161.907, -94.5641, 57.1152
3.16, 2, -36.152, 2.573, 18.9538, -161.907, -94.5641, 57.1152
3.163, 2, -36.152, 2.573, 18.9538, -161.907, -94.5641, 57.1152
3.168, 2, -36.152, 2.573, 18.9538, -161.907, -94.5641, 57.1152
3.172, 2, -36.152, 2.573, 18.9538, -161.907, -94.5641, 57.1152
3.176, 2, -36.152, 2.573, 18.9538, -161.907, -94.5641, 57.1152
3.179, 2, -36.152, 2.573, 18.9538, -161.907, -94.5641, 57.1152
3.184, 2, -36.152, 2.573, 18.9538, -161.907, -94.5641, 57.1152
3.188, 2, -36.152, 2.573, 18.9538, -161.907, -94.5641, 57.1152
3.192, 2, -36.152, 2.573, 18.9538, -161.907, -94.5641, 57.1152
3.196, 2, -36.152, 2.573, 18.9538, -161.907, -94.5641, 57.1152
3.199, 2, -36.152, 2.573, 18.9538, -161.907, -94.5641, 57.1152
3.204, 2, -36.152, 2.573, 18.9538, -161.907, -94.5641, 57.1152
3.208, 2, -36.152, 2.573, 18.9538, -161.907, -94.5641, 57.1152
3.212, 2, -36.152, 2.573, 18.9538, -161.907, -94.5641, 57.1152
3.216, 2, -36.152, 2.573, 18.9538, -161.907, -94.5641, 57.1152
3.22, 2, -36.152, 2.573, 18.9538, -161.907, -94.5641, 57.1152
3.224, 2, -36.152, 2.573, 18.9538, -161.907, -94.5641, 57.1152
3.228, 2, -36.152, 2.573, 18.9538, -161.907, -94.5641, 57.1152
3.232, 2, -36.152, 2.573, 18.9538, -161.907, -94.5641, 57.1152
3.235, 2, -36.152, 2.573, 18.9538, -161.907, -94.5641, 57.1152
3.24, 2, -36.152, 2.573, 18.9538, -161.907, -94.5641, 57.1152
3.244, 2, -36.152, 2.573, 18.9538, -161.907, -94.5641, 57.1152
3.248, 2, -36.152, 2.573, 18.9538, -161.907, -94.5641, 57.1152
3.252, 2, -36.152, 2.573, 18.9538, -161.907, -94.5641, 57.1152
3.255, 2, -36.152, 2.573, 18.9538, -161.907, -94.5641, 57.1152
3.26, 2, -36.152, 2.573, 18.9538, -161.907, -94.5641, 57.1152
3.264, 2, -36.152, 2.573, 18.9538, -161.907, -94.5641, 57.1152
3.268, 2, -36.152, 2.573, 18.9538, -161.907, -94.5641, 57.1152
3.272, 2, -36.152, 2.573, 18.9538, -161.907, -94.5641, 57.1152
3.276, 2, -36.152, 2.573, 18.9538, -161.907, -94.5641, 57.1152
3.28, 2, -36.152, 2.573, 18.9538, -161.907, -94.5641, 57.1152
3.284, 2, -36.152, 2.573, 18.9538, -161.907, -94.5641, 57.1152
3.288, 2, -36.152, 2.573, 18.9538, -161.907, -94.5641, 57.1152
3.291, 2, -36.152, 2.573, 18.9538, -161.907, -94.5641, 57.1152
3.296, 2, -36.152, 2.573, 18.9538, -161.907, -94.5641, 57.1152
3.3, 2, -36.152, 2.573, 18.9538, -161.907, -94.5641, 57.1152
3.304, 2, -36.152, 2.573, 18.9538, -161.907, -94.5641, 57.1152
3.308, 2, -36.152, 2.573, 18.9538, -161.907, -94.5641, 57.1152
3.312, 2, -36.152, 2.573, 18.9538, -161.907, -94.5641, 57.1152
3.316, 2, -36.152, 2.573, 18.9538, -161.907, -94.5641, 57.1152
3.32, 2, -36.152, 2.573, 18.9538, -161.907, -94.5641, 57.1152
3.324, 2, -36.152, 2.573, 18.9538, -161.907, -94.5641, 57.1152
3.328, 2, -36.152, 2.573, 18.9538, -161.907, -94.5641, 57.1152
3.332, 2, -36.152, 2.573, 18.9538, -161.907, -94.5641, 57.1152
3.336, 2, -36.152, 2.573, 18.9538, -161.907, -94.5641, 57.1152
3.34, 2, -36.152, 2.573, 18.9538, -161.907, -94.5641, 57.1152
3.344, 2, -36.152, 2.573, 18.9538, -161.907, -94.5641, 57.1152
3.347, 2, -36.152, 2.573, 18.9538, -161.907, -94.5641, 57.1152
3.352, 2, -36.152, 2.573, 18.9538, -161.907, -94.5641, 57.1152
3.356, 2, -36.152, 2.573, 18.9538, -161.907, -94.5641, 57.1152
3.36, 2, -36.152, 2.573, 18.9538, -161.907, -94.5641, 57.1152
3.364, 2, -36.152, 2.573, 18.9538, -161.907, -94.5641, 57.1152
3.368, 2, -36.152, 2.573, 18.9538, -161.907, -94.5641, 57.1152
3.372, 2, -36.152, 2.573, 18.9538, -161.907, -94.5641, 57.1152
3.376, 2, -36.152, 2.573, 18.9538, -161.907, -94.5641, 57.1152
3.38, 2, -36.152, 2.573, 18.9538, -161.907, -94.5641, 57.1152
3.383, 2, -36.152, 2.573, 18.9538, -161.907, -94.5641, 57.1152
3.388, 2, -36.152, 2.573, 18.9538, -161.907, -94.5641, 57.1152
3.392, 2, -36.152, 2.573, 18.9538, -161.907, -94.5641, 57.1152
3.396, 2, -36.152, 2.573, 18.9538, -161.907, -94.5641, 57.1152
3.4, 2, -36.152, 2.573, 18.9538, -161.907, -94.5641, 57.1152
3.403, 2, -36.152, 2.573, 18.9538, -161.907, -94.5641, 57.1152
3.408, 2, -36.152, 2.573, 18.9538, -161.907, -94.5641, 57.1152
3.412, 2, -36.152, 2.573, 18.9538, -161.907, -94.5641, 57.1152
3.416, 2, -36.152, 2.573, 18.9538, -161.907, -94.5641, 57.1152
3.42, 2, -36.152, 2.573, 18.9538, -161.907, -94.5641, 57.1152
3.424, 2, -36.152, 2.573, 18.9538, -161.907, -94.5641, 57.1152
3.428, 2, -36.152, 2.573, 18.9538, -161.907, -94.5641, 57.1152
3.432, 2, -36.152, 2.573, 18.9538, -161.907, -94.5641, 57.1152
3.436, 2, -36.152, 2.573, 18.9538, -161.907, -94.5641, 57.1152
3.439, 2, -36.152, 2.573, 18.9538, -161.907, -94.5641, 57.1152
3.444, 2, -36.152, 2.573, 18.9538, -161.907, -94.5641, 57.1152
3.448, 2, -36.152, 2.573, 18.9538, -161.907, -94.5641, 57.1152
3.452, 2, -36.152, 2.573, 18.9538, -161.907, -94.5641, 57.1152
3.456, 2, -36.152, 2.573, 18.9538, -161.907, -94.5641, 57.1152
3.46, 2, -36.152, 2.573, 18.9538, -161.907, -94.5641, 57.1152
3.464, 2, -36.152, 2.573, 18.9538, -161.907, -94.5641, 57.1152
3.468, 2, -36.152, 2.573, 18.9538, -161.907, -94.5641, 57.1152
3.472, 2, -36.152, 2.573, 18.9538, -161.907, -94.5641, 57.1152
3.476, 2, -36.152, 2.573, 18.9538, -161.907, -94.5641, 57.1152
3.48, 2, -36.152, 2.573, 18.9538, -161.907, -94.5641, 57.1152
3.484, 2, -36.152, 2.573, 18.9538, -161.907, -94.5641, 57.1152
3.488, 2, -36.152, 2.573, 18.9538, -161.907, -94.5641, 57.1152
3.492, 2, -36.152, 2.573, 18.9538, -161.907, -94.5641, 57.1152
3.495, 2, -36.152, 2.573, 18.9538, -161.907, -94.5641, 57.1152
3.5, 2, -36.152, 2.573, 18.9538, -161.907, -94.5641, 57.1152
3.504, 2, -36.152, 2.573, 18.9538, -161.907, -94.5641, 57.1152
3.508, 2, -36.152, 2.573, 18.9538, -161.907, -94.5641, 57.1152
3.512, 2, -36.152, 2.573, 18.9538, -161.907, -94.5641, 57.1152
3.516, 2, -36.152, 2.573, 18.9538, -161.907, -94.5641, 57.1152
3.52, 2, -36.152, 2.573, 18.9538, -161.907, -94.5641, 57.1152
3.524, 2, -36.152, 2.573, 18.9538, -161.907, -94.5641, 57.1152
3.528, 2, -36.152, 2.573, 18.9538, -161.907, -94.5641, 57.1152
3.531, 2, -36.152, 2.573, 18.9538, -161.907, -94.5641, 57.1152
3.536, 2, -36.152, 2.573, 18.9538, -161.907, -94.5641, 57.1152
3.54, 2, -36.152, 2.573, 18.9538, -161.907, -94.5641, 57.1152
3.544, 2, -36.152, 2.573, 18.9538, -161.907, -94.5641, 57.1152
3.548, 2, -36.152, 2.573, 18.9538, -161.907, -94.5641, 57.1152
3.552, 2, -36.152, 2.573, 18.9538, -161.907, -94.5641, 57.1152
3.556, 2, -36.152, 2.573, 18.9538, -161.907, -94.5641, 57.1152
3.56, 2, -36.152, 2.573, 18.9538, -161.907, -94.5641, 57.1152
3.564, 2, -36.152, 2.573, 18.9538, -161.907, -94.5641, 57.1152
3.568, 2, -36.152, 2.573, 18.9538, -161.907, -94.5641, 57.1152
3.572, 2, -36.152, 2.573, 18.9538, -161.907, -94.5641, 57.1152
3.576, 2, -36.152, 2.573, 18.9538, -161.907, -94.5641, 57.1152
3.58, 2, -36.152, 2.573, 18.9538, -161.907, -94.5641, 57.1152
3.584, 2, -36.152, 2.573, 18.9538, -161.907, -94.5641, 57.1152
3.587, 2, -36.152, 2.573, 18.9538, -161.907, -94.5641, 57.1152
3.592, 2, -36.152, 2.573, 18.9538, -161.907, -94.5641, 57.1152
3.596, 2, -36.152, 2.573, 18.9538, -161.907, -94.5641, 57.1152
3.6, 2, -36.152, 2.573, 18.9538, -161.907, -94.5641, 57.1152
3.604, 2, -36.152, 2.573, 18.9538, -161.907, -94.5641, 57.1152
3.608, 2, -36.152, 2.573, 18.9538, -161.907, -94.5641, 57.1152
3.612, 2, -36.152, 2.573, 18.9538, -161.907, -94.5641, 57.1152
3.616, 2, -36.152, 2.573, 18.9538, -161.907, -94.5641, 57.1152
3.62, 2, -36.152, 2.573, 18.9538, -161.907, -94.5641, 57.1152
3.624, 2, -36.152, 2.573, 18.9538, -161.907, -94.5641, 57.1152
3.628, 2, -36.152, 2.573, 18.9538, -161.907, -94.5641, 57.1152
3.632, 2, -36.152, 2.573, 18.9538, -161.907, -94.5641, 57.1152
3.636, 2, -36.152, 2.573, 18.9538, -161.907, -94.5641, 57.1152
3.64, 2, -36.152, 2.573, 18.9538, -161.907, -94.5641, 57.1152
3.644, 2, -36.152, 2.573, 18.9538, -161.907, -94.5641, 57.1152
3.648, 2, -36.152, 2.573, 18.9538, -161.907, -94.5641, 57.1152
3.652, 2, -36.152, 2.573, 18.9538, -161.907, -94.5641, 57.1152
3.656, 2, -36.152, 2.573, 18.9538, -161.907, -94.5641, 57.1152
3.66, 2, -36.152, 2.573, 18.9538, -161.907, -94.5641, 57.1152
3.664, 2, -36.152, 2.573, 18.9538, -161.907, -94.5641, 57.1152
3.668, 2, -36.152, 2.573, 18.9538, -161.907, -94.5641, 57.1152
3.672, 2, -36.152, 2.573, 18.9538, -161.907, -94.5641, 57.1152
3.676, 4, -36.152, 2.573, 18.9538, -161.907, -94.5641, 57.1152
3.679, 4, -36.152, 2.573, 18.9538, -161.907, -94.5641, 57.1152
3.684, 4, -36.152, 2.573, 18.9538, -161.907, -94.5641, 57.1152
3.688, 4, -36.152, 2.573, 18.9538, -161.907, -94.5641, 57.1152
3.692, 4, -36.152, 2.573, 18.9538, -161.907, -94.5641, 57.1152
3.696, 4, -36.152, 2.573, 18.9538, -161.907, -94.5641, 57.1152
3.7, 4, -36.152, 2.573, 18.9538, -161.907, -94.5641, 57.1152
3.704, 4, -36.152, 2.573, 18.9538, -161.907, -94.5641, 57.1152
3.708, 4, -36.152, 2.573, 18.9538, -161.907, -94.5641, 57.1152
3.712, 4, -36.152, 2.573, 18.9538, -161.907, -94.5641, 57.1152
3.716, 4, -36.152, 2.573, 18.9538, -161.907, -94.5641, 57.1152
3.72, 4, -36.152, 2.573, 18.9538, -161.907, -94.5641, 57.1152
3.724, 4, -36.152, 2.573, 18.9538, -161.907, -94.5641, 57.1152
3.728, 4, -36.152, 2.573, 18.9538, -161.907, -94.5641, 57.1152
3.732, 4, -36.152, 2.573, 18.9538, -161.907, -94.5641, 57.1152
3.735, 4, -36.152, 2.573, 18.9538, -161.907, -94.5641, 57.1152
3.74, 4, -36.152, 2.573, 18.9538, -161.907, -94.5641, 57.1152
3.744, 4, -36.152, 2.573, 18.9538, -161.907, -94.5641, 57.1152
3.748, 4, -36.152, 2.573, 18.9538, -161.907, -94.5641, 57.1152
3.752, 4, -36.152, 2.573, 18.9538, -161.907, -94.5641, 57.1152
3.756, 4, -36.152, 2.573, 18.9538, -161.907, -94.5641, 57.1152
3.76, 4, -36.152, 2.573, 18.9538, -161.907, -94.5641, 57.1152
3.764, 4, -36.152, 2.573, 18.9538, -161.907, -94.5641, 57.1152
3.768, 4, -36.152, 2.573, 18.9538, -161.907, -94.5641, 57.1152
3.772, 4, -36.152, 2.573, 18.9538, -161.907, -94.5641, 57.1152
3.776, 4, -36.152, 2.573, 18.9538, -161.907, -94.5641, 57.1152
3.78, 4, -36.152, 2.573, 18.9538, -161.907, -94.5641, 57.1152
3.784, 4, -36.152, 2.573, 18.9538, -161.907, -94.5641, 57.1152
3.788, 4, -36.152, 2.573, 18.9538, -161.907, -94.5641, 57.1152
3.792, 4, -36.152, 2.573, 18.9538, -161.907, -94.5641, 57.1152
3.796, 4, -36.152, 2.573, 18.9538, -161.907, -94.5641, 57.1152
3.8, 4, -36.152, 2.573, 18.9538, -161.907, -94.5641, 57.1152
3.804, 4, -36.152, 2.57299, 18.9538, -161.907, -94.5641, 57.1152
3.808, 4, -36.152, 2.57297, 18.9538, -161.907, -94.5641, 57.1152
3.812, 4, -36.1518, 2.57286, 18.9538, -161.907, -94.5641, 57.1152
3.816, 4, -36.1515, 2.57259, 18.9539, -161.907, -94.5641, 57.1152
3.82, 4, -36.1508, 2.57202, 18.9541, -161.907, -94.5641, 57.1152
3.824, 4, -36.1496, 2.57103, 18.9544, -161.907, -94.5641, 57.1151
3.828, 4, -36.148, 2.56951, 18.9549, -161.907, -94.564, 57.115
3.832, 4, -36.1457, 2.56734, 18.9558, -161.907, -94.5639, 57.1147
3.836, 4, -36.143, 2.56445, 18.9571, -161.906, -94.5636, 57.1143
3.84, 4, -36.1397, 2.56079, 18.959, -161.906, -94.5631, 57.1137
3.844, 4, -36.1359, 2.55634, 18.9616, -161.905, -94.5624, 57.1127
3.848, 5, -36.1317, 2.55104, 18.9649, -161.904, -94.5613, 57.1113
3.852, 5, -36.1271, 2.54481, 18.9693, -161.902, -94.5597, 57.1094
3.856, 5, -36.1219, 2.53756, 18.9748, -161.9, -94.5577, 57.107
3.86, 5, -36.1162, 2.52923, 18.9816, -161.897, -94.555, 57.1038
3.864, 5, -36.1099, 2.51981, 18.9898, -161.894, -94.5518, 57.1
3.868, 5, -36.1032, 2.5093, 18.9994, -161.89, -94.5478, 57.0954
3.872, 5, -36.0959, 2.49773, 19.0105, -161.886, -94.5432, 57.09
3.876, 5, -36.0882, 2.48511, 19.0231, -161.88, -94.5378, 57.0837
3.88, 5, -36.0801, 2.47148, 19.0373, -161.874, -94.5316, 57.0767
3.884, 5, -36.0715, 2.45681, 19.0528, -161.868, -94.5248, 57.0689
3.888, 5, -36.0624, 2.44108, 19.0697, -161.861, -94.5174, 57.0604
3.892, 5, -36.0527, 2.42422, 19.0879, -161.853, -94.5094, 57.0512
3.896, 5, -36.0424, 2.40626, 19.1073, -161.845, -94.5008, 57.0414
3.9, 5, -36.0315, 2.38722, 19.1276, -161.836, -94.4919, 57.0312
3.904, 5, -36.02, 2.3672, 19.1489, -161.827, -94.4826, 57.0205
3.908, 5, -36.0079, 2.34628, 19.1708, -161.818, -94.473, 57.0095
3.912, 5, -35.9953, 2.32457, 19.1934, -161.808, -94.4632, 56.9983
3.916, 5, -35.9823, 2.30218, 19.2165, -161.799, -94.4532, 56.9868
3.92, 5, -35.9688, 2.2792, 19.2399, -161.789, -94.443, 56.9751
3.924, 5, -35.9548, 2.25572, 19.2637, -161.779, -94.4328, 56.9634
3.928, 5, -35.9405, 2.23184, 19.2876, -161.769, -94.4225, 56.9515
3.932, 5, -35.9258, 2.20762, 19.3118, -161.759, -94.4122, 56.9397
3.936, 5, -35.9108, 2.18316, 19.336, -161.748, -94.4018, 56.9277
3.94, 5, -35.8957, 2.15853, 19.3603, -161.738, -94.3915, 56.9158
3.944, 5, -35.8804, 2.13379, 19.3846, -161.728, -94.3811, 56.9039
3.948, 5, -35.8651, 2.10897, 19.409, -161.718, -94.3707, 56.8919
3.952, 5, -35.8496, 2.0841, 19.4334, -161.708, -94.3603, 56.8799
3.956, 5, -35.8342, 2.0592, 19.4578, -161.697, -94.3499, 56.868
3.96, 5, -35.8186, 2.03427, 19.4822, -161.687, -94.3395, 56.856
3.964, 5, -35.8031, 2.00934, 19.5065, -161.677, -94.3291, 56.8441
3.968, 5, -35.7875, 1.9844, 19.5309, -161.667, -94.3188, 56.8322
3.972, 5, -35.772, 1.95946, 19.5553, -161.657, -94.3084, 56.8202
3.976, 5, -35.7564, 1.93451, 19.5796, -161.646, -94.298, 56.8083
3.98, 5, -35.7408, 1.90957, 19.604, -161.636, -94.2876, 56.7964
3.984, 5, -35.7252, 1.88463, 19.6283, -161.626, -94.2773, 56.7845
3.988, 5, -35.7096, 1.8597, 19.6526, -161.616, -94.2669, 56.7726
3.992, 5, -35.6939, 1.83476, 19.6769, -161.605, -94.2565, 56.7607
3.996, 5, -35.6783, 1.80984, 19.7012, -161.595, -94.2462, 56.7488
3.999, 5, -35.6627, 1.78491, 19.7255, -161.585, -94.2358, 56.737
4.004, 5, -35.647, 1.76, 19.7498, -161.575, -94.2255, 56.7251
4.008, 5, -35.6313, 1.73508, 19.774, -161.564, -94.2151, 56.7132
4.012, 5, -35.6157, 1.71017, 19.7982, -161.554, -94.2048, 56.7014
4.016, 5, -35.6, 1.68527, 19.8225, -161.544, -94.1944, 56.6895
4.02, 5, -35.5843, 1.66037, 19.8467, -161.534, -94.1841, 56.6777
4.024, 5, -35.5686, 1.63548, 19.8709, -161.523, -94.1738, 56.6659
4.028, 5, -35.5529, 1.61059, 19.895, -161.513, -94.1634, 56.6541
4.032, 5, -35.5372, 1.58571, 19.9192, -161.503, -94.1531, 56.6423
4.036, 5, -35.5215, 1.56083, 19.9434, -161.493, -94.1428, 56.6305
4.04, 5, -35.5057, 1.53596, 19.9675, -161.482, -94.1325, 56.6187
4.044, 5, -35.49, 1.51109, 19.9916, -161.472, -94.1221, 56.6069
4.048, 5, -35.4743, 1.48623, 20.0158, -161.462, -94.1118, 56.5952
4.052, 5, -35.4585, 1.46137, 20.0399, -161.452, -94.1015, 56.5834
4.056, 5, -35.4428, 1.43652, 20.064, -161.441, -94.0912, 56.5716
4.06, 5, -35.427, 1.41167, 20.088, -161.431, -94.0809, 56.5599
4.064, 5, -35.4112, 1.38683, 20.1121, -161.421, -94.0706, 56.5482
4.068, 5, -35.3954, 1.36199, 20.1361, -161.41, -94.0603, 56.5364
4.072, 5, -35.3796, 1.33716, 20.1602, -161.4, -94.05, 56.5247
4.076, 5, -35.3638, 1.31234, 20.1842, -161.39, -94.0397, 56.513
4.08, 5, -35.348, 1.28752, 20.2082, -161.38, -94.0295, 56.5013
4.084, 5, -35.3322, 1.2627, 20.2322, -161.369, -94.0192, 56.4896
4.088, 5, -35.3164, 1.23789, 20.2562, -161.359, -94.0089, 56.4779
4.092, 5, -35.3005, 1.21308, 20.2801, -161.349, -93.9986, 56.4663
4.096, 5, -35.2847, 1.18828, 20.3041, -161.338, -93.9884, 56.4546
4.1, 5, -35.2688, 1.16349, 20.328, -161.328, -93.9781, 56.4429
4.104, 5, -35.253, 1.1387, 20.352, -161.318, -93.9678, 56.4313
4.108, 5, -35.2371, 1.11392, 20.3759, -161.307, -93.9576, 56.4197
4.112, 5, -35.2212, 1.08914, 20.3998, -161.297, -93.9473, 56.408
4.116, 5, -35.2053, 1.06436, 20.4237, -161.287, -93.9371, 56.3964
4.12, 5, -35.1894, 1.03959, 20.4475, -161.276, -93.9268, 56.3848
4.124, 5, -35.1735, 1.01483, 20.4714, -161.266, -93.9166, 56.3732
4.128, 5, -35.1576, 0.990071, 20.4952, -161.256, -93.9063, 56.3616
4.132, 5, -35.1417, 0.965318, 20.5191, -161.246, -93.8961, 56.35
4.136, 5, -35.1258, 0.94057, 20.5429, -161.235, -93.8859, 56.3384
4.14, 5, -35.1098, 0.915827, 20.5667, -161.225, -93.8756, 56.3268
4.144, 5, -35.0939, 0.89109, 20.5905, -161.215, -93.8654, 56.3153
4.148, 5, -35.0779, 0.866358, 20.6143, -161.204, -93.8552, 56.3037
4.152, 5, -35.062, 0.841631, 20.638, -161.194, -93.8449, 56.2922
4.156, 5, -35.046, 0.816909, 20.6618, -161.184, -93.8347, 56.2807
4.16, 5, -35.03, 0.792192, 20.6855, -161.173, -93.8245, 56.2691
4.164, 5, -35.014, 0.767481, 20.7093, -161.163, -93.8143, 56.2576
4.168, 5, -34.9981, 0.742775, 20.733, -161.153, -93.8041, 56.2461
4.172, 5, -34.982, 0.718074, 20.7567, -161.142, -93.7939, 56.2346
4.176, 5, -34.966, 0.693379, 20.7803, -161.132, -93.7837, 56.2231
4.18, 5, -34.95, 0.668688, 20.804, -161.122, -93.7735, 56.2116
4.184, 5, -34.934, 0.644003, 20.8277, -161.111, -93.7633, 56.2002
4.188, 5, -34.9179, 0.619323, 20.8513, -161.101, -93.7531, 56.1887
4.192, 5, -34.9019, 0.594648, 20.875, -161.09, -93.7429, 56.1772
4.196, 5, -34.8858, 0.569979, 20.8986, -161.08, -93.7327, 56.1658
4.2, 5, -34.8698, 0.545315, 20.9222, -161.07, -93.7225, 56.1544
4.204, 5, -34.8537, 0.520656, 20.9458, -161.059, -93.7124, 56.1429
4.208, 5, -34.8376, 0.496002, 20.9693, -161.049, -93.7022, 56.1315
4.212, 5, -34.8215, 0.471353, 20.9929, -161.039, -93.692, 56.1201
4.216, 5, -34.8054, 0.44671, 21.0165, -161.028, -93.6819, 56.1087
4.22, 5, -34.7893, 0.422071, 21.04, -161.018, -93.6717, 56.0973
4.224, 5, -34.7732, 0.397438, 21.0635, -161.008, -93.6615, 56.0859
4.228, 5, -34.7571, 0.37281, 21.087, -160.997, -93.6514, 56.0745
4.232, 5, -34.741, 0.348188, 21.1105, -160.987, -93.6412, 56.0632
4.236, 5, -34.7248, 0.32357, 21.134, -160.976, -93.6311, 56.0518
4.24, 5, -34.7087, 0.298958, 21.1575, -160.966, -93.6209, 56.0405
4.244, 5, -34.6925, 0.274351, 21.1809, -160.956, -93.6108, 56.0291
4.248, 5, -34.6763, 0.249749, 21.2044, -160.945, -93.6006, 56.0178
4.252, 5, -34.6602, 0.225153, 21.2278, -160.935, -93.5905, 56.0065
4.256, 5, -34.644, 0.200562, 21.2512, -160.925, -93.5803, 55.9952
4.26, 5, -34.6278, 0.175976, 21.2746, -160.914, -93.5702, 55.9839
4.264, 5, -34.6116, 0.151395, 21.298, -160.904, -93.5601, 55.9726
4.268, 5, -34.5954, 0.126819, 21.3214, -160.893, -93.5499, 55.9613
4.272, 5, -34.5792, 0.102249, 21.3448, -160.883, -93.5398, 55.95
4.276, 5, -34.5629, 0.0776841, 21.3681, -160.873, -93.5297, 55.9387
4.28, 5, -34.5467, 0.0531244, 21.3915, -160.862, -93.5196, 55.9275
4.284, 5, -34.5305, 0.02857, 21.4148, -160.852, -93.5094, 55.9162
4.288, 5, -34.5142, 0.00402081, 21.4381, -160.841, -93.4993, 55.905
4.292, 5, -34.498, -0.0205231, 21.4614, -160.831, -93.4892, 55.8937
4.296, 5, -34.4817, -0.0450617, 21.4847, -160.821, -93.4791, 55.8825
4.3, 5, -34.4654, -0.069595, 21.508, -160.81, -93.469, 55.8713
4.304, 5, -34.4491, -0.094123, 21.5312, -160.8, -93.4589, 55.8601
4.308, 5, -34.4328, -0.118646, 21.5545, -160.789, -93.4488, 55.8489
4.312, 5, -34.4165, -0.143163, 21.5777, -160.779, -93.4387, 55.8377
4.316, 5, -34.4002, -0.167675, 21.6009, -160.768, -93.4286, 55.8265
4.32, 5, -34.3839, -0.192182, 21.6241, -160.758, -93.4185, 55.8154
4.324, 5, -34.3676, -0.216684, 21.6473, -160.748, -93.4084, 55.8042
4.328, 5, -34.3512, -0.24118, 21.6705, -160.737, -93.3983, 55.793
4.332, 5, -34.3349, -0.265671, 21.6936, -160.727, -93.3883, 55.7819
4.336, 5, -34.3185, -0.290156, 21.7168, -160.716, -93.3782, 55.7708
4.34, 5, -34.3022, -0.314636, 21.7399, -160.706, -93.3681, 55.7596
4.344, 5, -34.2858, -0.339111, 21.7631, -160.696, -93.358, 55.7485
4.348, 5, -34.2694, -0.36358, 21.7862, -160.685, -93.3479, 55.7374
4.352, 5, -34.253, -0.388045, 21.8093, -160.675, -93.3379, 55.7263
4.356, 5, -34.2366, -0.412503, 21.8324, -160.664, -93.3278, 55.7152
4.36, 5, -34.2202, -0.436957, 21.8554, -160.654, -93.3177, 55.7041
4.364, 5, -34.2038, -0.461405, 21.8785, -160.643, -93.3077, 55.6931
4.368, 5, -34.1874, -0.485848, 21.9016, -160.633, -93.2976, 55.682
4.372, 5, -34.1709, -0.510285, 21.9246, -160.622, -93.2876, 55.671
4.376, 5, -34.1545, -0.534717, 21.9476, -160.612, -93.2775, 55.6599
4.38, 5, -34.138, -0.559143, 21.9706, -160.602, -93.2675, 55.6489
4.384, 5, -34.1216, -0.583565, 21.9936, -160.591, -93.2574, 55.6378
4.388, 5, -34.1051, -0.60798, 22.0166, -160.581, -93.2474, 55.6268
4.392, 5, -34.0886, -0.632391, 22.0396, -160.57, -93.2373, 55.6158
4.396, 5, -34.0722, -0.656796, 22.0625, -160.56, -93.2273, 55.6048
4.4, 5, -34.0557, -0.681195, 22.0855, -160.549, -93.2172, 55.5938
4.404, 5, -34.0392, -0.70559, 22.1084, -160.539, -93.2072, 55.5829
4.408, 5, -34.0226, -0.729979, 22.1313, -160.528, -93.1972, 55.5719
4.412, 5, -34.0061, -0.754362, 22.1542, -160.518, -93.1871, 55.5609
4.416, 5, -33.9896, -0.77874, 22.1771, -160.507, -93.1771, 55.55
4.42, 5, -33.9731, -0.803112, 22.2, -160.497, -93.1671, 55.539
4.424, 5, -33.9565, -0.82748, 22.2228, -160.487, -93.1571, 55.5281
4.428, 5, -33.94, -0.851841, 22.2457, -160.476, -93.147, 55.5172
4.432, 5, -33.9234, -0.876198, 22.2685, -160.466, -93.137, 55.5062
4.436, 5, -33.9068, -0.900548, 22.2913, -160.455, -93.127, 55.4953
4.44, 5, -33.8902, -0.924894, 22.3142, -160.445, -93.117, 55.4844
4.444, 5, -33.8736, -0.949234, 22.337, -160.434, -93.107, 55.4735
4.448, 5, -33.857, -0.973568, 22.3597, -160.424, -93.097, 55.4627
4.452, 5, -33.8404, -0.997897, 22.3825, -160.413, -93.087, 55.4518
4.456, 5, -33.8238, -1.02222, 22.4053, -160.403, -93.077, 55.4409
4.46, 5, -33.8072, -1.04654, 22.428, -160.392, -93.0669, 55.4301
4.464, 5, -33.7906, -1.07085, 22.4507, -160.382, -93.057, 55.4192
4.468, 5, -33.7739, -1.09516, 22.4735, -160.371, -93.047, 55.4084
4.472, 5, -33.7573, -1.11946, 22.4962, -160.361, -93.0369, 55.3975
4.476, 5, -33.7406, -1.14376, 22.5189, -160.35, -93.027, 55.3867
4.48, 5, -33.7239, -1.16805, 22.5415, -160.34, -93.017, 55.3759
4.484, 5, -33.7072, -1.19233, 22.5642, -160.329, -93.007, 55.3651
4.488, 5, -33.6906, -1.21661, 22.5869, -160.319, -92.997, 55.3543
4.492, 5, -33.6739, -1.24089, 22.6095, -160.308, -92.987, 55.3435
4.496, 5, -33.6571, -1.26516, 22.6321, -160.298, -92.977, 55.3328
4.5, 5, -33.6404, -1.28942, 22.6547, -160.287, -92.967, 55.322
4.504, 5, -33.6237, -1.31368, 22.6773, -160.277, -92.9571, 55.3113
4.508, 5, -33.607, -1.33793, 22.6999, -160.266, -92.9471, 55.3005
4.512, 5, -33.5902, -1.36218, 22.7225, -160.256, -92.9371, 55.2898
4.516, 5, -33.5735, -1.38642, 22.7451, -160.245, -92.9271, 55.279
4.52, 5, -33.5567, -1.41065, 22.7676, -160.235, -92.9172, 55.2683
4.524, 5, -33.5399, -1.43488, 22.7902, -160.224, -92.9072, 55.2576
4.528, 5, -33.5232, -1.45911, 22.8127, -160.214, -92.8972, 55.2469
4.532, 5, -33.5064, -1.48333, 22.8352, -160.203, -92.8873, 55.2362
4.536, 5, -33.4896, -1.50754, 22.8577, -160.193, -92.8773, 55.2256
4.54, 5, -33.4728, -1.53175, 22.8802, -160.182, -92.8673, 55.2149
4.544, 5, -33.456, -1.55595, 22.9026, -160.172, -92.8574, 55.2042
4.548, 5, -33.4391, -1.58015, 22.9251, -160.161, -92.8474, 55.1936
4.552, 5, -33.4223, -1.60434, 22.9476, -160.151, -92.8375, 55.1829
4.556, 5, -33.4055, -1.62852, 22.97, -160.14, -92.8275, 55.1723
4.56, 5, -33.3886, -1.6527, 22.9924, -160.129, -92.8176, 55.1617
4.564, 5, -33.3718, -1.67688, 23.0148, -160.119, -92.8076, 55.151
4.568, 5, -33.3549, -1.70105, 23.0372, -160.108, -92.7977, 55.1404
4.572, 5, -33.338, -1.72521, 23.0596, -160.098, -92.7877, 55.1298
4.576, 5, -33.3211, -1.74937, 23.082, -160.087, -92.7778, 55.1192
4.58, 5, -33.3042, -1.77352, 23.1043, -160.077, -92.7678, 55.1087
4.584, 5, -33.2873, -1.79767, 23.1266, -160.066, -92.7579, 55.0981
4.588, 5, -33.2704, -1.82181, 23.149, -160.056, -92.748, 55.0875
4.592, 5, -33.2535, -1.84594, 23.1713, -160.045, -92.738, 55.077
4.596, 5, -33.2366, -1.87007, 23.1936, -160.035, -92.7281, 55.0664
4.6, 5, -33.2196, -1.8942, 23.2159, -160.024, -92.7181, 55.0559
4.604, 5, -33.2027, -1.91832, 23.2382, -160.014, -92.7082, 55.0454
4.608, 5, -33.1857, -1.94243, 23.2604, -160.003, -92.6983, 55.0349
4.612, 5, -33.1688, -1.96654, 23.2827, -159.992, -92.6884, 55.0244
4.616, 5, -33.1518, -1.99064, 23.3049, -159.982, -92.6784, 55.0139
4.62, 5, -33.1348, -2.01473, 23.3271, -159.971, -92.6685, 55.0034
4.624, 5, -33.1178, -2.03883, 23.3493, -159.961, -92.6586, 54.9929
4.628, 5, -33.1008, -2.06291, 23.3715, -159.95, -92.6487, 54.9824
4.632, 5, -33.0838, -2.08699, 23.3937, -159.94, -92.6387, 54.972
4.636, 5, -33.0668, -2.11106, 23.4159, -159.929, -92.6288, 54.9615
4.64, 5, -33.0497, -2.13513, 23.4381, -159.919, -92.6189, 54.9511
4.644, 5, -33.0327, -2.15919, 23.4602, -159.908, -92.609, 54.9406
4.648, 5, -33.0156, -2.18325, 23.4823, -159.897, -92.5991, 54.9302
4.652, 5, -32.9986, -2.2073, 23.5045, -159.887, -92.5892, 54.9198
4.656, 5, -32.9815, -2.23135, 23.5266, -159.876, -92.5793, 54.9094
4.66, 5, -32.9644, -2.25538, 23.5487, -159.866, -92.5694, 54.899
4.664, 5, -32.9474, -2.27942, 23.5708, -159.855, -92.5594, 54.8886
4.668, 5, -32.9303, -2.30345, 23.5928, -159.845, -92.5495, 54.8782
4.672, 5, -32.9132, -2.32747, 23.6149, -159.834, -92.5396, 54.8679
4.676, 5, -32.896, -2.35149, 23.6369, -159.823, -92.5297, 54.8575
4.68, 5, -32.8789, -2.3755, 23.659, -159.813, -92.5198, 54.8472
4.684, 5, -32.8618, -2.3995, 23.681, -159.802, -92.5099, 54.8368
4.688, 5, -32.8447, -2.4235, 23.703, -159.792, -92.5, 54.8265
4.692, 5, -32.8275, -2.4475, 23.725, -159.781, -92.4901, 54.8162
4.696, 5, -32.8103, -2.47148, 23.747, -159.77, -92.4803, 54.8059
4.7, 5, -32.7932, -2.49547, 23.7689, -159.76, -92.4704, 54.7956
4.704, 5, -32.776, -2.51944, 23.7909, -159.749, -92.4605, 54.7853
4.708, 5, -32.7588, -2.54342, 23.8128, -159.739, -92.4506, 54.775
4.712, 5, -32.7416, -2.56738, 23.8347, -159.728, -92.4407, 54.7647
4.716, 5, -32.7244, -2.59134, 23.8567, -159.718, -92.4308, 54.7545
4.72, 5, -32.7072, -2.61529, 23.8786, -159.707, -92.4209, 54.7442
4.724, 5, -32.69, -2.63924, 23.9004, -159.696, -92.411, 54.734
4.728, 5, -32.6727, -2.66319, 23.9223, -159.686, -92.4011, 54.7237
4.732, 5, -32.6555, -2.68712, 23.9442, -159.675, -92.3913, 54.7135
4.736, 5, -32.6382, -2.71105, 23.966, -159.665, -92.3814, 54.7033
4.74, 5, -32.621, -2.73498, 23.9879, -159.654, -92.3715, 54.6931
4.744, 5, -32.6037, -2.7589, 24.0097, -159.643, -92.3616, 54.6829
4.748, 5, -32.5864, -2.78281, 24.0315, -159.633, -92.3517, 54.6727
4.752, 5, -32.5692, -2.80672, 24.0533, -159.622, -92.3419, 54.6625
4.756, 5, -32.5519, -2.83062, 24.0751, -159.612, -92.332, 54.6523
4.76, 5, -32.5345, -2.85452, 24.0969, -159.601, -92.3221, 54.6422
4.764, 5, -32.5172, -2.87841, 24.1186, -159.59, -92.3122, 54.632
4.768, 5, -32.4999, -2.90229, 24.1404, -159.58, -92.3024, 54.6219
4.772, 5, -32.4826, -2.92617, 24.1621, -159.569, -92.2925, 54.6117
4.776, 5, -32.4652, -2.95005, 24.1838, -159.558, -92.2826, 54.6016
4.78, 5, -32.4479, -2.97391, 24.2056, -159.548, -92.2728, 54.5915
4.784, 5, -32.4305, -2.99777, 24.2273, -159.537, -92.2629, 54.5814
4.788, 5, -32.4131, -3.02163, 24.2489, -159.527, -92.253, 54.5713
4.792, 5, -32.3958, -3.04548, 24.2706, -159.516, -92.2432, 54.5612
4.796, 5, -32.3784, -3.06932, 24.2923, -159.505, -92.2333, 54.5511
4.8, 5, -32.361, -3.09316, 24.3139, -159.495, -92.2234, 54.5411
4.804, 5, -32.3436, -3.117, 24.3355, -159.484, -92.2136, 54.531
4.808, 5, -32.3261, -3.14082, 24.3572, -159.473, -92.2037, 54.521
4.812, 5, -32.3087, -3.16464, 24.3788, -159.463, -92.1939, 54.5109
4.816, 5, -32.2913, -3.18846, 24.4004, -159.452, -92.184, 54.5009
4.82, 5, -32.2738, -3.21227, 24.4219, -159.442, -92.1741, 54.4909
4.824, 5, -32.2564, -3.23607, 24.4435, -159.431, -92.1643, 54.4809
4.828, 5, -32.2389, -3.25987, 24.4651, -159.42, -92.1544, 54.4709
4.832, 5, -32.2214, -3.28366, 24.4866, -159.41, -92.1446, 54.4609
4.836, 5, -32.204, -3.30745, 24.5081, -159.399, -92.1347, 54.4509
4.84, 5, -32.1865, -3.33123, 24.5297, -159.388, -92.1249, 54.4409
4.844, 5, -32.169, -3.355, 24.5512, -159.378, -92.115, 54.431
4.848, 5, -32.1515, -3.37877, 24.5727, -159.367, -92.1052, 54.421
4.852, 5, -32.1339, -3.40253, 24.5941, -159.357, -92.0953, 54.4111
4.856, 5, -32.1164, -3.42629, 24.6156, -159.346, -92.0855, 54.4011
4.86, 5, -32.0989, -3.45004, 24.6371, -159.335, -92.0756, 54.3912
4.864, 5, -32.0813, -3.47378, 24.6585, -159.325, -92.0658, 54.3813
4.868, 5, -32.0638, -3.49752, 24.6799, -159.314, -92.056, 54.3714
4.872, 5, -32.0462, -3.52126, 24.7013, -159.303, -92.0461, 54.3615
4.876, 5, -32.0286, -3.54498, 24.7228, -159.293, -92.0363, 54.3516
4.88, 5, -32.011, -3.5687, 24.7441, -159.282, -92.0264, 54.3417
4.884, 5, -31.9934, -3.59242, 24.7655, -159.271, -92.0166, 54.3319
4.888, 5, -31.9758, -3.61613, 24.7869, -159.261, -92.0067, 54.322
4.892, 5, -31.9582, -3.63983, 24.8082, -159.25, -91.9969, 54.3122
4.896, 5, -31.9406, -3.66353, 24.8296, -159.239, -91.9871, 54.3023
4.9, 5, -31.9229, -3.68722, 24.8509, -159.229, -91.9772, 54.2925
4.904, 5, -31.9053, -3.71091, 24.8722, -159.218, -91.9674, 54.2827
4.908, 5, -31.8876, -3.73459, 24.8935, -159.207, -91.9575, 54.2729
4.912, 5, -31.87, -3.75826, 24.9148, -159.197, -91.9477, 54.2631
4.916, 5, -31.8523, -3.78193, 24.9361, -159.186, -91.9379, 54.2533
4.92, 5, -31.8346, -3.80559, 24.9573, -159.175, -91.928, 54.2435
4.924, 5, -31.8169, -3.82925, 24.9786, -159.165, -91.9182, 54.2337
4.928, 5, -31.7992, -3.8529, 24.9998, -159.154, -91.9084, 54.2239
4.932, 5, -31.7815, -3.87654, 25.0211, -159.143, -91.8985, 54.2142
4.936, 5, -31.7638, -3.90018, 25.0423, -159.133, -91.8887, 54.2044
4.94, 5, -31.7461, -3.92381, 25.0635, -159.122, -91.8789, 54.1947
4.944, 5, -31.7283, -3.94744, 25.0847, -159.111, -91.869, 54.185
4.948, 5, -31.7106, -3.97106, 25.1058, -159.101, -91.8592, 54.1753
4.952, 5, -31.6928, -3.99468, 25.127, -159.09, -91.8494, 54.1656
4.956, 5, -31.6751, -4.01828, 25.1481, -159.079, -91.8396, 54.1559
4.96, 5, -31.6573, -4.04189, 25.1693, -159.069, -91.8297, 54.1462
4.964, 5, -31.6395, -4.06548, 25.1904, -159.058, -91.8199, 54.1365
4.968, 5, -31.6217, -4.08907, 25.2115, -159.047, -91.8101, 54.1268
4.972, 5, -31.6039, -4.11266, 25.2326, -159.037, -91.8002, 54.1172
4.976, 5, -31.5861, -4.13624, 25.2537, -159.026, -91.7904, 54.1075
4.98, 5, -31.5683, -4.15981, 25.2748, -159.015, -91.7806, 54.0979
4.984, 5, -31.5504, -4.18338, 25.2958, -159.005, -91.7708, 54.0883
4.988, 5, -31.5326, -4.20694, 25.3169, -158.994, -91.7609, 54.0787
4.992, 5, -31.5147, -4.23049, 25.3379, -158.983, -91.7511, 54.069
4.996, 5, -31.4969, -4.25404, 25.3589, -158.972, -91.7413, 54.0594
5, 5, -31.479, -4.27758, 25.3799, -158.962, -91.7315, 54.0499
5.004, 5, -31.4611, -4.30112, 25.4009, -158.951, -91.7216, 54.0403
5.008, 5, -31.4432, -4.32465, 25.4219, -158.94, -91.7118, 54.0307
5.012, 5, -31.4253, -4.34818, 25.4429, -158.93, -91.702, 54.0211
5.016, 5, -31.4074, -4.3717, 25.4639, -158.919, -91.6922, 54.0116
5.02, 5, -31.3895, -4.39521, 25.4848, -158.908, -91.6824, 54.002
5.024, 5, -31.3716, -4.41871, 25.5057, -158.898, -91.6725, 53.9925
5.028, 5, -31.3536, -4.44221, 25.5267, -158.887, -91.6627, 53.983
5.032, 5, -31.3357, -4.46571, 25.5476, -158.876, -91.6529, 53.9735
5.036, 5, -31.3177, -4.4892, 25.5685, -158.866, -91.6431, 53.964
5.04, 5, -31.2998, -4.51268, 25.5893, -158.855, -91.6332, 53.9545
5.044, 5, -31.2818, -4.53616, 25.6102, -158.844, -91.6234, 53.945
5.048, 5, -31.2638, -4.55963, 25.6311, -158.833, -91.6136, 53.9355
5.052, 5, -31.2458, -4.58309, 25.6519, -158.823, -91.6038, 53.9261
5.056, 5, -31.2278, -4.60655, 25.6727, -158.812, -91.594, 53.9166
5.06, 5, -31.2098, -4.63, 25.6936, -158.801, -91.5842, 53.9072
5.064, 5, -31.1917, -4.65345, 25.7144, -158.791, -91.5743, 53.8977
5.068, 5, -31.1737, -4.67689, 25.7352, -158.78, -91.5645, 53.8883
5.072, 5, -31.1557, -4.70032, 25.7559, -158.769, -91.5547, 53.8789
5.076, 5, -31.1376, -4.72375, 25.7767, -158.758, -91.5449, 53.8695
5.08, 5, -31.1195, -4.74717, 25.7975, -158.748, -91.5351, 53.8601
5.084, 5, -31.1015, -4.77059, 25.8182, -158.737, -91.5253, 53.8507
5.088, 5, -31.0834, -4.794, 25.8389, -158.726, -91.5154, 53.8413
5.092, 5, -31.0653, -4.8174, 25.8597, -158.716, -91.5056, 53.832
5.096, 5, -31.0472, -4.8408, 25.8804, -158.705, -91.4958, 53.8226
5.1, 5, -31.0291, -4.86419, 25.9011, -158.694, -91.486, 53.8132
5.104, 5, -31.011, -4.88759, 25.9218, -158.683, -91.4762, 53.8039
5.108, 5, -30.9928, -4.911, 25.9424, -158.673, -91.4664, 53.7946
5.112, 5, -30.9747, -4.93444, 25.9631, -158.662, -91.4565, 53.7853
5.116, 5, -30.9566, -4.95792, 25.9837, -158.651, -91.4467, 53.7759
5.12, 5, -30.9386, -4.98147, 26.0044, -158.64, -91.4369, 53.7666
5.124, 5, -30.9206, -5.0051, 26.0251, -158.63, -91.427, 53.7572
5.128, 5, -30.9026, -5.02883, 26.0458, -158.619, -91.4171, 53.7479
5.132, 5, -30.8846, -5.05267, 26.0665, -158.608, -91.4071, 53.7384
5.136, 5, -30.8667, -5.07662, 26.0873, -158.597, -91.397, 53.7289
5.14, 5, -30.8489, -5.10072, 26.1082, -158.586, -91.3868, 53.7192
5.144, 5, -30.8311, -5.12497, 26.1292, -158.575, -91.3765, 53.7094
5.148, 5, -30.8134, -5.1494, 26.1503, -158.564, -91.366, 53.6994
5.152, 5, -30.7958, -5.17403, 26.1715, -158.553, -91.3552, 53.6892
5.156, 5, -30.7782, -5.19889, 26.1929, -158.541, -91.3443, 53.6788
5.16, 5, -30.7608, -5.22398, 26.2145, -158.53, -91.333, 53.6681
5.164, 5, -30.7434, -5.24932, 26.2364, -158.518, -91.3214, 53.6571
5.168, 5, -30.7261, -5.27493, 26.2584, -158.506, -91.3096, 53.6457
5.172, 5, -30.7089, -5.30083, 26.2807, -158.493, -91.2974, 53.6341
5.176, 5, -30.6918, -5.32704, 26.3033, -158.481, -91.2848, 53.622
5.18, 5, -30.6748, -5.35357, 26.3261, -158.468, -91.2719, 53.6096
5.184, 5, -30.658, -5.38046, 26.3493, -158.455, -91.2586, 53.5967
5.188, 5, -30.6413, -5.40772, 26.3727, -158.442, -91.2449, 53.5835
5.192, 5, -30.6247, -5.43537, 26.3964, -158.429, -91.2308, 53.5699
5.196, 5, -30.6083, -5.46342, 26.4205, -158.415, -91.2164, 53.5558
5.2, 5, -30.5921, -5.49187, 26.4448, -158.401, -91.2015, 53.5414
5.204, 5, -30.576, -5.52075, 26.4695, -158.387, -91.1863, 53.5265
5.208, 5, -30.5601, -5.55005, 26.4945, -158.373, -91.1708, 53.5112
5.212, 5, -30.5444, -5.57978, 26.5198, -158.358, -91.1548, 53.4954
5.216, 5, -30.5288, -5.60995, 26.5454, -158.343, -91.1384, 53.4793
5.22, 5, -30.5135, -5.64056, 26.5714, -158.328, -91.1216, 53.4627
5.224, 6, -30.4982, -5.67162, 26.5977, -158.313, -91.1044, 53.4456
5.228, 6, -30.4832, -5.70313, 26.6244, -158.297, -91.0868, 53.4281
5.232, 6, -30.4684, -5.73509, 26.6514, -158.282, -91.0688, 53.4101
5.236, 6, -30.4537, -5.76751, 26.6788, -158.265, -91.0504, 53.3917
5.24, 6, -30.4392, -5.8004, 26.7065, -158.249, -91.0315, 53.3727
5.244, 6, -30.4249, -5.83375, 26.7346, -158.232, -91.0123, 53.3533
5.248, 6, -30.4108, -5.86756, 26.7631, -158.215, -90.9925, 53.3335
5.252, 6, -30.3969, -5.90185, 26.7919, -158.198, -90.9724, 53.3131
5.256, 6, -30.3832, -5.9366, 26.8211, -158.181, -90.9518, 53.2923
5.26, 6, -30.3697, -5.97183, 26.8506, -158.163, -90.9308, 53.271
5.264, 6, -30.3563, -6.00751, 26.8805, -158.145, -90.9094, 53.2492
5.268, 6, -30.3431, -6.04367, 26.9108, -158.126, -90.8875, 53.2269
5.272, 6, -30.3302, -6.08028, 26.9415, -158.108, -90.8653, 53.2041
5.276, 6, -30.3174, -6.11735, 26.9725, -158.089, -90.8425, 53.1808
5.28, 6, -30.3047, -6.15488, 27.0039, -158.07, -90.8194, 53.1571
5.284, 6, -30.2923, -6.19286, 27.0356, -158.05, -90.7959, 53.1329
5.288, 6, -30.28, -6.23128, 27.0677, -158.03, -90.772, 53.1083
5.292, 6, -30.268, -6.27016, 27.1001, -158.011, -90.7476, 53.0832
5.296, 6, -30.2561, -6.30947, 27.1328, -157.99, -90.7229, 53.0577
5.3, 6, -30.2443, -6.34923, 27.1659, -157.97, -90.6978, 53.0317
5.304, 6, -30.2328, -6.38942, 27.1993, -157.949, -90.6723, 53.0053
5.308, 6, -30.2214, -6.43002, 27.233, -157.928, -90.6465, 52.9785
5.312, 6, -30.2102, -6.47103, 27.267, -157.907, -90.6203, 52.9513
5.316, 6, -30.1991, -6.51241, 27.3013, -157.885, -90.5937, 52.9236
5.32, 6, -30.1882, -6.55417, 27.3359, -157.864, -90.5667, 52.8955
5.324, 6, -30.1774, -6.59626, 27.3708, -157.842, -90.5394, 52.8671
5.328, 6, -30.1667, -6.63868, 27.406, -157.82, -90.5117, 52.8382
5.332, 6, -30.1561, -6.6814, 27.4414, -157.797, -90.4837, 52.809
5.336, 6, -30.1457, -6.72441, 27.4771, -157.774, -90.4554, 52.7794
5.34, 6, -30.1353, -6.7677, 27.513, -157.752, -90.4268, 52.7495
5.344, 6, -30.125, -6.81124, 27.5491, -157.729, -90.398, 52.7193
5.348, 6, -30.1148, -6.85501, 27.5854, -157.705, -90.3689, 52.6889
5.352, 6, -30.1047, -6.89899, 27.6219, -157.682, -90.3396, 52.6582
5.356, 6, -30.0947, -6.94316, 27.6585, -157.658, -90.3101, 52.6273
5.36, 6, -30.0848, -6.9875, 27.6952, -157.635, -90.2804, 52.5962
5.364, 6, -30.0749, -7.032, 27.732, -157.611, -90.2507, 52.565
5.368, 6, -30.065, -7.07664, 27.7688, -157.587, -90.2208, 52.5337
5.372, 6, -30.0552, -7.12142, 27.8058, -157.563, -90.1909, 52.5023
5.376, 6, -30.0455, -7.16631, 27.8427, -157.54, -90.161, 52.4708
5.38, 6, -30.0358, -7.21129, 27.8797, -157.516, -90.131, 52.4393
5.384, 6, -30.0262, -7.25634, 27.9167, -157.492, -90.101, 52.4078
5.388, 6, -30.0165, -7.30145, 27.9538, -157.468, -90.071, 52.3762
5.392, 6, -30.0069, -7.3466, 27.9908, -157.444, -90.041, 52.3446
5.396, 6, -29.9973, -7.39177, 28.0278, -157.42, -90.011, 52.313
5.4, 6, -29.9877, -7.43696, 28.0648, -157.396, -89.981, 52.2815
5.404, 6, -29.9781, -7.48216, 28.1019, -157.372, -89.951, 52.2499
5.408, 6, -29.9685, -7.52737, 28.1389, -157.348, -89.9211, 52.2183
5.412, 6, -29.9589, -7.57258, 28.1759, -157.323, -89.8911, 52.1866
5.416, 6, -29.9493, -7.6178, 28.2129, -157.299, -89.8612, 52.155
5.42, 6, -29.9397, -7.66303, 28.2499, -157.275, -89.8312, 52.1234
5.424, 6, -29.9301, -7.70826, 28.2869, -157.251, -89.8013, 52.0918
5.428, 6, -29.9205, -7.75348, 28.3239, -157.227, -89.7714, 52.0602
5.432, 6, -29.9109, -7.79871, 28.3609, -157.203, -89.7415, 52.0286
5.436, 6, -29.9012, -7.84395, 28.3979, -157.179, -89.7116, 51.9969
5.44, 6, -29.8916, -7.88918, 28.4348, -157.154, -89.6817, 51.9653
5.444, 6, -29.882, -7.93441, 28.4718, -157.13, -89.6518, 51.9337
5.448, 6, -29.8723, -7.97965, 28.5088, -157.106, -89.6219, 51.902
5.452, 6, -29.8627, -8.02489, 28.5457, -157.082, -89.5921, 51.8704
5.456, 6, -29.853, -8.07012, 28.5827, -157.058, -89.5622, 51.8388
5.46, 6, -29.8434, -8.11536, 28.6196, -157.033, -89.5324, 51.8071
5.464, 6, -29.8337, -8.1606, 28.6565, -157.009, -89.5026, 51.7755
5.468, 6, -29.8241, -8.20584, 28.6935, -156.985, -89.4728, 51.7439
5.472, 6, -29.8144, -8.25108, 28.7304, -156.961, -89.443, 51.7122
5.476, 6, -29.8047, -8.29632, 28.7673, -156.936, -89.4132, 51.6806
5.48, 6, -29.7951, -8.34157, 28.8042, -156.912, -89.3834, 51.6489
5.484, 6, -29.7854, -8.38681, 28.8412, -156.888, -89.3537, 51.6173
5.488, 6, -29.7757, -8.43205, 28.8781, -156.863, -89.3239, 51.5856
5.492, 6, -29.766, -8.4773, 28.915, -156.839, -89.2942, 51.554
5.496, 6, -29.7563, -8.52255, 28.9518, -156.815, -89.2644, 51.5223
5.5, 6, -29.7466, -8.56779, 28.9887, -156.79, -89.2347, 51.4906
5.504, 6, -29.7369, -8.61304, 29.0256, -156.766, -89.205, 51.459
5.508, 6, -29.7272, -8.65829, 29.0625, -156.741, -89.1753, 51.4273
5.512, 6, -29.7175, -8.70354, 29.0993, -156.717, -89.1456, 51.3956
5.516, 6, -29.7078, -8.74879, 29.1362, -156.693, -89.1159, 51.364
5.52, 6, -29.6981, -8.79404, 29.1731, -156.668, -89.0863, 51.3323
5.524, 6, -29.6883, -8.8393, 29.2099, -156.644, -89.0566, 51.3006
5.528, 6, -29.6786, -8.88455, 29.2468, -156.619, -89.027, 51.269
5.532, 6, -29.6689, -8.9298, 29.2836, -156.595, -88.9974, 51.2373
5.536, 6, -29.6591, -8.97506, 29.3204, -156.57, -88.9677, 51.2056
5.54, 6, -29.6494, -9.02032, 29.3572, -156.546, -88.9381, 51.1739
5.544, 6, -29.6396, -9.06557, 29.3941, -156.521, -88.9085, 51.1422
5.548, 6, -29.6299, -9.11083, 29.4309, -156.497, -88.8789, 51.1106
5.552, 6, -29.6201, -9.15609, 29.4677, -156.472, -88.8493, 51.0789
5.556, 6, -29.6103, -9.20135, 29.5045, -156.448, -88.8198, 51.0472
5.56, 6, -29.6006, -9.24661, 29.5413, -156.423, -88.7902, 51.0155
5.564, 6, -29.5908, -9.29187, 29.5781, -156.398, -88.7607, 50.9838
5.568, 6, -29.581, -9.33713, 29.6149, -156.374, -88.7312, 50.9521
5.572, 6, -29.5712, -9.3824, 29.6516, -156.349, -88.7016, 50.9204
5.576, 6, -29.5614, -9.42766, 29.6884, -156.325, -88.6721, 50.8887
5.58, 6, -29.5516, -9.47293, 29.7252, -156.3, -88.6426, 50.857
5.584, 6, -29.5418, -9.51819, 29.7619, -156.275, -88.6131, 50.8253
5.588, 6, -29.532, -9.56346, 29.7987, -156.251, -88.5836, 50.7936
5.592, 6, -29.5222, -9.60873, 29.8354, -156.226, -88.5542, 50.7619
5.596, 6, -29.5124, -9.65399, 29.8722, -156.201, -88.5247, 50.7302
5.6, 6, -29.5025, -9.69926, 29.9089, -156.177, -88.4953, 50.6985
5.604, 6, -29.4927, -9.74453, 29.9456, -156.152, -88.4658, 50.6668
5.608, 6, -29.4829, -9.78981, 29.9824, -156.127, -88.4364, 50.6351
5.612, 6, -29.473, -9.83508, 30.0191, -156.102, -88.407, 50.6034
5.616, 6, -29.4632, -9.88035, 30.0558, -156.078, -88.3776, 50.5716
5.62, 6, -29.4533, -9.92562, 30.0925, -156.053, -88.3482, 50.5399
5.624, 6, -29.4435, -9.9709, 30.1292, -156.028, -88.3188, 50.5082
5.628, 6, -29.4336, -10.0162, 30.1659, -156.003, -88.2894, 50.4765
5.632, 6, -29.4237, -10.0614, 30.2026, -155.978, -88.2601, 50.4448
5.636, 6, -29.4139, -10.1067, 30.2393, -155.954, -88.2307, 50.413
5.64, 6, -29.404, -10.152, 30.276, -155.929, -88.2014, 50.3813
5.644, 6, -29.3941, -10.1973, 30.3126, -155.904, -88.1721, 50.3496
5.648, 6, -29.3842, -10.2426, 30.3493, -155.879, -88.1427, 50.3178
5.652, 6, -29.3743, -10.2878, 30.386, -155.854, -88.1134, 50.2861
5.656, 6, -29.3644, -10.3331, 30.4226, -155.829, -88.0841, 50.2544
5.66, 6, -29.3545, -10.3784, 30.4593, -155.804, -88.0548, 50.2226
5.664, 6, -29.3446, -10.4237, 30.4959, -155.78, -88.0256, 50.1909
5.668, 6, -29.3347, -10.469, 30.5325, -155.755, -87.9963, 50.1591
5.672, 6, -29.3247, -10.5143, 30.5692, -155.73, -87.967, 50.1274
5.676, 6, -29.3148, -10.5595, 30.6058, -155.705, -87.9378, 50.0957
5.68, 6, -29.3049, -10.6048, 30.6424, -155.68, -87.9086, 50.0639
5.684, 6, -29.2949, -10.6501, 30.679, -155.655, -87.8793, 50.0322
5.688, 6, -29.285, -10.6954, 30.7156, -155.63, -87.8501, 50.0004
5.692, 6, -29.275, -10.7407, 30.7522, -155.605, -87.8209, 49.9687
5.696, 6, -29.2651, -10.786, 30.7888, -155.58, -87.7917, 49.9369
5.7, 6, -29.2551, -10.8313, 30.8254, -155.555, -87.7626, 49.9052
5.704, 6, -29.2451, -10.8766, 30.862, -155.53, -87.7334, 49.8734
5.708, 6, -29.2352, -10.9218, 30.8986, -155.505, -87.7042, 49.8416
5.712, 6, -29.2252, -10.9671, 30.9352, -155.48, -87.6751, 49.8099
5.716, 6, -29.2152, -11.0124, 30.9717, -155.455, -87.6459, 49.7781
5.72, 6, -29.2052, -11.0577, 31.0083, -155.43, -87.6168, 49.7464
5.724, 6, -29.1952, -11.103, 31.0448, -155.404, -87.5877, 49.7146
5.728, 6, -29.1852, -11.1483, 31.0814, -155.379, -87.5586, 49.6828
5.732, 6, -29.1752, -11.1936, 31.1179, -155.354, -87.5295, 49.6511
5.736, 6, -29.1652, -11.2389, 31.1545, -155.329, -87.5004, 49.6193
5.74, 6, -29.1551, -11.2842, 31.191, -155.304, -87.4713, 49.5875
5.744, 6, -29.1451, -11.3295, 31.2275, -155.279, -87.4422, 49.5557
5.748, 6, -29.1351, -11.3748, 31.2641, -155.254, -87.4132, 49.524
5.752, 6, -29.125, -11.4201, 31.3006, -155.228, -87.3841, 49.4922
5.756, 6, -29.115, -11.4654, 31.3371, -155.203, -87.3551, 49.4604
5.76, 6, -29.1049, -11.5107, 31.3736, -155.178, -87.3261, 49.4286
5.764, 6, -29.0948, -11.556, 31.4101, -155.153, -87.297, 49.3969
5.768, 6, -29.0848, -11.6013, 31.4466, -155.127, -87.268, 49.3651
5.772, 6, -29.0747, -11.6466, 31.4831, -155.102, -87.239, 49.3333
5.776, 6, -29.0646, -11.6919, 31.5195, -155.077, -87.2101, 49.3015
5.78, 6, -29.0545, -11.7372, 31.556, -155.052, -87.1811, 49.2697
5.784, 6, -29.0444, -11.7825, 31.5925, -155.026, -87.1521, 49.2379
5.788, 6, -29.0343, -11.8278, 31.629, -155.001, -87.1232, 49.2061
5.792, 6, -29.0242, -11.8732, 31.6654, -154.976, -87.0942, 49.1743
5.796, 6, -29.0141, -11.9185, 31.7019, -154.95, -87.0653, 49.1425
5.8, 6, -29.004, -11.9638, 31.7383, -154.925, -87.0363, 49.1108
5.804, 6, -28.9939, -12.0091, 31.7747, -154.9, -87.0074, 49.079
5.808, 6, -28.9838, -12.0544, 31.8112, -154.874, -86.9785, 49.0472
5.812, 6, -28.9736, -12.0997, 31.8476, -154.849, -86.9496, 49.0154
5.816, 6, -28.9635, -12.145, 31.884, -154.824, -86.9207, 48.9836
5.82, 6, -28.9533, -12.1903, 31.9205, -154.798, -86.8919, 48.9517
5.824, 6, -28.9432, -12.2356, 31.9569, -154.773, -86.863, 48.9199
5.828, 6, -28.933, -12.281, 31.9933, -154.747, -86.8342, 48.8881
5.832, 6, -28.9228, -12.3263, 32.0297, -154.722, -86.8053, 48.8563
5.836, 6, -28.9127, -12.3716, 32.0661, -154.696, -86.7765, 48.8245
5.84, 6, -28.9025, -12.4169, 32.1025, -154.671, -86.7477, 48.7927
5.844, 6, -28.8923, -12.4623, 32.1388, -154.645, -86.7188, 48.7609
5.848, 6, -28.8821, -12.5077, 32.1752, -154.62, -86.69, 48.7291
5.852, 6, -28.872, -12.5531, 32.2116, -154.594, -86.6612, 48.6973
5.856, 6, -28.8618, -12.5986, 32.248, -154.569, -86.6324, 48.6655
5.86, 6, -28.8517, -12.6441, 32.2844, -154.543, -86.6036, 48.6337
5.864, 6, -28.8416, -12.6897, 32.3209, -154.518, -86.5747, 48.6018
5.868, 6, -28.8315, -12.7354, 32.3574, -154.492, -86.5458, 48.5701
5.872, 6, -28.8215, -12.7813, 32.3939, -154.466, -86.5168, 48.5383
5.876, 6, -28.8115, -12.8272, 32.4305, -154.441, -86.4878, 48.5065
5.88, 6, -28.8015, -12.8732, 32.4672, -154.415, -86.4586, 48.4748
5.884, 6, -28.7916, -12.9194, 32.504, -154.389, -86.4293, 48.443
5.888, 6, -28.7818, -12.9658, 32.541, -154.362, -86.3998, 48.4113
5.892, 6, -28.772, -13.0123, 32.578, -154.336, -86.3702, 48.3797
5.896, 6, -28.7623, -13.059, 32.6153, -154.31, -86.3404, 48.348
5.9, 6, -28.7526, -13.106, 32.6527, -154.283, -86.3103, 48.3164
5.904, 6, -28.743, -13.1531, 32.6903, -154.256, -86.28, 48.2848
5.908, 6, -28.7335, -13.2005, 32.7281, -154.229, -86.2494, 48.2532
5.912, 6, -28.7241, -13.2481, 32.7662, -154.202, -86.2186, 48.2217
5.916, 6, -28.7148, -13.2959, 32.8044, -154.175, -86.1875, 48.1902
5.92, 6, -28.7056, -13.3441, 32.843, -154.147, -86.1561, 48.1588
5.924, 6, -28.6964, -13.3925, 32.8817, -154.12, -86.1244, 48.1273
5.928, 6, -28.6874, -13.4412, 32.9207, -154.092, -86.0924, 48.0959
5.932, 6, -28.6785, -13.4902, 32.96, -154.063, -86.0602, 48.0645
