rpiRobotics/ARM-21-02-F-19-Robot-Motion-Program/data_performance_abb/curve_1/dual_arm/diffevo_pose3/grad_result/real/run_1.csv
timestamp,cmd_num,J1,J2,J3,J4,J5,J6,J1_2,J2_2,J3_2,J4_2,J5_2,J6_2
1.435999991372227669e-03,-1.000000000000000000e+00,-1.934196472167968750e+01,-6.361609935760498047e+00,5.041897964477539062e+01,9.409272766113281250e+01,8.463775634765625000e+01,1.370027618408203125e+02,3.293048620223999023e+00,-3.330425643920898438e+01,-1.847663269042968750e+02,3.696453857421875000e+01,2.138944625854492188e+01,3.269950103759765625e+01
2.923999913036823273e-03,-1.000000000000000000e+00,-1.934190559387207031e+01,-6.361609935760498047e+00,5.041897964477539062e+01,9.409272766113281250e+01,8.463775634765625000e+01,1.370028991699218750e+02,3.293048620223999023e+00,-3.330439376831054688e+01,-1.847664337158203125e+02,3.696453857421875000e+01,2.138930130004882812e+01,3.269950103759765625e+01
5.460999906063079834e-03,-1.000000000000000000e+00,-1.934190559387207031e+01,-6.361609935760498047e+00,5.041897964477539062e+01,9.409272766113281250e+01,8.463775634765625000e+01,1.370028991699218750e+02,3.293048620223999023e+00,-3.330439376831054688e+01,-1.847664337158203125e+02,3.696453857421875000e+01,2.138930130004882812e+01,3.269950103759765625e+01
7.366000209003686905e-03,-1.000000000000000000e+00,-1.934190559387207031e+01,-6.361609935760498047e+00,5.041897964477539062e+01,9.409272766113281250e+01,8.463775634765625000e+01,1.370031127929687500e+02,3.293048620223999023e+00,-3.330439376831054688e+01,-1.847663269042968750e+02,3.696453857421875000e+01,2.138930130004882812e+01,3.269950103759765625e+01
1.135899964720010757e-02,-1.000000000000000000e+00,-1.934190559387207031e+01,-6.361609935760498047e+00,5.041897964477539062e+01,9.409272766113281250e+01,8.463764953613281250e+01,1.370028991699218750e+02,3.293048620223999023e+00,-3.330425643920898438e+01,-1.847664337158203125e+02,3.696453857421875000e+01,2.138944625854492188e+01,3.269950103759765625e+01
1.541399955749511719e-02,-1.000000000000000000e+00,-1.934190559387207031e+01,-6.361609935760498047e+00,5.041895675659179688e+01,9.409272766113281250e+01,8.463764953613281250e+01,1.370027618408203125e+02,3.293048620223999023e+00,-3.330425643920898438e+01,-1.847664337158203125e+02,3.696453857421875000e+01,2.138944625854492188e+01,3.269950103759765625e+01
1.937399990856647491e-02,-1.000000000000000000e+00,-1.934196472167968750e+01,-6.361609935760498047e+00,5.041897964477539062e+01,9.409262084960937500e+01,8.463775634765625000e+01,1.370031127929687500e+02,3.293048620223999023e+00,-3.330425643920898438e+01,-1.847664337158203125e+02,3.696453857421875000e+01,2.138944625854492188e+01,3.269950103759765625e+01
2.339100092649459839e-02,-1.000000000000000000e+00,-1.934196472167968750e+01,-6.361609935760498047e+00,5.041901779174804688e+01,9.409272766113281250e+01,8.463775634765625000e+01,1.370028991699218750e+02,3.293158531188964844e+00,-3.330425643920898438e+01,-1.847664337158203125e+02,3.696453857421875000e+01,2.138944625854492188e+01,3.269950103759765625e+01
2.738600037992000580e-02,-1.000000000000000000e+00,-1.934196472167968750e+01,-6.361609935760498047e+00,5.041895675659179688e+01,9.409262084960937500e+01,8.463775634765625000e+01,1.370028991699218750e+02,3.293158531188964844e+00,-3.330425643920898438e+01,-1.847664947509765625e+02,3.696468353271484375e+01,2.138944625854492188e+01,3.269950103759765625e+01
3.147099912166595459e-02,-1.000000000000000000e+00,-1.934190559387207031e+01,-6.361609935760498047e+00,5.041895675659179688e+01,9.409262084960937500e+01,8.463775634765625000e+01,1.370028991699218750e+02,3.293048620223999023e+00,-3.330425643920898438e+01,-1.847664337158203125e+02,3.696453857421875000e+01,2.138944625854492188e+01,3.269950103759765625e+01
3.799299895763397217e-02,-1.000000000000000000e+00,-1.934196472167968750e+01,-6.361609935760498047e+00,5.041895675659179688e+01,9.409277343750000000e+01,8.463775634765625000e+01,1.370028991699218750e+02,3.293048620223999023e+00,-3.330439376831054688e+01,-1.847664337158203125e+02,3.696453857421875000e+01,2.138944625854492188e+01,3.269950103759765625e+01
4.784899950027465820e-02,2.000000000000000000e+00,-1.934196472167968750e+01,-6.361609935760498047e+00,5.041897964477539062e+01,9.409262084960937500e+01,8.463775634765625000e+01,1.370028991699218750e+02,3.293048620223999023e+00,-3.330425643920898438e+01,-1.847664337158203125e+02,3.696453857421875000e+01,2.138944625854492188e+01,3.269950103759765625e+01
5.447300150990486145e-02,2.000000000000000000e+00,-1.934196472167968750e+01,-6.361609935760498047e+00,5.041897964477539062e+01,9.409272766113281250e+01,8.463775634765625000e+01,1.370028991699218750e+02,3.293158531188964844e+00,-3.330425643920898438e+01,-1.847663269042968750e+02,3.696453857421875000e+01,2.138930130004882812e+01,3.269950103759765625e+01
5.892600119113922119e-02,2.000000000000000000e+00,-1.934196472167968750e+01,-6.361609935760498047e+00,5.041897964477539062e+01,9.409262084960937500e+01,8.463775634765625000e+01,1.370028991699218750e+02,3.293048620223999023e+00,-3.330439376831054688e+01,-1.847663269042968750e+02,3.696453857421875000e+01,2.138930130004882812e+01,3.269950103759765625e+01
9.859099984169006348e-02,2.000000000000000000e+00,-1.934196472167968750e+01,-6.361609935760498047e+00,5.041897964477539062e+01,9.409272766113281250e+01,8.463775634765625000e+01,1.370028991699218750e+02,3.293048620223999023e+00,-3.330425643920898438e+01,-1.847663269042968750e+02,3.696453857421875000e+01,2.138930130004882812e+01,3.269950103759765625e+01
9.995000064373016357e-02,2.000000000000000000e+00,-1.934196472167968750e+01,-6.361609935760498047e+00,5.041897964477539062e+01,9.409272766113281250e+01,8.463775634765625000e+01,1.370028991699218750e+02,3.293048620223999023e+00,-3.330425643920898438e+01,-1.847663269042968750e+02,3.696453857421875000e+01,2.138930130004882812e+01,3.269950103759765625e+01
1.025229990482330322e-01,2.000000000000000000e+00,-1.934204864501953125e+01,-6.361609935760498047e+00,5.041897964477539062e+01,9.409262084960937500e+01,8.463775634765625000e+01,1.370028991699218750e+02,3.293048620223999023e+00,-3.330425643920898438e+01,-1.847663269042968750e+02,3.696453857421875000e+01,2.138944625854492188e+01,3.269950103759765625e+01
1.074500009417533875e-01,2.000000000000000000e+00,-1.934204864501953125e+01,-6.361609935760498047e+00,5.041897964477539062e+01,9.409262084960937500e+01,8.463775634765625000e+01,1.370028991699218750e+02,3.293048620223999023e+00,-3.330425643920898438e+01,-1.847663269042968750e+02,3.696453857421875000e+01,2.138944625854492188e+01,3.269950103759765625e+01
1.087739989161491394e-01,2.000000000000000000e+00,-1.934213638305664062e+01,-6.361609935760498047e+00,5.041897964477539062e+01,9.409272766113281250e+01,8.463775634765625000e+01,1.370028991699218750e+02,3.293048620223999023e+00,-3.330425643920898438e+01,-1.847663269042968750e+02,3.696453857421875000e+01,2.138944625854492188e+01,3.269950103759765625e+01
1.113110035657882690e-01,2.000000000000000000e+00,-1.934219360351562500e+01,-6.361564636230468750e+00,5.041895675659179688e+01,9.409262084960937500e+01,8.463764953613281250e+01,1.370028991699218750e+02,3.293048620223999023e+00,-3.330425643920898438e+01,-1.847663269042968750e+02,3.696453857421875000e+01,2.138944625854492188e+01,3.269950103759765625e+01
1.126480028033256531e-01,2.000000000000000000e+00,-1.934219360351562500e+01,-6.361564636230468750e+00,5.041895675659179688e+01,9.409262084960937500e+01,8.463764953613281250e+01,1.370028991699218750e+02,3.293048620223999023e+00,-3.330425643920898438e+01,-1.847663269042968750e+02,3.696453857421875000e+01,2.138944625854492188e+01,3.269950103759765625e+01
1.150899976491928101e-01,2.000000000000000000e+00,-1.934313964843750000e+01,-6.361293315887451172e+00,5.041879653930664062e+01,9.409262084960937500e+01,8.463775634765625000e+01,1.370028991699218750e+02,3.293048620223999023e+00,-3.330425643920898438e+01,-1.847663269042968750e+02,3.696453857421875000e+01,2.138944625854492188e+01,3.269950103759765625e+01
1.230129972100257874e-01,2.000000000000000000e+00,-1.934758949279785156e+01,-6.358939647674560547e+00,5.041755294799804688e+01,9.409262084960937500e+01,8.463775634765625000e+01,1.370027618408203125e+02,3.292444229125976562e+00,-3.330425643920898438e+01,-1.847661132812500000e+02,3.696453857421875000e+01,2.138966560363769531e+01,3.269950103759765625e+01
1.243090033531188965e-01,2.000000000000000000e+00,-1.934758949279785156e+01,-6.358939647674560547e+00,5.041755294799804688e+01,9.409262084960937500e+01,8.463775634765625000e+01,1.370027618408203125e+02,3.292444229125976562e+00,-3.330425643920898438e+01,-1.847661132812500000e+02,3.696453857421875000e+01,2.138966560363769531e+01,3.269950103759765625e+01
1.267859935760498047e-01,2.000000000000000000e+00,-1.935181045532226562e+01,-6.356540679931640625e+00,5.041611480712890625e+01,9.409262084960937500e+01,8.463775634765625000e+01,1.370028991699218750e+02,3.291620492935180664e+00,-3.330406951904296875e+01,-1.847648620605468750e+02,3.696468353271484375e+01,2.139075851440429688e+01,3.269950103759765625e+01
1.281549930572509766e-01,2.000000000000000000e+00,-1.935181045532226562e+01,-6.356540679931640625e+00,5.041611480712890625e+01,9.409262084960937500e+01,8.463775634765625000e+01,1.370028991699218750e+02,3.291620492935180664e+00,-3.330406951904296875e+01,-1.847648620605468750e+02,3.696468353271484375e+01,2.139075851440429688e+01,3.269950103759765625e+01
1.325249969959259033e-01,2.000000000000000000e+00,-1.935749435424804688e+01,-6.352920055389404297e+00,5.041387557983398438e+01,9.409272766113281250e+01,8.463764953613281250e+01,1.370027618408203125e+02,3.290137052536010742e+00,-3.330334091186523438e+01,-1.847621917724609375e+02,3.696453857421875000e+01,2.139600563049316406e+01,3.269950103759765625e+01
1.350899934768676758e-01,2.000000000000000000e+00,-1.936501502990722656e+01,-6.348190307617187500e+00,5.041054153442382812e+01,9.409277343750000000e+01,8.463775634765625000e+01,1.370027618408203125e+02,3.287500381469726562e+00,-3.330237579345703125e+01,-1.847604522705078125e+02,3.696453857421875000e+01,2.140226936340332031e+01,3.269950103759765625e+01
1.364160031080245972e-01,2.000000000000000000e+00,-1.936501502990722656e+01,-6.348190307617187500e+00,5.041054153442382812e+01,9.409277343750000000e+01,8.463775634765625000e+01,1.370027618408203125e+02,3.287500381469726562e+00,-3.330237579345703125e+01,-1.847604522705078125e+02,3.696453857421875000e+01,2.140226936340332031e+01,3.269950103759765625e+01
1.387999951839447021e-01,2.000000000000000000e+00,-1.937400054931640625e+01,-6.342125892639160156e+00,5.040584564208984375e+01,9.409288787841796875e+01,8.463764953613281250e+01,1.370027618408203125e+02,3.283710241317749023e+00,-3.330159759521484375e+01,-1.847589874267578125e+02,3.696453857421875000e+01,2.140525817871093750e+01,3.269916915893554688e+01
1.430969983339309692e-01,2.000000000000000000e+00,-1.938496589660644531e+01,-6.334815979003906250e+00,5.039948272705078125e+01,9.409335327148437500e+01,8.463775634765625000e+01,1.370023040771484375e+02,3.278162240982055664e+00,-3.330109786987304688e+01,-1.847571411132812500e+02,3.696432495117187500e+01,2.140693283081054688e+01,3.269829177856445312e+01
1.444559991359710693e-01,2.000000000000000000e+00,-1.938496589660644531e+01,-6.334815979003906250e+00,5.039948272705078125e+01,9.409335327148437500e+01,8.463775634765625000e+01,1.370023040771484375e+02,3.278162240982055664e+00,-3.330109786987304688e+01,-1.847571411132812500e+02,3.696432495117187500e+01,2.140693283081054688e+01,3.269829177856445312e+01
1.481010019779205322e-01,2.000000000000000000e+00,-1.939751052856445312e+01,-6.325854778289794922e+00,5.039130401611328125e+01,9.409414672851562500e+01,8.463764953613281250e+01,1.370016174316406250e+02,3.270087242126464844e+00,-3.329990386962890625e+01,-1.847555541992187500e+02,3.696382141113281250e+01,2.140897369384765625e+01,3.269664382934570312e+01
1.505939960479736328e-01,2.000000000000000000e+00,-1.939751052856445312e+01,-6.325854778289794922e+00,5.039130401611328125e+01,9.409414672851562500e+01,8.463764953613281250e+01,1.370016174316406250e+02,3.270087242126464844e+00,-3.329990386962890625e+01,-1.847555541992187500e+02,3.696382141113281250e+01,2.140897369384765625e+01,3.269664382934570312e+01
1.557240039110183716e-01,2.000000000000000000e+00,-1.941252517700195312e+01,-6.315128326416015625e+00,5.038079833984375000e+01,9.409541320800781250e+01,8.463764953613281250e+01,1.370004730224609375e+02,3.245587587356567383e+00,-3.329725265502929688e+01,-1.847514801025390625e+02,3.696166992187500000e+01,2.141414833068847656e+01,3.269642257690429688e+01
1.571159958839416504e-01,2.000000000000000000e+00,-1.943017959594726562e+01,-6.302727222442626953e+00,5.036811065673828125e+01,9.409725952148437500e+01,8.463754272460937500e+01,1.369983673095703125e+02,3.245587587356567383e+00,-3.329725265502929688e+01,-1.847514801025390625e+02,3.696166992187500000e+01,2.141414833068847656e+01,3.269642257690429688e+01
1.597210019826889038e-01,2.000000000000000000e+00,-1.945064735412597656e+01,-6.288470268249511719e+00,5.035292053222656250e+01,9.409952545166015625e+01,8.463764953613281250e+01,1.369952392578125000e+02,3.228943347930908203e+00,-3.329560089111328125e+01,-1.847496185302734375e+02,3.695965576171875000e+01,2.141808128356933594e+01,3.269642257690429688e+01
1.609839946031570435e-01,2.000000000000000000e+00,-1.945064735412597656e+01,-6.288470268249511719e+00,5.035292053222656250e+01,9.409952545166015625e+01,8.463764953613281250e+01,1.369952392578125000e+02,3.228943347930908203e+00,-3.329560089111328125e+01,-1.847496185302734375e+02,3.695965576171875000e+01,2.141808128356933594e+01,3.269642257690429688e+01
1.635950058698654175e-01,2.000000000000000000e+00,-1.947392845153808594e+01,-6.272199153900146484e+00,5.033478546142578125e+01,9.410236358642578125e+01,8.463754272460937500e+01,1.369916381835937500e+02,3.208563804626464844e+00,-3.329359054565429688e+01,-1.847478332519531250e+02,3.695822143554687500e+01,2.142325592041015625e+01,3.269587326049804688e+01
1.677040010690689087e-01,2.000000000000000000e+00,-1.950010871887207031e+01,-6.254072666168212891e+00,5.031365966796875000e+01,9.410552978515625000e+01,8.463754272460937500e+01,1.369874420166015625e+02,3.184448719024658203e+00,-3.329097747802734375e+01,-1.847457122802734375e+02,3.695714187622070312e+01,2.142973899841308594e+01,3.269554519653320312e+01
1.690489947795867920e-01,2.000000000000000000e+00,-1.950010871887207031e+01,-6.254072666168212891e+00,5.031365966796875000e+01,9.410552978515625000e+01,8.463754272460937500e+01,1.369874420166015625e+02,3.184448719024658203e+00,-3.329097747802734375e+01,-1.847457122802734375e+02,3.695714187622070312e+01,2.142973899841308594e+01,3.269554519653320312e+01
1.728969961404800415e-01,2.000000000000000000e+00,-1.952887344360351562e+01,-6.234271526336669922e+00,5.028997421264648438e+01,9.410921478271484375e+01,8.463743591308593750e+01,1.369822845458984375e+02,3.157642126083374023e+00,-3.328786468505859375e+01,-1.847433776855468750e+02,3.695606613159179688e+01,2.143731689453125000e+01,3.269499588012695312e+01
1.754260063171386719e-01,2.000000000000000000e+00,-1.956010627746582031e+01,-6.212637424468994141e+00,5.026344299316406250e+01,9.411363220214843750e+01,8.463743591308593750e+01,1.369763183593750000e+02,3.127264976501464844e+00,-3.328415679931640625e+01,-1.847407073974609375e+02,3.695520401000976562e+01,2.144606018066406250e+01,3.269477844238281250e+01
1.875669956207275391e-01,2.000000000000000000e+00,-1.966626548767089844e+01,-6.138184547424316406e+00,5.016826629638671875e+01,9.412938690185546875e+01,8.463732910156250000e+01,1.369544219970703125e+02,3.013776302337646484e+00,-3.327042388916015625e+01,-1.847315216064453125e+02,3.695197296142578125e+01,2.147965049743652344e+01,3.269257736206054688e+01
1.889069974422454834e-01,2.000000000000000000e+00,-1.966626548767089844e+01,-6.138184547424316406e+00,5.016826629638671875e+01,9.412938690185546875e+01,8.463732910156250000e+01,1.369544219970703125e+02,3.013776302337646484e+00,-3.327042388916015625e+01,-1.847315216064453125e+02,3.695197296142578125e+01,2.147965049743652344e+01,3.269257736206054688e+01
1.914550065994262695e-01,2.000000000000000000e+00,-1.970633888244628906e+01,-6.109761714935302734e+00,5.013187408447265625e+01,9.413560485839843750e+01,8.463722229003906250e+01,1.369458007812500000e+02,2.970160245895385742e+00,-3.326511383056640625e+01,-1.847280426025390625e+02,3.695089721679687500e+01,2.149232864379882812e+01,3.269136810302734375e+01
1.927399933338165283e-01,2.000000000000000000e+00,-1.970633888244628906e+01,-6.109761714935302734e+00,5.013187408447265625e+01,9.413560485839843750e+01,8.463722229003906250e+01,1.369458007812500000e+02,2.970160245895385742e+00,-3.326511383056640625e+01,-1.847280426025390625e+02,3.695089721679687500e+01,2.149232864379882812e+01,3.269136810302734375e+01
1.958719938993453979e-01,2.000000000000000000e+00,-1.974871063232421875e+01,-6.079573154449462891e+00,5.009346771240234375e+01,9.414192962646484375e+01,8.463722229003906250e+01,1.369363708496093750e+02,2.923962831497192383e+00,-3.325966644287109375e+01,-1.847243347167968750e+02,3.694996643066406250e+01,2.150639152526855469e+01,3.269027328491210938e+01
1.995320022106170654e-01,2.000000000000000000e+00,-1.979326438903808594e+01,-6.047687530517578125e+00,5.005337142944335938e+01,9.414871978759765625e+01,8.463700866699218750e+01,1.369270782470703125e+02,2.875787734985351562e+00,-3.325408554077148438e+01,-1.847205810546875000e+02,3.694888687133789062e+01,2.152081680297851562e+01,3.268895339965820312e+01
2.008650004863739014e-01,2.000000000000000000e+00,-1.979326438903808594e+01,-6.047687530517578125e+00,5.005337142944335938e+01,9.414871978759765625e+01,8.463700866699218750e+01,1.369270782470703125e+02,2.875787734985351562e+00,-3.325408554077148438e+01,-1.847205810546875000e+02,3.694888687133789062e+01,2.152081680297851562e+01,3.268895339965820312e+01
2.035190016031265259e-01,2.000000000000000000e+00,-1.983936500549316406e+01,-6.014602661132812500e+00,5.001181411743164062e+01,9.415561676025390625e+01,8.463674163818359375e+01,1.369169769287109375e+02,2.826239347457885742e+00,-3.324813079833984375e+01,-1.847165679931640625e+02,3.694781112670898438e+01,2.153546142578125000e+01,3.268697738647460938e+01
2.081539928913116455e-01,2.000000000000000000e+00,-1.983936500549316406e+01,-6.014602661132812500e+00,5.001181411743164062e+01,9.415561676025390625e+01,8.463674163818359375e+01,1.369169769287109375e+02,2.775976896286010742e+00,-3.324213409423828125e+01,-1.847127075195312500e+02,3.694680404663085938e+01,2.155090904235839844e+01,3.268500137329101562e+01
2.094630002975463867e-01,2.000000000000000000e+00,-1.988713455200195312e+01,-5.980001926422119141e+00,4.996895599365234375e+01,9.416252136230468750e+01,8.463663482666015625e+01,1.369066772460937500e+02,2.775976896286010742e+00,-3.324213409423828125e+01,-1.847127075195312500e+02,3.694680404663085938e+01,2.155090904235839844e+01,3.268500137329101562e+01
2.119150012731552124e-01,2.000000000000000000e+00,-1.993625259399414062e+01,-5.944404602050781250e+00,4.992532348632812500e+01,9.416989898681640625e+01,8.463642120361328125e+01,1.368960266113281250e+02,2.724670886993408203e+00,-3.323609542846679688e+01,-1.847087860107421875e+02,3.694572830200195312e+01,2.156642913818359375e+01,3.268313217163085938e+01
2.131949961185455322e-01,2.000000000000000000e+00,-1.993625259399414062e+01,-5.944404602050781250e+00,4.992532348632812500e+01,9.416989898681640625e+01,8.463642120361328125e+01,1.368960266113281250e+02,2.724670886993408203e+00,-3.323609542846679688e+01,-1.847087860107421875e+02,3.694572830200195312e+01,2.156642913818359375e+01,3.268313217163085938e+01
2.158049941062927246e-01,2.000000000000000000e+00,-1.998663330078125000e+01,-5.907925605773925781e+00,4.988106155395507812e+01,9.417721557617187500e+01,8.463610839843750000e+01,1.368853149414062500e+02,2.671826601028442383e+00,-3.322973251342773438e+01,-1.847046051025390625e+02,3.694443511962890625e+01,2.158202171325683594e+01,3.268027496337890625e+01
2.198099941015243530e-01,2.000000000000000000e+00,-2.003836059570312500e+01,-5.870699405670166016e+00,4.983596420288085938e+01,9.418470001220703125e+01,8.463562011718750000e+01,1.368743896484375000e+02,2.618487834930419922e+00,-3.322332000732421875e+01,-1.847004547119140625e+02,3.694335556030273438e+01,2.159761428833007812e+01,3.267752838134765625e+01
2.244919985532760620e-01,2.000000000000000000e+00,-2.003836059570312500e+01,-5.870699405670166016e+00,4.983596420288085938e+01,9.418470001220703125e+01,8.463562011718750000e+01,1.368743896484375000e+02,2.618487834930419922e+00,-3.322332000732421875e+01,-1.847004547119140625e+02,3.694335556030273438e+01,2.159761428833007812e+01,3.267752838134765625e+01
2.275730073451995850e-01,2.000000000000000000e+00,-2.009106826782226562e+01,-5.833065509796142578e+00,4.979050064086914062e+01,9.419232940673828125e+01,8.463530731201171875e+01,1.368635406494140625e+02,2.564929723739624023e+00,-3.321714401245117188e+01,-1.846961212158203125e+02,3.694227981567382812e+01,2.161466407775878906e+01,3.267533111572265625e+01
2.321929931640625000e-01,2.000000000000000000e+00,-2.014440536499023438e+01,-5.794888973236083984e+00,4.974489974975585938e+01,9.419986724853515625e+01,8.463487243652343750e+01,1.368525543212890625e+02,2.511316299438476562e+00,-3.321091842651367188e+01,-1.846919250488281250e+02,3.694141769409179688e+01,2.163193130493164062e+01,3.267258071899414062e+01
2.354059964418411255e-01,2.000000000000000000e+00,-2.019865989685058594e+01,-5.756350517272949219e+00,4.969902801513671875e+01,9.420792388916015625e+01,8.463439941406250000e+01,1.368419189453125000e+02,2.458142518997192383e+00,-3.320455169677734375e+01,-1.846876831054687500e+02,3.694048309326171875e+01,2.164847183227539062e+01,3.266972732543945312e+01
2.394179999828338623e-01,2.000000000000000000e+00,-2.025349044799804688e+01,-5.717652797698974609e+00,4.965320205688476562e+01,9.421566772460937500e+01,8.463386535644531250e+01,1.368307800292968750e+02,2.404803991317749023e+00,-3.319818878173828125e+01,-1.846832275390625000e+02,3.693926620483398438e+01,2.166464614868164062e+01,3.266675949096679688e+01
2.434960007667541504e-01,2.000000000000000000e+00,-2.030832099914550781e+01,-5.678820133209228516e+00,4.960745620727539062e+01,9.422330474853515625e+01,8.463327789306640625e+01,1.368202056884765625e+02,2.351575136184692383e+00,-3.319196319580078125e+01,-1.846787109375000000e+02,3.693818664550781250e+01,2.168169593811035156e+01,3.266368484497070312e+01
2.486930042505264282e-01,2.000000000000000000e+00,-2.036349487304687500e+01,-5.640168190002441406e+00,4.956164932250976562e+01,9.423125457763671875e+01,8.463285064697265625e+01,1.368098907470703125e+02,2.298016786575317383e+00,-3.318555831909179688e+01,-1.846745758056640625e+02,3.693732452392578125e+01,2.169838333129882812e+01,3.266082763671875000e+01
2.514370083808898926e-01,2.000000000000000000e+00,-2.041855621337890625e+01,-5.601403236389160156e+00,4.951602554321289062e+01,9.423931884765625000e+01,8.463231658935546875e+01,1.367993164062500000e+02,2.244403600692749023e+00,-3.317905426025390625e+01,-1.846703796386718750e+02,3.693624877929687500e+01,2.171499443054199219e+01,3.265720367431640625e+01
2.564460039138793945e-01,2.000000000000000000e+00,-2.047347259521484375e+01,-5.562773704528808594e+00,4.947027587890625000e+01,9.424706268310546875e+01,8.463162231445312500e+01,1.367888031005859375e+02,2.190186023712158203e+00,-3.317242050170898438e+01,-1.846660308837890625e+02,3.693516921997070312e+01,2.173138809204101562e+01,3.265390396118164062e+01
2.595210075378417969e-01,2.000000000000000000e+00,-2.052835845947265625e+01,-5.524144172668457031e+00,4.942442703247070312e+01,9.425453948974609375e+01,8.463109588623046875e+01,1.367785034179687500e+02,2.136407852172851562e+00,-3.316609954833984375e+01,-1.846618957519531250e+02,3.693409347534179688e+01,2.174829292297363281e+01,3.265060806274414062e+01
2.635920047760009766e-01,2.000000000000000000e+00,-2.058307456970214844e+01,-5.485583305358886719e+00,4.937866210937500000e+01,9.426196289062500000e+01,8.463050842285156250e+01,1.367681884765625000e+02,2.083069086074829102e+00,-3.315969085693359375e+01,-1.846577148437500000e+02,3.693301391601562500e+01,2.176446723937988281e+01,3.264753723144531250e+01
2.675899863243103027e-01,2.000000000000000000e+00,-2.063753128051757812e+01,-5.446908473968505859e+00,4.933287429809570312e+01,9.426955413818359375e+01,8.463008117675781250e+01,1.367577514648437500e+02,2.030115127563476562e+00,-3.315341949462890625e+01,-1.846535186767578125e+02,3.693215560913085938e+01,2.178115272521972656e+01,3.264357757568359375e+01
2.715559899806976318e-01,2.000000000000000000e+00,-2.069198799133300781e+01,-5.408709526062011719e+00,4.928698730468750000e+01,9.427724456787109375e+01,8.462949371337890625e+01,1.367472381591796875e+02,1.977271080017089844e+00,-3.314701461791992188e+01,-1.846491241455078125e+02,3.693107986450195312e+01,2.179776573181152344e+01,3.263995361328125000e+01
2.758820056915283203e-01,2.000000000000000000e+00,-2.074624443054199219e+01,-5.370261192321777344e+00,4.924103546142578125e+01,9.428461456298828125e+01,8.462885284423828125e+01,1.367367248535156250e+02,1.923712611198425293e+00,-3.314060592651367188e+01,-1.846449890136718750e+02,3.693000030517578125e+01,2.181445121765136719e+01,3.263632965087890625e+01
2.805039882659912109e-01,2.000000000000000000e+00,-2.080047035217285156e+01,-5.331790447235107422e+00,4.919494247436523438e+01,9.429225921630859375e+01,8.462831878662109375e+01,1.367261352539062500e+02,1.869934439659118652e+00,-3.313410568237304688e+01,-1.846404724121093750e+02,3.692892456054687500e+01,2.183077239990234375e+01,3.263325119018554688e+01
2.836340069770812988e-01,2.000000000000000000e+00,-2.085464096069335938e+01,-5.293455123901367188e+00,4.914883422851562500e+01,9.429946899414062500e+01,8.462773132324218750e+01,1.367153015136718750e+02,1.816266179084777832e+00,-3.312760162353515625e+01,-1.846361236572265625e+02,3.692792129516601562e+01,2.184745788574218750e+01,3.262995529174804688e+01
2.877849936485290527e-01,2.000000000000000000e+00,-2.090883827209472656e+01,-5.255278587341308594e+00,4.910263824462890625e+01,9.430710601806640625e+01,8.462731170654296875e+01,1.367043151855468750e+02,1.763367176055908203e+00,-3.312110519409179688e+01,-1.846319427490234375e+02,3.692698287963867188e+01,2.186443519592285156e+01,3.262654876708984375e+01
2.916739881038665771e-01,2.000000000000000000e+00,-2.096283531188964844e+01,-5.217056274414062500e+00,4.905670547485351562e+01,9.431443023681640625e+01,8.462655639648437500e+01,1.366932525634765625e+02,1.710687756538391113e+00,-3.311460113525390625e+01,-1.846274261474609375e+02,3.692576599121093750e+01,2.188192176818847656e+01,3.262325668334960938e+01
2.956660091876983643e-01,2.000000000000000000e+00,-2.101694869995117188e+01,-5.178789615631103516e+00,4.901094055175781250e+01,9.432212066650390625e+01,8.462596893310546875e+01,1.366823272705078125e+02,1.658118128776550293e+00,-3.310837554931640625e+01,-1.846233520507812500e+02,3.692468643188476562e+01,2.189904403686523438e+01,3.261985015869140625e+01
2.997870147228240967e-01,2.000000000000000000e+00,-2.107106018066406250e+01,-5.140522003173828125e+00,4.896503067016601562e+01,9.432975769042968750e+01,8.462533569335937500e+01,1.366714172363281250e+02,1.604889392852783203e+00,-3.310219955444335938e+01,-1.846189422607421875e+02,3.692382431030273438e+01,2.191572952270507812e+01,3.261655426025390625e+01
3.048099875450134277e-01,2.000000000000000000e+00,-2.112574768066406250e+01,-5.102232456207275391e+00,4.891920471191406250e+01,9.433760833740234375e+01,8.462474822998046875e+01,1.366603698730468750e+02,1.551440834999084473e+00,-3.309610748291015625e+01,-1.846148529052734375e+02,3.692260742187500000e+01,2.193277931213378906e+01,3.261292648315429688e+01
3.077560067176818848e-01,2.000000000000000000e+00,-2.118003273010253906e+01,-5.063761234283447266e+00,4.887337493896484375e+01,9.434519195556640625e+01,8.462421417236328125e+01,1.366495056152343750e+02,1.498102188110351562e+00,-3.308979034423828125e+01,-1.846105651855468750e+02,3.692152786254882812e+01,2.195048522949218750e+01,3.260952377319335938e+01
3.119699954986572266e-01,2.000000000000000000e+00,-2.123474693298339844e+01,-5.025426387786865234e+00,4.882773208618164062e+01,9.435304260253906250e+01,8.462346649169921875e+01,1.366388702392578125e+02,1.445203065872192383e+00,-3.308342742919921875e+01,-1.846063690185546875e+02,3.692045211791992188e+01,2.196789932250976562e+01,3.260589599609375000e+01
3.164300024509429932e-01,2.000000000000000000e+00,-2.128934860229492188e+01,-4.987159252166748047e+00,4.878212738037109375e+01,9.436093902587890625e+01,8.462294006347656250e+01,1.366284790039062500e+02,1.392413854598999023e+00,-3.307688140869140625e+01,-1.846020202636718750e+02,3.691958999633789062e+01,2.198436546325683594e+01,3.260248947143554688e+01
3.198809921741485596e-01,2.000000000000000000e+00,-2.134403419494628906e+01,-4.948665618896484375e+00,4.873643875122070312e+01,9.436878967285156250e+01,8.462223815917968750e+01,1.366179046630859375e+02,1.340008974075317383e+00,-3.307033920288085938e+01,-1.845973358154296875e+02,3.691851043701171875e+01,2.200105094909667969e+01,3.259941482543945312e+01
3.251200020313262939e-01,2.000000000000000000e+00,-2.139886283874511719e+01,-4.910194873809814453e+00,4.869071578979492188e+01,9.437674713134765625e+01,8.462159729003906250e+01,1.366075286865234375e+02,1.287494301795959473e+00,-3.306392669677734375e+01,-1.845930023193359375e+02,3.691729354858398438e+01,2.201861000061035156e+01,3.259633636474609375e+01
3.290170133113861084e-01,2.000000000000000000e+00,-2.145366477966308594e+01,-4.871723651885986328e+00,4.864488601684570312e+01,9.438485717773437500e+01,8.462096405029296875e+01,1.365970306396484375e+02,1.234595179557800293e+00,-3.305770111083984375e+01,-1.845881652832031250e+02,3.691621398925781250e+01,2.203587913513183594e+01,3.259326171875000000e+01
3.320020139217376709e-01,2.000000000000000000e+00,-2.150835037231445312e+01,-4.833004474639892578e+00,4.859893798828125000e+01,9.439260101318359375e+01,8.462026977539062500e+01,1.365867156982421875e+02,1.181146621704101562e+00,-3.305147552490234375e+01,-1.845838012695312500e+02,3.691513824462890625e+01,2.205256462097167969e+01,3.259018707275390625e+01
3.364149928092956543e-01,2.000000000000000000e+00,-2.156315422058105469e+01,-4.794397354125976562e+00,4.855317306518554688e+01,9.440023803710937500e+01,8.461984252929687500e+01,1.365763397216796875e+02,1.128137707710266113e+00,-3.304497909545898438e+01,-1.845798339843750000e+02,3.691413497924804688e+01,2.206939506530761719e+01,3.258689117431640625e+01
3.400630056858062744e-01,2.000000000000000000e+00,-2.161786842346191406e+01,-4.755858421325683594e+00,4.850727844238281250e+01,9.440771484375000000e+01,8.461930847167968750e+01,1.365659637451171875e+02,1.074799060821533203e+00,-3.303870391845703125e+01,-1.845753173828125000e+02,3.691305541992187500e+01,2.208608055114746094e+01,3.258348464965820312e+01
3.441529870033264160e-01,2.000000000000000000e+00,-2.167229652404785156e+01,-4.717252254486083984e+00,4.846139144897460938e+01,9.441535186767578125e+01,8.461845397949218750e+01,1.365555725097656250e+02,1.021515369415283203e+00,-3.303243255615234375e+01,-1.845710754394531250e+02,3.691197967529296875e+01,2.210298347473144531e+01,3.258041000366210938e+01
3.481029868125915527e-01,2.000000000000000000e+00,-2.172669601440429688e+01,-4.678577423095703125e+00,4.841546249389648438e+01,9.442272949218750000e+01,8.461775970458984375e+01,1.365451354980468750e+02,9.685063362121582031e-01,-3.302616500854492188e+01,-1.845666656494140625e+02,3.691097259521484375e+01,2.212025260925292969e+01,3.257733154296875000e+01
3.531689941883087158e-01,2.000000000000000000e+00,-2.178129577636718750e+01,-4.639857769012451172e+00,4.836965560913085938e+01,9.442999267578125000e+01,8.461734008789062500e+01,1.365345611572265625e+02,9.155521988868713379e-01,-3.301984786987304688e+01,-1.845619812011718750e+02,3.690989685058593750e+01,2.213708305358886719e+01,3.257370376586914062e+01
3.562160134315490723e-01,2.000000000000000000e+00,-2.183595466613769531e+01,-4.601206302642822266e+00,4.832384872436523438e+01,9.443747711181640625e+01,8.461669158935546875e+01,1.365237731933593750e+02,8.624332547187805176e-01,-3.301366424560546875e+01,-1.845576477050781250e+02,3.690882110595703125e+01,2.215325927734375000e+01,3.257040786743164062e+01
3.602310121059417725e-01,2.000000000000000000e+00,-2.189061164855957031e+01,-4.562622070312500000e+00,4.827826309204101562e+01,9.444500732421875000e+01,8.461595153808593750e+01,1.365130004882812500e+02,8.091496229171752930e-01,-3.300720977783203125e+01,-1.845532226562500000e+02,3.690774154663085938e+01,2.216943550109863281e+01,3.256700515747070312e+01
3.644349873065948486e-01,2.000000000000000000e+00,-2.194527053833007812e+01,-4.524218559265136719e+00,4.823261642456054688e+01,9.445248413085937500e+01,8.461552429199218750e+01,1.365021362304687500e+02,7.557011246681213379e-01,-3.300084686279296875e+01,-1.845487213134765625e+02,3.690652084350585938e+01,2.218663024902343750e+01,3.256425857543945312e+01
3.683330118656158447e-01,2.000000000000000000e+00,-2.199978256225585938e+01,-4.485748291015625000e+00,4.818715667724609375e+01,9.445970916748046875e+01,8.461499023437500000e+01,1.364912261962890625e+02,7.024723887443542480e-01,-3.299452972412109375e+01,-1.845443725585937500e+02,3.690551376342773438e+01,2.220419120788574219e+01,3.256052398681640625e+01
3.726750016212463379e-01,2.000000000000000000e+00,-2.205424118041992188e+01,-4.447277069091796875e+00,4.814159393310546875e+01,9.446708679199218750e+01,8.461440277099609375e+01,1.364804382324218750e+02,6.499027609825134277e-01,-3.298830413818359375e+01,-1.845399627685546875e+02,3.690443801879882812e+01,2.222072982788085938e+01,3.255722808837890625e+01
3.807710111141204834e-01,2.000000000000000000e+00,-2.221761131286621094e+01,-4.332249641418457031e+00,4.800472259521484375e+01,9.449010467529296875e+01,8.461248779296875000e+01,1.364486999511718750e+02,4.904911518096923828e-01,-3.296899032592773438e+01,-1.845271759033203125e+02,3.690113449096679688e+01,2.227100563049316406e+01,3.254690170288085938e+01
3.821310102939605713e-01,2.000000000000000000e+00,-2.221761131286621094e+01,-4.332249641418457031e+00,4.800472259521484375e+01,9.449010467529296875e+01,8.461248779296875000e+01,1.364486999511718750e+02,4.904911518096923828e-01,-3.296899032592773438e+01,-1.845271759033203125e+02,3.690113449096679688e+01,2.227100563049316406e+01,3.254690170288085938e+01
3.848089873790740967e-01,2.000000000000000000e+00,-2.221761131286621094e+01,-4.332249641418457031e+00,4.800472259521484375e+01,9.449010467529296875e+01,8.461248779296875000e+01,1.364486999511718750e+02,4.372623860836029053e-01,-3.296262741088867188e+01,-1.845228881835937500e+02,3.690005493164062500e+01,2.228871154785156250e+01,3.254382324218750000e+01
3.885470032691955566e-01,2.000000000000000000e+00,-2.227215385437011719e+01,-4.294072628021240234e+00,4.795905303955078125e+01,9.449789428710937500e+01,8.461195373535156250e+01,1.364385986328125000e+02,4.372623860836029053e-01,-3.296262741088867188e+01,-1.845228881835937500e+02,3.690005493164062500e+01,2.228871154785156250e+01,3.254382324218750000e+01
3.936420083045959473e-01,2.000000000000000000e+00,-2.238075256347656250e+01,-4.217628479003906250e+00,4.786750030517578125e+01,9.451364898681640625e+01,8.461077880859375000e+01,1.364177856445312500e+02,3.312443196773529053e-01,-3.294976043701171875e+01,-1.845139160156250000e+02,3.689783477783203125e+01,2.232127952575683594e+01,3.253734207153320312e+01
3.965010046958923340e-01,2.000000000000000000e+00,-2.238075256347656250e+01,-4.217628479003906250e+00,4.786750030517578125e+01,9.451364898681640625e+01,8.461077880859375000e+01,1.364177856445312500e+02,3.312443196773529053e-01,-3.294976043701171875e+01,-1.845139160156250000e+02,3.689783477783203125e+01,2.232127952575683594e+01,3.253734207153320312e+01
4.015290141105651855e-01,2.000000000000000000e+00,-2.243500900268554688e+01,-4.179474830627441406e+00,4.782173538208007812e+01,9.452159881591796875e+01,8.461024475097656250e+01,1.364078063964843750e+02,2.784000933170318604e-01,-3.294344329833984375e+01,-1.845092773437500000e+02,3.689675521850585938e+01,2.233898353576660156e+01,3.253426361083984375e+01
4.053129851818084717e-01,2.000000000000000000e+00,-2.254308891296386719e+01,-4.103075981140136719e+00,4.773019790649414062e+01,9.453692626953125000e+01,8.460906982421875000e+01,1.363874664306640625e+02,1.734257191419601440e-01,-3.293099212646484375e+01,-1.845004730224609375e+02,3.689445495605468750e+01,2.237381362915039062e+01,3.252701568603515625e+01
4.085490107536315918e-01,2.000000000000000000e+00,-2.254308891296386719e+01,-4.103075981140136719e+00,4.773019790649414062e+01,9.453692626953125000e+01,8.460906982421875000e+01,1.363874664306640625e+02,1.734257191419601440e-01,-3.293099212646484375e+01,-1.845004730224609375e+02,3.689445495605468750e+01,2.237381362915039062e+01,3.252701568603515625e+01
4.113489985466003418e-01,2.000000000000000000e+00,-2.259702873229980469e+01,-4.064877033233642578e+00,4.768461608886718750e+01,9.454450988769531250e+01,8.460853576660156250e+01,1.363766784667968750e+02,1.211857274174690247e-01,-3.292472076416015625e+01,-1.844962463378906250e+02,3.689345169067382812e+01,2.238998794555664062e+01,3.252393722534179688e+01
4.153510034084320068e-01,2.000000000000000000e+00,-2.265119934082031250e+01,-4.026700019836425781e+00,4.763890838623046875e+01,9.455220031738281250e+01,8.460810852050781250e+01,1.363662414550781250e+02,6.806682795286178589e-02,-3.291831207275390625e+01,-1.844921569824218750e+02,3.689237594604492188e+01,2.240630912780761719e+01,3.252064132690429688e+01
4.208180010318756104e-01,2.000000000000000000e+00,-2.270513916015625000e+01,-3.988455772399902344e+00,4.759340667724609375e+01,9.455957794189453125e+01,8.460757446289062500e+01,1.363560028076171875e+02,1.472820620983839035e-02,-3.291213607788085938e+01,-1.844876403808593750e+02,3.689115142822265625e+01,2.242357826232910156e+01,3.251613616943359375e+01
4.233640134334564209e-01,2.000000000000000000e+00,-2.275953865051269531e+01,-3.950188398361206055e+00,4.754792404174804688e+01,9.456700134277343750e+01,8.460704040527343750e+01,1.363455505371093750e+02,-3.811603039503097534e-02,-3.290586471557617188e+01,-1.844832305908203125e+02,3.688993453979492188e+01,2.244055366516113281e+01,3.251306533813476562e+01
4.273509979248046875e-01,2.000000000000000000e+00,-2.281365013122558594e+01,-3.911989212036132812e+00,4.750248336791992188e+01,9.457427215576171875e+01,8.460640716552734375e+01,1.363346405029296875e+02,-9.063068032264709473e-02,-3.289968109130859375e+01,-1.844786682128906250e+02,3.688892745971679688e+01,2.245687484741210938e+01,3.251031494140625000e+01
4.313490092754364014e-01,2.000000000000000000e+00,-2.286790657043457031e+01,-3.873585939407348633e+00,4.745718765258789062e+01,9.458174896240234375e+01,8.460587310791015625e+01,1.363238525390625000e+02,-1.426509469747543335e-01,-3.289336395263671875e+01,-1.844741058349609375e+02,3.688770675659179688e+01,2.247356033325195312e+01,3.250669097900390625e+01
4.354889988899230957e-01,2.000000000000000000e+00,-2.292233467102050781e+01,-3.835160732269287109e+00,4.741166305541992188e+01,9.458901977539062500e+01,8.460544586181640625e+01,1.363129425048828125e+02,-1.953303962945938110e-01,-3.288713836669921875e+01,-1.844697570800781250e+02,3.688663101196289062e+01,2.249061203002929688e+01,3.250328445434570312e+01
4.393579959869384766e-01,2.000000000000000000e+00,-2.297664642333984375e+01,-3.797006368637084961e+00,4.736622238159179688e+01,9.459650421142578125e+01,8.460481262207031250e+01,1.363018798828125000e+02,-2.483394145965576172e-01,-3.288082504272460938e+01,-1.844654998779296875e+02,3.688526535034179688e+01,2.250787925720214844e+01,3.250031661987304688e+01
4.433830082416534424e-01,2.000000000000000000e+00,-2.303087615966796875e+01,-3.758535861968994141e+00,4.732067871093750000e+01,9.460366821289062500e+01,8.460416412353515625e+01,1.362913665771484375e+02,-3.011287450790405273e-01,-3.287450790405273438e+01,-1.844613800048828125e+02,3.688426208496093750e+01,2.252492904663085938e+01,3.249724197387695312e+01
4.474120140075683594e-01,2.000000000000000000e+00,-2.308530426025390625e+01,-3.720041990280151367e+00,4.727499008178710938e+01,9.461114501953125000e+01,8.460363769531250000e+01,1.362806549072265625e+02,-3.537532389163970947e-01,-3.286805343627929688e+01,-1.844570770263671875e+02,3.688303756713867188e+01,2.254161453247070312e+01,3.249361801147460938e+01
4.513500034809112549e-01,2.000000000000000000e+00,-2.313953018188476562e+01,-3.681571006774902344e+00,4.722942733764648438e+01,9.461878204345703125e+01,8.460310363769531250e+01,1.362702178955078125e+02,-4.063777327537536621e-01,-3.286177825927734375e+01,-1.844526214599609375e+02,3.688196182250976562e+01,2.255844497680664062e+01,3.249021148681640625e+01
4.553770124912261963e-01,2.000000000000000000e+00,-2.319401550292968750e+01,-3.643236160278320312e+00,4.718394470214843750e+01,9.462631988525390625e+01,8.460234832763671875e+01,1.362598266601562500e+02,-4.588924050331115723e-01,-3.285555267333984375e+01,-1.844481506347656250e+02,3.688081359863281250e+01,2.257527732849121094e+01,3.248724365234375000e+01
4.593850076198577881e-01,2.000000000000000000e+00,-2.324838638305664062e+01,-3.604900836944580078e+00,4.713828277587890625e+01,9.463416290283203125e+01,8.460203552246093750e+01,1.362495269775390625e+02,-5.109675526618957520e-01,-3.284946823120117188e+01,-1.844434204101562500e+02,3.687959289550781250e+01,2.259254455566406250e+01,3.248438644409179688e+01
4.634900093078613281e-01,2.000000000000000000e+00,-2.330267143249511719e+01,-3.566520690917968750e+00,4.709261322021484375e+01,9.464189910888671875e+01,8.460155487060546875e+01,1.362392120361328125e+02,-5.633174777030944824e-01,-3.284315109252929688e+01,-1.844388122558593750e+02,3.687815475463867188e+01,2.260923004150390625e+01,3.248131179809570312e+01
4.674679934978485107e-01,2.000000000000000000e+00,-2.335707092285156250e+01,-3.528140544891357422e+00,4.704705047607421875e+01,9.464954376220703125e+01,8.460091400146484375e+01,1.362290344238281250e+02,-6.162715554237365723e-01,-3.283701705932617188e+01,-1.844344024658203125e+02,3.687729644775390625e+01,2.262613487243652344e+01,3.247779464721679688e+01
4.741289913654327393e-01,2.000000000000000000e+00,-2.341112518310546875e+01,-3.489828109741210938e+00,4.700162887573242188e+01,9.465744018554687500e+01,8.460027313232421875e+01,1.362188110351562500e+02,-6.693904399871826172e-01,-3.283069610595703125e+01,-1.844299926757812500e+02,3.687614822387695312e+01,2.264223670959472656e+01,3.247439193725585938e+01
4.755569994449615479e-01,2.000000000000000000e+00,-2.346523857116699219e+01,-3.451628684997558594e+00,4.695629119873046875e+01,9.466545104980468750e+01,8.459985351562500000e+01,1.362084960937500000e+02,-7.226191759109497070e-01,-3.282433700561523438e+01,-1.844258117675781250e+02,3.687471008300781250e+01,2.265884971618652344e+01,3.247164535522460938e+01
4.796060025691986084e-01,2.000000000000000000e+00,-2.351940917968750000e+01,-3.413565158843994141e+00,4.691091156005859375e+01,9.467324829101562500e+01,8.459921264648437500e+01,1.361981201171875000e+02,-7.753536105155944824e-01,-3.281811141967773438e+01,-1.844215087890625000e+02,3.687356185913085938e+01,2.267582511901855469e+01,3.246856689453125000e+01
4.833509922027587891e-01,2.000000000000000000e+00,-2.357328987121582031e+01,-3.375433683395385742e+00,4.686571121215820312e+01,9.468077850341796875e+01,8.459899902343750000e+01,1.361880187988281250e+02,-8.275935649871826172e-01,-3.281201934814453125e+01,-1.844170532226562500e+02,3.687234115600585938e+01,2.269229316711425781e+01,3.246549224853515625e+01
4.873470067977905273e-01,2.000000000000000000e+00,-2.362725830078125000e+01,-3.337256908416748047e+00,4.682045364379882812e+01,9.468825531005859375e+01,8.459835815429687500e+01,1.361776428222656250e+02,-8.798335790634155273e-01,-3.280593109130859375e+01,-1.844127960205078125e+02,3.687112045288085938e+01,2.270854187011718750e+01,3.246274566650390625e+01
4.914110004901885986e-01,2.000000000000000000e+00,-2.368134307861328125e+01,-3.299035072326660156e+00,4.677490997314453125e+01,9.469573974609375000e+01,8.459777069091796875e+01,1.361672668457031250e+02,-9.328975677490234375e-01,-3.279979705810546875e+01,-1.844084625244140625e+02,3.687011718750000000e+01,2.272508049011230469e+01,3.245999908447265625e+01
4.953599870204925537e-01,2.000000000000000000e+00,-2.373522567749023438e+01,-3.261130094528198242e+00,4.672965240478515625e+01,9.470321655273437500e+01,8.459712219238281250e+01,1.361568145751953125e+02,-9.856319427490234375e-01,-3.279347991943359375e+01,-1.844039306640625000e+02,3.686875152587890625e+01,2.274198341369628906e+01,3.245669937133789062e+01
4.993659853935241699e-01,2.000000000000000000e+00,-2.378931045532226562e+01,-3.223021268844604492e+00,4.668429183959960938e+01,9.471032714843750000e+01,8.459670257568359375e+01,1.361459655761718750e+02,-1.038586020469665527e+00,-3.278711700439453125e+01,-1.843997039794921875e+02,3.686767578125000000e+01,2.275859642028808594e+01,3.245362854003906250e+01
5.057920217514038086e-01,2.000000000000000000e+00,-2.384339332580566406e+01,-3.184934854507446289e+00,4.663883209228515625e+01,9.471791839599609375e+01,8.459616851806640625e+01,1.361350555419921875e+02,-1.091320395469665527e+00,-3.278057098388671875e+01,-1.843954467773437500e+02,3.686631011962890625e+01,2.277491760253906250e+01,3.245033264160156250e+01
5.073459744453430176e-01,2.000000000000000000e+00,-2.389730453491210938e+01,-3.146713018417358398e+00,4.659338760375976562e+01,9.472508239746093750e+01,8.459568786621093750e+01,1.361241302490234375e+02,-1.143615245819091797e+00,-3.277411651611328125e+01,-1.843911590576171875e+02,3.686516189575195312e+01,2.279124069213867188e+01,3.244758224487304688e+01
5.114390254020690918e-01,2.000000000000000000e+00,-2.395121574401855469e+01,-3.108898639678955078e+00,4.654784393310546875e+01,9.473239898681640625e+01,8.459516143798828125e+01,1.361135559082031250e+02,-1.195910215377807617e+00,-3.276784515380859375e+01,-1.843865814208984375e+02,3.686408233642578125e+01,2.280785369873046875e+01,3.244450759887695312e+01
5.154129862785339355e-01,2.000000000000000000e+00,-2.400518417358398438e+01,-3.070857524871826172e+00,4.650232315063476562e+01,9.473983001708984375e+01,8.459462738037109375e+01,1.361029205322265625e+02,-1.248534798622131348e+00,-3.276157760620117188e+01,-1.843822937011718750e+02,3.686293411254882812e+01,2.282431793212890625e+01,3.244121170043945312e+01
5.225070118904113770e-01,2.000000000000000000e+00,-2.405915451049804688e+01,-3.032884597778320312e+00,4.645682144165039062e+01,9.474699401855468750e+01,8.459398651123046875e+01,1.360926055908203125e+02,-1.300939559936523438e+00,-3.275525665283203125e+01,-1.843779449462890625e+02,3.686156845092773438e+01,2.284078598022460938e+01,3.243846511840820312e+01
5.239009857177734375e-01,2.000000000000000000e+00,-2.411306381225585938e+01,-2.994866371154785156e+00,4.641141891479492188e+01,9.475436401367187500e+01,8.459360504150390625e+01,1.360820770263671875e+02,-1.353509187698364258e+00,-3.274916839599609375e+01,-1.843737640380859375e+02,3.686034774780273438e+01,2.285710716247558594e+01,3.243571853637695312e+01
5.273770093917846680e-01,2.000000000000000000e+00,-2.416706275939941406e+01,-2.956734895706176758e+00,4.636619949340820312e+01,9.476194763183593750e+01,8.459307861328125000e+01,1.360719146728515625e+02,-1.406188607215881348e+00,-3.274290084838867188e+01,-1.843692932128906250e+02,3.685920333862304688e+01,2.287320899963378906e+01,3.243297195434570312e+01
5.315920114517211914e-01,2.000000000000000000e+00,-2.422103118896484375e+01,-2.918626070022583008e+00,4.632088088989257812e+01,9.476937103271484375e+01,8.459254455566406250e+01,1.360617370605468750e+02,-1.458758115768432617e+00,-3.273639678955078125e+01,-1.843648376464843750e+02,3.685797882080078125e+01,2.288938522338867188e+01,3.242934417724609375e+01
5.354189872741699219e-01,2.000000000000000000e+00,-2.427514266967773438e+01,-2.880585193634033203e+00,4.627570343017578125e+01,9.477685546875000000e+01,8.459195709228515625e+01,1.360518341064453125e+02,-1.510943174362182617e+00,-3.273008346557617188e+01,-1.843603210449218750e+02,3.685661697387695312e+01,2.290629005432128906e+01,3.242660140991210938e+01
5.394690036773681641e-01,2.000000000000000000e+00,-2.432925605773925781e+01,-2.842453718185424805e+00,4.623058700561523438e+01,9.478443908691406250e+01,8.459132385253906250e+01,1.360418701171875000e+02,-1.562798619270324707e+00,-3.272394943237304688e+01,-1.843562469482421875e+02,3.685525131225585938e+01,2.292297363281250000e+01,3.242385482788085938e+01
5.434229969978332520e-01,2.000000000000000000e+00,-2.438325309753417969e+01,-2.804435491561889648e+00,4.618547058105468750e+01,9.479228973388671875e+01,8.459099578857421875e+01,1.360312957763671875e+02,-1.614654183387756348e+00,-3.271781158447265625e+01,-1.843518829345703125e+02,3.685424804687500000e+01,2.293936729431152344e+01,3.242033767700195312e+01
5.497390031814575195e-01,2.000000000000000000e+00,-2.443719291687011719e+01,-2.766213655471801758e+00,4.614035797119140625e+01,9.480014038085937500e+01,8.459030151367187500e+01,1.360213165283203125e+02,-1.666839122772216797e+00,-3.271154022216796875e+01,-1.843474884033203125e+02,3.685323715209960938e+01,2.295554351806640625e+01,3.241725921630859375e+01
5.513389706611633301e-01,2.000000000000000000e+00,-2.449116134643554688e+01,-2.728172779083251953e+00,4.609515762329101562e+01,9.480788421630859375e+01,8.458988189697265625e+01,1.360108184814453125e+02,-1.719518661499023438e+00,-3.270531463623046875e+01,-1.843432464599609375e+02,3.685187530517578125e+01,2.297171974182128906e+01,3.241396331787109375e+01
5.563639998435974121e-01,2.000000000000000000e+00,-2.449116134643554688e+01,-2.728172779083251953e+00,4.609515762329101562e+01,9.480788421630859375e+01,8.458988189697265625e+01,1.360108184814453125e+02,-1.772307991981506348e+00,-3.269931793212890625e+01,-1.843387298583984375e+02,3.685087203979492188e+01,2.298855018615722656e+01,3.241099929809570312e+01
5.593450069427490234e-01,2.000000000000000000e+00,-2.459907150268554688e+01,-2.652091026306152344e+00,4.600496673583984375e+01,9.482321166992187500e+01,8.458876037597656250e+01,1.359908752441406250e+02,-1.824712753295898438e+00,-3.269318389892578125e+01,-1.843344268798828125e+02,3.684936141967773438e+01,2.300538253784179688e+01,3.240825271606445312e+01
5.644440054893493652e-01,2.000000000000000000e+00,-2.459907150268554688e+01,-2.652091026306152344e+00,4.600496673583984375e+01,9.482321166992187500e+01,8.458876037597656250e+01,1.359908752441406250e+02,-1.824712753295898438e+00,-3.269318389892578125e+01,-1.843344268798828125e+02,3.684936141967773438e+01,2.300538253784179688e+01,3.240825271606445312e+01
5.683649778366088867e-01,2.000000000000000000e+00,-2.470718193054199219e+01,-2.575828075408935547e+00,4.591412353515625000e+01,9.483816528320312500e+01,8.458769226074218750e+01,1.359698486328125000e+02,-1.928753256797790527e+00,-3.268059921264648438e+01,-1.843253479003906250e+02,3.684713745117187500e+01,2.303773117065429688e+01,3.240166091918945312e+01
5.719760060310363770e-01,2.000000000000000000e+00,-2.476115036010742188e+01,-2.537877559661865234e+00,4.586896514892578125e+01,9.484554290771484375e+01,8.458731842041015625e+01,1.359593505859375000e+02,-1.980663776397705078e+00,-3.267423629760742188e+01,-1.843209533691406250e+02,3.684598922729492188e+01,2.305441665649414062e+01,3.239814376831054688e+01
5.753399729728698730e-01,2.000000000000000000e+00,-2.481500244140625000e+01,-2.499746084213256836e+00,4.582373046875000000e+01,9.485281372070312500e+01,8.458668518066406250e+01,1.359486236572265625e+02,-2.033013582229614258e+00,-3.266796112060546875e+01,-1.843168029785156250e+02,3.684476470947265625e+01,2.307110214233398438e+01,3.239485168457031250e+01
5.796040296554565430e-01,2.000000000000000000e+00,-2.481500244140625000e+01,-2.499746084213256836e+00,4.582373046875000000e+01,9.485281372070312500e+01,8.458668518066406250e+01,1.359486236572265625e+02,-2.033013582229614258e+00,-3.266796112060546875e+01,-1.843168029785156250e+02,3.684476470947265625e+01,2.307110214233398438e+01,3.239485168457031250e+01
5.843759775161743164e-01,2.000000000000000000e+00,-2.486894416809082031e+01,-2.461773395538330078e+00,4.577834701538085938e+01,9.486013031005859375e+01,8.458609771728515625e+01,1.359376983642578125e+02,-2.138427257537841797e+00,-3.265550994873046875e+01,-1.843077850341796875e+02,3.684261322021484375e+01,2.310396385192871094e+01,3.238858795166015625e+01
5.881689786911010742e-01,2.000000000000000000e+00,-2.497653770446777344e+01,-2.385782003402709961e+00,4.568795394897460938e+01,9.487472534179687500e+01,8.458512878417968750e+01,1.359166107177734375e+02,-2.190777301788330078e+00,-3.264923858642578125e+01,-1.843033752441406250e+02,3.684124755859375000e+01,2.312072181701660156e+01,3.238562393188476562e+01
5.913900136947631836e-01,2.000000000000000000e+00,-2.503039169311523438e+01,-2.347718477249145508e+00,4.564281463623046875e+01,9.488210296630859375e+01,8.458454132080078125e+01,1.359062957763671875e+02,-2.242797374725341797e+00,-3.264310836791992188e+01,-1.842989654541015625e+02,3.683988571166992188e+01,2.313747978210449219e+01,3.238287353515625000e+01
5.954700112342834473e-01,2.000000000000000000e+00,-2.503039169311523438e+01,-2.347718477249145508e+00,4.564281463623046875e+01,9.488210296630859375e+01,8.458454132080078125e+01,1.359062957763671875e+02,-2.242797374725341797e+00,-3.264310836791992188e+01,-1.842989654541015625e+02,3.683988571166992188e+01,2.313747978210449219e+01,3.238287353515625000e+01
5.993980169296264648e-01,2.000000000000000000e+00,-2.508436012268066406e+01,-2.310039520263671875e+00,4.559774017333984375e+01,9.488936614990234375e+01,8.458401489257812500e+01,1.358960723876953125e+02,-2.294323205947875977e+00,-3.263688278198242188e+01,-1.842944030761718750e+02,3.683909225463867188e+01,2.315416526794433594e+01,3.237936019897460938e+01
6.046959757804870605e-01,2.000000000000000000e+00,-2.513821411132812500e+01,-2.272089242935180664e+00,4.555282592773437500e+01,9.489658355712890625e+01,8.458342742919921875e+01,1.358857574462890625e+02,-2.346343517303466797e+00,-3.263056182861328125e+01,-1.842899322509765625e+02,3.683773040771484375e+01,2.317128753662109375e+01,3.237562179565429688e+01
6.083520054817199707e-01,2.000000000000000000e+00,-2.524577713012695312e+01,-2.196211099624633789e+00,4.546269607543945312e+01,9.491159820556640625e+01,8.458241271972656250e+01,1.358658294677734375e+02,-2.451702356338500977e+00,-3.261797332763671875e+01,-1.842816162109375000e+02,3.683557510375976562e+01,2.320392990112304688e+01,3.236958312988281250e+01
6.118999719619750977e-01,2.000000000000000000e+00,-2.529954719543457031e+01,-2.158396482467651367e+00,4.541768264770507812e+01,9.491907501220703125e+01,8.458182525634765625e+01,1.358557128906250000e+02,-2.504107236862182617e+00,-3.261161422729492188e+01,-1.842773284912109375e+02,3.683435821533203125e+01,2.322047042846679688e+01,3.236606597900390625e+01
6.183440089225769043e-01,2.000000000000000000e+00,-2.529954719543457031e+01,-2.158396482467651367e+00,4.541768264770507812e+01,9.491907501220703125e+01,8.458182525634765625e+01,1.358557128906250000e+02,-2.556457042694091797e+00,-3.260525131225585938e+01,-1.842729187011718750e+02,3.683320617675781250e+01,2.323744583129882812e+01,3.236254882812500000e+01
6.197339892387390137e-01,2.000000000000000000e+00,-2.540702438354492188e+01,-2.082654237747192383e+00,4.532761001586914062e+01,9.493446350097656250e+01,8.458081817626953125e+01,1.358357696533203125e+02,-2.608422279357910156e+00,-3.259902572631835938e+01,-1.842686309814453125e+02,3.683191680908203125e+01,2.325383949279785156e+01,3.235936355590820312e+01
6.234419941902160645e-01,2.000000000000000000e+00,-2.540702438354492188e+01,-2.082654237747192383e+00,4.532761001586914062e+01,9.493446350097656250e+01,8.458081817626953125e+01,1.358357696533203125e+02,-2.608422279357910156e+00,-3.259902572631835938e+01,-1.842686309814453125e+02,3.683191680908203125e+01,2.325383949279785156e+01,3.235936355590820312e+01
6.274049878120422363e-01,2.000000000000000000e+00,-2.546044731140136719e+01,-2.044884920120239258e+00,4.528259658813476562e+01,9.494219970703125000e+01,8.458028411865234375e+01,1.358257446289062500e+02,-2.660387754440307617e+00,-3.259284210205078125e+01,-1.842644958496093750e+02,3.683069229125976562e+01,2.326972389221191406e+01,3.235661697387695312e+01
6.313449740409851074e-01,2.000000000000000000e+00,-2.556758308410644531e+01,-1.969187736511230469e+00,4.519236373901367188e+01,9.495794677734375000e+01,8.457937622070312500e+01,1.358053894042968750e+02,-2.764647960662841797e+00,-3.258016204833984375e+01,-1.842559051513671875e+02,3.682853698730468750e+01,2.330316734313964844e+01,3.235024642944335938e+01
6.354039907455444336e-01,2.000000000000000000e+00,-2.556758308410644531e+01,-1.969187736511230469e+00,4.519236373901367188e+01,9.495794677734375000e+01,8.457937622070312500e+01,1.358053894042968750e+02,-2.764647960662841797e+00,-3.258016204833984375e+01,-1.842559051513671875e+02,3.682853698730468750e+01,2.330316734313964844e+01,3.235024642944335938e+01
6.393979787826538086e-01,2.000000000000000000e+00,-2.562114715576171875e+01,-1.931395888328552246e+00,4.514719009399414062e+01,9.496553802490234375e+01,8.457878875732421875e+01,1.357955474853515625e+02,-2.817052841186523438e+00,-3.257357025146484375e+01,-1.842517547607421875e+02,3.682738876342773438e+01,2.331999969482421875e+01,3.234695053100585938e+01
6.434680223464965820e-01,2.000000000000000000e+00,-2.567474365234375000e+01,-1.893603801727294922e+00,4.510190963745117188e+01,9.497306060791015625e+01,8.457825469970703125e+01,1.357847747802734375e+02,-2.869622468948364258e+00,-3.256725311279296875e+01,-1.842473602294921875e+02,3.682624435424804688e+01,2.333617401123046875e+01,3.234398269653320312e+01
6.474000215530395508e-01,2.000000000000000000e+00,-2.572834014892578125e+01,-1.855721473693847656e+00,4.505687332153320312e+01,9.498049926757812500e+01,8.457777404785156250e+01,1.357742004394531250e+02,-2.921807527542114258e+00,-3.256093597412109375e+01,-1.842429504394531250e+02,3.682509231567382812e+01,2.335191345214843750e+01,3.234112548828125000e+01
6.513890027999877930e-01,2.000000000000000000e+00,-2.578179168701171875e+01,-1.817884087562561035e+00,4.501202392578125000e+01,9.498770904541015625e+01,8.457718658447265625e+01,1.357638244628906250e+02,-2.973333358764648438e+00,-3.255457305908203125e+01,-1.842385559082031250e+02,3.682394409179687500e+01,2.336881637573242188e+01,3.233815765380859375e+01
6.557819843292236328e-01,2.000000000000000000e+00,-2.583541679382324219e+01,-1.780092120170593262e+00,4.496702957153320312e+01,9.499503326416015625e+01,8.457654571533203125e+01,1.357531127929687500e+02,-3.024804353713989258e+00,-3.254853439331054688e+01,-1.842341308593750000e+02,3.682293701171875000e+01,2.338608551025390625e+01,3.233497238159179688e+01
6.595979928970336914e-01,2.000000000000000000e+00,-2.588909721374511719e+01,-1.742277503013610840e+00,4.492219543457031250e+01,9.500240325927734375e+01,8.457617950439453125e+01,1.357427368164062500e+02,-3.076824665069580078e+00,-3.254226303100585938e+01,-1.842299041748046875e+02,3.682178878784179688e+01,2.340299034118652344e+01,3.233222579956054688e+01
6.635079979896545410e-01,2.000000000000000000e+00,-2.594257926940917969e+01,-1.704485535621643066e+00,4.487732315063476562e+01,9.500957489013671875e+01,8.457569122314453125e+01,1.357321624755859375e+02,-3.129009485244750977e+00,-3.253621673583984375e+01,-1.842256469726562500e+02,3.682064056396484375e+01,2.341938400268554688e+01,3.232958984375000000e+01
6.674190163612365723e-01,2.000000000000000000e+00,-2.599611663818359375e+01,-1.666467308998107910e+00,4.483249282836914062e+01,9.501668548583984375e+01,8.457505798339843750e+01,1.357220458984375000e+02,-3.181359529495239258e+00,-3.252999114990234375e+01,-1.842214202880859375e+02,3.681977844238281250e+01,2.343504905700683594e+01,3.232640457153320312e+01
6.714619994163513184e-01,2.000000000000000000e+00,-2.604977035522460938e+01,-1.628743290901184082e+00,4.478772354125976562e+01,9.502373504638671875e+01,8.457457733154296875e+01,1.357120819091796875e+02,-3.233599424362182617e+00,-3.252385711669921875e+01,-1.842171783447265625e+02,3.681848526000976562e+01,2.345180702209472656e+01,3.232343673706054688e+01
6.754149794578552246e-01,2.000000000000000000e+00,-2.610342216491699219e+01,-1.590996503829956055e+00,4.474282836914062500e+01,9.503101348876953125e+01,8.457409667968750000e+01,1.357019653320312500e+02,-3.285399913787841797e+00,-3.251768112182617188e+01,-1.842127227783203125e+02,3.681733703613281250e+01,2.346936607360839844e+01,3.232058334350585938e+01
6.805769801139831543e-01,2.000000000000000000e+00,-2.615699005126953125e+01,-1.553159356117248535e+00,4.469801712036132812e+01,9.503827667236328125e+01,8.457345581054687500e+01,1.356918792724609375e+02,-3.336980819702148438e+00,-3.251168441772460938e+01,-1.842083587646484375e+02,3.681618881225585938e+01,2.348605155944824219e+01,3.231783676147460938e+01
6.841329932212829590e-01,2.000000000000000000e+00,-2.626383590698242188e+01,-1.477416992187500000e+00,4.460806655883789062e+01,9.505297088623046875e+01,8.457249450683593750e+01,1.356717987060546875e+02,-3.440197229385375977e+00,-3.249959945678710938e+01,-1.841993865966796875e+02,3.681388854980468750e+01,2.351782035827636719e+01,3.231201171875000000e+01
6.875650286674499512e-01,2.000000000000000000e+00,-2.626383590698242188e+01,-1.477416992187500000e+00,4.460806655883789062e+01,9.505297088623046875e+01,8.457249450683593750e+01,1.356717987060546875e+02,-3.440197229385375977e+00,-3.249959945678710938e+01,-1.841993865966796875e+02,3.681388854980468750e+01,2.351782035827636719e+01,3.231201171875000000e+01
6.913920044898986816e-01,2.000000000000000000e+00,-2.631714630126953125e+01,-1.439647674560546875e+00,4.456317520141601562e+01,9.506045532226562500e+01,8.457202148437500000e+01,1.356620941162109375e+02,-3.492053031921386719e+00,-3.249337387084960938e+01,-1.841950988769531250e+02,3.681274414062500000e+01,2.353472328186035156e+01,3.230915451049804688e+01
6.954579949378967285e-01,2.000000000000000000e+00,-2.637071228027343750e+01,-1.401900887489318848e+00,4.451824569702148438e+01,9.506809234619140625e+01,8.457137298583984375e+01,1.356522521972656250e+02,-3.544732332229614258e+00,-3.248714447021484375e+01,-1.841906280517578125e+02,3.681159210205078125e+01,2.355148315429687500e+01,3.230619049072265625e+01
6.993939876556396484e-01,2.000000000000000000e+00,-2.642382049560546875e+01,-1.364176869392395020e+00,4.447320938110351562e+01,9.507572937011718750e+01,8.457078552246093750e+01,1.356420288085937500e+02,-3.597246885299682617e+00,-3.248087692260742188e+01,-1.841863403320312500e+02,3.681044387817382812e+01,2.356824111938476562e+01,3.230300521850585938e+01
7.034069895744323730e-01,2.000000000000000000e+00,-2.647710037231445312e+01,-1.326588630676269531e+00,4.442821502685546875e+01,9.508341979980468750e+01,8.457041931152343750e+01,1.356319885253906250e+02,-3.649322271347045898e+00,-3.247460174560546875e+01,-1.841822052001953125e+02,3.680929183959960938e+01,2.358427047729492188e+01,3.229937744140625000e+01
7.093539834022521973e-01,2.000000000000000000e+00,-2.653058052062988281e+01,-1.288751363754272461e+00,4.438323974609375000e+01,9.509111022949218750e+01,8.456993103027343750e+01,1.356219482421875000e+02,-3.752209186553955078e+00,-3.246206283569335938e+01,-1.841731109619140625e+02,3.680685424804687500e+01,2.361756896972656250e+01,3.229355621337890625e+01
7.123839855194091797e-01,2.000000000000000000e+00,-2.663762855529785156e+01,-1.213506937026977539e+00,4.429359817504882812e+01,9.510622406005859375e+01,8.456892395019531250e+01,1.356016082763671875e+02,-3.804009437561035156e+00,-3.245597457885742188e+01,-1.841690521240234375e+02,3.680570602416992188e+01,2.363410758972167969e+01,3.229047775268554688e+01
7.153940200805664062e-01,2.000000000000000000e+00,-2.663762855529785156e+01,-1.213506937026977539e+00,4.429359817504882812e+01,9.510622406005859375e+01,8.456892395019531250e+01,1.356016082763671875e+02,-3.804009437561035156e+00,-3.245597457885742188e+01,-1.841690521240234375e+02,3.680570602416992188e+01,2.363410758972167969e+01,3.229047775268554688e+01
7.193940281867980957e-01,2.000000000000000000e+00,-2.669082260131835938e+01,-1.176031708717346191e+00,4.424878692626953125e+01,9.511370849609375000e+01,8.456844329833984375e+01,1.355908966064453125e+02,-3.856194734573364258e+00,-3.244969940185546875e+01,-1.841642456054687500e+02,3.680455780029296875e+01,2.364991950988769531e+01,3.228696441650390625e+01
7.234749794006347656e-01,2.000000000000000000e+00,-2.674424552917480469e+01,-1.138330221176147461e+00,4.420415878295898438e+01,9.512107849121093750e+01,8.456774902343750000e+01,1.355807189941406250e+02,-3.908269643783569336e+00,-3.244347381591796875e+01,-1.841601867675781250e+02,3.680326080322265625e+01,2.366609382629394531e+01,3.228410720825195312e+01
7.274429798126220703e-01,2.000000000000000000e+00,-2.679755401611328125e+01,-1.100741982460021973e+00,4.415959167480468750e+01,9.512840270996093750e+01,8.456738281250000000e+01,1.355700073242187500e+02,-3.960345268249511719e+00,-3.243729782104492188e+01,-1.841558227539062500e+02,3.680211639404296875e+01,2.368292427062988281e+01,3.228103256225585938e+01
7.357100248336791992e-01,2.000000000000000000e+00,-2.685083389282226562e+01,-1.063176274299621582e+00,4.411467742919921875e+01,9.513556671142578125e+01,8.456684875488281250e+01,1.355594177246093750e+02,-4.012200355529785156e+00,-3.243111419677734375e+01,-1.841513671875000000e+02,3.680096435546875000e+01,2.369982910156250000e+01,3.227762222290039062e+01
7.370219826698303223e-01,2.000000000000000000e+00,-2.695773696899414062e+01,-9.879770278930664062e-01,4.402525711059570312e+01,9.515000152587890625e+01,8.456567382812500000e+01,1.355386047363281250e+02,-4.115142345428466797e+00,-3.241866302490234375e+01,-1.841428375244140625e+02,3.679874038696289062e+01,2.373188781738281250e+01,3.227114105224609375e+01
7.396399974822998047e-01,2.000000000000000000e+00,-2.701116180419921875e+01,-9.505019187927246094e-01,4.398048782348632812e+01,9.515716552734375000e+01,8.456540679931640625e+01,1.355283508300781250e+02,-4.166667938232421875e+00,-3.241262054443359375e+01,-1.841384124755859375e+02,3.679758834838867188e+01,2.374872016906738281e+01,3.226795959472656250e+01
7.434089779853820801e-01,2.000000000000000000e+00,-2.701116180419921875e+01,-9.505019187927246094e-01,4.398048782348632812e+01,9.515716552734375000e+01,8.456540679931640625e+01,1.355283508300781250e+02,-4.166667938232421875e+00,-3.241262054443359375e+01,-1.841384124755859375e+02,3.679758834838867188e+01,2.374872016906738281e+01,3.226795959472656250e+01
7.475270032882690430e-01,2.000000000000000000e+00,-2.706455612182617188e+01,-9.129136204719543457e-01,4.393567657470703125e+01,9.516437530517578125e+01,8.456471252441406250e+01,1.355184631347656250e+02,-4.218853473663330078e+00,-3.240644454956054688e+01,-1.841341857910156250e+02,3.679644393920898438e+01,2.376518630981445312e+01,3.226488113403320312e+01
7.514610290527343750e-01,2.000000000000000000e+00,-2.711795234680175781e+01,-8.752347826957702637e-01,4.389088439941406250e+01,9.517164611816406250e+01,8.456413269042968750e+01,1.355084991455078125e+02,-4.271093368530273438e+00,-3.240026473999023438e+01,-1.841297760009765625e+02,3.679529190063476562e+01,2.378129005432128906e+01,3.226180648803710938e+01
7.563689947128295898e-01,2.000000000000000000e+00,-2.717125892639160156e+01,-8.377823233604431152e-01,4.384601211547851562e+01,9.517871093750000000e+01,8.456364440917968750e+01,1.354983825683593750e+02,-4.323607921600341797e+00,-3.239399337768554688e+01,-1.841254272460937500e+02,3.679385757446289062e+01,2.379746437072753906e+01,3.225839996337890625e+01
7.609509825706481934e-01,2.000000000000000000e+00,-2.722453880310058594e+01,-8.001487851142883301e-01,4.380108261108398438e+01,9.518592071533203125e+01,8.456316375732421875e+01,1.354884185791015625e+02,-4.375518321990966797e+00,-3.238780975341796875e+01,-1.841210174560546875e+02,3.679277801513671875e+01,2.381414985656738281e+01,3.225554275512695312e+01
7.653579711914062500e-01,2.000000000000000000e+00,-2.727779006958007812e+01,-7.624472975730895996e-01,4.375624847412109375e+01,9.519345092773437500e+01,8.456269073486328125e+01,1.354784393310546875e+02,-4.426549911499023438e+00,-3.238154220581054688e+01,-1.841167297363281250e+02,3.679162979125976562e+01,2.383039855957031250e+01,3.225246810913085938e+01
7.679290175437927246e-01,2.000000000000000000e+00,-2.738417625427246094e+01,-6.870217919349670410e-01,4.366688919067382812e+01,9.520846557617187500e+01,8.456172180175781250e+01,1.354585876464843750e+02,-4.529546737670898438e+00,-3.236890411376953125e+01,-1.841082763671875000e+02,3.678940582275390625e+01,2.386296653747558594e+01,3.224598693847656250e+01
7.717090249061584473e-01,2.000000000000000000e+00,-2.738417625427246094e+01,-6.870217919349670410e-01,4.366688919067382812e+01,9.520846557617187500e+01,8.456172180175781250e+01,1.354585876464843750e+02,-4.529546737670898438e+00,-3.236890411376953125e+01,-1.841082763671875000e+02,3.678940582275390625e+01,2.386296653747558594e+01,3.224598693847656250e+01
7.755640149116516113e-01,2.000000000000000000e+00,-2.743765830993652344e+01,-6.494787335395812988e-01,4.362236404418945312e+01,9.521594238281250000e+01,8.456113433837890625e+01,1.354484100341796875e+02,-4.581511974334716797e+00,-3.236277008056640625e+01,-1.841037750244140625e+02,3.678811264038085938e+01,2.387965393066406250e+01,3.224345779418945312e+01
7.805100083351135254e-01,2.000000000000000000e+00,-2.749079513549804688e+01,-6.118904352188110352e-01,4.357775497436523438e+01,9.522357940673828125e+01,8.456066131591796875e+01,1.354381713867187500e+02,-4.633532524108886719e+00,-3.235654449462890625e+01,-1.840994110107421875e+02,3.678681945800781250e+01,2.389633750915527344e+01,3.224016189575195312e+01
7.836070060729980469e-01,2.000000000000000000e+00,-2.754424667358398438e+01,-5.743700265884399414e-01,4.353320693969726562e+01,9.523126983642578125e+01,8.455996704101562500e+01,1.354280700683593750e+02,-4.685333251953125000e+00,-3.235045623779296875e+01,-1.840948486328125000e+02,3.678588485717773438e+01,2.391214942932128906e+01,3.223708724975585938e+01
7.885569930076599121e-01,2.000000000000000000e+00,-2.759738349914550781e+01,-5.367364883422851562e-01,4.348866271972656250e+01,9.523896026611328125e+01,8.455959320068359375e+01,1.354176788330078125e+02,-4.736803531646728516e+00,-3.234437179565429688e+01,-1.840904541015625000e+02,3.678445053100585938e+01,2.392912483215332031e+01,3.223422622680664062e+01
7.916100025177001953e-01,2.000000000000000000e+00,-2.765052032470703125e+01,-4.991028904914855957e-01,4.344421768188476562e+01,9.524655151367187500e+01,8.455911254882812500e+01,1.354075164794921875e+02,-4.787945270538330078e+00,-3.233823394775390625e+01,-1.840859375000000000e+02,3.678330230712890625e+01,2.394632148742675781e+01,3.223148345947265625e+01
7.957140207290649414e-01,2.000000000000000000e+00,-2.770374298095703125e+01,-4.616051614284515381e-01,4.339958953857421875e+01,9.525413513183593750e+01,8.455852508544921875e+01,1.353970642089843750e+02,-4.839525699615478516e+00,-3.233209991455078125e+01,-1.840814819335937500e+02,3.678200912475585938e+01,2.396286201477050781e+01,3.222884750366210938e+01
7.998039722442626953e-01,2.000000000000000000e+00,-2.775690650939941406e+01,-4.240621328353881836e-01,4.335516357421875000e+01,9.526151275634765625e+01,8.455805206298828125e+01,1.353863525390625000e+02,-4.891216754913330078e+00,-3.232606124877929688e+01,-1.840775146484375000e+02,3.678092956542968750e+01,2.397874450683593750e+01,3.222587966918945312e+01
8.056870102882385254e-01,2.000000000000000000e+00,-2.786312103271484375e+01,-3.491570651531219482e-01,4.326556015014648438e+01,9.527584075927734375e+01,8.455698394775390625e+01,1.353654785156250000e+02,-4.995147705078125000e+00,-3.231370162963867188e+01,-1.840685272216796875e+02,3.677841949462890625e+01,2.401109695434570312e+01,3.221950912475585938e+01
8.086439967155456543e-01,2.000000000000000000e+00,-2.791637420654296875e+01,-3.116593062877655029e-01,4.322105407714843750e+01,9.528295135498046875e+01,8.455639648437500000e+01,1.353553619384765625e+02,-5.047167301177978516e+00,-3.230756759643554688e+01,-1.840641326904296875e+02,3.677727127075195312e+01,2.402778053283691406e+01,3.221697998046875000e+01
8.124089837074279785e-01,2.000000000000000000e+00,-2.796953773498535156e+01,-2.742746472358703613e-01,4.317640686035156250e+01,9.529000854492187500e+01,8.455602264404296875e+01,1.353453216552734375e+02,-5.098473548889160156e+00,-3.230147933959960938e+01,-1.840595550537109375e+02,3.677604675292968750e+01,2.404359245300292969e+01,3.221390533447265625e+01
8.157100081443786621e-01,2.000000000000000000e+00,-2.796953773498535156e+01,-2.742746472358703613e-01,4.317640686035156250e+01,9.529000854492187500e+01,8.455602264404296875e+01,1.353453216552734375e+02,-5.098473548889160156e+00,-3.230147933959960938e+01,-1.840595550537109375e+02,3.677604675292968750e+01,2.404359245300292969e+01,3.221390533447265625e+01
8.199080228805541992e-01,2.000000000000000000e+00,-2.802261734008789062e+01,-2.366863638162612915e-01,4.313163375854492188e+01,9.529701232910156250e+01,8.455543518066406250e+01,1.353350219726562500e+02,-5.149450302124023438e+00,-3.229552459716796875e+01,-1.840550994873046875e+02,3.677489852905273438e+01,2.405947685241699219e+01,3.221115875244140625e+01
8.244000077247619629e-01,2.000000000000000000e+00,-2.807569694519042969e+01,-1.992338448762893677e-01,4.308696365356445312e+01,9.530422973632812500e+01,8.455480194091796875e+01,1.353249206542968750e+02,-5.200316905975341797e+00,-3.228925704956054688e+01,-1.840505828857421875e+02,3.677382278442382812e+01,2.407543373107910156e+01,3.220840835571289062e+01
8.290089964866638184e-01,2.000000000000000000e+00,-2.812866020202636719e+01,-1.618265956640243530e-01,4.304229736328125000e+01,9.531159973144531250e+01,8.455442047119140625e+01,1.353150787353515625e+02,-5.251842975616455078e+00,-3.228284454345703125e+01,-1.840465698242187500e+02,3.677238464355468750e+01,2.409131622314453125e+01,3.220588684082031250e+01
8.325200080871582031e-01,2.000000000000000000e+00,-2.818165206909179688e+01,-1.244645938277244568e-01,4.299774932861328125e+01,9.531855773925781250e+01,8.455383300781250000e+01,1.353053741455078125e+02,-5.303753376007080078e+00,-3.227648162841796875e+01,-1.840423126220703125e+02,3.677145385742187500e+01,2.410771179199218750e+01,3.220335769653320312e+01
8.368579745292663574e-01,2.000000000000000000e+00,-2.823467445373535156e+01,-8.714786171913146973e-02,4.295334625244140625e+01,9.532540893554687500e+01,8.455335998535156250e+01,1.352951965332031250e+02,-5.355937957763671875e+00,-3.227002716064453125e+01,-1.840378723144531250e+02,3.677016067504882812e+01,2.412381362915039062e+01,3.220017242431640625e+01
8.399930000305175781e-01,2.000000000000000000e+00,-2.828769683837890625e+01,-4.969533905386924744e-02,4.290888214111328125e+01,9.533272552490234375e+01,8.455287933349609375e+01,1.352853088378906250e+02,-5.407793998718261719e+00,-3.226375961303710938e+01,-1.840336151123046875e+02,3.676893997192382812e+01,2.413962364196777344e+01,3.219742202758789062e+01
8.443999886512756348e-01,2.000000000000000000e+00,-2.834083175659179688e+01,-1.222019363194704056e-02,4.286459732055664062e+01,9.534004974365234375e+01,8.455233764648437500e+01,1.352752685546875000e+02,-5.459320068359375000e+00,-3.225753402709960938e+01,-1.840289916992187500e+02,3.676764678955078125e+01,2.415529060363769531e+01,3.219511795043945312e+01
8.481209874153137207e-01,2.000000000000000000e+00,-2.839399719238281250e+01,2.511917427182197571e-02,4.282015228271484375e+01,9.534737396240234375e+01,8.455175781250000000e+01,1.352653045654296875e+02,-5.510571002960205078e+00,-3.225139999389648438e+01,-1.840244293212890625e+02,3.676657104492187500e+01,2.417204856872558594e+01,3.219215011596679688e+01
8.531069755554199219e-01,2.000000000000000000e+00,-2.844693183898925781e+01,6.245854496955871582e-02,4.277566528320312500e+01,9.535469055175781250e+01,8.455117034912109375e+01,1.352552642822265625e+02,-5.561492919921875000e+00,-3.224526596069335938e+01,-1.840200195312500000e+02,3.676549530029296875e+01,2.418880653381347656e+01,3.218918609619140625e+01
8.566409945487976074e-01,2.000000000000000000e+00,-2.850001144409179688e+01,9.979791194200515747e-02,4.273130416870117188e+01,9.536232757568359375e+01,8.455063629150390625e+01,1.352448883056640625e+02,-5.612798690795898438e+00,-3.223921966552734375e+01,-1.840157775878906250e+02,3.676420211791992188e+01,2.420490837097167969e+01,3.218621826171875000e+01
8.615419864654541016e-01,2.000000000000000000e+00,-2.855283355712890625e+01,1.372051686048507690e-01,4.268701934814453125e+01,9.536996459960937500e+01,8.455026245117187500e+01,1.352345733642578125e+02,-5.664544582366943359e+00,-3.223299407958984375e+01,-1.840112152099609375e+02,3.676298141479492188e+01,2.422020912170410156e+01,3.218347167968750000e+01
8.640800118446350098e-01,2.000000000000000000e+00,-2.860582542419433594e+01,1.745445430278778076e-01,4.264251327514648438e+01,9.537744903564453125e+01,8.454957580566406250e+01,1.352240753173828125e+02,-5.716564655303955078e+00,-3.222686004638671875e+01,-1.840071258544921875e+02,3.676190185546875000e+01,2.423616600036621094e+01,3.218072509765625000e+01
8.684200048446655273e-01,2.000000000000000000e+00,-2.865893173217773438e+01,2.119970619678497314e-01,4.259804534912109375e+01,9.538503265380859375e+01,8.454908752441406250e+01,1.352138977050781250e+02,-5.768200397491455078e+00,-3.222068405151367188e+01,-1.840029296875000000e+02,3.676082611083984375e+01,2.425314331054687500e+01,3.217753982543945312e+01
8.723999857902526855e-01,2.000000000000000000e+00,-2.871178245544433594e+01,2.493137866258621216e-01,4.255344009399414062e+01,9.539266967773437500e+01,8.454866790771484375e+01,1.352031860351562500e+02,-5.819726467132568359e+00,-3.221454620361328125e+01,-1.839984893798828125e+02,3.675953292846679688e+01,2.426997375488281250e+01,3.217457199096679688e+01
8.774970173835754395e-01,2.000000000000000000e+00,-2.876471710205078125e+01,2.864947319030761719e-01,4.250889205932617188e+01,9.540020751953125000e+01,8.454818725585937500e+01,1.351925964355468750e+02,-5.870373249053955078e+00,-3.220864105224609375e+01,-1.839940643310546875e+02,3.675845718383789062e+01,2.428563880920410156e+01,3.217182540893554688e+01
8.816009759902954102e-01,2.000000000000000000e+00,-2.887053108215332031e+01,3.614224195480346680e-01,4.241987991333007812e+01,9.541468048095703125e+01,8.454706573486328125e+01,1.351720581054687500e+02,-5.972655773162841797e+00,-3.219646835327148438e+01,-1.839853668212890625e+02,3.675601577758789062e+01,2.431828308105468750e+01,3.216545486450195312e+01
8.844490051269531250e-01,2.000000000000000000e+00,-2.887053108215332031e+01,3.614224195480346680e-01,4.241987991333007812e+01,9.541468048095703125e+01,8.454706573486328125e+01,1.351720581054687500e+02,-5.972655773162841797e+00,-3.219646835327148438e+01,-1.839853668212890625e+02,3.675601577758789062e+01,2.431828308105468750e+01,3.216545486450195312e+01
8.892549872398376465e-01,2.000000000000000000e+00,-2.897637176513671875e+01,4.359201192855834961e-01,4.233125305175781250e+01,9.542928314208984375e+01,8.454594421386718750e+01,1.351514434814453125e+02,-6.076147079467773438e+00,-3.218419647216796875e+01,-1.839766082763671875e+02,3.675371551513671875e+01,2.435136032104492188e+01,3.215930175781250000e+01
8.925129771232604980e-01,2.000000000000000000e+00,-2.897637176513671875e+01,4.359201192855834961e-01,4.233125305175781250e+01,9.542928314208984375e+01,8.454594421386718750e+01,1.351514434814453125e+02,-6.076147079467773438e+00,-3.218419647216796875e+01,-1.839766082763671875e+02,3.675371551513671875e+01,2.435136032104492188e+01,3.215930175781250000e+01
8.966190218925476074e-01,2.000000000000000000e+00,-2.902910614013671875e+01,4.733499884605407715e-01,4.228689193725585938e+01,9.543639373779296875e+01,8.454535675048828125e+01,1.351416015625000000e+02,-6.128057479858398438e+00,-3.217797470092773438e+01,-1.839724273681640625e+02,3.675263977050781250e+01,2.436753654479980469e+01,3.215644454956054688e+01
9.014660120010375977e-01,2.000000000000000000e+00,-2.908186912536621094e+01,5.106667280197143555e-01,4.224250411987304688e+01,9.544349670410156250e+01,8.454498291015625000e+01,1.351316986083984375e+02,-6.179144382476806641e+00,-3.217174911499023438e+01,-1.839679718017578125e+02,3.675156021118164062e+01,2.438407707214355469e+01,3.215304183959960938e+01
9.047250151634216309e-01,2.000000000000000000e+00,-2.913457489013671875e+01,5.479608178138732910e-01,4.219826507568359375e+01,9.545055389404296875e+01,8.454444885253906250e+01,1.351215209960937500e+02,-6.229846000671386719e+00,-3.216556549072265625e+01,-1.839635162353515625e+02,3.675062942504882812e+01,2.440112686157226562e+01,3.214985275268554688e+01
9.086139798164367676e-01,2.000000000000000000e+00,-2.918731117248535156e+01,5.852549672126770020e-01,4.215416336059570312e+01,9.545793151855468750e+01,8.454386138916015625e+01,1.351117553710937500e+02,-6.280877113342285156e+00,-3.215961456298828125e+01,-1.839592132568359375e+02,3.674919509887695312e+01,2.441722869873046875e+01,3.214699554443359375e+01
9.136070013046264648e-01,2.000000000000000000e+00,-2.923995780944824219e+01,6.226621866226196289e-01,4.210996246337890625e+01,9.546498870849609375e+01,8.454349517822265625e+01,1.351018066406250000e+02,-6.332293033599853516e+00,-3.215353012084960938e+01,-1.839548034667968750e+02,3.674818801879882812e+01,2.443376922607421875e+01,3.214359283447265625e+01
9.166560173034667969e-01,2.000000000000000000e+00,-2.929257774353027344e+01,6.596168875694274902e-01,4.206563949584960938e+01,9.547220611572265625e+01,8.454285430908203125e+01,1.350917510986328125e+02,-6.383819103240966797e+00,-3.214739608764648438e+01,-1.839503936767578125e+02,3.674689483642578125e+01,2.444994544982910156e+01,3.214040374755859375e+01
9.205949902534484863e-01,2.000000000000000000e+00,-2.934531402587890625e+01,6.969109773635864258e-01,4.202139663696289062e+01,9.547953033447265625e+01,8.454232025146484375e+01,1.350818481445312500e+02,-6.435674667358398438e+00,-3.214117050170898438e+01,-1.839459991455078125e+02,3.674588775634765625e+01,2.446597290039062500e+01,3.213733291625976562e+01
9.233710169792175293e-01,2.000000000000000000e+00,-2.939796066284179688e+01,7.343408465385437012e-01,4.197691345214843750e+01,9.548695373535156250e+01,8.454173278808593750e+01,1.350713500976562500e+02,-6.487200736999511719e+00,-3.213508224487304688e+01,-1.839414825439453125e+02,3.674481201171875000e+01,2.448214912414550781e+01,3.213425445556640625e+01
9.273629784584045410e-01,2.000000000000000000e+00,-2.945055389404296875e+01,7.715671062469482422e-01,4.193252563476562500e+01,9.549422454833984375e+01,8.454131317138671875e+01,1.350613098144531250e+02,-6.538177490234375000e+00,-3.212889862060546875e+01,-1.839372406005859375e+02,3.674359512329101562e+01,2.449847030639648438e+01,3.213161849975585938e+01
9.314550161361694336e-01,2.000000000000000000e+00,-2.950331306457519531e+01,8.087027668952941895e-01,4.188824081420898438e+01,9.550191497802734375e+01,8.454072570800781250e+01,1.350510711669921875e+02,-6.588769435882568359e+00,-3.212281417846679688e+01,-1.839329376220703125e+02,3.674251556396484375e+01,2.451500892639160156e+01,3.212820816040039062e+01
9.354680180549621582e-01,2.000000000000000000e+00,-2.955593299865722656e+01,8.458837270736694336e-01,4.184383773803710938e+01,9.550960540771484375e+01,8.454019165039062500e+01,1.350407714843750000e+02,-6.639800548553466797e+00,-3.211663055419921875e+01,-1.839287109375000000e+02,3.674143981933593750e+01,2.453118515014648438e+01,3.212513732910156250e+01
9.393370151519775391e-01,2.000000000000000000e+00,-2.960838127136230469e+01,8.831552267074584961e-01,4.179943466186523438e+01,9.551708221435546875e+01,8.453965759277343750e+01,1.350299072265625000e+02,-6.691216468811035156e+00,-3.211054229736328125e+01,-1.839244079589843750e+02,3.674036026000976562e+01,2.454714202880859375e+01,3.212227630615234375e+01
9.433370232582092285e-01,2.000000000000000000e+00,-2.966111755371093750e+01,9.204493165016174316e-01,4.175511169433593750e+01,9.552472686767578125e+01,8.453907012939453125e+01,1.350193328857421875e+02,-6.742632389068603516e+00,-3.210436630249023438e+01,-1.839201660156250000e+02,3.673913955688476562e+01,2.456309890747070312e+01,3.211920166015625000e+01
9.473930001258850098e-01,2.000000000000000000e+00,-2.971364974975585938e+01,9.574945569038391113e-01,4.171078872680664062e+01,9.553236389160156250e+01,8.453863525390625000e+01,1.350089569091796875e+02,-6.794433116912841797e+00,-3.209814071655273438e+01,-1.839159240722656250e+02,3.673813629150390625e+01,2.457949256896972656e+01,3.211612701416015625e+01
9.513459801673889160e-01,2.000000000000000000e+00,-2.976624107360839844e+01,9.946754574775695801e-01,4.166654586791992188e+01,9.553989410400390625e+01,8.453800201416015625e+01,1.349988555908203125e+02,-6.845739364624023438e+00,-3.209186553955078125e+01,-1.839115142822265625e+02,3.673705673217773438e+01,2.459603309631347656e+01,3.211326980590820312e+01
9.569309949874877930e-01,2.000000000000000000e+00,-2.981906318664550781e+01,1.031720638275146484e+00,4.162248611450195312e+01,9.554721832275390625e+01,8.453762817382812500e+01,1.349885406494140625e+02,-6.896825790405273438e+00,-3.208573150634765625e+01,-1.839072723388671875e+02,3.673598098754882812e+01,2.461184501647949219e+01,3.211041259765625000e+01
9.609659910202026367e-01,2.000000000000000000e+00,-2.987173652648925781e+01,1.068833708763122559e+00,4.157832717895507812e+01,9.555432891845703125e+01,8.453714752197265625e+01,1.349783630371093750e+02,-6.947582721710205078e+00,-3.207946395874023438e+01,-1.839029846191406250e+02,3.673461532592773438e+01,2.462765502929687500e+01,3.210788726806640625e+01
9.650380015373229980e-01,2.000000000000000000e+00,-2.992455863952636719e+01,1.106037259101867676e+00,4.153424835205078125e+01,9.556159210205078125e+01,8.453650665283203125e+01,1.349683990478515625e+02,-6.998174667358398438e+00,-3.207314300537109375e+01,-1.838986816406250000e+02,3.673361206054687500e+01,2.464375686645507812e+01,3.210480880737304688e+01
9.673290252685546875e-01,2.000000000000000000e+00,-2.997723579406738281e+01,1.143218278884887695e+00,4.149031066894531250e+01,9.556849670410156250e+01,8.453597259521484375e+01,1.349583587646484375e+02,-7.049206256866455078e+00,-3.206678390502929688e+01,-1.838944244384765625e+02,3.673253631591796875e+01,2.465942192077636719e+01,3.210129547119140625e+01
9.713600277900695801e-01,2.000000000000000000e+00,-3.002999877929687500e+01,1.180376529693603516e+00,4.144598770141601562e+01,9.557566070556640625e+01,8.453549957275390625e+01,1.349487304687500000e+02,-7.100567340850830078e+00,-3.206055831909179688e+01,-1.838900909423828125e+02,3.673145675659179688e+01,2.467625236511230469e+01,3.209876632690429688e+01
9.753350019454956055e-01,2.000000000000000000e+00,-3.008273124694824219e+01,1.217444419860839844e+00,4.140186691284179688e+01,9.558282470703125000e+01,8.453485870361328125e+01,1.349390411376953125e+02,-7.152587413787841797e+00,-3.205442428588867188e+01,-1.838856811523437500e+02,3.673023605346679688e+01,2.469206428527832031e+01,3.209613037109375000e+01
9.793990254402160645e-01,2.000000000000000000e+00,-3.013535118103027344e+01,1.254512190818786621e+00,4.135780715942382812e+01,9.558982849121093750e+01,8.453443145751953125e+01,1.349288635253906250e+02,-7.204277992248535156e+00,-3.204819869995117188e+01,-1.838813323974609375e+02,3.672922897338867188e+01,2.470816612243652344e+01,3.209382247924804688e+01
9.833729863166809082e-01,2.000000000000000000e+00,-3.018771553039550781e+01,1.291738390922546387e+00,4.131366729736328125e+01,9.559693908691406250e+01,8.453394317626953125e+01,1.349188232421875000e+02,-7.255364418029785156e+00,-3.204201507568359375e+01,-1.838769683837890625e+02,3.672815322875976562e+01,2.472456169128417969e+01,3.209107589721679688e+01
9.899600148200988770e-01,2.000000000000000000e+00,-3.024047851562500000e+01,1.328851580619812012e+00,4.126948547363281250e+01,9.560404968261718750e+01,8.453325653076171875e+01,1.349089965820312500e+02,-7.306011676788330078e+00,-3.203588104248046875e+01,-1.838725738525390625e+02,3.672686386108398438e+01,2.474124526977539062e+01,3.208843994140625000e+01
9.932680130004882812e-01,2.000000000000000000e+00,-3.029318428039550781e+01,1.365964531898498535e+00,4.122518539428710938e+01,9.561116027832031250e+01,8.453288269042968750e+01,1.348991546630859375e+02,-7.356218814849853516e+00,-3.202975082397460938e+01,-1.838683776855468750e+02,3.672578430175781250e+01,2.475815010070800781e+01,3.208569335937500000e+01
9.954670071601867676e-01,2.000000000000000000e+00,-3.034603309631347656e+01,1.402873873710632324e+00,4.118082046508789062e+01,9.561837005615234375e+01,8.453224945068359375e+01,1.348891906738281250e+02,-7.407250404357910156e+00,-3.202356719970703125e+01,-1.838640899658203125e+02,3.672456359863281250e+01,2.477410697937011719e+01,3.208294677734375000e+01
9.993550181388854980e-01,2.000000000000000000e+00,-3.039859390258789062e+01,1.440145373344421387e+00,4.113665771484375000e+01,9.562569427490234375e+01,8.453171539306640625e+01,1.348790740966796875e+02,-7.458886146545410156e+00,-3.201752471923828125e+01,-1.838600006103515625e+02,3.672355651855468750e+01,2.478955459594726562e+01,3.208020019531250000e+01
1.005331039428710938e+00,2.000000000000000000e+00,-3.045104217529296875e+01,1.477213263511657715e+00,4.109243774414062500e+01,9.563301849365234375e+01,8.453128051757812500e+01,1.348688507080078125e+02,-7.510192871093750000e+00,-3.201143646240234375e+01,-1.838555603027343750e+02,3.672248077392578125e+01,2.480624008178710938e+01,3.207723617553710938e+01
1.007406949996948242e+00,2.000000000000000000e+00,-3.050357437133789062e+01,1.514326333999633789e+00,4.104848098754882812e+01,9.564028930664062500e+01,8.453063964843750000e+01,1.348587341308593750e+02,-7.561333656311035156e+00,-3.200543975830078125e+01,-1.838514709472656250e+02,3.672118759155273438e+01,2.482314300537109375e+01,3.207426834106445312e+01
1.011332988739013672e+00,2.000000000000000000e+00,-3.055608177185058594e+01,1.551394104957580566e+00,4.100445938110351562e+01,9.564777374267578125e+01,8.453015899658203125e+01,1.348485565185546875e+02,-7.612200736999511719e+00,-3.199944305419921875e+01,-1.838469543457031250e+02,3.672011184692382812e+01,2.483946418762207031e+01,3.207118988037109375e+01
1.015331983566284180e+00,2.000000000000000000e+00,-3.060861206054687500e+01,1.588371396064758301e+00,4.096046447753906250e+01,9.565534973144531250e+01,8.452957153320312500e+01,1.348377227783203125e+02,-7.662738323211669922e+00,-3.199326515197753906e+01,-1.838425445556640625e+02,3.671896362304687500e+01,2.485461997985839844e+01,3.206800460815429688e+01
1.019333004951477051e+00,2.000000000000000000e+00,-3.066088676452636719e+01,1.625348806381225586e+00,4.091644287109375000e+01,9.566298675537109375e+01,8.452893829345703125e+01,1.348270721435546875e+02,-7.713164329528808594e+00,-3.198708343505859375e+01,-1.838383178710937500e+02,3.671810150146484375e+01,2.487050437927246094e+01,3.206536865234375000e+01
1.023331046104431152e+00,2.000000000000000000e+00,-3.071368026733398438e+01,1.662461757659912109e+00,4.087242507934570312e+01,9.567057800292968750e+01,8.452856445312500000e+01,1.348170318603515625e+02,-7.764141559600830078e+00,-3.198095130920410156e+01,-1.838342285156250000e+02,3.671673583984375000e+01,2.488704299926757812e+01,3.206283950805664062e+01
1.027336955070495605e+00,2.000000000000000000e+00,-3.076618385314941406e+01,1.699574828147888184e+00,4.082863235473632812e+01,9.567810821533203125e+01,8.452803039550781250e+01,1.348069915771484375e+02,-7.815612316131591797e+00,-3.197467994689941406e+01,-1.838298339843750000e+02,3.671558761596679688e+01,2.490329170227050781e+01,3.205987548828125000e+01
1.031381011009216309e+00,2.000000000000000000e+00,-3.081871795654296875e+01,1.736438989639282227e+00,4.078469467163085938e+01,9.568569183349609375e+01,8.452738952636718750e+01,1.347965393066406250e+02,-7.867138385772705078e+00,-3.196840667724609375e+01,-1.838256378173828125e+02,3.671436691284179688e+01,2.491888427734375000e+01,3.205712890625000000e+01
1.035351037979125977e+00,2.000000000000000000e+00,-3.087122344970703125e+01,1.773257851600646973e+00,4.074073791503906250e+01,9.569296264648437500e+01,8.452685546875000000e+01,1.347863159179687500e+02,-7.918664455413818359e+00,-3.196222877502441406e+01,-1.838213348388671875e+02,3.671321868896484375e+01,2.493491363525390625e+01,3.205449295043945312e+01
1.039538979530334473e+00,2.000000000000000000e+00,-3.092349815368652344e+01,1.810325622558593750e+00,4.069676208496093750e+01,9.570018005371093750e+01,8.452643585205078125e+01,1.347764739990234375e+02,-7.969530582427978516e+00,-3.195627593994140625e+01,-1.838167724609375000e+02,3.671207046508789062e+01,2.495094299316406250e+01,3.205152893066406250e+01
1.043393969535827637e+00,2.000000000000000000e+00,-3.097588920593261719e+01,1.847325682640075684e+00,4.065270233154296875e+01,9.570713043212890625e+01,8.452590179443359375e+01,1.347668457031250000e+02,-8.019957542419433594e+00,-3.195032691955566406e+01,-1.838126831054687500e+02,3.671099472045898438e+01,2.496711730957031250e+01,3.204845046997070312e+01
1.050228953361511230e+00,2.000000000000000000e+00,-3.102836418151855469e+01,1.884325385093688965e+00,4.060852050781250000e+01,9.571434783935546875e+01,8.452526092529296875e+01,1.347571411132812500e+02,-8.070330619812011719e+00,-3.194423866271972656e+01,-1.838085021972656250e+02,3.670969772338867188e+01,2.498358535766601562e+01,3.204526519775390625e+01
1.051615953445434570e+00,2.000000000000000000e+00,-3.108058166503906250e+01,1.921234965324401855e+00,4.056446075439453125e+01,9.572151184082031250e+01,8.452478027343750000e+01,1.347471771240234375e+02,-8.121306419372558594e+00,-3.193819808959960938e+01,-1.838041534423828125e+02,3.670869445800781250e+01,2.499939537048339844e+01,3.204218673706054688e+01
1.055413007736206055e+00,2.000000000000000000e+00,-3.113291358947753906e+01,1.958280086517333984e+00,4.052044296264648438e+01,9.572882843017578125e+01,8.452424621582031250e+01,1.347371520996093750e+02,-8.172557830810546875e+00,-3.193219947814941406e+01,-1.838000183105468750e+02,3.670754241943359375e+01,2.501571846008300781e+01,3.203922271728515625e+01
1.060348987579345703e+00,2.000000000000000000e+00,-3.113291358947753906e+01,1.958280086517333984e+00,4.052044296264648438e+01,9.572882843017578125e+01,8.452424621582031250e+01,1.347371520996093750e+02,-8.223864555358886719e+00,-3.192601966857910156e+01,-1.837958831787109375e+02,3.670632553100585938e+01,2.503182029724121094e+01,3.203636550903320312e+01
1.065487027168273926e+00,2.000000000000000000e+00,-3.123757934570312500e+01,2.032008409500122070e+00,4.043224334716796875e+01,9.574279022216796875e+01,8.452307128906250000e+01,1.347179565429687500e+02,-8.275060653686523438e+00,-3.191984176635742188e+01,-1.837914886474609375e+02,3.670517730712890625e+01,2.504806709289550781e+01,3.203350830078125000e+01
1.067492961883544922e+00,2.000000000000000000e+00,-3.128988265991210938e+01,2.068985462188720703e+00,4.038818359375000000e+01,9.574995422363281250e+01,8.452265167236328125e+01,1.347079772949218750e+02,-8.325597763061523438e+00,-3.191370391845703125e+01,-1.837872314453125000e+02,3.670402526855468750e+01,2.506424331665039062e+01,3.203021240234375000e+01
1.074079990386962891e+00,2.000000000000000000e+00,-3.128988265991210938e+01,2.068985462188720703e+00,4.038818359375000000e+01,9.574995422363281250e+01,8.452265167236328125e+01,1.347079772949218750e+02,-8.376079559326171875e+00,-3.190798377990722656e+01,-1.837830047607421875e+02,3.670273590087890625e+01,2.508020019531250000e+01,3.202713775634765625e+01
1.075526952743530273e+00,2.000000000000000000e+00,-3.139463424682617188e+01,2.142759323120117188e+00,4.030045318603515625e+01,9.576438903808593750e+01,8.452147674560546875e+01,1.346881103515625000e+02,-8.427056312561035156e+00,-3.190194320678710938e+01,-1.837785949707031250e+02,3.670172882080078125e+01,2.509630203247070312e+01,3.202384185791015625e+01
1.080376982688903809e+00,2.000000000000000000e+00,-3.139463424682617188e+01,2.142759323120117188e+00,4.030045318603515625e+01,9.576438903808593750e+01,8.452147674560546875e+01,1.346881103515625000e+02,-8.477758407592773438e+00,-3.189576148986816406e+01,-1.837744445800781250e+02,3.670043563842773438e+01,2.511225891113281250e+01,3.202098464965820312e+01
1.083328962326049805e+00,2.000000000000000000e+00,-3.149924087524414062e+01,2.216804265975952148e+00,4.021279907226562500e+01,9.577861022949218750e+01,8.452050781250000000e+01,1.346675567626953125e+02,-8.528460502624511719e+00,-3.188962745666503906e+01,-1.837700500488281250e+02,3.669928741455078125e+01,2.512850952148437500e+01,3.201768875122070312e+01
1.087442994117736816e+00,2.000000000000000000e+00,-3.149924087524414062e+01,2.216804265975952148e+00,4.021279907226562500e+01,9.577861022949218750e+01,8.452050781250000000e+01,1.346675567626953125e+02,-8.528460502624511719e+00,-3.188962745666503906e+01,-1.837700500488281250e+02,3.669928741455078125e+01,2.512850952148437500e+01,3.201768875122070312e+01
1.092367053031921387e+00,2.000000000000000000e+00,-3.155163192749023438e+01,2.253600358963012695e+00,4.016910934448242188e+01,9.578593444824218750e+01,8.452008819580078125e+01,1.346573791503906250e+02,-8.579986572265625000e+00,-3.188344573974609375e+01,-1.837658538818359375e+02,3.669813919067382812e+01,2.514475631713867188e+01,3.201483154296875000e+01
1.095955967903137207e+00,2.000000000000000000e+00,-3.165624046325683594e+01,2.327328920364379883e+00,4.008141708374023438e+01,9.580088806152343750e+01,8.451885986328125000e+01,1.346365661621093750e+02,-8.682324409484863281e+00,-3.187104225158691406e+01,-1.837572631835937500e+02,3.669555282592773438e+01,2.517718124389648438e+01,3.200856781005859375e+01
1.099339008331298828e+00,2.000000000000000000e+00,-3.170854187011718750e+01,2.364373922348022461e+00,4.003764343261718750e+01,9.580853271484375000e+01,8.451843261718750000e+01,1.346265411376953125e+02,-8.732421875000000000e+00,-3.186481666564941406e+01,-1.837529296875000000e+02,3.669454956054687500e+01,2.519335365295410156e+01,3.200582122802734375e+01
1.103384971618652344e+00,2.000000000000000000e+00,-3.170854187011718750e+01,2.364373922348022461e+00,4.003764343261718750e+01,9.580853271484375000e+01,8.451843261718750000e+01,1.346265411376953125e+02,-8.732421875000000000e+00,-3.186481666564941406e+01,-1.837529296875000000e+02,3.669454956054687500e+01,2.519335365295410156e+01,3.200582122802734375e+01
1.107465028762817383e+00,2.000000000000000000e+00,-3.176082038879394531e+01,2.401170253753662109e+00,3.999378585815429688e+01,9.581611633300781250e+01,8.451790618896484375e+01,1.346163024902343750e+02,-8.782244682312011719e+00,-3.185877609252929688e+01,-1.837487335205078125e+02,3.669339752197265625e+01,2.520916557312011719e+01,3.200340652465820312e+01
1.111379027366638184e+00,2.000000000000000000e+00,-3.181323814392089844e+01,2.438079595565795898e+00,3.994991302490234375e+01,9.582359313964843750e+01,8.451731872558593750e+01,1.346061248779296875e+02,-8.832561492919921875e+00,-3.185277938842773438e+01,-1.837444915771484375e+02,3.669210815429687500e+01,2.522526931762695312e+01,3.200044250488281250e+01
1.116202950477600098e+00,2.000000000000000000e+00,-3.191756057739257812e+01,2.511739969253540039e+00,3.986199951171875000e+01,9.583818054199218750e+01,8.451625061035156250e+01,1.345865783691406250e+02,-8.935393333435058594e+00,-3.184073638916015625e+01,-1.837357940673828125e+02,3.668980789184570312e+01,2.525681877136230469e+01,3.199461746215820312e+01
