rpiRobotics/ARM-21-02-F-19-Robot-Motion-Program/data_performance_abb/curve_1/dual_arm/diffevo_pose3/grad_result/real/run_2.csv
timestamp,cmd_num,J1,J2,J3,J4,J5,J6,J1_2,J2_2,J3_2,J4_2,J5_2,J6_2
2.600000007078051567e-04,-1.000000000000000000e+00,-1.934196472167968750e+01,-6.361564636230468750e+00,5.041887664794921875e+01,9.409272766113281250e+01,8.463775634765625000e+01,1.370028991699218750e+02,3.293048620223999023e+00,-3.330425643920898438e+01,-1.847663269042968750e+02,3.696453857421875000e+01,2.138944625854492188e+01,3.269971847534179688e+01
2.956999931484460831e-03,-1.000000000000000000e+00,-1.934196472167968750e+01,-6.361564636230468750e+00,5.041887664794921875e+01,9.409262084960937500e+01,8.463775634765625000e+01,1.370028991699218750e+02,3.293048620223999023e+00,-3.330425643920898438e+01,-1.847662811279296875e+02,3.696453857421875000e+01,2.138944625854492188e+01,3.269971847534179688e+01
4.290000069886445999e-03,-1.000000000000000000e+00,-1.934196472167968750e+01,-6.361564636230468750e+00,5.041887664794921875e+01,9.409262084960937500e+01,8.463775634765625000e+01,1.370028991699218750e+02,3.293048620223999023e+00,-3.330425643920898438e+01,-1.847662811279296875e+02,3.696453857421875000e+01,2.138944625854492188e+01,3.269971847534179688e+01
7.962999865412712097e-03,-1.000000000000000000e+00,-1.934190559387207031e+01,-6.361564636230468750e+00,5.041887664794921875e+01,9.409272766113281250e+01,8.463775634765625000e+01,1.370028991699218750e+02,3.293158531188964844e+00,-3.330425643920898438e+01,-1.847663269042968750e+02,3.696453857421875000e+01,2.138944625854492188e+01,3.269971847534179688e+01
1.098299957811832428e-02,-1.000000000000000000e+00,-1.934196472167968750e+01,-6.361564636230468750e+00,5.041887664794921875e+01,9.409262084960937500e+01,8.463775634765625000e+01,1.370031127929687500e+02,3.293158531188964844e+00,-3.330439376831054688e+01,-1.847663269042968750e+02,3.696453857421875000e+01,2.138944625854492188e+01,3.269971847534179688e+01
1.593600027263164520e-02,-1.000000000000000000e+00,-1.934196472167968750e+01,-6.361564636230468750e+00,5.041887664794921875e+01,9.409262084960937500e+01,8.463775634765625000e+01,1.370031127929687500e+02,3.293158531188964844e+00,-3.330439376831054688e+01,-1.847663269042968750e+02,3.696453857421875000e+01,2.138944625854492188e+01,3.269971847534179688e+01
2.023999951779842377e-02,-1.000000000000000000e+00,-1.934196472167968750e+01,-6.361564636230468750e+00,5.041887664794921875e+01,9.409262084960937500e+01,8.463775634765625000e+01,1.370031127929687500e+02,3.293158531188964844e+00,-3.330439376831054688e+01,-1.847663269042968750e+02,3.696453857421875000e+01,2.138930130004882812e+01,3.269971847534179688e+01
2.396599948406219482e-02,-1.000000000000000000e+00,-1.934190559387207031e+01,-6.361564636230468750e+00,5.041891860961914062e+01,9.409272766113281250e+01,8.463775634765625000e+01,1.370028991699218750e+02,3.293048620223999023e+00,-3.330439376831054688e+01,-1.847663269042968750e+02,3.696453857421875000e+01,2.138944625854492188e+01,3.269971847534179688e+01
3.052799962460994720e-02,-1.000000000000000000e+00,-1.934196472167968750e+01,-6.361564636230468750e+00,5.041891860961914062e+01,9.409277343750000000e+01,8.463775634765625000e+01,1.370031127929687500e+02,3.293158531188964844e+00,-3.330439376831054688e+01,-1.847663269042968750e+02,3.696453857421875000e+01,2.138944625854492188e+01,3.269971847534179688e+01
4.049700126051902771e-02,2.000000000000000000e+00,-1.934196472167968750e+01,-6.361564636230468750e+00,5.041887664794921875e+01,9.409272766113281250e+01,8.463775634765625000e+01,1.370031127929687500e+02,3.293048620223999023e+00,-3.330425643920898438e+01,-1.847663269042968750e+02,3.696453857421875000e+01,2.138944625854492188e+01,3.269971847534179688e+01
4.726700112223625183e-02,2.000000000000000000e+00,-1.934204864501953125e+01,-6.361564636230468750e+00,5.041887664794921875e+01,9.409272766113281250e+01,8.463775634765625000e+01,1.370031127929687500e+02,3.293158531188964844e+00,-3.330425643920898438e+01,-1.847663269042968750e+02,3.696453857421875000e+01,2.138944625854492188e+01,3.269971847534179688e+01
5.167400091886520386e-02,2.000000000000000000e+00,-1.934190559387207031e+01,-6.361496925354003906e+00,5.041887664794921875e+01,9.409277343750000000e+01,8.463775634765625000e+01,1.370028991699218750e+02,3.293158531188964844e+00,-3.330425643920898438e+01,-1.847663269042968750e+02,3.696453857421875000e+01,2.138944625854492188e+01,3.269971847534179688e+01
9.178800135850906372e-02,2.000000000000000000e+00,-1.934196472167968750e+01,-6.361564636230468750e+00,5.041887664794921875e+01,9.409262084960937500e+01,8.463775634765625000e+01,1.370031127929687500e+02,3.293048620223999023e+00,-3.330425643920898438e+01,-1.847664337158203125e+02,3.696453857421875000e+01,2.138944625854492188e+01,3.269971847534179688e+01
9.305199980735778809e-02,2.000000000000000000e+00,-1.934196472167968750e+01,-6.361564636230468750e+00,5.041887664794921875e+01,9.409262084960937500e+01,8.463775634765625000e+01,1.370031127929687500e+02,3.293048620223999023e+00,-3.330425643920898438e+01,-1.847664337158203125e+02,3.696453857421875000e+01,2.138944625854492188e+01,3.269971847534179688e+01
9.559399634599685669e-02,2.000000000000000000e+00,-1.934196472167968750e+01,-6.361496925354003906e+00,5.041887664794921875e+01,9.409272766113281250e+01,8.463775634765625000e+01,1.370031127929687500e+02,3.293158531188964844e+00,-3.330439376831054688e+01,-1.847663269042968750e+02,3.696453857421875000e+01,2.138930130004882812e+01,3.269971847534179688e+01
1.053569987416267395e-01,2.000000000000000000e+00,-1.934213638305664062e+01,-6.361496925354003906e+00,5.041883850097656250e+01,9.409272766113281250e+01,8.463775634765625000e+01,1.370028991699218750e+02,3.293048620223999023e+00,-3.330425643920898438e+01,-1.847663269042968750e+02,3.696453857421875000e+01,2.138944625854492188e+01,3.269971847534179688e+01
1.080420017242431641e-01,2.000000000000000000e+00,-1.934305572509765625e+01,-6.361225605010986328e+00,5.041867446899414062e+01,9.409272766113281250e+01,8.463775634765625000e+01,1.370028991699218750e+02,3.293158531188964844e+00,-3.330439376831054688e+01,-1.847664337158203125e+02,3.696453857421875000e+01,2.138944625854492188e+01,3.269971847534179688e+01
1.093259975314140320e-01,2.000000000000000000e+00,-1.934305572509765625e+01,-6.361225605010986328e+00,5.041867446899414062e+01,9.409272766113281250e+01,8.463775634765625000e+01,1.370028991699218750e+02,3.293158531188964844e+00,-3.330439376831054688e+01,-1.847664337158203125e+02,3.696453857421875000e+01,2.138944625854492188e+01,3.269971847534179688e+01
1.118609979748725891e-01,2.000000000000000000e+00,-1.934489059448242188e+01,-6.360387802124023438e+00,5.041833114624023438e+01,9.409272766113281250e+01,8.463775634765625000e+01,1.370028991699218750e+02,3.293048620223999023e+00,-3.330439376831054688e+01,-1.847663269042968750e+02,3.696453857421875000e+01,2.138944625854492188e+01,3.269971847534179688e+01
1.161549985408782959e-01,2.000000000000000000e+00,-1.934489059448242188e+01,-6.360387802124023438e+00,5.041833114624023438e+01,9.409272766113281250e+01,8.463775634765625000e+01,1.370028991699218750e+02,3.293048620223999023e+00,-3.330439376831054688e+01,-1.847663269042968750e+02,3.696453857421875000e+01,2.138944625854492188e+01,3.269971847534179688e+01
1.174980029463768005e-01,2.000000000000000000e+00,-1.934750366210937500e+01,-6.358758449554443359e+00,5.041745376586914062e+01,9.409262084960937500e+01,8.463775634765625000e+01,1.370028991699218750e+02,3.292554140090942383e+00,-3.330425643920898438e+01,-1.847661132812500000e+02,3.696453857421875000e+01,2.138966560363769531e+01,3.270005035400390625e+01
1.200350001454353333e-01,2.000000000000000000e+00,-1.935172462463378906e+01,-6.356359958648681641e+00,5.041598892211914062e+01,9.409272766113281250e+01,8.463775634765625000e+01,1.370028991699218750e+02,3.291949987411499023e+00,-3.330406951904296875e+01,-1.847648620605468750e+02,3.696453857421875000e+01,2.139061164855957031e+01,3.269971847534179688e+01
1.213800013065338135e-01,2.000000000000000000e+00,-1.935172462463378906e+01,-6.356359958648681641e+00,5.041598892211914062e+01,9.409272766113281250e+01,8.463775634765625000e+01,1.370028991699218750e+02,3.291949987411499023e+00,-3.330406951904296875e+01,-1.847648620605468750e+02,3.696453857421875000e+01,2.139061164855957031e+01,3.269971847534179688e+01
1.249170005321502686e-01,2.000000000000000000e+00,-1.935749435424804688e+01,-6.352807044982910156e+00,5.041379547119140625e+01,9.409277343750000000e+01,8.463775634765625000e+01,1.370028991699218750e+02,3.290302038192749023e+00,-3.330334091186523438e+01,-1.847621307373046875e+02,3.696453857421875000e+01,2.139600563049316406e+01,3.269971847534179688e+01
1.281329989433288574e-01,2.000000000000000000e+00,-1.936501502990722656e+01,-6.347964286804199219e+00,5.041048049926757812e+01,9.409277343750000000e+01,8.463775634765625000e+01,1.370028991699218750e+02,3.287720203399658203e+00,-3.330247116088867188e+01,-1.847602996826171875e+02,3.696453857421875000e+01,2.140168762207031250e+01,3.269950103759765625e+01
1.294479966163635254e-01,2.000000000000000000e+00,-1.936501502990722656e+01,-6.347964286804199219e+00,5.041048049926757812e+01,9.409277343750000000e+01,8.463775634765625000e+01,1.370028991699218750e+02,3.287720203399658203e+00,-3.330247116088867188e+01,-1.847602996826171875e+02,3.696453857421875000e+01,2.140168762207031250e+01,3.269950103759765625e+01
1.320559978485107422e-01,2.000000000000000000e+00,-1.937400054931640625e+01,-6.341967105865478516e+00,5.040570449829101562e+01,9.409304046630859375e+01,8.463775634765625000e+01,1.370027618408203125e+02,3.283710241317749023e+00,-3.330182647705078125e+01,-1.847589874267578125e+02,3.696453857421875000e+01,2.140503883361816406e+01,3.269916915893554688e+01
1.334770023822784424e-01,2.000000000000000000e+00,-1.937400054931640625e+01,-6.341967105865478516e+00,5.040570449829101562e+01,9.409304046630859375e+01,8.463775634765625000e+01,1.370027618408203125e+02,3.283710241317749023e+00,-3.330182647705078125e+01,-1.847589874267578125e+02,3.696453857421875000e+01,2.140503883361816406e+01,3.269916915893554688e+01
1.376429945230484009e-01,2.000000000000000000e+00,-1.938488006591796875e+01,-6.334589958190917969e+00,5.039933776855468750e+01,9.409378051757812500e+01,8.463775634765625000e+01,1.370024414062500000e+02,3.278052330017089844e+00,-3.330118942260742188e+01,-1.847571411132812500e+02,3.696432495117187500e+01,2.140671539306640625e+01,3.269862365722656250e+01
1.412529945373535156e-01,2.000000000000000000e+00,-1.939751052856445312e+01,-6.325741767883300781e+00,5.039108276367187500e+01,9.409441375732421875e+01,8.463754272460937500e+01,1.370018157958984375e+02,3.270251989364624023e+00,-3.330013275146484375e+01,-1.847552795410156250e+02,3.696382141113281250e+01,2.140875434875488281e+01,3.269664382934570312e+01
1.440120041370391846e-01,2.000000000000000000e+00,-1.941238212585449219e+01,-6.315037727355957031e+00,5.038065338134765625e+01,9.409568023681640625e+01,8.463764953613281250e+01,1.370006561279296875e+02,3.259210824966430664e+00,-3.329871749877929688e+01,-1.847533874511718750e+02,3.696288681030273438e+01,2.141115951538085938e+01,3.269697189331054688e+01
1.452739983797073364e-01,2.000000000000000000e+00,-1.941238212585449219e+01,-6.315037727355957031e+00,5.038065338134765625e+01,9.409568023681640625e+01,8.463764953613281250e+01,1.370006561279296875e+02,3.259210824966430664e+00,-3.329871749877929688e+01,-1.847533874511718750e+02,3.696288681030273438e+01,2.141115951538085938e+01,3.269697189331054688e+01
1.514109969139099121e-01,2.000000000000000000e+00,-1.945059013366699219e+01,-6.288198471069335938e+00,5.035273742675781250e+01,9.409989166259765625e+01,8.463754272460937500e+01,1.369957122802734375e+02,3.228943347930908203e+00,-3.329574203491210938e+01,-1.847495117187500000e+02,3.695987319946289062e+01,2.141844558715820312e+01,3.269609451293945312e+01
1.529639959335327148e-01,2.000000000000000000e+00,-1.945059013366699219e+01,-6.288198471069335938e+00,5.035273742675781250e+01,9.409989166259765625e+01,8.463754272460937500e+01,1.369957122802734375e+02,3.228943347930908203e+00,-3.329574203491210938e+01,-1.847495117187500000e+02,3.695987319946289062e+01,2.141844558715820312e+01,3.269609451293945312e+01
1.555590033531188965e-01,2.000000000000000000e+00,-1.945059013366699219e+01,-6.288198471069335938e+00,5.035273742675781250e+01,9.409989166259765625e+01,8.463754272460937500e+01,1.369957122802734375e+02,3.208289146423339844e+00,-3.329367828369140625e+01,-1.847475128173828125e+02,3.695822143554687500e+01,2.142340087890625000e+01,3.269642257690429688e+01
1.568759977817535400e-01,2.000000000000000000e+00,-1.947387123107910156e+01,-6.271904945373535156e+00,5.033462142944335938e+01,9.410252380371093750e+01,8.463764953613281250e+01,1.369923248291015625e+02,3.208289146423339844e+00,-3.329367828369140625e+01,-1.847475128173828125e+02,3.695822143554687500e+01,2.142340087890625000e+01,3.269642257690429688e+01
1.610109955072402954e-01,2.000000000000000000e+00,-1.949999427795410156e+01,-6.253823757171630859e+00,5.031351852416992188e+01,9.410589599609375000e+01,8.463743591308593750e+01,1.369879150390625000e+02,3.184448719024658203e+00,-3.329097747802734375e+01,-1.847454986572265625e+02,3.695735931396484375e+01,2.142952156066894531e+01,3.269587326049804688e+01
1.635909974575042725e-01,2.000000000000000000e+00,-1.949999427795410156e+01,-6.253823757171630859e+00,5.031351852416992188e+01,9.410589599609375000e+01,8.463743591308593750e+01,1.369879150390625000e+02,3.157642126083374023e+00,-3.328786468505859375e+01,-1.847431640625000000e+02,3.695628356933593750e+01,2.143717193603515625e+01,3.269554519653320312e+01
1.674519926309585571e-01,2.000000000000000000e+00,-1.952875900268554688e+01,-6.234090328216552734e+00,5.028977203369140625e+01,9.410952758789062500e+01,8.463743591308593750e+01,1.369825592041015625e+02,3.157642126083374023e+00,-3.328786468505859375e+01,-1.847431640625000000e+02,3.695628356933593750e+01,2.143717193603515625e+01,3.269554519653320312e+01
1.688009947538375854e-01,2.000000000000000000e+00,-1.956002044677734375e+01,-6.212456226348876953e+00,5.026315689086914062e+01,9.411384582519531250e+01,8.463743591308593750e+01,1.369765930175781250e+02,3.127264976501464844e+00,-3.328424835205078125e+01,-1.847407073974609375e+02,3.695520401000976562e+01,2.144569587707519531e+01,3.269477844238281250e+01
1.701190024614334106e-01,2.000000000000000000e+00,-1.956002044677734375e+01,-6.212456226348876953e+00,5.026315689086914062e+01,9.411384582519531250e+01,8.463743591308593750e+01,1.369765930175781250e+02,3.127264976501464844e+00,-3.328424835205078125e+01,-1.847407073974609375e+02,3.695520401000976562e+01,2.144569587707519531e+01,3.269477844238281250e+01
1.779689937829971313e-01,2.000000000000000000e+00,-1.962857246398925781e+01,-6.164480686187744141e+00,5.020205688476562500e+01,9.412401580810546875e+01,8.463732910156250000e+01,1.369628143310546875e+02,3.054919958114624023e+00,-3.327541351318359375e+01,-1.847347717285156250e+02,3.695319366455078125e+01,2.146711730957031250e+01,3.269389724731445312e+01
1.805730015039443970e-01,2.000000000000000000e+00,-1.966612052917480469e+01,-6.137913227081298828e+00,5.016806411743164062e+01,9.412975311279296875e+01,8.463732910156250000e+01,1.369548797607421875e+02,3.013666152954101562e+00,-3.327033233642578125e+01,-1.847312469482421875e+02,3.695211791992187500e+01,2.147965049743652344e+01,3.269279861450195312e+01
1.819159984588623047e-01,2.000000000000000000e+00,-1.966612052917480469e+01,-6.137913227081298828e+00,5.016806411743164062e+01,9.412975311279296875e+01,8.463732910156250000e+01,1.369548797607421875e+02,3.013666152954101562e+00,-3.327033233642578125e+01,-1.847312469482421875e+02,3.695211791992187500e+01,2.147965049743652344e+01,3.269279861450195312e+01
1.847050040960311890e-01,2.000000000000000000e+00,-1.970610809326171875e+01,-6.109557628631591797e+00,5.013173294067382812e+01,9.413571166992187500e+01,8.463722229003906250e+01,1.369459381103515625e+02,2.969995498657226562e+00,-3.326534271240234375e+01,-1.847278289794921875e+02,3.695104217529296875e+01,2.149210929870605469e+01,3.269191741943359375e+01
1.884160041809082031e-01,2.000000000000000000e+00,-1.974856758117675781e+01,-6.079347133636474609e+00,5.009330368041992188e+01,9.414224243164062500e+01,8.463711547851562500e+01,1.369367218017578125e+02,2.923852920532226562e+00,-3.325989532470703125e+01,-1.847241210937500000e+02,3.694981765747070312e+01,2.150602531433105469e+01,3.269115066528320312e+01
1.896869987249374390e-01,2.000000000000000000e+00,-1.974856758117675781e+01,-6.079347133636474609e+00,5.009330368041992188e+01,9.414224243164062500e+01,8.463711547851562500e+01,1.369367218017578125e+02,2.923852920532226562e+00,-3.325989532470703125e+01,-1.847241210937500000e+02,3.694981765747070312e+01,2.150602531433105469e+01,3.269115066528320312e+01
1.933490037918090820e-01,2.000000000000000000e+00,-1.979303359985351562e+01,-6.047461509704589844e+00,5.005315017700195312e+01,9.414903259277343750e+01,8.463700866699218750e+01,1.369274291992187500e+02,2.875513076782226562e+00,-3.325417709350585938e+01,-1.847205352783203125e+02,3.694874191284179688e+01,2.152059745788574219e+01,3.268972396850585938e+01
1.958539932966232300e-01,2.000000000000000000e+00,-1.983930969238281250e+01,-6.014263153076171875e+00,5.001169586181640625e+01,9.415572357177734375e+01,8.463674163818359375e+01,1.369175872802734375e+02,2.826129436492919922e+00,-3.324831771850585938e+01,-1.847165069580078125e+02,3.694766616821289062e+01,2.153524398803710938e+01,3.268785476684570312e+01
2.004680037498474121e-01,2.000000000000000000e+00,-1.983930969238281250e+01,-6.014263153076171875e+00,5.001169586181640625e+01,9.415572357177734375e+01,8.463674163818359375e+01,1.369175872802734375e+02,2.826129436492919922e+00,-3.324831771850585938e+01,-1.847165069580078125e+02,3.694766616821289062e+01,2.153524398803710938e+01,3.268785476684570312e+01
2.019100040197372437e-01,2.000000000000000000e+00,-1.988699150085449219e+01,-5.979730129241943359e+00,4.996879196166992188e+01,9.416283416748046875e+01,8.463652801513671875e+01,1.369071350097656250e+02,2.775976896286010742e+00,-3.324236297607421875e+01,-1.847127532958984375e+02,3.694680404663085938e+01,2.155054473876953125e+01,3.268609619140625000e+01
2.045380026102066040e-01,2.000000000000000000e+00,-1.993605041503906250e+01,-5.944155693054199219e+00,4.992514038085937500e+01,9.417010498046875000e+01,8.463642120361328125e+01,1.368967742919921875e+02,2.724396228790283203e+00,-3.323622894287109375e+01,-1.847085571289062500e+02,3.694551086425781250e+01,2.156642913818359375e+01,3.268389892578125000e+01
2.059230059385299683e-01,2.000000000000000000e+00,-1.993605041503906250e+01,-5.944155693054199219e+00,4.992514038085937500e+01,9.417010498046875000e+01,8.463642120361328125e+01,1.368967742919921875e+02,2.724396228790283203e+00,-3.323622894287109375e+01,-1.847085571289062500e+02,3.694551086425781250e+01,2.156642913818359375e+01,3.268389892578125000e+01
2.100069969892501831e-01,2.000000000000000000e+00,-1.998628807067871094e+01,-5.907699108123779297e+00,4.988071441650390625e+01,9.417742919921875000e+01,8.463610839843750000e+01,1.368857879638671875e+02,2.671551942825317383e+00,-3.322986602783203125e+01,-1.847044982910156250e+02,3.694443511962890625e+01,2.158165550231933594e+01,3.268203353881835938e+01
2.124429941177368164e-01,2.000000000000000000e+00,-2.003810310363769531e+01,-5.870450496673583984e+00,4.983572006225585938e+01,9.418490600585937500e+01,8.463562011718750000e+01,1.368749237060546875e+02,2.618213176727294922e+00,-3.322354888916015625e+01,-1.847001342773437500e+02,3.694321441650390625e+01,2.159761428833007812e+01,3.267917633056640625e+01
2.177810072898864746e-01,2.000000000000000000e+00,-2.003810310363769531e+01,-5.870450496673583984e+00,4.983572006225585938e+01,9.418490600585937500e+01,8.463562011718750000e+01,1.368749237060546875e+02,2.618213176727294922e+00,-3.322354888916015625e+01,-1.847001342773437500e+02,3.694321441650390625e+01,2.159761428833007812e+01,3.267917633056640625e+01
2.203440070152282715e-01,2.000000000000000000e+00,-2.014414787292480469e+01,-5.794640064239501953e+00,4.974467468261718750e+01,9.420023345947265625e+01,8.463476562500000000e+01,1.368529663085937500e+02,2.511151552200317383e+00,-3.321114730834960938e+01,-1.846917572021484375e+02,3.694120025634765625e+01,2.163193130493164062e+01,3.267423248291015625e+01
2.248670011758804321e-01,2.000000000000000000e+00,-2.014414787292480469e+01,-5.794640064239501953e+00,4.974467468261718750e+01,9.420023345947265625e+01,8.463476562500000000e+01,1.368529663085937500e+02,2.511151552200317383e+00,-3.321114730834960938e+01,-1.846917572021484375e+02,3.694120025634765625e+01,2.163193130493164062e+01,3.267423248291015625e+01
2.281019985675811768e-01,2.000000000000000000e+00,-2.019840240478515625e+01,-5.756124019622802734e+00,4.969878768920898438e+01,9.420803070068359375e+01,8.463429260253906250e+01,1.368420562744140625e+02,2.457812786102294922e+00,-3.320478439331054688e+01,-1.846874694824218750e+02,3.694019699096679688e+01,2.164832496643066406e+01,3.267148590087890625e+01
2.322320044040679932e-01,2.000000000000000000e+00,-2.025326156616210938e+01,-5.717313766479492188e+00,4.965287780761718750e+01,9.421577453613281250e+01,8.463386535644531250e+01,1.368311157226562500e+02,2.404474496841430664e+00,-3.319841766357421875e+01,-1.846828918457031250e+02,3.693912124633789062e+01,2.166464614868164062e+01,3.266807937622070312e+01
2.360170036554336548e-01,2.000000000000000000e+00,-2.030803489685058594e+01,-5.678593635559082031e+00,4.960717010498046875e+01,9.422367858886718750e+01,8.463317108154296875e+01,1.368206176757812500e+02,2.350806236267089844e+00,-3.319219207763671875e+01,-1.846785430908203125e+02,3.693804168701171875e+01,2.168125915527343750e+01,3.266555023193359375e+01
2.399660050868988037e-01,2.000000000000000000e+00,-2.036320877075195312e+01,-5.639896392822265625e+00,4.956144332885742188e+01,9.423162841796875000e+01,8.463274383544921875e+01,1.368102416992187500e+02,2.297632217407226562e+00,-3.318592071533203125e+01,-1.846743621826171875e+02,3.693696594238281250e+01,2.169816398620605469e+01,3.266225433349609375e+01
2.439559996128082275e-01,2.000000000000000000e+00,-2.041809654235839844e+01,-5.601131916046142578e+00,4.951581954956054688e+01,9.423942565917968750e+01,8.463231658935546875e+01,1.367997283935546875e+02,2.243854284286499023e+00,-3.317937469482421875e+01,-1.846701202392578125e+02,3.693603134155273438e+01,2.171514129638671875e+01,3.265863037109375000e+01
2.491389960050582886e-01,2.000000000000000000e+00,-2.047303962707519531e+01,-5.562434196472167969e+00,4.947003173828125000e+01,9.424706268310546875e+01,8.463162231445312500e+01,1.367893524169921875e+02,2.189636468887329102e+00,-3.317274093627929688e+01,-1.846658782958984375e+02,3.693502807617187500e+01,2.173153495788574219e+01,3.265555572509765625e+01
2.522180080413818359e-01,2.000000000000000000e+00,-2.052812957763671875e+01,-5.523850440979003906e+00,4.942414474487304688e+01,9.425491333007812500e+01,8.463119506835937500e+01,1.367789764404296875e+02,2.135968446731567383e+00,-3.316632843017578125e+01,-1.846617279052734375e+02,3.693395233154296875e+01,2.174785614013671875e+01,3.265247726440429688e+01
2.560409903526306152e-01,2.000000000000000000e+00,-2.058275794982910156e+01,-5.485266685485839844e+00,4.937847900390625000e+01,9.426233673095703125e+01,8.463050842285156250e+01,1.367686614990234375e+02,2.082520008087158203e+00,-3.316006088256835938e+01,-1.846573944091796875e+02,3.693287277221679688e+01,2.176476097106933594e+01,3.264885330200195312e+01
2.602109909057617188e-01,2.000000000000000000e+00,-2.063735961914062500e+01,-5.446659564971923828e+00,4.933263015747070312e+01,9.426981353759765625e+01,8.462997436523437500e+01,1.367580718994140625e+02,2.029566049575805664e+00,-3.315364837646484375e+01,-1.846533050537109375e+02,3.693165206909179688e+01,2.178129959106445312e+01,3.264522933959960938e+01
2.639189958572387695e-01,2.000000000000000000e+00,-2.069172859191894531e+01,-5.408438205718994141e+00,4.928682327270507812e+01,9.427724456787109375e+01,8.462949371337890625e+01,1.367475738525390625e+02,1.976776480674743652e+00,-3.314724349975585938e+01,-1.846489562988281250e+02,3.693072128295898438e+01,2.179732894897460938e+01,3.264138031005859375e+01
2.682889997959136963e-01,2.000000000000000000e+00,-2.074595642089843750e+01,-5.369966983795166016e+00,4.924079132080078125e+01,9.428482818603515625e+01,8.462885284423828125e+01,1.367370605468750000e+02,1.923273086547851562e+00,-3.314083480834960938e+01,-1.846446533203125000e+02,3.692964172363281250e+01,2.181394004821777344e+01,3.263797760009765625e+01
2.709299921989440918e-01,2.000000000000000000e+00,-2.080009651184082031e+01,-5.331563949584960938e+00,4.919474029541015625e+01,9.429241180419921875e+01,8.462831878662109375e+01,1.367264862060546875e+02,1.869385242462158203e+00,-3.313433456420898438e+01,-1.846400909423828125e+02,3.692877960205078125e+01,2.183091735839843750e+01,3.263468170166015625e+01
2.749089896678924561e-01,2.000000000000000000e+00,-2.085438156127929688e+01,-5.293160915374755859e+00,4.914862823486328125e+01,9.429973602294921875e+01,8.462773132324218750e+01,1.367156982421875000e+02,1.815936684608459473e+00,-3.312783050537109375e+01,-1.846358489990234375e+02,3.692770004272460938e+01,2.184731101989746094e+01,3.263127517700195312e+01
2.789280116558074951e-01,2.000000000000000000e+00,-2.090855216979980469e+01,-5.254939079284667969e+00,4.910243606567382812e+01,9.430710601806640625e+01,8.462719726562500000e+01,1.367048492431640625e+02,1.762982606887817383e+00,-3.312119674682617188e+01,-1.846313934326171875e+02,3.692662429809570312e+01,2.186421585083007812e+01,3.262797927856445312e+01
2.829580008983612061e-01,2.000000000000000000e+00,-2.096252059936523438e+01,-5.216739654541015625e+00,4.905658340454101562e+01,9.431479644775390625e+01,8.462655639648437500e+01,1.366937866210937500e+02,1.710358142852783203e+00,-3.311483001708984375e+01,-1.846271972656250000e+02,3.692562103271484375e+01,2.188126564025878906e+01,3.262435531616210938e+01
2.868979871273040771e-01,2.000000000000000000e+00,-2.101651763916015625e+01,-5.178472518920898438e+00,4.901081848144531250e+01,9.432238769531250000e+01,8.462596893310546875e+01,1.366827392578125000e+02,1.657788515090942383e+00,-3.310860443115234375e+01,-1.846228637695312500e+02,3.692454147338867188e+01,2.189831542968750000e+01,3.262094497680664062e+01
2.932780086994171143e-01,2.000000000000000000e+00,-2.107085990905761719e+01,-5.140227794647216797e+00,4.896478652954101562e+01,9.433002471923828125e+01,8.462543487548828125e+01,1.366717529296875000e+02,1.604559779167175293e+00,-3.310242843627929688e+01,-1.846186065673828125e+02,3.692346572875976562e+01,2.191551017761230469e+01,3.261764907836914062e+01
2.949059903621673584e-01,2.000000000000000000e+00,-2.112531661987304688e+01,-5.101961135864257812e+00,4.891896057128906250e+01,9.433771514892578125e+01,8.462474822998046875e+01,1.366607666015625000e+02,1.550891637802124023e+00,-3.309620285034179688e+01,-1.846144866943359375e+02,3.692238998413085938e+01,2.193219757080078125e+01,3.261402893066406250e+01
2.989229857921600342e-01,2.000000000000000000e+00,-2.117983055114746094e+01,-5.063444614410400391e+00,4.887321472167968750e+01,9.434529876708984375e+01,8.462421417236328125e+01,1.366501922607421875e+02,1.497772693634033203e+00,-3.308993148803710938e+01,-1.846102294921875000e+02,3.692131042480468750e+01,2.194953727722167969e+01,3.261040115356445312e+01
3.029739856719970703e-01,2.000000000000000000e+00,-2.123451614379882812e+01,-5.025177478790283203e+00,4.882752609252929688e+01,9.435319519042968750e+01,8.462357330322265625e+01,1.366394805908203125e+02,1.444928407669067383e+00,-3.308356475830078125e+01,-1.846060943603515625e+02,3.692030715942382812e+01,2.196716880798339844e+01,3.260699462890625000e+01
3.069080114364624023e-01,2.000000000000000000e+00,-2.128906059265136719e+01,-4.986910343170166016e+00,4.878192138671875000e+01,9.436109924316406250e+01,8.462294006347656250e+01,1.366289672851562500e+02,1.392139077186584473e+00,-3.307697296142578125e+01,-1.846015930175781250e+02,3.691901397705078125e+01,2.198400115966796875e+01,3.260337066650390625e+01
3.109189867973327637e-01,2.000000000000000000e+00,-2.134383201599121094e+01,-4.948484420776367188e+00,4.873621749877929688e+01,9.436905670166015625e+01,8.462235260009765625e+01,1.366183929443359375e+02,1.339569449424743652e+00,-3.307042694091796875e+01,-1.845971679687500000e+02,3.691815185546875000e+01,2.200061416625976562e+01,3.259996414184570312e+01
3.150390088558197021e-01,2.000000000000000000e+00,-2.139863395690917969e+01,-4.909945964813232422e+00,4.869047164916992188e+01,9.437685394287109375e+01,8.462170410156250000e+01,1.366078643798828125e+02,1.287219762802124023e+00,-3.306415557861328125e+01,-1.845926666259765625e+02,3.691707611083984375e+01,2.201751708984375000e+01,3.259754562377929688e+01
3.188999891281127930e-01,2.000000000000000000e+00,-2.145346450805664062e+01,-4.871452331542968750e+00,4.864470291137695312e+01,9.438485717773437500e+01,8.462106323242187500e+01,1.365975036621093750e+02,1.234320521354675293e+00,-3.305802536010742188e+01,-1.845881652832031250e+02,3.691585540771484375e+01,2.203471374511718750e+01,3.259447097778320312e+01
3.229089975357055664e-01,2.000000000000000000e+00,-2.150815200805664062e+01,-4.832755088806152344e+00,4.859875488281250000e+01,9.439276123046875000e+01,8.462026977539062500e+01,1.365870513916015625e+02,1.180981874465942383e+00,-3.305170440673828125e+01,-1.845836944580078125e+02,3.691477966308593750e+01,2.205205535888671875e+01,3.259073638916015625e+01
3.270559906959533691e-01,2.000000000000000000e+00,-2.156280899047851562e+01,-4.794216632843017578e+00,4.855296707153320312e+01,9.440033721923828125e+01,8.461984252929687500e+01,1.365768737792968750e+02,1.127862930297851562e+00,-3.304520797729492188e+01,-1.845796051025390625e+02,3.691391372680664062e+01,2.206844902038574219e+01,3.258765792846679688e+01
3.330009877681732178e-01,2.000000000000000000e+00,-2.161752319335937500e+01,-4.755564689636230469e+00,4.850708007812500000e+01,9.440798187255859375e+01,8.461909484863281250e+01,1.365662994384765625e+02,1.074524402618408203e+00,-3.303893280029296875e+01,-1.845754241943359375e+02,3.691283798217773438e+01,2.208491516113281250e+01,3.258458328247070312e+01
3.349840044975280762e-01,2.000000000000000000e+00,-2.167209434509277344e+01,-4.717048645019531250e+00,4.846117019653320312e+01,9.441535186767578125e+01,8.461866760253906250e+01,1.365556488037109375e+02,1.021185755729675293e+00,-3.303275680541992188e+01,-1.845708465576171875e+02,3.691162109375000000e+01,2.210196495056152344e+01,3.258150482177734375e+01
3.407909870147705078e-01,2.000000000000000000e+00,-2.172646713256835938e+01,-4.678328514099121094e+00,4.841527938842773438e+01,9.442288208007812500e+01,8.461786651611328125e+01,1.365454101562500000e+02,9.682865738868713379e-01,-3.302639389038085938e+01,-1.845666656494140625e+02,3.691061401367187500e+01,2.211915969848632812e+01,3.257820892333984375e+01
3.434639871120452881e-01,2.000000000000000000e+00,-2.178115272521972656e+01,-4.639472961425781250e+00,4.836941146850585938e+01,9.443010711669921875e+01,8.461734008789062500e+01,1.365348205566406250e+02,9.152774810791015625e-01,-3.302016830444335938e+01,-1.845622100830078125e+02,3.690953826904296875e+01,2.213606452941894531e+01,3.257458496093750000e+01
3.489750027656555176e-01,2.000000000000000000e+00,-2.183583831787109375e+01,-4.601002216339111328e+00,4.832366561889648438e+01,9.443774414062500000e+01,8.461680603027343750e+01,1.365242614746093750e+02,8.621585965156555176e-01,-3.301389312744140625e+01,-1.845576477050781250e+02,3.690867614746093750e+01,2.215238571166992188e+01,3.257096099853515625e+01
3.529860079288482666e-01,2.000000000000000000e+00,-2.189038276672363281e+01,-4.562440872192382812e+00,4.827809906005859375e+01,9.444500732421875000e+01,8.461616516113281250e+01,1.365133361816406250e+02,8.089298605918884277e-01,-3.300753021240234375e+01,-1.845531311035156250e+02,3.690745162963867188e+01,2.216870689392089844e+01,3.256788253784179688e+01
3.549450039863586426e-01,2.000000000000000000e+00,-2.194506835937500000e+01,-4.523924827575683594e+00,4.823247909545898438e+01,9.445233154296875000e+01,8.461552429199218750e+01,1.365024871826171875e+02,7.556461691856384277e-01,-3.300126266479492188e+01,-1.845488281250000000e+02,3.690637588500976562e+01,2.218531799316406250e+01,3.256480789184570312e+01
3.589099943637847900e-01,2.000000000000000000e+00,-2.199955368041992188e+01,-4.485476493835449219e+00,4.818695449829101562e+01,9.445959472656250000e+01,8.461488342285156250e+01,1.364917755126953125e+02,7.023624777793884277e-01,-3.299494171142578125e+01,-1.845442657470703125e+02,3.690530014038085938e+01,2.220324325561523438e+01,3.256118392944335938e+01
3.629209995269775391e-01,2.000000000000000000e+00,-2.205395317077636719e+01,-4.447005748748779297e+00,4.814141082763671875e+01,9.446718597412109375e+01,8.461429595947265625e+01,1.364807128906250000e+02,6.495732069015502930e-01,-3.298867416381835938e+01,-1.845399627685546875e+02,3.690429306030273438e+01,2.222007369995117188e+01,3.255777740478515625e+01
3.734939992427825928e-01,2.000000000000000000e+00,-2.210866928100585938e+01,-4.408580303192138672e+00,4.809570693969726562e+01,9.447476959228515625e+01,8.461376190185546875e+01,1.364700622558593750e+02,5.969486832618713379e-01,-3.298239898681640625e+01,-1.845358886718750000e+02,3.690321731567382812e+01,2.223603057861328125e+01,3.255469894409179688e+01
3.748849928379058838e-01,2.000000000000000000e+00,-2.221761131286621094e+01,-4.331909656524658203e+00,4.800463867187500000e+01,9.448994445800781250e+01,8.461248779296875000e+01,1.364493103027343750e+02,4.902164936065673828e-01,-3.296949005126953125e+01,-1.845272827148437500e+02,3.690092086791992188e+01,2.227020263671875000e+01,3.254766845703125000e+01
3.776730000972747803e-01,2.000000000000000000e+00,-2.227209663391113281e+01,-4.293756008148193359e+00,4.795893096923828125e+01,9.449789428710937500e+01,8.461195373535156250e+01,1.364389495849609375e+02,4.368229508399963379e-01,-3.296299362182617188e+01,-1.845229949951171875e+02,3.689991378784179688e+01,2.228776359558105469e+01,3.254437255859375000e+01
3.810999989509582520e-01,2.000000000000000000e+00,-2.227209663391113281e+01,-4.293756008148193359e+00,4.795893096923828125e+01,9.449789428710937500e+01,8.461195373535156250e+01,1.364389495849609375e+02,4.368229508399963379e-01,-3.296299362182617188e+01,-1.845229949951171875e+02,3.689991378784179688e+01,2.228776359558105469e+01,3.254437255859375000e+01
3.829819858074188232e-01,2.000000000000000000e+00,-2.232646751403808594e+01,-4.255398273468017578e+00,4.791316604614257812e+01,9.450563812255859375e+01,8.461141204833984375e+01,1.364284210205078125e+02,3.835941851139068604e-01,-3.295649337768554688e+01,-1.845185852050781250e+02,3.689869308471679688e+01,2.230401229858398438e+01,3.254096984863281250e+01
3.869389891624450684e-01,2.000000000000000000e+00,-2.238069534301757812e+01,-4.217311859130859375e+00,4.786734008789062500e+01,9.451364898681640625e+01,8.461087799072265625e+01,1.364181823730468750e+02,3.309696614742279053e-01,-3.295017623901367188e+01,-1.845140228271484375e+02,3.689783477783203125e+01,2.232033348083496094e+01,3.253789138793945312e+01
3.941029906272888184e-01,2.000000000000000000e+00,-2.243489456176757812e+01,-4.179180622100830078e+00,4.782159042358398438e+01,9.452175903320312500e+01,8.461035156250000000e+01,1.364080810546875000e+02,2.782902121543884277e-01,-3.294390106201171875e+01,-1.845096740722656250e+02,3.689675521850585938e+01,2.233803749084472656e+01,3.253459548950195312e+01
3.955770134925842285e-01,2.000000000000000000e+00,-2.248909187316894531e+01,-4.141048908233642578e+00,4.777566146850585938e+01,9.452944183349609375e+01,8.460981750488281250e+01,1.363979034423828125e+02,2.255558520555496216e-01,-3.293772506713867188e+01,-1.845049896240234375e+02,3.689553451538085938e+01,2.235603332519531250e+01,3.253063964843750000e+01
3.995490074157714844e-01,2.000000000000000000e+00,-2.254308891296386719e+01,-4.102691650390625000e+00,4.772993469238281250e+01,9.453692626953125000e+01,8.460918426513671875e+01,1.363874664306640625e+02,1.733158528804779053e-01,-3.293144989013671875e+01,-1.845005798339843750e+02,3.689431381225585938e+01,2.237293815612792969e+01,3.252734375000000000e+01
4.039849936962127686e-01,2.000000000000000000e+00,-2.259702873229980469e+01,-4.064537048339843750e+00,4.768449401855468750e+01,9.454477691650390625e+01,8.460865020751953125e+01,1.363771667480468750e+02,1.209660023450851440e-01,-3.292504501342773438e+01,-1.844965057373046875e+02,3.689323806762695312e+01,2.238896751403808594e+01,3.252426910400390625e+01
4.069850146770477295e-01,2.000000000000000000e+00,-2.265099716186523438e+01,-4.026405811309814453e+00,4.763878631591796875e+01,9.455230712890625000e+01,8.460810852050781250e+01,1.363667755126953125e+02,6.784710288047790527e-02,-3.291868209838867188e+01,-1.844923706054687500e+02,3.689223098754882812e+01,2.240550804138183594e+01,3.252086257934570312e+01
4.134629964828491211e-01,2.000000000000000000e+00,-2.265099716186523438e+01,-4.026405811309814453e+00,4.763878631591796875e+01,9.455230712890625000e+01,8.460810852050781250e+01,1.363667755126953125e+02,1.467327401041984558e-02,-3.291240692138671875e+01,-1.844880218505859375e+02,3.689101028442382812e+01,2.242292213439941406e+01,3.251668548583984375e+01
4.159690141677856445e-01,2.000000000000000000e+00,-2.275933837890625000e+01,-3.949803590774536133e+00,4.754776000976562500e+01,9.456684875488281250e+01,8.460694122314453125e+01,1.363456878662109375e+02,-3.828082606196403503e-02,-3.290632247924804688e+01,-1.844834594726562500e+02,3.688993453979492188e+01,2.243997192382812500e+01,3.251361083984375000e+01
4.194650053977966309e-01,2.000000000000000000e+00,-2.281347846984863281e+01,-3.911672353744506836e+00,4.750238037109375000e+01,9.457453918457031250e+01,8.460640716552734375e+01,1.363349151611328125e+02,-9.068561345338821411e-02,-3.289995574951171875e+01,-1.844789428710937500e+02,3.688871002197265625e+01,2.245614814758300781e+01,3.251053619384765625e+01
4.258869886398315430e-01,2.000000000000000000e+00,-2.286790657043457031e+01,-3.873382329940795898e+00,4.745700073242187500e+01,9.458185577392578125e+01,8.460597991943359375e+01,1.363241271972656250e+02,-1.427058726549148560e-01,-3.289377975463867188e+01,-1.844741973876953125e+02,3.688770675659179688e+01,2.247268676757812500e+01,3.250724029541015625e+01
4.279009997844696045e-01,2.000000000000000000e+00,-2.292227745056152344e+01,-3.834888696670532227e+00,4.741147994995117188e+01,9.458927917480468750e+01,8.460544586181640625e+01,1.363134002685546875e+02,-1.955501139163970947e-01,-3.288745880126953125e+01,-1.844698638916015625e+02,3.688648605346679688e+01,2.248988151550292969e+01,3.250383377075195312e+01
4.309040009975433350e-01,2.000000000000000000e+00,-2.297653388977050781e+01,-3.796734809875488281e+00,4.736599731445312500e+01,9.459638977050781250e+01,8.460491180419921875e+01,1.363023529052734375e+02,-2.485591471195220947e-01,-3.288114166259765625e+01,-1.844656066894531250e+02,3.688526535034179688e+01,2.250715065002441406e+01,3.250108718872070312e+01
4.360719919204711914e-01,2.000000000000000000e+00,-2.297653388977050781e+01,-3.796734809875488281e+00,4.736599731445312500e+01,9.459638977050781250e+01,8.460491180419921875e+01,1.363023529052734375e+02,-2.485591471195220947e-01,-3.288114166259765625e+01,-1.844656066894531250e+02,3.688526535034179688e+01,2.250715065002441406e+01,3.250108718872070312e+01
4.388929903507232666e-01,2.000000000000000000e+00,-2.308530426025390625e+01,-3.719748020172119141e+00,4.727486801147460938e+01,9.461135864257812500e+01,8.460373687744140625e+01,1.362809906005859375e+02,-3.537532389163970947e-01,-3.286828231811523438e+01,-1.844572906494140625e+02,3.688303756713867188e+01,2.254088592529296875e+01,3.249438476562500000e+01
4.439510107040405273e-01,2.000000000000000000e+00,-2.308530426025390625e+01,-3.719748020172119141e+00,4.727486801147460938e+01,9.461135864257812500e+01,8.460373687744140625e+01,1.362809906005859375e+02,-3.537532389163970947e-01,-3.286828231811523438e+01,-1.844572906494140625e+02,3.688303756713867188e+01,2.254088592529296875e+01,3.249438476562500000e+01
4.481880068778991699e-01,2.000000000000000000e+00,-2.319395828247070312e+01,-3.643032550811767578e+00,4.718368148803710938e+01,9.462652587890625000e+01,8.460256958007812500e+01,1.362599639892578125e+02,-4.588924050331115723e-01,-3.285569381713867188e+01,-1.844482574462890625e+02,3.688059616088867188e+01,2.257469367980957031e+01,3.248724365234375000e+01
4.509769976139068604e-01,2.000000000000000000e+00,-2.324832916259765625e+01,-3.604674577713012695e+00,4.713807678222656250e+01,9.463416290283203125e+01,8.460214233398437500e+01,1.362496643066406250e+02,-5.109675526618957520e-01,-3.284951019287109375e+01,-1.844435424804687500e+02,3.687923431396484375e+01,2.259137916564941406e+01,3.248438644409179688e+01
4.560280144214630127e-01,2.000000000000000000e+00,-2.324832916259765625e+01,-3.604674577713012695e+00,4.713807678222656250e+01,9.463416290283203125e+01,8.460214233398437500e+01,1.362496643066406250e+02,-5.109675526618957520e-01,-3.284951019287109375e+01,-1.844435424804687500e+02,3.687923431396484375e+01,2.259137916564941406e+01,3.248438644409179688e+01
4.588930010795593262e-01,2.000000000000000000e+00,-2.335695648193359375e+01,-3.527959346771240234e+00,4.704690933227539062e+01,9.464975738525390625e+01,8.460091400146484375e+01,1.362290344238281250e+02,-6.164363622665405273e-01,-3.283710861206054688e+01,-1.844346771240234375e+02,3.687700653076171875e+01,2.262518692016601562e+01,3.247801589965820312e+01
4.639489948749542236e-01,2.000000000000000000e+00,-2.335695648193359375e+01,-3.527959346771240234e+00,4.704690933227539062e+01,9.464975738525390625e+01,8.460091400146484375e+01,1.362290344238281250e+02,-6.164363622665405273e-01,-3.283710861206054688e+01,-1.844346771240234375e+02,3.687700653076171875e+01,2.262518692016601562e+01,3.247801589965820312e+01
4.674740135669708252e-01,2.000000000000000000e+00,-2.346506500244140625e+01,-3.451447486877441406e+00,4.695612716674804688e+01,9.466566467285156250e+01,8.459985351562500000e+01,1.362086334228515625e+02,-7.226191759109497070e-01,-3.282447052001953125e+01,-1.844259643554687500e+02,3.687456512451171875e+01,2.265790367126464844e+01,3.247197341918945312e+01
4.746679961681365967e-01,2.000000000000000000e+00,-2.346506500244140625e+01,-3.451447486877441406e+00,4.695612716674804688e+01,9.466566467285156250e+01,8.459985351562500000e+01,1.362086334228515625e+02,-7.753536105155944824e-01,-3.281820297241210938e+01,-1.844217834472656250e+02,3.687356185913085938e+01,2.267524337768554688e+01,3.246911621093750000e+01
4.760780036449432373e-01,2.000000000000000000e+00,-2.357323455810546875e+01,-3.375162124633789062e+00,4.686550903320312500e+01,9.468099212646484375e+01,8.459899902343750000e+01,1.361881561279296875e+02,-8.277034759521484375e-01,-3.281201934814453125e+01,-1.844173278808593750e+02,3.687234115600585938e+01,2.269192886352539062e+01,3.246582412719726562e+01
4.789020121097564697e-01,2.000000000000000000e+00,-2.362717247009277344e+01,-3.337007999420166016e+00,4.682031250000000000e+01,9.468846893310546875e+01,8.459835815429687500e+01,1.361779785156250000e+02,-8.800532817840576172e-01,-3.280607223510742188e+01,-1.844129638671875000e+02,3.687097549438476562e+01,2.270803070068359375e+01,3.246274566650390625e+01
4.839470088481903076e-01,2.000000000000000000e+00,-2.362717247009277344e+01,-3.337007999420166016e+00,4.682031250000000000e+01,9.468846893310546875e+01,8.459835815429687500e+01,1.361779785156250000e+02,-8.800532817840576172e-01,-3.280607223510742188e+01,-1.844129638671875000e+02,3.687097549438476562e+01,2.270803070068359375e+01,3.246274566650390625e+01
4.869059920310974121e-01,2.000000000000000000e+00,-2.373522567749023438e+01,-3.260880947113037109e+00,4.672953033447265625e+01,9.470311737060546875e+01,8.459734344482421875e+01,1.361569519042968750e+02,-9.857417941093444824e-01,-3.279357147216796875e+01,-1.844042053222656250e+02,3.686875152587890625e+01,2.274125671386718750e+01,3.245692443847656250e+01
4.919539988040924072e-01,2.000000000000000000e+00,-2.373522567749023438e+01,-3.260880947113037109e+00,4.672953033447265625e+01,9.470311737060546875e+01,8.459734344482421875e+01,1.361569519042968750e+02,-9.857417941093444824e-01,-3.279357147216796875e+01,-1.844042053222656250e+02,3.686875152587890625e+01,2.274125671386718750e+01,3.245692443847656250e+01
4.948909878730773926e-01,2.000000000000000000e+00,-2.384330558776855469e+01,-3.184753894805908203e+00,4.663868713378906250e+01,9.471797180175781250e+01,8.459627532958984375e+01,1.361350555419921875e+02,-1.091320395469665527e+00,-3.278062057495117188e+01,-1.843955688476562500e+02,3.686631011962890625e+01,2.277477264404296875e+01,3.245087814331054688e+01
4.999459981918334961e-01,2.000000000000000000e+00,-2.384330558776855469e+01,-3.184753894805908203e+00,4.663868713378906250e+01,9.471797180175781250e+01,8.459627532958984375e+01,1.361350555419921875e+02,-1.091320395469665527e+00,-3.278062057495117188e+01,-1.843955688476562500e+02,3.686631011962890625e+01,2.277477264404296875e+01,3.245087814331054688e+01
5.029039978981018066e-01,2.000000000000000000e+00,-2.395121574401855469e+01,-3.108672142028808594e+00,4.654759979248046875e+01,9.473260498046875000e+01,8.459516143798828125e+01,1.361138916015625000e+02,-1.196020126342773438e+00,-3.276775360107421875e+01,-1.843867034912109375e+02,3.686393737792968750e+01,2.280755996704101562e+01,3.244505691528320312e+01
5.079529881477355957e-01,2.000000000000000000e+00,-2.395121574401855469e+01,-3.108672142028808594e+00,4.654759979248046875e+01,9.473260498046875000e+01,8.459516143798828125e+01,1.361138916015625000e+02,-1.196020126342773438e+00,-3.276775360107421875e+01,-1.843867034912109375e+02,3.686393737792968750e+01,2.280755996704101562e+01,3.244505691528320312e+01
5.109000205993652344e-01,2.000000000000000000e+00,-2.405900955200195312e+01,-3.032771348953247070e+00,4.645673751831054688e+01,9.474709320068359375e+01,8.459409332275390625e+01,1.360926055908203125e+02,-1.300939559936523438e+00,-3.275535202026367188e+01,-1.843779449462890625e+02,3.686171340942382812e+01,2.284042167663574219e+01,3.243868637084960938e+01
5.159339904785156250e-01,2.000000000000000000e+00,-2.405900955200195312e+01,-3.032771348953247070e+00,4.645673751831054688e+01,9.474709320068359375e+01,8.459409332275390625e+01,1.360926055908203125e+02,-1.300939559936523438e+00,-3.275535202026367188e+01,-1.843779449462890625e+02,3.686171340942382812e+01,2.284042167663574219e+01,3.243868637084960938e+01
5.200250148773193359e-01,2.000000000000000000e+00,-2.416706275939941406e+01,-2.956531286239624023e+00,4.636605834960937500e+01,9.476210784912109375e+01,8.459307861328125000e+01,1.360719146728515625e+02,-1.406353354454040527e+00,-3.274290084838867188e+01,-1.843692932128906250e+02,3.685920333862304688e+01,2.287291717529296875e+01,3.243297195434570312e+01
5.249350070953369141e-01,2.000000000000000000e+00,-2.422108840942382812e+01,-2.918422460556030273e+00,4.632069778442382812e+01,9.476953887939453125e+01,8.459254455566406250e+01,1.360618743896484375e+02,-1.458758115768432617e+00,-3.273644638061523438e+01,-1.843648376464843750e+02,3.685783386230468750e+01,2.288924026489257812e+01,3.242989730834960938e+01
5.313130021095275879e-01,2.000000000000000000e+00,-2.432925605773925781e+01,-2.842250108718872070e+00,4.623044586181640625e+01,9.478486633300781250e+01,8.459142303466796875e+01,1.360418701171875000e+02,-1.562963366508483887e+00,-3.272399520874023438e+01,-1.843559722900390625e+02,3.685546493530273438e+01,2.292311859130859375e+01,3.242385482788085938e+01
5.325949788093566895e-01,2.000000000000000000e+00,-2.432925605773925781e+01,-2.842250108718872070e+00,4.623044586181640625e+01,9.478486633300781250e+01,8.459142303466796875e+01,1.360418701171875000e+02,-1.562963366508483887e+00,-3.272399520874023438e+01,-1.843559722900390625e+02,3.685546493530273438e+01,2.292311859130859375e+01,3.242385482788085938e+01
5.359629988670349121e-01,2.000000000000000000e+00,-2.438311004638671875e+01,-2.804209232330322266e+00,4.618532943725585938e+01,9.479255676269531250e+01,8.459088897705078125e+01,1.360312957763671875e+02,-1.614818930625915527e+00,-3.271781158447265625e+01,-1.843517303466796875e+02,3.685424804687500000e+01,2.293922233581542969e+01,3.242088699340820312e+01
5.424020290374755859e-01,2.000000000000000000e+00,-2.438311004638671875e+01,-2.804209232330322266e+00,4.618532943725585938e+01,9.479255676269531250e+01,8.459088897705078125e+01,1.360312957763671875e+02,-1.666839122772216797e+00,-3.271163558959960938e+01,-1.843474884033203125e+02,3.685323715209960938e+01,2.295510673522949219e+01,3.241759109497070312e+01
5.439699888229370117e-01,2.000000000000000000e+00,-2.449101829528808594e+01,-2.727991580963134766e+00,4.609515762329101562e+01,9.480793762207031250e+01,8.458988189697265625e+01,1.360113525390625000e+02,-1.719518661499023438e+00,-3.270531463623046875e+01,-1.843429718017578125e+02,3.685202026367187500e+01,2.297200965881347656e+01,3.241429519653320312e+01
5.479769706726074219e-01,2.000000000000000000e+00,-2.449101829528808594e+01,-2.727991580963134766e+00,4.609515762329101562e+01,9.480793762207031250e+01,8.458988189697265625e+01,1.360113525390625000e+02,-1.772307991981506348e+00,-3.269931793212890625e+01,-1.843388366699218750e+02,3.685087203979492188e+01,2.298884010314941406e+01,3.241099929809570312e+01
5.529029965400695801e-01,2.000000000000000000e+00,-2.454496002197265625e+01,-2.690063953399658203e+00,4.604999923706054688e+01,9.481583404541015625e+01,8.458923339843750000e+01,1.360010528564453125e+02,-1.772307991981506348e+00,-3.269931793212890625e+01,-1.843388366699218750e+02,3.685087203979492188e+01,2.298884010314941406e+01,3.241099929809570312e+01
5.555639863014221191e-01,2.000000000000000000e+00,-2.465318298339843750e+01,-2.613597393035888672e+00,4.595942306518554688e+01,9.483095550537109375e+01,8.458822631835937500e+01,1.359804382324218750e+02,-1.877062559127807617e+00,-3.268686676025390625e+01,-1.843296508789062500e+02,3.684835815429687500e+01,2.302214050292968750e+01,3.240528488159179688e+01
5.600129961967468262e-01,2.000000000000000000e+00,-2.465318298339843750e+01,-2.613597393035888672e+00,4.595942306518554688e+01,9.483095550537109375e+01,8.458822631835937500e+01,1.359804382324218750e+02,-1.877062559127807617e+00,-3.268686676025390625e+01,-1.843296508789062500e+02,3.684835815429687500e+01,2.302214050292968750e+01,3.240528488159179688e+01
5.649260282516479492e-01,2.000000000000000000e+00,-2.470718193054199219e+01,-2.575737476348876953e+00,4.591402053833007812e+01,9.483827972412109375e+01,8.458758544921875000e+01,1.359698486328125000e+02,-1.928753256797790527e+00,-3.268059921264648438e+01,-1.843253479003906250e+02,3.684727859497070312e+01,2.303824234008789062e+01,3.240166091918945312e+01
5.676509737968444824e-01,2.000000000000000000e+00,-2.481500244140625000e+01,-2.499565124511718750e+00,4.582362747192382812e+01,9.485302734375000000e+01,8.458668518066406250e+01,1.359486236572265625e+02,-2.033123493194580078e+00,-3.266796112060546875e+01,-1.843165435791015625e+02,3.684476470947265625e+01,2.307226753234863281e+01,3.239517593383789062e+01
5.731999874114990234e-01,2.000000000000000000e+00,-2.481500244140625000e+01,-2.499565124511718750e+00,4.582362747192382812e+01,9.485302734375000000e+01,8.458668518066406250e+01,1.359486236572265625e+02,-2.033123493194580078e+00,-3.266796112060546875e+01,-1.843165435791015625e+02,3.684476470947265625e+01,2.307226753234863281e+01,3.239517593383789062e+01
5.758399963378906250e-01,2.000000000000000000e+00,-2.492276954650878906e+01,-2.423506021499633789e+00,4.573288345336914062e+01,9.486766815185546875e+01,8.458556365966796875e+01,1.359272613525390625e+02,-2.138262510299682617e+00,-3.265542221069335938e+01,-1.843077850341796875e+02,3.684239578247070312e+01,2.310498237609863281e+01,3.238858795166015625e+01
5.799490213394165039e-01,2.000000000000000000e+00,-2.492276954650878906e+01,-2.423506021499633789e+00,4.573288345336914062e+01,9.486766815185546875e+01,8.458556365966796875e+01,1.359272613525390625e+02,-2.138262510299682617e+00,-3.265542221069335938e+01,-1.843077850341796875e+02,3.684239578247070312e+01,2.310498237609863281e+01,3.238858795166015625e+01
5.840449929237365723e-01,2.000000000000000000e+00,-2.497653770446777344e+01,-2.385668754577636719e+00,4.568782806396484375e+01,9.487487792968750000e+01,8.458512878417968750e+01,1.359167480468750000e+02,-2.190667390823364258e+00,-3.264914703369140625e+01,-1.843032684326171875e+02,3.684139251708984375e+01,2.312210655212402344e+01,3.238562393188476562e+01
5.880330204963684082e-01,2.000000000000000000e+00,-2.503033256530761719e+01,-2.347650766372680664e+00,4.564269638061523438e+01,9.488225555419921875e+01,8.458465576171875000e+01,1.359066467285156250e+02,-2.242797374725341797e+00,-3.264301300048828125e+01,-1.842986907958984375e+02,3.684009933471679688e+01,2.313857269287109375e+01,3.238287353515625000e+01
5.910260081291198730e-01,2.000000000000000000e+00,-2.508427238464355469e+01,-2.309903860092163086e+00,4.559759902954101562e+01,9.488957977294921875e+01,8.458412170410156250e+01,1.358962707519531250e+02,-2.294323205947875977e+00,-3.263678741455078125e+01,-1.842944030761718750e+02,3.683909225463867188e+01,2.315569496154785156e+01,3.237936019897460938e+01
5.959360003471374512e-01,2.000000000000000000e+00,-2.513821411132812500e+01,-2.271976232528686523e+00,4.555266189575195312e+01,9.489690399169921875e+01,8.458364105224609375e+01,1.358857574462890625e+02,-2.346178770065307617e+00,-3.263038253784179688e+01,-1.842899322509765625e+02,3.683787536621093750e+01,2.317245292663574219e+01,3.237606430053710938e+01
5.998079776763916016e-01,2.000000000000000000e+00,-2.524586486816406250e+01,-2.196052789688110352e+00,4.546255111694335938e+01,9.491159820556640625e+01,8.458241271972656250e+01,1.358659667968750000e+02,-2.451537609100341797e+00,-3.261770248413085938e+01,-1.842816162109375000e+02,3.683557510375976562e+01,2.320524215698242188e+01,3.236958312988281250e+01
6.051130294799804688e-01,2.000000000000000000e+00,-2.529954719543457031e+01,-2.158260822296142578e+00,4.541753768920898438e+01,9.491939544677734375e+01,8.458199310302734375e+01,1.358558502197265625e+02,-2.504107236862182617e+00,-3.261142730712890625e+01,-1.842773284912109375e+02,3.683420944213867188e+01,2.322141838073730469e+01,3.236639404296875000e+01
6.077950000762939453e-01,2.000000000000000000e+00,-2.535322952270507812e+01,-2.120378255844116211e+00,4.537260437011718750e+01,9.492697906494140625e+01,8.458140563964843750e+01,1.358456726074218750e+02,-2.556457042694091797e+00,-3.260515975952148438e+01,-1.842729187011718750e+02,3.683320617675781250e+01,2.323817443847656250e+01,3.236309814453125000e+01
6.119369864463806152e-01,2.000000000000000000e+00,-2.535322952270507812e+01,-2.120378255844116211e+00,4.537260437011718750e+01,9.492697906494140625e+01,8.458140563964843750e+01,1.358456726074218750e+02,-2.556457042694091797e+00,-3.260515975952148438e+01,-1.842729187011718750e+02,3.683320617675781250e+01,2.323817443847656250e+01,3.236309814453125000e+01
6.159579753875732422e-01,2.000000000000000000e+00,-2.540702438354492188e+01,-2.082495927810668945e+00,4.532761001586914062e+01,9.493461608886718750e+01,8.458097076416015625e+01,1.358362426757812500e+02,-2.608312606811523438e+00,-3.259883880615234375e+01,-1.842686309814453125e+02,3.683220291137695312e+01,2.325486183166503906e+01,3.235958099365234375e+01
6.199499964714050293e-01,2.000000000000000000e+00,-2.546044731140136719e+01,-2.044726371765136719e+00,4.528241348266601562e+01,9.494252014160156250e+01,8.458038330078125000e+01,1.358259429931640625e+02,-2.660168170928955078e+00,-3.259266281127929688e+01,-1.842642211914062500e+02,3.683105087280273438e+01,2.327110862731933594e+01,3.235694503784179688e+01
6.241549849510192871e-01,2.000000000000000000e+00,-2.551392936706542969e+01,-2.006979703903198242e+00,4.523723983764648438e+01,9.495025634765625000e+01,8.457980346679687500e+01,1.358157043457031250e+02,-2.712463140487670898e+00,-3.258638763427734375e+01,-1.842600860595703125e+02,3.682990264892578125e+01,2.328713989257812500e+01,3.235398101806640625e+01
6.280900239944458008e-01,2.000000000000000000e+00,-2.556766700744628906e+01,-1.969006776809692383e+00,4.519211959838867188e+01,9.495816040039062500e+01,8.457926177978515625e+01,1.358056030273437500e+02,-2.764593124389648438e+00,-3.257984161376953125e+01,-1.842559051513671875e+02,3.682853698730468750e+01,2.330389785766601562e+01,3.235068130493164062e+01
6.312339901924133301e-01,2.000000000000000000e+00,-2.562120628356933594e+01,-1.931237459182739258e+00,4.514698410034179688e+01,9.496563720703125000e+01,8.457899475097656250e+01,1.357954254150390625e+02,-2.816942930221557617e+00,-3.257338714599609375e+01,-1.842516479492187500e+02,3.682753372192382812e+01,2.332102012634277344e+01,3.234749984741210938e+01
6.351029872894287109e-01,2.000000000000000000e+00,-2.567465782165527344e+01,-1.893490672111511230e+00,4.510178375244140625e+01,9.497327423095703125e+01,8.457825469970703125e+01,1.357849121093750000e+02,-2.869512557983398438e+00,-3.256679534912109375e+01,-1.842473602294921875e+02,3.682624435424804688e+01,2.333704948425292969e+01,3.234453201293945312e+01
6.392480134963989258e-01,2.000000000000000000e+00,-2.572819519042968750e+01,-1.855585694313049316e+00,4.505687332153320312e+01,9.498075866699218750e+01,8.457777404785156250e+01,1.357745361328125000e+02,-2.921587944030761719e+00,-3.256061935424804688e+01,-1.842428436279296875e+02,3.682523345947265625e+01,2.335307884216308594e+01,3.234156417846679688e+01
6.431620121002197266e-01,2.000000000000000000e+00,-2.578153228759765625e+01,-1.817793607711791992e+00,4.501196289062500000e+01,9.498792266845703125e+01,8.457730102539062500e+01,1.357638244628906250e+02,-2.973223447799682617e+00,-3.255448150634765625e+01,-1.842384338378906250e+02,3.682394409179687500e+01,2.336983680725097656e+01,3.233837890625000000e+01
6.472740173339843750e-01,2.000000000000000000e+00,-2.583515930175781250e+01,-1.780024290084838867e+00,4.496688461303710938e+01,9.499523925781250000e+01,8.457676696777343750e+01,1.357533111572265625e+02,-3.024694442749023438e+00,-3.254821014404296875e+01,-1.842340240478515625e+02,3.682293701171875000e+01,2.338717842102050781e+01,3.233497238159179688e+01
6.523050069808959961e-01,2.000000000000000000e+00,-2.588895416259765625e+01,-1.742119193077087402e+00,4.492198944091796875e+01,9.500240325927734375e+01,8.457627868652343750e+01,1.357425994873046875e+02,-3.076824665069580078e+00,-3.254207992553710938e+01,-1.842297973632812500e+02,3.682178878784179688e+01,2.340378952026367188e+01,3.233255386352539062e+01
6.553400158882141113e-01,2.000000000000000000e+00,-2.594243431091308594e+01,-1.704236745834350586e+00,4.487709808349609375e+01,9.500978088378906250e+01,8.457574462890625000e+01,1.357322998046875000e+02,-3.128844738006591797e+00,-3.253589630126953125e+01,-1.842253875732421875e+02,3.682064056396484375e+01,2.341967391967773438e+01,3.232958984375000000e+01
6.593030095100402832e-01,2.000000000000000000e+00,-2.599597358703613281e+01,-1.666263699531555176e+00,4.483245086669921875e+01,9.501678466796875000e+01,8.457515716552734375e+01,1.357223205566406250e+02,-3.181359529495239258e+00,-3.252989959716796875e+01,-1.842213134765625000e+02,3.681963348388671875e+01,2.343621444702148438e+01,3.232662200927734375e+01
6.633970141410827637e-01,2.000000000000000000e+00,-2.604971313476562500e+01,-1.628584861755371094e+00,4.478763961791992188e+01,9.502394866943359375e+01,8.457468414306640625e+01,1.357119445800781250e+02,-3.233434677124023438e+00,-3.252353668212890625e+01,-1.842169036865234375e+02,3.681848526000976562e+01,2.345297241210937500e+01,3.232376861572265625e+01
6.680120229721069336e-01,2.000000000000000000e+00,-2.610342216491699219e+01,-1.590770244598388672e+00,4.474268341064453125e+01,9.503121948242187500e+01,8.457420349121093750e+01,1.357018280029296875e+02,-3.285399913787841797e+00,-3.251745223999023438e+01,-1.842125549316406250e+02,3.681733703613281250e+01,2.346994972229003906e+01,3.232080078125000000e+01
6.714289784431457520e-01,2.000000000000000000e+00,-2.615687561035156250e+01,-1.552978277206420898e+00,4.469793701171875000e+01,9.503838348388671875e+01,8.457356262207031250e+01,1.356918792724609375e+02,-3.336980819702148438e+00,-3.251145553588867188e+01,-1.842081909179687500e+02,3.681618881225585938e+01,2.348663520812988281e+01,3.231816482543945312e+01
6.764739751815795898e-01,2.000000000000000000e+00,-2.621032714843750000e+01,-1.515095829963684082e+00,4.465304183959960938e+01,9.504586029052734375e+01,8.457308197021484375e+01,1.356820983886718750e+02,-3.388451814651489258e+00,-3.250554656982421875e+01,-1.842036285400390625e+02,3.681504058837890625e+01,2.350244522094726562e+01,3.231520080566406250e+01
6.800069808959960938e-01,2.000000000000000000e+00,-2.626378059387207031e+01,-1.477236032485961914e+00,4.460802841186523438e+01,9.505297088623046875e+01,8.457260894775390625e+01,1.356721954345703125e+02,-3.439977645874023438e+00,-3.249937057495117188e+01,-1.841992797851562500e+02,3.681388854980468750e+01,2.351847648620605469e+01,3.231201171875000000e+01
6.839519739151000977e-01,2.000000000000000000e+00,-2.631714630126953125e+01,-1.439489245414733887e+00,4.456303405761718750e+01,9.506066131591796875e+01,8.457202148437500000e+01,1.356620941162109375e+02,-3.491943120956420898e+00,-3.249314498901367188e+01,-1.841949920654296875e+02,3.681274414062500000e+01,2.353523445129394531e+01,3.230937576293945312e+01
6.879559755325317383e-01,2.000000000000000000e+00,-2.637048339843750000e+01,-1.401765227317810059e+00,4.451810073852539062e+01,9.506819152832031250e+01,8.457148742675781250e+01,1.356519927978515625e+02,-3.544622421264648438e+00,-3.248691558837890625e+01,-1.841905212402343750e+02,3.681159210205078125e+01,2.355228424072265625e+01,3.230651855468750000e+01
6.915119886398315430e-01,2.000000000000000000e+00,-2.642373466491699219e+01,-1.364018440246582031e+00,4.447310638427734375e+01,9.507582855224609375e+01,8.457100677490234375e+01,1.356423645019531250e+02,-3.597192049026489258e+00,-3.248064804077148438e+01,-1.841862335205078125e+02,3.681023025512695312e+01,2.356875038146972656e+01,3.230300521850585938e+01
6.959859728813171387e-01,2.000000000000000000e+00,-2.647710037231445312e+01,-1.326407432556152344e+00,4.442813491821289062e+01,9.508341979980468750e+01,8.457063293457031250e+01,1.356323242187500000e+02,-3.648992776870727539e+00,-3.247437286376953125e+01,-1.841818237304687500e+02,3.680929183959960938e+01,2.358477973937988281e+01,3.229937744140625000e+01
7.033720016479492188e-01,2.000000000000000000e+00,-2.653058052062988281e+01,-1.288592934608459473e+00,4.438315963745117188e+01,9.509111022949218750e+01,8.456999206542968750e+01,1.356223602294921875e+02,-3.700573444366455078e+00,-3.246791839599609375e+01,-1.841774139404296875e+02,3.680828857421875000e+01,2.360132026672363281e+01,3.229652404785156250e+01
7.049149870872497559e-01,2.000000000000000000e+00,-2.663736915588378906e+01,-1.213325858116149902e+00,4.429359817504882812e+01,9.510638427734375000e+01,8.456892395019531250e+01,1.356016082763671875e+02,-3.803844690322875977e+00,-3.245560836791992188e+01,-1.841687774658203125e+02,3.680570602416992188e+01,2.363447189331054688e+01,3.229069900512695312e+01
7.080609798431396484e-01,2.000000000000000000e+00,-2.663736915588378906e+01,-1.213325858116149902e+00,4.429359817504882812e+01,9.510638427734375000e+01,8.456892395019531250e+01,1.356016082763671875e+02,-3.803844690322875977e+00,-3.245560836791992188e+01,-1.841687774658203125e+02,3.680570602416992188e+01,2.363447189331054688e+01,3.229069900512695312e+01
7.119709849357604980e-01,2.000000000000000000e+00,-2.669082260131835938e+01,-1.175873279571533203e+00,4.424874496459960938e+01,9.511370849609375000e+01,8.456844329833984375e+01,1.355915679931640625e+02,-3.856194734573364258e+00,-3.244947052001953125e+01,-1.841642456054687500e+02,3.680455780029296875e+01,2.365064620971679688e+01,3.228729248046875000e+01
7.160509824752807617e-01,2.000000000000000000e+00,-2.674413108825683594e+01,-1.138126611709594727e+00,4.420409774780273438e+01,9.512134552001953125e+01,8.456806945800781250e+01,1.355806427001953125e+02,-3.908269643783569336e+00,-3.244319915771484375e+01,-1.841599121093750000e+02,3.680340576171875000e+01,2.366660499572753906e+01,3.228410720825195312e+01
7.195580005645751953e-01,2.000000000000000000e+00,-2.679749679565429688e+01,-1.100561022758483887e+00,4.415944671630859375e+01,9.512866973876953125e+01,8.456738281250000000e+01,1.355704040527343750e+02,-3.960070371627807617e+00,-3.243693161010742188e+01,-1.841555480957031250e+02,3.680225753784179688e+01,2.368329048156738281e+01,3.228125000000000000e+01
7.248269915580749512e-01,2.000000000000000000e+00,-2.685089111328125000e+01,-1.063017845153808594e+00,4.411463928222656250e+01,9.513556671142578125e+01,8.456684875488281250e+01,1.355596313476562500e+02,-4.012035846710205078e+00,-3.243079757690429688e+01,-1.841512603759765625e+02,3.680096435546875000e+01,2.370019340515136719e+01,3.227784729003906250e+01
7.292029857635498047e-01,2.000000000000000000e+00,-2.695759391784667969e+01,-9.878413081169128418e-01,4.402519607543945312e+01,9.515000152587890625e+01,8.456588745117187500e+01,1.355386657714843750e+02,-4.114977836608886719e+00,-3.241834640502929688e+01,-1.841426696777343750e+02,3.679874038696289062e+01,2.373210716247558594e+01,3.227081298828125000e+01
7.320349812507629395e-01,2.000000000000000000e+00,-2.695759391784667969e+01,-9.878413081169128418e-01,4.402519607543945312e+01,9.515000152587890625e+01,8.456588745117187500e+01,1.355386657714843750e+02,-4.114977836608886719e+00,-3.241834640502929688e+01,-1.841426696777343750e+02,3.679874038696289062e+01,2.373210716247558594e+01,3.227081298828125000e+01
7.360870242118835449e-01,2.000000000000000000e+00,-2.701121902465820312e+01,-9.503661990165710449e-01,4.398038864135742188e+01,9.515726470947265625e+01,8.456540679931640625e+01,1.355287628173828125e+02,-4.166667938232421875e+00,-3.241216278076171875e+01,-1.841382598876953125e+02,3.679758834838867188e+01,2.374850082397460938e+01,3.226795959472656250e+01
7.399809956550598145e-01,2.000000000000000000e+00,-2.706455612182617188e+01,-9.126873612403869629e-01,4.393563461303710938e+01,9.516427612304687500e+01,8.456481933593750000e+01,1.355187225341796875e+02,-4.218743801116943359e+00,-3.240598297119140625e+01,-1.841341857910156250e+02,3.679644393920898438e+01,2.376518630981445312e+01,3.226509857177734375e+01
7.441099882125854492e-01,2.000000000000000000e+00,-2.711792182922363281e+01,-8.750538229942321777e-01,4.389078140258789062e+01,9.517180633544921875e+01,8.456433868408203125e+01,1.355084991455078125e+02,-4.271093368530273438e+00,-3.239980697631835938e+01,-1.841296691894531250e+02,3.679529190063476562e+01,2.378129005432128906e+01,3.226180648803710938e+01
7.491149902343750000e-01,2.000000000000000000e+00,-2.717117309570312500e+01,-8.376012444496154785e-01,4.384591293334960938e+01,9.517897033691406250e+01,8.456386566162109375e+01,1.354985961914062500e+02,-4.323498249053955078e+00,-3.239362335205078125e+01,-1.841253204345703125e+02,3.679421615600585938e+01,2.379746437072753906e+01,3.225839996337890625e+01
7.532659769058227539e-01,2.000000000000000000e+00,-2.722448158264160156e+01,-7.999677062034606934e-01,4.380102157592773438e+01,9.518602752685546875e+01,8.456316375732421875e+01,1.354885559082031250e+02,-4.375353336334228516e+00,-3.238735198974609375e+01,-1.841210174560546875e+02,3.679277801513671875e+01,2.381414985656738281e+01,3.225554275512695312e+01
7.561470270156860352e-01,2.000000000000000000e+00,-2.727784729003906250e+01,-7.622436285018920898e-01,4.375612640380859375e+01,9.519371795654296875e+01,8.456278991699218750e+01,1.354787139892578125e+02,-4.426549911499023438e+00,-3.238117218017578125e+01,-1.841165618896484375e+02,3.679162979125976562e+01,2.383025169372558594e+01,3.225246810913085938e+01
7.602059841156005859e-01,2.000000000000000000e+00,-2.733104133605957031e+01,-7.244516611099243164e-01,4.371149826049804688e+01,9.520114135742187500e+01,8.456230926513671875e+01,1.354686889648437500e+02,-4.477636337280273438e+00,-3.237490081787109375e+01,-1.841124267578125000e+02,3.679048156738281250e+01,2.384613609313964844e+01,3.224905776977539062e+01
7.642949819564819336e-01,2.000000000000000000e+00,-2.738423538208007812e+01,-6.869539022445678711e-01,4.366684722900390625e+01,9.520857238769531250e+01,8.456162261962890625e+01,1.354587860107421875e+02,-4.529491424560546875e+00,-3.236844635009765625e+01,-1.841082763671875000e+02,3.678940582275390625e+01,2.386296653747558594e+01,3.224576568603515625e+01
7.668849825859069824e-01,2.000000000000000000e+00,-2.743739891052246094e+01,-6.494334936141967773e-01,4.362220382690429688e+01,9.521605682373046875e+01,8.456103515625000000e+01,1.354486694335937500e+02,-4.581402301788330078e+00,-3.236231613159179688e+01,-1.841036682128906250e+02,3.678811264038085938e+01,2.388001632690429688e+01,3.224290847778320312e+01
7.732110023498535156e-01,2.000000000000000000e+00,-2.749068069458007812e+01,-6.117320060729980469e-01,4.357771301269531250e+01,9.522369384765625000e+01,8.456066131591796875e+01,1.354386291503906250e+02,-4.633532524108886719e+00,-3.235618209838867188e+01,-1.840994110107421875e+02,3.678681945800781250e+01,2.389633750915527344e+01,3.224038314819335938e+01
7.748780250549316406e-01,2.000000000000000000e+00,-2.754404640197753906e+01,-5.742342472076416016e-01,4.353310775756835938e+01,9.523138427734375000e+01,8.456018066406250000e+01,1.354282684326171875e+02,-4.685333251953125000e+00,-3.234999847412109375e+01,-1.840951232910156250e+02,3.678588485717773438e+01,2.391251373291015625e+01,3.223708724975585938e+01
7.789329886436462402e-01,2.000000000000000000e+00,-2.759752655029296875e+01,-5.366232991218566895e-01,4.348860168457031250e+01,9.523907470703125000e+01,8.455948638916015625e+01,1.354182281494140625e+02,-4.736803531646728516e+00,-3.234382247924804688e+01,-1.840905609130859375e+02,3.678445053100585938e+01,2.392912483215332031e+01,3.223455810546875000e+01
7.828779816627502441e-01,2.000000000000000000e+00,-2.765057754516601562e+01,-4.989219009876251221e-01,4.344407272338867188e+01,9.524691772460937500e+01,8.455911254882812500e+01,1.354077148437500000e+02,-4.787945270538330078e+00,-3.233777618408203125e+01,-1.840858306884765625e+02,3.678330230712890625e+01,2.394595718383789062e+01,3.223148345947265625e+01
7.869129776954650879e-01,2.000000000000000000e+00,-2.770362663269042969e+01,-4.614693522453308105e-01,4.339957046508789062e+01,9.525429534912109375e+01,8.455852508544921875e+01,1.353972778320312500e+02,-4.839416027069091797e+00,-3.233173370361328125e+01,-1.840814819335937500e+02,3.678200912475585938e+01,2.396286201477050781e+01,3.222884750366210938e+01
7.909110188484191895e-01,2.000000000000000000e+00,-2.775702095031738281e+01,-4.239037036895751953e-01,4.335506057739257812e+01,9.526161193847656250e+01,8.455793762207031250e+01,1.353868255615234375e+02,-4.891051769256591797e+00,-3.232550811767578125e+01,-1.840772399902343750e+02,3.678092956542968750e+01,2.397874450683593750e+01,3.222555160522460938e+01
7.948819994926452637e-01,2.000000000000000000e+00,-2.780998611450195312e+01,-3.864964544773101807e-01,4.331033325195312500e+01,9.526882934570312500e+01,8.455756378173828125e+01,1.353761138916015625e+02,-4.942907333374023438e+00,-3.231955718994140625e+01,-1.840728302001953125e+02,3.677964019775390625e+01,2.399455642700195312e+01,3.222225570678710938e+01
7.988970279693603516e-01,2.000000000000000000e+00,-2.786320877075195312e+01,-3.489760458469390869e-01,4.326549911499023438e+01,9.527610015869140625e+01,8.455687713623046875e+01,1.353657379150390625e+02,-4.995147705078125000e+00,-3.231324386596679688e+01,-1.840685272216796875e+02,3.677841949462890625e+01,2.401095008850097656e+01,3.221950912475585938e+01
8.031250238418579102e-01,2.000000000000000000e+00,-2.791622924804687500e+01,-3.115009069442749023e-01,4.322095108032226562e+01,9.528321075439453125e+01,8.455639648437500000e+01,1.353559112548828125e+02,-5.047167301177978516e+00,-3.230715560913085938e+01,-1.840640258789062500e+02,3.677727127075195312e+01,2.402741813659667969e+01,3.221697998046875000e+01
8.068910241127014160e-01,2.000000000000000000e+00,-2.796953773498535156e+01,-2.740936279296875000e-01,4.317624282836914062e+01,9.529016113281250000e+01,8.455591583251953125e+01,1.353454589843750000e+02,-5.098473548889160156e+00,-3.230115509033203125e+01,-1.840594482421875000e+02,3.677604675292968750e+01,2.404359245300292969e+01,3.221423339843750000e+01
8.108770251274108887e-01,2.000000000000000000e+00,-2.802261734008789062e+01,-2.365732043981552124e-01,4.313153457641601562e+01,9.529743957519531250e+01,8.455538177490234375e+01,1.353352203369140625e+02,-5.149285793304443359e+00,-3.229497528076171875e+01,-1.840550994873046875e+02,3.677489852905273438e+01,2.405962181091308594e+01,3.221115875244140625e+01
8.150299787521362305e-01,2.000000000000000000e+00,-2.807563781738281250e+01,-1.990528255701065063e-01,4.308686447143554688e+01,9.530464935302734375e+01,8.455490112304687500e+01,1.353250579833984375e+02,-5.200207233428955078e+00,-3.228893280029296875e+01,-1.840505828857421875e+02,3.677382278442382812e+01,2.407514190673828125e+01,3.220840835571289062e+01
8.188970088958740234e-01,2.000000000000000000e+00,-2.812866020202636719e+01,-1.617134362459182739e-01,4.304219818115234375e+01,9.531175994873046875e+01,8.455442047119140625e+01,1.353152160644531250e+02,-5.251568317413330078e+00,-3.228252792358398438e+01,-1.840463409423828125e+02,3.677238464355468750e+01,2.409146308898925781e+01,3.220588684082031250e+01
8.229100108146667480e-01,2.000000000000000000e+00,-2.818159675598144531e+01,-1.244193390011787415e-01,4.299765014648437500e+01,9.531855773925781250e+01,8.455394744873046875e+01,1.353052368164062500e+02,-5.303533554077148438e+00,-3.227616119384765625e+01,-1.840422058105468750e+02,3.677130889892578125e+01,2.410822105407714844e+01,3.220313644409179688e+01
8.293160200119018555e-01,2.000000000000000000e+00,-2.823467445373535156e+01,-8.703470975160598755e-02,4.295324325561523438e+01,9.532566833496093750e+01,8.455335998535156250e+01,1.352951965332031250e+02,-5.355828285217285156e+00,-3.226970672607421875e+01,-1.840378723144531250e+02,3.677016067504882812e+01,2.412381362915039062e+01,3.220017242431640625e+01
8.308929800987243652e-01,2.000000000000000000e+00,-2.828775215148925781e+01,-4.958219081163406372e-02,4.290873718261718750e+01,9.533288574218750000e+01,8.455277252197265625e+01,1.352853088378906250e+02,-5.407793998718261719e+00,-3.226357269287109375e+01,-1.840334472656250000e+02,3.676893997192382812e+01,2.413947868347167969e+01,3.219742202758789062e+01
8.350089788436889648e-01,2.000000000000000000e+00,-2.834068870544433594e+01,-1.222019363194704056e-02,4.286449432373046875e+01,9.534020996093750000e+01,8.455233764648437500e+01,1.352755432128906250e+02,-5.459320068359375000e+00,-3.225720977783203125e+01,-1.840289916992187500e+02,3.676786041259765625e+01,2.415587234497070312e+01,3.219511795043945312e+01
8.388969898223876953e-01,2.000000000000000000e+00,-2.839379692077636719e+01,2.516443468630313873e-02,4.282011413574218750e+01,9.534752655029296875e+01,8.455165100097656250e+01,1.352655792236328125e+02,-5.510460853576660156e+00,-3.225117111206054688e+01,-1.840243072509765625e+02,3.676657104492187500e+01,2.417241287231445312e+01,3.219193267822265625e+01
8.428760170936584473e-01,2.000000000000000000e+00,-2.844681739807128906e+01,6.261695176362991333e-02,4.277558517456054688e+01,9.535479736328125000e+01,8.455117034912109375e+01,1.352552642822265625e+02,-5.561327934265136719e+00,-3.224503707885742188e+01,-1.840200195312500000e+02,3.676534652709960938e+01,2.418880653381347656e+01,3.218918609619140625e+01
8.469020128250122070e-01,2.000000000000000000e+00,-2.849992561340332031e+01,9.986579418182373047e-02,4.273124313354492188e+01,9.536248779296875000e+01,8.455079650878906250e+01,1.352447509765625000e+02,-5.612578868865966797e+00,-3.223889923095703125e+01,-1.840156707763671875e+02,3.676420211791992188e+01,2.420520019531250000e+01,3.218643569946289062e+01
8.509410023689270020e-01,2.000000000000000000e+00,-2.855291748046875000e+01,1.372504234313964844e-01,4.268683624267578125e+01,9.536996459960937500e+01,8.455004882812500000e+01,1.352348480224609375e+02,-5.664434432983398438e+00,-3.223267364501953125e+01,-1.840114288330078125e+02,3.676312637329101562e+01,2.422072029113769531e+01,3.218369293212890625e+01
8.548989892005920410e-01,2.000000000000000000e+00,-2.860576820373535156e+01,1.746803224086761475e-01,4.264239120483398438e+01,9.537760162353515625e+01,8.454967498779296875e+01,1.352245330810546875e+02,-5.716454982757568359e+00,-3.222653961181640625e+01,-1.840071258544921875e+02,3.676190185546875000e+01,2.423682212829589844e+01,3.218072509765625000e+01
8.588820099830627441e-01,2.000000000000000000e+00,-2.865878677368164062e+01,2.120649367570877075e-01,4.259790802001953125e+01,9.538529205322265625e+01,8.454908752441406250e+01,1.352138977050781250e+02,-5.768090724945068359e+00,-3.222027206420898438e+01,-1.840029296875000000e+02,3.676068115234375000e+01,2.425365447998046875e+01,3.217776107788085938e+01
8.628870248794555664e-01,2.000000000000000000e+00,-2.871172523498535156e+01,2.493816763162612915e-01,4.255334091186523438e+01,9.539292907714843750e+01,8.454866790771484375e+01,1.352028503417968750e+02,-5.819616317749023438e+00,-3.221417999267578125e+01,-1.839987030029296875e+02,3.675953292846679688e+01,2.426997375488281250e+01,3.217479324340820312e+01
8.669450283050537109e-01,2.000000000000000000e+00,-2.876465988159179688e+01,2.865626513957977295e-01,4.250878906250000000e+01,9.540030670166015625e+01,8.454818725585937500e+01,1.351925964355468750e+02,-5.870263576507568359e+00,-3.220823287963867188e+01,-1.839939575195312500e+02,3.675845718383789062e+01,2.428600502014160156e+01,3.217204666137695312e+01
8.708919882774353027e-01,2.000000000000000000e+00,-2.881753921508789062e+01,3.240604102611541748e-01,4.246428298950195312e+01,9.540752410888671875e+01,8.454759979248046875e+01,1.351822357177734375e+02,-5.920855522155761719e+00,-3.220214462280273438e+01,-1.839898376464843750e+02,3.675723648071289062e+01,2.430181503295898438e+01,3.216918945312500000e+01
8.748760223388671875e-01,2.000000000000000000e+00,-2.887038612365722656e+01,3.615808188915252686e-01,4.241975784301757812e+01,9.541479492187500000e+01,8.454695892333984375e+01,1.351719207763671875e+02,-5.972381114959716797e+00,-3.219614791870117188e+01,-1.839854736328125000e+02,3.675615692138671875e+01,2.431842803955078125e+01,3.216567230224609375e+01
8.814070224761962891e-01,2.000000000000000000e+00,-2.892335128784179688e+01,3.987844288349151611e-01,4.237541198730468750e+01,9.542205810546875000e+01,8.454658508300781250e+01,1.351618041992187500e+02,-6.024456501007080078e+00,-3.218996429443359375e+01,-1.839810791015625000e+02,3.675494003295898438e+01,2.433511352539062500e+01,3.216248703002929688e+01
8.828769922256469727e-01,2.000000000000000000e+00,-2.897637176513671875e+01,4.360785186290740967e-01,4.233106994628906250e+01,9.542928314208984375e+01,8.454600524902343750e+01,1.351515808105468750e+02,-6.076311588287353516e+00,-3.218383026123046875e+01,-1.839767150878906250e+02,3.675386047363281250e+01,2.435150718688964844e+01,3.215930175781250000e+01
8.870319724082946777e-01,2.000000000000000000e+00,-2.902907943725585938e+01,4.734631776809692383e-01,4.228670501708984375e+01,9.543639373779296875e+01,8.454546356201171875e+01,1.351416015625000000e+02,-6.127892494201660156e+00,-3.217760467529296875e+01,-1.839723205566406250e+02,3.675242614746093750e+01,2.436804771423339844e+01,3.215644454956054688e+01
8.909890055656433105e-01,2.000000000000000000e+00,-2.908181190490722656e+01,5.106893777847290039e-01,4.224246215820312500e+01,9.544349670410156250e+01,8.454498291015625000e+01,1.351315002441406250e+02,-6.179254055023193359e+00,-3.217129135131835938e+01,-1.839680786132812500e+02,3.675156021118164062e+01,2.438466072082519531e+01,3.215304183959960938e+01
8.948799967765808105e-01,2.000000000000000000e+00,-2.913440513610839844e+01,5.479608178138732910e-01,4.219826507568359375e+01,9.545082092285156250e+01,8.454450225830078125e+01,1.351215209960937500e+02,-6.229955673217773438e+00,-3.216520309448242188e+01,-1.839635162353515625e+02,3.675048446655273438e+01,2.440127372741699219e+01,3.215007400512695312e+01
9.012510180473327637e-01,2.000000000000000000e+00,-2.913440513610839844e+01,5.479608178138732910e-01,4.219826507568359375e+01,9.545082092285156250e+01,8.454450225830078125e+01,1.351215209960937500e+02,-6.280767440795898438e+00,-3.215924835205078125e+01,-1.839592132568359375e+02,3.674940872192382812e+01,2.441766548156738281e+01,3.214699554443359375e+01
9.029480218887329102e-01,2.000000000000000000e+00,-2.923972892761230469e+01,6.226621866226196289e-01,4.210977935791015625e+01,9.546498870849609375e+01,8.454344177246093750e+01,1.351018066406250000e+02,-6.332128524780273438e+00,-3.215311431884765625e+01,-1.839545898437500000e+02,3.674832916259765625e+01,2.443398857116699219e+01,3.214359283447265625e+01
9.099630117416381836e-01,2.000000000000000000e+00,-2.923972892761230469e+01,6.226621866226196289e-01,4.210977935791015625e+01,9.546498870849609375e+01,8.454344177246093750e+01,1.351018066406250000e+02,-6.383874416351318359e+00,-3.214707565307617188e+01,-1.839502868652343750e+02,3.674711227416992188e+01,2.445030784606933594e+01,3.214073562622070312e+01
9.119439721107482910e-01,2.000000000000000000e+00,-2.934531402587890625e+01,6.970693469047546387e-01,4.202123260498046875e+01,9.547962951660156250e+01,8.454232025146484375e+01,1.350817108154296875e+02,-6.435674667358398438e+00,-3.214094161987304688e+01,-1.839459991455078125e+02,3.674603271484375000e+01,2.446619224548339844e+01,3.213733291625976562e+01
9.149529933929443359e-01,2.000000000000000000e+00,-2.939773178100585938e+01,7.344313859939575195e-01,4.197681045532226562e+01,9.548695373535156250e+01,8.454183959960937500e+01,1.350715484619140625e+02,-6.487310409545898438e+00,-3.213480377197265625e+01,-1.839413604736328125e+02,3.674495697021484375e+01,2.448222160339355469e+01,3.213447189331054688e+01
9.220439791679382324e-01,2.000000000000000000e+00,-2.939773178100585938e+01,7.344313859939575195e-01,4.197681045532226562e+01,9.548695373535156250e+01,8.454183959960937500e+01,1.350715484619140625e+02,-6.487310409545898438e+00,-3.213480377197265625e+01,-1.839413604736328125e+02,3.674495697021484375e+01,2.448222160339355469e+01,3.213447189331054688e+01
9.234449863433837891e-01,2.000000000000000000e+00,-2.950331306457519531e+01,8.087706565856933594e-01,4.188808059692382812e+01,9.550202178955078125e+01,8.454072570800781250e+01,1.350512695312500000e+02,-6.588769435882568359e+00,-3.212253570556640625e+01,-1.839328308105468750e+02,3.674265670776367188e+01,2.451486396789550781e+01,3.212843322753906250e+01
9.279099702835083008e-01,2.000000000000000000e+00,-2.955576133728027344e+01,8.459516763687133789e-01,4.184367752075195312e+01,9.550960540771484375e+01,8.454029083251953125e+01,1.350406341552734375e+02,-6.639800548553466797e+00,-3.211640548706054688e+01,-1.839285888671875000e+02,3.674143981933593750e+01,2.453082084655761719e+01,3.212513732910156250e+01
9.317780137062072754e-01,2.000000000000000000e+00,-2.960818099975585938e+01,8.832457661628723145e-01,4.179925155639648438e+01,9.551708221435546875e+01,8.453970336914062500e+01,1.350299072265625000e+02,-6.691216468811035156e+00,-3.211022186279296875e+01,-1.839241790771484375e+02,3.674050140380859375e+01,2.454685020446777344e+01,3.212227630615234375e+01
9.348779916763305664e-01,2.000000000000000000e+00,-2.966097068786621094e+01,9.204493165016174316e-01,4.175496673583984375e+01,9.552493286132812500e+01,8.453916931152343750e+01,1.350193328857421875e+02,-6.742632389068603516e+00,-3.210417938232421875e+01,-1.839200592041015625e+02,3.673928451538085938e+01,2.456280708312988281e+01,3.211942291259765625e+01
9.399750232696533203e-01,2.000000000000000000e+00,-2.966097068786621094e+01,9.204493165016174316e-01,4.175496673583984375e+01,9.552493286132812500e+01,8.453916931152343750e+01,1.350193328857421875e+02,-6.742632389068603516e+00,-3.210417938232421875e+01,-1.839200592041015625e+02,3.673928451538085938e+01,2.456280708312988281e+01,3.211942291259765625e+01
9.436179995536804199e-01,2.000000000000000000e+00,-2.976618385314941406e+01,9.947433471679687500e-01,4.166640472412109375e+01,9.554010772705078125e+01,8.453816223144531250e+01,1.349986419677734375e+02,-6.845904350280761719e+00,-3.209172821044921875e+01,-1.839113616943359375e+02,3.673705673217773438e+01,2.459544944763183594e+01,3.211349105834960938e+01
9.479809999465942383e-01,2.000000000000000000e+00,-2.981892013549804688e+01,1.031765937805175781e+00,4.162232208251953125e+01,9.554721832275390625e+01,8.453762817382812500e+01,1.349883422851562500e+02,-6.896716117858886719e+00,-3.208559417724609375e+01,-1.839068298339843750e+02,3.673598098754882812e+01,2.461169815063476562e+01,3.211096191406250000e+01
9.508870244026184082e-01,2.000000000000000000e+00,-2.987170982360839844e+01,1.068878889083862305e+00,4.157816314697265625e+01,9.555442810058593750e+01,8.453704071044921875e+01,1.349781646728515625e+02,-6.947417736053466797e+00,-3.207932662963867188e+01,-1.839026031494140625e+02,3.673476028442382812e+01,2.462736320495605469e+01,3.210788726806640625e+01
9.561290144920349121e-01,2.000000000000000000e+00,-2.987170982360839844e+01,1.068878889083862305e+00,4.157816314697265625e+01,9.555442810058593750e+01,8.453704071044921875e+01,1.349781646728515625e+02,-6.947417736053466797e+00,-3.207932662963867188e+01,-1.839026031494140625e+02,3.673476028442382812e+01,2.462736320495605469e+01,3.210788726806640625e+01
9.599270224571228027e-01,2.000000000000000000e+00,-2.997723579406738281e+01,1.143308758735656738e+00,4.149000549316406250e+01,9.556870269775390625e+01,8.453608703613281250e+01,1.349582214355468750e+02,-7.048986911773681641e+00,-3.206664657592773438e+01,-1.838941192626953125e+02,3.673267745971679688e+01,2.465971374511718750e+01,3.210173416137695312e+01
9.629819989204406738e-01,2.000000000000000000e+00,-3.002979850769042969e+01,1.180286049842834473e+00,4.144582366943359375e+01,9.557566070556640625e+01,8.453549957275390625e+01,1.349485321044921875e+02,-7.100567340850830078e+00,-3.206042098999023438e+01,-1.838897552490234375e+02,3.673145675659179688e+01,2.467603492736816406e+01,3.209898757934570312e+01
9.678900241851806641e-01,2.000000000000000000e+00,-3.008253288269042969e+01,1.217467069625854492e+00,4.140174484252929688e+01,9.558292388916015625e+01,8.453496551513671875e+01,1.349388275146484375e+02,-7.152477741241455078e+00,-3.205428695678710938e+01,-1.838853607177734375e+02,3.673045349121093750e+01,2.469206428527832031e+01,3.209656906127929688e+01
9.708780050277709961e-01,2.000000000000000000e+00,-3.013515281677246094e+01,1.254557371139526367e+00,4.135770416259765625e+01,9.559003448486328125e+01,8.453443145751953125e+01,1.349288635253906250e+02,-7.204333305358886719e+00,-3.204814910888671875e+01,-1.838809967041015625e+02,3.672922897338867188e+01,2.470787429809570312e+01,3.209382247924804688e+01
9.759849905967712402e-01,2.000000000000000000e+00,-3.013515281677246094e+01,1.254557371139526367e+00,4.135770416259765625e+01,9.559003448486328125e+01,8.453443145751953125e+01,1.349288635253906250e+02,-7.204333305358886719e+00,-3.204814910888671875e+01,-1.838809967041015625e+02,3.672922897338867188e+01,2.470787429809570312e+01,3.209382247924804688e+01
9.788749814033508301e-01,2.000000000000000000e+00,-3.024038887023925781e+01,1.328851580619812012e+00,4.126926422119140625e+01,9.560394287109375000e+01,8.453325653076171875e+01,1.349088592529296875e+02,-7.305791378021240234e+00,-3.203588104248046875e+01,-1.838723602294921875e+02,3.672700500488281250e+01,2.474153709411621094e+01,3.208876800537109375e+01
9.828889966011047363e-01,2.000000000000000000e+00,-3.029324150085449219e+01,1.365964531898498535e+00,4.122497940063476562e+01,9.561121368408203125e+01,8.453277587890625000e+01,1.348991546630859375e+02,-7.356163978576660156e+00,-3.202970504760742188e+01,-1.838681640625000000e+02,3.672592926025390625e+01,2.475851440429687500e+01,3.208569335937500000e+01
9.879890084266662598e-01,2.000000000000000000e+00,-3.029324150085449219e+01,1.365964531898498535e+00,4.122497940063476562e+01,9.561121368408203125e+01,8.453277587890625000e+01,1.348991546630859375e+02,-7.356163978576660156e+00,-3.202970504760742188e+01,-1.838681640625000000e+02,3.672592926025390625e+01,2.475851440429687500e+01,3.208569335937500000e+01
9.915030002593994141e-01,2.000000000000000000e+00,-3.039836502075195312e+01,1.440145373344421387e+00,4.113647460937500000e+01,9.562596130371093750e+01,8.453186798095703125e+01,1.348790740966796875e+02,-7.458886146545410156e+00,-3.201757049560546875e+01,-1.838596801757812500e+02,3.672355651855468750e+01,2.479006385803222656e+01,3.208020019531250000e+01
9.959059953689575195e-01,2.000000000000000000e+00,-3.039836502075195312e+01,1.440145373344421387e+00,4.113647460937500000e+01,9.562596130371093750e+01,8.453186798095703125e+01,1.348790740966796875e+02,-7.458886146545410156e+00,-3.201757049560546875e+01,-1.838596801757812500e+02,3.672355651855468750e+01,2.479006385803222656e+01,3.208020019531250000e+01
9.988759756088256836e-01,2.000000000000000000e+00,-3.050340270996093750e+01,1.514371633529663086e+00,4.104829788208007812e+01,9.564049530029296875e+01,8.453063964843750000e+01,1.348585968017578125e+02,-7.561224460601806641e+00,-3.200543975830078125e+01,-1.838511962890625000e+02,3.672147750854492188e+01,2.482292366027832031e+01,3.207448577880859375e+01
1.003929972648620605e+00,2.000000000000000000e+00,-3.050340270996093750e+01,1.514371633529663086e+00,4.104829788208007812e+01,9.564049530029296875e+01,8.453063964843750000e+01,1.348585968017578125e+02,-7.561224460601806641e+00,-3.200543975830078125e+01,-1.838511962890625000e+02,3.672147750854492188e+01,2.482292366027832031e+01,3.207448577880859375e+01
1.008061051368713379e+00,2.000000000000000000e+00,-3.060861206054687500e+01,1.588507294654846191e+00,4.096015930175781250e+01,9.565556335449218750e+01,8.452963256835937500e+01,1.348378601074218750e+02,-7.662738323211669922e+00,-3.199326515197753906e+01,-1.838423309326171875e+02,3.671896362304687500e+01,2.485483932495117188e+01,3.206833648681640625e+01
1.010890007019042969e+00,2.000000000000000000e+00,-3.066088676452636719e+01,1.625439286231994629e+00,4.091624069213867188e+01,9.566315460205078125e+01,8.452909851074218750e+01,1.348272705078125000e+02,-7.713055133819580078e+00,-3.198708343505859375e+01,-1.838381500244140625e+02,3.671810150146484375e+01,2.487050437927246094e+01,3.206536865234375000e+01
1.016023039817810059e+00,2.000000000000000000e+00,-3.066088676452636719e+01,1.625439286231994629e+00,4.091624069213867188e+01,9.566315460205078125e+01,8.452909851074218750e+01,1.348272705078125000e+02,-7.713055133819580078e+00,-3.198708343505859375e+01,-1.838381500244140625e+02,3.671810150146484375e+01,2.487050437927246094e+01,3.206536865234375000e+01
1.019114017486572266e+00,2.000000000000000000e+00,-3.076618385314941406e+01,1.699574828147888184e+00,4.082849121093750000e+01,9.567821502685546875e+01,8.452803039550781250e+01,1.348068542480468750e+02,-7.815612316131591797e+00,-3.197472572326660156e+01,-1.838296051025390625e+02,3.671558761596679688e+01,2.490365600585937500e+01,3.206009674072265625e+01
1.023872017860412598e+00,2.000000000000000000e+00,-3.081860351562500000e+01,1.736506938934326172e+00,4.078457260131835938e+01,9.568574523925781250e+01,8.452749633789062500e+01,1.347965393066406250e+02,-7.867138385772705078e+00,-3.196854782104492188e+01,-1.838253631591796875e+02,3.671451187133789062e+01,2.491924858093261719e+01,3.205712890625000000e+01
1.028897047042846680e+00,2.000000000000000000e+00,-3.087119483947753906e+01,1.773416280746459961e+00,4.074049377441406250e+01,9.569306945800781250e+01,8.452696228027343750e+01,1.347864532470703125e+02,-7.918554306030273438e+00,-3.196222877502441406e+01,-1.838210144042968750e+02,3.671336364746093750e+01,2.493454933166503906e+01,3.205471420288085938e+01
1.032645940780639648e+00,2.000000000000000000e+00,-3.092349815368652344e+01,1.810484051704406738e+00,4.069653701782226562e+01,9.570023345947265625e+01,8.452632141113281250e+01,1.347764739990234375e+02,-7.969640731811523438e+00,-3.195632362365722656e+01,-1.838167724609375000e+02,3.671221160888671875e+01,2.495079803466796875e+01,3.205174636840820312e+01
1.035894036293029785e+00,2.000000000000000000e+00,-3.097583007812500000e+01,1.847438812255859375e+00,4.065253829956054688e+01,9.570744323730468750e+01,8.452590179443359375e+01,1.347667083740234375e+02,-8.020068168640136719e+00,-3.195027923583984375e+01,-1.838125305175781250e+02,3.671099472045898438e+01,2.496711730957031250e+01,3.204845046997070312e+01
1.042315006256103516e+00,2.000000000000000000e+00,-3.097583007812500000e+01,1.847438812255859375e+00,4.065253829956054688e+01,9.570744323730468750e+01,8.452590179443359375e+01,1.347667083740234375e+02,-8.020068168640136719e+00,-3.195027923583984375e+01,-1.838125305175781250e+02,3.671099472045898438e+01,2.496711730957031250e+01,3.204845046997070312e+01
1.043956041336059570e+00,2.000000000000000000e+00,-3.108043861389160156e+01,1.921280145645141602e+00,4.056431961059570312e+01,9.572167205810546875e+01,8.452483367919921875e+01,1.347469635009765625e+02,-8.121252059936523438e+00,-3.193819808959960938e+01,-1.838038177490234375e+02,3.670869445800781250e+01,2.499917793273925781e+01,3.204218673706054688e+01
1.048900961875915527e+00,2.000000000000000000e+00,-3.108043861389160156e+01,1.921280145645141602e+00,4.056431961059570312e+01,9.572167205810546875e+01,8.452483367919921875e+01,1.347469635009765625e+02,-8.172392845153808594e+00,-3.193210792541503906e+01,-1.837998046875000000e+02,3.670754241943359375e+01,2.501549911499023438e+01,3.203922271728515625e+01
1.051545977592468262e+00,2.000000000000000000e+00,-3.118527412414550781e+01,1.995166778564453125e+00,4.047613906860351562e+01,9.573589324951171875e+01,8.452387237548828125e+01,1.347275238037109375e+02,-8.223864555358886719e+00,-3.192601966857910156e+01,-1.837953948974609375e+02,3.670618057250976562e+01,2.503160285949707031e+01,3.203658676147460938e+01
1.057142972946166992e+00,2.000000000000000000e+00,-3.118527412414550781e+01,1.995166778564453125e+00,4.047613906860351562e+01,9.573589324951171875e+01,8.452387237548828125e+01,1.347275238037109375e+02,-8.223864555358886719e+00,-3.192601966857910156e+01,-1.837953948974609375e+02,3.670618057250976562e+01,2.503160285949707031e+01,3.203658676147460938e+01
1.059852957725524902e+00,2.000000000000000000e+00,-3.128993988037109375e+01,2.069098949432373047e+00,4.038800048828125000e+01,9.575001525878906250e+01,8.452265167236328125e+01,1.347078399658203125e+02,-8.325707435607910156e+00,-3.191388893127441406e+01,-1.837869720458984375e+02,3.670417022705078125e+01,2.506373214721679688e+01,3.203043365478515625e+01
1.063933968544006348e+00,2.000000000000000000e+00,-3.128993988037109375e+01,2.069098949432373047e+00,4.038800048828125000e+01,9.575001525878906250e+01,8.452265167236328125e+01,1.347078399658203125e+02,-8.325707435607910156e+00,-3.191388893127441406e+01,-1.837869720458984375e+02,3.670417022705078125e+01,2.506373214721679688e+01,3.203043365478515625e+01
1.067957043647766113e+00,2.000000000000000000e+00,-3.134215736389160156e+01,2.106008291244506836e+00,4.034412384033203125e+01,9.575722503662109375e+01,8.452210998535156250e+01,1.346980133056640625e+02,-8.376079559326171875e+00,-3.190798377990722656e+01,-1.837827301025390625e+02,3.670288085937500000e+01,2.507983589172363281e+01,3.202713775634765625e+01
1.071957945823669434e+00,2.000000000000000000e+00,-3.139469146728515625e+01,2.142759323120117188e+00,4.030028915405273438e+01,9.576449584960937500e+01,8.452157592773437500e+01,1.346878967285156250e+02,-8.427056312561035156e+00,-3.190194320678710938e+01,-1.837783660888671875e+02,3.670172882080078125e+01,2.509572029113769531e+01,3.202405929565429688e+01
1.075984954833984375e+00,2.000000000000000000e+00,-3.144685363769531250e+01,2.179713726043701172e+00,4.025639343261718750e+01,9.577149963378906250e+01,8.452104187011718750e+01,1.346778106689453125e+02,-8.477593421936035156e+00,-3.189585304260253906e+01,-1.837740325927734375e+02,3.670058059692382812e+01,2.511131286621093750e+01,3.202076339721679688e+01
1.079957962036132812e+00,2.000000000000000000e+00,-3.149930000305175781e+01,2.216804265975952148e+00,4.021269989013671875e+01,9.577861022949218750e+01,8.452050781250000000e+01,1.346675567626953125e+02,-8.528460502624511719e+00,-3.188981246948242188e+01,-1.837697753906250000e+02,3.669928741455078125e+01,2.512792396545410156e+01,3.201791000366210938e+01
1.082934021949768066e+00,2.000000000000000000e+00,-3.155163192749023438e+01,2.253645896911621094e+00,4.016892623901367188e+01,9.578620147705078125e+01,8.451998138427734375e+01,1.346572418212890625e+02,-8.579821586608886719e+00,-3.188372230529785156e+01,-1.837655792236328125e+02,3.669813919067382812e+01,2.514453697204589844e+01,3.201483154296875000e+01
1.087630033493041992e+00,2.000000000000000000e+00,-3.160376358032226562e+01,2.290441989898681641e+00,4.012500762939453125e+01,9.579357147216796875e+01,8.451950073242187500e+01,1.346469421386718750e+02,-8.631347656250000000e+00,-3.187736129760742188e+01,-1.837613525390625000e+02,3.669684982299804688e+01,2.516049385070800781e+01,3.201164627075195312e+01
1.091927051544189453e+00,2.000000000000000000e+00,-3.165618133544921875e+01,2.327419519424438477e+00,4.008119201660156250e+01,9.580100250244140625e+01,8.451869964599609375e+01,1.346365661621093750e+02,-8.682488441467285156e+00,-3.187122344970703125e+01,-1.837569885253906250e+02,3.669583892822265625e+01,2.517615890502929688e+01,3.200856781005859375e+01
1.095986008644104004e+00,2.000000000000000000e+00,-3.170848846435546875e+01,2.364373922348022461e+00,4.003750228881835938e+01,9.580842590332031250e+01,8.451832580566406250e+01,1.346264038085937500e+02,-8.732530593872070312e+00,-3.186499786376953125e+01,-1.837526550292968750e+02,3.669454956054687500e+01,2.519269943237304688e+01,3.200626373291015625e+01
1.099930047988891602e+00,2.000000000000000000e+00,-3.176076316833496094e+01,2.401238203048706055e+00,3.999360656738281250e+01,9.581606292724609375e+01,8.451784515380859375e+01,1.346163024902343750e+02,-8.782244682312011719e+00,-3.185909271240234375e+01,-1.837484588623046875e+02,3.669339752197265625e+01,2.520902061462402344e+01,3.200362777709960938e+01
1.103937983512878418e+00,2.000000000000000000e+00,-3.181315040588378906e+01,2.438011646270751953e+00,3.994968795776367188e+01,9.582359313964843750e+01,8.451731872558593750e+01,1.346062622070312500e+02,-8.832672119140625000e+00,-3.185300827026367188e+01,-1.837442169189453125e+02,3.669210815429687500e+01,2.522475814819335938e+01,3.200065994262695312e+01
1.108690977096557617e+00,2.000000000000000000e+00,-3.191744422912597656e+01,2.511807918548583984e+00,3.986179351806640625e+01,9.583818054199218750e+01,8.451619720458984375e+01,1.345865783691406250e+02,-8.935338973999023438e+00,-3.184101295471191406e+01,-1.837353057861328125e+02,3.668995285034179688e+01,2.525681877136230469e+01,3.199439620971679688e+01
1.111876964569091797e+00,2.000000000000000000e+00,-3.196969032287597656e+01,2.548558950424194336e+00,3.981789779663085938e+01,9.584540557861328125e+01,8.451566314697265625e+01,1.345769500732421875e+02,-8.986535072326660156e+00,-3.183506202697753906e+01,-1.837311096191406250e+02,3.668873214721679688e+01,2.527262878417968750e+01,3.199143218994140625e+01
1.115923047065734863e+00,2.000000000000000000e+00,-3.196969032287597656e+01,2.548558950424194336e+00,3.981789779663085938e+01,9.584540557861328125e+01,8.451566314697265625e+01,1.345769500732421875e+02,-8.986535072326660156e+00,-3.183506202697753906e+01,-1.837311096191406250e+02,3.668873214721679688e+01,2.527262878417968750e+01,3.199143218994140625e+01
