rpiRobotics/ARM-21-02-F-19-Robot-Motion-Program/data_performance_abb/curve_1/dual_arm/diffevo_pose3/grad_result/real/run_0.csv
timestamp,cmd_num,J1,J2,J3,J4,J5,J6,J1_2,J2_2,J3_2,J4_2,J5_2,J6_2
1.035500038415193558e-02,-1.000000000000000000e+00,-1.942351913452148438e+01,-5.903987884521484375e+00,5.050770568847656250e+01,9.446839904785156250e+01,8.515193176269531250e+01,1.360843200683593750e+02,3.055084705352783203e+00,-3.316051864624023438e+01,-1.848525848388671875e+02,3.652156829833984375e+01,2.123068046569824219e+01,3.301788330078125000e+01
1.286800019443035126e-02,-1.000000000000000000e+00,-1.942351913452148438e+01,-5.903942584991455078e+00,5.050770568847656250e+01,9.446855163574218750e+01,8.515204620361328125e+01,1.360841217041015625e+02,3.055084705352783203e+00,-3.316051864624023438e+01,-1.848524780273437500e+02,3.652156829833984375e+01,2.123068046569824219e+01,3.301788330078125000e+01
1.419200003147125244e-02,-1.000000000000000000e+00,-1.942351913452148438e+01,-5.903942584991455078e+00,5.050770568847656250e+01,9.446855163574218750e+01,8.515204620361328125e+01,1.360841217041015625e+02,3.055084705352783203e+00,-3.316051864624023438e+01,-1.848524780273437500e+02,3.652156829833984375e+01,2.123068046569824219e+01,3.301788330078125000e+01
1.762199960649013519e-02,-1.000000000000000000e+00,-1.942346191406250000e+01,-5.903987884521484375e+00,5.050770568847656250e+01,9.446855163574218750e+01,8.515193176269531250e+01,1.360843200683593750e+02,3.055084705352783203e+00,-3.316065597534179688e+01,-1.848524780273437500e+02,3.652156829833984375e+01,2.123089790344238281e+01,3.301788330078125000e+01
2.045099996030330658e-02,-1.000000000000000000e+00,-1.942346191406250000e+01,-5.903987884521484375e+00,5.050770568847656250e+01,9.446855163574218750e+01,8.515193176269531250e+01,1.360843200683593750e+02,3.055084705352783203e+00,-3.316065597534179688e+01,-1.848524780273437500e+02,3.652156829833984375e+01,2.123089790344238281e+01,3.301788330078125000e+01
2.178500033915042877e-02,-1.000000000000000000e+00,-1.942346191406250000e+01,-5.903987884521484375e+00,5.050770568847656250e+01,9.446839904785156250e+01,8.515193176269531250e+01,1.360841217041015625e+02,3.055084705352783203e+00,-3.316051864624023438e+01,-1.848523712158203125e+02,3.652156829833984375e+01,2.123068046569824219e+01,3.301788330078125000e+01
2.500399947166442871e-02,-1.000000000000000000e+00,-1.942351913452148438e+01,-5.903987884521484375e+00,5.050770568847656250e+01,9.446855163574218750e+01,8.515204620361328125e+01,1.360841217041015625e+02,3.055084705352783203e+00,-3.316051864624023438e+01,-1.848524780273437500e+02,3.652156829833984375e+01,2.123089790344238281e+01,3.301810455322265625e+01
2.804999984800815582e-02,-1.000000000000000000e+00,-1.942351913452148438e+01,-5.903987884521484375e+00,5.050770568847656250e+01,9.446855163574218750e+01,8.515204620361328125e+01,1.360841217041015625e+02,3.055084705352783203e+00,-3.316051864624023438e+01,-1.848524780273437500e+02,3.652156829833984375e+01,2.123089790344238281e+01,3.301810455322265625e+01
3.267199918627738953e-02,-1.000000000000000000e+00,-1.942351913452148438e+01,-5.903987884521484375e+00,5.050770568847656250e+01,9.446839904785156250e+01,8.515193176269531250e+01,1.360841217041015625e+02,3.055084705352783203e+00,-3.316051864624023438e+01,-1.848524780273437500e+02,3.652156829833984375e+01,2.123068046569824219e+01,3.301788330078125000e+01
3.615000098943710327e-02,-1.000000000000000000e+00,-1.942351913452148438e+01,-5.903987884521484375e+00,5.050770568847656250e+01,9.446839904785156250e+01,8.515204620361328125e+01,1.360843200683593750e+02,3.055084705352783203e+00,-3.316051864624023438e+01,-1.848524780273437500e+02,3.652156829833984375e+01,2.123089790344238281e+01,3.301788330078125000e+01
4.117700085043907166e-02,-1.000000000000000000e+00,-1.942346191406250000e+01,-5.903987884521484375e+00,5.050770568847656250e+01,9.446839904785156250e+01,8.515204620361328125e+01,1.360843200683593750e+02,3.055084705352783203e+00,-3.316051864624023438e+01,-1.848524780273437500e+02,3.652156829833984375e+01,2.123089790344238281e+01,3.301788330078125000e+01
4.929000139236450195e-02,2.000000000000000000e+00,-1.942351913452148438e+01,-5.903987884521484375e+00,5.050770568847656250e+01,9.446839904785156250e+01,8.515193176269531250e+01,1.360843200683593750e+02,3.055084705352783203e+00,-3.316051864624023438e+01,-1.848524780273437500e+02,3.652156829833984375e+01,2.123089790344238281e+01,3.301788330078125000e+01
5.645300075411796570e-02,2.000000000000000000e+00,-1.942351913452148438e+01,-5.903987884521484375e+00,5.050770568847656250e+01,9.446839904785156250e+01,8.515193176269531250e+01,1.360843200683593750e+02,3.055084705352783203e+00,-3.316051864624023438e+01,-1.848524780273437500e+02,3.652156829833984375e+01,2.123068046569824219e+01,3.301810455322265625e+01
6.091099977493286133e-02,2.000000000000000000e+00,-1.942346191406250000e+01,-5.903942584991455078e+00,5.050766372680664062e+01,9.446839904785156250e+01,8.515204620361328125e+01,1.360843200683593750e+02,3.055084705352783203e+00,-3.316051864624023438e+01,-1.848524780273437500e+02,3.652156829833984375e+01,2.123089790344238281e+01,3.301788330078125000e+01
1.009420007467269897e-01,2.000000000000000000e+00,-1.942346191406250000e+01,-5.903942584991455078e+00,5.050770568847656250e+01,9.446839904785156250e+01,8.515204620361328125e+01,1.360841217041015625e+02,3.055084705352783203e+00,-3.316051864624023438e+01,-1.848524780273437500e+02,3.652156829833984375e+01,2.123089790344238281e+01,3.301788330078125000e+01
1.022360026836395264e-01,2.000000000000000000e+00,-1.942346191406250000e+01,-5.903942584991455078e+00,5.050770568847656250e+01,9.446839904785156250e+01,8.515204620361328125e+01,1.360841217041015625e+02,3.055084705352783203e+00,-3.316051864624023438e+01,-1.848524780273437500e+02,3.652156829833984375e+01,2.123089790344238281e+01,3.301788330078125000e+01
1.047509983181953430e-01,2.000000000000000000e+00,-1.942346191406250000e+01,-5.903942584991455078e+00,5.050770568847656250e+01,9.446839904785156250e+01,8.515204620361328125e+01,1.360841217041015625e+02,3.055084705352783203e+00,-3.316051864624023438e+01,-1.848524780273437500e+02,3.652156829833984375e+01,2.123089790344238281e+01,3.301788330078125000e+01
1.071960031986236572e-01,2.000000000000000000e+00,-1.942351913452148438e+01,-5.903942584991455078e+00,5.050770568847656250e+01,9.446839904785156250e+01,8.515193176269531250e+01,1.360843200683593750e+02,3.055084705352783203e+00,-3.316065597534179688e+01,-1.848524780273437500e+02,3.652156829833984375e+01,2.123068046569824219e+01,3.301788330078125000e+01
1.110429987311363220e-01,2.000000000000000000e+00,-1.942360496520996094e+01,-5.903987884521484375e+00,5.050770568847656250e+01,9.446839904785156250e+01,8.515204620361328125e+01,1.360843200683593750e+02,3.055084705352783203e+00,-3.316051864624023438e+01,-1.848525848388671875e+02,3.652156829833984375e+01,2.123068046569824219e+01,3.301788330078125000e+01
1.135609969496726990e-01,2.000000000000000000e+00,-1.942386436462402344e+01,-5.903897285461425781e+00,5.050770568847656250e+01,9.446839904785156250e+01,8.515204620361328125e+01,1.360841217041015625e+02,3.055084705352783203e+00,-3.316065597534179688e+01,-1.848524780273437500e+02,3.652156829833984375e+01,2.123089790344238281e+01,3.301788330078125000e+01
1.149529963731765747e-01,2.000000000000000000e+00,-1.942386436462402344e+01,-5.903897285461425781e+00,5.050770568847656250e+01,9.446839904785156250e+01,8.515204620361328125e+01,1.360841217041015625e+02,3.055084705352783203e+00,-3.316065597534179688e+01,-1.848524780273437500e+02,3.652156829833984375e+01,2.123089790344238281e+01,3.301788330078125000e+01
1.206689998507499695e-01,2.000000000000000000e+00,-1.942429542541503906e+01,-5.903693675994873047e+00,5.050750350952148438e+01,9.446839904785156250e+01,8.515193176269531250e+01,1.360843200683593750e+02,3.055084705352783203e+00,-3.316051864624023438e+01,-1.848524780273437500e+02,3.652156829833984375e+01,2.123068046569824219e+01,3.301788330078125000e+01
1.256060004234313965e-01,2.000000000000000000e+00,-1.942877197265625000e+01,-5.901770114898681641e+00,5.050628662109375000e+01,9.446839904785156250e+01,8.515193176269531250e+01,1.360843200683593750e+02,3.054645299911499023e+00,-3.316051864624023438e+01,-1.848522491455078125e+02,3.652156829833984375e+01,2.123140907287597656e+01,3.301788330078125000e+01
1.268990039825439453e-01,2.000000000000000000e+00,-1.942877197265625000e+01,-5.901770114898681641e+00,5.050628662109375000e+01,9.446839904785156250e+01,8.515193176269531250e+01,1.360843200683593750e+02,3.054645299911499023e+00,-3.316051864624023438e+01,-1.848522491455078125e+02,3.652156829833984375e+01,2.123140907287597656e+01,3.301788330078125000e+01
1.294690072536468506e-01,2.000000000000000000e+00,-1.943305015563964844e+01,-5.899755954742431641e+00,5.050485992431640625e+01,9.446839904785156250e+01,8.515214538574218750e+01,1.360843200683593750e+02,3.054095745086669922e+00,-3.316042709350585938e+01,-1.848512268066406250e+02,3.652156829833984375e+01,2.123213768005371094e+01,3.301810455322265625e+01
1.307969987392425537e-01,2.000000000000000000e+00,-1.943305015563964844e+01,-5.899755954742431641e+00,5.050485992431640625e+01,9.446839904785156250e+01,8.515214538574218750e+01,1.360843200683593750e+02,3.054095745086669922e+00,-3.316042709350585938e+01,-1.848512268066406250e+02,3.652156829833984375e+01,2.123213768005371094e+01,3.301810455322265625e+01
1.348620057106018066e-01,2.000000000000000000e+00,-1.943879127502441406e+01,-5.896587848663330078e+00,5.050256347656250000e+01,9.446855163574218750e+01,8.515193176269531250e+01,1.360841217041015625e+02,3.052997350692749023e+00,-3.315983200073242188e+01,-1.848486785888671875e+02,3.652164077758789062e+01,2.123650932312011719e+01,3.301788330078125000e+01
1.373820006847381592e-01,2.000000000000000000e+00,-1.944625663757324219e+01,-5.892175197601318359e+00,5.049904632568359375e+01,9.446839904785156250e+01,8.515193176269531250e+01,1.360841217041015625e+02,3.049921035766601562e+00,-3.315909576416015625e+01,-1.848467712402343750e+02,3.652178192138671875e+01,2.124022483825683594e+01,3.301766586303710938e+01
1.386509984731674194e-01,2.000000000000000000e+00,-1.944625663757324219e+01,-5.892175197601318359e+00,5.049904632568359375e+01,9.446839904785156250e+01,8.515193176269531250e+01,1.360841217041015625e+02,3.049921035766601562e+00,-3.315909576416015625e+01,-1.848467712402343750e+02,3.652178192138671875e+01,2.124022483825683594e+01,3.301766586303710938e+01
1.411799937486648560e-01,2.000000000000000000e+00,-1.945535469055175781e+01,-5.886291027069091797e+00,5.049420547485351562e+01,9.446855163574218750e+01,8.515183258056640625e+01,1.360837860107421875e+02,3.045855998992919922e+00,-3.315863800048828125e+01,-1.848455200195312500e+02,3.652185440063476562e+01,2.124372291564941406e+01,3.301689529418945312e+01
1.435900032520294189e-01,2.000000000000000000e+00,-1.945535469055175781e+01,-5.886291027069091797e+00,5.049420547485351562e+01,9.446855163574218750e+01,8.515183258056640625e+01,1.360837860107421875e+02,3.045855998992919922e+00,-3.315863800048828125e+01,-1.848455200195312500e+02,3.652185440063476562e+01,2.124372291564941406e+01,3.301689529418945312e+01
1.461900025606155396e-01,2.000000000000000000e+00,-1.946591949462890625e+01,-5.879117488861083984e+00,5.048800277709960938e+01,9.446881866455078125e+01,8.515172576904296875e+01,1.360834503173828125e+02,3.040033340454101562e+00,-3.315795135498046875e+01,-1.848436126708984375e+02,3.652185440063476562e+01,2.124583625793457031e+01,3.301590728759765625e+01
1.474439948797225952e-01,2.000000000000000000e+00,-1.946591949462890625e+01,-5.879117488861083984e+00,5.048800277709960938e+01,9.446881866455078125e+01,8.515172576904296875e+01,1.360834503173828125e+02,3.040033340454101562e+00,-3.315795135498046875e+01,-1.848436126708984375e+02,3.652185440063476562e+01,2.124583625793457031e+01,3.301590728759765625e+01
1.511950045824050903e-01,2.000000000000000000e+00,-1.947837829589843750e+01,-5.870382308959960938e+00,5.048001480102539062e+01,9.446934509277343750e+01,8.515183258056640625e+01,1.360829010009765625e+02,3.031958341598510742e+00,-3.315703582763671875e+01,-1.848417663574218750e+02,3.652185440063476562e+01,2.124802207946777344e+01,3.301447677612304688e+01
1.552069932222366333e-01,2.000000000000000000e+00,-1.949344825744628906e+01,-5.859927177429199219e+00,5.046997070312500000e+01,9.447055816650390625e+01,8.515161132812500000e+01,1.360818939208984375e+02,3.020862340927124023e+00,-3.315575790405273438e+01,-1.848400878906250000e+02,3.652178192138671875e+01,2.125013351440429688e+01,3.301371002197265625e+01
1.587540060281753540e-01,2.000000000000000000e+00,-1.951124572753906250e+01,-5.847707271575927734e+00,5.045728683471679688e+01,9.447213745117187500e+01,8.515151214599609375e+01,1.360799865722656250e+02,3.007019519805908203e+00,-3.315433502197265625e+01,-1.848381195068359375e+02,3.652142333984375000e+01,2.125312232971191406e+01,3.301326751708984375e+01
1.612969934940338135e-01,2.000000000000000000e+00,-1.951124572753906250e+01,-5.847707271575927734e+00,5.045728683471679688e+01,9.447213745117187500e+01,8.515151214599609375e+01,1.360799865722656250e+02,2.990430116653442383e+00,-3.315282821655273438e+01,-1.848360595703125000e+02,3.652092361450195312e+01,2.125720214843750000e+01,3.301305007934570312e+01
1.626179963350296021e-01,2.000000000000000000e+00,-1.953180122375488281e+01,-5.833721637725830078e+00,5.044162750244140625e+01,9.447439575195312500e+01,8.515129852294921875e+01,1.360779571533203125e+02,2.990430116653442383e+00,-3.315282821655273438e+01,-1.848360595703125000e+02,3.652092361450195312e+01,2.125720214843750000e+01,3.301305007934570312e+01
1.668950021266937256e-01,2.000000000000000000e+00,-1.953180122375488281e+01,-5.833721637725830078e+00,5.044162750244140625e+01,9.447439575195312500e+01,8.515129852294921875e+01,1.360779571533203125e+02,2.990430116653442383e+00,-3.315282821655273438e+01,-1.848360595703125000e+02,3.652092361450195312e+01,2.125720214843750000e+01,3.301305007934570312e+01
1.694590002298355103e-01,2.000000000000000000e+00,-1.958106231689453125e+01,-5.800704479217529297e+00,5.040269088745117188e+01,9.447972106933593750e+01,8.515076446533203125e+01,1.360727233886718750e+02,2.946320056915283203e+00,-3.314875411987304688e+01,-1.848319091796875000e+02,3.651969909667968750e+01,2.126849555969238281e+01,3.301184082031250000e+01
1.708600074052810669e-01,2.000000000000000000e+00,-1.958106231689453125e+01,-5.800704479217529297e+00,5.040269088745117188e+01,9.447972106933593750e+01,8.515076446533203125e+01,1.360727233886718750e+02,2.946320056915283203e+00,-3.314875411987304688e+01,-1.848319091796875000e+02,3.651969909667968750e+01,2.126849555969238281e+01,3.301184082031250000e+01
1.733070015907287598e-01,2.000000000000000000e+00,-1.958106231689453125e+01,-5.800704479217529297e+00,5.040269088745117188e+01,9.447972106933593750e+01,8.515076446533203125e+01,1.360727233886718750e+02,2.919183731079101562e+00,-3.314582061767578125e+01,-1.848294219970703125e+02,3.651927185058593750e+01,2.127621841430664062e+01,3.301107406616210938e+01
1.773229986429214478e-01,2.000000000000000000e+00,-1.960959625244140625e+01,-5.781355857849121094e+00,5.037894821166992188e+01,9.448330688476562500e+01,8.514996337890625000e+01,1.360684661865234375e+02,2.919183731079101562e+00,-3.314582061767578125e+01,-1.848294219970703125e+02,3.651927185058593750e+01,2.127621841430664062e+01,3.301107406616210938e+01
1.862149983644485474e-01,2.000000000000000000e+00,-1.970918083190917969e+01,-5.713308334350585938e+00,5.029078674316406250e+01,9.449721527099609375e+01,8.514772796630859375e+01,1.360521850585937500e+02,2.817120790481567383e+00,-3.313442230224609375e+01,-1.848209381103515625e+02,3.651718521118164062e+01,2.130660247802734375e+01,3.300722885131835938e+01
1.874949932098388672e-01,2.000000000000000000e+00,-1.970918083190917969e+01,-5.713308334350585938e+00,5.029078674316406250e+01,9.449721527099609375e+01,8.514772796630859375e+01,1.360521850585937500e+02,2.817120790481567383e+00,-3.313442230224609375e+01,-1.848209381103515625e+02,3.651718521118164062e+01,2.130660247802734375e+01,3.300722885131835938e+01
1.901179999113082886e-01,2.000000000000000000e+00,-1.974681472778320312e+01,-5.687600612640380859e+00,5.025662994384765625e+01,9.450247955322265625e+01,8.514698028564453125e+01,1.360456695556640625e+02,2.777020692825317383e+00,-3.312980270385742188e+01,-1.848174438476562500e+02,3.651661300659179688e+01,2.131884384155273438e+01,3.300524902343750000e+01
1.914640069007873535e-01,2.000000000000000000e+00,-1.974681472778320312e+01,-5.687600612640380859e+00,5.025662994384765625e+01,9.450247955322265625e+01,8.514698028564453125e+01,1.360456695556640625e+02,2.777020692825317383e+00,-3.312980270385742188e+01,-1.848174438476562500e+02,3.651661300659179688e+01,2.131884384155273438e+01,3.300524902343750000e+01
1.947000026702880859e-01,2.000000000000000000e+00,-1.978677558898925781e+01,-5.659969329833984375e+00,5.022019577026367188e+01,9.450853729248046875e+01,8.514591217041015625e+01,1.360384063720703125e+02,2.734119176864624023e+00,-3.312481307983398438e+01,-1.848137969970703125e+02,3.651596832275390625e+01,2.133239555358886719e+01,3.300305175781250000e+01
1.959619969129562378e-01,2.000000000000000000e+00,-1.978677558898925781e+01,-5.659969329833984375e+00,5.022019577026367188e+01,9.450853729248046875e+01,8.514591217041015625e+01,1.360384063720703125e+02,2.734119176864624023e+00,-3.312481307983398438e+01,-1.848137969970703125e+02,3.651596832275390625e+01,2.133239555358886719e+01,3.300305175781250000e+01
1.984709948301315308e-01,2.000000000000000000e+00,-1.982914543151855469e+01,-5.630414962768554688e+00,5.018152236938476562e+01,9.451496124267578125e+01,8.514473724365234375e+01,1.360311584472656250e+02,2.687976598739624023e+00,-3.311959075927734375e+01,-1.848099975585937500e+02,3.651532363891601562e+01,2.134624099731445312e+01,3.300085449218750000e+01
2.021570056676864624e-01,2.000000000000000000e+00,-1.987332725524902344e+01,-5.599027156829833984e+00,5.014112472534179688e+01,9.452139282226562500e+01,8.514366912841796875e+01,1.360233612060546875e+02,2.640350818634033203e+00,-3.311414337158203125e+01,-1.848059234619140625e+02,3.651481628417968750e+01,2.135986518859863281e+01,3.299722671508789062e+01
2.056519985198974609e-01,2.000000000000000000e+00,-1.991948699951171875e+01,-5.566711425781250000e+00,5.009940338134765625e+01,9.452797698974609375e+01,8.514250183105468750e+01,1.360152893066406250e+02,2.591077089309692383e+00,-3.310860443115234375e+01,-1.848018493652343750e+02,3.651431655883789062e+01,2.137524032592773438e+01,3.299404144287109375e+01
2.079560011625289917e-01,2.000000000000000000e+00,-1.991948699951171875e+01,-5.566711425781250000e+00,5.009940338134765625e+01,9.452797698974609375e+01,8.514250183105468750e+01,1.360152893066406250e+02,2.591077089309692383e+00,-3.310860443115234375e+01,-1.848018493652343750e+02,3.651431655883789062e+01,2.137524032592773438e+01,3.299404144287109375e+01
2.116319984197616577e-01,2.000000000000000000e+00,-1.996705436706542969e+01,-5.533128738403320312e+00,5.005650329589843750e+01,9.453471374511718750e+01,8.514111328125000000e+01,1.360072174072265625e+02,2.540485143661499023e+00,-3.310288619995117188e+01,-1.847976074218750000e+02,3.651381301879882812e+01,2.139134216308593750e+01,3.299118804931640625e+01
2.149939984083175659e-01,2.000000000000000000e+00,-2.001608467102050781e+01,-5.498459339141845703e+00,5.001272964477539062e+01,9.454155731201171875e+01,8.513973236083984375e+01,1.359989471435546875e+02,2.489179134368896484e+00,-3.309702301025390625e+01,-1.847929840087890625e+02,3.651338195800781250e+01,2.140744400024414062e+01,3.298767471313476562e+01
2.190690040588378906e-01,2.000000000000000000e+00,-2.001608467102050781e+01,-5.498459339141845703e+00,5.001272964477539062e+01,9.454155731201171875e+01,8.513973236083984375e+01,1.359989471435546875e+02,2.489179134368896484e+00,-3.309702301025390625e+01,-1.847929840087890625e+02,3.651338195800781250e+01,2.140744400024414062e+01,3.298767471313476562e+01
2.271050065755844116e-01,2.000000000000000000e+00,-2.006652450561523438e+01,-5.462727069854736328e+00,4.996812057495117188e+01,9.454820251464843750e+01,8.513844299316406250e+01,1.359903869628906250e+02,2.437158584594726562e+00,-3.309093475341796875e+01,-1.847886199951171875e+02,3.651302337646484375e+01,2.142362022399902344e+01,3.298371505737304688e+01
2.293930053710937500e-01,2.000000000000000000e+00,-2.017035675048828125e+01,-5.389338016510009766e+00,4.987731933593750000e+01,9.456130981445312500e+01,8.513540649414062500e+01,1.359725646972656250e+02,2.331799745559692383e+00,-3.307889556884765625e+01,-1.847796478271484375e+02,3.651230621337890625e+01,2.145771980285644531e+01,3.297591400146484375e+01
2.319509983062744141e-01,2.000000000000000000e+00,-2.022389411926269531e+01,-5.351998805999755859e+00,4.983134841918945312e+01,9.456810760498046875e+01,8.513391876220703125e+01,1.359635314941406250e+02,2.278735876083374023e+00,-3.307266998291015625e+01,-1.847755279541015625e+02,3.651208877563476562e+01,2.147542381286621094e+01,3.297240066528320312e+01
2.356249988079071045e-01,2.000000000000000000e+00,-2.027820777893066406e+01,-5.314025402069091797e+00,4.978519439697265625e+01,9.457516479492187500e+01,8.513236999511718750e+01,1.359543914794921875e+02,2.225177526473999023e+00,-3.306649398803710938e+01,-1.847708435058593750e+02,3.651180267333984375e+01,2.149247360229492188e+01,3.296822738647460938e+01
2.389899939298629761e-01,2.000000000000000000e+00,-2.033289527893066406e+01,-5.276188373565673828e+00,4.973904418945312500e+01,9.458158874511718750e+01,8.513082122802734375e+01,1.359447479248046875e+02,2.171728849411010742e+00,-3.306049728393554688e+01,-1.847661743164062500e+02,3.651137161254882812e+01,2.150952339172363281e+01,3.296449279785156250e+01
2.430730015039443970e-01,2.000000000000000000e+00,-2.033289527893066406e+01,-5.276188373565673828e+00,4.973904418945312500e+01,9.458158874511718750e+01,8.513082122802734375e+01,1.359447479248046875e+02,2.171728849411010742e+00,-3.306049728393554688e+01,-1.847661743164062500e+02,3.651137161254882812e+01,2.150952339172363281e+01,3.296449279785156250e+01
2.470249980688095093e-01,2.000000000000000000e+00,-2.038778114318847656e+01,-5.237966537475585938e+00,4.969288635253906250e+01,9.458828735351562500e+01,8.512922668457031250e+01,1.359358673095703125e+02,2.118610143661499023e+00,-3.305459213256835938e+01,-1.847616424560546875e+02,3.651108551025390625e+01,2.152642822265625000e+01,3.296097183227539062e+01
2.522009909152984619e-01,2.000000000000000000e+00,-2.044289779663085938e+01,-5.199767112731933594e+00,4.964679718017578125e+01,9.459475708007812500e+01,8.512735748291015625e+01,1.359267883300781250e+02,2.066095352172851562e+00,-3.304859542846679688e+01,-1.847571868896484375e+02,3.651094055175781250e+01,2.154391479492187500e+01,3.295767974853515625e+01
2.550419867038726807e-01,2.000000000000000000e+00,-2.055295944213867188e+01,-5.124070167541503906e+00,4.955483627319335938e+01,9.460825347900390625e+01,8.512426757812500000e+01,1.359088134765625000e+02,1.960901260375976562e+00,-3.303632354736328125e+01,-1.847482757568359375e+02,3.651043701171875000e+01,2.157852554321289062e+01,3.294943618774414062e+01
2.590239942073822021e-01,2.000000000000000000e+00,-2.055295944213867188e+01,-5.124070167541503906e+00,4.955483627319335938e+01,9.460825347900390625e+01,8.512426757812500000e+01,1.359088134765625000e+02,1.960901260375976562e+00,-3.303632354736328125e+01,-1.847482757568359375e+02,3.651043701171875000e+01,2.157852554321289062e+01,3.294943618774414062e+01
2.630130052566528320e-01,2.000000000000000000e+00,-2.060770416259765625e+01,-5.086210250854492188e+00,4.950888442993164062e+01,9.461520385742187500e+01,8.512261199951171875e+01,1.359000701904296875e+02,1.907232999801635742e+00,-3.303037643432617188e+01,-1.847438659667968750e+02,3.651029586791992188e+01,2.159520912170410156e+01,3.294592285156250000e+01
2.669999897480010986e-01,2.000000000000000000e+00,-2.066227531433105469e+01,-5.048237323760986328e+00,4.946279525756835938e+01,9.462194824218750000e+01,8.512090301513671875e+01,1.358909759521484375e+02,1.853290319442749023e+00,-3.302424240112304688e+01,-1.847396240234375000e+02,3.650993728637695312e+01,2.161218643188476562e+01,3.294262695312500000e+01
2.710660099983215332e-01,2.000000000000000000e+00,-2.071670341491699219e+01,-5.010490894317626953e+00,4.941678619384765625e+01,9.462879180908203125e+01,8.511925506591796875e+01,1.358821563720703125e+02,1.799731850624084473e+00,-3.301801681518554688e+01,-1.847352752685546875e+02,3.650965118408203125e+01,2.162952804565429688e+01,3.293856430053710938e+01
2.750119864940643311e-01,2.000000000000000000e+00,-2.077118873596191406e+01,-4.972743988037109375e+00,4.937075424194335938e+01,9.463590240478515625e+01,8.511759948730468750e+01,1.358740844726562500e+02,1.746997475624084473e+00,-3.301188278198242188e+01,-1.847307128906250000e+02,3.650965118408203125e+01,2.164701461791992188e+01,3.293449783325195312e+01
2.789550125598907471e-01,2.000000000000000000e+00,-2.087950134277343750e+01,-4.897771358489990234e+00,4.927856826782226562e+01,9.465012359619140625e+01,8.511434936523437500e+01,1.358565368652343750e+02,1.642517566680908203e+00,-3.299979782104492188e+01,-1.847214508056640625e+02,3.650907135009765625e+01,2.168125915527343750e+01,3.292713546752929688e+01
2.840650081634521484e-01,2.000000000000000000e+00,-2.087950134277343750e+01,-4.897771358489990234e+00,4.927856826782226562e+01,9.465012359619140625e+01,8.511434936523437500e+01,1.358565368652343750e+02,1.642517566680908203e+00,-3.299979782104492188e+01,-1.847214508056640625e+02,3.650907135009765625e+01,2.168125915527343750e+01,3.292713546752929688e+01
2.869560122489929199e-01,2.000000000000000000e+00,-2.098740959167480469e+01,-4.822911262512207031e+00,4.918589782714843750e+01,9.466481781005859375e+01,8.511109924316406250e+01,1.358393707275390625e+02,1.536499381065368652e+00,-3.298748016357421875e+01,-1.847123718261718750e+02,3.650871276855468750e+01,2.171608734130859375e+01,3.291977691650390625e+01
2.920500040054321289e-01,2.000000000000000000e+00,-2.098740959167480469e+01,-4.822911262512207031e+00,4.918589782714843750e+01,9.466481781005859375e+01,8.511109924316406250e+01,1.358393707275390625e+02,1.536499381065368652e+00,-3.298748016357421875e+01,-1.847123718261718750e+02,3.650871276855468750e+01,2.171608734130859375e+01,3.291977691650390625e+01
2.950280010700225830e-01,2.000000000000000000e+00,-2.109552001953125000e+01,-4.748322963714599609e+00,4.909320449829101562e+01,9.467914581298828125e+01,8.510758209228515625e+01,1.358222045898437500e+02,1.430975794792175293e+00,-3.297493743896484375e+01,-1.847037811279296875e+02,3.650835418701171875e+01,2.174967765808105469e+01,3.291208648681640625e+01
2.991209924221038818e-01,2.000000000000000000e+00,-2.109552001953125000e+01,-4.748322963714599609e+00,4.909320449829101562e+01,9.467914581298828125e+01,8.510758209228515625e+01,1.358222045898437500e+02,1.430975794792175293e+00,-3.297493743896484375e+01,-1.847037811279296875e+02,3.650835418701171875e+01,2.174967765808105469e+01,3.291208648681640625e+01
3.033249974250793457e-01,2.000000000000000000e+00,-2.114994812011718750e+01,-4.710915565490722656e+00,4.904698944091796875e+01,9.468578338623046875e+01,8.510597991943359375e+01,1.358132629394531250e+02,1.378351330757141113e+00,-3.296880340576171875e+01,-1.846993255615234375e+02,3.650814056396484375e+01,2.176679801940917969e+01,3.290867996215820312e+01
3.073469996452331543e-01,2.000000000000000000e+00,-2.120403099060058594e+01,-4.673508167266845703e+00,4.900085830688476562e+01,9.469257354736328125e+01,8.510427093505859375e+01,1.358046569824218750e+02,1.326166152954101562e+00,-3.296280670166015625e+01,-1.846947479248046875e+02,3.650792312622070312e+01,2.178487014770507812e+01,3.290428543090820312e+01
3.110139966011047363e-01,2.000000000000000000e+00,-2.125854492187500000e+01,-4.635965347290039062e+00,4.895478439331054688e+01,9.469953155517578125e+01,8.510245513916015625e+01,1.357958221435546875e+02,1.273816347122192383e+00,-3.295699691772460938e+01,-1.846902465820312500e+02,3.650785446166992188e+01,2.180220985412597656e+01,3.290021896362304688e+01
3.160730004310607910e-01,2.000000000000000000e+00,-2.131311798095703125e+01,-4.598580837249755859e+00,4.890871429443359375e+01,9.470622253417968750e+01,8.510080718994140625e+01,1.357868804931640625e+02,1.220972061157226562e+00,-3.295099639892578125e+01,-1.846859436035156250e+02,3.650763702392578125e+01,2.181904220581054688e+01,3.289659500122070312e+01
3.198670148849487305e-01,2.000000000000000000e+00,-2.142246246337890625e+01,-4.523517608642578125e+00,4.881673049926757812e+01,9.471928405761718750e+01,8.509739685058593750e+01,1.357691040039062500e+02,1.115777969360351562e+00,-3.293891143798828125e+01,-1.846765899658203125e+02,3.650720596313476562e+01,2.185387039184570312e+01,3.288901519775390625e+01
3.240459859371185303e-01,2.000000000000000000e+00,-2.142246246337890625e+01,-4.523517608642578125e+00,4.881673049926757812e+01,9.471928405761718750e+01,8.509739685058593750e+01,1.357691040039062500e+02,1.115777969360351562e+00,-3.293891143798828125e+01,-1.846765899658203125e+02,3.650720596313476562e+01,2.185387039184570312e+01,3.288901519775390625e+01
3.281889855861663818e-01,2.000000000000000000e+00,-2.147723388671875000e+01,-4.485906600952148438e+00,4.877088546752929688e+01,9.472592163085937500e+01,8.509553527832031250e+01,1.357598876953125000e+02,1.010913491249084473e+00,-3.292678070068359375e+01,-1.846673431396484375e+02,3.650684738159179688e+01,2.188898849487304688e+01,3.288121414184570312e+01
3.329629898071289062e-01,2.000000000000000000e+00,-2.158640480041503906e+01,-4.410322189331054688e+00,4.867898559570312500e+01,9.473914337158203125e+01,8.509195709228515625e+01,1.357417144775390625e+02,9.585636854171752930e-01,-3.292064666748046875e+01,-1.846625061035156250e+02,3.650663375854492188e+01,2.190611076354980469e+01,3.287780761718750000e+01
3.356510102748870850e-01,2.000000000000000000e+00,-2.164106369018554688e+01,-4.372417449951171875e+00,4.863285064697265625e+01,9.474577331542968750e+01,8.509019470214843750e+01,1.357331695556640625e+02,9.059391021728515625e-01,-3.291478729248046875e+01,-1.846581573486328125e+02,3.650655746459960938e+01,2.192381668090820312e+01,3.287396240234375000e+01
3.401159942150115967e-01,2.000000000000000000e+00,-2.164106369018554688e+01,-4.372417449951171875e+00,4.863285064697265625e+01,9.474577331542968750e+01,8.509019470214843750e+01,1.357331695556640625e+02,9.059391021728515625e-01,-3.291478729248046875e+01,-1.846581573486328125e+02,3.650655746459960938e+01,2.192381668090820312e+01,3.287396240234375000e+01
3.440180122852325439e-01,2.000000000000000000e+00,-2.169566345214843750e+01,-4.334557533264160156e+00,4.858667755126953125e+01,9.475241851806640625e+01,8.508854675292968750e+01,1.357240905761718750e+02,8.530399799346923828e-01,-3.290884017944335938e+01,-1.846535797119140625e+02,3.650619888305664062e+01,2.194174003601074219e+01,3.286946105957031250e+01
3.479990065097808838e-01,2.000000000000000000e+00,-2.174997711181640625e+01,-4.296788215637207031e+00,4.854070663452148438e+01,9.475931549072265625e+01,8.508678436279296875e+01,1.357154693603515625e+02,8.003056049346923828e-01,-3.290274810791015625e+01,-1.846490783691406250e+02,3.650613021850585938e+01,2.195930099487304688e+01,3.286550521850585938e+01
3.510200083255767822e-01,2.000000000000000000e+00,-2.180451965332031250e+01,-4.258860111236572266e+00,4.849461364746093750e+01,9.476637268066406250e+01,8.508481597900390625e+01,1.357069244384765625e+02,7.469670176506042480e-01,-3.289670944213867188e+01,-1.846447143554687500e+02,3.650591278076171875e+01,2.197678756713867188e+01,3.286154937744140625e+01
3.569630086421966553e-01,2.000000000000000000e+00,-2.185912132263183594e+01,-4.221091270446777344e+00,4.844836044311523438e+01,9.477311706542968750e+01,8.508316040039062500e+01,1.356982421875000000e+02,6.415531635284423828e-01,-3.288443756103515625e+01,-1.846354675292968750e+02,3.650555419921875000e+01,2.201117706298828125e+01,3.285374832153320312e+01
3.599910140037536621e-01,2.000000000000000000e+00,-2.196829223632812500e+01,-4.145643234252929688e+00,4.835615539550781250e+01,9.478697204589843750e+01,8.507975006103515625e+01,1.356812896728515625e+02,5.894230008125305176e-01,-3.287816619873046875e+01,-1.846309051513671875e+02,3.650541305541992188e+01,2.202859306335449219e+01,3.285023117065429688e+01
3.630000054836273193e-01,2.000000000000000000e+00,-2.196829223632812500e+01,-4.145643234252929688e+00,4.835615539550781250e+01,9.478697204589843750e+01,8.507975006103515625e+01,1.356812896728515625e+02,5.894230008125305176e-01,-3.287816619873046875e+01,-1.846309051513671875e+02,3.650541305541992188e+01,2.202859306335449219e+01,3.285023117065429688e+01
3.670049905776977539e-01,2.000000000000000000e+00,-2.202269172668457031e+01,-4.107805728912353516e+00,4.831022644042968750e+01,9.479418945312500000e+01,8.507809448242187500e+01,1.356729583740234375e+02,5.366886854171752930e-01,-3.287194061279296875e+01,-1.846262817382812500e+02,3.650534057617187500e+01,2.204622459411621094e+01,3.284627914428710938e+01
3.710860013961791992e-01,2.000000000000000000e+00,-2.207732200622558594e+01,-4.070149421691894531e+00,4.826437759399414062e+01,9.480139923095703125e+01,8.507617187500000000e+01,1.356646118164062500e+02,4.838993847370147705e-01,-3.286571502685546875e+01,-1.846218261718750000e+02,3.650512313842773438e+01,2.206349372863769531e+01,3.284232330322265625e+01
3.750180006027221680e-01,2.000000000000000000e+00,-2.213192176818847656e+01,-4.032674312591552734e+00,4.821846771240234375e+01,9.480835723876953125e+01,8.507440948486328125e+01,1.356560516357421875e+02,4.308903217315673828e-01,-3.285962677001953125e+01,-1.846174774169921875e+02,3.650483703613281250e+01,2.208025169372558594e+01,3.283858871459960938e+01
3.837769925594329834e-01,2.000000000000000000e+00,-2.218629264831542969e+01,-3.995153903961181641e+00,4.817278289794921875e+01,9.481536102294921875e+01,8.507270812988281250e+01,1.356475830078125000e+02,3.778812885284423828e-01,-3.285354232788085938e+01,-1.846127929687500000e+02,3.650476455688476562e+01,2.209730148315429688e+01,3.283463287353515625e+01
3.851560056209564209e-01,2.000000000000000000e+00,-2.229514884948730469e+01,-3.920226335525512695e+00,4.808100509643554688e+01,9.482916259765625000e+01,8.506961822509765625e+01,1.356309051513671875e+02,2.727421224117279053e-01,-3.284122848510742188e+01,-1.846036987304687500e+02,3.650426483154296875e+01,2.213271331787109375e+01,3.282738113403320312e+01
3.876850008964538574e-01,2.000000000000000000e+00,-2.234946250915527344e+01,-3.882773876190185547e+00,4.803524017333984375e+01,9.483580017089843750e+01,8.506769561767578125e+01,1.356222229003906250e+02,2.202274799346923828e-01,-3.283522796630859375e+01,-1.845989837646484375e+02,3.650404739379882812e+01,2.214910697937011719e+01,3.282342910766601562e+01
3.920669853687286377e-01,2.000000000000000000e+00,-2.234946250915527344e+01,-3.882773876190185547e+00,4.803524017333984375e+01,9.483580017089843750e+01,8.506769561767578125e+01,1.356222229003906250e+02,2.202274799346923828e-01,-3.283522796630859375e+01,-1.845989837646484375e+02,3.650404739379882812e+01,2.214910697937011719e+01,3.282342910766601562e+01
3.951910138130187988e-01,2.000000000000000000e+00,-2.240380287170410156e+01,-3.845412015914916992e+00,4.798928833007812500e+01,9.484259033203125000e+01,8.506610107421875000e+01,1.356135406494140625e+02,1.679325550794601440e-01,-3.282913970947265625e+01,-1.845944061279296875e+02,3.650404739379882812e+01,2.216557312011718750e+01,3.281969070434570312e+01
4.011200070381164551e-01,2.000000000000000000e+00,-2.251199913024902344e+01,-3.770801067352294922e+00,4.789728546142578125e+01,9.485602569580078125e+01,8.506311798095703125e+01,1.355960388183593750e+02,6.262859702110290527e-02,-3.281673812866210938e+01,-1.845856933593750000e+02,3.650354385375976562e+01,2.219989013671875000e+01,3.281244277954101562e+01
4.047529995441436768e-01,2.000000000000000000e+00,-2.256588172912597656e+01,-3.733348608016967773e+00,4.785121536254882812e+01,9.486281585693359375e+01,8.506150817871093750e+01,1.355871734619140625e+02,9.784358553588390350e-03,-3.281074142456054688e+01,-1.845809783935546875e+02,3.650347137451171875e+01,2.221708679199218750e+01,3.280870437622070312e+01
4.113959968090057373e-01,2.000000000000000000e+00,-2.256588172912597656e+01,-3.733348608016967773e+00,4.785121536254882812e+01,9.486281585693359375e+01,8.506150817871093750e+01,1.355871734619140625e+02,-4.278522357344627380e-02,-3.280474472045898438e+01,-1.845763549804687500e+02,3.650304031372070312e+01,2.223326110839843750e+01,3.280518722534179688e+01
4.127739965915679932e-01,2.000000000000000000e+00,-2.267356109619140625e+01,-3.658692359924316406e+00,4.775897216796875000e+01,9.487598419189453125e+01,8.505810546875000000e+01,1.355692596435546875e+02,-9.480548650026321411e-02,-3.279865264892578125e+01,-1.845716705322265625e+02,3.650296783447265625e+01,2.225009346008300781e+01,3.280145263671875000e+01
4.169589877128601074e-01,2.000000000000000000e+00,-2.267356109619140625e+01,-3.658692359924316406e+00,4.775897216796875000e+01,9.487598419189453125e+01,8.505810546875000000e+01,1.355692596435546875e+02,-1.464961618185043335e-01,-3.279279327392578125e+01,-1.845671081542968750e+02,3.650282669067382812e+01,2.226809120178222656e+01,3.279760742187500000e+01
4.197260141372680664e-01,2.000000000000000000e+00,-2.278161430358886719e+01,-3.583923339843750000e+00,4.766725158691406250e+01,9.488941955566406250e+01,8.505495452880859375e+01,1.355514221191406250e+02,-1.986262947320938110e-01,-3.278684616088867188e+01,-1.845625305175781250e+02,3.650260925292968750e+01,2.228528594970703125e+01,3.279332351684570312e+01
4.241819977760314941e-01,2.000000000000000000e+00,-2.278161430358886719e+01,-3.583923339843750000e+00,4.766725158691406250e+01,9.488941955566406250e+01,8.505495452880859375e+01,1.355514221191406250e+02,-1.986262947320938110e-01,-3.278684616088867188e+01,-1.845625305175781250e+02,3.650260925292968750e+01,2.228528594970703125e+01,3.279332351684570312e+01
4.282779991626739502e-01,2.000000000000000000e+00,-2.283584213256835938e+01,-3.546470642089843750e+00,4.762144470214843750e+01,9.489605712890625000e+01,8.505346679687500000e+01,1.355428771972656250e+02,-2.511958777904510498e-01,-3.278075408935546875e+01,-1.845581817626953125e+02,3.650232315063476562e+01,2.230211639404296875e+01,3.278981018066406250e+01
4.315150082111358643e-01,2.000000000000000000e+00,-2.289003944396972656e+01,-3.509017944335937500e+00,4.757575988769531250e+01,9.490296173095703125e+01,8.505202484130859375e+01,1.355341949462890625e+02,-3.036555945873260498e-01,-3.277462387084960938e+01,-1.845533447265625000e+02,3.650218200683593750e+01,2.231887435913085938e+01,3.278651428222656250e+01
4.370470046997070312e-01,2.000000000000000000e+00,-2.294420814514160156e+01,-3.471452474594116211e+00,4.753003311157226562e+01,9.490959930419921875e+01,8.505042266845703125e+01,1.355253753662109375e+02,-3.559505045413970947e-01,-3.276839828491210938e+01,-1.845487213134765625e+02,3.650182342529296875e+01,2.233636093139648438e+01,3.278277587890625000e+01
4.400309920310974121e-01,2.000000000000000000e+00,-2.305289268493652344e+01,-3.396592617034912109e+00,4.743874359130859375e+01,9.492324066162109375e+01,8.504733276367187500e+01,1.355086364746093750e+02,-4.605403542518615723e-01,-3.275649642944335938e+01,-1.845391387939453125e+02,3.650153350830078125e+01,2.237177276611328125e+01,3.277354812622070312e+01
4.434500038623809814e-01,2.000000000000000000e+00,-2.305289268493652344e+01,-3.396592617034912109e+00,4.743874359130859375e+01,9.492324066162109375e+01,8.504733276367187500e+01,1.355086364746093750e+02,-4.605403542518615723e-01,-3.275649642944335938e+01,-1.845391387939453125e+02,3.650153350830078125e+01,2.237177276611328125e+01,3.277354812622070312e+01
4.472869932651519775e-01,2.000000000000000000e+00,-2.310712051391601562e+01,-3.358981609344482422e+00,4.739299774169921875e+01,9.493040466308593750e+01,8.504573059082031250e+01,1.354999389648437500e+02,-5.123408436775207520e-01,-3.275063323974609375e+01,-1.845344238281250000e+02,3.650117492675781250e+01,2.238896751403808594e+01,3.277003097534179688e+01
4.525359869003295898e-01,2.000000000000000000e+00,-2.316126251220703125e+01,-3.321415901184082031e+00,4.734741592407226562e+01,9.493730163574218750e+01,8.504440307617187500e+01,1.354912719726562500e+02,-5.643062591552734375e-01,-3.274477386474609375e+01,-1.845298461914062500e+02,3.650095748901367188e+01,2.240565299987792969e+01,3.276673507690429688e+01
4.559189975261688232e-01,2.000000000000000000e+00,-2.321566200256347656e+01,-3.283827781677246094e+00,4.730148696899414062e+01,9.494462585449218750e+01,8.504279327392578125e+01,1.354832000732421875e+02,-6.168208718299865723e-01,-3.273891830444335938e+01,-1.845254516601562500e+02,3.650074386596679688e+01,2.242270278930664062e+01,3.276267242431640625e+01
4.598039984703063965e-01,2.000000000000000000e+00,-2.332451820373535156e+01,-3.208764314651489258e+00,4.720974731445312500e+01,9.495858764648437500e+01,8.503981018066406250e+01,1.354665222167968750e+02,-7.220149636268615723e-01,-3.272678756713867188e+01,-1.845163574218750000e+02,3.650038528442382812e+01,2.245709419250488281e+01,3.275498199462890625e+01
4.641070067882537842e-01,2.000000000000000000e+00,-2.332451820373535156e+01,-3.208764314651489258e+00,4.720974731445312500e+01,9.495858764648437500e+01,8.503981018066406250e+01,1.354665222167968750e+02,-7.220149636268615723e-01,-3.272678756713867188e+01,-1.845163574218750000e+02,3.650038528442382812e+01,2.245709419250488281e+01,3.275498199462890625e+01
4.677290022373199463e-01,2.000000000000000000e+00,-2.337857246398925781e+01,-3.171198606491088867e+00,4.716389846801757812e+01,9.496574401855468750e+01,8.503842163085937500e+01,1.354576263427734375e+02,-7.742549180984497070e-01,-3.272079086303710938e+01,-1.845116882324218750e+02,3.650009918212890625e+01,2.247377967834472656e+01,3.275113677978515625e+01
4.720070064067840576e-01,2.000000000000000000e+00,-2.343274116516113281e+01,-3.133632898330688477e+00,4.711796951293945312e+01,9.497269439697265625e+01,8.503682708740234375e+01,1.354492950439453125e+02,-8.260005712509155273e-01,-3.271474456787109375e+01,-1.845070648193359375e+02,3.649980926513671875e+01,2.249090385437011719e+01,3.274707412719726562e+01
4.766960144042968750e-01,2.000000000000000000e+00,-2.348696899414062500e+01,-3.096293687820434570e+00,4.707212066650390625e+01,9.497944641113281250e+01,8.503543853759765625e+01,1.354408721923828125e+02,-8.780208230018615723e-01,-3.270893096923828125e+01,-1.845023803710937500e+02,3.649959564208984375e+01,2.250875282287597656e+01,3.274267578125000000e+01
4.800060093402862549e-01,2.000000000000000000e+00,-2.354108238220214844e+01,-3.059044837951660156e+00,4.702633285522460938e+01,9.498612976074218750e+01,8.503395080566406250e+01,1.354322662353515625e+02,-9.305354952812194824e-01,-3.270298004150390625e+01,-1.844978027343750000e+02,3.649930953979492188e+01,2.252602195739746094e+01,3.273860931396484375e+01
4.843010008335113525e-01,2.000000000000000000e+00,-2.359502220153808594e+01,-3.021569728851318359e+00,4.698060607910156250e+01,9.499266052246093750e+01,8.503266906738281250e+01,1.354237213134765625e+02,-9.831599593162536621e-01,-3.269693756103515625e+01,-1.844932403564453125e+02,3.649909210205078125e+01,2.254329109191894531e+01,3.273498535156250000e+01
4.877760112285614014e-01,2.000000000000000000e+00,-2.364878845214843750e+01,-2.984275579452514648e+00,4.693508148193359375e+01,9.499929809570312500e+01,8.503106689453125000e+01,1.354145660400390625e+02,-1.035674571990966797e+00,-3.269094085693359375e+01,-1.844888305664062500e+02,3.649887847900390625e+01,2.255990409851074219e+01,3.273092269897460938e+01
4.920139908790588379e-01,2.000000000000000000e+00,-2.370287322998046875e+01,-2.946981430053710938e+00,4.688954162597656250e+01,9.500572967529296875e+01,8.502952575683593750e+01,1.354060211181640625e+02,-1.088079452514648438e+00,-3.268490219116210938e+01,-1.844843292236328125e+02,3.649851989746093750e+01,2.257717132568359375e+01,3.272674560546875000e+01
4.956609904766082764e-01,2.000000000000000000e+00,-2.375672721862792969e+01,-2.909664630889892578e+00,4.684399795532226562e+01,9.501246643066406250e+01,8.502813720703125000e+01,1.353971405029296875e+02,-1.140154600143432617e+00,-3.267876815795898438e+01,-1.844798126220703125e+02,3.649830245971679688e+01,2.259473037719726562e+01,3.272268295288085938e+01
5.008710026741027832e-01,2.000000000000000000e+00,-2.381086730957031250e+01,-2.872461080551147461e+00,4.679833221435546875e+01,9.501895141601562500e+01,8.502674865722656250e+01,1.353882598876953125e+02,-1.192119956016540527e+00,-3.267249298095703125e+01,-1.844752502441406250e+02,3.649808502197265625e+01,2.261185455322265625e+01,3.271905517578125000e+01
5.043410062789916992e-01,2.000000000000000000e+00,-2.386475181579589844e+01,-2.835212230682373047e+00,4.675274658203125000e+01,9.502542114257812500e+01,8.502525329589843750e+01,1.353793029785156250e+02,-1.244469761848449707e+00,-3.266631698608398438e+01,-1.844706268310546875e+02,3.649772644042968750e+01,2.262890434265136719e+01,3.271543121337890625e+01
5.090799927711486816e-01,2.000000000000000000e+00,-2.391863250732421875e+01,-2.798099040985107422e+00,4.670718765258789062e+01,9.503185272216796875e+01,8.502387237548828125e+01,1.353702850341796875e+02,-1.296490073204040527e+00,-3.266032028198242188e+01,-1.844662628173828125e+02,3.649758529663085938e+01,2.264573478698730469e+01,3.271158599853515625e+01
5.119630098342895508e-01,2.000000000000000000e+00,-2.397254562377929688e+01,-2.760804891586303711e+00,4.666154098510742188e+01,9.503849029541015625e+01,8.502248382568359375e+01,1.353619384765625000e+02,-1.348949790000915527e+00,-3.265418624877929688e+01,-1.844617004394531250e+02,3.649722671508789062e+01,2.266292953491210938e+01,3.270806884765625000e+01
5.161240100860595703e-01,2.000000000000000000e+00,-2.402645683288574219e+01,-2.723714590072631836e+00,4.661585235595703125e+01,9.504523468017578125e+01,8.502082824707031250e+01,1.353533325195312500e+02,-1.401574254035949707e+00,-3.264800262451171875e+01,-1.844570770263671875e+02,3.649700927734375000e+01,2.268005180358886719e+01,3.270411300659179688e+01
5.199819803237915039e-01,2.000000000000000000e+00,-2.408025169372558594e+01,-2.686669349670410156e+00,4.657006835937500000e+01,9.505202484130859375e+01,8.501943969726562500e+01,1.353448486328125000e+02,-1.453869223594665527e+00,-3.264191436767578125e+01,-1.844525146484375000e+02,3.649672317504882812e+01,2.269688224792480469e+01,3.270005035400390625e+01
5.251200199127197266e-01,2.000000000000000000e+00,-2.413427925109863281e+01,-2.649511098861694336e+00,4.652432250976562500e+01,9.505886840820312500e+01,8.501805877685546875e+01,1.353363800048828125e+02,-1.505889534950256348e+00,-3.263596725463867188e+01,-1.844481506347656250e+02,3.649643707275390625e+01,2.271327781677246094e+01,3.269642257690429688e+01
5.281580090522766113e-01,2.000000000000000000e+00,-2.418824768066406250e+01,-2.612262248992919922e+00,4.647863388061523438e+01,9.506571960449218750e+01,8.501641082763671875e+01,1.353279571533203125e+02,-1.557525157928466797e+00,-3.262992095947265625e+01,-1.844432678222656250e+02,3.649621963500976562e+01,2.273047256469726562e+01,3.269279861450195312e+01
5.320789813995361328e-01,2.000000000000000000e+00,-2.424210166931152344e+01,-2.575103759765625000e+00,4.643280792236328125e+01,9.507262420654296875e+01,8.501512908935546875e+01,1.353197631835937500e+02,-1.609051108360290527e+00,-3.262369918823242188e+01,-1.844388122558593750e+02,3.649593353271484375e+01,2.274723243713378906e+01,3.268917465209960938e+01
5.362219810485839844e-01,2.000000000000000000e+00,-2.429629898071289062e+01,-2.537877559661865234e+00,4.638716125488281250e+01,9.507952117919921875e+01,8.501358032226562500e+01,1.353110809326171875e+02,-1.660796642303466797e+00,-3.261770248413085938e+01,-1.844344024658203125e+02,3.649571990966796875e+01,2.276398849487304688e+01,3.268587875366210938e+01
5.402100086212158203e-01,2.000000000000000000e+00,-2.435021209716796875e+01,-2.500560998916625977e+00,4.634172058105468750e+01,9.508631896972656250e+01,8.501219940185546875e+01,1.353024749755859375e+02,-1.712926864624023438e+00,-3.261161422729492188e+01,-1.844299926757812500e+02,3.649535751342773438e+01,2.278038406372070312e+01,3.268203353881835938e+01
5.441359877586364746e-01,2.000000000000000000e+00,-2.440406608581542969e+01,-2.463357210159301758e+00,4.629619598388671875e+01,9.509358215332031250e+01,8.501075744628906250e+01,1.352945404052734375e+02,-1.765276670455932617e+00,-3.260575103759765625e+01,-1.844253082275390625e+02,3.649514389038085938e+01,2.279714202880859375e+01,3.267862701416015625e+01
5.491909980773925781e-01,2.000000000000000000e+00,-2.445803451538085938e+01,-2.426108360290527344e+00,4.625087738037109375e+01,9.510043334960937500e+01,8.500899505615234375e+01,1.352862548828125000e+02,-1.817516803741455078e+00,-3.259962081909179688e+01,-1.844207000732421875e+02,3.649478530883789062e+01,2.281389999389648438e+01,3.267533111572265625e+01
5.525140166282653809e-01,2.000000000000000000e+00,-2.451185989379882812e+01,-2.388814210891723633e+00,4.620537567138671875e+01,9.510733032226562500e+01,8.500782775878906250e+01,1.352775878906250000e+02,-1.869427084922790527e+00,-3.259352874755859375e+01,-1.844159545898437500e+02,3.649449539184570312e+01,2.283080482482910156e+01,3.267203140258789062e+01
5.560340285301208496e-01,2.000000000000000000e+00,-2.456559944152832031e+01,-2.351407051086425781e+00,4.616009521484375000e+01,9.511391448974609375e+01,8.500627136230468750e+01,1.352693634033203125e+02,-1.921062827110290527e+00,-3.258771896362304688e+01,-1.844113922119140625e+02,3.649420928955078125e+01,2.284814453125000000e+01,3.266807937622070312e+01
5.589590072631835938e-01,2.000000000000000000e+00,-2.461962509155273438e+01,-2.314294099807739258e+00,4.611473464965820312e+01,9.512071228027343750e+01,8.500462341308593750e+01,1.352608947753906250e+02,-1.972478866577148438e+00,-3.258172225952148438e+01,-1.844069824218750000e+02,3.649392318725585938e+01,2.286417388916015625e+01,3.266445541381835938e+01
5.629400014877319336e-01,2.000000000000000000e+00,-2.467359352111816406e+01,-2.276954889297485352e+00,4.606931686401367188e+01,9.512739562988281250e+01,8.500318908691406250e+01,1.352521514892578125e+02,-2.024444103240966797e+00,-3.257553863525390625e+01,-1.844023590087890625e+02,3.649363708496093750e+01,2.288020324707031250e+01,3.266082763671875000e+01
5.670239925384521484e-01,2.000000000000000000e+00,-2.472762107849121094e+01,-2.239456892013549805e+00,4.602397537231445312e+01,9.513404083251953125e+01,8.500180053710937500e+01,1.352433319091796875e+02,-2.076684236526489258e+00,-3.256931304931640625e+01,-1.843978576660156250e+02,3.649335098266601562e+01,2.289725303649902344e+01,3.265698242187500000e+01
5.709440112113952637e-01,2.000000000000000000e+00,-2.478167533874511719e+01,-2.202162742614746094e+00,4.597835159301757812e+01,9.514036560058593750e+01,8.500009155273437500e+01,1.352348480224609375e+02,-2.128924131393432617e+00,-3.256336593627929688e+01,-1.843932800292968750e+02,3.649306106567382812e+01,2.291473960876464844e+01,3.265335845947265625e+01
5.749449729919433594e-01,2.000000000000000000e+00,-2.483535766601562500e+01,-2.164981842041015625e+00,4.593274688720703125e+01,9.514710235595703125e+01,8.499870300292968750e+01,1.352259674072265625e+02,-2.181054353713989258e+00,-3.255746078491210938e+01,-1.843887176513671875e+02,3.649277114868164062e+01,2.293157196044921875e+01,3.264995193481445312e+01
5.790179967880249023e-01,2.000000000000000000e+00,-2.488946914672851562e+01,-2.127823591232299805e+00,4.588722229003906250e+01,9.515373992919921875e+01,8.499710845947265625e+01,1.352171478271484375e+02,-2.232635259628295898e+00,-3.255150604248046875e+01,-1.843837585449218750e+02,3.649241256713867188e+01,2.294782066345214844e+01,3.264610671997070312e+01
5.832049846649169922e-01,2.000000000000000000e+00,-2.494312286376953125e+01,-2.090484142303466797e+00,4.584178161621093750e+01,9.516021728515625000e+01,8.499582672119140625e+01,1.352084045410156250e+02,-2.283721685409545898e+00,-3.254573822021484375e+01,-1.843791961669921875e+02,3.649212646484375000e+01,2.296457862854003906e+01,3.264193344116210938e+01
5.869470238685607910e-01,2.000000000000000000e+00,-2.499711990356445312e+01,-2.053303241729736328e+00,4.579618072509765625e+01,9.516680145263671875e+01,8.499417114257812500e+01,1.351995849609375000e+02,-2.335137605667114258e+00,-3.253988265991210938e+01,-1.843747253417968750e+02,3.649184036254882812e+01,2.298199272155761719e+01,3.263797760009765625e+01
5.909379720687866211e-01,2.000000000000000000e+00,-2.505085945129394531e+01,-2.016190052032470703e+00,4.575069808959960938e+01,9.517317199707031250e+01,8.499257659912109375e+01,1.351904907226562500e+02,-2.387597322463989258e+00,-3.253402328491210938e+01,-1.843701171875000000e+02,3.649148178100585938e+01,2.299867820739746094e+01,3.263434982299804688e+01
5.949450135231018066e-01,2.000000000000000000e+00,-2.510471153259277344e+01,-1.979099631309509277e+00,4.570513534545898438e+01,9.517987060546875000e+01,8.499129486083984375e+01,1.351816101074218750e+02,-2.440057039260864258e+00,-3.252802658081054688e+01,-1.843657684326171875e+02,3.649126434326171875e+01,2.301507186889648438e+01,3.263050460815429688e+01
5.990930199623107910e-01,2.000000000000000000e+00,-2.515859603881835938e+01,-1.942145109176635742e+00,4.565973281860351562e+01,9.518645477294921875e+01,8.498975372314453125e+01,1.351730041503906250e+02,-2.492187023162841797e+00,-3.252198410034179688e+01,-1.843614044189453125e+02,3.649097824096679688e+01,2.303175735473632812e+01,3.262688064575195312e+01
6.029890179634094238e-01,2.000000000000000000e+00,-2.521242141723632812e+01,-1.905190348625183105e+00,4.561451339721679688e+01,9.519319152832031250e+01,8.498814392089843750e+01,1.351642608642578125e+02,-2.544207334518432617e+00,-3.251598739624023438e+01,-1.843567962646484375e+02,3.649069213867187500e+01,2.304873466491699219e+01,3.262325668334960938e+01
6.093479990959167480e-01,2.000000000000000000e+00,-2.526604461669921875e+01,-1.868122458457946777e+00,4.556921768188476562e+01,9.519993591308593750e+01,8.498676300048828125e+01,1.351559753417968750e+02,-2.595843076705932617e+00,-3.251021957397460938e+01,-1.843522644042968750e+02,3.649033355712890625e+01,2.306629371643066406e+01,3.261962890625000000e+01
6.109380125999450684e-01,2.000000000000000000e+00,-2.531972694396972656e+01,-1.831122756004333496e+00,4.552399826049804688e+01,9.520673370361328125e+01,8.498532867431640625e+01,1.351476440429687500e+02,-2.647314071655273438e+00,-3.250440216064453125e+01,-1.843474884033203125e+02,3.649004364013671875e+01,2.308290672302246094e+01,3.261655426025390625e+01
6.150689721107482910e-01,2.000000000000000000e+00,-2.537346649169921875e+01,-1.794167995452880859e+00,4.547873687744140625e+01,9.521368408203125000e+01,8.498371887207031250e+01,1.351391601562500000e+02,-2.699004888534545898e+00,-3.249831771850585938e+01,-1.843429718017578125e+02,3.648983001708984375e+01,2.309966468811035156e+01,3.261314773559570312e+01
6.189529895782470703e-01,2.000000000000000000e+00,-2.542691802978515625e+01,-1.757349133491516113e+00,4.543329620361328125e+01,9.522068786621093750e+01,8.498217773437500000e+01,1.351306915283203125e+02,-2.751024961471557617e+00,-3.249236297607421875e+01,-1.843384552001953125e+02,3.648947143554687500e+01,2.311671447753906250e+01,3.260919189453125000e+01
6.229379773139953613e-01,2.000000000000000000e+00,-2.548042678833007812e+01,-1.720326542854309082e+00,4.538808059692382812e+01,9.522753906250000000e+01,8.498073577880859375e+01,1.351223449707031250e+02,-2.803155183792114258e+00,-3.248632431030273438e+01,-1.843343200683593750e+02,3.648918151855468750e+01,2.313368988037109375e+01,3.260556793212890625e+01
6.270070075988769531e-01,2.000000000000000000e+00,-2.553396606445312500e+01,-1.683349251747131348e+00,4.534283828735351562e+01,9.523470306396484375e+01,8.497903442382812500e+01,1.351140594482421875e+02,-2.855504989624023438e+00,-3.248032760620117188e+01,-1.843296508789062500e+02,3.648896789550781250e+01,2.315059471130371094e+01,3.260227203369140625e+01
6.309469938278198242e-01,2.000000000000000000e+00,-2.558741950988769531e+01,-1.646371960639953613e+00,4.529743957519531250e+01,9.524176025390625000e+01,8.497759246826171875e+01,1.351057281494140625e+02,-2.907580137252807617e+00,-3.247400665283203125e+01,-1.843252410888671875e+02,3.648846435546875000e+01,2.316793632507324219e+01,3.259864425659179688e+01
6.349449753761291504e-01,2.000000000000000000e+00,-2.564087104797363281e+01,-1.609417319297790527e+00,4.525195693969726562e+01,9.524839782714843750e+01,8.497588348388671875e+01,1.350973815917968750e+02,-2.958886384963989258e+00,-3.246805572509765625e+01,-1.843205108642578125e+02,3.648832321166992188e+01,2.318498611450195312e+01,3.259556961059570312e+01
6.389489769935607910e-01,2.000000000000000000e+00,-2.569443702697753906e+01,-1.572575807571411133e+00,4.520655822753906250e+01,9.525534820556640625e+01,8.497444915771484375e+01,1.350888366699218750e+02,-3.010192394256591797e+00,-3.246206283569335938e+01,-1.843159484863281250e+02,3.648803710937500000e+01,2.320181655883789062e+01,3.259161376953125000e+01
6.429439783096313477e-01,2.000000000000000000e+00,-2.574791717529296875e+01,-1.535485386848449707e+00,4.516123580932617188e+01,9.526214599609375000e+01,8.497295379638671875e+01,1.350805053710937500e+02,-3.061718463897705078e+00,-3.245606613159179688e+01,-1.843112640380859375e+02,3.648774719238281250e+01,2.321850204467773438e+01,3.258831787109375000e+01
6.469550132751464844e-01,2.000000000000000000e+00,-2.580131340026855469e+01,-1.498372316360473633e+00,4.511569595336914062e+01,9.526882934570312500e+01,8.497125244140625000e+01,1.350722198486328125e+02,-3.113518953323364258e+00,-3.245015716552734375e+01,-1.843065948486328125e+02,3.648746109008789062e+01,2.323547935485839844e+01,3.258524322509765625e+01
6.509479880332946777e-01,2.000000000000000000e+00,-2.585499572753906250e+01,-1.461372375488281250e+00,4.507037353515625000e+01,9.527514648437500000e+01,8.496942901611328125e+01,1.350635528564453125e+02,-3.165374279022216797e+00,-3.244425201416015625e+01,-1.843022918701171875e+02,3.648702621459960938e+01,2.325238418579101562e+01,3.258216476440429688e+01
6.550199985504150391e-01,2.000000000000000000e+00,-2.590864753723144531e+01,-1.424304604530334473e+00,4.502529907226562500e+01,9.528157806396484375e+01,8.496810150146484375e+01,1.350545959472656250e+02,-3.217504501342773438e+00,-3.243820953369140625e+01,-1.842975616455078125e+02,3.648666763305664062e+01,2.326885032653808594e+01,3.257875823974609375e+01
6.591780185699462891e-01,2.000000000000000000e+00,-2.596195602416992188e+01,-1.387349963188171387e+00,4.498004150390625000e+01,9.528800201416015625e+01,8.496640014648437500e+01,1.350460510253906250e+02,-3.269030332565307617e+00,-3.243239974975585938e+01,-1.842929840087890625e+02,3.648645401000976562e+01,2.328517150878906250e+01,3.257513809204101562e+01
6.630169749259948730e-01,2.000000000000000000e+00,-2.601552391052246094e+01,-1.350214242935180664e+00,4.493494415283203125e+01,9.529432678222656250e+01,8.496463775634765625e+01,1.350372314453125000e+02,-3.320501327514648438e+00,-3.242649459838867188e+01,-1.842885894775390625e+02,3.648609542846679688e+01,2.330258560180664062e+01,3.257096099853515625e+01
6.670359969139099121e-01,2.000000000000000000e+00,-2.606926155090332031e+01,-1.313191771507263184e+00,4.488986968994140625e+01,9.530101776123046875e+01,8.496309661865234375e+01,1.350285491943359375e+02,-3.371587753295898438e+00,-3.242067718505859375e+01,-1.842841186523437500e+02,3.648595046997070312e+01,2.331999969482421875e+01,3.256700515747070312e+01
6.710759997367858887e-01,2.000000000000000000e+00,-2.612265586853027344e+01,-1.276146531105041504e+00,4.484483337402343750e+01,9.530744171142578125e+01,8.496160125732421875e+01,1.350198822021484375e+02,-3.422729015350341797e+00,-3.241481781005859375e+01,-1.842795562744140625e+02,3.648552322387695312e+01,2.333617401123046875e+01,3.256359863281250000e+01
6.750079989433288574e-01,2.000000000000000000e+00,-2.617619514465332031e+01,-1.239214420318603516e+00,4.479975891113281250e+01,9.531375885009765625e+01,8.495989227294921875e+01,1.350109863281250000e+02,-3.474254846572875977e+00,-3.240909957885742188e+01,-1.842751464843750000e+02,3.648523330688476562e+01,2.335220527648925781e+01,3.256052398681640625e+01
6.789540052413940430e-01,2.000000000000000000e+00,-2.622964668273925781e+01,-1.202440857887268066e+00,4.475470352172851562e+01,9.532019042968750000e+01,8.495829010009765625e+01,1.350022430419921875e+02,-3.526330232620239258e+00,-3.240319442749023438e+01,-1.842705841064453125e+02,3.648494720458984375e+01,2.336903572082519531e+01,3.255635070800781250e+01
6.851609945297241211e-01,2.000000000000000000e+00,-2.622964668273925781e+01,-1.202440857887268066e+00,4.475470352172851562e+01,9.532019042968750000e+01,8.495829010009765625e+01,1.350022430419921875e+02,-3.578570127487182617e+00,-3.239723968505859375e+01,-1.842660217285156250e+02,3.648458480834960938e+01,2.338695907592773438e+01,3.255272293090820312e+01
6.870160102844238281e-01,2.000000000000000000e+00,-2.633632087707519531e+01,-1.128237366676330566e+00,4.466448974609375000e+01,9.533341217041015625e+01,8.495498657226562500e+01,1.349848785400390625e+02,-3.630370616912841797e+00,-3.239129257202148438e+01,-1.842615509033203125e+02,3.648422622680664062e+01,2.340408325195312500e+01,3.254909515380859375e+01
6.939939856529235840e-01,2.000000000000000000e+00,-2.638957405090332031e+01,-1.091418504714965820e+00,4.461923217773437500e+01,9.533994293212890625e+01,8.495339202880859375e+01,1.349764709472656250e+02,-3.681621789932250977e+00,-3.238547515869140625e+01,-1.842568817138671875e+02,3.648401260375976562e+01,2.342040252685546875e+01,3.254579925537109375e+01
6.954330205917358398e-01,2.000000000000000000e+00,-2.644285202026367188e+01,-1.054576992988586426e+00,4.457390975952148438e+01,9.534658050537109375e+01,8.495178985595703125e+01,1.349680633544921875e+02,-3.732543468475341797e+00,-3.237957000732421875e+01,-1.842523040771484375e+02,3.648372650146484375e+01,2.343737983703613281e+01,3.254206466674804688e+01
6.999750137329101562e-01,2.000000000000000000e+00,-2.649618911743164062e+01,-1.017735481262207031e+00,4.452877807617187500e+01,9.535337829589843750e+01,8.494992065429687500e+01,1.349595794677734375e+02,-3.783904790878295898e+00,-3.237339401245117188e+01,-1.842479095458984375e+02,3.648336791992187500e+01,2.345435714721679688e+01,3.253789138793945312e+01
7.029389739036560059e-01,2.000000000000000000e+00,-2.654969787597656250e+01,-9.808713197708129883e-01,4.448343276977539062e+01,9.536037445068359375e+01,8.494831848144531250e+01,1.349514465332031250e+02,-3.835705280303955078e+00,-3.236739730834960938e+01,-1.842434997558593750e+02,3.648315048217773438e+01,2.347191619873046875e+01,3.253459548950195312e+01
7.102450132369995117e-01,2.000000000000000000e+00,-2.654969787597656250e+01,-9.808713197708129883e-01,4.448343276977539062e+01,9.536037445068359375e+01,8.494831848144531250e+01,1.349514465332031250e+02,-3.835705280303955078e+00,-3.236739730834960938e+01,-1.842434997558593750e+02,3.648315048217773438e+01,2.347191619873046875e+01,3.253459548950195312e+01
7.116559743881225586e-01,2.000000000000000000e+00,-2.665651702880859375e+01,-9.072335362434387207e-01,4.439289855957031250e+01,9.537402343750000000e+01,8.494485473632812500e+01,1.349353790283203125e+02,-3.939141273498535156e+00,-3.235549545288085938e+01,-1.842346801757812500e+02,3.648243331909179688e+01,2.350463104248046875e+01,3.252701568603515625e+01
7.159469723701477051e-01,2.000000000000000000e+00,-2.670977020263671875e+01,-8.704372644424438477e-01,4.434774398803710938e+01,9.538097381591796875e+01,8.494320678710937500e+01,1.349269561767578125e+02,-3.990777015686035156e+00,-3.234954071044921875e+01,-1.842297973632812500e+02,3.648214721679687500e+01,2.352168083190917969e+01,3.252317047119140625e+01
7.189400196075439453e-01,2.000000000000000000e+00,-2.676319122314453125e+01,-8.338673114776611328e-01,4.430270767211914062e+01,9.538803100585937500e+01,8.494160461425781250e+01,1.349184875488281250e+02,-4.042248249053955078e+00,-3.234368133544921875e+01,-1.842253875732421875e+02,3.648186111450195312e+01,2.353887748718261719e+01,3.251954650878906250e+01
7.230510115623474121e-01,2.000000000000000000e+00,-2.676319122314453125e+01,-8.338673114776611328e-01,4.430270767211914062e+01,9.538803100585937500e+01,8.494160461425781250e+01,1.349184875488281250e+02,-4.042248249053955078e+00,-3.234368133544921875e+01,-1.842253875732421875e+02,3.648186111450195312e+01,2.353887748718261719e+01,3.251954650878906250e+01
7.279899716377258301e-01,2.000000000000000000e+00,-2.681650161743164062e+01,-7.970032095909118652e-01,4.425770950317382812e+01,9.539488220214843750e+01,8.493974304199218750e+01,1.349102172851562500e+02,-4.093334674835205078e+00,-3.233777618408203125e+01,-1.842210388183593750e+02,3.648149871826171875e+01,2.355578041076660156e+01,3.251591873168945312e+01
7.309629917144775391e-01,2.000000000000000000e+00,-2.692320442199707031e+01,-7.232296466827392578e-01,4.416792678833007812e+01,9.540830993652343750e+01,8.493637847900390625e+01,1.348938751220703125e+02,-4.196001529693603516e+00,-3.232583236694335938e+01,-1.842121734619140625e+02,3.648078155517578125e+01,2.358907890319824219e+01,3.250778579711914062e+01
7.359989881515502930e-01,2.000000000000000000e+00,-2.692320442199707031e+01,-7.232296466827392578e-01,4.416792678833007812e+01,9.540830993652343750e+01,8.493637847900390625e+01,1.348938751220703125e+02,-4.196001529693603516e+00,-3.232583236694335938e+01,-1.842121734619140625e+02,3.648078155517578125e+01,2.358907890319824219e+01,3.250778579711914062e+01
7.395709753036499023e-01,2.000000000000000000e+00,-2.702996444702148438e+01,-6.498407721519470215e-01,4.407785797119140625e+01,9.542126464843750000e+01,8.493328857421875000e+01,1.348768463134765625e+02,-4.300207138061523438e+00,-3.231383895874023438e+01,-1.842032012939453125e+02,3.648027801513671875e+01,2.362266921997070312e+01,3.250108718872070312e+01
7.440009713172912598e-01,2.000000000000000000e+00,-2.708327293395996094e+01,-6.129314303398132324e-01,4.403294372558593750e+01,9.542784881591796875e+01,8.493131256103515625e+01,1.348681640625000000e+02,-4.352062702178955078e+00,-3.230802536010742188e+01,-1.841985778808593750e+02,3.647999191284179688e+01,2.363928222656250000e+01,3.249745941162109375e+01
7.479720115661621094e-01,2.000000000000000000e+00,-2.713661003112792969e+01,-5.762030482292175293e-01,4.398792648315429688e+01,9.543438720703125000e+01,8.492982482910156250e+01,1.348597564697265625e+02,-4.403094291687011719e+00,-3.230202865600585938e+01,-1.841940002441406250e+02,3.647970581054687500e+01,2.365582084655761719e+01,3.249361801147460938e+01
7.510280013084411621e-01,2.000000000000000000e+00,-2.718983268737792969e+01,-5.393162965774536133e-01,4.394287109375000000e+01,9.544091796875000000e+01,8.492822265625000000e+01,1.348514251708984375e+02,-4.453685760498046875e+00,-3.229616928100585938e+01,-1.841894378662109375e+02,3.647927474975585938e+01,2.367243385314941406e+01,3.248965835571289062e+01
7.549890279769897461e-01,2.000000000000000000e+00,-2.718983268737792969e+01,-5.393162965774536133e-01,4.394287109375000000e+01,9.544091796875000000e+01,8.492822265625000000e+01,1.348514251708984375e+02,-4.453685760498046875e+00,-3.229616928100585938e+01,-1.841894378662109375e+02,3.647927474975585938e+01,2.367243385314941406e+01,3.248965835571289062e+01
7.630659937858581543e-01,2.000000000000000000e+00,-2.724296951293945312e+01,-5.025426745414733887e-01,4.389781570434570312e+01,9.544744873046875000e+01,8.492672729492187500e+01,1.348425903320312500e+02,-4.504937648773193359e+00,-3.229016876220703125e+01,-1.841847534179687500e+02,3.647891235351562500e+01,2.368962860107421875e+01,3.248603820800781250e+01
7.644270062446594238e-01,2.000000000000000000e+00,-2.734950065612792969e+01,-4.289954304695129395e-01,4.380754470825195312e+01,9.546035766601562500e+01,8.492310333251953125e+01,1.348245544433593750e+02,-4.608593463897705078e+00,-3.227808380126953125e+01,-1.841760559082031250e+02,3.647819519042968750e+01,2.372270774841308594e+01,3.247889709472656250e+01
7.679839730262756348e-01,2.000000000000000000e+00,-2.740266418457031250e+01,-3.922444283962249756e-01,4.376236724853515625e+01,9.546704101562500000e+01,8.492161560058593750e+01,1.348161468505859375e+02,-4.660338878631591797e+00,-3.227208709716796875e+01,-1.841715393066406250e+02,3.647798156738281250e+01,2.373910140991210938e+01,3.247548675537109375e+01
7.709339857101440430e-01,2.000000000000000000e+00,-2.745585823059082031e+01,-3.554029166698455811e-01,4.371745681762695312e+01,9.547368621826171875e+01,8.492012023925781250e+01,1.348076782226562500e+02,-4.711535453796386719e+00,-3.226600265502929688e+01,-1.841670227050781250e+02,3.647783660888671875e+01,2.375629806518554688e+01,3.247219085693359375e+01
7.759879827499389648e-01,2.000000000000000000e+00,-2.745585823059082031e+01,-3.554029166698455811e-01,4.371745681762695312e+01,9.547368621826171875e+01,8.492012023925781250e+01,1.348076782226562500e+02,-4.711535453796386719e+00,-3.226600265502929688e+01,-1.841670227050781250e+02,3.647783660888671875e+01,2.375629806518554688e+01,3.247219085693359375e+01
7.789360284805297852e-01,2.000000000000000000e+00,-2.756241798400878906e+01,-2.818330526351928711e-01,4.362768936157226562e+01,9.548695373535156250e+01,8.491702270507812500e+01,1.347905883789062500e+02,-4.813488483428955078e+00,-3.225418853759765625e+01,-1.841576843261718750e+02,3.647705078125000000e+01,2.379017829895019531e+01,3.246494293212890625e+01
7.884579896926879883e-01,2.000000000000000000e+00,-2.756241798400878906e+01,-2.818330526351928711e-01,4.362768936157226562e+01,9.548695373535156250e+01,8.491702270507812500e+01,1.347905883789062500e+02,-4.813488483428955078e+00,-3.225418853759765625e+01,-1.841576843261718750e+02,3.647705078125000000e+01,2.379017829895019531e+01,3.246494293212890625e+01
7.911249995231628418e-01,2.000000000000000000e+00,-2.772200012207031250e+01,-1.714669317007064819e-01,4.349325561523437500e+01,9.550744628906250000e+01,8.491227722167968750e+01,1.347658996582031250e+02,-4.967461585998535156e+00,-3.223674774169921875e+01,-1.841440734863281250e+02,3.647611236572265625e+01,2.383928680419921875e+01,3.245505523681640625e+01
7.923880219459533691e-01,2.000000000000000000e+00,-2.772200012207031250e+01,-1.714669317007064819e-01,4.349325561523437500e+01,9.550744628906250000e+01,8.491227722167968750e+01,1.347658996582031250e+02,-4.967461585998535156e+00,-3.223674774169921875e+01,-1.841440734863281250e+02,3.647611236572265625e+01,2.383928680419921875e+01,3.245505523681640625e+01
7.959679961204528809e-01,2.000000000000000000e+00,-2.777513504028320312e+01,-1.348064690828323364e-01,4.344844436645507812e+01,9.551413726806640625e+01,8.491078948974609375e+01,1.347576293945312500e+02,-5.019482135772705078e+00,-3.223097991943359375e+01,-1.841395721435546875e+02,3.647575378417968750e+01,2.385597229003906250e+01,3.245087814331054688e+01
7.989709973335266113e-01,2.000000000000000000e+00,-2.782801437377929688e+01,-9.819126129150390625e-02,4.340365219116210938e+01,9.552124786376953125e+01,8.490929412841796875e+01,1.347494201660156250e+02,-5.070843219757080078e+00,-3.222507476806640625e+01,-1.841351470947265625e+02,3.647546768188476562e+01,2.387287521362304688e+01,3.244725418090820312e+01
8.035410046577453613e-01,2.000000000000000000e+00,-2.788114929199218750e+01,-6.141764298081398010e-02,4.335890579223632812e+01,9.552803802490234375e+01,8.490780639648437500e+01,1.347410888671875000e+02,-5.121709823608398438e+00,-3.221939849853515625e+01,-1.841305389404296875e+02,3.647518157958984375e+01,2.388992500305175781e+01,3.244428634643554688e+01
8.079990148544311523e-01,2.000000000000000000e+00,-2.788114929199218750e+01,-6.141764298081398010e-02,4.335890579223632812e+01,9.552803802490234375e+01,8.490780639648437500e+01,1.347410888671875000e+02,-5.121709823608398438e+00,-3.221939849853515625e+01,-1.841305389404296875e+02,3.647518157958984375e+01,2.388992500305175781e+01,3.244428634643554688e+01
8.115299940109252930e-01,2.000000000000000000e+00,-2.798745155334472656e+01,1.192593108862638474e-02,4.326893615722656250e+01,9.554183959960937500e+01,8.490455627441406250e+01,1.347249298095703125e+02,-5.222729206085205078e+00,-3.220795440673828125e+01,-1.841216125488281250e+02,3.647446441650390625e+01,2.392264175415039062e+01,3.243703842163085938e+01
8.154919743537902832e-01,2.000000000000000000e+00,-2.804058647155761719e+01,4.849588125944137573e-02,4.322404479980468750e+01,9.554837036132812500e+01,8.490332031250000000e+01,1.347167968750000000e+02,-5.274145126342773438e+00,-3.220204925537109375e+01,-1.841170959472656250e+02,3.647431945800781250e+01,2.394005584716796875e+01,3.243352127075195312e+01
8.191109895706176758e-01,2.000000000000000000e+00,-2.804058647155761719e+01,4.849588125944137573e-02,4.322404479980468750e+01,9.554837036132812500e+01,8.490332031250000000e+01,1.347167968750000000e+02,-5.274145126342773438e+00,-3.220204925537109375e+01,-1.841170959472656250e+02,3.647431945800781250e+01,2.394005584716796875e+01,3.243352127075195312e+01
8.230019807815551758e-01,2.000000000000000000e+00,-2.809358024597167969e+01,8.513371646404266357e-02,4.317911148071289062e+01,9.555506134033203125e+01,8.490187835693359375e+01,1.347084655761718750e+02,-5.326000690460205078e+00,-3.219614791870117188e+01,-1.841124267578125000e+02,3.647388839721679688e+01,2.395754241943359375e+01,3.243022537231445312e+01
8.280659914016723633e-01,2.000000000000000000e+00,-2.814663124084472656e+01,1.218394488096237183e-01,4.313409805297851562e+01,9.556169891357421875e+01,8.490039062500000000e+01,1.347004547119140625e+02,-5.377746105194091797e+00,-3.219024276733398438e+01,-1.841080169677734375e+02,3.647367477416992188e+01,2.397378921508789062e+01,3.242692947387695312e+01
8.319489955902099609e-01,2.000000000000000000e+00,-2.819959449768066406e+01,1.582736223936080933e-01,4.308924102783203125e+01,9.556790924072265625e+01,8.489900970458984375e+01,1.346921844482421875e+02,-5.480029106140136719e+00,-3.217834091186523438e+01,-1.840988311767578125e+02,3.647288131713867188e+01,2.400679779052734375e+01,3.241923904418945312e+01
8.359760046005249023e-01,2.000000000000000000e+00,-2.825252914428710938e+01,1.948888301849365234e-01,4.304439163208007812e+01,9.557434082031250000e+01,8.489740753173828125e+01,1.346835784912109375e+02,-5.480029106140136719e+00,-3.217834091186523438e+01,-1.840988311767578125e+02,3.647288131713867188e+01,2.400679779052734375e+01,3.241923904418945312e+01
8.399209976196289062e-01,2.000000000000000000e+00,-2.835848617553710938e+01,2.679608464241027832e-01,4.295479202270507812e+01,9.558746337890625000e+01,8.489441680908203125e+01,1.346662139892578125e+02,-5.581597328186035156e+00,-3.216638946533203125e+01,-1.840898590087890625e+02,3.647245407104492188e+01,2.404024124145507812e+01,3.241231918334960938e+01
8.439810276031494141e-01,2.000000000000000000e+00,-2.835848617553710938e+01,2.679608464241027832e-01,4.295479202270507812e+01,9.558746337890625000e+01,8.489441680908203125e+01,1.346662139892578125e+02,-5.581597328186035156e+00,-3.216638946533203125e+01,-1.840898590087890625e+02,3.647245407104492188e+01,2.404024124145507812e+01,3.241231918334960938e+01
8.470270037651062012e-01,2.000000000000000000e+00,-2.841165351867675781e+01,3.043724000453948975e-01,4.291014099121093750e+01,9.559378051757812500e+01,8.489319610595703125e+01,1.346580047607421875e+02,-5.632793903350830078e+00,-3.216039276123046875e+01,-1.840853271484375000e+02,3.647187805175781250e+01,2.405568695068359375e+01,3.240880203247070312e+01
8.510609865188598633e-01,2.000000000000000000e+00,-2.846458816528320312e+01,3.411007523536682129e-01,4.286553192138671875e+01,9.560005187988281250e+01,8.489180755615234375e+01,1.346492614746093750e+02,-5.684429645538330078e+00,-3.215457916259765625e+01,-1.840808868408203125e+02,3.647180557250976562e+01,2.407237434387207031e+01,3.240440750122070312e+01
8.550170063972473145e-01,2.000000000000000000e+00,-2.851749420166015625e+01,3.775123059749603271e-01,4.282098770141601562e+01,9.560652160644531250e+01,8.489021301269531250e+01,1.346405639648437500e+02,-5.735900878906250000e+00,-3.214867782592773438e+01,-1.840761413574218750e+02,3.647144699096679688e+01,2.408876609802246094e+01,3.240111160278320312e+01
8.596259951591491699e-01,2.000000000000000000e+00,-2.857060050964355469e+01,4.140369594097137451e-01,4.277613449096679688e+01,9.561300659179687500e+01,8.488871002197265625e+01,1.346317596435546875e+02,-5.787371158599853516e+00,-3.214268112182617188e+01,-1.840714721679687500e+02,3.647116088867187500e+01,2.410523414611816406e+01,3.239759445190429688e+01
8.642050027847290039e-01,2.000000000000000000e+00,-2.862347984313964844e+01,4.505390226840972900e-01,4.273154449462890625e+01,9.561948394775390625e+01,8.488748931884765625e+01,1.346234130859375000e+02,-5.838238239288330078e+00,-3.213677597045898438e+01,-1.840669555664062500e+02,3.647079849243164062e+01,2.412170219421386719e+01,3.239298248291015625e+01
8.680109977722167969e-01,2.000000000000000000e+00,-2.867638587951660156e+01,4.871995449066162109e-01,4.268689727783203125e+01,9.562622833251953125e+01,8.488599395751953125e+01,1.346152038574218750e+02,-5.888445854187011719e+00,-3.213091278076171875e+01,-1.840623779296875000e+02,3.647043991088867188e+01,2.413780403137207031e+01,3.238946533203125000e+01
8.709930181503295898e-01,2.000000000000000000e+00,-2.872914886474609375e+01,5.235431790351867676e-01,4.264220809936523438e+01,9.563275909423828125e+01,8.488477325439453125e+01,1.346067962646484375e+02,-5.938927650451660156e+00,-3.212496566772460938e+01,-1.840579376220703125e+02,3.647015380859375000e+01,2.415361404418945312e+01,3.238616943359375000e+01
8.760600090026855469e-01,2.000000000000000000e+00,-2.878191184997558594e+01,5.601583719253540039e-01,4.259751892089843750e+01,9.563970947265625000e+01,8.488311767578125000e+01,1.345985260009765625e+02,-5.990509033203125000e+00,-3.211905670166015625e+01,-1.840534667968750000e+02,3.646979522705078125e+01,2.417044448852539062e+01,3.238265609741210938e+01
8.790839910507202148e-01,2.000000000000000000e+00,-2.883507919311523438e+01,5.967962145805358887e-01,4.255256271362304688e+01,9.564634704589843750e+01,8.488162231445312500e+01,1.345903167724609375e+02,-6.042364120483398438e+00,-3.211315155029296875e+01,-1.840491790771484375e+02,3.646950912475585938e+01,2.418727684020996094e+01,3.237858963012695312e+01
8.838710188865661621e-01,2.000000000000000000e+00,-2.888786888122558594e+01,6.333209276199340820e-01,4.250777435302734375e+01,9.565329742431640625e+01,8.488029479980468750e+01,1.345821228027343750e+02,-6.093725204467773438e+00,-3.210720443725585938e+01,-1.840444946289062500e+02,3.646922302246093750e+01,2.420381546020507812e+01,3.237419509887695312e+01
8.916680216789245605e-01,2.000000000000000000e+00,-2.894074821472167969e+01,6.697550415992736816e-01,4.246294021606445312e+01,9.566009521484375000e+01,8.487895965576171875e+01,1.345742492675781250e+02,-6.144921302795410156e+00,-3.210129928588867188e+01,-1.840399322509765625e+02,3.646886444091796875e+01,2.422006416320800781e+01,3.237046051025390625e+01
8.929899930953979492e-01,2.000000000000000000e+00,-2.904630279541015625e+01,7.429854869842529297e-01,4.237368392944335938e+01,9.567395019531250000e+01,8.487597656250000000e+01,1.345578918457031250e+02,-6.245940685272216797e+00,-3.208967208862304688e+01,-1.840306854248046875e+02,3.646821594238281250e+01,2.425314331054687500e+01,3.236342620849609375e+01
8.956369757652282715e-01,2.000000000000000000e+00,-2.909895324707031250e+01,7.794649600982666016e-01,4.232903671264648438e+01,9.568074035644531250e+01,8.487458801269531250e+01,1.345496978759765625e+02,-6.296642780303955078e+00,-3.208371734619140625e+01,-1.840261230468750000e+02,3.646792602539062500e+01,2.427033996582031250e+01,3.235881423950195312e+01
9.000729918479919434e-01,2.000000000000000000e+00,-2.909895324707031250e+01,7.794649600982666016e-01,4.232903671264648438e+01,9.568074035644531250e+01,8.487458801269531250e+01,1.345496978759765625e+02,-6.296642780303955078e+00,-3.208371734619140625e+01,-1.840261230468750000e+02,3.646792602539062500e+01,2.427033996582031250e+01,3.235881423950195312e+01
9.031170010566711426e-01,2.000000000000000000e+00,-2.915168571472167969e+01,8.159217238426208496e-01,4.228441238403320312e+01,9.568748474121093750e+01,8.487325286865234375e+01,1.345417633056640625e+02,-6.347949028015136719e+00,-3.207767486572265625e+01,-1.840216979980468750e+02,3.646763992309570312e+01,2.428673171997070312e+01,3.235507965087890625e+01
9.080799818038940430e-01,2.000000000000000000e+00,-2.920427703857421875e+01,8.524464368820190430e-01,4.223990249633789062e+01,9.569417572021484375e+01,8.487175750732421875e+01,1.345335540771484375e+02,-6.399364948272705078e+00,-3.207172775268554688e+01,-1.840173034667968750e+02,3.646742630004882812e+01,2.430261802673339844e+01,3.235211181640625000e+01
9.112550020217895508e-01,2.000000000000000000e+00,-2.925689697265625000e+01,8.889937400817871094e-01,4.219545745849609375e+01,9.570092010498046875e+01,8.487037658691406250e+01,1.345256195068359375e+02,-6.450780868530273438e+00,-3.206573104858398438e+01,-1.840128326416015625e+02,3.646699523925781250e+01,2.431922912597656250e+01,3.234859466552734375e+01
9.162330031394958496e-01,2.000000000000000000e+00,-2.930954360961914062e+01,9.255183935165405273e-01,4.215103149414062500e+01,9.570724487304687500e+01,8.486888122558593750e+01,1.345174255371093750e+02,-6.501702308654785156e+00,-3.205977630615234375e+01,-1.840082702636718750e+02,3.646685028076171875e+01,2.433693504333496094e+01,3.234431457519531250e+01
9.192600250244140625e-01,2.000000000000000000e+00,-2.936219215393066406e+01,9.619073867797851562e-01,4.210656738281250000e+01,9.571371459960937500e+01,8.486754608154296875e+01,1.345090026855468750e+02,-6.552184581756591797e+00,-3.205391693115234375e+01,-1.840034790039062500e+02,3.646649169921875000e+01,2.435442161560058594e+01,3.234057617187500000e+01
9.232389926910400391e-01,2.000000000000000000e+00,-2.941478347778320312e+01,9.983415603637695312e-01,4.206203842163085938e+01,9.572019958496093750e+01,8.486615753173828125e+01,1.345005950927734375e+02,-6.602612018585205078e+00,-3.204819869995117188e+01,-1.839988098144531250e+02,3.646620559692382812e+01,2.437067031860351562e+01,3.233728027343750000e+01
9.270809888839721680e-01,2.000000000000000000e+00,-2.946748924255371094e+01,1.034639954566955566e+00,4.201751327514648438e+01,9.572678375244140625e+01,8.486466979980468750e+01,1.344922637939453125e+02,-6.653368949890136719e+00,-3.204238128662109375e+01,-1.839941864013671875e+02,3.646570587158203125e+01,2.438713645935058594e+01,3.233409500122070312e+01
9.322509765625000000e-01,2.000000000000000000e+00,-2.951996612548828125e+01,1.071006178855895996e+00,4.197280502319335938e+01,9.573310089111328125e+01,8.486334228515625000e+01,1.344837036132812500e+02,-6.704400062561035156e+00,-3.203652572631835938e+01,-1.839901580810546875e+02,3.646548843383789062e+01,2.440396690368652344e+01,3.233036041259765625e+01
9.354940056800842285e-01,2.000000000000000000e+00,-2.957250022888183594e+01,1.107485651969909668e+00,4.192809295654296875e+01,9.573958587646484375e+01,8.486184692382812500e+01,1.344752349853515625e+02,-6.755596637725830078e+00,-3.203043365478515625e+01,-1.839854736328125000e+02,3.646519851684570312e+01,2.442079925537109375e+01,3.232662200927734375e+01
9.395930171012878418e-01,2.000000000000000000e+00,-2.962514686584472656e+01,1.143851876258850098e+00,4.188364791870117188e+01,9.574605560302734375e+01,8.486045837402343750e+01,1.344663391113281250e+02,-6.807012557983398438e+00,-3.202466583251953125e+01,-1.839809722900390625e+02,3.646491241455078125e+01,2.443748474121093750e+01,3.232343673706054688e+01
9.450079798698425293e-01,2.000000000000000000e+00,-2.967779350280761719e+01,1.180150270462036133e+00,4.183889770507812500e+01,9.575242614746093750e+01,8.485885620117187500e+01,1.344578094482421875e+02,-6.857769489288330078e+00,-3.201876449584960938e+01,-1.839768371582031250e+02,3.646469497680664062e+01,2.445402336120605469e+01,3.232025146484375000e+01
9.486529827117919922e-01,2.000000000000000000e+00,-2.978297615051269531e+01,1.252905488014221191e+00,4.174959945678710938e+01,9.576539611816406250e+01,8.485614013671875000e+01,1.344407196044921875e+02,-6.958843708038330078e+00,-3.200709152221679688e+01,-1.839672698974609375e+02,3.646405029296875000e+01,2.448673820495605469e+01,3.231311035156250000e+01
9.519879817962646484e-01,2.000000000000000000e+00,-2.978297615051269531e+01,1.252905488014221191e+00,4.174959945678710938e+01,9.576539611816406250e+01,8.485614013671875000e+01,1.344407196044921875e+02,-6.958843708038330078e+00,-3.200709152221679688e+01,-1.839672698974609375e+02,3.646405029296875000e+01,2.448673820495605469e+01,3.231311035156250000e+01
9.564269781112670898e-01,2.000000000000000000e+00,-2.983568382263183594e+01,1.289203882217407227e+00,4.170507431030273438e+01,9.577197265625000000e+01,8.485464477539062500e+01,1.344322357177734375e+02,-7.009270668029785156e+00,-3.200122833251953125e+01,-1.839629058837890625e+02,3.646361923217773438e+01,2.450335121154785156e+01,3.231014633178710938e+01
9.596629738807678223e-01,2.000000000000000000e+00,-2.988844680786132812e+01,1.325502276420593262e+00,4.166052627563476562e+01,9.577861022949218750e+01,8.485315704345703125e+01,1.344238281250000000e+02,-7.059863090515136719e+00,-3.199523353576660156e+01,-1.839581909179687500e+02,3.646347808837890625e+01,2.451989173889160156e+01,3.230673980712890625e+01
9.639940261840820312e-01,2.000000000000000000e+00,-2.994123840332031250e+01,1.361800670623779297e+00,4.161622238159179688e+01,9.578535461425781250e+01,8.485166168212890625e+01,1.344156188964843750e+02,-7.111224174499511719e+00,-3.198923492431640625e+01,-1.839539337158203125e+02,3.646311950683593750e+01,2.453664970397949219e+01,3.230256271362304688e+01
9.679980278015136719e-01,2.000000000000000000e+00,-3.004647636413574219e+01,1.434374809265136719e+00,4.152757644653320312e+01,9.579894256591796875e+01,8.484893798828125000e+01,1.343992156982421875e+02,-7.214166164398193359e+00,-3.197719764709472656e+01,-1.839446258544921875e+02,3.646254348754882812e+01,2.456921958923339844e+01,3.229520416259765625e+01
9.715639948844909668e-01,2.000000000000000000e+00,-3.004647636413574219e+01,1.434374809265136719e+00,4.152757644653320312e+01,9.579894256591796875e+01,8.484893798828125000e+01,1.343992156982421875e+02,-7.214166164398193359e+00,-3.197719764709472656e+01,-1.839446258544921875e+02,3.646254348754882812e+01,2.456921958923339844e+01,3.229520416259765625e+01
9.759820103645324707e-01,2.000000000000000000e+00,-3.009903907775878906e+01,1.470763802528381348e+00,4.148319625854492188e+01,9.580563354492187500e+01,8.484734344482421875e+01,1.343912200927734375e+02,-7.264812946319580078e+00,-3.197115707397460938e+01,-1.839404449462890625e+02,3.646232604980468750e+01,2.458619499206542969e+01,3.229168701171875000e+01
9.805660247802734375e-01,2.000000000000000000e+00,-3.015180206298828125e+01,1.507016897201538086e+00,4.143866729736328125e+01,9.581258392333984375e+01,8.484584808349609375e+01,1.343828735351562500e+02,-7.314910888671875000e+00,-3.196533966064453125e+01,-1.839359283447265625e+02,3.646203994750976562e+01,2.460331916809082031e+01,3.228729248046875000e+01
9.840499758720397949e-01,2.000000000000000000e+00,-3.020419311523437500e+01,1.543360590934753418e+00,4.139440536499023438e+01,9.581943511962890625e+01,8.484445953369140625e+01,1.343747863769531250e+02,-7.365173339843750000e+00,-3.195943641662597656e+01,-1.839313659667968750e+02,3.646160888671875000e+01,2.461905670166015625e+01,3.228388595581054688e+01
9.880459904670715332e-01,2.000000000000000000e+00,-3.025692558288574219e+01,1.579658985137939453e+00,4.135004043579101562e+01,9.582607269287109375e+01,8.484297180175781250e+01,1.343666687011718750e+02,-7.415984630584716797e+00,-3.195353126525878906e+01,-1.839268951416015625e+02,3.646146774291992188e+01,2.463515853881835938e+01,3.227993011474609375e+01
9.923080205917358398e-01,2.000000000000000000e+00,-3.030945968627929688e+01,1.615957260131835938e+00,4.130559539794921875e+01,9.583275604248046875e+01,8.484152984619140625e+01,1.343586578369140625e+02,-7.467125892639160156e+00,-3.194766998291015625e+01,-1.839222869873046875e+02,3.646117782592773438e+01,2.465213584899902344e+01,3.227608489990234375e+01
9.958829879760742188e-01,2.000000000000000000e+00,-3.036210632324218750e+01,1.652187824249267578e+00,4.126129150390625000e+01,9.583928680419921875e+01,8.483987426757812500e+01,1.343503875732421875e+02,-7.518267631530761719e+00,-3.194190216064453125e+01,-1.839176177978515625e+02,3.646067810058593750e+01,2.466882133483886719e+01,3.227235031127929688e+01
1.000008940696716309e+00,2.000000000000000000e+00,-3.041469955444335938e+01,1.688621878623962402e+00,4.121664428710937500e+01,9.584598541259765625e+01,8.483854675292968750e+01,1.343420410156250000e+02,-7.569024562835693359e+00,-3.193613433837890625e+01,-1.839135894775390625e+02,3.646060562133789062e+01,2.468499755859375000e+01,3.226828765869140625e+01
1.004868030548095703e+00,2.000000000000000000e+00,-3.046717643737792969e+01,1.724829792976379395e+00,4.117215728759765625e+01,9.585224914550781250e+01,8.483689117431640625e+01,1.343337707519531250e+02,-7.619725704193115234e+00,-3.193027687072753906e+01,-1.839089660644531250e+02,3.646031951904296875e+01,2.470131874084472656e+01,3.226454925537109375e+01
1.008121967315673828e+00,2.000000000000000000e+00,-3.051962089538574219e+01,1.760947227478027344e+00,4.112765502929687500e+01,9.585857391357421875e+01,8.483556365966796875e+01,1.343257598876953125e+02,-7.669823646545410156e+00,-3.192450904846191406e+01,-1.839046630859375000e+02,3.646003341674804688e+01,2.471771240234375000e+01,3.226092529296875000e+01
1.011899948120117188e+00,2.000000000000000000e+00,-3.057215499877929688e+01,1.797313451766967773e+00,4.108318710327148438e+01,9.586504364013671875e+01,8.483406829833984375e+01,1.343173522949218750e+02,-7.720031261444091797e+00,-3.191864967346191406e+01,-1.839002075195312500e+02,3.645973968505859375e+01,2.473512649536132812e+01,3.225740814208984375e+01
1.017212986946105957e+00,2.000000000000000000e+00,-3.062474822998046875e+01,1.833702445030212402e+00,4.103898239135742188e+01,9.587147521972656250e+01,8.483246612548828125e+01,1.343087463378906250e+02,-7.770678043365478516e+00,-3.191301727294921875e+01,-1.838957366943359375e+02,3.645945358276367188e+01,2.475173759460449219e+01,3.225345611572265625e+01
1.020064949989318848e+00,2.000000000000000000e+00,-3.067716598510742188e+01,1.869887709617614746e+00,4.099460220336914062e+01,9.587779998779296875e+01,8.483097076416015625e+01,1.343003997802734375e+02,-7.821984767913818359e+00,-3.190734100341796875e+01,-1.838911743164062500e+02,3.645909500122070312e+01,2.476813316345214844e+01,3.224983215332031250e+01
1.023998975753784180e+00,2.000000000000000000e+00,-3.072972869873046875e+01,1.906118154525756836e+00,4.095037841796875000e+01,9.588401031494140625e+01,8.482948303222656250e+01,1.342916564941406250e+02,-7.873180389404296875e+00,-3.190148544311523438e+01,-1.838865509033203125e+02,3.645902252197265625e+01,2.478452682495117188e+01,3.224653244018554688e+01
1.029037952423095703e+00,2.000000000000000000e+00,-3.078220558166503906e+01,1.942326068878173828e+00,4.090617752075195312e+01,9.589044189453125000e+01,8.482798767089843750e+01,1.342831726074218750e+02,-7.924212455749511719e+00,-3.189566993713378906e+01,-1.838819885253906250e+02,3.645866394042968750e+01,2.480150222778320312e+01,3.224290847778320312e+01
1.032238960266113281e+00,2.000000000000000000e+00,-3.083462333679199219e+01,1.978579044342041016e+00,4.086197662353515625e+01,9.589681243896484375e+01,8.482638549804687500e+01,1.342747039794921875e+02,-7.974694252014160156e+00,-3.188990020751953125e+01,-1.838775177001953125e+02,3.645823669433593750e+01,2.481797027587890625e+01,3.223884582519531250e+01
1.036471962928771973e+00,2.000000000000000000e+00,-3.088710021972656250e+01,2.014605998992919922e+00,4.081783676147460938e+01,9.590324401855468750e+01,8.482462310791015625e+01,1.342660217285156250e+02,-8.024572372436523438e+00,-3.188408851623535156e+01,-1.838732299804687500e+02,3.645809173583984375e+01,2.483480262756347656e+01,3.223521804809570312e+01
1.040122032165527344e+00,2.000000000000000000e+00,-3.093943214416503906e+01,2.050904273986816406e+00,4.077361297607421875e+01,9.590966796875000000e+01,8.482329559326171875e+01,1.342573394775390625e+02,-8.074669837951660156e+00,-3.187822723388671875e+01,-1.838686523437500000e+02,3.645780563354492188e+01,2.485068511962890625e+01,3.223225021362304688e+01
1.044062018394470215e+00,2.000000000000000000e+00,-3.099173355102539062e+01,2.087157487869262695e+00,4.072935104370117188e+01,9.591625213623046875e+01,8.482196044921875000e+01,1.342490692138671875e+02,-8.125536918640136719e+00,-3.187218666076660156e+01,-1.838643035888671875e+02,3.645751953125000000e+01,2.486686134338378906e+01,3.222884750366210938e+01
1.048040032386779785e+00,2.000000000000000000e+00,-3.104409408569335938e+01,2.123297452926635742e+00,4.068521118164062500e+01,9.592288208007812500e+01,8.482004547119140625e+01,1.342407836914062500e+02,-8.176403045654296875e+00,-3.186641883850097656e+01,-1.838598937988281250e+02,3.645722961425781250e+01,2.488318252563476562e+01,3.222533035278320312e+01
1.053048014640808105e+00,2.000000000000000000e+00,-3.109622573852539062e+01,2.159346818923950195e+00,4.064082717895507812e+01,9.592941284179687500e+01,8.481860351562500000e+01,1.342325134277343750e+02,-8.227270126342773438e+00,-3.186051368713378906e+01,-1.838553314208984375e+02,3.645693969726562500e+01,2.490015792846679688e+01,3.222148513793945312e+01
1.054926991462707520e+00,2.000000000000000000e+00,-3.114859008789062500e+01,2.195577383041381836e+00,4.059644317626953125e+01,9.593631744384765625e+01,8.481711578369140625e+01,1.342242431640625000e+02,-8.278081893920898438e+00,-3.185465431213378906e+01,-1.838509216308593750e+02,3.645672607421875000e+01,2.491669845581054688e+01,3.221796798706054688e+01
1.058925032615661621e+00,2.000000000000000000e+00,-3.120095062255859375e+01,2.231830596923828125e+00,4.055215835571289062e+01,9.594295501708984375e+01,8.481535339355468750e+01,1.342162322998046875e+02,-8.328454017639160156e+00,-3.184884071350097656e+01,-1.838463592529296875e+02,3.645643997192382812e+01,2.493287277221679688e+01,3.221467208862304688e+01
1.062996029853820801e+00,2.000000000000000000e+00,-3.125334167480468750e+01,2.267879962921142578e+00,4.050779724121093750e+01,9.594990539550781250e+01,8.481391143798828125e+01,1.342081146240234375e+02,-8.378717422485351562e+00,-3.184316444396972656e+01,-1.838417816162109375e+02,3.645608139038085938e+01,2.494897460937500000e+01,3.221115875244140625e+01
1.068364024162292480e+00,2.000000000000000000e+00,-3.130570030212402344e+01,2.303884267807006836e+00,4.046337127685546875e+01,9.595680999755859375e+01,8.481226348876953125e+01,1.341999664306640625e+02,-8.429143905639648438e+00,-3.183739662170410156e+01,-1.838372802734375000e+02,3.645579528808593750e+01,2.496558761596679688e+01,3.220764160156250000e+01
1.071014046669006348e+00,2.000000000000000000e+00,-3.135809135437011719e+01,2.340114831924438477e+00,4.041917037963867188e+01,9.596343994140625000e+01,8.481066131591796875e+01,1.341920318603515625e+02,-8.479571342468261719e+00,-3.183149337768554688e+01,-1.838328704833984375e+02,3.645550537109375000e+01,2.498227500915527344e+01,3.220467758178710938e+01
1.075014948844909668e+00,2.000000000000000000e+00,-3.141033554077148438e+01,2.376254558563232422e+00,4.037488937377929688e+01,9.597034454345703125e+01,8.480905914306640625e+01,1.341838226318359375e+02,-8.530053138732910156e+00,-3.182563209533691406e+01,-1.838284149169921875e+02,3.645521926879882812e+01,2.499786567687988281e+01,3.220138168334960938e+01
1.078930020332336426e+00,2.000000000000000000e+00,-3.146266937255859375e+01,2.412394762039184570e+00,4.033062362670898438e+01,9.597682189941406250e+01,8.480757141113281250e+01,1.341755523681640625e+02,-8.581194877624511719e+00,-3.181995582580566406e+01,-1.838241577148437500e+02,3.645500564575195312e+01,2.501418685913085938e+01,3.219786453247070312e+01
1.082993984222412109e+00,2.000000000000000000e+00,-3.151497459411621094e+01,2.448444128036499023e+00,4.028664779663085938e+01,9.598324584960937500e+01,8.480586242675781250e+01,1.341675567626953125e+02,-8.632336616516113281e+00,-3.181409645080566406e+01,-1.838197021484375000e+02,3.645471954345703125e+01,2.503101730346679688e+01,3.219435119628906250e+01
1.086972951889038086e+00,2.000000000000000000e+00,-3.156721878051757812e+01,2.484516382217407227e+00,4.024250411987304688e+01,9.598983001708984375e+01,8.480410003662109375e+01,1.341596221923828125e+02,-8.683037757873535156e+00,-3.180828285217285156e+01,-1.838153533935546875e+02,3.645442962646484375e+01,2.504784965515136719e+01,3.219160079956054688e+01
1.090932965278625488e+00,2.000000000000000000e+00,-3.161935043334960938e+01,2.520520448684692383e+00,4.019857025146484375e+01,9.599620819091796875e+01,8.480265808105468750e+01,1.341514129638671875e+02,-8.732696533203125000e+00,-3.180255889892578125e+01,-1.838108978271484375e+02,3.645406723022460938e+01,2.506424331665039062e+01,3.218819427490234375e+01
1.094990968704223633e+00,2.000000000000000000e+00,-3.167162513732910156e+01,2.556479454040527344e+00,4.015459442138671875e+01,9.600253295898437500e+01,8.480090332031250000e+01,1.341430053710937500e+02,-8.782409667968750000e+00,-3.179679107666015625e+01,-1.838064422607421875e+02,3.645392608642578125e+01,2.508041954040527344e+01,3.218468093872070312e+01
1.098971962928771973e+00,2.000000000000000000e+00,-3.172390365600585938e+01,2.592664718627929688e+00,4.011033248901367188e+01,9.600874328613281250e+01,8.479919433593750000e+01,1.341346588134765625e+02,-8.832452774047851562e+00,-3.179097938537597656e+01,-1.838019256591796875e+02,3.645349502563476562e+01,2.509703254699707031e+01,3.218094635009765625e+01
1.102936983108520508e+00,2.000000000000000000e+00,-3.177623367309570312e+01,2.628736734390258789e+00,4.006635284423828125e+01,9.601527404785156250e+01,8.479786682128906250e+01,1.341263122558593750e+02,-8.883209228515625000e+00,-3.178525543212890625e+01,-1.837977447509765625e+02,3.645335006713867188e+01,2.511335182189941406e+01,3.217753982543945312e+01
1.107000946998596191e+00,2.000000000000000000e+00,-3.182853889465332031e+01,2.664695739746093750e+00,4.002227401733398438e+01,9.602170562744140625e+01,8.479610443115234375e+01,1.341179046630859375e+02,-8.934405326843261719e+00,-3.177935028076171875e+01,-1.837931060791015625e+02,3.645292282104492188e+01,2.512974739074707031e+01,3.217435455322265625e+01
1.110926032066345215e+00,2.000000000000000000e+00,-3.188078689575195312e+01,2.700745105743408203e+00,3.997811126708984375e+01,9.602791595458984375e+01,8.479450225830078125e+01,1.341094207763671875e+02,-8.985271453857421875e+00,-3.177330970764160156e+01,-1.837888183593750000e+02,3.645263290405273438e+01,2.514672279357910156e+01,3.217061996459960938e+01
1.118417978286743164e+00,2.000000000000000000e+00,-3.193271636962890625e+01,2.736840009689331055e+00,3.993397140502929688e+01,9.603429412841796875e+01,8.479296112060546875e+01,1.341005554199218750e+02,-9.035754203796386719e+00,-3.176744842529296875e+01,-1.837843017578125000e+02,3.645234680175781250e+01,2.516355514526367188e+01,3.216666412353515625e+01
1.121088027954101562e+00,2.000000000000000000e+00,-3.203703689575195312e+01,2.808938741683959961e+00,3.984544754028320312e+01,9.604724884033203125e+01,8.478975677490234375e+01,1.340833282470703125e+02,-9.135344505310058594e+00,-3.175586891174316406e+01,-1.837752685546875000e+02,3.645177459716796875e+01,2.519576072692871094e+01,3.215963363647460938e+01
