rpiRobotics/ARM-21-02-F-19-Robot-Motion-Program/data_performance_abb/curve_1/dual_arm/diffevo_pose3/grad_result/real/run_3.csv
timestamp,cmd_num,J1,J2,J3,J4,J5,J6,J1_2,J2_2,J3_2,J4_2,J5_2,J6_2
1.085199974477291107e-02,-1.000000000000000000e+00,-1.934196472167968750e+01,-6.361564636230468750e+00,5.041895675659179688e+01,9.409272766113281250e+01,8.463775634765625000e+01,1.370028991699218750e+02,3.293158531188964844e+00,-3.330439376831054688e+01,-1.847663269042968750e+02,3.696453857421875000e+01,2.138944625854492188e+01,3.269971847534179688e+01
1.220600027590990067e-02,-1.000000000000000000e+00,-1.934196472167968750e+01,-6.361564636230468750e+00,5.041895675659179688e+01,9.409272766113281250e+01,8.463775634765625000e+01,1.370028991699218750e+02,3.293158531188964844e+00,-3.330439376831054688e+01,-1.847663269042968750e+02,3.696453857421875000e+01,2.138944625854492188e+01,3.269971847534179688e+01
1.586600020527839661e-02,-1.000000000000000000e+00,-1.934196472167968750e+01,-6.361564636230468750e+00,5.041897964477539062e+01,9.409272766113281250e+01,8.463775634765625000e+01,1.370028991699218750e+02,3.293048620223999023e+00,-3.330439376831054688e+01,-1.847664337158203125e+02,3.696453857421875000e+01,2.138944625854492188e+01,3.269950103759765625e+01
1.853800006210803986e-02,-1.000000000000000000e+00,-1.934196472167968750e+01,-6.361609935760498047e+00,5.041895675659179688e+01,9.409277343750000000e+01,8.463786315917968750e+01,1.370028991699218750e+02,3.293048620223999023e+00,-3.330439376831054688e+01,-1.847664337158203125e+02,3.696453857421875000e+01,2.138930130004882812e+01,3.269971847534179688e+01
1.988600008189678192e-02,-1.000000000000000000e+00,-1.934196472167968750e+01,-6.361609935760498047e+00,5.041895675659179688e+01,9.409277343750000000e+01,8.463786315917968750e+01,1.370028991699218750e+02,3.293048620223999023e+00,-3.330439376831054688e+01,-1.847664337158203125e+02,3.696453857421875000e+01,2.138930130004882812e+01,3.269971847534179688e+01
2.249800041317939758e-02,-1.000000000000000000e+00,-1.934196472167968750e+01,-6.361564636230468750e+00,5.041895675659179688e+01,9.409277343750000000e+01,8.463775634765625000e+01,1.370031127929687500e+02,3.293048620223999023e+00,-3.330439376831054688e+01,-1.847663269042968750e+02,3.696453857421875000e+01,2.138944625854492188e+01,3.269971847534179688e+01
2.409300021827220917e-02,-1.000000000000000000e+00,-1.934196472167968750e+01,-6.361564636230468750e+00,5.041895675659179688e+01,9.409277343750000000e+01,8.463775634765625000e+01,1.370031127929687500e+02,3.293048620223999023e+00,-3.330439376831054688e+01,-1.847663269042968750e+02,3.696453857421875000e+01,2.138944625854492188e+01,3.269971847534179688e+01
3.129100054502487183e-02,-1.000000000000000000e+00,-1.934196472167968750e+01,-6.361564636230468750e+00,5.041897964477539062e+01,9.409262084960937500e+01,8.463775634765625000e+01,1.370031127929687500e+02,3.293048620223999023e+00,-3.330439376831054688e+01,-1.847663269042968750e+02,3.696453857421875000e+01,2.138944625854492188e+01,3.269971847534179688e+01
3.262300044298171997e-02,-1.000000000000000000e+00,-1.934196472167968750e+01,-6.361564636230468750e+00,5.041897964477539062e+01,9.409262084960937500e+01,8.463775634765625000e+01,1.370031127929687500e+02,3.293048620223999023e+00,-3.330439376831054688e+01,-1.847663269042968750e+02,3.696453857421875000e+01,2.138944625854492188e+01,3.269971847534179688e+01
3.565400093793869019e-02,-1.000000000000000000e+00,-1.934196472167968750e+01,-6.361564636230468750e+00,5.041895675659179688e+01,9.409277343750000000e+01,8.463775634765625000e+01,1.370028991699218750e+02,3.293158531188964844e+00,-3.330439376831054688e+01,-1.847664337158203125e+02,3.696453857421875000e+01,2.138930130004882812e+01,3.269971847534179688e+01
4.001500084996223450e-02,-1.000000000000000000e+00,-1.934196472167968750e+01,-6.361564636230468750e+00,5.041895675659179688e+01,9.409277343750000000e+01,8.463775634765625000e+01,1.370028991699218750e+02,3.293158531188964844e+00,-3.330439376831054688e+01,-1.847664337158203125e+02,3.696453857421875000e+01,2.138930130004882812e+01,3.269971847534179688e+01
4.408000037074089050e-02,-1.000000000000000000e+00,-1.934196472167968750e+01,-6.361496925354003906e+00,5.041897964477539062e+01,9.409272766113281250e+01,8.463775634765625000e+01,1.370031127929687500e+02,3.293048620223999023e+00,-3.330425643920898438e+01,-1.847663269042968750e+02,3.696453857421875000e+01,2.138944625854492188e+01,3.269950103759765625e+01
5.136400088667869568e-02,2.000000000000000000e+00,-1.934196472167968750e+01,-6.361564636230468750e+00,5.041895675659179688e+01,9.409272766113281250e+01,8.463775634765625000e+01,1.370028991699218750e+02,3.293048620223999023e+00,-3.330439376831054688e+01,-1.847663269042968750e+02,3.696453857421875000e+01,2.138944625854492188e+01,3.269971847534179688e+01
5.600899830460548401e-02,2.000000000000000000e+00,-1.934196472167968750e+01,-6.361564636230468750e+00,5.041897964477539062e+01,9.409277343750000000e+01,8.463775634765625000e+01,1.370028991699218750e+02,3.293158531188964844e+00,-3.330439376831054688e+01,-1.847664337158203125e+02,3.696453857421875000e+01,2.138944625854492188e+01,3.269971847534179688e+01
6.108799949288368225e-02,2.000000000000000000e+00,-1.934196472167968750e+01,-6.361564636230468750e+00,5.041895675659179688e+01,9.409272766113281250e+01,8.463775634765625000e+01,1.370028991699218750e+02,3.293158531188964844e+00,-3.330425643920898438e+01,-1.847663269042968750e+02,3.696453857421875000e+01,2.138944625854492188e+01,3.269971847534179688e+01
1.039969995617866516e-01,2.000000000000000000e+00,-1.934196472167968750e+01,-6.361564636230468750e+00,5.041897964477539062e+01,9.409272766113281250e+01,8.463775634765625000e+01,1.370028991699218750e+02,3.293158531188964844e+00,-3.330439376831054688e+01,-1.847663269042968750e+02,3.696453857421875000e+01,2.138944625854492188e+01,3.269950103759765625e+01
1.053119972348213196e-01,2.000000000000000000e+00,-1.934196472167968750e+01,-6.361564636230468750e+00,5.041895675659179688e+01,9.409272766113281250e+01,8.463775634765625000e+01,1.370028991699218750e+02,3.293048620223999023e+00,-3.330439376831054688e+01,-1.847663269042968750e+02,3.696453857421875000e+01,2.138944625854492188e+01,3.269971847534179688e+01
1.079260036349296570e-01,2.000000000000000000e+00,-1.934213638305664062e+01,-6.361564636230468750e+00,5.041897964477539062e+01,9.409272766113281250e+01,8.463786315917968750e+01,1.370031127929687500e+02,3.293048620223999023e+00,-3.330439376831054688e+01,-1.847664337158203125e+02,3.696453857421875000e+01,2.138944625854492188e+01,3.269971847534179688e+01
1.092239990830421448e-01,2.000000000000000000e+00,-1.934213638305664062e+01,-6.361564636230468750e+00,5.041897964477539062e+01,9.409272766113281250e+01,8.463786315917968750e+01,1.370031127929687500e+02,3.293048620223999023e+00,-3.330439376831054688e+01,-1.847664337158203125e+02,3.696453857421875000e+01,2.138944625854492188e+01,3.269971847534179688e+01
1.172489970922470093e-01,2.000000000000000000e+00,-1.934219360351562500e+01,-6.361496925354003906e+00,5.041897964477539062e+01,9.409277343750000000e+01,8.463775634765625000e+01,1.370028991699218750e+02,3.293158531188964844e+00,-3.330439376831054688e+01,-1.847664337158203125e+02,3.696453857421875000e+01,2.138930130004882812e+01,3.269971847534179688e+01
1.198400035500526428e-01,2.000000000000000000e+00,-1.934319877624511719e+01,-6.361225605010986328e+00,5.041879653930664062e+01,9.409277343750000000e+01,8.463775634765625000e+01,1.370028991699218750e+02,3.293048620223999023e+00,-3.330439376831054688e+01,-1.847663269042968750e+02,3.696453857421875000e+01,2.138944625854492188e+01,3.269950103759765625e+01
1.212019994854927063e-01,2.000000000000000000e+00,-1.934319877624511719e+01,-6.361225605010986328e+00,5.041879653930664062e+01,9.409277343750000000e+01,8.463775634765625000e+01,1.370028991699218750e+02,3.293048620223999023e+00,-3.330439376831054688e+01,-1.847663269042968750e+02,3.696453857421875000e+01,2.138944625854492188e+01,3.269950103759765625e+01
1.235959976911544800e-01,2.000000000000000000e+00,-1.934474754333496094e+01,-6.360387802124023438e+00,5.041841125488281250e+01,9.409272766113281250e+01,8.463775634765625000e+01,1.370028991699218750e+02,3.292938709259033203e+00,-3.330439376831054688e+01,-1.847663269042968750e+02,3.696453857421875000e+01,2.138944625854492188e+01,3.269971847534179688e+01
1.280809938907623291e-01,2.000000000000000000e+00,-1.934474754333496094e+01,-6.360387802124023438e+00,5.041841125488281250e+01,9.409272766113281250e+01,8.463775634765625000e+01,1.370028991699218750e+02,3.292938709259033203e+00,-3.330439376831054688e+01,-1.847663269042968750e+02,3.696453857421875000e+01,2.138944625854492188e+01,3.269971847534179688e+01
1.294379979372024536e-01,2.000000000000000000e+00,-1.934741783142089844e+01,-6.358758449554443359e+00,5.041751480102539062e+01,9.409272766113281250e+01,8.463775634765625000e+01,1.370027618408203125e+02,3.292554140090942383e+00,-3.330425643920898438e+01,-1.847661743164062500e+02,3.696453857421875000e+01,2.138966560363769531e+01,3.269971847534179688e+01
1.321150064468383789e-01,2.000000000000000000e+00,-1.935181045532226562e+01,-6.356314659118652344e+00,5.041611480712890625e+01,9.409277343750000000e+01,8.463775634765625000e+01,1.370027618408203125e+02,3.291730165481567383e+00,-3.330406951904296875e+01,-1.847648620605468750e+02,3.696453857421875000e+01,2.139075851440429688e+01,3.269971847534179688e+01
1.333689987659454346e-01,2.000000000000000000e+00,-1.935181045532226562e+01,-6.356314659118652344e+00,5.041611480712890625e+01,9.409277343750000000e+01,8.463775634765625000e+01,1.370027618408203125e+02,3.291730165481567383e+00,-3.330406951904296875e+01,-1.847648620605468750e+02,3.696453857421875000e+01,2.139075851440429688e+01,3.269971847534179688e+01
1.372230052947998047e-01,2.000000000000000000e+00,-1.935758018493652344e+01,-6.352807044982910156e+00,5.041389846801757812e+01,9.409272766113281250e+01,8.463775634765625000e+01,1.370028991699218750e+02,3.290027141571044922e+00,-3.330334091186523438e+01,-1.847619781494140625e+02,3.696468353271484375e+01,2.139600563049316406e+01,3.269950103759765625e+01
1.401779949665069580e-01,2.000000000000000000e+00,-1.936515998840332031e+01,-6.348077297210693359e+00,5.041057968139648438e+01,9.409298706054687500e+01,8.463786315917968750e+01,1.370028991699218750e+02,3.287500381469726562e+00,-3.330256271362304688e+01,-1.847600250244140625e+02,3.696453857421875000e+01,2.140190696716308594e+01,3.269950103759765625e+01
1.415099948644638062e-01,2.000000000000000000e+00,-1.936515998840332031e+01,-6.348077297210693359e+00,5.041057968139648438e+01,9.409298706054687500e+01,8.463786315917968750e+01,1.370028991699218750e+02,3.287500381469726562e+00,-3.330256271362304688e+01,-1.847600250244140625e+02,3.696453857421875000e+01,2.140190696716308594e+01,3.269950103759765625e+01
1.440819948911666870e-01,2.000000000000000000e+00,-1.937408638000488281e+01,-6.342080593109130859e+00,5.040584564208984375e+01,9.409325408935546875e+01,8.463775634765625000e+01,1.370027618408203125e+02,3.283545494079589844e+00,-3.330182647705078125e+01,-1.847589874267578125e+02,3.696453857421875000e+01,2.140562248229980469e+01,3.269916915893554688e+01
1.453800052404403687e-01,2.000000000000000000e+00,-1.937408638000488281e+01,-6.342080593109130859e+00,5.040584564208984375e+01,9.409325408935546875e+01,8.463775634765625000e+01,1.370027618408203125e+02,3.283545494079589844e+00,-3.330182647705078125e+01,-1.847589874267578125e+02,3.696453857421875000e+01,2.140562248229980469e+01,3.269916915893554688e+01
1.496089994907379150e-01,2.000000000000000000e+00,-1.938488006591796875e+01,-6.334657669067382812e+00,5.039952087402343750e+01,9.409367370605468750e+01,8.463764953613281250e+01,1.370023040771484375e+02,3.278052330017089844e+00,-3.330109786987304688e+01,-1.847569122314453125e+02,3.696432495117187500e+01,2.140729904174804688e+01,3.269829177856445312e+01
1.533650010824203491e-01,2.000000000000000000e+00,-1.939751052856445312e+01,-6.325741767883300781e+00,5.039128875732421875e+01,9.409452056884765625e+01,8.463754272460937500e+01,1.370016174316406250e+02,3.269977331161499023e+00,-3.329990386962890625e+01,-1.847551879882812500e+02,3.696382141113281250e+01,2.140897369384765625e+01,3.269664382934570312e+01
1.560609936714172363e-01,2.000000000000000000e+00,-1.941266822814941406e+01,-6.315128326416015625e+00,5.038085556030273438e+01,9.409593963623046875e+01,8.463764953613281250e+01,1.370003356933593750e+02,3.259045839309692383e+00,-3.329862213134765625e+01,-1.847531585693359375e+02,3.696288681030273438e+01,2.141115951538085938e+01,3.269664382934570312e+01
1.573850065469741821e-01,2.000000000000000000e+00,-1.941266822814941406e+01,-6.315128326416015625e+00,5.038085556030273438e+01,9.409593963623046875e+01,8.463764953613281250e+01,1.370003356933593750e+02,3.259045839309692383e+00,-3.329862213134765625e+01,-1.847531585693359375e+02,3.696288681030273438e+01,2.141115951538085938e+01,3.269664382934570312e+01
1.612289994955062866e-01,2.000000000000000000e+00,-1.943032264709472656e+01,-6.302681922912597656e+00,5.036816787719726562e+01,9.409789276123046875e+01,8.463754272460937500e+01,1.369985046386718750e+02,3.245477676391601562e+00,-3.329711532592773438e+01,-1.847513122558593750e+02,3.696166992187500000e+01,2.141473007202148438e+01,3.269642257690429688e+01
1.636960059404373169e-01,2.000000000000000000e+00,-1.945070648193359375e+01,-6.288243770599365234e+00,5.035296249389648438e+01,9.410005187988281250e+01,8.463754272460937500e+01,1.369955749511718750e+02,3.228668689727783203e+00,-3.329560089111328125e+01,-1.847494049072265625e+02,3.695987319946289062e+01,2.141859245300292969e+01,3.269642257690429688e+01
1.651279926300048828e-01,2.000000000000000000e+00,-1.945070648193359375e+01,-6.288243770599365234e+00,5.035296249389648438e+01,9.410005187988281250e+01,8.463754272460937500e+01,1.369955749511718750e+02,3.228668689727783203e+00,-3.329560089111328125e+01,-1.847494049072265625e+02,3.695987319946289062e+01,2.141859245300292969e+01,3.269642257690429688e+01
1.677220016717910767e-01,2.000000000000000000e+00,-1.947404289245605469e+01,-6.271950244903564453e+00,5.033484649658203125e+01,9.410273742675781250e+01,8.463754272460937500e+01,1.369918518066406250e+02,3.208289146423339844e+00,-3.329359054565429688e+01,-1.847475128173828125e+02,3.695822143554687500e+01,2.142376518249511719e+01,3.269609451293945312e+01
1.712590008974075317e-01,2.000000000000000000e+00,-1.947404289245605469e+01,-6.271950244903564453e+00,5.033484649658203125e+01,9.410273742675781250e+01,8.463754272460937500e+01,1.369918518066406250e+02,3.208289146423339844e+00,-3.329359054565429688e+01,-1.847475128173828125e+02,3.695822143554687500e+01,2.142376518249511719e+01,3.269609451293945312e+01
1.726610064506530762e-01,2.000000000000000000e+00,-1.950010871887207031e+01,-6.253846168518066406e+00,5.031374359130859375e+01,9.410594177246093750e+01,8.463754272460937500e+01,1.369874420166015625e+02,3.184174060821533203e+00,-3.329088973999023438e+01,-1.847453918457031250e+02,3.695700073242187500e+01,2.143010520935058594e+01,3.269554519653320312e+01
1.739200055599212646e-01,2.000000000000000000e+00,-1.950010871887207031e+01,-6.253846168518066406e+00,5.031374359130859375e+01,9.410594177246093750e+01,8.463754272460937500e+01,1.369874420166015625e+02,3.184174060821533203e+00,-3.329088973999023438e+01,-1.847453918457031250e+02,3.695700073242187500e+01,2.143010520935058594e+01,3.269554519653320312e+01
1.765040010213851929e-01,2.000000000000000000e+00,-1.952898788452148438e+01,-6.234113216400146484e+00,5.029001235961914062e+01,9.410978698730468750e+01,8.463743591308593750e+01,1.369820861816406250e+02,3.157367467880249023e+00,-3.328763580322265625e+01,-1.847431640625000000e+02,3.695628356933593750e+01,2.143753623962402344e+01,3.269532394409179688e+01
1.803990006446838379e-01,2.000000000000000000e+00,-1.956016540527343750e+01,-6.212456226348876953e+00,5.026348114013671875e+01,9.411411285400390625e+01,8.463754272460937500e+01,1.369763183593750000e+02,3.126990079879760742e+00,-3.328392791748046875e+01,-1.847407073974609375e+02,3.695498657226562500e+01,2.144620704650878906e+01,3.269477844238281250e+01
1.885569989681243896e-01,2.000000000000000000e+00,-1.962871551513671875e+01,-6.164435386657714844e+00,5.020236587524414062e+01,9.412432861328125000e+01,8.463743591308593750e+01,1.369623565673828125e+02,3.054810047149658203e+00,-3.327518463134765625e+01,-1.847347717285156250e+02,3.695305252075195312e+01,2.146748352050781250e+01,3.269367599487304688e+01
1.913789957761764526e-01,2.000000000000000000e+00,-1.962871551513671875e+01,-6.164435386657714844e+00,5.020236587524414062e+01,9.412432861328125000e+01,8.463743591308593750e+01,1.369623565673828125e+02,3.054810047149658203e+00,-3.327518463134765625e+01,-1.847347717285156250e+02,3.695305252075195312e+01,2.146748352050781250e+01,3.269367599487304688e+01
1.927179992198944092e-01,2.000000000000000000e+00,-1.966632080078125000e+01,-6.137913227081298828e+00,5.016832733154296875e+01,9.412986755371093750e+01,8.463722229003906250e+01,1.369541473388671875e+02,3.013501405715942383e+00,-3.327010345458984375e+01,-1.847314147949218750e+02,3.695197296142578125e+01,2.147928619384765625e+01,3.269279861450195312e+01
1.940589994192123413e-01,2.000000000000000000e+00,-1.966632080078125000e+01,-6.137913227081298828e+00,5.016832733154296875e+01,9.412986755371093750e+01,8.463722229003906250e+01,1.369541473388671875e+02,3.013501405715942383e+00,-3.327010345458984375e+01,-1.847314147949218750e+02,3.695197296142578125e+01,2.147928619384765625e+01,3.269279861450195312e+01
1.975709944963455200e-01,2.000000000000000000e+00,-1.970633888244628906e+01,-6.109557628631591797e+00,5.013201522827148438e+01,9.413602447509765625e+01,8.463722229003906250e+01,1.369453277587890625e+02,2.969885826110839844e+00,-3.326479339599609375e+01,-1.847279815673828125e+02,3.695089721679687500e+01,2.149269294738769531e+01,3.269191741943359375e+01
2.001799941062927246e-01,2.000000000000000000e+00,-1.974891090393066406e+01,-6.079347133636474609e+00,5.009354782104492188e+01,9.414234161376953125e+01,8.463711547851562500e+01,1.369363708496093750e+02,2.923578500747680664e+00,-3.325953292846679688e+01,-1.847241821289062500e+02,3.694981765747070312e+01,2.150602531433105469e+01,3.269060134887695312e+01
2.045360058546066284e-01,2.000000000000000000e+00,-1.974891090393066406e+01,-6.079347133636474609e+00,5.009354782104492188e+01,9.414234161376953125e+01,8.463711547851562500e+01,1.369363708496093750e+02,2.923578500747680664e+00,-3.325953292846679688e+01,-1.847241821289062500e+02,3.694981765747070312e+01,2.150602531433105469e+01,3.269060134887695312e+01
2.080200016498565674e-01,2.000000000000000000e+00,-1.979326438903808594e+01,-6.047461509704589844e+00,5.005345535278320312e+01,9.414913940429687500e+01,8.463690185546875000e+01,1.369269561767578125e+02,2.875403404235839844e+00,-3.325394821166992188e+01,-1.847205352783203125e+02,3.694874191284179688e+01,2.152023506164550781e+01,3.268917465209960938e+01
2.130160033702850342e-01,2.000000000000000000e+00,-1.983945274353027344e+01,-6.014331340789794922e+00,5.001197814941406250e+01,9.415614318847656250e+01,8.463690185546875000e+01,1.369169769287109375e+02,2.775537490844726562e+00,-3.324199676513671875e+01,-1.847127532958984375e+02,3.694644546508789062e+01,2.155090904235839844e+01,3.268587875366210938e+01
2.160760015249252319e-01,2.000000000000000000e+00,-1.988727760314941406e+01,-5.979730129241943359e+00,4.996915817260742188e+01,9.416304779052734375e+01,8.463663482666015625e+01,1.369064025878906250e+02,2.775537490844726562e+00,-3.324199676513671875e+01,-1.847127532958984375e+02,3.694644546508789062e+01,2.155090904235839844e+01,3.268587875366210938e+01
2.196599990129470825e-01,2.000000000000000000e+00,-1.993630981445312500e+01,-5.944065093994140625e+00,4.992542648315429688e+01,9.417010498046875000e+01,8.463642120361328125e+01,1.368960266113281250e+02,2.724231481552124023e+00,-3.323577117919921875e+01,-1.847085571289062500e+02,3.694536972045898438e+01,2.156642913818359375e+01,3.268367767333984375e+01
2.239879965782165527e-01,2.000000000000000000e+00,-1.998668861389160156e+01,-5.907653808593750000e+00,4.988101959228515625e+01,9.417752838134765625e+01,8.463620758056640625e+01,1.368851776123046875e+02,2.671332359313964844e+00,-3.322964096069335938e+01,-1.847043762207031250e+02,3.694429016113281250e+01,2.158224105834960938e+01,3.268115615844726562e+01
2.297240048646926880e-01,2.000000000000000000e+00,-2.003836059570312500e+01,-5.870427608489990234e+00,4.983606719970703125e+01,9.418516540527343750e+01,8.463562011718750000e+01,1.368745269775390625e+02,2.618103504180908203e+00,-3.322322845458984375e+01,-1.847002410888671875e+02,3.694321441650390625e+01,2.159783172607421875e+01,3.267862701416015625e+01
2.325890064239501953e-01,2.000000000000000000e+00,-2.014440536499023438e+01,-5.794571876525878906e+00,4.974497985839843750e+01,9.420044708251953125e+01,8.463487243652343750e+01,1.368524169921875000e+02,2.510931968688964844e+00,-3.321059799194335938e+01,-1.846917572021484375e+02,3.694105911254882812e+01,2.163207626342773438e+01,3.267335128784179688e+01
2.368769943714141846e-01,2.000000000000000000e+00,-2.014440536499023438e+01,-5.794571876525878906e+00,4.974497985839843750e+01,9.420044708251953125e+01,8.463487243652343750e+01,1.368524169921875000e+02,2.510931968688964844e+00,-3.321059799194335938e+01,-1.846917572021484375e+02,3.694105911254882812e+01,2.163207626342773438e+01,3.267335128784179688e+01
2.399870008230209351e-01,2.000000000000000000e+00,-2.019871902465820312e+01,-5.756078720092773438e+00,4.969915008544921875e+01,9.420813751220703125e+01,8.463439941406250000e+01,1.368417816162109375e+02,2.457703113555908203e+00,-3.320446395874023438e+01,-1.846873626708984375e+02,3.693983840942382812e+01,2.164883613586425781e+01,3.267060470581054688e+01
2.439990043640136719e-01,2.000000000000000000e+00,-2.025354766845703125e+01,-5.717268466949462891e+00,4.965320205688476562e+01,9.421603393554687500e+01,8.463386535644531250e+01,1.368307800292968750e+02,2.404474496841430664e+00,-3.319810104370117188e+01,-1.846830596923828125e+02,3.693890762329101562e+01,2.166552162170410156e+01,3.266785812377929688e+01
2.480099946260452271e-01,2.000000000000000000e+00,-2.030840682983398438e+01,-5.678525924682617188e+00,4.960753631591796875e+01,9.422377777099609375e+01,8.463327789306640625e+01,1.368203430175781250e+02,2.351080656051635742e+00,-3.319173431396484375e+01,-1.846786651611328125e+02,3.693782806396484375e+01,2.168155097961425781e+01,3.266478347778320312e+01
2.521930038928985596e-01,2.000000000000000000e+00,-2.036340904235839844e+01,-5.639896392822265625e+00,4.956180953979492188e+01,9.423199462890625000e+01,8.463274383544921875e+01,1.368096160888671875e+02,2.297632217407226562e+00,-3.318532943725585938e+01,-1.846742401123046875e+02,3.693675231933593750e+01,2.169852828979492188e+01,3.266170501708984375e+01
2.559880018234252930e-01,2.000000000000000000e+00,-2.041846847534179688e+01,-5.601086616516113281e+00,4.951616668701171875e+01,9.423968505859375000e+01,8.463231658935546875e+01,1.367993164062500000e+02,2.244019031524658203e+00,-3.317891693115234375e+01,-1.846701202392578125e+02,3.693588638305664062e+01,2.171550369262695312e+01,3.265863037109375000e+01
2.610040009021759033e-01,2.000000000000000000e+00,-2.047352790832519531e+01,-5.562389373779296875e+00,4.947033691406250000e+01,9.424732208251953125e+01,8.463173675537109375e+01,1.367890777587890625e+02,2.189746618270874023e+00,-3.317242050170898438e+01,-1.846659851074218750e+02,3.693481063842773438e+01,2.173197174072265625e+01,3.265555572509765625e+01
2.641339898109436035e-01,2.000000000000000000e+00,-2.052838706970214844e+01,-5.523759841918945312e+00,4.942446899414062500e+01,9.425491333007812500e+01,8.463119506835937500e+01,1.367785644531250000e+02,2.135968446731567383e+00,-3.316587066650390625e+01,-1.846616210937500000e+02,3.693373489379882812e+01,2.174785614013671875e+01,3.265225982666015625e+01
2.680779993534088135e-01,2.000000000000000000e+00,-2.058304595947265625e+01,-5.485198497772216797e+00,4.937880706787109375e+01,9.426233673095703125e+01,8.463061523437500000e+01,1.367680511474609375e+02,2.082794666290283203e+00,-3.315960311889648438e+01,-1.846573944091796875e+02,3.693287277221679688e+01,2.176432228088378906e+01,3.264830398559570312e+01
2.721160054206848145e-01,2.000000000000000000e+00,-2.063753128051757812e+01,-5.446659564971923828e+00,4.933297348022460938e+01,9.426992034912109375e+01,8.462997436523437500e+01,1.367576141357421875e+02,2.029950380325317383e+00,-3.315328598022460938e+01,-1.846531372070312500e+02,3.693165206909179688e+01,2.178115272521972656e+01,3.264467620849609375e+01
2.762370109558105469e-01,2.000000000000000000e+00,-2.069204521179199219e+01,-5.408324241638183594e+00,4.928706741333007812e+01,9.427750396728515625e+01,8.462938690185546875e+01,1.367471008300781250e+02,1.976886391639709473e+00,-3.314687347412109375e+01,-1.846489562988281250e+02,3.693072128295898438e+01,2.179776573181152344e+01,3.264083099365234375e+01
2.805039882659912109e-01,2.000000000000000000e+00,-2.074624443054199219e+01,-5.369966983795166016e+00,4.924113464355468750e+01,9.428498077392578125e+01,8.462874603271484375e+01,1.367367248535156250e+02,1.923492908477783203e+00,-3.314046859741210938e+01,-1.846446533203125000e+02,3.692964172363281250e+01,2.181394004821777344e+01,3.263742828369140625e+01
2.850820124149322510e-01,2.000000000000000000e+00,-2.080047035217285156e+01,-5.331450462341308594e+00,4.919504547119140625e+01,9.429251861572265625e+01,8.462831878662109375e+01,1.367259368896484375e+02,1.869604825973510742e+00,-3.313410568237304688e+01,-1.846401519775390625e+02,3.692842102050781250e+01,2.183011627197265625e+01,3.263413238525390625e+01
2.879810035228729248e-01,2.000000000000000000e+00,-2.085472679138183594e+01,-5.293229103088378906e+00,4.914901351928710938e+01,9.429999542236328125e+01,8.462773132324218750e+01,1.367153015136718750e+02,1.816211342811584473e+00,-3.312760162353515625e+01,-1.846358489990234375e+02,3.692755889892578125e+01,2.184680175781250000e+01,3.263072586059570312e+01
2.909249961376190186e-01,2.000000000000000000e+00,-2.090883827209472656e+01,-5.255006790161132812e+00,4.910282135009765625e+01,9.430721282958984375e+01,8.462719726562500000e+01,1.367043762207031250e+02,1.763202309608459473e+00,-3.312096786499023438e+01,-1.846314544677734375e+02,3.692648315429687500e+01,2.186429023742675781e+01,3.262765121459960938e+01
2.949880063533782959e-01,2.000000000000000000e+00,-2.096294975280761719e+01,-5.216739654541015625e+00,4.905686950683593750e+01,9.431491088867187500e+01,8.462655639648437500e+01,1.366934509277343750e+02,1.710577845573425293e+00,-3.311460113525390625e+01,-1.846271972656250000e+02,3.692562103271484375e+01,2.188141059875488281e+01,3.262402343750000000e+01
2.989319860935211182e-01,2.000000000000000000e+00,-2.101703453063964844e+01,-5.178359031677246094e+00,4.901110076904296875e+01,9.432254028320312500e+01,8.462596893310546875e+01,1.366822662353515625e+02,1.657788515090942383e+00,-3.310837554931640625e+01,-1.846229705810546875e+02,3.692432785034179688e+01,2.189809799194335938e+01,3.262072753906250000e+01
3.029260039329528809e-01,2.000000000000000000e+00,-2.107123374938964844e+01,-5.140227794647216797e+00,4.896519470214843750e+01,9.433029174804687500e+01,8.462543487548828125e+01,1.366712188720703125e+02,1.604779481887817383e+00,-3.310229110717773438e+01,-1.846185607910156250e+02,3.692325210571289062e+01,2.191507339477539062e+01,3.261732101440429688e+01
3.069730103015899658e-01,2.000000000000000000e+00,-2.112569046020507812e+01,-5.101938247680664062e+00,4.891934585571289062e+01,9.433786773681640625e+01,8.462490081787109375e+01,1.366605072021484375e+02,1.551111340522766113e+00,-3.309610748291015625e+01,-1.846144866943359375e+02,3.692238998413085938e+01,2.193241500854492188e+01,3.261402893066406250e+01
3.109889924526214600e-01,2.000000000000000000e+00,-2.118011856079101562e+01,-5.063444614410400391e+00,4.887358093261718750e+01,9.434545898437500000e+01,8.462421417236328125e+01,1.366497039794921875e+02,1.497882485389709473e+00,-3.308979034423828125e+01,-1.846102294921875000e+02,3.692116928100585938e+01,2.194960975646972656e+01,3.261040115356445312e+01
3.150730133056640625e-01,2.000000000000000000e+00,-2.123466110229492188e+01,-5.025177478790283203e+00,4.882797622680664062e+01,9.435346221923828125e+01,8.462368011474609375e+01,1.366390686035156250e+02,1.444928407669067383e+00,-3.308333587646484375e+01,-1.846059875488281250e+02,3.692009353637695312e+01,2.196644210815429688e+01,3.260611724853515625e+01
3.190070092678070068e-01,2.000000000000000000e+00,-2.128943443298339844e+01,-4.986842632293701172e+00,4.878226852416992188e+01,9.436136627197265625e+01,8.462294006347656250e+01,1.366286163330078125e+02,1.392248988151550293e+00,-3.307688140869140625e+01,-1.846016998291015625e+02,3.691901397705078125e+01,2.198371124267578125e+01,3.260304260253906250e+01
3.229199945926666260e-01,2.000000000000000000e+00,-2.134414863586425781e+01,-4.948371410369873047e+00,4.873648071289062500e+01,9.436905670166015625e+01,8.462235260009765625e+01,1.366181793212890625e+02,1.339734315872192383e+00,-3.307033920288085938e+01,-1.845971679687500000e+02,3.691815185546875000e+01,2.200068664550781250e+01,3.259996414184570312e+01
3.269970118999481201e-01,2.000000000000000000e+00,-2.139897918701171875e+01,-4.909945964813232422e+00,4.869079589843750000e+01,9.437700653076171875e+01,8.462170410156250000e+01,1.366076660156250000e+02,1.287384510040283203e+00,-3.306392669677734375e+01,-1.845924987792968750e+02,3.691707611083984375e+01,2.201722526550292969e+01,3.259754562377929688e+01
3.336159884929656982e-01,2.000000000000000000e+00,-2.145375061035156250e+01,-4.871452331542968750e+00,4.864508819580078125e+01,9.438527679443359375e+01,8.462106323242187500e+01,1.365971527099609375e+02,1.234430313110351562e+00,-3.305779647827148438e+01,-1.845881652832031250e+02,3.691585540771484375e+01,2.203413009643554688e+01,3.259381103515625000e+01
3.367640078067779541e-01,2.000000000000000000e+00,-2.150835037231445312e+01,-4.832800388336181641e+00,4.859918212890625000e+01,9.439286041259765625e+01,8.462047576904296875e+01,1.365869140625000000e+02,1.181146621704101562e+00,-3.305138397216796875e+01,-1.845835876464843750e+02,3.691477966308593750e+01,2.205154418945312500e+01,3.259018707275390625e+01
3.405509889125823975e-01,2.000000000000000000e+00,-2.156309509277343750e+01,-4.794126033782958984e+00,4.855333328247070312e+01,9.440060424804687500e+01,8.461984252929687500e+01,1.365768127441406250e+02,1.127862930297851562e+00,-3.304520797729492188e+01,-1.845795135498046875e+02,3.691377258300781250e+01,2.206822967529296875e+01,3.258744049072265625e+01
3.446480035781860352e-01,2.000000000000000000e+00,-2.161792564392089844e+01,-4.755496501922607422e+00,4.850738143920898438e+01,9.440798187255859375e+01,8.461920166015625000e+01,1.365660247802734375e+02,1.074524402618408203e+00,-3.303870391845703125e+01,-1.845752105712890625e+02,3.691269683837890625e+01,2.208433341979980469e+01,3.258458328247070312e+01
3.488419950008392334e-01,2.000000000000000000e+00,-2.167238426208496094e+01,-4.716980934143066406e+00,4.846143341064453125e+01,9.441561889648437500e+01,8.461856079101562500e+01,1.365555725097656250e+02,1.021295547485351562e+00,-3.303252792358398438e+01,-1.845707397460937500e+02,3.691162109375000000e+01,2.210181999206542969e+01,3.258128738403320312e+01
3.528600037097930908e-01,2.000000000000000000e+00,-2.172678184509277344e+01,-4.678328514099121094e+00,4.841570663452148438e+01,9.442314910888671875e+01,8.461786651611328125e+01,1.365454101562500000e+02,9.681766629219055176e-01,-3.302625274658203125e+01,-1.845664520263671875e+02,3.691061401367187500e+01,2.211937904357910156e+01,3.257788085937500000e+01
3.576639890670776367e-01,2.000000000000000000e+00,-2.178143882751464844e+01,-4.639518260955810547e+00,4.836981964111328125e+01,9.443025970458984375e+01,8.461734008789062500e+01,1.365349578857421875e+02,9.153873920440673828e-01,-3.301984786987304688e+01,-1.845618896484375000e+02,3.690953826904296875e+01,2.213620948791503906e+01,3.257425689697265625e+01
3.609719872474670410e-01,2.000000000000000000e+00,-2.183600997924804688e+01,-4.601002216339111328e+00,4.832402801513671875e+01,9.443774414062500000e+01,8.461680603027343750e+01,1.365241241455078125e+02,8.622685074806213379e-01,-3.301366424560546875e+01,-1.845574188232421875e+02,3.690845870971679688e+01,2.215238571166992188e+01,3.257096099853515625e+01
3.648929893970489502e-01,2.000000000000000000e+00,-2.189061164855957031e+01,-4.562440872192382812e+00,4.827836608886718750e+01,9.444527435302734375e+01,8.461616516113281250e+01,1.365131988525390625e+02,8.090946674346923828e-01,-3.300743865966796875e+01,-1.845531311035156250e+02,3.690745162963867188e+01,2.216870689392089844e+01,3.256733703613281250e+01
3.689489960670471191e-01,2.000000000000000000e+00,-2.194527053833007812e+01,-4.523969650268554688e+00,4.823278045654296875e+01,9.445248413085937500e+01,8.461552429199218750e+01,1.365024871826171875e+02,7.555363178253173828e-01,-3.300117111206054688e+01,-1.845487213134765625e+02,3.690652084350585938e+01,2.218597412109375000e+01,3.256392669677734375e+01
3.709540069103240967e-01,2.000000000000000000e+00,-2.199978256225585938e+01,-4.485431194305419922e+00,4.818725967407226562e+01,9.445996856689453125e+01,8.461499023437500000e+01,1.364915618896484375e+02,7.021977305412292480e-01,-3.299462127685546875e+01,-1.845443725585937500e+02,3.690551376342773438e+01,2.220331573486328125e+01,3.256085586547851562e+01
3.749679923057556152e-01,2.000000000000000000e+00,-2.205429840087890625e+01,-4.447005748748779297e+00,4.814173507690429688e+01,9.446745300292968750e+01,8.461429595947265625e+01,1.364804382324218750e+02,6.495732069015502930e-01,-3.298839569091796875e+01,-1.845397491455078125e+02,3.690429306030273438e+01,2.222007369995117188e+01,3.255810546875000000e+01
3.855639994144439697e-01,2.000000000000000000e+00,-2.210886955261230469e+01,-4.408625602722167969e+00,4.809598922729492188e+01,9.447509002685546875e+01,8.461387634277343750e+01,1.364700012207031250e+02,5.967838764190673828e-01,-3.298207855224609375e+01,-1.845356597900390625e+02,3.690321731567382812e+01,2.223646736145019531e+01,3.255414962768554688e+01
3.870129883289337158e-01,2.000000000000000000e+00,-2.221778297424316406e+01,-4.331977844238281250e+00,4.800496292114257812e+01,9.449020385742187500e+01,8.461258697509765625e+01,1.364490356445312500e+02,4.903812706470489502e-01,-3.296921920776367188e+01,-1.845270690917968750e+02,3.690092086791992188e+01,2.227034950256347656e+01,3.254711914062500000e+01
3.894760012626647949e-01,2.000000000000000000e+00,-2.227215385437011719e+01,-4.293846130371093750e+00,4.795921707153320312e+01,9.449800109863281250e+01,8.461195373535156250e+01,1.364387359619140625e+02,4.369328022003173828e-01,-3.296271514892578125e+01,-1.845227813720703125e+02,3.689991378784179688e+01,2.228739929199218750e+01,3.254404449462890625e+01
3.909879922866821289e-01,2.000000000000000000e+00,-2.227215385437011719e+01,-4.293846130371093750e+00,4.795921707153320312e+01,9.449800109863281250e+01,8.461195373535156250e+01,1.364387359619140625e+02,4.369328022003173828e-01,-3.296271514892578125e+01,-1.845227813720703125e+02,3.689991378784179688e+01,2.228739929199218750e+01,3.254404449462890625e+01
3.949289917945861816e-01,2.000000000000000000e+00,-2.232658195495605469e+01,-4.255511283874511719e+00,4.791347122192382812e+01,9.450589752197265625e+01,8.461141204833984375e+01,1.364284210205078125e+02,3.837589919567108154e-01,-3.295640182495117188e+01,-1.845183715820312500e+02,3.689883804321289062e+01,2.230386543273925781e+01,3.254096984863281250e+01
3.989230096340179443e-01,2.000000000000000000e+00,-2.238092422485351562e+01,-4.217357158660888672e+00,4.786760330200195312e+01,9.451380157470703125e+01,8.461087799072265625e+01,1.364181823730468750e+02,3.309696614742279053e-01,-3.295008468627929688e+01,-1.845138092041015625e+02,3.689783477783203125e+01,2.232077026367187500e+01,3.253734207153320312e+01
4.060670137405395508e-01,2.000000000000000000e+00,-2.243520736694335938e+01,-4.179248332977294922e+00,4.782187652587890625e+01,9.452175903320312500e+01,8.461035156250000000e+01,1.364080810546875000e+02,2.782902121543884277e-01,-3.294372177124023438e+01,-1.845092773437500000e+02,3.689661026000976562e+01,2.233818435668945312e+01,3.253426361083984375e+01
4.074710011482238770e-01,2.000000000000000000e+00,-2.248940658569335938e+01,-4.141116619110107422e+00,4.777592849731445312e+01,9.452965545654296875e+01,8.460981750488281250e+01,1.363977661132812500e+02,2.257755547761917114e-01,-3.293744659423828125e+01,-1.845047760009765625e+02,3.689538955688476562e+01,2.235588836669921875e+01,3.253063964843750000e+01
4.119189977645874023e-01,2.000000000000000000e+00,-2.254329109191894531e+01,-4.102804660797119141e+00,4.773030090332031250e+01,9.453718566894531250e+01,8.460918426513671875e+01,1.363877258300781250e+02,1.734257191419601440e-01,-3.293127059936523438e+01,-1.845003814697265625e+02,3.689431381225585938e+01,2.237279319763183594e+01,3.252734375000000000e+01
4.149590134620666504e-01,2.000000000000000000e+00,-2.259717178344726562e+01,-4.064740657806396484e+00,4.768478012084960938e+01,9.454461669921875000e+01,8.460865020751953125e+01,1.363772888183593750e+02,1.209660023450851440e-01,-3.292494964599609375e+01,-1.844962463378906250e+02,3.689323806762695312e+01,2.238925933837890625e+01,3.252371978759765625e+01
4.189749956130981445e-01,2.000000000000000000e+00,-2.265119934082031250e+01,-4.026541709899902344e+00,4.763903427124023438e+01,9.455230712890625000e+01,8.460821533203125000e+01,1.363666381835937500e+02,6.784710288047790527e-02,-3.291859054565429688e+01,-1.844920501708984375e+02,3.689201354980468750e+01,2.240565299987792969e+01,3.252031326293945312e+01
4.239340126514434814e-01,2.000000000000000000e+00,-2.270528221130371094e+01,-3.988252162933349609e+00,4.759355163574218750e+01,9.455967712402343750e+01,8.460757446289062500e+01,1.363561401367187500e+02,1.472820620983839035e-02,-3.291231918334960938e+01,-1.844877624511718750e+02,3.689101028442382812e+01,2.242255783081054688e+01,3.251701736450195312e+01
4.269320070743560791e-01,2.000000000000000000e+00,-2.275953865051269531e+01,-3.949848890304565430e+00,4.754802703857421875e+01,9.456711578369140625e+01,8.460704040527343750e+01,1.363458251953125000e+02,-3.828082606196403503e-02,-3.290604400634765625e+01,-1.844832305908203125e+02,3.688978958129882812e+01,2.243960571289062500e+01,3.251338958740234375e+01
4.351280033588409424e-01,2.000000000000000000e+00,-2.275953865051269531e+01,-3.949848890304565430e+00,4.754802703857421875e+01,9.456711578369140625e+01,8.460704040527343750e+01,1.363458251953125000e+02,-9.068561345338821411e-02,-3.289995574951171875e+01,-1.844786682128906250e+02,3.688871002197265625e+01,2.245672988891601562e+01,3.250998687744140625e+01
4.377349913120269775e-01,2.000000000000000000e+00,-2.292242050170898438e+01,-3.835002183914184570e+00,4.741184234619140625e+01,9.458927917480468750e+01,8.460544586181640625e+01,1.363130645751953125e+02,-1.954402476549148560e-01,-3.288727569580078125e+01,-1.844697570800781250e+02,3.688634109497070312e+01,2.248988151550292969e+01,3.250383377075195312e+01
4.400179982185363770e-01,2.000000000000000000e+00,-2.292242050170898438e+01,-3.835002183914184570e+00,4.741184234619140625e+01,9.458927917480468750e+01,8.460544586181640625e+01,1.363130645751953125e+02,-1.954402476549148560e-01,-3.288727569580078125e+01,-1.844697570800781250e+02,3.688634109497070312e+01,2.248988151550292969e+01,3.250383377075195312e+01
4.429549872875213623e-01,2.000000000000000000e+00,-2.297676277160644531e+01,-3.796780109405517578e+00,4.736634063720703125e+01,9.459638977050781250e+01,8.460481262207031250e+01,1.363023529052734375e+02,-2.484492808580398560e-01,-3.288091278076171875e+01,-1.844656066894531250e+02,3.688512039184570312e+01,2.250729560852050781e+01,3.250053787231445312e+01
4.495599865913391113e-01,2.000000000000000000e+00,-2.297676277160644531e+01,-3.796780109405517578e+00,4.736634063720703125e+01,9.459638977050781250e+01,8.460481262207031250e+01,1.363023529052734375e+02,-2.484492808580398560e-01,-3.288091278076171875e+01,-1.844656066894531250e+02,3.688512039184570312e+01,2.250729560852050781e+01,3.250053787231445312e+01
4.519250094890594482e-01,2.000000000000000000e+00,-2.308544731140136719e+01,-3.719793319702148438e+00,4.727513504028320312e+01,9.461135864257812500e+01,8.460363769531250000e+01,1.362809906005859375e+02,-3.539180457592010498e-01,-3.286819076538085938e+01,-1.844571838378906250e+02,3.688282394409179688e+01,2.254110527038574219e+01,3.249361801147460938e+01
4.555459916591644287e-01,2.000000000000000000e+00,-2.313967323303222656e+01,-3.681435346603393555e+00,4.722959136962890625e+01,9.461888122558593750e+01,8.460310363769531250e+01,1.362704162597656250e+02,-4.063777327537536621e-01,-3.286177825927734375e+01,-1.844530029296875000e+02,3.688182067871093750e+01,2.255771636962890625e+01,3.249053955078125000e+01
4.601710140705108643e-01,2.000000000000000000e+00,-2.319401550292968750e+01,-3.643100500106811523e+00,4.718394470214843750e+01,9.462652587890625000e+01,8.460256958007812500e+01,1.362599639892578125e+02,-4.588924050331115723e-01,-3.285564422607421875e+01,-1.844482574462890625e+02,3.688045501708984375e+01,2.257491302490234375e+01,3.248724365234375000e+01
4.629949927330017090e-01,2.000000000000000000e+00,-2.324850082397460938e+01,-3.604742527008056641e+00,4.713842010498046875e+01,9.463426971435546875e+01,8.460203552246093750e+01,1.362496643066406250e+02,-5.109675526618957520e-01,-3.284951019287109375e+01,-1.844436950683593750e+02,3.687923431396484375e+01,2.259181594848632812e+01,3.248383712768554688e+01
4.679740071296691895e-01,2.000000000000000000e+00,-2.324850082397460938e+01,-3.604742527008056641e+00,4.713842010498046875e+01,9.463426971435546875e+01,8.460203552246093750e+01,1.362496643066406250e+02,-5.109675526618957520e-01,-3.284951019287109375e+01,-1.844436950683593750e+02,3.687923431396484375e+01,2.259181594848632812e+01,3.248383712768554688e+01
4.709559977054595947e-01,2.000000000000000000e+00,-2.335707092285156250e+01,-3.528004407882690430e+00,4.704719543457031250e+01,9.464975738525390625e+01,8.460091400146484375e+01,1.362292480468750000e+02,-6.164363622665405273e-01,-3.283715438842773438e+01,-1.844346771240234375e+02,3.687700653076171875e+01,2.262496757507324219e+01,3.247801589965820312e+01
4.750329852104187012e-01,2.000000000000000000e+00,-2.335707092285156250e+01,-3.528004407882690430e+00,4.704719543457031250e+01,9.464975738525390625e+01,8.460091400146484375e+01,1.362292480468750000e+02,-6.164363622665405273e-01,-3.283715438842773438e+01,-1.844346771240234375e+02,3.687700653076171875e+01,2.262496757507324219e+01,3.247801589965820312e+01
4.790419936180114746e-01,2.000000000000000000e+00,-2.341121101379394531e+01,-3.489782571792602539e+00,4.700173187255859375e+01,9.465744018554687500e+01,8.460038757324218750e+01,1.362188110351562500e+02,-6.695003509521484375e-01,-3.283083343505859375e+01,-1.844302520751953125e+02,3.687593078613281250e+01,2.264150810241699219e+01,3.247494125366210938e+01
4.829620122909545898e-01,2.000000000000000000e+00,-2.346529579162597656e+01,-3.451447486877441406e+00,4.695643615722656250e+01,9.466566467285156250e+01,8.459985351562500000e+01,1.362088317871093750e+02,-7.226191759109497070e-01,-3.282442855834960938e+01,-1.844260864257812500e+02,3.687456512451171875e+01,2.265790367126464844e+01,3.247164535522460938e+01
4.869860112667083740e-01,2.000000000000000000e+00,-2.357328987121582031e+01,-3.375275373458862305e+00,4.686581420898437500e+01,9.468077850341796875e+01,8.459877777099609375e+01,1.361881561279296875e+02,-8.275935649871826172e-01,-3.281206512451171875e+01,-1.844174346923828125e+02,3.687219619750976562e+01,2.269214820861816406e+01,3.246582412719726562e+01
4.920229911804199219e-01,2.000000000000000000e+00,-2.357328987121582031e+01,-3.375275373458862305e+00,4.686581420898437500e+01,9.468077850341796875e+01,8.459877777099609375e+01,1.361881561279296875e+02,-8.275935649871826172e-01,-3.281206512451171875e+01,-1.844174346923828125e+02,3.687219619750976562e+01,2.269214820861816406e+01,3.246582412719726562e+01
4.949930012226104736e-01,2.000000000000000000e+00,-2.368140029907226562e+01,-3.298899173736572266e+00,4.677503204345703125e+01,9.469605255126953125e+01,8.459777069091796875e+01,1.361674041748046875e+02,-9.330073595046997070e-01,-3.279988861083984375e+01,-1.844086151123046875e+02,3.686996841430664062e+01,2.272449684143066406e+01,3.245977783203125000e+01
4.999719858169555664e-01,2.000000000000000000e+00,-2.368140029907226562e+01,-3.298899173736572266e+00,4.677503204345703125e+01,9.469605255126953125e+01,8.459777069091796875e+01,1.361674041748046875e+02,-9.330073595046997070e-01,-3.279988861083984375e+01,-1.844086151123046875e+02,3.686996841430664062e+01,2.272449684143066406e+01,3.245977783203125000e+01
5.036010146141052246e-01,2.000000000000000000e+00,-2.378948020935058594e+01,-3.222817659378051758e+00,4.668437576293945312e+01,9.471054077148437500e+01,8.459670257568359375e+01,1.361459655761718750e+02,-1.038586020469665527e+00,-3.278716659545898438e+01,-1.843999786376953125e+02,3.686753082275390625e+01,2.275794219970703125e+01,3.245395660400390625e+01
5.113149881362915039e-01,2.000000000000000000e+00,-2.378948020935058594e+01,-3.222817659378051758e+00,4.668437576293945312e+01,9.471054077148437500e+01,8.459670257568359375e+01,1.361459655761718750e+02,-1.091320395469665527e+00,-3.278062057495117188e+01,-1.843956756591796875e+02,3.686631011962890625e+01,2.277506446838378906e+01,3.245087814331054688e+01
5.126789808273315430e-01,2.000000000000000000e+00,-2.389739036560058594e+01,-3.146713018417358398e+00,4.659348678588867188e+01,9.472523498535156250e+01,8.459568786621093750e+01,1.361243286132812500e+02,-1.143725275993347168e+00,-3.277425765991210938e+01,-1.843911590576171875e+02,3.686516189575195312e+01,2.279124069213867188e+01,3.244758224487304688e+01
5.159580111503601074e-01,2.000000000000000000e+00,-2.395133018493652344e+01,-3.108785390853881836e+00,4.654790878295898438e+01,9.473260498046875000e+01,8.459504699707031250e+01,1.361135559082031250e+02,-1.196129918098449707e+00,-3.276775360107421875e+01,-1.843868560791015625e+02,3.686408233642578125e+01,2.280734252929687500e+01,3.244428634643554688e+01
5.189899802207946777e-01,2.000000000000000000e+00,-2.400538444519042969e+01,-3.070744514465332031e+00,4.650246429443359375e+01,9.473992919921875000e+01,8.459472656250000000e+01,1.361030426025390625e+02,-1.248644590377807617e+00,-3.276148605346679688e+01,-1.843825683593750000e+02,3.686272048950195312e+01,2.282380867004394531e+01,3.244176101684570312e+01
5.229640007019042969e-01,2.000000000000000000e+00,-2.400538444519042969e+01,-3.070744514465332031e+00,4.650246429443359375e+01,9.473992919921875000e+01,8.459472656250000000e+01,1.361030426025390625e+02,-1.248644590377807617e+00,-3.276148605346679688e+01,-1.843825683593750000e+02,3.686272048950195312e+01,2.282380867004394531e+01,3.244176101684570312e+01
5.283160209655761719e-01,2.000000000000000000e+00,-2.411320877075195312e+01,-2.994707822799682617e+00,4.641150283813476562e+01,9.475473022460937500e+01,8.459360504150390625e+01,1.360820770263671875e+02,-1.353399276733398438e+00,-3.274907684326171875e+01,-1.843736572265625000e+02,3.686034774780273438e+01,2.285696220397949219e+01,3.243593597412109375e+01
5.309759974479675293e-01,2.000000000000000000e+00,-2.416726303100585938e+01,-2.956644535064697266e+00,4.636632156372070312e+01,9.476194763183593750e+01,8.459297180175781250e+01,1.360719146728515625e+02,-1.406353354454040527e+00,-3.274271392822265625e+01,-1.843692932128906250e+02,3.685898208618164062e+01,2.287291717529296875e+01,3.243264007568359375e+01
5.361139774322509766e-01,2.000000000000000000e+00,-2.416726303100585938e+01,-2.956644535064697266e+00,4.636632156372070312e+01,9.476194763183593750e+01,8.459297180175781250e+01,1.360719146728515625e+02,-1.406353354454040527e+00,-3.274271392822265625e+01,-1.843692932128906250e+02,3.685898208618164062e+01,2.287291717529296875e+01,3.243264007568359375e+01
5.389320254325866699e-01,2.000000000000000000e+00,-2.427528572082519531e+01,-2.880494594573974609e+00,4.627582550048828125e+01,9.477712249755859375e+01,8.459195709228515625e+01,1.360518341064453125e+02,-1.510943174362182617e+00,-3.273017501831054688e+01,-1.843603210449218750e+02,3.685675811767578125e+01,2.290629005432128906e+01,3.242660140991210938e+01
5.439810156822204590e-01,2.000000000000000000e+00,-2.427528572082519531e+01,-2.880494594573974609e+00,4.627582550048828125e+01,9.477712249755859375e+01,8.459195709228515625e+01,1.360518341064453125e+02,-1.510943174362182617e+00,-3.273017501831054688e+01,-1.843603210449218750e+02,3.685675811767578125e+01,2.290629005432128906e+01,3.242660140991210938e+01
5.469300150871276855e-01,2.000000000000000000e+00,-2.438325309753417969e+01,-2.804299831390380859e+00,4.618553161621093750e+01,9.479234313964843750e+01,8.459088897705078125e+01,1.360312957763671875e+02,-1.614544272422790527e+00,-3.271772384643554688e+01,-1.843517303466796875e+02,3.685424804687500000e+01,2.293893051147460938e+01,3.242000961303710938e+01
5.520409941673278809e-01,2.000000000000000000e+00,-2.438325309753417969e+01,-2.804299831390380859e+00,4.618553161621093750e+01,9.479234313964843750e+01,8.459088897705078125e+01,1.360312957763671875e+02,-1.614544272422790527e+00,-3.271772384643554688e+01,-1.843517303466796875e+02,3.685424804687500000e+01,2.293893051147460938e+01,3.242000961303710938e+01
5.559499859809875488e-01,2.000000000000000000e+00,-2.449130439758300781e+01,-2.728104829788208008e+00,4.609530258178710938e+01,9.480793762207031250e+01,8.458976745605468750e+01,1.360110168457031250e+02,-1.719518661499023438e+00,-3.270541000366210938e+01,-1.843430786132812500e+02,3.685187530517578125e+01,2.297200965881347656e+01,3.241451263427734375e+01
5.609880089759826660e-01,2.000000000000000000e+00,-2.449130439758300781e+01,-2.728104829788208008e+00,4.609530258178710938e+01,9.480793762207031250e+01,8.458976745605468750e+01,1.360110168457031250e+02,-1.719518661499023438e+00,-3.270541000366210938e+01,-1.843430786132812500e+02,3.685187530517578125e+01,2.297200965881347656e+01,3.241451263427734375e+01
5.634880065917968750e-01,2.000000000000000000e+00,-2.459921455383300781e+01,-2.651909828186035156e+00,4.600498580932617188e+01,9.482336425781250000e+01,8.458876037597656250e+01,1.359908752441406250e+02,-1.824877619743347168e+00,-3.269305038452148438e+01,-1.843341522216796875e+02,3.684965133666992188e+01,2.300538253784179688e+01,3.240803146362304688e+01
5.679749846458435059e-01,2.000000000000000000e+00,-2.459921455383300781e+01,-2.651909828186035156e+00,4.600498580932617188e+01,9.482336425781250000e+01,8.458876037597656250e+01,1.359908752441406250e+02,-1.824877619743347168e+00,-3.269305038452148438e+01,-1.843341522216796875e+02,3.684965133666992188e+01,2.300538253784179688e+01,3.240803146362304688e+01
5.730000138282775879e-01,2.000000000000000000e+00,-2.465329742431640625e+01,-2.613755941390991211e+00,4.595964813232421875e+01,9.483068847656250000e+01,8.458832550048828125e+01,1.359804382324218750e+02,-1.877007722854614258e+00,-3.268695831298828125e+01,-1.843296508789062500e+02,3.684835815429687500e+01,2.302177429199218750e+01,3.240495681762695312e+01
5.764759778976440430e-01,2.000000000000000000e+00,-2.476115036010742188e+01,-2.537719249725341797e+00,4.586906814575195312e+01,9.484554290771484375e+01,8.458721160888671875e+01,1.359591369628906250e+02,-1.980663776397705078e+00,-3.267432403564453125e+01,-1.843206787109375000e+02,3.684598922729492188e+01,2.305514717102050781e+01,3.239814376831054688e+01
5.799350142478942871e-01,2.000000000000000000e+00,-2.481514739990234375e+01,-2.499565124511718750e+00,4.582378768920898438e+01,9.485292053222656250e+01,8.458668518066406250e+01,1.359484863281250000e+02,-2.033013582229614258e+00,-3.266796112060546875e+01,-1.843162689208984375e+02,3.684476470947265625e+01,2.307197570800781250e+01,3.239462661743164062e+01
5.851699709892272949e-01,2.000000000000000000e+00,-2.481514739990234375e+01,-2.499565124511718750e+00,4.582378768920898438e+01,9.485292053222656250e+01,8.458668518066406250e+01,1.359484863281250000e+02,-2.033013582229614258e+00,-3.266796112060546875e+01,-1.843162689208984375e+02,3.684476470947265625e+01,2.307197570800781250e+01,3.239462661743164062e+01
5.876920223236083984e-01,2.000000000000000000e+00,-2.492288398742675781e+01,-2.423709630966186523e+00,4.573319244384765625e+01,9.486761474609375000e+01,8.458556365966796875e+01,1.359271392822265625e+02,-2.138262510299682617e+00,-3.265560150146484375e+01,-1.843075103759765625e+02,3.684239578247070312e+01,2.310512924194335938e+01,3.238913726806640625e+01
5.919830203056335449e-01,2.000000000000000000e+00,-2.492288398742675781e+01,-2.423709630966186523e+00,4.573319244384765625e+01,9.486761474609375000e+01,8.458556365966796875e+01,1.359271392822265625e+02,-2.138262510299682617e+00,-3.265560150146484375e+01,-1.843075103759765625e+02,3.684239578247070312e+01,2.310512924194335938e+01,3.238913726806640625e+01
5.959770083427429199e-01,2.000000000000000000e+00,-2.497670936584472656e+01,-2.385668754577636719e+00,4.568803405761718750e+01,9.487487792968750000e+01,8.458507537841796875e+01,1.359167480468750000e+02,-2.190777301788330078e+00,-3.264933395385742188e+01,-1.843031158447265625e+02,3.684124755859375000e+01,2.312174034118652344e+01,3.238562393188476562e+01
5.989710092544555664e-01,2.000000000000000000e+00,-2.503039169311523438e+01,-2.347650766372680664e+00,4.564293670654296875e+01,9.488210296630859375e+01,8.458454132080078125e+01,1.359061737060546875e+02,-2.242797374725341797e+00,-3.264310836791992188e+01,-1.842985382080078125e+02,3.684024429321289062e+01,2.313820838928222656e+01,3.238232421875000000e+01
6.039559841156005859e-01,2.000000000000000000e+00,-2.513841438293457031e+01,-2.271930694580078125e+00,4.555286788940429688e+01,9.489690399169921875e+01,8.458364105224609375e+01,1.358857574462890625e+02,-2.346178770065307617e+00,-3.263065719604492188e+01,-1.842898254394531250e+02,3.683787536621093750e+01,2.317216300964355469e+01,3.237562179565429688e+01
6.080060005187988281e-01,2.000000000000000000e+00,-2.513841438293457031e+01,-2.271930694580078125e+00,4.555286788940429688e+01,9.489690399169921875e+01,8.458364105224609375e+01,1.358857574462890625e+02,-2.346178770065307617e+00,-3.263065719604492188e+01,-1.842898254394531250e+02,3.683787536621093750e+01,2.317216300964355469e+01,3.237562179565429688e+01
6.117219924926757812e-01,2.000000000000000000e+00,-2.524597930908203125e+01,-2.196075201034545898e+00,4.546284103393554688e+01,9.491149139404296875e+01,8.458241271972656250e+01,1.358658294677734375e+02,-2.451702356338500977e+00,-3.261779022216796875e+01,-1.842812347412109375e+02,3.683557510375976562e+01,2.320473098754882812e+01,3.236902999877929688e+01
6.159880161285400391e-01,2.000000000000000000e+00,-2.524597930908203125e+01,-2.196075201034545898e+00,4.546284103393554688e+01,9.491149139404296875e+01,8.458241271972656250e+01,1.358658294677734375e+02,-2.451702356338500977e+00,-3.261779022216796875e+01,-1.842812347412109375e+02,3.683557510375976562e+01,2.320473098754882812e+01,3.236902999877929688e+01
6.199740171432495117e-01,2.000000000000000000e+00,-2.529971694946289062e+01,-2.158374071121215820e+00,4.541776275634765625e+01,9.491912841796875000e+01,8.458199310302734375e+01,1.358558502197265625e+02,-2.504107236862182617e+00,-3.261161422729492188e+01,-1.842772216796875000e+02,3.683420944213867188e+01,2.322148895263671875e+01,3.236584472656250000e+01
6.239629983901977539e-01,2.000000000000000000e+00,-2.535348701477050781e+01,-2.120491266250610352e+00,4.537281036376953125e+01,9.492697906494140625e+01,8.458140563964843750e+01,1.358455352783203125e+02,-2.556457042694091797e+00,-3.260525131225585938e+01,-1.842726440429687500e+02,3.683320617675781250e+01,2.323795700073242188e+01,3.236287689208984375e+01
6.269999742507934570e-01,2.000000000000000000e+00,-2.540716934204101562e+01,-2.082541227340698242e+00,4.532775497436523438e+01,9.493472290039062500e+01,8.458091735839843750e+01,1.358357696533203125e+02,-2.608312606811523438e+00,-3.259902572631835938e+01,-1.842683563232421875e+02,3.683205795288085938e+01,2.325449562072753906e+01,3.235958099365234375e+01
6.311089992523193359e-01,2.000000000000000000e+00,-2.546050453186035156e+01,-2.044839620590209961e+00,4.528268051147460938e+01,9.494246673583984375e+01,8.458016967773437500e+01,1.358257446289062500e+02,-2.660278081893920898e+00,-3.259275054931640625e+01,-1.842639465332031250e+02,3.683090591430664062e+01,2.327132797241210938e+01,3.235639572143554688e+01
6.362130045890808105e-01,2.000000000000000000e+00,-2.551401519775390625e+01,-2.006979703903198242e+00,4.523749923706054688e+01,9.495025634765625000e+01,8.458001708984375000e+01,1.358157043457031250e+02,-2.712627887725830078e+00,-3.258638763427734375e+01,-1.842597656250000000e+02,3.682968902587890625e+01,2.328735733032226562e+01,3.235343170166015625e+01
6.401290297508239746e-01,2.000000000000000000e+00,-2.556786918640136719e+01,-1.969074606895446777e+00,4.519236373901367188e+01,9.495794677734375000e+01,8.457926177978515625e+01,1.358056030273437500e+02,-2.764812707901000977e+00,-3.257998275756835938e+01,-1.842555084228515625e+02,3.682875442504882812e+01,2.330411529541015625e+01,3.235046386718750000e+01
6.431450247764587402e-01,2.000000000000000000e+00,-2.562132072448730469e+01,-1.931282758712768555e+00,4.514726638793945312e+01,9.496574401855468750e+01,8.457878875732421875e+01,1.357952880859375000e+02,-2.817107677459716797e+00,-3.257347869873046875e+01,-1.842512207031250000e+02,3.682738876342773438e+01,2.332087326049804688e+01,3.234749984741210938e+01
6.470649838447570801e-01,2.000000000000000000e+00,-2.567482948303222656e+01,-1.893558502197265625e+00,4.510203170776367188e+01,9.497338867187500000e+01,8.457836151123046875e+01,1.357849121093750000e+02,-2.869677305221557617e+00,-3.256702423095703125e+01,-1.842468109130859375e+02,3.682624435424804688e+01,2.333719444274902344e+01,3.234431457519531250e+01
6.510930061340332031e-01,2.000000000000000000e+00,-2.572839736938476562e+01,-1.855676174163818359e+00,4.505709838867187500e+01,9.498065185546875000e+01,8.457788848876953125e+01,1.357745361328125000e+02,-2.921807527542114258e+00,-3.256061935424804688e+01,-1.842424163818359375e+02,3.682523345947265625e+01,2.335344314575195312e+01,3.234079742431640625e+01
6.552100181579589844e-01,2.000000000000000000e+00,-2.578179168701171875e+01,-1.817770957946777344e+00,4.501222610473632812e+01,9.498792266845703125e+01,8.457730102539062500e+01,1.357636871337890625e+02,-2.973333358764648438e+00,-3.255448150634765625e+01,-1.842381744384765625e+02,3.682394409179687500e+01,2.336983680725097656e+01,3.233815765380859375e+01
6.591929793357849121e-01,2.000000000000000000e+00,-2.583547401428222656e+01,-1.780024290084838867e+00,4.496718978881835938e+01,9.499514007568359375e+01,8.457665252685546875e+01,1.357531127929687500e+02,-3.024914026260375977e+00,-3.254830551147460938e+01,-1.842334899902343750e+02,3.682293701171875000e+01,2.338695907592773438e+01,3.233519363403320312e+01
6.676110029220581055e-01,2.000000000000000000e+00,-2.588915634155273438e+01,-1.742141842842102051e+00,4.492234039306640625e+01,9.500240325927734375e+01,8.457627868652343750e+01,1.357424621582031250e+02,-3.076824665069580078e+00,-3.254217147827148438e+01,-1.842293548583984375e+02,3.682178878784179688e+01,2.340393638610839844e+01,3.233222579956054688e+01
6.689509749412536621e-01,2.000000000000000000e+00,-2.599625968933105469e+01,-1.666308999061584473e+00,4.483269500732421875e+01,9.501689147949218750e+01,8.457505798339843750e+01,1.357220458984375000e+02,-3.181359529495239258e+00,-3.252989959716796875e+01,-1.842205963134765625e+02,3.681949234008789062e+01,2.343577766418457031e+01,3.232640457153320312e+01
6.730059981346130371e-01,2.000000000000000000e+00,-2.604985618591308594e+01,-1.628630161285400391e+00,4.478790283203125000e+01,9.502405548095703125e+01,8.457468414306640625e+01,1.357119445800781250e+02,-3.233599424362182617e+00,-3.252362823486328125e+01,-1.842165222167968750e+02,3.681848526000976562e+01,2.345239067077636719e+01,3.232398605346679688e+01
6.769279837608337402e-01,2.000000000000000000e+00,-2.610348129272460938e+01,-1.590883374214172363e+00,4.474309539794921875e+01,9.503111267089843750e+01,8.457409667968750000e+01,1.357018280029296875e+02,-3.285399913787841797e+00,-3.251745223999023438e+01,-1.842121734619140625e+02,3.681711959838867188e+01,2.346980476379394531e+01,3.232058334350585938e+01
6.809319853782653809e-01,2.000000000000000000e+00,-2.610348129272460938e+01,-1.590883374214172363e+00,4.474309539794921875e+01,9.503111267089843750e+01,8.457409667968750000e+01,1.357018280029296875e+02,-3.285399913787841797e+00,-3.251745223999023438e+01,-1.842121734619140625e+02,3.681711959838867188e+01,2.346980476379394531e+01,3.232058334350585938e+01
6.839240193367004395e-01,2.000000000000000000e+00,-2.615707588195800781e+01,-1.553046226501464844e+00,4.469820022583007812e+01,9.503827667236328125e+01,8.457366943359375000e+01,1.356916046142578125e+02,-3.388561725616455078e+00,-3.250540924072265625e+01,-1.842034759521484375e+02,3.681482315063476562e+01,2.350208091735839844e+01,3.231465148925781250e+01
6.886479854583740234e-01,2.000000000000000000e+00,-2.626389503479003906e+01,-1.477281212806701660e+00,4.460825347900390625e+01,9.505333709716796875e+01,8.457260894775390625e+01,1.356719360351562500e+02,-3.439977645874023438e+00,-3.249937057495117188e+01,-1.841987457275390625e+02,3.681388854980468750e+01,2.351825714111328125e+01,3.231201171875000000e+01
6.920729875564575195e-01,2.000000000000000000e+00,-2.626389503479003906e+01,-1.477281212806701660e+00,4.460825347900390625e+01,9.505333709716796875e+01,8.457260894775390625e+01,1.356719360351562500e+02,-3.439977645874023438e+00,-3.249937057495117188e+01,-1.841987457275390625e+02,3.681388854980468750e+01,2.351825714111328125e+01,3.231201171875000000e+01
6.954540014266967773e-01,2.000000000000000000e+00,-2.631728935241699219e+01,-1.439534544944763184e+00,4.456327819824218750e+01,9.506066131591796875e+01,8.457207489013671875e+01,1.356619567871093750e+02,-3.492053031921386719e+00,-3.249314498901367188e+01,-1.841944427490234375e+02,3.681274414062500000e+01,2.353523445129394531e+01,3.230882644653320312e+01
6.994910240173339844e-01,2.000000000000000000e+00,-2.637056922912597656e+01,-1.401765227317810059e+00,4.451840591430664062e+01,9.506819152832031250e+01,8.457137298583984375e+01,1.356521301269531250e+02,-3.544842243194580078e+00,-3.248691558837890625e+01,-1.841900939941406250e+02,3.681173706054687500e+01,2.355199241638183594e+01,3.230596923828125000e+01
7.040389776229858398e-01,2.000000000000000000e+00,-2.642387771606445312e+01,-1.364063739776611328e+00,4.447343063354492188e+01,9.507572937011718750e+01,8.457100677490234375e+01,1.356418914794921875e+02,-3.597357034683227539e+00,-3.248064804077148438e+01,-1.841856842041015625e+02,3.681044387817382812e+01,2.356860542297363281e+01,3.230256271362304688e+01
7.075009942054748535e-01,2.000000000000000000e+00,-2.647715759277343750e+01,-1.326498150825500488e+00,4.442843627929687500e+01,9.508341979980468750e+01,8.457041931152343750e+01,1.356319885253906250e+02,-3.649322271347045898e+00,-3.247423553466796875e+01,-1.841813812255859375e+02,3.680929183959960938e+01,2.358514404296875000e+01,3.229959487915039062e+01
7.142580151557922363e-01,2.000000000000000000e+00,-2.653063774108886719e+01,-1.288751363754272461e+00,4.438346481323242188e+01,9.509120941162109375e+01,8.456993103027343750e+01,1.356219482421875000e+02,-3.700738191604614258e+00,-3.246805572509765625e+01,-1.841771392822265625e+02,3.680814743041992188e+01,2.360153770446777344e+01,3.229674148559570312e+01
7.173669934272766113e-01,2.000000000000000000e+00,-2.663754081726074219e+01,-1.213393688201904297e+00,4.429388427734375000e+01,9.510622406005859375e+01,8.456882476806640625e+01,1.356016693115234375e+02,-3.804119586944580078e+00,-3.245560836791992188e+01,-1.841683349609375000e+02,3.680570602416992188e+01,2.363447189331054688e+01,3.228993225097656250e+01
7.200180292129516602e-01,2.000000000000000000e+00,-2.669096565246582031e+01,-1.175918579101562500e+00,4.424903106689453125e+01,9.511391448974609375e+01,8.456844329833984375e+01,1.355909576416015625e+02,-3.856304407119750977e+00,-3.244947052001953125e+01,-1.841638641357421875e+02,3.680455780029296875e+01,2.365086555480957031e+01,3.228696441650390625e+01
7.240030169486999512e-01,2.000000000000000000e+00,-2.669096565246582031e+01,-1.175918579101562500e+00,4.424903106689453125e+01,9.511391448974609375e+01,8.456844329833984375e+01,1.355909576416015625e+02,-3.856304407119750977e+00,-3.244947052001953125e+01,-1.841638641357421875e+02,3.680455780029296875e+01,2.365086555480957031e+01,3.228696441650390625e+01
7.279790043830871582e-01,2.000000000000000000e+00,-2.674435997009277344e+01,-1.138171792030334473e+00,4.420436096191406250e+01,9.512145233154296875e+01,8.456785583496093750e+01,1.355805206298828125e+02,-3.908269643783569336e+00,-3.244333648681640625e+01,-1.841596374511718750e+02,3.680340576171875000e+01,2.366660499572753906e+01,3.228410720825195312e+01
7.315959930419921875e-01,2.000000000000000000e+00,-2.679769706726074219e+01,-1.100606203079223633e+00,4.415975189208984375e+01,9.512850952148437500e+01,8.456738281250000000e+01,1.355698089599609375e+02,-3.960345268249511719e+00,-3.243706893920898438e+01,-1.841553344726562500e+02,3.680225753784179688e+01,2.368329048156738281e+01,3.228070068359375000e+01
7.368940114974975586e-01,2.000000000000000000e+00,-2.685103416442871094e+01,-1.063017845153808594e+00,4.411490249633789062e+01,9.513556671142578125e+01,8.456684875488281250e+01,1.355594177246093750e+02,-4.012310504913330078e+00,-3.243088531494140625e+01,-1.841511535644531250e+02,3.680096435546875000e+01,2.369982910156250000e+01,3.227707672119140625e+01
7.413439750671386719e-01,2.000000000000000000e+00,-2.695773696899414062e+01,-9.879091978073120117e-01,4.402550125122070312e+01,9.515010070800781250e+01,8.456578063964843750e+01,1.355386657714843750e+02,-4.115142345428466797e+00,-3.241843414306640625e+01,-1.841423950195312500e+02,3.679874038696289062e+01,2.373225212097167969e+01,3.227081298828125000e+01
7.449759840965270996e-01,2.000000000000000000e+00,-2.695773696899414062e+01,-9.879091978073120117e-01,4.402550125122070312e+01,9.515010070800781250e+01,8.456578063964843750e+01,1.355386657714843750e+02,-4.166667938232421875e+00,-3.241225814819335938e+01,-1.841381530761718750e+02,3.679773330688476562e+01,2.374813652038574219e+01,3.226773834228515625e+01
7.480040192604064941e-01,2.000000000000000000e+00,-2.701121902465820312e+01,-9.504566788673400879e-01,4.398065185546875000e+01,9.515726470947265625e+01,8.456519317626953125e+01,1.355285644531250000e+02,-4.166667938232421875e+00,-3.241225814819335938e+01,-1.841381530761718750e+02,3.679773330688476562e+01,2.374813652038574219e+01,3.226773834228515625e+01
7.519999742507934570e-01,2.000000000000000000e+00,-2.706472969055175781e+01,-9.127552509307861328e-01,4.393587875366210938e+01,9.516453552246093750e+01,8.456481933593750000e+01,1.355185241699218750e+02,-4.218853473663330078e+00,-3.240621185302734375e+01,-1.841339111328125000e+02,3.679644393920898438e+01,2.376482200622558594e+01,3.226433181762695312e+01
7.559720277786254883e-01,2.000000000000000000e+00,-2.711806678771972656e+01,-8.750538229942321777e-01,4.389092636108398438e+01,9.517180633544921875e+01,8.456423187255859375e+01,1.355084991455078125e+02,-4.271313190460205078e+00,-3.239980697631835938e+01,-1.841293945312500000e+02,3.679529190063476562e+01,2.378150749206542969e+01,3.226147842407226562e+01
7.610539793968200684e-01,2.000000000000000000e+00,-2.717131614685058594e+01,-8.376012444496154785e-01,4.384605407714843750e+01,9.517871093750000000e+01,8.456364440917968750e+01,1.354983825683593750e+02,-4.323717594146728516e+00,-3.239362335205078125e+01,-1.841252136230468750e+02,3.679407119750976562e+01,2.379782867431640625e+01,3.225839996337890625e+01
7.655590176582336426e-01,2.000000000000000000e+00,-2.722459602355957031e+01,-8.000355958938598633e-01,4.380120086669921875e+01,9.518602752685546875e+01,8.456327819824218750e+01,1.354882812500000000e+02,-4.375518321990966797e+00,-3.238744735717773438e+01,-1.841208496093750000e+02,3.679292678833007812e+01,2.381414985656738281e+01,3.225532150268554688e+01
7.689399719238281250e-01,2.000000000000000000e+00,-2.727799224853515625e+01,-7.622436285018920898e-01,4.375635147094726562e+01,9.519371795654296875e+01,8.456269073486328125e+01,1.354787139892578125e+02,-4.426659584045410156e+00,-3.238131332397460938e+01,-1.841164550781250000e+02,3.679162979125976562e+01,2.383025169372558594e+01,3.225191879272460938e+01
7.721089720726013184e-01,2.000000000000000000e+00,-2.733110046386718750e+01,-7.245422005653381348e-01,4.371170043945312500e+01,9.520098876953125000e+01,8.456221008300781250e+01,1.354685516357421875e+02,-4.477746009826660156e+00,-3.237480926513671875e+01,-1.841121520996093750e+02,3.679048156738281250e+01,2.384686470031738281e+01,3.224905776977539062e+01
7.761740088462829590e-01,2.000000000000000000e+00,-2.738423538208007812e+01,-6.869991421699523926e-01,4.366705322265625000e+01,9.520857238769531250e+01,8.456162261962890625e+01,1.354585876464843750e+02,-4.529656410217285156e+00,-3.236854171752929688e+01,-1.841078033447265625e+02,3.678940582275390625e+01,2.386347770690917969e+01,3.224631500244140625e+01
7.800869941711425781e-01,2.000000000000000000e+00,-2.743765830993652344e+01,-6.493882536888122559e-01,4.362232208251953125e+01,9.521605682373046875e+01,8.456103515625000000e+01,1.354482727050781250e+02,-4.581621646881103516e+00,-3.236240768432617188e+01,-1.841035614013671875e+02,3.678811264038085938e+01,2.388001632690429688e+01,3.224290847778320312e+01
7.852119803428649902e-01,2.000000000000000000e+00,-2.749102592468261719e+01,-6.116867661476135254e-01,4.357781600952148438e+01,9.522369384765625000e+01,8.456055450439453125e+01,1.354384307861328125e+02,-4.633642196655273438e+00,-3.235618209838867188e+01,-1.840992126464843750e+02,3.678696060180664062e+01,2.389633750915527344e+01,3.223983383178710938e+01
7.881360054016113281e-01,2.000000000000000000e+00,-2.754427528381347656e+01,-5.741890072822570801e-01,4.353330993652343750e+01,9.523126983642578125e+01,8.456007385253906250e+01,1.354280700683593750e+02,-4.685552597045898438e+00,-3.234999847412109375e+01,-1.840946350097656250e+02,3.678567123413085938e+01,2.391287803649902344e+01,3.223730468750000000e+01
7.918999791145324707e-01,2.000000000000000000e+00,-2.759744071960449219e+01,-5.366232991218566895e-01,4.348880386352539062e+01,9.523907470703125000e+01,8.455959320068359375e+01,1.354180908203125000e+02,-4.736858844757080078e+00,-3.234391021728515625e+01,-1.840899658203125000e+02,3.678445053100585938e+01,2.392927169799804688e+01,3.223455810546875000e+01
7.949270009994506836e-01,2.000000000000000000e+00,-2.765083694458007812e+01,-4.989897608757019043e-01,4.344421768188476562e+01,9.524665069580078125e+01,8.455921936035156250e+01,1.354076538085937500e+02,-4.788219451904296875e+00,-3.233777618408203125e+01,-1.840857238769531250e+02,3.678330230712890625e+01,2.394632148742675781e+01,3.223148345947265625e+01
7.989490032196044922e-01,2.000000000000000000e+00,-2.770379829406738281e+01,-4.614241123199462891e-01,4.339962768554687500e+01,9.525413513183593750e+01,8.455852508544921875e+01,1.353969268798828125e+02,-4.839690685272216797e+00,-3.233173370361328125e+01,-1.840811004638671875e+02,3.678222656250000000e+01,2.396300697326660156e+01,3.222840499877929688e+01
8.029379844665527344e-01,2.000000000000000000e+00,-2.775716590881347656e+01,-4.239489734172821045e-01,4.335520172119140625e+01,9.526161193847656250e+01,8.455793762207031250e+01,1.353864898681640625e+02,-4.891216754913330078e+00,-3.232564544677734375e+01,-1.840766296386718750e+02,3.678092956542968750e+01,2.397889137268066406e+01,3.222533035278320312e+01
8.069069981575012207e-01,2.000000000000000000e+00,-2.781021499633789062e+01,-3.864964544773101807e-01,4.331045150756835938e+01,9.526882934570312500e+01,8.455756378173828125e+01,1.353759765625000000e+02,-4.943071842193603516e+00,-3.231932830810546875e+01,-1.840724487304687500e+02,3.677964019775390625e+01,2.399455642700195312e+01,3.222225570678710938e+01
8.109139800071716309e-01,2.000000000000000000e+00,-2.786326599121093750e+01,-3.490212857723236084e-01,4.326574325561523438e+01,9.527584075927734375e+01,8.455687713623046875e+01,1.353656158447265625e+02,-4.995312213897705078e+00,-3.231324386596679688e+01,-1.840680389404296875e+02,3.677856063842773438e+01,2.401095008850097656e+01,3.221950912475585938e+01
8.162000179290771484e-01,2.000000000000000000e+00,-2.791643142700195312e+01,-3.115235269069671631e-01,4.322105407714843750e+01,9.528305053710937500e+01,8.455639648437500000e+01,1.353553619384765625e+02,-5.047277450561523438e+00,-3.230724716186523438e+01,-1.840636444091796875e+02,3.677741241455078125e+01,2.402741813659667969e+01,3.221675872802734375e+01
8.189259767532348633e-01,2.000000000000000000e+00,-2.796965408325195312e+01,-2.740483880043029785e-01,4.317640686035156250e+01,9.529016113281250000e+01,8.455591583251953125e+01,1.353453216552734375e+02,-5.098638534545898438e+00,-3.230125045776367188e+01,-1.840590667724609375e+02,3.677604675292968750e+01,2.404373741149902344e+01,3.221390533447265625e+01
8.229050040245056152e-01,2.000000000000000000e+00,-2.802276039123535156e+01,-2.365732043981552124e-01,4.313167572021484375e+01,9.529727172851562500e+01,8.455538177490234375e+01,1.353352203369140625e+02,-5.149559974670410156e+00,-3.229497528076171875e+01,-1.840545043945312500e+02,3.677504348754882812e+01,2.405976867675781250e+01,3.221137619018554688e+01
8.269739747047424316e-01,2.000000000000000000e+00,-2.807581138610839844e+01,-1.990528255701065063e-01,4.308700561523437500e+01,9.530448913574218750e+01,8.455490112304687500e+01,1.353253173828125000e+02,-5.200316905975341797e+00,-3.228870391845703125e+01,-1.840500946044921875e+02,3.677382278442382812e+01,2.407514190673828125e+01,3.220863342285156250e+01
8.309149742126464844e-01,2.000000000000000000e+00,-2.812874603271484375e+01,-1.617134362459182739e-01,4.304233551025390625e+01,9.531159973144531250e+01,8.455431365966796875e+01,1.353150787353515625e+02,-5.251842975616455078e+00,-3.228243637084960938e+01,-1.840460815429687500e+02,3.677252960205078125e+01,2.409168052673339844e+01,3.220544433593750000e+01
8.349639773368835449e-01,2.000000000000000000e+00,-2.818171119689941406e+01,-1.244193390011787415e-01,4.299779129028320312e+01,9.531855773925781250e+01,8.455372619628906250e+01,1.353052368164062500e+02,-5.303753376007080078e+00,-3.227602386474609375e+01,-1.840417175292968750e+02,3.677145385742187500e+01,2.410822105407714844e+01,3.220291900634765625e+01
8.414109945297241211e-01,2.000000000000000000e+00,-2.823490524291992188e+01,-8.707997202873229980e-02,4.295334625244140625e+01,9.532566833496093750e+01,8.455324554443359375e+01,1.352950592041015625e+02,-5.355937957763671875e+00,-3.226970672607421875e+01,-1.840374298095703125e+02,3.677016067504882812e+01,2.412395858764648438e+01,3.220038986206054688e+01
8.429080247879028320e-01,2.000000000000000000e+00,-2.828783988952636719e+01,-4.958219081163406372e-02,4.290884017944335938e+01,9.533288574218750000e+01,8.455271911621093750e+01,1.352853088378906250e+02,-5.407848834991455078e+00,-3.226343536376953125e+01,-1.840330200195312500e+02,3.676893997192382812e+01,2.413933372497558594e+01,3.219764709472656250e+01
8.470479846000671387e-01,2.000000000000000000e+00,-2.834083175659179688e+01,-1.215230301022529602e-02,4.286459732055664062e+01,9.534036254882812500e+01,8.455239868164062500e+01,1.352756805419921875e+02,-5.459320068359375000e+00,-3.225720977783203125e+01,-1.840286712646484375e+02,3.676786041259765625e+01,2.415601730346679688e+01,3.219467926025390625e+01
8.510469794273376465e-01,2.000000000000000000e+00,-2.839393997192382812e+01,2.520969510078430176e-02,4.282021331787109375e+01,9.534752655029296875e+01,8.455175781250000000e+01,1.352654418945312500e+02,-5.510735988616943359e+00,-3.225107955932617188e+01,-1.840240936279296875e+02,3.676657104492187500e+01,2.417255973815917969e+01,3.219193267822265625e+01
8.549299836158752441e-01,2.000000000000000000e+00,-2.844687652587890625e+01,6.263958662748336792e-02,4.277572631835937500e+01,9.535479736328125000e+01,8.455127716064453125e+01,1.352548675537109375e+02,-5.561382770538330078e+00,-3.224494552612304688e+01,-1.840196990966796875e+02,3.676549530029296875e+01,2.418924331665039062e+01,3.218940353393554688e+01
8.589119911193847656e-01,2.000000000000000000e+00,-2.850006866455078125e+01,9.995631873607635498e-02,4.273130416870117188e+01,9.536248779296875000e+01,8.455063629150390625e+01,1.352448883056640625e+02,-5.612798690795898438e+00,-3.223881149291992188e+01,-1.840154418945312500e+02,3.676405715942382812e+01,2.420534515380859375e+01,3.218643569946289062e+01
8.659219741821289062e-01,2.000000000000000000e+00,-2.855303192138671875e+01,1.373183131217956543e-01,4.268691635131835938e+01,9.536996459960937500e+01,8.455015563964843750e+01,1.352349853515625000e+02,-5.664544582366943359e+00,-3.223267364501953125e+01,-1.840112152099609375e+02,3.676312637329101562e+01,2.422086524963378906e+01,3.218347167968750000e+01
8.674240112304687500e-01,2.000000000000000000e+00,-2.860593986511230469e+01,1.747255772352218628e-01,4.264247131347656250e+01,9.537760162353515625e+01,8.454957580566406250e+01,1.352245330810546875e+02,-5.716289997100830078e+00,-3.222644805908203125e+01,-1.840069122314453125e+02,3.676190185546875000e+01,2.423725891113281250e+01,3.218050384521484375e+01
8.729749917984008789e-01,2.000000000000000000e+00,-2.865893173217773438e+01,2.121102064847946167e-01,4.259808731079101562e+01,9.538513946533203125e+01,8.454908752441406250e+01,1.352136230468750000e+02,-5.768364906311035156e+00,-3.222027206420898438e+01,-1.840023956298828125e+02,3.676068115234375000e+01,2.425336074829101562e+01,3.217776107788085938e+01
8.769659996032714844e-01,2.000000000000000000e+00,-2.871178245544433594e+01,2.494269311428070068e-01,4.255350112915039062e+01,9.539282989501953125e+01,8.454855346679687500e+01,1.352030487060546875e+02,-5.819726467132568359e+00,-3.221408843994140625e+01,-1.839983215332031250e+02,3.675974655151367188e+01,2.426982879638671875e+01,3.217501449584960938e+01
8.820670247077941895e-01,2.000000000000000000e+00,-2.876480293273925781e+01,2.867210507392883301e-01,4.250889205932617188e+01,9.540046691894531250e+01,8.454808044433593750e+01,1.351925964355468750e+02,-5.870537757873535156e+00,-3.220823287963867188e+01,-1.839939575195312500e+02,3.675831222534179688e+01,2.428600502014160156e+01,3.217160797119140625e+01
8.834540247917175293e-01,2.000000000000000000e+00,-2.881782531738281250e+01,3.241735696792602539e-01,4.246428298950195312e+01,9.540763092041015625e+01,8.454749298095703125e+01,1.351820983886718750e+02,-5.921020030975341797e+00,-3.220214462280273438e+01,-1.839893951416015625e+02,3.675723648071289062e+01,2.430203437805175781e+01,3.216842269897460938e+01
8.889690041542053223e-01,2.000000000000000000e+00,-2.887053108215332031e+01,3.615129292011260986e-01,4.241983795166015625e+01,9.541479492187500000e+01,8.454706573486328125e+01,1.351717071533203125e+02,-5.972491264343261719e+00,-3.219605255126953125e+01,-1.839851074218750000e+02,3.675615692138671875e+01,2.431828308105468750e+01,3.216545486450195312e+01
8.938090205192565918e-01,2.000000000000000000e+00,-2.897645950317382812e+01,4.361237883567810059e-01,4.233117294311523438e+01,9.542928314208984375e+01,8.454594421386718750e+01,1.351515808105468750e+02,-6.076421737670898438e+00,-3.218373870849609375e+01,-1.839764404296875000e+02,3.675386047363281250e+01,2.435187149047851562e+01,3.215908050537109375e+01
8.971520066261291504e-01,2.000000000000000000e+00,-2.897645950317382812e+01,4.361237883567810059e-01,4.233117294311523438e+01,9.542928314208984375e+01,8.454594421386718750e+01,1.351515808105468750e+02,-6.076421737670898438e+00,-3.218373870849609375e+01,-1.839764404296875000e+02,3.675386047363281250e+01,2.435187149047851562e+01,3.215908050537109375e+01
8.989040255546569824e-01,2.000000000000000000e+00,-2.902927780151367188e+01,4.735084176063537598e-01,4.228680801391601562e+01,9.543639373779296875e+01,8.454546356201171875e+01,1.351416015625000000e+02,-6.128057479858398438e+00,-3.217751312255859375e+01,-1.839722137451171875e+02,3.675278472900390625e+01,2.436833763122558594e+01,3.215622711181640625e+01
9.029819965362548828e-01,2.000000000000000000e+00,-2.908189773559570312e+01,5.107346177101135254e-01,4.224256515502929688e+01,9.544349670410156250e+01,8.454498291015625000e+01,1.351316986083984375e+02,-6.179144382476806641e+00,-3.217137908935546875e+01,-1.839677429199218750e+02,3.675156021118164062e+01,2.438466072082519531e+01,3.215325927734375000e+01
9.069340229034423828e-01,2.000000000000000000e+00,-2.913466072082519531e+01,5.480061173439025879e-01,4.219836425781250000e+01,9.545082092285156250e+01,8.454444885253906250e+01,1.351215209960937500e+02,-6.229846000671386719e+00,-3.216520309448242188e+01,-1.839632415771484375e+02,3.675048446655273438e+01,2.440105438232421875e+01,3.215040588378906250e+01
9.109809994697570801e-01,2.000000000000000000e+00,-2.918725395202636719e+01,5.853680968284606934e-01,4.215416336059570312e+01,9.545803833007812500e+01,8.454386138916015625e+01,1.351119689941406250e+02,-6.280877113342285156e+00,-3.215915679931640625e+01,-1.839590454101562500e+02,3.674940872192382812e+01,2.441795730590820312e+01,3.214699554443359375e+01
9.150649905204772949e-01,2.000000000000000000e+00,-2.924010086059570312e+01,6.227753758430480957e-01,4.210986328125000000e+01,9.546498870849609375e+01,8.454344177246093750e+01,1.351016693115234375e+02,-6.332293033599853516e+00,-3.215320968627929688e+01,-1.839545288085937500e+02,3.674818801879882812e+01,2.443435096740722656e+01,3.214359283447265625e+01
9.199100136756896973e-01,2.000000000000000000e+00,-2.929257774353027344e+01,6.597979068756103516e-01,4.206563949584960938e+01,9.547231292724609375e+01,8.454296112060546875e+01,1.350916290283203125e+02,-6.384038925170898438e+00,-3.214716720581054688e+01,-1.839498596191406250e+02,3.674711227416992188e+01,2.445030784606933594e+01,3.214040374755859375e+01
9.229090213775634766e-01,2.000000000000000000e+00,-2.934542655944824219e+01,6.971372961997985840e-01,4.202137756347656250e+01,9.547962951660156250e+01,8.454232025146484375e+01,1.350817108154296875e+02,-6.435784816741943359e+00,-3.214094161987304688e+01,-1.839456176757812500e+02,3.674603271484375000e+01,2.446619224548339844e+01,3.213733291625976562e+01
9.303420186042785645e-01,2.000000000000000000e+00,-2.939790344238281250e+01,7.344766855239868164e-01,4.197689056396484375e+01,9.548711395263671875e+01,8.454173278808593750e+01,1.350715484619140625e+02,-6.487310409545898438e+00,-3.213480377197265625e+01,-1.839412231445312500e+02,3.674495697021484375e+01,2.448251342773437500e+01,3.213425445556640625e+01
9.317470192909240723e-01,2.000000000000000000e+00,-2.945080947875976562e+01,7.716802358627319336e-01,4.193252563476562500e+01,9.549449157714843750e+01,8.454119873046875000e+01,1.350615081787109375e+02,-6.538287162780761719e+00,-3.212871932983398438e+01,-1.839366912841796875e+02,3.674373626708984375e+01,2.449861526489257812e+01,3.213106918334960938e+01
9.349279999732971191e-01,2.000000000000000000e+00,-2.950340270996093750e+01,8.088386058807373047e-01,4.188828277587890625e+01,9.550191497802734375e+01,8.454072570800781250e+01,1.350509338378906250e+02,-6.588933944702148438e+00,-3.212258529663085938e+01,-1.839325561523437500e+02,3.674265670776367188e+01,2.451479148864746094e+01,3.212799072265625000e+01
9.399520158767700195e-01,2.000000000000000000e+00,-2.955582046508789062e+01,8.460421562194824219e-01,4.184387969970703125e+01,9.550960540771484375e+01,8.454029083251953125e+01,1.350406341552734375e+02,-6.639800548553466797e+00,-3.211640548706054688e+01,-1.839283294677734375e+02,3.674143981933593750e+01,2.453096580505371094e+01,3.212513732910156250e+01
9.438049793243408203e-01,2.000000000000000000e+00,-2.960838127136230469e+01,8.833136558532714844e-01,4.179935455322265625e+01,9.551718902587890625e+01,8.453981018066406250e+01,1.350299072265625000e+02,-6.691326141357421875e+00,-3.211022186279296875e+01,-1.839239044189453125e+02,3.674050140380859375e+01,2.454685020446777344e+01,3.212205886840820312e+01
9.469209909439086914e-01,2.000000000000000000e+00,-2.966111755371093750e+01,9.205850958824157715e-01,4.175509262084960938e+01,9.552482604980468750e+01,8.453916931152343750e+01,1.350195312500000000e+02,-6.742797374725341797e+00,-3.210404586791992188e+01,-1.839198913574218750e+02,3.673928451538085938e+01,2.456266212463378906e+01,3.211898040771484375e+01
9.520120024681091309e-01,2.000000000000000000e+00,-2.966111755371093750e+01,9.205850958824157715e-01,4.175509262084960938e+01,9.552482604980468750e+01,8.453916931152343750e+01,1.350195312500000000e+02,-6.742797374725341797e+00,-3.210404586791992188e+01,-1.839198913574218750e+02,3.673928451538085938e+01,2.456266212463378906e+01,3.211898040771484375e+01
9.556170105934143066e-01,2.000000000000000000e+00,-2.976618385314941406e+01,9.949017763137817383e-01,4.166654586791992188e+01,9.553989410400390625e+01,8.453804779052734375e+01,1.349988555908203125e+02,-6.845739364624023438e+00,-3.209163665771484375e+01,-1.839110260009765625e+02,3.673720169067382812e+01,2.459559440612792969e+01,3.211349105834960938e+01
9.589170217514038086e-01,2.000000000000000000e+00,-2.981911659240722656e+01,1.031992197036743164e+00,4.162244415283203125e+01,9.554721832275390625e+01,8.453752136230468750e+01,1.349885406494140625e+02,-6.896825790405273438e+00,-3.208555221557617188e+01,-1.839069366455078125e+02,3.673598098754882812e+01,2.461198997497558594e+01,3.211063385009765625e+01
9.640030264854431152e-01,2.000000000000000000e+00,-2.981911659240722656e+01,1.031992197036743164e+00,4.162244415283203125e+01,9.554721832275390625e+01,8.453752136230468750e+01,1.349885406494140625e+02,-6.896825790405273438e+00,-3.208555221557617188e+01,-1.839069366455078125e+02,3.673598098754882812e+01,2.461198997497558594e+01,3.211063385009765625e+01
9.681559801101684570e-01,2.000000000000000000e+00,-2.992461585998535156e+01,1.106150388717651367e+00,4.153424835205078125e+01,9.556169891357421875e+01,8.453650665283203125e+01,1.349685211181640625e+02,-6.998284339904785156e+00,-3.207278060913085938e+01,-1.838981933593750000e+02,3.673375320434570312e+01,2.464302825927734375e+01,3.210437393188476562e+01
9.709900021553039551e-01,2.000000000000000000e+00,-2.997726440429687500e+01,1.143467187881469727e+00,4.149021148681640625e+01,9.556870269775390625e+01,8.453597259521484375e+01,1.349583587646484375e+02,-7.049096584320068359e+00,-3.206650543212890625e+01,-1.838941650390625000e+02,3.673267745971679688e+01,2.465956878662109375e+01,3.210151290893554688e+01
9.759600162506103516e-01,2.000000000000000000e+00,-2.997726440429687500e+01,1.143467187881469727e+00,4.149021148681640625e+01,9.556870269775390625e+01,8.453597259521484375e+01,1.349583587646484375e+02,-7.049096584320068359e+00,-3.206650543212890625e+01,-1.838941650390625000e+02,3.673267745971679688e+01,2.465956878662109375e+01,3.210151290893554688e+01
9.796800017356872559e-01,2.000000000000000000e+00,-3.008273124694824219e+01,1.217693328857421875e+00,4.140184783935546875e+01,9.558271026611328125e+01,8.453485870361328125e+01,1.349390411376953125e+02,-7.152697563171386719e+00,-3.205410385131835938e+01,-1.838851928710937500e+02,3.673045349121093750e+01,2.469220924377441406e+01,3.209635162353515625e+01
9.829159975051879883e-01,2.000000000000000000e+00,-3.013535118103027344e+01,1.254806399345397949e+00,4.135784912109375000e+01,9.558982849121093750e+01,8.453443145751953125e+01,1.349288635253906250e+02,-7.204333305358886719e+00,-3.204792022705078125e+01,-1.838809967041015625e+02,3.672922897338867188e+01,2.470816612243652344e+01,3.209360504150390625e+01
9.879680275917053223e-01,2.000000000000000000e+00,-3.013535118103027344e+01,1.254806399345397949e+00,4.135784912109375000e+01,9.558982849121093750e+01,8.453443145751953125e+01,1.349288635253906250e+02,-7.204333305358886719e+00,-3.204792022705078125e+01,-1.838809967041015625e+02,3.672922897338867188e+01,2.470816612243652344e+01,3.209360504150390625e+01
9.909070134162902832e-01,2.000000000000000000e+00,-3.024053382873535156e+01,1.329077720642089844e+00,4.126954650878906250e+01,9.560404968261718750e+01,8.453336334228515625e+01,1.349088592529296875e+02,-7.305901527404785156e+00,-3.203578948974609375e+01,-1.838723602294921875e+02,3.672700500488281250e+01,2.474204826354980469e+01,3.208843994140625000e+01
9.949079751968383789e-01,2.000000000000000000e+00,-3.029329681396484375e+01,1.366145610809326172e+00,4.122512435913085938e+01,9.561116027832031250e+01,8.453277587890625000e+01,1.348993682861328125e+02,-7.356328964233398438e+00,-3.202956390380859375e+01,-1.838680572509765625e+02,3.672592926025390625e+01,2.475866127014160156e+01,3.208503723144531250e+01
1.000010013580322266e+00,2.000000000000000000e+00,-3.029329681396484375e+01,1.366145610809326172e+00,4.122512435913085938e+01,9.561116027832031250e+01,8.453277587890625000e+01,1.348993682861328125e+02,-7.356328964233398438e+00,-3.202956390380859375e+01,-1.838680572509765625e+02,3.672592926025390625e+01,2.475866127014160156e+01,3.208503723144531250e+01
1.003721952438354492e+00,2.000000000000000000e+00,-3.039867973327636719e+01,1.440371751785278320e+00,4.113669967651367188e+01,9.562574768066406250e+01,8.453181457519531250e+01,1.348790740966796875e+02,-7.458776473999023438e+00,-3.201739120483398438e+01,-1.838596801757812500e+02,3.672370147705078125e+01,2.479006385803222656e+01,3.207998275756835938e+01
1.006924986839294434e+00,2.000000000000000000e+00,-3.045104217529296875e+01,1.477462172508239746e+00,4.109255981445312500e+01,9.563312530517578125e+01,8.453107452392578125e+01,1.348689880371093750e+02,-7.510082721710205078e+00,-3.201134490966796875e+01,-1.838552856445312500e+02,3.672233963012695312e+01,2.480711364746093750e+01,3.207723617553710938e+01
1.010949969291687012e+00,2.000000000000000000e+00,-3.045104217529296875e+01,1.477462172508239746e+00,4.109255981445312500e+01,9.563312530517578125e+01,8.453107452392578125e+01,1.348689880371093750e+02,-7.510082721710205078e+00,-3.201134490966796875e+01,-1.838552856445312500e+02,3.672233963012695312e+01,2.480711364746093750e+01,3.207723617553710938e+01
1.015954971313476562e+00,2.000000000000000000e+00,-3.050357437133789062e+01,1.514484763145446777e+00,4.104851913452148438e+01,9.564039611816406250e+01,8.453063964843750000e+01,1.348589477539062500e+02,-7.561333656311035156e+00,-3.200526046752929688e+01,-1.838509826660156250e+02,3.672133255004882812e+01,2.482314300537109375e+01,3.207448577880859375e+01
1.019948005676269531e+00,2.000000000000000000e+00,-3.060861206054687500e+01,1.588665604591369629e+00,4.096046447753906250e+01,9.565546417236328125e+01,8.452963256835937500e+01,1.348378601074218750e+02,-7.662738323211669922e+00,-3.199312973022460938e+01,-1.838423309326171875e+02,3.671910858154296875e+01,2.485483932495117188e+01,3.206800460815429688e+01
1.022938013076782227e+00,2.000000000000000000e+00,-3.066111946105957031e+01,1.625688076019287109e+00,4.091644287109375000e+01,9.566315460205078125e+01,8.452904510498046875e+01,1.348272705078125000e+02,-7.713330268859863281e+00,-3.198694801330566406e+01,-1.838379364013671875e+02,3.671795654296875000e+01,2.487050437927246094e+01,3.206536865234375000e+01
1.027974963188171387e+00,2.000000000000000000e+00,-3.066111946105957031e+01,1.625688076019287109e+00,4.091644287109375000e+01,9.566315460205078125e+01,8.452904510498046875e+01,1.348272705078125000e+02,-7.713330268859863281e+00,-3.198694801330566406e+01,-1.838379364013671875e+02,3.671795654296875000e+01,2.487050437927246094e+01,3.206536865234375000e+01
1.030910015106201172e+00,2.000000000000000000e+00,-3.076624298095703125e+01,1.699778556823730469e+00,4.082873535156250000e+01,9.567810821533203125e+01,8.452803039550781250e+01,1.348068542480468750e+02,-7.815612316131591797e+00,-3.197449684143066406e+01,-1.838294525146484375e+02,3.671558761596679688e+01,2.490329170227050781e+01,3.205965423583984375e+01
1.036025047302246094e+00,2.000000000000000000e+00,-3.076624298095703125e+01,1.699778556823730469e+00,4.082873535156250000e+01,9.567810821533203125e+01,8.452803039550781250e+01,1.348068542480468750e+02,-7.815612316131591797e+00,-3.197449684143066406e+01,-1.838294525146484375e+02,3.671558761596679688e+01,2.490329170227050781e+01,3.205965423583984375e+01
1.038993000984191895e+00,2.000000000000000000e+00,-3.087128067016601562e+01,1.773597240447998047e+00,4.074077606201171875e+01,9.569296264648437500e+01,8.452696228027343750e+01,1.347864532470703125e+02,-7.918554306030273438e+00,-3.196222877502441406e+01,-1.838209075927734375e+02,3.671321868896484375e+01,2.493469619750976562e+01,3.205449295043945312e+01
1.044190049171447754e+00,2.000000000000000000e+00,-3.087128067016601562e+01,1.773597240447998047e+00,4.074077606201171875e+01,9.569296264648437500e+01,8.452696228027343750e+01,1.347864532470703125e+02,-7.918554306030273438e+00,-3.196222877502441406e+01,-1.838209075927734375e+02,3.671321868896484375e+01,2.493469619750976562e+01,3.205449295043945312e+01
1.047464966773986816e+00,2.000000000000000000e+00,-3.097600364685058594e+01,1.847732901573181152e+00,4.065272140502929688e+01,9.570744323730468750e+01,8.452590179443359375e+01,1.347667083740234375e+02,-8.020068168640136719e+00,-3.195009803771972656e+01,-1.838122100830078125e+02,3.671099472045898438e+01,2.496748352050781250e+01,3.204823303222656250e+01
1.051964998245239258e+00,2.000000000000000000e+00,-3.097600364685058594e+01,1.847732901573181152e+00,4.065272140502929688e+01,9.570744323730468750e+01,8.452590179443359375e+01,1.347667083740234375e+02,-8.020068168640136719e+00,-3.195009803771972656e+01,-1.838122100830078125e+02,3.671099472045898438e+01,2.496748352050781250e+01,3.204823303222656250e+01
1.056990981101989746e+00,2.000000000000000000e+00,-3.108072471618652344e+01,1.921483755111694336e+00,4.056462478637695312e+01,9.572151184082031250e+01,8.452478027343750000e+01,1.347473144531250000e+02,-8.121306419372558594e+00,-3.193819808959960938e+01,-1.838037719726562500e+02,3.670855331420898438e+01,2.499895858764648438e+01,3.204218673706054688e+01
1.059589982032775879e+00,2.000000000000000000e+00,-3.113282966613769531e+01,1.958506345748901367e+00,4.052064514160156250e+01,9.572878265380859375e+01,8.452413940429687500e+01,1.347372894287109375e+02,-8.172557830810546875e+00,-3.193210792541503906e+01,-1.837993164062500000e+02,3.670754241943359375e+01,2.501528167724609375e+01,3.203922271728515625e+01
1.063953042030334473e+00,2.000000000000000000e+00,-3.113282966613769531e+01,1.958506345748901367e+00,4.052064514160156250e+01,9.572878265380859375e+01,8.452413940429687500e+01,1.347372894287109375e+02,-8.172557830810546875e+00,-3.193210792541503906e+01,-1.837993164062500000e+02,3.670754241943359375e+01,2.501528167724609375e+01,3.203922271728515625e+01
1.069139003753662109e+00,2.000000000000000000e+00,-3.118522071838378906e+01,1.995370626449584961e+00,4.047642517089843750e+01,9.573600006103515625e+01,8.452371215820312500e+01,1.347275238037109375e+02,-8.224029541015625000e+00,-3.192592620849609375e+01,-1.837951812744140625e+02,3.670632553100585938e+01,2.503182029724121094e+01,3.203636550903320312e+01
1.071740031242370605e+00,2.000000000000000000e+00,-3.128999900817871094e+01,2.069257259368896484e+00,4.038830566406250000e+01,9.575001525878906250e+01,8.452269744873046875e+01,1.347081146240234375e+02,-8.325597763061523438e+00,-3.191379547119140625e+01,-1.837867431640625000e+02,3.670388412475585938e+01,2.506373214721679688e+01,3.203043365478515625e+01
1.075963020324707031e+00,2.000000000000000000e+00,-3.128999900817871094e+01,2.069257259368896484e+00,4.038830566406250000e+01,9.575001525878906250e+01,8.452269744873046875e+01,1.347081146240234375e+02,-8.325597763061523438e+00,-3.191379547119140625e+01,-1.837867431640625000e+02,3.670388412475585938e+01,2.506373214721679688e+01,3.203043365478515625e+01
1.080986022949218750e+00,2.000000000000000000e+00,-3.134239006042480469e+01,2.106189250946044922e+00,4.034439086914062500e+01,9.575717163085937500e+01,8.452227020263671875e+01,1.346980133056640625e+02,-8.376190185546875000e+00,-3.190789222717285156e+01,-1.837825164794921875e+02,3.670273590087890625e+01,2.507947158813476562e+01,3.202691650390625000e+01
1.083580970764160156e+00,2.000000000000000000e+00,-3.144705200195312500e+01,2.179872274398803711e+00,4.025663757324218750e+01,9.577149963378906250e+01,8.452104187011718750e+01,1.346776733398437500e+02,-8.477758407592773438e+00,-3.189576148986816406e+01,-1.837738647460937500e+02,3.670058059692382812e+01,2.511189651489257812e+01,3.202076339721679688e+01
1.087964057922363281e+00,2.000000000000000000e+00,-3.144705200195312500e+01,2.179872274398803711e+00,4.025663757324218750e+01,9.577149963378906250e+01,8.452104187011718750e+01,1.346776733398437500e+02,-8.477758407592773438e+00,-3.189576148986816406e+01,-1.837738647460937500e+02,3.670058059692382812e+01,2.511189651489257812e+01,3.202076339721679688e+01
1.091948986053466797e+00,2.000000000000000000e+00,-3.149935722351074219e+01,2.216962575912475586e+00,4.021290206909179688e+01,9.577877044677734375e+01,8.452050781250000000e+01,1.346676940917968750e+02,-8.528460502624511719e+00,-3.188971900939941406e+01,-1.837694549560546875e+02,3.669928741455078125e+01,2.512756156921386719e+01,3.201768875122070312e+01
1.095989942550659180e+00,2.000000000000000000e+00,-3.155177497863769531e+01,2.253872156143188477e+00,4.016917037963867188e+01,9.578635406494140625e+01,8.451998138427734375e+01,1.346571197509765625e+02,-8.579986572265625000e+00,-3.188344573974609375e+01,-1.837653198242187500e+02,3.669813919067382812e+01,2.514388084411621094e+01,3.201483154296875000e+01
1.099959969520568848e+00,2.000000000000000000e+00,-3.160390663146972656e+01,2.290577888488769531e+00,4.012523269653320312e+01,9.579367828369140625e+01,8.451955413818359375e+01,1.346469421386718750e+02,-8.631512641906738281e+00,-3.187726783752441406e+01,-1.837609100341796875e+02,3.669684982299804688e+01,2.516071319580078125e+01,3.201164627075195312e+01
1.103963017463684082e+00,2.000000000000000000e+00,-3.165629768371582031e+01,2.327555179595947266e+00,4.008137893676757812e+01,9.580100250244140625e+01,8.451902008056640625e+01,1.346364288330078125e+02,-8.682488441467285156e+00,-3.187104225158691406e+01,-1.837567749023437500e+02,3.669598388671875000e+01,2.517688941955566406e+01,3.200856781005859375e+01
1.108062982559204102e+00,2.000000000000000000e+00,-3.170860099792480469e+01,2.364577531814575195e+00,4.003772735595703125e+01,9.580857849121093750e+01,8.451832580566406250e+01,1.346265411376953125e+02,-8.732530593872070312e+00,-3.186481666564941406e+01,-1.837525329589843750e+02,3.669469451904296875e+01,2.519211578369140625e+01,3.200604248046875000e+01
1.111675977706909180e+00,2.000000000000000000e+00,-3.176096343994140625e+01,2.401373863220214844e+00,3.999378585815429688e+01,9.581632995605468750e+01,8.451790618896484375e+01,1.346161651611328125e+02,-8.782244682312011719e+00,-3.185886383056640625e+01,-1.837482299804687500e+02,3.669354248046875000e+01,2.520843696594238281e+01,3.200340652465820312e+01
1.115944027900695801e+00,2.000000000000000000e+00,-3.181332397460937500e+01,2.438170194625854492e+00,3.994997024536132812e+01,9.582380676269531250e+01,8.451742553710937500e+01,1.346062622070312500e+02,-8.832672119140625000e+00,-3.185291481018066406e+01,-1.837439422607421875e+02,3.669225311279296875e+01,2.522490501403808594e+01,3.200065994262695312e+01
1.120730996131896973e+00,2.000000000000000000e+00,-3.191761398315429688e+01,2.511920928955078125e+00,3.986205673217773438e+01,9.583808135986328125e+01,8.451625061035156250e+01,1.345865783691406250e+02,-8.935393333435058594e+00,-3.184082984924316406e+01,-1.837353057861328125e+02,3.668995285034179688e+01,2.525703811645507812e+01,3.199439620971679688e+01
