rpiRobotics/ARM-21-02-F-19-Robot-Motion-Program/data_performance_abb/curve_1/dual_arm/diffevo_pose3/grad_result/real/run_4.csv
timestamp,cmd_num,J1,J2,J3,J4,J5,J6,J1_2,J2_2,J3_2,J4_2,J5_2,J6_2
1.388099975883960724e-02,-1.000000000000000000e+00,-1.934196472167968750e+01,-6.361609935760498047e+00,5.041887664794921875e+01,9.409272766113281250e+01,8.463786315917968750e+01,1.370028991699218750e+02,3.293158531188964844e+00,-3.330425643920898438e+01,-1.847664337158203125e+02,3.696453857421875000e+01,2.138944625854492188e+01,3.270005035400390625e+01
1.524499990046024323e-02,-1.000000000000000000e+00,-1.934190559387207031e+01,-6.361564636230468750e+00,5.041887664794921875e+01,9.409277343750000000e+01,8.463775634765625000e+01,1.370028991699218750e+02,3.293048620223999023e+00,-3.330439376831054688e+01,-1.847663269042968750e+02,3.696453857421875000e+01,2.138930130004882812e+01,3.270005035400390625e+01
1.800299994647502899e-02,-1.000000000000000000e+00,-1.934190559387207031e+01,-6.361564636230468750e+00,5.041887664794921875e+01,9.409277343750000000e+01,8.463775634765625000e+01,1.370028991699218750e+02,3.293048620223999023e+00,-3.330439376831054688e+01,-1.847663269042968750e+02,3.696453857421875000e+01,2.138930130004882812e+01,3.270005035400390625e+01
1.932699978351593018e-02,-1.000000000000000000e+00,-1.934204864501953125e+01,-6.361609935760498047e+00,5.041883850097656250e+01,9.409272766113281250e+01,8.463775634765625000e+01,1.370028991699218750e+02,3.293048620223999023e+00,-3.330425643920898438e+01,-1.847663269042968750e+02,3.696453857421875000e+01,2.138944625854492188e+01,3.270005035400390625e+01
2.059699967503547668e-02,-1.000000000000000000e+00,-1.934204864501953125e+01,-6.361609935760498047e+00,5.041883850097656250e+01,9.409272766113281250e+01,8.463775634765625000e+01,1.370028991699218750e+02,3.293048620223999023e+00,-3.330425643920898438e+01,-1.847663269042968750e+02,3.696453857421875000e+01,2.138944625854492188e+01,3.270005035400390625e+01
2.317599952220916748e-02,-1.000000000000000000e+00,-1.934190559387207031e+01,-6.361609935760498047e+00,5.041887664794921875e+01,9.409272766113281250e+01,8.463775634765625000e+01,1.370028991699218750e+02,3.293048620223999023e+00,-3.330439376831054688e+01,-1.847664337158203125e+02,3.696453857421875000e+01,2.138944625854492188e+01,3.270005035400390625e+01
2.446299977600574493e-02,-1.000000000000000000e+00,-1.934190559387207031e+01,-6.361609935760498047e+00,5.041887664794921875e+01,9.409272766113281250e+01,8.463775634765625000e+01,1.370028991699218750e+02,3.293048620223999023e+00,-3.330439376831054688e+01,-1.847664337158203125e+02,3.696453857421875000e+01,2.138944625854492188e+01,3.270005035400390625e+01
3.015200048685073853e-02,-1.000000000000000000e+00,-1.934196472167968750e+01,-6.361609935760498047e+00,5.041887664794921875e+01,9.409272766113281250e+01,8.463775634765625000e+01,1.370028991699218750e+02,3.293048620223999023e+00,-3.330439376831054688e+01,-1.847663269042968750e+02,3.696453857421875000e+01,2.138944625854492188e+01,3.270005035400390625e+01
3.157800063490867615e-02,-1.000000000000000000e+00,-1.934190559387207031e+01,-6.361564636230468750e+00,5.041887664794921875e+01,9.409272766113281250e+01,8.463775634765625000e+01,1.370028991699218750e+02,3.293158531188964844e+00,-3.330425643920898438e+01,-1.847663269042968750e+02,3.696453857421875000e+01,2.138930130004882812e+01,3.270005035400390625e+01
3.596000000834465027e-02,-1.000000000000000000e+00,-1.934196472167968750e+01,-6.361609935760498047e+00,5.041883850097656250e+01,9.409272766113281250e+01,8.463775634765625000e+01,1.370028991699218750e+02,3.293048620223999023e+00,-3.330425643920898438e+01,-1.847664337158203125e+02,3.696453857421875000e+01,2.138944625854492188e+01,3.269971847534179688e+01
4.016299918293952942e-02,-1.000000000000000000e+00,-1.934204864501953125e+01,-6.361609935760498047e+00,5.041883850097656250e+01,9.409262084960937500e+01,8.463775634765625000e+01,1.370028991699218750e+02,3.293158531188964844e+00,-3.330425643920898438e+01,-1.847663269042968750e+02,3.696453857421875000e+01,2.138944625854492188e+01,3.270005035400390625e+01
5.044599995017051697e-02,2.000000000000000000e+00,-1.934196472167968750e+01,-6.361609935760498047e+00,5.041883850097656250e+01,9.409277343750000000e+01,8.463775634765625000e+01,1.370028991699218750e+02,3.293048620223999023e+00,-3.330425643920898438e+01,-1.847663269042968750e+02,3.696453857421875000e+01,2.138944625854492188e+01,3.270005035400390625e+01
5.581700056791305542e-02,2.000000000000000000e+00,-1.934204864501953125e+01,-6.361564636230468750e+00,5.041887664794921875e+01,9.409262084960937500e+01,8.463775634765625000e+01,1.370028991699218750e+02,3.293158531188964844e+00,-3.330439376831054688e+01,-1.847664337158203125e+02,3.696453857421875000e+01,2.138930130004882812e+01,3.270005035400390625e+01
6.240899860858917236e-02,2.000000000000000000e+00,-1.934190559387207031e+01,-6.361609935760498047e+00,5.041887664794921875e+01,9.409272766113281250e+01,8.463775634765625000e+01,1.370027618408203125e+02,3.293048620223999023e+00,-3.330439376831054688e+01,-1.847663269042968750e+02,3.696453857421875000e+01,2.138944625854492188e+01,3.270005035400390625e+01
6.711500138044357300e-02,2.000000000000000000e+00,-1.934204864501953125e+01,-6.361564636230468750e+00,5.041887664794921875e+01,9.409277343750000000e+01,8.463764953613281250e+01,1.370028991699218750e+02,3.293048620223999023e+00,-3.330439376831054688e+01,-1.847663269042968750e+02,3.696453857421875000e+01,2.138930130004882812e+01,3.270005035400390625e+01
1.116919964551925659e-01,2.000000000000000000e+00,-1.934196472167968750e+01,-6.361609935760498047e+00,5.041883850097656250e+01,9.409262084960937500e+01,8.463775634765625000e+01,1.370028991699218750e+02,3.293048620223999023e+00,-3.330425643920898438e+01,-1.847664337158203125e+02,3.696453857421875000e+01,2.138930130004882812e+01,3.270005035400390625e+01
1.130520030856132507e-01,2.000000000000000000e+00,-1.934204864501953125e+01,-6.361609935760498047e+00,5.041887664794921875e+01,9.409272766113281250e+01,8.463775634765625000e+01,1.370028991699218750e+02,3.293158531188964844e+00,-3.330425643920898438e+01,-1.847663269042968750e+02,3.696453857421875000e+01,2.138944625854492188e+01,3.270005035400390625e+01
1.155870035290718079e-01,2.000000000000000000e+00,-1.934219360351562500e+01,-6.361496925354003906e+00,5.041883850097656250e+01,9.409272766113281250e+01,8.463775634765625000e+01,1.370028991699218750e+02,3.293048620223999023e+00,-3.330439376831054688e+01,-1.847663269042968750e+02,3.696453857421875000e+01,2.138930130004882812e+01,3.270005035400390625e+01
1.169790029525756836e-01,2.000000000000000000e+00,-1.934219360351562500e+01,-6.361496925354003906e+00,5.041883850097656250e+01,9.409272766113281250e+01,8.463775634765625000e+01,1.370028991699218750e+02,3.293048620223999023e+00,-3.330439376831054688e+01,-1.847663269042968750e+02,3.696453857421875000e+01,2.138930130004882812e+01,3.270005035400390625e+01
1.194479987025260925e-01,2.000000000000000000e+00,-1.934313964843750000e+01,-6.361293315887451172e+00,5.041867446899414062e+01,9.409277343750000000e+01,8.463775634765625000e+01,1.370028991699218750e+02,3.293048620223999023e+00,-3.330425643920898438e+01,-1.847663269042968750e+02,3.696453857421875000e+01,2.138930130004882812e+01,3.270005035400390625e+01
1.231560036540031433e-01,2.000000000000000000e+00,-1.934480476379394531e+01,-6.360500812530517578e+00,5.041824722290039062e+01,9.409277343750000000e+01,8.463786315917968750e+01,1.370028991699218750e+02,3.293048620223999023e+00,-3.330439376831054688e+01,-1.847663269042968750e+02,3.696453857421875000e+01,2.138944625854492188e+01,3.270005035400390625e+01
1.244380027055740356e-01,2.000000000000000000e+00,-1.934480476379394531e+01,-6.360500812530517578e+00,5.041824722290039062e+01,9.409277343750000000e+01,8.463786315917968750e+01,1.370028991699218750e+02,3.293048620223999023e+00,-3.330439376831054688e+01,-1.847663269042968750e+02,3.696453857421875000e+01,2.138944625854492188e+01,3.270005035400390625e+01
1.283749938011169434e-01,2.000000000000000000e+00,-1.934480476379394531e+01,-6.360500812530517578e+00,5.041824722290039062e+01,9.409277343750000000e+01,8.463786315917968750e+01,1.370028991699218750e+02,3.292718887329101562e+00,-3.330425643920898438e+01,-1.847661743164062500e+02,3.696453857421875000e+01,2.138966560363769531e+01,3.270005035400390625e+01
1.306059956550598145e-01,2.000000000000000000e+00,-1.934741783142089844e+01,-6.358871459960937500e+00,5.041741561889648438e+01,9.409277343750000000e+01,8.463775634765625000e+01,1.370028991699218750e+02,3.292718887329101562e+00,-3.330425643920898438e+01,-1.847661743164062500e+02,3.696453857421875000e+01,2.138966560363769531e+01,3.270005035400390625e+01
1.335619986057281494e-01,2.000000000000000000e+00,-1.935166549682617188e+01,-6.356540679931640625e+00,5.041595077514648438e+01,9.409277343750000000e+01,8.463775634765625000e+01,1.370031127929687500e+02,3.292114734649658203e+00,-3.330406951904296875e+01,-1.847648620605468750e+02,3.696453857421875000e+01,2.139061164855957031e+01,3.269971847534179688e+01
1.371199935674667358e-01,2.000000000000000000e+00,-1.935749435424804688e+01,-6.353033065795898438e+00,5.041371154785156250e+01,9.409277343750000000e+01,8.463775634765625000e+01,1.370028991699218750e+02,3.290411949157714844e+00,-3.330334091186523438e+01,-1.847619781494140625e+02,3.696453857421875000e+01,2.139556694030761719e+01,3.270005035400390625e+01
1.396220028400421143e-01,2.000000000000000000e+00,-1.936501502990722656e+01,-6.348303794860839844e+00,5.041040039062500000e+01,9.409288787841796875e+01,8.463775634765625000e+01,1.370028991699218750e+02,3.287610530853271484e+00,-3.330247116088867188e+01,-1.847602386474609375e+02,3.696453857421875000e+01,2.140132331848144531e+01,3.269950103759765625e+01
1.410070061683654785e-01,2.000000000000000000e+00,-1.936501502990722656e+01,-6.348303794860839844e+00,5.041040039062500000e+01,9.409288787841796875e+01,8.463775634765625000e+01,1.370028991699218750e+02,3.287610530853271484e+00,-3.330247116088867188e+01,-1.847602386474609375e+02,3.696453857421875000e+01,2.140132331848144531e+01,3.269950103759765625e+01
1.453199982643127441e-01,2.000000000000000000e+00,-1.937417221069335938e+01,-6.342284202575683594e+00,5.040564346313476562e+01,9.409325408935546875e+01,8.463775634765625000e+01,1.370027618408203125e+02,3.283545494079589844e+00,-3.330173492431640625e+01,-1.847589263916015625e+02,3.696453857421875000e+01,2.140489387512207031e+01,3.269916915893554688e+01
1.479730010032653809e-01,2.000000000000000000e+00,-1.938496589660644531e+01,-6.334929466247558594e+00,5.039931869506835938e+01,9.409378051757812500e+01,8.463775634765625000e+01,1.370020904541015625e+02,3.278052330017089844e+00,-3.330109786987304688e+01,-1.847567596435546875e+02,3.696432495117187500e+01,2.140671539306640625e+01,3.269862365722656250e+01
1.492370069026947021e-01,2.000000000000000000e+00,-1.938496589660644531e+01,-6.334929466247558594e+00,5.039931869506835938e+01,9.409378051757812500e+01,8.463775634765625000e+01,1.370020904541015625e+02,3.278052330017089844e+00,-3.330109786987304688e+01,-1.847567596435546875e+02,3.696432495117187500e+01,2.140671539306640625e+01,3.269862365722656250e+01
1.516730040311813354e-01,2.000000000000000000e+00,-1.939759826660156250e+01,-6.326013088226318359e+00,5.039104461669921875e+01,9.409461975097656250e+01,8.463764953613281250e+01,1.370014801025390625e+02,3.269867181777954102e+00,-3.330013275146484375e+01,-1.847551269531250000e+02,3.696382141113281250e+01,2.140860939025878906e+01,3.269697189331054688e+01
1.568730026483535767e-01,2.000000000000000000e+00,-1.941252517700195312e+01,-6.315331935882568359e+00,5.038057327270507812e+01,9.409593963623046875e+01,8.463764953613281250e+01,1.370003356933593750e+02,3.259045839309692383e+00,-3.329862213134765625e+01,-1.847531585693359375e+02,3.696288681030273438e+01,2.141079521179199219e+01,3.269664382934570312e+01
1.604440063238143921e-01,2.000000000000000000e+00,-1.943026542663574219e+01,-6.302953243255615234e+00,5.036788558959960938e+01,9.409778594970703125e+01,8.463764953613281250e+01,1.369983673095703125e+02,3.245477676391601562e+00,-3.329725265502929688e+01,-1.847510986328125000e+02,3.696166992187500000e+01,2.141400146484375000e+01,3.269664382934570312e+01
1.617649942636489868e-01,2.000000000000000000e+00,-1.943026542663574219e+01,-6.302953243255615234e+00,5.036788558959960938e+01,9.409778594970703125e+01,8.463764953613281250e+01,1.369983673095703125e+02,3.245477676391601562e+00,-3.329725265502929688e+01,-1.847510986328125000e+02,3.696166992187500000e+01,2.141400146484375000e+01,3.269664382934570312e+01
1.642400026321411133e-01,2.000000000000000000e+00,-1.945079040527343750e+01,-6.288606166839599609e+00,5.035263824462890625e+01,9.409999847412109375e+01,8.463754272460937500e+01,1.369954376220703125e+02,3.228778600692749023e+00,-3.329574203491210938e+01,-1.847492065429687500e+02,3.695987319946289062e+01,2.141786384582519531e+01,3.269642257690429688e+01
1.655240058898925781e-01,2.000000000000000000e+00,-1.945079040527343750e+01,-6.288606166839599609e+00,5.035263824462890625e+01,9.409999847412109375e+01,8.463754272460937500e+01,1.369954376220703125e+02,3.228778600692749023e+00,-3.329574203491210938e+01,-1.847492065429687500e+02,3.695987319946289062e+01,2.141786384582519531e+01,3.269642257690429688e+01
1.682070046663284302e-01,2.000000000000000000e+00,-1.947398567199707031e+01,-6.272357463836669922e+00,5.033454132080078125e+01,9.410273742675781250e+01,8.463743591308593750e+01,1.369916381835937500e+02,3.208289146423339844e+00,-3.329376983642578125e+01,-1.847474060058593750e+02,3.695822143554687500e+01,2.142288970947265625e+01,3.269609451293945312e+01
1.694550067186355591e-01,2.000000000000000000e+00,-1.947398567199707031e+01,-6.272357463836669922e+00,5.033454132080078125e+01,9.410273742675781250e+01,8.463743591308593750e+01,1.369916381835937500e+02,3.208289146423339844e+00,-3.329376983642578125e+01,-1.847474060058593750e+02,3.695822143554687500e+01,2.142288970947265625e+01,3.269609451293945312e+01
1.720679998397827148e-01,2.000000000000000000e+00,-1.950016593933105469e+01,-6.254276275634765625e+00,5.031339645385742188e+01,9.410594177246093750e+01,8.463754272460937500e+01,1.369871063232421875e+02,3.184283971786499023e+00,-3.329106903076171875e+01,-1.847452850341796875e+02,3.695714187622070312e+01,2.142952156066894531e+01,3.269609451293945312e+01
1.734070032835006714e-01,2.000000000000000000e+00,-1.950016593933105469e+01,-6.254276275634765625e+00,5.031339645385742188e+01,9.410594177246093750e+01,8.463754272460937500e+01,1.369871063232421875e+02,3.184283971786499023e+00,-3.329106903076171875e+01,-1.847452850341796875e+02,3.695714187622070312e+01,2.142952156066894531e+01,3.269609451293945312e+01
1.878450065851211548e-01,2.000000000000000000e+00,-1.962865829467773438e+01,-6.164933681488037109e+00,5.020199584960937500e+01,9.412438964843750000e+01,8.463732910156250000e+01,1.369622192382812500e+02,3.054810047149658203e+00,-3.327550888061523438e+01,-1.847346191406250000e+02,3.695319366455078125e+01,2.146675300598144531e+01,3.269389724731445312e+01
1.891079992055892944e-01,2.000000000000000000e+00,-1.962865829467773438e+01,-6.164933681488037109e+00,5.020199584960937500e+01,9.412438964843750000e+01,8.463732910156250000e+01,1.369622192382812500e+02,3.054810047149658203e+00,-3.327550888061523438e+01,-1.847346191406250000e+02,3.695319366455078125e+01,2.146675300598144531e+01,3.269389724731445312e+01
1.915490031242370605e-01,2.000000000000000000e+00,-1.966626548767089844e+01,-6.138456344604492188e+00,5.016802215576171875e+01,9.412986755371093750e+01,8.463732910156250000e+01,1.369542846679687500e+02,3.013501405715942383e+00,-3.327042388916015625e+01,-1.847310333251953125e+02,3.695197296142578125e+01,2.147928619384765625e+01,3.269334793090820312e+01
1.928659975528717041e-01,2.000000000000000000e+00,-1.966626548767089844e+01,-6.138456344604492188e+00,5.016802215576171875e+01,9.412986755371093750e+01,8.463732910156250000e+01,1.369542846679687500e+02,3.013501405715942383e+00,-3.327042388916015625e+01,-1.847310333251953125e+02,3.695197296142578125e+01,2.147928619384765625e+01,3.269334793090820312e+01
1.958570033311843872e-01,2.000000000000000000e+00,-1.970633888244628906e+01,-6.110010623931884766e+00,5.013162994384765625e+01,9.413602447509765625e+01,8.463711547851562500e+01,1.369453277587890625e+02,2.969885826110839844e+00,-3.326543426513671875e+01,-1.847277679443359375e+02,3.695089721679687500e+01,2.149196434020996094e+01,3.269224929809570312e+01
1.972129940986633301e-01,2.000000000000000000e+00,-1.970633888244628906e+01,-6.110010623931884766e+00,5.013162994384765625e+01,9.413602447509765625e+01,8.463711547851562500e+01,1.369453277587890625e+02,2.969885826110839844e+00,-3.326543426513671875e+01,-1.847277679443359375e+02,3.695089721679687500e+01,2.149196434020996094e+01,3.269224929809570312e+01
1.996009945869445801e-01,2.000000000000000000e+00,-1.974882507324218750e+01,-6.079799652099609375e+00,5.009318161010742188e+01,9.414250946044921875e+01,8.463711547851562500e+01,1.369359588623046875e+02,2.923578500747680664e+00,-3.325989532470703125e+01,-1.847238464355468750e+02,3.694996643066406250e+01,2.150551605224609375e+01,3.269115066528320312e+01
2.009699940681457520e-01,2.000000000000000000e+00,-1.974882507324218750e+01,-6.079799652099609375e+00,5.009318161010742188e+01,9.414250946044921875e+01,8.463711547851562500e+01,1.369359588623046875e+02,2.923578500747680664e+00,-3.325989532470703125e+01,-1.847238464355468750e+02,3.694996643066406250e+01,2.150551605224609375e+01,3.269115066528320312e+01
2.058479934930801392e-01,2.000000000000000000e+00,-1.979317665100097656e+01,-6.047914028167724609e+00,5.005304718017578125e+01,9.414913940429687500e+01,8.463690185546875000e+01,1.369266815185546875e+02,2.875293493270874023e+00,-3.325431442260742188e+01,-1.847202606201171875e+02,3.694874191284179688e+01,2.152023506164550781e+01,3.269005203247070312e+01
2.084120064973831177e-01,2.000000000000000000e+00,-1.983930969238281250e+01,-6.014783859252929688e+00,5.001161193847656250e+01,9.415604400634765625e+01,8.463674163818359375e+01,1.369168395996093750e+02,2.825855016708374023e+00,-3.324845123291015625e+01,-1.847162933349609375e+02,3.694766616821289062e+01,2.153524398803710938e+01,3.268840408325195312e+01
2.096720039844512939e-01,2.000000000000000000e+00,-1.983930969238281250e+01,-6.014783859252929688e+00,5.001161193847656250e+01,9.415604400634765625e+01,8.463674163818359375e+01,1.369168395996093750e+02,2.825855016708374023e+00,-3.324845123291015625e+01,-1.847162933349609375e+02,3.694766616821289062e+01,2.153524398803710938e+01,3.268840408325195312e+01
2.132090032100677490e-01,2.000000000000000000e+00,-1.988719177246093750e+01,-5.980273246765136719e+00,4.996869277954101562e+01,9.416315460205078125e+01,8.463663482666015625e+01,1.369065399169921875e+02,2.775537490844726562e+00,-3.324245452880859375e+01,-1.847123718261718750e+02,3.694644546508789062e+01,2.155054473876953125e+01,3.268642807006835938e+01
2.155600041151046753e-01,2.000000000000000000e+00,-1.993636703491210938e+01,-5.944653987884521484e+00,4.992499923706054688e+01,9.417010498046875000e+01,8.463631439208984375e+01,1.368958892822265625e+02,2.724231481552124023e+00,-3.323645782470703125e+01,-1.847082519531250000e+02,3.694536972045898438e+01,2.156642913818359375e+01,3.268444824218750000e+01
2.202080041170120239e-01,2.000000000000000000e+00,-1.998657417297363281e+01,-5.908264636993408203e+00,4.988065338134765625e+01,9.417774200439453125e+01,8.463599395751953125e+01,1.368851776123046875e+02,2.671387195587158203e+00,-3.323009490966796875e+01,-1.847041625976562500e+02,3.694429016113281250e+01,2.158187484741210938e+01,3.268225097656250000e+01
2.214580029249191284e-01,2.000000000000000000e+00,-1.998657417297363281e+01,-5.908264636993408203e+00,4.988065338134765625e+01,9.417774200439453125e+01,8.463599395751953125e+01,1.368851776123046875e+02,2.671387195587158203e+00,-3.323009490966796875e+01,-1.847041625976562500e+02,3.694429016113281250e+01,2.158187484741210938e+01,3.268225097656250000e+01
2.243729978799819946e-01,2.000000000000000000e+00,-2.003830528259277344e+01,-5.871061325073242188e+00,4.983561706542968750e+01,9.418516540527343750e+01,8.463552093505859375e+01,1.368745269775390625e+02,2.617993593215942383e+00,-3.322377777099609375e+01,-1.846999206542968750e+02,3.694321441650390625e+01,2.159834289550781250e+01,3.267972183227539062e+01
2.276050001382827759e-01,2.000000000000000000e+00,-2.003830528259277344e+01,-5.871061325073242188e+00,4.983561706542968750e+01,9.418516540527343750e+01,8.463552093505859375e+01,1.368745269775390625e+02,2.617993593215942383e+00,-3.322377777099609375e+01,-1.846999206542968750e+02,3.694321441650390625e+01,2.159834289550781250e+01,3.267972183227539062e+01
2.323160022497177124e-01,2.000000000000000000e+00,-2.014440536499023438e+01,-5.795182704925537109e+00,4.974452972412109375e+01,9.420034027099609375e+01,8.463487243652343750e+01,1.368524169921875000e+02,2.510767221450805664e+00,-3.321128463745117188e+01,-1.846915435791015625e+02,3.694084167480468750e+01,2.163178634643554688e+01,3.267390060424804688e+01
2.365960031747817993e-01,2.000000000000000000e+00,-2.014440536499023438e+01,-5.795182704925537109e+00,4.974452972412109375e+01,9.420034027099609375e+01,8.463487243652343750e+01,1.368524169921875000e+02,2.510767221450805664e+00,-3.321128463745117188e+01,-1.846915435791015625e+02,3.694084167480468750e+01,2.163178634643554688e+01,3.267390060424804688e+01
2.400970011949539185e-01,2.000000000000000000e+00,-2.019865989685058594e+01,-5.756644248962402344e+00,4.969870376586914062e+01,9.420803070068359375e+01,8.463429260253906250e+01,1.368412933349609375e+02,2.457703113555908203e+00,-3.320515060424804688e+01,-1.846871490478515625e+02,3.693998336791992188e+01,2.164883613586425781e+01,3.267148590087890625e+01
2.438459992408752441e-01,2.000000000000000000e+00,-2.025354766845703125e+01,-5.717856407165527344e+00,4.965283584594726562e+01,9.421614074707031250e+01,8.463375854492187500e+01,1.368307800292968750e+02,2.404364585876464844e+00,-3.319878768920898438e+01,-1.846827239990234375e+02,3.693890762329101562e+01,2.166530227661132812e+01,3.266862869262695312e+01
2.480729967355728149e-01,2.000000000000000000e+00,-2.030823326110839844e+01,-5.679091453552246094e+00,4.960708999633789062e+01,9.422388458251953125e+01,8.463317108154296875e+01,1.368203430175781250e+02,2.350806236267089844e+00,-3.319251251220703125e+01,-1.846783294677734375e+02,3.693782806396484375e+01,2.168155097961425781e+01,3.266533279418945312e+01
2.518889904022216797e-01,2.000000000000000000e+00,-2.036335182189941406e+01,-5.640394687652587891e+00,4.956134033203125000e+01,9.423173522949218750e+01,8.463263702392578125e+01,1.368097534179687500e+02,2.297632217407226562e+00,-3.318614959716796875e+01,-1.846737518310546875e+02,3.693696594238281250e+01,2.169816398620605469e+01,3.266280364990234375e+01
2.558850049972534180e-01,2.000000000000000000e+00,-2.041855621337890625e+01,-5.601629257202148438e+00,4.951572036743164062e+01,9.423968505859375000e+01,8.463204956054687500e+01,1.367991790771484375e+02,2.243744373321533203e+00,-3.317960357666015625e+01,-1.846699523925781250e+02,3.693588638305664062e+01,2.171535873413085938e+01,3.265972900390625000e+01
2.608180046081542969e-01,2.000000000000000000e+00,-2.047341346740722656e+01,-5.562977313995361328e+00,4.946995162963867188e+01,9.424742889404296875e+01,8.463162231445312500e+01,1.367890777587890625e+02,2.189636468887329102e+00,-3.317310714721679688e+01,-1.846654357910156250e+02,3.693481063842773438e+01,2.173153495788574219e+01,3.265665435791015625e+01
2.640939950942993164e-01,2.000000000000000000e+00,-2.052827262878417969e+01,-5.524371147155761719e+00,4.942410278320312500e+01,9.425491333007812500e+01,8.463109588623046875e+01,1.367785034179687500e+02,2.135968446731567383e+00,-3.316669464111328125e+01,-1.846611480712890625e+02,3.693395233154296875e+01,2.174770927429199219e+01,3.265302658081054688e+01
2.680169939994812012e-01,2.000000000000000000e+00,-2.058296012878417969e+01,-5.485877513885498047e+00,4.937845611572265625e+01,9.426244354248046875e+01,8.463050842285156250e+01,1.367680511474609375e+02,2.082629919052124023e+00,-3.316038131713867188e+01,-1.846570129394531250e+02,3.693287277221679688e+01,2.176461410522460938e+01,3.264918136596679688e+01
2.722409963607788086e-01,2.000000000000000000e+00,-2.063741493225097656e+01,-5.447247982025146484e+00,4.933261108398437500e+01,9.426981353759765625e+01,8.462997436523437500e+01,1.367574157714843750e+02,2.029730796813964844e+00,-3.315410614013671875e+01,-1.846528167724609375e+02,3.693179702758789062e+01,2.178115272521972656e+01,3.264555740356445312e+01
2.760779857635498047e-01,2.000000000000000000e+00,-2.069193077087402344e+01,-5.409026145935058594e+00,4.928678131103515625e+01,9.427735137939453125e+01,8.462917327880859375e+01,1.367471008300781250e+02,1.976776480674743652e+00,-3.314747238159179688e+01,-1.846485290527343750e+02,3.693072128295898438e+01,2.179776573181152344e+01,3.264160156250000000e+01
2.802230119705200195e-01,2.000000000000000000e+00,-2.074615669250488281e+01,-5.370623111724853516e+00,4.924068832397460938e+01,9.428509521484375000e+01,8.462863922119140625e+01,1.367364501953125000e+02,1.923108339309692383e+00,-3.314106369018554688e+01,-1.846441650390625000e+02,3.692964172363281250e+01,2.181394004821777344e+01,3.263852691650390625e+01
2.849560081958770752e-01,2.000000000000000000e+00,-2.080032730102539062e+01,-5.332061767578125000e+00,4.919464111328125000e+01,9.429251861572265625e+01,8.462821197509765625e+01,1.367257995605468750e+02,1.869330406188964844e+00,-3.313465118408203125e+01,-1.846398162841796875e+02,3.692863845825195312e+01,2.183055305480957031e+01,3.263523101806640625e+01
2.881659865379333496e-01,2.000000000000000000e+00,-2.085452461242675781e+01,-5.293749332427978516e+00,4.914852523803710938e+01,9.429984283447265625e+01,8.462751770019531250e+01,1.367153015136718750e+02,1.815716981887817383e+00,-3.312815093994140625e+01,-1.846352996826171875e+02,3.692755889892578125e+01,2.184731101989746094e+01,3.263182449340820312e+01
2.921029925346374512e-01,2.000000000000000000e+00,-2.090866661071777344e+01,-5.255572795867919922e+00,4.910239410400390625e+01,9.430737304687500000e+01,8.462698364257812500e+01,1.367043762207031250e+02,1.762872815132141113e+00,-3.312156295776367188e+01,-1.846311798095703125e+02,3.692662429809570312e+01,2.186421585083007812e+01,3.262820053100585938e+01
2.960630059242248535e-01,2.000000000000000000e+00,-2.096275138854980469e+01,-5.217305183410644531e+00,4.905652618408203125e+01,9.431479644775390625e+01,8.462628936767578125e+01,1.366934509277343750e+02,1.710193276405334473e+00,-3.311505889892578125e+01,-1.846268768310546875e+02,3.692562103271484375e+01,2.188162994384765625e+01,3.262490463256835938e+01
3.000810146331787109e-01,2.000000000000000000e+00,-2.101677513122558594e+01,-5.179060935974121094e+00,4.901071548461914062e+01,9.432238769531250000e+01,8.462575531005859375e+01,1.366820526123046875e+02,1.657513856887817383e+00,-3.310883331298828125e+01,-1.846224670410156250e+02,3.692432785034179688e+01,2.189882469177246094e+01,3.262127685546875000e+01
3.053779900074005127e-01,2.000000000000000000e+00,-2.107091712951660156e+01,-5.140906810760498047e+00,4.896478652954101562e+01,9.433017730712890625e+01,8.462533569335937500e+01,1.366712188720703125e+02,1.604449868202209473e+00,-3.310274887084960938e+01,-1.846183319091796875e+02,3.692325210571289062e+01,2.191565513610839844e+01,3.261787414550781250e+01
3.069300055503845215e-01,2.000000000000000000e+00,-2.112548828125000000e+01,-5.102594375610351562e+00,4.891891860961914062e+01,9.433786773681640625e+01,8.462490081787109375e+01,1.366605072021484375e+02,1.550781607627868652e+00,-3.309656524658203125e+01,-1.846140441894531250e+02,3.692238998413085938e+01,2.193263435363769531e+01,3.261457824707031250e+01
3.109210133552551270e-01,2.000000000000000000e+00,-2.117997550964355469e+01,-5.064100742340087891e+00,4.887315368652343750e+01,9.434555816650390625e+01,8.462410736083984375e+01,1.366497039794921875e+02,1.497662782669067383e+00,-3.309024810791015625e+01,-1.846099548339843750e+02,3.692152786254882812e+01,2.195004844665527344e+01,3.261095046997070312e+01
3.162350058555603027e-01,2.000000000000000000e+00,-2.123460388183593750e+01,-5.025788784027099609e+00,4.882752609252929688e+01,9.435330963134765625e+01,8.462346649169921875e+01,1.366386566162109375e+02,1.444543957710266113e+00,-3.308388519287109375e+01,-1.846057281494140625e+02,3.692009353637695312e+01,2.196731567382812500e+01,3.260732269287109375e+01
3.189019858837127686e-01,2.000000000000000000e+00,-2.128928947448730469e+01,-4.987475872039794922e+00,4.878182220458984375e+01,9.436109924316406250e+01,8.462267303466796875e+01,1.366280822753906250e+02,1.391864538192749023e+00,-3.307743072509765625e+01,-1.846014709472656250e+02,3.691901397705078125e+01,2.198421859741210938e+01,3.260369873046875000e+01
3.228960037231445312e-01,2.000000000000000000e+00,-2.134403419494628906e+01,-4.949005126953125000e+00,4.873611450195312500e+01,9.436905670166015625e+01,8.462213134765625000e+01,1.366179046630859375e+02,1.339294910430908203e+00,-3.307088470458984375e+01,-1.845968627929687500e+02,3.691815185546875000e+01,2.200097846984863281e+01,3.260062408447265625e+01
3.269490003585815430e-01,2.000000000000000000e+00,-2.139869308471679688e+01,-4.910647392272949219e+00,4.869041061401367188e+01,9.437716674804687500e+01,8.462170410156250000e+01,1.366075286865234375e+02,1.286835193634033203e+00,-3.306438446044921875e+01,-1.845921783447265625e+02,3.691707611083984375e+01,2.201780891418457031e+01,3.259776687622070312e+01
3.333790004253387451e-01,2.000000000000000000e+00,-2.145358085632324219e+01,-4.872131347656250000e+00,4.864474487304687500e+01,9.438512420654296875e+01,8.462096405029296875e+01,1.365968933105468750e+02,1.233880996704101562e+00,-3.305825424194335938e+01,-1.845879364013671875e+02,3.691606903076171875e+01,2.203493118286132812e+01,3.259447097778320312e+01
3.348889946937561035e-01,2.000000000000000000e+00,-2.150823783874511719e+01,-4.833479404449462891e+00,4.859879302978515625e+01,9.439276123046875000e+01,8.462016296386718750e+01,1.365867156982421875e+02,1.180597305297851562e+00,-3.305193328857421875e+01,-1.845834197998046875e+02,3.691477966308593750e+01,2.205227279663085938e+01,3.259106445312500000e+01
3.389630019664764404e-01,2.000000000000000000e+00,-2.156309509277343750e+01,-4.794736862182617188e+00,4.855292510986328125e+01,9.440033721923828125e+01,8.461962890625000000e+01,1.365763397216796875e+02,1.127368569374084473e+00,-3.304552841186523438e+01,-1.845793457031250000e+02,3.691377258300781250e+01,2.206888580322265625e+01,3.258798599243164062e+01
3.429459929466247559e-01,2.000000000000000000e+00,-2.161772537231445312e+01,-4.756084918975830078e+00,4.850708007812500000e+01,9.440798187255859375e+01,8.461898803710937500e+01,1.365657501220703125e+02,1.074029922485351562e+00,-3.303916168212890625e+01,-1.845749969482421875e+02,3.691269683837890625e+01,2.208557128906250000e+01,3.258458328247070312e+01
3.468840122222900391e-01,2.000000000000000000e+00,-2.167229652404785156e+01,-4.717591762542724609e+00,4.846110916137695312e+01,9.441551971435546875e+01,8.461845397949218750e+01,1.365554504394531250e+02,1.020856142044067383e+00,-3.303293609619140625e+01,-1.845707397460937500e+02,3.691162109375000000e+01,2.210298347473144531e+01,3.258128738403320312e+01
3.509500026702880859e-01,2.000000000000000000e+00,-2.172678184509277344e+01,-4.678916931152343750e+00,4.841527938842773438e+01,9.442288208007812500e+01,8.461786651611328125e+01,1.365449981689453125e+02,9.678471088409423828e-01,-3.302657318115234375e+01,-1.845662384033203125e+02,3.691061401367187500e+01,2.212032508850097656e+01,3.257843017578125000e+01
3.551749885082244873e-01,2.000000000000000000e+00,-2.178129577636718750e+01,-4.640106678009033203e+00,4.836943435668945312e+01,9.443025970458984375e+01,8.461722564697265625e+01,1.365345611572265625e+02,9.148381352424621582e-01,-3.302034759521484375e+01,-1.845618896484375000e+02,3.690953826904296875e+01,2.213715744018554688e+01,3.257513809204101562e+01
3.589020073413848877e-01,2.000000000000000000e+00,-2.183600997924804688e+01,-4.601545333862304688e+00,4.832366561889648438e+01,9.443789672851562500e+01,8.461659240722656250e+01,1.365237121582031250e+02,8.616093397140502930e-01,-3.301408004760742188e+01,-1.845574188232421875e+02,3.690845870971679688e+01,2.215355110168457031e+01,3.257096099853515625e+01
3.628810048103332520e-01,2.000000000000000000e+00,-2.189064025878906250e+01,-4.563006401062011719e+00,4.827804183959960938e+01,9.444527435302734375e+01,8.461605834960937500e+01,1.365128631591796875e+02,8.084903955459594727e-01,-3.300775909423828125e+01,-1.845528106689453125e+02,3.690745162963867188e+01,2.217023658752441406e+01,3.256755447387695312e+01
3.669489920139312744e-01,2.000000000000000000e+00,-2.194518280029296875e+01,-4.524490833282470703e+00,4.823247909545898438e+01,9.445248413085937500e+01,8.461541748046875000e+01,1.365021362304687500e+02,7.549870014190673828e-01,-3.300139617919921875e+01,-1.845485076904296875e+02,3.690637588500976562e+01,2.218721389770507812e+01,3.256447601318359375e+01
3.709000051021575928e-01,2.000000000000000000e+00,-2.199972724914550781e+01,-4.486064910888671875e+00,4.818701553344726562e+01,9.445986175537109375e+01,8.461488342285156250e+01,1.364912261962890625e+02,7.018681168556213379e-01,-3.299503707885742188e+01,-1.845440979003906250e+02,3.690530014038085938e+01,2.220433616638183594e+01,3.256140136718750000e+01
3.749060034751892090e-01,2.000000000000000000e+00,-2.205429840087890625e+01,-4.447571277618408203e+00,4.814145278930664062e+01,9.446734619140625000e+01,8.461429595947265625e+01,1.364802398681640625e+02,6.490238308906555176e-01,-3.298890304565429688e+01,-1.845398559570312500e+02,3.690429306030273438e+01,2.222102165222167969e+01,3.255810546875000000e+01
3.855449855327606201e-01,2.000000000000000000e+00,-2.210881233215332031e+01,-4.409145832061767578e+00,4.809574508666992188e+01,9.447476959228515625e+01,8.461365509033203125e+01,1.364695281982421875e+02,5.964542627334594727e-01,-3.298258590698242188e+01,-1.845352935791015625e+02,3.690321731567382812e+01,2.223748779296875000e+01,3.255437088012695312e+01
3.869209885597229004e-01,2.000000000000000000e+00,-2.221769714355468750e+01,-4.332430362701416016e+00,4.800459671020507812e+01,9.449010467529296875e+01,8.461248779296875000e+01,1.364486999511718750e+02,4.898319840431213379e-01,-3.296958160400390625e+01,-1.845269622802734375e+02,3.690092086791992188e+01,2.227100563049316406e+01,3.254766845703125000e+01
3.895649909973144531e-01,2.000000000000000000e+00,-2.227223968505859375e+01,-4.294298648834228516e+00,4.795885086059570312e+01,9.449800109863281250e+01,8.461195373535156250e+01,1.364383239746093750e+02,4.365482926368713379e-01,-3.296317672729492188e+01,-1.845226745605468750e+02,3.689969635009765625e+01,2.228834533691406250e+01,3.254458999633789062e+01
3.928579986095428467e-01,2.000000000000000000e+00,-2.227223968505859375e+01,-4.294298648834228516e+00,4.795885086059570312e+01,9.449800109863281250e+01,8.461195373535156250e+01,1.364383239746093750e+02,4.365482926368713379e-01,-3.296317672729492188e+01,-1.845226745605468750e+02,3.689969635009765625e+01,2.228834533691406250e+01,3.254458999633789062e+01
3.949609994888305664e-01,2.000000000000000000e+00,-2.232652473449707031e+01,-4.255963802337646484e+00,4.791312408447265625e+01,9.450579833984375000e+01,8.461141204833984375e+01,1.364280242919921875e+02,3.832096755504608154e-01,-3.295685958862304688e+01,-1.845183715820312500e+02,3.689883804321289062e+01,2.230495834350585938e+01,3.254096984863281250e+01
4.012950062751770020e-01,2.000000000000000000e+00,-2.243506431579589844e+01,-4.179769039154052734e+00,4.782152938842773438e+01,9.452175903320312500e+01,8.461024475097656250e+01,1.364078063964843750e+02,2.777408957481384277e-01,-3.294408416748046875e+01,-1.845090789794921875e+02,3.689661026000976562e+01,2.233869361877441406e+01,3.253459548950195312e+01
4.029189944267272949e-01,2.000000000000000000e+00,-2.243506431579589844e+01,-4.179769039154052734e+00,4.782152938842773438e+01,9.452175903320312500e+01,8.461024475097656250e+01,1.364078063964843750e+02,2.777408957481384277e-01,-3.294408416748046875e+01,-1.845090789794921875e+02,3.689661026000976562e+01,2.233869361877441406e+01,3.253459548950195312e+01
4.103280007839202881e-01,2.000000000000000000e+00,-2.248929214477539062e+01,-4.141683101654052734e+00,4.777558135986328125e+01,9.452944183349609375e+01,8.460981750488281250e+01,1.363975067138671875e+02,2.252811938524246216e-01,-3.293790435791015625e+01,-1.845046691894531250e+02,3.689538955688476562e+01,2.235654449462890625e+01,3.253063964843750000e+01
4.130020141601562500e-01,2.000000000000000000e+00,-2.254323196411132812e+01,-4.103279590606689453e+00,4.772991561889648438e+01,9.453703308105468750e+01,8.460918426513671875e+01,1.363870697021484375e+02,1.728214621543884277e-01,-3.293172836303710938e+01,-1.845002136230468750e+02,3.689431381225585938e+01,2.237366867065429688e+01,3.252701568603515625e+01
4.148940145969390869e-01,2.000000000000000000e+00,-2.259725952148437500e+01,-4.065193653106689453e+00,4.768441390991210938e+01,9.454477691650390625e+01,8.460853576660156250e+01,1.363768920898437500e+02,1.205265447497367859e-01,-3.292522811889648438e+01,-1.844961242675781250e+02,3.689323806762695312e+01,2.238977050781250000e+01,3.252393722534179688e+01
4.189479947090148926e-01,2.000000000000000000e+00,-2.265114021301269531e+01,-4.027039527893066406e+00,4.763874816894531250e+01,9.455241394042968750e+01,8.460821533203125000e+01,1.363663787841796875e+02,6.735271960496902466e-02,-3.291895294189453125e+01,-1.844918823242187500e+02,3.689201354980468750e+01,2.240616416931152344e+01,3.252064132690429688e+01
4.229049980640411377e-01,2.000000000000000000e+00,-2.270513916015625000e+01,-3.988795042037963867e+00,4.759322738647460938e+01,9.455967712402343750e+01,8.460747528076171875e+01,1.363558654785156250e+02,1.417888887226581573e-02,-3.291259384155273438e+01,-1.844876403808593750e+02,3.689115142822265625e+01,2.242328643798828125e+01,3.251701736450195312e+01
4.268890023231506348e-01,2.000000000000000000e+00,-2.275942420959472656e+01,-3.950459718704223633e+00,4.754776000976562500e+01,9.456700134277343750e+01,8.460683441162109375e+01,1.363452148437500000e+02,-3.861041739583015442e-02,-3.290655136108398438e+01,-1.844831237792968750e+02,3.688993453979492188e+01,2.244070053100585938e+01,3.251338958740234375e+01
4.310129880905151367e-01,2.000000000000000000e+00,-2.281373786926269531e+01,-3.912283420562744141e+00,4.750231933593750000e+01,9.457437896728515625e+01,8.460640716552734375e+01,1.363344268798828125e+02,-9.101519733667373657e-02,-3.290027618408203125e+01,-1.844785614013671875e+02,3.688856887817382812e+01,2.245724105834960938e+01,3.251053619384765625e+01
4.359619915485382080e-01,2.000000000000000000e+00,-2.286799240112304688e+01,-3.873902797698974609e+00,4.745700073242187500e+01,9.458174896240234375e+01,8.460597991943359375e+01,1.363238525390625000e+02,-1.430903971195220947e-01,-3.289395904541015625e+01,-1.844739990234375000e+02,3.688756561279296875e+01,2.247341537475585938e+01,3.250724029541015625e+01
4.389010071754455566e-01,2.000000000000000000e+00,-2.292247962951660156e+01,-3.835386991500854492e+00,4.741147994995117188e+01,9.458939361572265625e+01,8.460533905029296875e+01,1.363129425048828125e+02,-1.957149058580398560e-01,-3.288755416870117188e+01,-1.844694824218750000e+02,3.688634109497070312e+01,2.249061203002929688e+01,3.250416183471679688e+01
4.453090131282806396e-01,2.000000000000000000e+00,-2.292247962951660156e+01,-3.835386991500854492e+00,4.741147994995117188e+01,9.458939361572265625e+01,8.460533905029296875e+01,1.363129425048828125e+02,-2.488887310028076172e-01,-3.288114166259765625e+01,-1.844653320312500000e+02,3.688526535034179688e+01,2.250802421569824219e+01,3.250053787231445312e+01
4.469369947910308838e-01,2.000000000000000000e+00,-2.303101921081542969e+01,-3.758807182312011719e+00,4.732041168212890625e+01,9.460366821289062500e+01,8.460416412353515625e+01,1.362910308837890625e+02,-3.016231060028076172e-01,-3.287482833862304688e+01,-1.844612121582031250e+02,3.688404464721679688e+01,2.252471160888671875e+01,3.249745941162109375e+01
4.543330073356628418e-01,2.000000000000000000e+00,-2.303101921081542969e+01,-3.758807182312011719e+00,4.732041168212890625e+01,9.460366821289062500e+01,8.460416412353515625e+01,1.362910308837890625e+02,-3.016231060028076172e-01,-3.287482833862304688e+01,-1.844612121582031250e+02,3.688404464721679688e+01,2.252471160888671875e+01,3.249745941162109375e+01
4.557760059833526611e-01,2.000000000000000000e+00,-2.313958740234375000e+01,-3.681865692138671875e+00,4.722928619384765625e+01,9.461888122558593750e+01,8.460310363769531250e+01,1.362700805664062500e+02,-4.068171977996826172e-01,-3.286209869384765625e+01,-1.844523468017578125e+02,3.688182067871093750e+01,2.255786323547363281e+01,3.249076080322265625e+01
4.613029956817626953e-01,2.000000000000000000e+00,-2.319410133361816406e+01,-3.643507719039916992e+00,4.718363952636718750e+01,9.462652587890625000e+01,8.460246276855468750e+01,1.362596893310546875e+02,-4.591670632362365723e-01,-3.285592269897460938e+01,-1.844477691650390625e+02,3.688081359863281250e+01,2.257491302490234375e+01,3.248691558837890625e+01
4.629580080509185791e-01,2.000000000000000000e+00,-2.324850082397460938e+01,-3.605172395706176758e+00,4.713803482055664062e+01,9.463437652587890625e+01,8.460203552246093750e+01,1.362493286132812500e+02,-5.115169286727905273e-01,-3.284973907470703125e+01,-1.844432678222656250e+02,3.687937927246093750e+01,2.259137916564941406e+01,3.248383712768554688e+01
4.679509997367858887e-01,2.000000000000000000e+00,-2.324850082397460938e+01,-3.605172395706176758e+00,4.713803482055664062e+01,9.463437652587890625e+01,8.460203552246093750e+01,1.362493286132812500e+02,-5.115169286727905273e-01,-3.284973907470703125e+01,-1.844432678222656250e+02,3.687937927246093750e+01,2.259137916564941406e+01,3.248383712768554688e+01
4.719940125942230225e-01,2.000000000000000000e+00,-2.335707092285156250e+01,-3.528389215469360352e+00,4.704682922363281250e+01,9.464975738525390625e+01,8.460102081298828125e+01,1.362287750244140625e+02,-6.168208718299865723e-01,-3.283728790283203125e+01,-1.844342346191406250e+02,3.687700653076171875e+01,2.262518692016601562e+01,3.247801589965820312e+01
4.750030040740966797e-01,2.000000000000000000e+00,-2.341115570068359375e+01,-3.490167379379272461e+00,4.700149154663085938e+01,9.465754699707031250e+01,8.460027313232421875e+01,1.362188110351562500e+02,-6.698848605155944824e-01,-3.283111190795898438e+01,-1.844299926757812500e+02,3.687593078613281250e+01,2.264129066467285156e+01,3.247494125366210938e+01
4.799729883670806885e-01,2.000000000000000000e+00,-2.341115570068359375e+01,-3.490167379379272461e+00,4.700149154663085938e+01,9.465754699707031250e+01,8.460027313232421875e+01,1.362188110351562500e+02,-6.698848605155944824e-01,-3.283111190795898438e+01,-1.844299926757812500e+02,3.687593078613281250e+01,2.264129066467285156e+01,3.247494125366210938e+01
4.828850030899047852e-01,2.000000000000000000e+00,-2.351946449279785156e+01,-3.413723468780517578e+00,4.691070556640625000e+01,9.467334747314453125e+01,8.459931945800781250e+01,1.361981201171875000e+02,-7.758479714393615723e-01,-3.281829071044921875e+01,-1.844213562011718750e+02,3.687334823608398438e+01,2.267524337768554688e+01,3.246889495849609375e+01
4.868879914283752441e-01,2.000000000000000000e+00,-2.357337760925292969e+01,-3.375659942626953125e+00,4.686550903320312500e+01,9.468088531494140625e+01,8.459867858886718750e+01,1.361878204345703125e+02,-8.279781341552734375e-01,-3.281220626831054688e+01,-1.844170532226562500e+02,3.687219619750976562e+01,2.269214820861816406e+01,3.246615219116210938e+01
4.919840097427368164e-01,2.000000000000000000e+00,-2.357337760925292969e+01,-3.375659942626953125e+00,4.686550903320312500e+01,9.468088531494140625e+01,8.459867858886718750e+01,1.361878204345703125e+02,-8.279781341552734375e-01,-3.281220626831054688e+01,-1.844170532226562500e+02,3.687219619750976562e+01,2.269214820861816406e+01,3.246615219116210938e+01
4.949690103530883789e-01,2.000000000000000000e+00,-2.368140029907226562e+01,-3.299397230148315430e+00,4.677476882934570312e+01,9.469595336914062500e+01,8.459777069091796875e+01,1.361674041748046875e+02,-9.333370327949523926e-01,-3.279998397827148438e+01,-1.844083404541015625e+02,3.686996841430664062e+01,2.272449684143066406e+01,3.245944976806640625e+01
4.999499917030334473e-01,2.000000000000000000e+00,-2.368140029907226562e+01,-3.299397230148315430e+00,4.677476882934570312e+01,9.469595336914062500e+01,8.459777069091796875e+01,1.361674041748046875e+02,-9.333370327949523926e-01,-3.279998397827148438e+01,-1.844083404541015625e+02,3.686996841430664062e+01,2.272449684143066406e+01,3.245944976806640625e+01
5.034660100936889648e-01,2.000000000000000000e+00,-2.378933715820312500e+01,-3.223269939422607422e+00,4.668410873413085938e+01,9.471064758300781250e+01,8.459670257568359375e+01,1.361457672119140625e+02,-1.039025425910949707e+00,-3.278734588623046875e+01,-1.843995971679687500e+02,3.686753082275390625e+01,2.275845146179199219e+01,3.245395660400390625e+01
5.111539959907531738e-01,2.000000000000000000e+00,-2.378933715820312500e+01,-3.223269939422607422e+00,4.668410873413085938e+01,9.471064758300781250e+01,8.459670257568359375e+01,1.361457672119140625e+02,-1.091704845428466797e+00,-3.278079986572265625e+01,-1.843951721191406250e+02,3.686631011962890625e+01,2.277455329895019531e+01,3.245087814331054688e+01
5.124679803848266602e-01,2.000000000000000000e+00,-2.389739036560058594e+01,-3.147120475769042969e+00,4.659316253662109375e+01,9.472523498535156250e+01,8.459574890136718750e+01,1.361243286132812500e+02,-1.144054770469665527e+00,-3.277439498901367188e+01,-1.843908843994140625e+02,3.686530303955078125e+01,2.279072952270507812e+01,3.244725418090820312e+01
5.159170031547546387e-01,2.000000000000000000e+00,-2.395133018493652344e+01,-3.109215259552001953e+00,4.654764175415039062e+01,9.473250579833984375e+01,8.459516143798828125e+01,1.361135559082031250e+02,-1.196514487266540527e+00,-3.276803207397460938e+01,-1.843865814208984375e+02,3.686379623413085938e+01,2.280734252929687500e+01,3.244483566284179688e+01
5.189049839973449707e-01,2.000000000000000000e+00,-2.400524139404296875e+01,-3.071197032928466797e+00,4.650222015380859375e+01,9.473983001708984375e+01,8.459462738037109375e+01,1.361030426025390625e+02,-1.248919367790222168e+00,-3.276166915893554688e+01,-1.843821411132812500e+02,3.686272048950195312e+01,2.282402610778808594e+01,3.244176101684570312e+01
5.239679813385009766e-01,2.000000000000000000e+00,-2.400524139404296875e+01,-3.071197032928466797e+00,4.650222015380859375e+01,9.473983001708984375e+01,8.459462738037109375e+01,1.361030426025390625e+02,-1.248919367790222168e+00,-3.276166915893554688e+01,-1.843821411132812500e+02,3.686272048950195312e+01,2.282402610778808594e+01,3.244176101684570312e+01
5.274789929389953613e-01,2.000000000000000000e+00,-2.411315155029296875e+01,-2.995137929916381836e+00,4.641131591796875000e+01,9.475447082519531250e+01,8.459350585937500000e+01,1.360820770263671875e+02,-1.353783726692199707e+00,-3.274916839599609375e+01,-1.843733825683593750e+02,3.686034774780273438e+01,2.285630607604980469e+01,3.243593597412109375e+01
5.309420228004455566e-01,2.000000000000000000e+00,-2.411315155029296875e+01,-2.995137929916381836e+00,4.641131591796875000e+01,9.475447082519531250e+01,8.459350585937500000e+01,1.360820770263671875e+02,-1.353783726692199707e+00,-3.274916839599609375e+01,-1.843733825683593750e+02,3.686034774780273438e+01,2.285630607604980469e+01,3.243593597412109375e+01
5.365049839019775391e-01,2.000000000000000000e+00,-2.422126197814941406e+01,-2.918965578079223633e+00,4.632069778442382812e+01,9.476953887939453125e+01,8.459243774414062500e+01,1.360617370605468750e+02,-1.459032773971557617e+00,-3.273653793334960938e+01,-1.843643951416015625e+02,3.685783386230468750e+01,2.288872909545898438e+01,3.243022537231445312e+01
5.398880243301391602e-01,2.000000000000000000e+00,-2.427537345886230469e+01,-2.880879402160644531e+00,4.627548217773437500e+01,9.477701568603515625e+01,8.459201049804687500e+01,1.360518341064453125e+02,-1.511382699012756348e+00,-3.273022079467773438e+01,-1.843599395751953125e+02,3.685675811767578125e+01,2.290548706054687500e+01,3.242660140991210938e+01
5.429019927978515625e-01,2.000000000000000000e+00,-2.432928466796875000e+01,-2.842770576477050781e+00,4.623044586181640625e+01,9.478459930419921875e+01,8.459142303466796875e+01,1.360418701171875000e+02,-1.563183188438415527e+00,-3.272394943237304688e+01,-1.843556976318359375e+02,3.685560989379882812e+01,2.292253684997558594e+01,3.242330551147460938e+01
5.480039715766906738e-01,2.000000000000000000e+00,-2.432928466796875000e+01,-2.842770576477050781e+00,4.623044586181640625e+01,9.478459930419921875e+01,8.459142303466796875e+01,1.360418701171875000e+02,-1.563183188438415527e+00,-3.272394943237304688e+01,-1.843556976318359375e+02,3.685560989379882812e+01,2.292253684997558594e+01,3.242330551147460938e+01
5.518959760665893555e-01,2.000000000000000000e+00,-2.443725013732910156e+01,-2.766530275344848633e+00,4.614017105102539062e+01,9.480034637451171875e+01,8.459030151367187500e+01,1.360211181640625000e+02,-1.666839122772216797e+00,-3.271154022216796875e+01,-1.843472137451171875e+02,3.685302352905273438e+01,2.295466995239257812e+01,3.241759109497070312e+01
5.581849813461303711e-01,2.000000000000000000e+00,-2.449116134643554688e+01,-2.728512048721313477e+00,4.609507751464843750e+01,9.480809783935546875e+01,8.458988189697265625e+01,1.360111541748046875e+02,-1.719628572463989258e+00,-3.270531463623046875e+01,-1.843428039550781250e+02,3.685187530517578125e+01,2.297113609313964844e+01,3.241451263427734375e+01
5.596399903297424316e-01,2.000000000000000000e+00,-2.454510307312011719e+01,-2.690471410751342773e+00,4.604987716674804688e+01,9.481567382812500000e+01,8.458923339843750000e+01,1.360010528564453125e+02,-1.772582530975341797e+00,-3.269922637939453125e+01,-1.843384552001953125e+02,3.685065460205078125e+01,2.298825836181640625e+01,3.241099929809570312e+01
5.639430284500122070e-01,2.000000000000000000e+00,-2.454510307312011719e+01,-2.690471410751342773e+00,4.604987716674804688e+01,9.481567382812500000e+01,8.458923339843750000e+01,1.360010528564453125e+02,-1.772582530975341797e+00,-3.269922637939453125e+01,-1.843384552001953125e+02,3.685065460205078125e+01,2.298825836181640625e+01,3.241099929809570312e+01
5.689499974250793457e-01,2.000000000000000000e+00,-2.459921455383300781e+01,-2.652362585067749023e+00,4.600472259521484375e+01,9.482321166992187500e+01,8.458876037597656250e+01,1.359907379150390625e+02,-1.877117395401000977e+00,-3.268695831298828125e+01,-1.843294830322265625e+02,3.684835815429687500e+01,2.302133750915527344e+01,3.240528488159179688e+01
5.715659856796264648e-01,2.000000000000000000e+00,-2.470729637145996094e+01,-2.576122283935546875e+00,4.591402053833007812e+01,9.483816528320312500e+01,8.458769226074218750e+01,1.359698486328125000e+02,-1.929027915000915527e+00,-3.268059921264648438e+01,-1.843249053955078125e+02,3.684713745117187500e+01,2.303758621215820312e+01,3.240166091918945312e+01
5.759570002555847168e-01,2.000000000000000000e+00,-2.470729637145996094e+01,-2.576122283935546875e+00,4.591402053833007812e+01,9.483816528320312500e+01,8.458769226074218750e+01,1.359698486328125000e+02,-1.929027915000915527e+00,-3.268059921264648438e+01,-1.843249053955078125e+02,3.684713745117187500e+01,2.303758621215820312e+01,3.240166091918945312e+01
5.809829831123352051e-01,2.000000000000000000e+00,-2.476126480102539062e+01,-2.538058519363403320e+00,4.586874389648437500e+01,9.484575653076171875e+01,8.458721160888671875e+01,1.359594726562500000e+02,-2.033343076705932617e+00,-3.266786956787109375e+01,-1.843163757324218750e+02,3.684476470947265625e+01,2.307124900817871094e+01,3.239485168457031250e+01
5.850390195846557617e-01,2.000000000000000000e+00,-2.486894416809082031e+01,-2.461977005004882812e+00,4.577818679809570312e+01,9.486019134521484375e+01,8.458609771728515625e+01,1.359376983642578125e+02,-2.085857868194580078e+00,-3.266173553466796875e+01,-1.843119812011718750e+02,3.684340286254882812e+01,2.308757019042968750e+01,3.239210510253906250e+01
5.875409841537475586e-01,2.000000000000000000e+00,-2.492282676696777344e+01,-2.424026489257812500e+00,4.573294448852539062e+01,9.486756134033203125e+01,8.458577728271484375e+01,1.359271392822265625e+02,-2.138427257537841797e+00,-3.265542221069335938e+01,-1.843075103759765625e+02,3.684239578247070312e+01,2.310418319702148438e+01,3.238858795166015625e+01
5.919460058212280273e-01,2.000000000000000000e+00,-2.492282676696777344e+01,-2.424026489257812500e+00,4.573294448852539062e+01,9.486756134033203125e+01,8.458577728271484375e+01,1.359271392822265625e+02,-2.138427257537841797e+00,-3.265542221069335938e+01,-1.843075103759765625e+02,3.684239578247070312e+01,2.310418319702148438e+01,3.238858795166015625e+01
5.959650278091430664e-01,2.000000000000000000e+00,-2.497670936584472656e+01,-2.386053562164306641e+00,4.568775177001953125e+01,9.487487792968750000e+01,8.458512878417968750e+01,1.359167480468750000e+02,-2.191051959991455078e+00,-3.264905548095703125e+01,-1.843028411865234375e+02,3.684124755859375000e+01,2.312108612060546875e+01,3.238562393188476562e+01
5.998719930648803711e-01,2.000000000000000000e+00,-2.508436012268066406e+01,-2.310266017913818359e+00,4.559755706787109375e+01,9.488941955566406250e+01,8.458401489257812500e+01,1.358960723876953125e+02,-2.294433355331420898e+00,-3.263669586181640625e+01,-1.842941284179687500e+02,3.683909225463867188e+01,2.315423965454101562e+01,3.237936019897460938e+01
6.039379835128784180e-01,2.000000000000000000e+00,-2.508436012268066406e+01,-2.310266017913818359e+00,4.559755706787109375e+01,9.488941955566406250e+01,8.458401489257812500e+01,1.358960723876953125e+02,-2.294433355331420898e+00,-3.263669586181640625e+01,-1.842941284179687500e+02,3.683909225463867188e+01,2.315423965454101562e+01,3.237936019897460938e+01
6.079350113868713379e-01,2.000000000000000000e+00,-2.513829994201660156e+01,-2.272360801696777344e+00,4.555266189575195312e+01,9.489679718017578125e+01,8.458353424072265625e+01,1.358856201171875000e+02,-2.346453428268432617e+00,-3.263038253784179688e+01,-1.842896728515625000e+02,3.683787536621093750e+01,2.317114257812500000e+01,3.237606430053710938e+01
6.120409965515136719e-01,2.000000000000000000e+00,-2.524589157104492188e+01,-2.196460247039794922e+00,4.546255111694335938e+01,9.491180419921875000e+01,8.458251953125000000e+01,1.358658294677734375e+02,-2.451977014541625977e+00,-3.261738204956054688e+01,-1.842812347412109375e+02,3.683557510375976562e+01,2.320458602905273438e+01,3.236881256103515625e+01
6.159620285034179688e-01,2.000000000000000000e+00,-2.524589157104492188e+01,-2.196460247039794922e+00,4.546255111694335938e+01,9.491180419921875000e+01,8.458251953125000000e+01,1.358658294677734375e+02,-2.451977014541625977e+00,-3.261738204956054688e+01,-1.842812347412109375e+02,3.683557510375976562e+01,2.320458602905273438e+01,3.236881256103515625e+01
6.199319958686828613e-01,2.000000000000000000e+00,-2.529951858520507812e+01,-2.158713340759277344e+00,4.541749572753906250e+01,9.491928863525390625e+01,8.458193206787109375e+01,1.358558502197265625e+02,-2.504107236862182617e+00,-3.261128997802734375e+01,-1.842770538330078125e+02,3.683435821533203125e+01,2.322105216979980469e+01,3.236606597900390625e+01
6.240029931068420410e-01,2.000000000000000000e+00,-2.535334396362304688e+01,-2.120831012725830078e+00,4.537256622314453125e+01,9.492687225341796875e+01,8.458150482177734375e+01,1.358455352783203125e+02,-2.556566953659057617e+00,-3.260515975952148438e+01,-1.842724761962890625e+02,3.683320617675781250e+01,2.323730087280273438e+01,3.236309814453125000e+01
6.279709935188293457e-01,2.000000000000000000e+00,-2.540708160400390625e+01,-2.082903146743774414e+00,4.532742691040039062e+01,9.493456268310546875e+01,8.458097076416015625e+01,1.358356323242187500e+02,-2.608642339706420898e+00,-3.259874725341796875e+01,-1.842682495117187500e+02,3.683205795288085938e+01,2.325449562072753906e+01,3.235958099365234375e+01
6.319329738616943359e-01,2.000000000000000000e+00,-2.546059036254882812e+01,-2.045179128646850586e+00,4.528241348266601562e+01,9.494246673583984375e+01,8.458049774169921875e+01,1.358257446289062500e+02,-2.660497665405273438e+00,-3.259234237670898438e+01,-1.842639465332031250e+02,3.683105087280273438e+01,2.327110862731933594e+01,3.235661697387695312e+01
6.361539959907531738e-01,2.000000000000000000e+00,-2.551384162902832031e+01,-2.007364511489868164e+00,4.523730087280273438e+01,9.495046997070312500e+01,8.458001708984375000e+01,1.358157043457031250e+02,-2.712627887725830078e+00,-3.258606719970703125e+01,-1.842596588134765625e+02,3.682990264892578125e+01,2.328713989257812500e+01,3.235398101806640625e+01
6.399440169334411621e-01,2.000000000000000000e+00,-2.556772613525390625e+01,-1.969413995742797852e+00,4.519211959838867188e+01,9.495806121826171875e+01,8.457937622070312500e+01,1.358057250976562500e+02,-2.764867782592773438e+00,-3.257966232299804688e+01,-1.842555084228515625e+02,3.682853698730468750e+01,2.330367851257324219e+01,3.235101318359375000e+01
6.439369916915893555e-01,2.000000000000000000e+00,-2.562126350402832031e+01,-1.931689977645874023e+00,4.514698410034179688e+01,9.496574401855468750e+01,8.457878875732421875e+01,1.357950897216796875e+02,-2.817272424697875977e+00,-3.257315826416015625e+01,-1.842512207031250000e+02,3.682753372192382812e+01,2.332072830200195312e+01,3.234749984741210938e+01
6.480380296707153320e-01,2.000000000000000000e+00,-2.567460060119628906e+01,-1.893943428993225098e+00,4.510170745849609375e+01,9.497348785400390625e+01,8.457825469970703125e+01,1.357844390869140625e+02,-2.869787216186523438e+00,-3.256652450561523438e+01,-1.842468109130859375e+02,3.682638549804687500e+01,2.333741188049316406e+01,3.234398269653320312e+01
6.511319875717163086e-01,2.000000000000000000e+00,-2.572836875915527344e+01,-1.855970263481140137e+00,4.505675125122070312e+01,9.498075866699218750e+01,8.457777404785156250e+01,1.357744140625000000e+02,-2.922027111053466797e+00,-3.256029891967773438e+01,-1.842422485351562500e+02,3.682509231567382812e+01,2.335293197631835938e+01,3.234134674072265625e+01
6.551290154457092285e-01,2.000000000000000000e+00,-2.578179168701171875e+01,-1.818132996559143066e+00,4.501196289062500000e+01,9.498797607421875000e+01,8.457734680175781250e+01,1.357639617919921875e+02,-2.973443269729614258e+00,-3.255416488647460938e+01,-1.842380065917968750e+02,3.682408905029296875e+01,2.336947250366210938e+01,3.233837890625000000e+01
6.593520045280456543e-01,2.000000000000000000e+00,-2.583547401428222656e+01,-1.780273199081420898e+00,4.496684646606445312e+01,9.499523925781250000e+01,8.457676696777343750e+01,1.357531127929687500e+02,-3.025023937225341797e+00,-3.254798126220703125e+01,-1.842335968017578125e+02,3.682293701171875000e+01,2.338666915893554688e+01,3.233497238159179688e+01
6.671180129051208496e-01,2.000000000000000000e+00,-2.588901329040527344e+01,-1.742458701133728027e+00,4.492191314697265625e+01,9.500251007080078125e+01,8.457627868652343750e+01,1.357424621582031250e+02,-3.129119396209716797e+00,-3.253566741943359375e+01,-1.842250061035156250e+02,3.682042312622070312e+01,2.341967391967773438e+01,3.232958984375000000e+01
6.684479713439941406e-01,2.000000000000000000e+00,-2.599625968933105469e+01,-1.666625738143920898e+00,4.483234786987304688e+01,9.501678466796875000e+01,8.457515716552734375e+01,1.357220458984375000e+02,-3.181524276733398438e+00,-3.252944183349609375e+01,-1.842208709716796875e+02,3.681949234008789062e+01,2.343548583984375000e+01,3.232695388793945312e+01
6.711099743843078613e-01,2.000000000000000000e+00,-2.599625968933105469e+01,-1.666625738143920898e+00,4.483234786987304688e+01,9.501678466796875000e+01,8.457515716552734375e+01,1.357220458984375000e+02,-3.181524276733398438e+00,-3.252944183349609375e+01,-1.842208709716796875e+02,3.681949234008789062e+01,2.343548583984375000e+01,3.232695388793945312e+01
6.751649975776672363e-01,2.000000000000000000e+00,-2.604991340637207031e+01,-1.628856420516967773e+00,4.478749847412109375e+01,9.502394866943359375e+01,8.457457733154296875e+01,1.357118072509765625e+02,-3.233599424362182617e+00,-3.252330780029296875e+01,-1.842165222167968750e+02,3.681827163696289062e+01,2.345224380493164062e+01,3.232398605346679688e+01
6.792079806327819824e-01,2.000000000000000000e+00,-2.610353851318359375e+01,-1.591064453125000000e+00,4.474266815185546875e+01,9.503101348876953125e+01,8.457425689697265625e+01,1.357015686035156250e+02,-3.285509824752807617e+00,-3.251699066162109375e+01,-1.842121734619140625e+02,3.681733703613281250e+01,2.346951293945312500e+01,3.232058334350585938e+01
6.832299828529357910e-01,2.000000000000000000e+00,-2.615699005126953125e+01,-1.553317785263061523e+00,4.469783401489257812e+01,9.503838348388671875e+01,8.457366943359375000e+01,1.356917419433593750e+02,-3.337255477905273438e+00,-3.251099777221679688e+01,-1.842076568603515625e+02,3.681618881225585938e+01,2.348619842529296875e+01,3.231761550903320312e+01
6.882209777832031250e-01,2.000000000000000000e+00,-2.621049880981445312e+01,-1.515412569046020508e+00,4.465294265747070312e+01,9.504576110839843750e+01,8.457297515869140625e+01,1.356815643310546875e+02,-3.388561725616455078e+00,-3.250495147705078125e+01,-1.842033538818359375e+02,3.681482315063476562e+01,2.350193595886230469e+01,3.231497955322265625e+01
6.912739872932434082e-01,2.000000000000000000e+00,-2.626383590698242188e+01,-1.477597951889038086e+00,4.460788726806640625e+01,9.505313110351562500e+01,8.457260894775390625e+01,1.356716613769531250e+02,-3.440087556838989258e+00,-3.249891281127929688e+01,-1.841987457275390625e+02,3.681388854980468750e+01,2.351796531677246094e+01,3.231201171875000000e+01
6.953080296516418457e-01,2.000000000000000000e+00,-2.631714630126953125e+01,-1.439805984497070312e+00,4.456297302246093750e+01,9.506056213378906250e+01,8.457202148437500000e+01,1.356618194580078125e+02,-3.492217779159545898e+00,-3.249268722534179688e+01,-1.841945495605468750e+02,3.681274414062500000e+01,2.353523445129394531e+01,3.230915451049804688e+01
6.993669867515563965e-01,2.000000000000000000e+00,-2.637056922912597656e+01,-1.402014017105102539e+00,4.451803970336914062e+01,9.506809234619140625e+01,8.457148742675781250e+01,1.356519317626953125e+02,-3.544952154159545898e+00,-3.248655319213867188e+01,-1.841900939941406250e+02,3.681159210205078125e+01,2.355199241638183594e+01,3.230619049072265625e+01
7.033969759941101074e-01,2.000000000000000000e+00,-2.642387771606445312e+01,-1.364267468452453613e+00,4.447296524047851562e+01,9.507572937011718750e+01,8.457100677490234375e+01,1.356418914794921875e+02,-3.597466707229614258e+00,-3.248019027709960938e+01,-1.841856842041015625e+02,3.681023025512695312e+01,2.356824111938476562e+01,3.230333328247070312e+01
7.077130079269409180e-01,2.000000000000000000e+00,-2.647715759277343750e+01,-1.326679110527038574e+00,4.442801284790039062e+01,9.508351898193359375e+01,8.457031250000000000e+01,1.356320495605468750e+02,-3.649376869201660156e+00,-3.247391510009765625e+01,-1.841813812255859375e+02,3.680929183959960938e+01,2.358477973937988281e+01,3.230014419555664062e+01
7.152339816093444824e-01,2.000000000000000000e+00,-2.653063774108886719e+01,-1.288887143135070801e+00,4.438309860229492188e+01,9.509132385253906250e+01,8.456999206542968750e+01,1.356222229003906250e+02,-3.700957775115966797e+00,-3.246768951416015625e+01,-1.841768798828125000e+02,3.680828857421875000e+01,2.360132026672363281e+01,3.229619216918945312e+01
7.166399955749511719e-01,2.000000000000000000e+00,-2.663748550415039062e+01,-1.213665246963500977e+00,4.429345703125000000e+01,9.510638427734375000e+01,8.456903076171875000e+01,1.356014709472656250e+02,-3.804009437561035156e+00,-3.245515060424804688e+01,-1.841682281494140625e+02,3.680556106567382812e+01,2.363396263122558594e+01,3.229047775268554688e+01
7.200170159339904785e-01,2.000000000000000000e+00,-2.663748550415039062e+01,-1.213665246963500977e+00,4.429345703125000000e+01,9.510638427734375000e+01,8.456903076171875000e+01,1.356014709472656250e+02,-3.804009437561035156e+00,-3.245515060424804688e+01,-1.841682281494140625e+02,3.680556106567382812e+01,2.363396263122558594e+01,3.229047775268554688e+01
7.240509986877441406e-01,2.000000000000000000e+00,-2.669079399108886719e+01,-1.176258087158203125e+00,4.424864196777343750e+01,9.511381530761718750e+01,8.456833648681640625e+01,1.355910797119140625e+02,-3.856304407119750977e+00,-3.244901275634765625e+01,-1.841639709472656250e+02,3.680455780029296875e+01,2.365013885498046875e+01,3.228751373291015625e+01
7.283419966697692871e-01,2.000000000000000000e+00,-2.679749679565429688e+01,-1.100922942161560059e+00,4.415938568115234375e+01,9.512850952148437500e+01,8.456743621826171875e+01,1.355700073242187500e+02,-3.960345268249511719e+00,-3.243661117553710938e+01,-1.841553344726562500e+02,3.680225753784179688e+01,2.368256187438964844e+01,3.228103256225585938e+01
7.315629720687866211e-01,2.000000000000000000e+00,-2.679749679565429688e+01,-1.100922942161560059e+00,4.415938568115234375e+01,9.512850952148437500e+01,8.456743621826171875e+01,1.355700073242187500e+02,-3.960345268249511719e+00,-3.243661117553710938e+01,-1.841553344726562500e+02,3.680225753784179688e+01,2.368256187438964844e+01,3.228103256225585938e+01
7.366120219230651855e-01,2.000000000000000000e+00,-2.685089111328125000e+01,-1.063447833061218262e+00,4.411463928222656250e+01,9.513567352294921875e+01,8.456684875488281250e+01,1.355592193603515625e+02,-4.012310504913330078e+00,-3.243033599853515625e+01,-1.841509857177734375e+02,3.680081939697265625e+01,2.369961166381835938e+01,3.227762222290039062e+01
7.437130212783813477e-01,2.000000000000000000e+00,-2.690414237976074219e+01,-1.025791645050048828e+00,4.406986618041992188e+01,9.514273071289062500e+01,8.456636047363281250e+01,1.355488433837890625e+02,-4.114977836608886719e+00,-3.241797637939453125e+01,-1.841423950195312500e+02,3.679888534545898438e+01,2.373174285888671875e+01,3.227136230468750000e+01
7.450919747352600098e-01,2.000000000000000000e+00,-2.701121902465820312e+01,-9.507735371589660645e-01,4.398030471801757812e+01,9.515742492675781250e+01,8.456529998779296875e+01,1.355284881591796875e+02,-4.166667938232421875e+00,-3.241180038452148438e+01,-1.841380310058593750e+02,3.679758834838867188e+01,2.374799156188964844e+01,3.226795959472656250e+01
7.477040290832519531e-01,2.000000000000000000e+00,-2.701121902465820312e+01,-9.507735371589660645e-01,4.398030471801757812e+01,9.515742492675781250e+01,8.456529998779296875e+01,1.355284881591796875e+02,-4.166667938232421875e+00,-3.241180038452148438e+01,-1.841380310058593750e+02,3.679758834838867188e+01,2.374799156188964844e+01,3.226795959472656250e+01
7.520560026168823242e-01,2.000000000000000000e+00,-2.706461334228515625e+01,-9.130494594573974609e-01,4.393549346923828125e+01,9.516453552246093750e+01,8.456481933593750000e+01,1.355184020996093750e+02,-4.219017982482910156e+00,-3.240561676025390625e+01,-1.841336364746093750e+02,3.679629898071289062e+01,2.376496696472167969e+01,3.226509857177734375e+01
7.561450004577636719e-01,2.000000000000000000e+00,-2.711800765991210938e+01,-8.754611015319824219e-01,4.389068222045898438e+01,9.517180633544921875e+01,8.456423187255859375e+01,1.355083618164062500e+02,-4.271313190460205078e+00,-3.239934921264648438e+01,-1.841293945312500000e+02,3.679514694213867188e+01,2.378150749206542969e+01,3.226202392578125000e+01
7.608759999275207520e-01,2.000000000000000000e+00,-2.717125892639160156e+01,-8.380086421966552734e-01,4.384580993652343750e+01,9.517881011962890625e+01,8.456364440917968750e+01,1.354983215332031250e+02,-4.323607921600341797e+00,-3.239325714111328125e+01,-1.841252136230468750e+02,3.679407119750976562e+01,2.379761123657226562e+01,3.225839996337890625e+01
7.650910019874572754e-01,2.000000000000000000e+00,-2.722448158264160156e+01,-8.003750443458557129e-01,4.380097961425781250e+01,9.518618774414062500e+01,8.456316375732421875e+01,1.354882812500000000e+02,-4.375518321990966797e+00,-3.238698959350585938e+01,-1.841207427978515625e+02,3.679292678833007812e+01,2.381393051147460938e+01,3.225532150268554688e+01
7.678920030593872070e-01,2.000000000000000000e+00,-2.727799224853515625e+01,-7.626057267189025879e-01,4.375604629516601562e+01,9.519371795654296875e+01,8.456257629394531250e+01,1.354784393310546875e+02,-4.426659584045410156e+00,-3.238071441650390625e+01,-1.841163482666015625e+02,3.679177474975585938e+01,2.383061790466308594e+01,3.225246810913085938e+01
7.722049951553344727e-01,2.000000000000000000e+00,-2.733118438720703125e+01,-7.248137593269348145e-01,4.371135711669921875e+01,9.520125579833984375e+01,8.456210327148437500e+01,1.354685516357421875e+02,-4.477746009826660156e+00,-3.237444305419921875e+01,-1.841121520996093750e+02,3.679048156738281250e+01,2.384708404541015625e+01,3.224938964843750000e+01
7.759979963302612305e-01,2.000000000000000000e+00,-2.738432121276855469e+01,-6.872933506965637207e-01,4.366679000854492188e+01,9.520846557617187500e+01,8.456151580810546875e+01,1.354584503173828125e+02,-4.529656410217285156e+00,-3.236808395385742188e+01,-1.841079101562500000e+02,3.678918838500976562e+01,2.386333274841308594e+01,3.224598693847656250e+01
7.800440192222595215e-01,2.000000000000000000e+00,-2.743760108947753906e+01,-6.497277021408081055e-01,4.362216186523437500e+01,9.521605682373046875e+01,8.456103515625000000e+01,1.354482727050781250e+02,-4.581676959991455078e+00,-3.236194992065429688e+01,-1.841033935546875000e+02,3.678811264038085938e+01,2.387987136840820312e+01,3.224290847778320312e+01
7.850120067596435547e-01,2.000000000000000000e+00,-2.749079513549804688e+01,-6.120715141296386719e-01,4.357761383056640625e+01,9.522369384765625000e+01,8.456066131591796875e+01,1.354383697509765625e+02,-4.633697509765625000e+00,-3.235563278198242188e+01,-1.840991058349609375e+02,3.678696060180664062e+01,2.389648437500000000e+01,3.224038314819335938e+01
7.881600260734558105e-01,2.000000000000000000e+00,-2.754427528381347656e+01,-5.745284557342529297e-01,4.353294372558593750e+01,9.523138427734375000e+01,8.455996704101562500e+01,1.354282684326171875e+02,-4.685442924499511719e+00,-3.234954071044921875e+01,-1.840945281982421875e+02,3.678567123413085938e+01,2.391287803649902344e+01,3.223730468750000000e+01
7.920920252799987793e-01,2.000000000000000000e+00,-2.759766960144042969e+01,-5.369401574134826660e-01,4.348849868774414062e+01,9.523907470703125000e+01,8.455970001220703125e+01,1.354179534912109375e+02,-4.736858844757080078e+00,-3.234359359741210938e+01,-1.840900726318359375e+02,3.678445053100585938e+01,2.392897987365722656e+01,3.223422622680664062e+01
7.961350083351135254e-01,2.000000000000000000e+00,-2.765072059631347656e+01,-4.992613196372985840e-01,4.344399261474609375e+01,9.524665069580078125e+01,8.455900573730468750e+01,1.354074554443359375e+02,-4.788219451904296875e+00,-3.233740997314453125e+01,-1.840855560302734375e+02,3.678330230712890625e+01,2.394595718383789062e+01,3.223148345947265625e+01
8.001030087471008301e-01,2.000000000000000000e+00,-2.770379829406738281e+01,-4.617635309696197510e-01,4.339946746826171875e+01,9.525413513183593750e+01,8.455852508544921875e+01,1.353968658447265625e+02,-4.839800834655761719e+00,-3.233127975463867188e+01,-1.840809936523437500e+02,3.678200912475585938e+01,2.396286201477050781e+01,3.222862625122070312e+01
8.044340014457702637e-01,2.000000000000000000e+00,-2.775702095031738281e+01,-4.242883920669555664e-01,4.335496139526367188e+01,9.526161193847656250e+01,8.455793762207031250e+01,1.353863525390625000e+02,-4.891326427459716797e+00,-3.232518768310546875e+01,-1.840766296386718750e+02,3.678092956542968750e+01,2.397852706909179688e+01,3.222555160522460938e+01
8.099520206451416016e-01,2.000000000000000000e+00,-2.781027412414550781e+01,-3.867453932762145996e-01,4.331016921997070312e+01,9.526882934570312500e+01,8.455756378173828125e+01,1.353758392333984375e+02,-4.995312213897705078e+00,-3.231292343139648438e+01,-1.840682525634765625e+02,3.677856063842773438e+01,2.401044082641601562e+01,3.221950912475585938e+01
8.124449849128723145e-01,2.000000000000000000e+00,-2.791643142700195312e+01,-3.118177056312561035e-01,4.322085189819335938e+01,9.528305053710937500e+01,8.455634307861328125e+01,1.353553619384765625e+02,-5.047167301177978516e+00,-3.230692672729492188e+01,-1.840636444091796875e+02,3.677727127075195312e+01,2.402690696716308594e+01,3.221697998046875000e+01
8.169419765472412109e-01,2.000000000000000000e+00,-2.791643142700195312e+01,-3.118177056312561035e-01,4.322085189819335938e+01,9.528305053710937500e+01,8.455634307861328125e+01,1.353553619384765625e+02,-5.047167301177978516e+00,-3.230692672729492188e+01,-1.840636444091796875e+02,3.677727127075195312e+01,2.402690696716308594e+01,3.221697998046875000e+01
8.203229904174804688e-01,2.000000000000000000e+00,-2.796965408325195312e+01,-2.744330763816833496e-01,4.317624282836914062e+01,9.529016113281250000e+01,8.455602264404296875e+01,1.353451232910156250e+02,-5.098638534545898438e+00,-3.230079269409179688e+01,-1.840590667724609375e+02,3.677604675292968750e+01,2.404322814941406250e+01,3.221423339843750000e+01
8.228690028190612793e-01,2.000000000000000000e+00,-2.802267456054687500e+01,-2.369352877140045166e-01,4.313149261474609375e+01,9.529727172851562500e+01,8.455538177490234375e+01,1.353348846435546875e+02,-5.149559974670410156e+00,-3.229465866088867188e+01,-1.840545043945312500e+02,3.677489852905273438e+01,2.405882072448730469e+01,3.221137619018554688e+01
8.268849849700927734e-01,2.000000000000000000e+00,-2.807572555541992188e+01,-1.993696391582489014e-01,4.308678436279296875e+01,9.530448913574218750e+01,8.455495452880859375e+01,1.353250579833984375e+02,-5.200426578521728516e+00,-3.228852081298828125e+01,-1.840504760742187500e+02,3.677368164062500000e+01,2.407448577880859375e+01,3.220840835571289062e+01
8.309220075607299805e-01,2.000000000000000000e+00,-2.812874603271484375e+01,-1.620302647352218628e-01,4.304211425781250000e+01,9.531159973144531250e+01,8.455442047119140625e+01,1.353152160644531250e+02,-5.251842975616455078e+00,-3.228220748901367188e+01,-1.840460815429687500e+02,3.677252960205078125e+01,2.409102439880371094e+01,3.220566558837890625e+01
8.349379897117614746e-01,2.000000000000000000e+00,-2.818171119689941406e+01,-1.246908977627754211e-01,4.299750518798828125e+01,9.531829833984375000e+01,8.455383300781250000e+01,1.353052368164062500e+02,-5.303863048553466797e+00,-3.227584457397460938e+01,-1.840418853759765625e+02,3.677145385742187500e+01,2.410741996765136719e+01,3.220313644409179688e+01
8.413100242614746094e-01,2.000000000000000000e+00,-2.823476028442382812e+01,-8.741942048072814941e-02,4.295316314697265625e+01,9.532566833496093750e+01,8.455345916748046875e+01,1.352953338623046875e+02,-5.355937957763671875e+00,-3.226939010620117188e+01,-1.840376434326171875e+02,3.677016067504882812e+01,2.412308502197265625e+01,3.220038986206054688e+01
8.428670167922973633e-01,2.000000000000000000e+00,-2.828775215148925781e+01,-4.992163926362991333e-02,4.290869522094726562e+01,9.533298492431640625e+01,8.455277252197265625e+01,1.352854461669921875e+02,-5.407848834991455078e+00,-3.226311492919921875e+01,-1.840332336425781250e+02,3.676908493041992188e+01,2.413889694213867188e+01,3.219764709472656250e+01
8.469340205192565918e-01,2.000000000000000000e+00,-2.834068870544433594e+01,-1.246912125498056412e-02,4.286439132690429688e+01,9.534020996093750000e+01,8.455233764648437500e+01,1.352754058837890625e+02,-5.459429740905761719e+00,-3.225702667236328125e+01,-1.840286712646484375e+02,3.676786041259765625e+01,2.415514373779296875e+01,3.219490051269531250e+01
8.509160280227661133e-01,2.000000000000000000e+00,-2.839379692077636719e+01,2.489287592470645905e-02,4.281995010375976562e+01,9.534737396240234375e+01,8.455175781250000000e+01,1.352653045654296875e+02,-5.510625839233398438e+00,-3.225085067749023438e+01,-1.840243072509765625e+02,3.676671218872070312e+01,2.417161178588867188e+01,3.219215011596679688e+01
8.575729727745056152e-01,2.000000000000000000e+00,-2.844681739807128906e+01,6.225487217307090759e-02,4.277550506591796875e+01,9.535479736328125000e+01,8.455117034912109375e+01,1.352549896240234375e+02,-5.561492919921875000e+00,-3.224462509155273438e+01,-1.840198059082031250e+02,3.676549530029296875e+01,2.418793106079101562e+01,3.218918609619140625e+01
8.606479763984680176e-01,2.000000000000000000e+00,-2.849978256225585938e+01,9.954898059368133545e-02,4.273120117187500000e+01,9.536248779296875000e+01,8.455068969726562500e+01,1.352448883056640625e+02,-5.612798690795898438e+00,-3.223867034912109375e+01,-1.840155639648437500e+02,3.676420211791992188e+01,2.420432662963867188e+01,3.218621826171875000e+01
8.646320104598999023e-01,2.000000000000000000e+00,-2.855291748046875000e+01,1.369562447071075439e-01,4.268675613403320312e+01,9.537012481689453125e+01,8.455026245117187500e+01,1.352348480224609375e+02,-5.664544582366943359e+00,-3.223249435424804688e+01,-1.840113220214843750e+02,3.676298141479492188e+01,2.422035598754882812e+01,3.218369293212890625e+01
8.685789704322814941e-01,2.000000000000000000e+00,-2.860588264465332031e+01,1.742956042289733887e-01,4.264233016967773438e+01,9.537760162353515625e+01,8.454967498779296875e+01,1.352245330810546875e+02,-5.716564655303955078e+00,-3.222626876831054688e+01,-1.840070190429687500e+02,3.676190185546875000e+01,2.423580360412597656e+01,3.218094635009765625e+01
8.728650212287902832e-01,2.000000000000000000e+00,-2.865867424011230469e+01,2.116802334785461426e-01,4.259786605834960938e+01,9.538513946533203125e+01,8.454908752441406250e+01,1.352136230468750000e+02,-5.768364906311035156e+00,-3.222017669677734375e+01,-1.840027313232421875e+02,3.676082611083984375e+01,2.425234222412109375e+01,3.217797851562500000e+01
8.767290115356445312e-01,2.000000000000000000e+00,-2.871178245544433594e+01,2.490874975919723511e-01,4.255327606201171875e+01,9.539282989501953125e+01,8.454855346679687500e+01,1.352030487060546875e+02,-5.819726467132568359e+00,-3.221400070190429688e+01,-1.839983673095703125e+02,3.675953292846679688e+01,2.426917266845703125e+01,3.217479324340820312e+01
8.818659782409667969e-01,2.000000000000000000e+00,-2.876471710205078125e+01,2.862684428691864014e-01,4.250868988037109375e+01,9.540046691894531250e+01,8.454796600341796875e+01,1.351925964355468750e+02,-5.870537757873535156e+00,-3.220804595947265625e+01,-1.839939575195312500e+02,3.675831222534179688e+01,2.428578567504882812e+01,3.217182540893554688e+01
8.848249912261962891e-01,2.000000000000000000e+00,-2.881759643554687500e+01,3.237209916114807129e-01,4.246410369873046875e+01,9.540763092041015625e+01,8.454759979248046875e+01,1.351822357177734375e+02,-5.921129703521728516e+00,-3.220195770263671875e+01,-1.839893951416015625e+02,3.675723648071289062e+01,2.430123329162597656e+01,3.216885757446289062e+01
8.888229727745056152e-01,2.000000000000000000e+00,-2.887058830261230469e+01,3.611735105514526367e-01,4.241967391967773438e+01,9.541479492187500000e+01,8.454695892333984375e+01,1.351717071533203125e+02,-5.972491264343261719e+00,-3.219587326049804688e+01,-1.839853668212890625e+02,3.675615692138671875e+01,2.431777191162109375e+01,3.216600418090820312e+01
8.936190009117126465e-01,2.000000000000000000e+00,-2.897648620605468750e+01,4.357390701770782471e-01,4.233103179931640625e+01,9.542928314208984375e+01,8.454600524902343750e+01,1.351515808105468750e+02,-6.076421737670898438e+00,-3.218365097045898438e+01,-1.839765625000000000e+02,3.675386047363281250e+01,2.435172653198242188e+01,3.215930175781250000e+01
8.969630002975463867e-01,2.000000000000000000e+00,-2.897648620605468750e+01,4.357390701770782471e-01,4.233103179931640625e+01,9.542928314208984375e+01,8.454600524902343750e+01,1.351515808105468750e+02,-6.076421737670898438e+00,-3.218365097045898438e+01,-1.839765625000000000e+02,3.675386047363281250e+01,2.435172653198242188e+01,3.215930175781250000e+01
9.012979865074157715e-01,2.000000000000000000e+00,-2.902927780151367188e+01,4.731689393520355225e-01,4.228670501708984375e+01,9.543639373779296875e+01,8.454535675048828125e+01,1.351416015625000000e+02,-6.128057479858398438e+00,-3.217742538452148438e+01,-1.839722137451171875e+02,3.675278472900390625e+01,2.436790084838867188e+01,3.215666580200195312e+01
9.028789997100830078e-01,2.000000000000000000e+00,-2.908195495605468750e+01,5.103725790977478027e-01,4.224236297607421875e+01,9.544360351562500000e+01,8.454488372802734375e+01,1.351315002441406250e+02,-6.179144382476806641e+00,-3.217119979858398438e+01,-1.839677429199218750e+02,3.675156021118164062e+01,2.438422393798828125e+01,3.215347671508789062e+01
9.089969992637634277e-01,2.000000000000000000e+00,-2.913466072082519531e+01,5.477797985076904297e-01,4.219820404052734375e+01,9.545082092285156250e+01,8.454434967041015625e+01,1.351216583251953125e+02,-6.229955673217773438e+00,-3.216506576538085938e+01,-1.839634094238281250e+02,3.675048446655273438e+01,2.440112686157226562e+01,3.215062332153320312e+01
9.131119847297668457e-01,2.000000000000000000e+00,-2.918731117248535156e+01,5.850965380668640137e-01,4.215398025512695312e+01,9.545793151855468750e+01,8.454386138916015625e+01,1.351114959716796875e+02,-6.280932426452636719e+00,-3.215906906127929688e+01,-1.839589385986328125e+02,3.674940872192382812e+01,2.441752052307128906e+01,3.214699554443359375e+01
9.148749709129333496e-01,2.000000000000000000e+00,-2.924004364013671875e+01,6.224811673164367676e-01,4.210973739624023438e+01,9.546509552001953125e+01,8.454344177246093750e+01,1.351016693115234375e+02,-6.332348346710205078e+00,-3.215302276611328125e+01,-1.839545898437500000e+02,3.674818801879882812e+01,2.443369483947753906e+01,3.214381408691406250e+01
9.189270138740539551e-01,2.000000000000000000e+00,-2.929272079467773438e+01,6.595036983489990234e-01,4.206547546386718750e+01,9.547231292724609375e+01,8.454285430908203125e+01,1.350916290283203125e+02,-6.384038925170898438e+00,-3.214698410034179688e+01,-1.839501190185546875e+02,3.674711227416992188e+01,2.444987106323242188e+01,3.214040374755859375e+01
9.228879809379577637e-01,2.000000000000000000e+00,-2.934542655944824219e+01,6.968657374382019043e-01,4.202125549316406250e+01,9.547953033447265625e+01,8.454237365722656250e+01,1.350817108154296875e+02,-6.435784816741943359e+00,-3.214075851440429688e+01,-1.839456176757812500e+02,3.674603271484375000e+01,2.446590042114257812e+01,3.213733291625976562e+01
9.269300103187561035e-01,2.000000000000000000e+00,-2.939801979064941406e+01,7.342729568481445312e-01,4.197681045532226562e+01,9.548695373535156250e+01,8.454183959960937500e+01,1.350718841552734375e+02,-6.487200736999511719e+00,-3.213457489013671875e+01,-1.839413146972656250e+02,3.674495697021484375e+01,2.448178482055664062e+01,3.213425445556640625e+01
9.309390187263488770e-01,2.000000000000000000e+00,-2.945063972473144531e+01,7.714312672615051270e-01,4.193242263793945312e+01,9.549449157714843750e+01,8.454131317138671875e+01,1.350615081787109375e+02,-6.538287162780761719e+00,-3.212857818603515625e+01,-1.839369659423828125e+02,3.674373626708984375e+01,2.449781417846679688e+01,3.213128662109375000e+01
9.372239708900451660e-01,2.000000000000000000e+00,-2.950328636169433594e+01,8.085217475891113281e-01,4.188814544677734375e+01,9.550202178955078125e+01,8.454072570800781250e+01,1.350510711669921875e+02,-6.589044094085693359e+00,-3.212235260009765625e+01,-1.839326629638671875e+02,3.674265670776367188e+01,2.451413536071777344e+01,3.212843322753906250e+01
9.388859868049621582e-01,2.000000000000000000e+00,-2.955576133728027344e+01,8.457705974578857422e-01,4.184383773803710938e+01,9.550960540771484375e+01,8.454019165039062500e+01,1.350406341552734375e+02,-6.640075206756591797e+00,-3.211626815795898438e+01,-1.839284362792968750e+02,3.674158096313476562e+01,2.453060340881347656e+01,3.212535476684570312e+01
9.452670216560363770e-01,2.000000000000000000e+00,-2.960852622985839844e+01,8.831099867820739746e-01,4.179929351806640625e+01,9.551718902587890625e+01,8.453970336914062500e+01,1.350301055908203125e+02,-6.691326141357421875e+00,-3.211008453369140625e+01,-1.839241790771484375e+02,3.674050140380859375e+01,2.454597473144531250e+01,3.212227630615234375e+01
9.468640089035034180e-01,2.000000000000000000e+00,-2.966111755371093750e+01,9.202909469604492188e-01,4.175500869750976562e+01,9.552482604980468750e+01,8.453916931152343750e+01,1.350195312500000000e+02,-6.742797374725341797e+00,-3.210395050048828125e+01,-1.839199523925781250e+02,3.673949813842773438e+01,2.456200599670410156e+01,3.211942291259765625e+01
9.543370008468627930e-01,2.000000000000000000e+00,-2.966111755371093750e+01,9.202909469604492188e-01,4.175500869750976562e+01,9.552482604980468750e+01,8.453916931152343750e+01,1.350195312500000000e+02,-6.742797374725341797e+00,-3.210395050048828125e+01,-1.839199523925781250e+02,3.673949813842773438e+01,2.456200599670410156e+01,3.211942291259765625e+01
9.558960199356079102e-01,2.000000000000000000e+00,-2.976624107360839844e+01,9.946754574775695801e-01,4.166646194458007812e+01,9.553989410400390625e+01,8.453804779052734375e+01,1.349986419677734375e+02,-6.845739364624023438e+00,-3.209163665771484375e+01,-1.839110870361328125e+02,3.673705673217773438e+01,2.459464836120605469e+01,3.211349105834960938e+01
9.589040279388427734e-01,2.000000000000000000e+00,-2.981906318664550781e+01,1.031720638275146484e+00,4.162236404418945312e+01,9.554721832275390625e+01,8.453762817382812500e+01,1.349885406494140625e+02,-6.896825790405273438e+00,-3.208546066284179688e+01,-1.839068298339843750e+02,3.673598098754882812e+01,2.461089706420898438e+01,3.211041259765625000e+01
9.654600024223327637e-01,2.000000000000000000e+00,-2.981906318664550781e+01,1.031720638275146484e+00,4.162236404418945312e+01,9.554721832275390625e+01,8.453762817382812500e+01,1.349885406494140625e+02,-6.896825790405273438e+00,-3.208546066284179688e+01,-1.839068298339843750e+02,3.673598098754882812e+01,2.461089706420898438e+01,3.211041259765625000e+01
9.681310057640075684e-01,2.000000000000000000e+00,-2.992461585998535156e+01,1.106037259101867676e+00,4.153414535522460938e+01,9.556159210205078125e+01,8.453650665283203125e+01,1.349683990478515625e+02,-6.998284339904785156e+00,-3.207291412353515625e+01,-1.838983001708984375e+02,3.673375320434570312e+01,2.464259147644042969e+01,3.210480880737304688e+01
9.709420204162597656e-01,2.000000000000000000e+00,-2.997717857360839844e+01,1.143173098564147949e+00,4.149010848999023438e+01,9.556860351562500000e+01,8.453608703613281250e+01,1.349583587646484375e+02,-7.049096584320068359e+00,-3.206650543212890625e+01,-1.838941192626953125e+02,3.673253631591796875e+01,2.465898513793945312e+01,3.210173416137695312e+01
9.759250283241271973e-01,2.000000000000000000e+00,-2.997717857360839844e+01,1.143173098564147949e+00,4.149010848999023438e+01,9.556860351562500000e+01,8.453608703613281250e+01,1.349583587646484375e+02,-7.049096584320068359e+00,-3.206650543212890625e+01,-1.838941192626953125e+02,3.673253631591796875e+01,2.465898513793945312e+01,3.210173416137695312e+01
9.795070290565490723e-01,2.000000000000000000e+00,-3.008253288269042969e+01,1.217399120330810547e+00,4.140184783935546875e+01,9.558292388916015625e+01,8.453485870361328125e+01,1.349390411376953125e+02,-7.152587413787841797e+00,-3.205410385131835938e+01,-1.838853607177734375e+02,3.673045349121093750e+01,2.469126129150390625e+01,3.209656906127929688e+01
9.839670062065124512e-01,2.000000000000000000e+00,-3.013529777526855469e+01,1.254557371139526367e+00,4.135770416259765625e+01,9.558993530273437500e+01,8.453432464599609375e+01,1.349288635253906250e+02,-7.204277992248535156e+00,-3.204814910888671875e+01,-1.838809509277343750e+02,3.672922897338867188e+01,2.470736694335937500e+01,3.209404373168945312e+01
9.869430065155029297e-01,2.000000000000000000e+00,-3.018780136108398438e+01,1.291738390922546387e+00,4.131348419189453125e+01,9.559704589843750000e+01,8.453379058837890625e+01,1.349190216064453125e+02,-7.255474567413330078e+00,-3.204197311401367188e+01,-1.838767089843750000e+02,3.672815322875976562e+01,2.472390556335449219e+01,3.209129714965820312e+01
9.943159818649291992e-01,2.000000000000000000e+00,-3.018780136108398438e+01,1.291738390922546387e+00,4.131348419189453125e+01,9.559704589843750000e+01,8.453379058837890625e+01,1.349190216064453125e+02,-7.255474567413330078e+00,-3.204197311401367188e+01,-1.838767089843750000e+02,3.672815322875976562e+01,2.472390556335449219e+01,3.209129714965820312e+01
9.957410097122192383e-01,2.000000000000000000e+00,-3.029318428039550781e+01,1.365964531898498535e+00,4.122508239746093750e+01,9.561121368408203125e+01,8.453272247314453125e+01,1.348990173339843750e+02,-7.356163978576660156e+00,-3.202975082397460938e+01,-1.838682098388671875e+02,3.672592926025390625e+01,2.475749397277832031e+01,3.208525466918945312e+01
9.989129900932312012e-01,2.000000000000000000e+00,-3.034583091735839844e+01,1.402941942214965820e+00,4.118082046508789062e+01,9.561837005615234375e+01,8.453218841552734375e+01,1.348893890380859375e+02,-7.407250404357910156e+00,-3.202356719970703125e+01,-1.838639221191406250e+02,3.672478103637695312e+01,2.477323341369628906e+01,3.208272552490234375e+01
1.003962039947509766e+00,2.000000000000000000e+00,-3.034583091735839844e+01,1.402941942214965820e+00,4.118082046508789062e+01,9.561837005615234375e+01,8.453218841552734375e+01,1.348893890380859375e+02,-7.407250404357910156e+00,-3.202356719970703125e+01,-1.838639221191406250e+02,3.672478103637695312e+01,2.477323341369628906e+01,3.208272552490234375e+01
1.006893038749694824e+00,2.000000000000000000e+00,-3.045107078552246094e+01,1.477258563041687012e+00,4.109231567382812500e+01,9.563317871093750000e+01,8.453128051757812500e+01,1.348689880371093750e+02,-7.510192871093750000e+00,-3.201143646240234375e+01,-1.838554992675781250e+02,3.672269821166992188e+01,2.480536651611328125e+01,3.207745361328125000e+01
1.011872053146362305e+00,2.000000000000000000e+00,-3.050357437133789062e+01,1.514416933059692383e+00,4.104833602905273438e+01,9.564039611816406250e+01,8.453074645996093750e+01,1.348587341308593750e+02,-7.561498641967773438e+00,-3.200539779663085938e+01,-1.838510284423828125e+02,3.672133255004882812e+01,2.482219696044921875e+01,3.207426834106445312e+01
1.014879941940307617e+00,2.000000000000000000e+00,-3.055608177185058594e+01,1.551416754722595215e+00,4.100439834594726562e+01,9.564777374267578125e+01,8.453015899658203125e+01,1.348485565185546875e+02,-7.612200736999511719e+00,-3.199935531616210938e+01,-1.838468017578125000e+02,3.671996688842773438e+01,2.483837127685546875e+01,3.207118988037109375e+01
1.020033955574035645e+00,2.000000000000000000e+00,-3.055608177185058594e+01,1.551416754722595215e+00,4.100439834594726562e+01,9.564777374267578125e+01,8.453015899658203125e+01,1.348485565185546875e+02,-7.612200736999511719e+00,-3.199935531616210938e+01,-1.838468017578125000e+02,3.671996688842773438e+01,2.483837127685546875e+01,3.207118988037109375e+01
1.022943019866943359e+00,2.000000000000000000e+00,-3.066103363037109375e+01,1.625439286231994629e+00,4.091634368896484375e+01,9.566304016113281250e+01,8.452904510498046875e+01,1.348272705078125000e+02,-7.713164329528808594e+00,-3.198708343505859375e+01,-1.838380889892578125e+02,3.671795654296875000e+01,2.486999320983886719e+01,3.206536865234375000e+01
1.027928948402404785e+00,2.000000000000000000e+00,-3.066103363037109375e+01,1.625439286231994629e+00,4.091634368896484375e+01,9.566304016113281250e+01,8.452904510498046875e+01,1.348272705078125000e+02,-7.713164329528808594e+00,-3.198708343505859375e+01,-1.838380889892578125e+02,3.671795654296875000e+01,2.486999320983886719e+01,3.206536865234375000e+01
1.030877947807312012e+00,2.000000000000000000e+00,-3.076630020141601562e+01,1.699574828147888184e+00,4.082852935791015625e+01,9.567821502685546875e+01,8.452803039550781250e+01,1.348068542480468750e+02,-7.815722465515136719e+00,-3.197472572326660156e+01,-1.838294982910156250e+02,3.671558761596679688e+01,2.490292739868164062e+01,3.206009674072265625e+01
1.035959005355834961e+00,2.000000000000000000e+00,-3.076630020141601562e+01,1.699574828147888184e+00,4.082852935791015625e+01,9.567821502685546875e+01,8.452803039550781250e+01,1.348068542480468750e+02,-7.815722465515136719e+00,-3.197472572326660156e+01,-1.838294982910156250e+02,3.671558761596679688e+01,2.490292739868164062e+01,3.206009674072265625e+01
1.038908004760742188e+00,2.000000000000000000e+00,-3.087128067016601562e+01,1.773484110832214355e+00,4.074063491821289062e+01,9.569285583496093750e+01,8.452696228027343750e+01,1.347864532470703125e+02,-7.918664455413818359e+00,-3.196236610412597656e+01,-1.838210144042968750e+02,3.671336364746093750e+01,2.493454933166503906e+01,3.205427169799804688e+01
1.044193029403686523e+00,2.000000000000000000e+00,-3.087128067016601562e+01,1.773484110832214355e+00,4.074063491821289062e+01,9.569285583496093750e+01,8.452696228027343750e+01,1.347864532470703125e+02,-7.918664455413818359e+00,-3.196236610412597656e+01,-1.838210144042968750e+02,3.671336364746093750e+01,2.493454933166503906e+01,3.205427169799804688e+01
1.048022985458374023e+00,2.000000000000000000e+00,-3.097588920593261719e+01,1.847529292106628418e+00,4.065266036987304688e+01,9.570729064941406250e+01,8.452590179443359375e+01,1.347668457031250000e+02,-8.020068168640136719e+00,-3.195032691955566406e+01,-1.838124694824218750e+02,3.671099472045898438e+01,2.496726417541503906e+01,3.204845046997070312e+01
1.051584005355834961e+00,2.000000000000000000e+00,-3.102836418151855469e+01,1.884370923042297363e+00,4.060855865478515625e+01,9.571445465087890625e+01,8.452526092529296875e+01,1.347568054199218750e+02,-8.070219993591308594e+00,-3.194423866271972656e+01,-1.838081207275390625e+02,3.670984268188476562e+01,2.498358535766601562e+01,3.204526519775390625e+01
1.056036949157714844e+00,2.000000000000000000e+00,-3.102836418151855469e+01,1.884370923042297363e+00,4.060855865478515625e+01,9.571445465087890625e+01,8.452526092529296875e+01,1.347568054199218750e+02,-8.070219993591308594e+00,-3.194423866271972656e+01,-1.838081207275390625e+02,3.670984268188476562e+01,2.498358535766601562e+01,3.204526519775390625e+01
1.058930039405822754e+00,2.000000000000000000e+00,-3.113291358947753906e+01,1.958393216133117676e+00,4.052038192749023438e+01,9.572878265380859375e+01,8.452424621582031250e+01,1.347372894287109375e+02,-8.172557830810546875e+00,-3.193219947814941406e+01,-1.837996368408203125e+02,3.670754241943359375e+01,2.501549911499023438e+01,3.203922271728515625e+01
1.062983989715576172e+00,2.000000000000000000e+00,-3.113291358947753906e+01,1.958393216133117676e+00,4.052038192749023438e+01,9.572878265380859375e+01,8.452424621582031250e+01,1.347372894287109375e+02,-8.172557830810546875e+00,-3.193219947814941406e+01,-1.837996368408203125e+02,3.670754241943359375e+01,2.501549911499023438e+01,3.203922271728515625e+01
1.067020058631896973e+00,2.000000000000000000e+00,-3.118527412414550781e+01,1.995212078094482422e+00,4.047634506225585938e+01,9.573583984375000000e+01,8.452371215820312500e+01,1.347276611328125000e+02,-8.223864555358886719e+00,-3.192601966857910156e+01,-1.837955017089843750e+02,3.670632553100585938e+01,2.503160285949707031e+01,3.203636550903320312e+01
1.071987986564636230e+00,2.000000000000000000e+00,-3.128985595703125000e+01,2.069031000137329102e+00,4.038812637329101562e+01,9.574995422363281250e+01,8.452265167236328125e+01,1.347079772949218750e+02,-8.325817108154296875e+00,-3.191379547119140625e+01,-1.837869720458984375e+02,3.670417022705078125e+01,2.506387901306152344e+01,3.202999496459960938e+01
1.078403949737548828e+00,2.000000000000000000e+00,-3.134233093261718750e+01,2.106008291244506836e+00,4.034422683715820312e+01,9.575722503662109375e+01,8.452221679687500000e+01,1.346977996826171875e+02,-8.376299858093261719e+00,-3.190789222717285156e+01,-1.837827301025390625e+02,3.670288085937500000e+01,2.508020019531250000e+01,3.202713775634765625e+01
1.079825997352600098e+00,2.000000000000000000e+00,-3.139463424682617188e+01,2.142804622650146484e+00,4.030033111572265625e+01,9.576438903808593750e+01,8.452168273925781250e+01,1.346878967285156250e+02,-8.427056312561035156e+00,-3.190184974670410156e+01,-1.837782592773437500e+02,3.670172882080078125e+01,2.509572029113769531e+01,3.202384185791015625e+01
1.084925055503845215e+00,2.000000000000000000e+00,-3.139463424682617188e+01,2.142804622650146484e+00,4.030033111572265625e+01,9.576438903808593750e+01,8.452168273925781250e+01,1.346878967285156250e+02,-8.427056312561035156e+00,-3.190184974670410156e+01,-1.837782592773437500e+02,3.670172882080078125e+01,2.509572029113769531e+01,3.202384185791015625e+01
1.087592959403991699e+00,2.000000000000000000e+00,-3.149944305419921875e+01,2.216804265975952148e+00,4.021269989013671875e+01,9.577866363525390625e+01,8.452050781250000000e+01,1.346672210693359375e+02,-8.528460502624511719e+00,-3.188981246948242188e+01,-1.837698822021484375e+02,3.669943237304687500e+01,2.512792396545410156e+01,3.201746749877929688e+01
1.091917991638183594e+00,2.000000000000000000e+00,-3.149944305419921875e+01,2.216804265975952148e+00,4.021269989013671875e+01,9.577866363525390625e+01,8.452050781250000000e+01,1.346672210693359375e+02,-8.528460502624511719e+00,-3.188981246948242188e+01,-1.837698822021484375e+02,3.669943237304687500e+01,2.512792396545410156e+01,3.201746749877929688e+01
1.096891045570373535e+00,2.000000000000000000e+00,-3.155163192749023438e+01,2.253600358963012695e+00,4.016906738281250000e+01,9.578624725341796875e+01,8.452008819580078125e+01,1.346572418212890625e+02,-8.579986572265625000e+00,-3.188363075256347656e+01,-1.837654876708984375e+02,3.669813919067382812e+01,2.514475631713867188e+01,3.201461410522460938e+01
1.100404024124145508e+00,2.000000000000000000e+00,-3.165618133544921875e+01,2.327328920364379883e+00,4.008127593994140625e+01,9.580088806152343750e+01,8.451902008056640625e+01,1.346365661621093750e+02,-8.682324409484863281e+00,-3.187113571166992188e+01,-1.837571563720703125e+02,3.669583892822265625e+01,2.517667007446289062e+01,3.200878906250000000e+01
1.103901982307434082e+00,2.000000000000000000e+00,-3.170854187011718750e+01,2.364373922348022461e+00,4.003747940063476562e+01,9.580842590332031250e+01,8.451832580566406250e+01,1.346264038085937500e+02,-8.732421875000000000e+00,-3.186499786376953125e+01,-1.837528076171875000e+02,3.669469451904296875e+01,2.519284629821777344e+01,3.200604248046875000e+01
1.107990980148315430e+00,2.000000000000000000e+00,-3.170854187011718750e+01,2.364373922348022461e+00,4.003747940063476562e+01,9.580842590332031250e+01,8.451832580566406250e+01,1.346264038085937500e+02,-8.732421875000000000e+00,-3.186499786376953125e+01,-1.837528076171875000e+02,3.669469451904296875e+01,2.519284629821777344e+01,3.200604248046875000e+01
1.111932992935180664e+00,2.000000000000000000e+00,-3.176090621948242188e+01,2.401283502578735352e+00,3.999356460571289062e+01,9.581622314453125000e+01,8.451790618896484375e+01,1.346160278320312500e+02,-8.782244682312011719e+00,-3.185909271240234375e+01,-1.837484588623046875e+02,3.669354248046875000e+01,2.520931243896484375e+01,3.200340652465820312e+01
1.115929007530212402e+00,2.000000000000000000e+00,-3.181326675415039062e+01,2.437966585159301758e+00,3.994979095458984375e+01,9.582359313964843750e+01,8.451742553710937500e+01,1.346059875488281250e+02,-8.832561492919921875e+00,-3.185318946838378906e+01,-1.837441101074218750e+02,3.669239425659179688e+01,2.522577857971191406e+01,3.200044250488281250e+01
1.120638012886047363e+00,2.000000000000000000e+00,-3.191756057739257812e+01,2.511739969253540039e+00,3.986183547973632812e+01,9.583818054199218750e+01,8.451625061035156250e+01,1.345867156982421875e+02,-8.935228347778320312e+00,-3.184115028381347656e+01,-1.837354125976562500e+02,3.668980789184570312e+01,2.525747489929199219e+01,3.199461746215820312e+01
