rpiRobotics/ARM-21-02-F-19-Robot-Motion-Program/data_performance_abb/curve_2/baseline/100L/realrobot/v402.83203125_iteration0.csv
timestamp, cmd_num, J1, J2, J3, J4, J5, J6
0.00039, -1, 39.632, 32.4434, 11.8318, 12.5479, 113.715, -48.8699
0.005232, -1, 39.632, 32.4434, 11.8318, 12.5479, 113.715, -48.8698
0.007954, -1, 39.632, 32.4434, 11.8318, 12.5479, 113.715, -48.8699
0.030432, -1, 39.632, 32.4434, 11.8318, 12.5479, 113.715, -48.8699
0.032468, -1, 39.632, 32.4434, 11.8318, 12.5479, 113.715, -48.8699
0.035369, -1, 39.632, 32.4434, 11.8318, 12.5479, 113.715, -48.8699
0.039508, -1, 39.632, 32.4434, 11.8318, 12.5479, 113.715, -48.8699
0.048204, -1, 39.6319, 32.4434, 11.8318, 12.5479, 113.715, -48.8699
0.055849, -1, 39.6315, 32.4433, 11.8318, 12.5479, 113.715, -48.8699
0.063589, -1, 39.6294, 32.4429, 11.8318, 12.5479, 113.715, -48.8699
0.072421, -1, 39.6243, 32.4416, 11.8317, 12.5479, 113.715, -48.8701
0.079755, -1, 39.6155, 32.4387, 11.8317, 12.5479, 113.714, -48.8706
0.087747, -1, 39.6023, 32.4334, 11.8316, 12.5479, 113.713, -48.8747
0.095878, -1, 39.5826, 32.425, 11.8317, 12.5479, 113.71, -48.8863
0.104048, -1, 39.554, 32.4125, 11.8319, 12.5478, 113.702, -48.9073
0.112027, -1, 39.5155, 32.395, 11.8333, 12.5474, 113.69, -48.9416
0.120085, -1, 39.466, 32.3715, 11.8373, 12.5466, 113.67, -48.9929
0.127965, -1, 39.4041, 32.3415, 11.8447, 12.5451, 113.642, -49.0658
0.135975, -1, 39.329, 32.3041, 11.856, 12.543, 113.603, -49.1616
0.144562, -1, 39.2405, 32.2591, 11.8721, 12.5402, 113.555, -49.2832
0.152173, -1, 39.1912, 32.2338, 11.882, 12.5387, 113.527, -49.3535
0.159995, -1, 39.0823, 32.1773, 11.9046, 12.5351, 113.463, -49.5125
0.167496, -1, 38.96, 32.1134, 11.9309, 12.5308, 113.389, -49.6952
0.175529, -1, 38.8251, 32.0429, 11.9605, 12.5263, 113.307, -49.8988
0.183438, -1, 38.6787, 31.9663, 11.9925, 12.5212, 113.218, -50.1199
0.191449, -1, 38.5219, 31.8845, 12.0259, 12.5156, 113.124, -50.3537
0.199479, -1, 38.3564, 31.7985, 12.0603, 12.5097, 113.026, -50.597
0.207426, -1, 38.1841, 31.7092, 12.0951, 12.5035, 112.926, -50.8467
0.215412, -1, 38.0066, 31.6177, 12.13, 12.497, 112.823, -51.1003
0.223519, -1, 37.8249, 31.5245, 12.1645, 12.4905, 112.721, -51.356
0.231461, -1, 37.6402, 31.4304, 12.1989, 12.4841, 112.618, -51.6125
0.239548, -1, 37.4537, 31.3359, 12.2335, 12.4776, 112.514, -51.8697
0.247417, -1, 37.2665, 31.2413, 12.268, 12.4713, 112.41, -52.1273
0.255479, -1, 37.079, 31.1469, 12.3025, 12.4649, 112.307, -52.3849
0.265204, -1, 36.7983, 31.0056, 12.3545, 12.4557, 112.151, -52.7713
0.271416, -1, 36.7049, 30.9585, 12.3717, 12.4527, 112.099, -52.9003
0.280415, -1, 36.5183, 30.8643, 12.4062, 12.4466, 111.995, -53.1581
0.288481, -1, 36.3317, 30.7701, 12.4409, 12.4405, 111.892, -53.4162
0.295419, -1, 36.1453, 30.6757, 12.4755, 12.4344, 111.788, -53.674
0.303587, -1, 35.9589, 30.5812, 12.5101, 12.4285, 111.684, -53.9319
0.31247, -1, 35.7725, 30.4867, 12.5447, 12.4224, 111.581, -54.1898
0.319493, -1, 35.5858, 30.392, 12.5793, 12.4164, 111.477, -54.4479
0.32747, -1, 35.3988, 30.2972, 12.6138, 12.4102, 111.373, -54.7057
0.335408, -1, 35.2113, 30.2024, 12.6484, 12.404, 111.269, -54.9633
0.34343, -1, 35.0238, 30.1076, 12.6829, 12.3978, 111.165, -55.2211
0.351475, -1, 34.8364, 30.0127, 12.7174, 12.3915, 111.062, -55.4792
0.359475, -1, 34.6491, 29.9178, 12.752, 12.385, 110.958, -55.7372
0.367413, -1, 34.4618, 29.823, 12.7867, 12.3785, 110.854, -55.9949
0.375478, -1, 34.2745, 29.7282, 12.8213, 12.3717, 110.75, -56.2529
0.383408, -1, 34.0873, 29.6336, 12.8559, 12.3651, 110.647, -56.511
0.391506, -1, 33.9006, 29.5391, 12.8906, 12.3584, 110.543, -56.7691
0.399531, -1, 33.7139, 29.4445, 12.9251, 12.3516, 110.439, -57.027
0.407405, -1, 33.5269, 29.3498, 12.9597, 12.3451, 110.336, -57.2848
0.415412, -1, 33.3398, 29.2552, 12.9945, 12.3386, 110.232, -57.5428
0.423472, -1, 33.1524, 29.1603, 13.029, 12.3322, 110.128, -57.801
0.431407, -1, 32.965, 29.0655, 13.0635, 12.3259, 110.025, -58.059
0.439685, -1, 32.7774, 28.9706, 13.0982, 12.3196, 109.921, -58.3169
0.447406, -1, 32.5894, 28.8757, 13.1328, 12.3135, 109.818, -58.5749
0.45541, -1, 32.401, 28.7807, 13.1671, 12.3075, 109.714, -58.8329
0.464222, -1, 32.2125, 28.6858, 13.2017, 12.3014, 109.611, -59.0907
0.471427, -1, 32.0238, 28.5908, 13.2363, 12.2954, 109.507, -59.3485
0.479514, -1, 31.8354, 28.4958, 13.2708, 12.2895, 109.404, -59.6064
0.48829, -1, 31.6472, 28.4008, 13.3053, 12.2834, 109.3, -59.8644
0.495512, -1, 31.4593, 28.306, 13.34, 12.2775, 109.197, -60.1226
0.503505, -1, 31.2717, 28.2112, 13.3745, 12.2714, 109.093, -60.3804
0.512294, -1, 31.0845, 28.1166, 13.409, 12.2655, 108.989, -60.6383
0.519572, -1, 30.8978, 28.022, 13.4438, 12.2594, 108.886, -60.8963
0.52741, -1, 30.7112, 27.9273, 13.4783, 12.2532, 108.782, -61.1544
0.536306, -1, 30.5248, 27.8327, 13.5128, 12.247, 108.679, -61.4124
0.54344, -1, 30.3382, 27.738, 13.5475, 12.2407, 108.575, -61.6701
0.551484, -1, 30.1515, 27.6431, 13.5821, 12.2343, 108.471, -61.9283
0.560537, -1, 29.9646, 27.5483, 13.6167, 12.2277, 108.368, -62.1866
0.567567, -1, 29.7773, 27.4535, 13.6512, 12.2211, 108.264, -62.4446
0.575748, -1, 29.5894, 27.3586, 13.6857, 12.2145, 108.161, -62.7025
0.583735, -1, 29.401, 27.2637, 13.7202, 12.2079, 108.057, -62.9604
0.592412, -1, 29.2125, 27.1689, 13.7547, 12.2013, 107.953, -63.2185
0.599891, -1, 29.0238, 27.074, 13.7892, 12.1948, 107.849, -63.4764
0.608493, -1, 28.8351, 26.9791, 13.8237, 12.1884, 107.746, -63.7342
0.616832, -1, 28.6467, 26.8841, 13.8581, 12.1822, 107.642, -63.992
0.62398, -1, 28.4585, 26.7893, 13.8927, 12.1761, 107.538, -64.2497
0.632513, -1, 28.2709, 26.6946, 13.9272, 12.17, 107.435, -64.5076
0.640834, -1, 28.0837, 26.5998, 13.9617, 12.1639, 107.331, -64.7653
0.647992, -1, 27.9902, 26.5525, 13.979, 12.161, 107.228, -65.023
0.656418, -1, 27.71, 26.4103, 14.0306, 12.1521, 107.124, -65.2808
0.663396, -1, 27.6168, 26.3629, 14.0478, 12.1492, 107.073, -65.4097
0.671406, -1, 27.4307, 26.2681, 14.0824, 12.1433, 106.969, -65.6675
0.679503, -1, 27.2444, 26.1732, 14.117, 12.1373, 106.865, -65.9251
0.68939, -1, 26.9646, 26.0309, 14.1686, 12.1284, 106.71, -66.3114
0.695409, -1, 26.8713, 25.9836, 14.1859, 12.1254, 106.658, -66.4403
0.703432, -1, 26.6841, 25.8888, 14.2204, 12.1194, 106.555, -66.6983
0.711402, -1, 26.4965, 25.7941, 14.2548, 12.1133, 106.452, -66.9558
0.719506, -1, 26.3086, 25.6994, 14.2892, 12.1071, 106.349, -67.2133
0.727477, -1, 26.1205, 25.6047, 14.3238, 12.1008, 106.246, -67.471
0.737715, -1, 25.8379, 25.4627, 14.3753, 12.0912, 106.09, -67.8575
0.743441, -1, 25.7437, 25.4153, 14.3925, 12.0879, 106.039, -67.9861
0.75302, -1, 25.4617, 25.2734, 14.4443, 12.0779, 105.883, -68.372
0.759447, -1, 25.3679, 25.2261, 14.4616, 12.0746, 105.832, -68.5007
0.767472, -1, 25.1806, 25.1315, 14.4959, 12.068, 105.728, -68.7581
0.777063, -1, 24.9934, 25.0369, 14.5303, 12.0582, 105.573, -69.1442
0.784392, -1, 24.8066, 24.9423, 14.5647, 12.055, 105.522, -69.2728
0.791473, -1, 24.6202, 24.8477, 14.5991, 12.0486, 105.418, -69.53
0.800456, -1, 24.4342, 24.753, 14.6335, 12.0423, 105.315, -69.7872
0.807402, -1, 24.2482, 24.6583, 14.668, 12.0361, 105.211, -70.0446
0.815462, -1, 24.062, 24.5637, 14.7023, 12.0299, 105.108, -70.3017
0.823389, -1, 23.8755, 24.4692, 14.7366, 12.024, 105.005, -70.5586
0.831395, -1, 23.6888, 24.3746, 14.7711, 12.0179, 104.901, -70.8158
0.839445, -1, 23.502, 24.2801, 14.8055, 12.0119, 104.798, -71.0733
0.847401, -1, 23.3146, 24.1855, 14.8398, 12.006, 104.694, -71.3307
0.855455, -1, 23.127, 24.091, 14.8743, 12, 104.591, -71.5877
0.863402, -1, 22.9392, 23.9964, 14.9087, 11.994, 104.488, -71.8447
0.871375, -1, 22.7513, 23.9018, 14.943, 11.988, 104.384, -72.1019
0.879574, -1, 22.5638, 23.8073, 14.9774, 11.982, 104.281, -72.3589
0.887391, -1, 22.3766, 23.713, 15.0118, 11.976, 104.178, -72.6155
0.89548, -1, 22.1897, 23.6186, 15.0461, 11.9699, 104.075, -72.8723
0.90347, -1, 22.003, 23.5243, 15.0804, 11.9637, 103.972, -73.1289
0.91139, -1, 21.8167, 23.43, 15.1148, 11.9575, 103.869, -73.3857
0.919451, -1, 21.6309, 23.3356, 15.1491, 11.9511, 103.766, -73.6423
0.927452, -1, 21.4453, 23.2412, 15.1833, 11.9447, 103.663, -73.8988
0.935386, -1, 21.2597, 23.1468, 15.2177, 11.9381, 103.56, -74.1554
0.943399, -1, 21.074, 23.0525, 15.252, 11.9315, 103.457, -74.412
0.951479, -1, 20.8882, 22.9583, 15.2863, 11.9249, 103.354, -74.6685
0.959449, -1, 20.7024, 22.864, 15.3207, 11.9183, 103.251, -74.9249
0.967458, -1, 20.5161, 22.7698, 15.3549, 11.9117, 103.148, -75.1811
0.975691, -1, 20.3294, 22.6756, 15.3891, 11.9054, 103.045, -75.4375
0.983461, -1, 20.1422, 22.5814, 15.4235, 11.8991, 102.942, -75.6939
0.991537, -1, 19.955, 22.487, 15.4579, 11.8929, 102.839, -75.95
0.999798, -1, 19.7679, 22.3928, 15.4921, 11.8868, 102.736, -76.206
1.00749, -1, 19.5808, 22.2986, 15.5264, 11.8808, 102.633, -76.462
1.01557, -1, 19.394, 22.2045, 15.5607, 11.8749, 102.531, -76.7181
1.02417, -1, 19.2077, 22.1103, 15.5948, 11.869, 102.428, -76.9739
1.03139, -1, 19.0215, 22.0161, 15.6291, 11.8631, 102.325, -77.2296
1.03958, -1, 18.8359, 21.922, 15.6634, 11.8573, 102.223, -77.4854
1.04823, -1, 18.6507, 21.8279, 15.6975, 11.8515, 102.12, -77.7411
1.05542, -1, 18.4656, 21.7337, 15.7317, 11.8456, 102.017, -77.9968
1.06364, -1, 18.2807, 21.6395, 15.766, 11.8398, 101.915, -78.2523
1.07255, -1, 18.0958, 21.5456, 15.8002, 11.8338, 101.812, -78.5078
1.0797, -1, 17.9108, 21.4516, 15.8342, 11.8278, 101.709, -78.7634
1.08774, -1, 17.7256, 21.3577, 15.8685, 11.8218, 101.606, -79.0189
1.09657, -1, 17.5401, 21.2639, 15.9026, 11.8156, 101.504, -79.2741
1.1038, -1, 17.3542, 21.1701, 15.9367, 11.8093, 101.401, -79.5294
1.11193, -1, 17.1679, 21.0763, 15.9709, 11.803, 101.299, -79.7846
1.12095, -1, 16.9816, 20.9825, 16.0052, 11.7965, 101.196, -80.0402
1.12792, -1, 16.7953, 20.8888, 16.0392, 11.7901, 101.094, -80.2953
1.13598, -1, 16.609, 20.7951, 16.0733, 11.7836, 100.992, -80.5503
1.14497, -1, 16.4228, 20.7014, 16.1076, 11.777, 100.889, -80.8054
1.15193, -1, 16.3299, 20.6546, 16.1246, 11.7738, 100.838, -81.0606
1.16045, -1, 16.052, 20.514, 16.1757, 11.7642, 100.685, -81.3153
1.16742, -1, 15.9595, 20.4671, 16.1927, 11.7611, 100.633, -81.4426
1.17643, -1, 15.6828, 20.3266, 16.2439, 11.7519, 100.48, -81.8244
1.1834, -1, 15.5907, 20.2796, 16.2609, 11.7489, 100.429, -81.9518
1.19138, -1, 15.4066, 20.1859, 16.2949, 11.7428, 100.326, -82.2062
1.19942, -1, 15.2226, 20.0922, 16.329, 11.7368, 100.224, -82.4607
1.20739, -1, 15.0385, 19.9986, 16.363, 11.7309, 100.122, -82.7151
1.21538, -1, 14.8544, 19.9051, 16.397, 11.725, 100.02, -82.9694
1.22344, -1, 14.67, 19.8116, 16.431, 11.7191, 99.9178, -83.2236
1.23292, -1, 14.3928, 19.6714, 16.4819, 11.7104, 99.7645, -83.6049
1.24177, -1, 14.2076, 19.5779, 16.5158, 11.7045, 99.6623, -83.8588
1.24743, -1, 14.1149, 19.5311, 16.5328, 11.7015, 99.6115, -83.9857
1.25697, -1, 13.8366, 19.3909, 16.5837, 11.6926, 99.4584, -84.3668
1.26601, -1, 13.6511, 19.2976, 16.6176, 11.6866, 99.3564, -84.6205
1.27299, -1, 13.5584, 19.251, 16.6346, 11.6805, 99.2548, -84.8741
1.27937, -1, 13.3731, 19.1578, 16.6686, 11.6774, 99.2037, -85.0009
1.2884, -1, 13.1885, 19.0646, 16.7024, 11.6713, 99.1018, -85.2546
1.29544, -1, 13.0043, 18.9715, 16.7363, 11.6651, 99.0001, -85.5083
1.30339, -1, 12.8203, 18.8784, 16.7704, 11.6588, 98.8983, -85.7615
1.31138, -1, 12.6366, 18.7852, 16.8042, 11.6524, 98.7966, -86.0146
1.3194, -1, 12.4535, 18.692, 16.838, 11.646, 98.6953, -86.2677
1.32737, -1, 12.2708, 18.599, 16.872, 11.6395, 98.5936, -86.5208
1.33641, -1, 12.0879, 18.5061, 16.9059, 11.6331, 98.4921, -86.7739
1.34337, -1, 11.9049, 18.4131, 16.9397, 11.6267, 98.3908, -87.0268
1.35138, -1, 11.7216, 18.3202, 16.9735, 11.6204, 98.2892, -87.2795
1.36017, -1, 11.538, 18.2274, 17.0073, 11.6143, 98.1877, -87.5322
1.36738, -1, 11.3541, 18.1345, 17.041, 11.6081, 98.0863, -87.7848
1.37537, -1, 11.1699, 18.0415, 17.0748, 11.6021, 97.9848, -88.0376
1.38425, -1, 10.9855, 17.9487, 17.1087, 11.5962, 97.8833, -88.2898
1.39142, -1, 10.801, 17.8558, 17.1424, 11.5903, 97.7818, -88.5422
1.39948, -1, 10.6165, 17.7631, 17.1761, 11.5846, 97.6803, -88.7949
1.40817, -1, 10.4323, 17.6703, 17.2099, 11.5788, 97.5789, -89.0473
1.41537, -1, 10.2486, 17.5776, 17.2436, 11.573, 97.4774, -89.2995
1.42337, -1, 10.0652, 17.4848, 17.2773, 11.5673, 97.3761, -89.5516
1.43272, -1, 9.88222, 17.3922, 17.311, 11.5616, 97.2748, -89.8037
1.43938, -1, 9.69959, 17.2994, 17.3448, 11.5559, 97.1735, -90.0559
1.44744, -1, 9.51747, 17.2068, 17.3783, 11.5501, 97.0723, -90.3075
1.45548, -1, 9.33577, 17.1142, 17.412, 11.5443, 96.9714, -90.5588
1.46337, -1, 9.15408, 17.0218, 17.4458, 11.5384, 96.8701, -90.8104
1.47145, -1, 8.97221, 16.9292, 17.4794, 11.5324, 96.769, -91.0619
1.47959, -1, 8.79004, 16.8369, 17.513, 11.5263, 96.6682, -91.3133
1.48746, -1, 8.6078, 16.7446, 17.5467, 11.5201, 96.5671, -91.5644
1.49554, -1, 8.42545, 16.6522, 17.5803, 11.5138, 96.4662, -91.8154
1.50375, -1, 8.24251, 16.5599, 17.6139, 11.5074, 96.3655, -92.0666
1.51148, -1, 8.05927, 16.4677, 17.6476, 11.501, 96.2645, -92.3175
1.51954, -1, 7.87595, 16.3755, 17.6812, 11.4944, 96.1639, -92.5683
1.52793, -1, 7.69258, 16.2834, 17.7146, 11.488, 96.0636, -92.8188
1.53539, -1, 7.50944, 16.1913, 17.7482, 11.4816, 95.9629, -93.0695
1.54347, -1, 7.32652, 16.0992, 17.7817, 11.4753, 95.8624, -93.3203
1.55296, -1, 7.14402, 16.0071, 17.8151, 11.4692, 95.7623, -93.5708
1.55942, -1, 6.96199, 15.9151, 17.8485, 11.4631, 95.6617, -93.821
1.56764, -1, 6.78038, 15.8229, 17.882, 11.4571, 95.5613, -94.0713
1.57728, -1, 6.59941, 15.7308, 17.9155, 11.4512, 95.4612, -94.3216
1.58359, -1, 6.41878, 15.6389, 17.9488, 11.4454, 95.3607, -94.5716
1.59176, -1, 6.23826, 15.547, 17.9823, 11.4395, 95.2605, -94.8213
1.60139, -1, 6.05778, 15.4551, 18.0157, 11.4338, 95.1604, -95.0709
1.60779, -1, 5.87711, 15.3634, 18.0491, 11.428, 95.0601, -95.3205
1.61594, -1, 5.69629, 15.2717, 18.0825, 11.4222, 94.9599, -95.5701
1.62547, -1, 5.51516, 15.1799, 18.116, 11.4164, 94.8597, -95.8198
1.63195, -1, 5.33377, 15.0882, 18.1493, 11.4106, 94.7594, -96.0689
1.64054, -1, 5.1519, 14.9966, 18.1826, 11.4047, 94.6591, -96.3179
1.64886, -1, 5.06081, 14.9508, 18.216, 11.3988, 94.5588, -96.5672
1.65533, -1, 4.87869, 14.8592, 18.2327, 11.3959, 94.5086, -96.6917
1.66336, -1, 4.69656, 14.7677, 18.2659, 11.3897, 94.4084, -96.9407
1.67325, -1, 4.42382, 14.6304, 18.316, 11.3807, 94.2582, -97.3138
1.68041, -1, 4.24227, 14.539, 18.3492, 11.3744, 94.1581, -97.5627
1.68747, -1, 4.15166, 14.4932, 18.3657, 11.3713, 94.1081, -97.6872
1.69536, -1, 3.97094, 14.4018, 18.3989, 11.365, 94.0081, -97.9359
1.70336, -1, 3.79097, 14.3103, 18.4324, 11.3585, 93.908, -98.1844
1.71142, -1, 3.61126, 14.2189, 18.4656, 11.3521, 93.8081, -98.4327
1.71937, -1, 3.43195, 14.1277, 18.4986, 11.3458, 93.7084, -98.681
1.72736, -1, 3.25277, 14.0366, 18.5318, 11.3396, 93.6085, -98.9294
1.7355, -1, 3.07353, 13.9454, 18.565, 11.3333, 93.5089, -99.1774
1.74336, -1, 2.89442, 13.8544, 18.5982, 11.3273, 93.4096, -99.4251
1.75373, -1, 2.62511, 13.7179, 18.648, 11.3182, 93.2602, -99.7968
1.75941, -1, 2.53515, 13.6724, 18.6646, 11.3153, 93.2106, -99.9206
1.76736, -1, 2.35515, 13.5814, 18.6976, 11.3095, 93.1112, -100.168
1.7779, -1, 2.17469, 13.4904, 18.7307, 11.3009, 92.9621, -100.539
1.78342, -1, 1.99398, 13.3995, 18.764, 11.2981, 92.9126, -100.663
1.79242, -1, 1.81328, 13.3086, 18.7971, 11.2925, 92.8133, -100.91
1.79936, -1, 1.63244, 13.2176, 18.83, 11.2868, 92.7139, -101.157
1.80743, -1, 1.45185, 13.1267, 18.8631, 11.2812, 92.6151, -101.404
1.81536, -1, 1.27151, 13.0358, 18.8962, 11.2756, 92.5161, -101.651
1.82344, -1, 1.09165, 12.945, 18.9291, 11.2699, 92.4171, -101.897
1.83144, -1, 0.912598, 12.8541, 18.9622, 11.2642, 92.3183, -102.144
1.83936, -1, 0.733972, 12.7633, 18.9953, 11.2585, 92.2194, -102.391
1.84736, -1, 0.55574, 12.6727, 19.0281, 11.2527, 92.1206, -102.637
1.85536, -1, 0.377928, 12.5821, 19.061, 11.2468, 92.0218, -102.883
1.86336, -1, 0.200284, 12.4916, 19.094, 11.2409, 91.9229, -103.129
1.87144, -1, 0.0228863, 12.4012, 19.127, 11.2349, 91.824, -103.375
1.87936, -1, -0.15481, 12.3109, 19.1598, 11.2287, 91.7255, -103.621
1.88735, -1, -0.332949, 12.2206, 19.1927, 11.2225, 91.6268, -103.867
1.89542, -1, -0.511476, 12.1303, 19.2256, 11.2162, 91.5281, -104.112
1.90345, -1, -0.690358, 12.04, 19.2585, 11.2098, 91.4296, -104.358
1.91136, -1, -0.869463, 11.9498, 19.2913, 11.2035, 91.3309, -104.603
1.91943, -1, -1.04867, 11.8597, 19.3242, 11.1971, 91.2323, -104.848
1.92736, -1, -1.22826, 11.7695, 19.3569, 11.1909, 91.1339, -105.094
1.93536, -1, -1.40767, 11.6794, 19.3897, 11.1847, 91.0353, -105.339
1.94343, -1, -1.58677, 11.5893, 19.4226, 11.1787, 90.9368, -105.583
1.95137, -1, -1.76547, 11.4993, 19.4553, 11.1727, 90.8386, -105.828
1.95936, -1, -1.9436, 11.4092, 19.488, 11.1669, 90.7401, -106.073
1.96743, -1, -2.121, 11.3191, 19.5208, 11.1611, 90.6418, -106.317
1.97536, -1, -2.29801, 11.2292, 19.5536, 11.1555, 90.5437, -106.562
1.98345, -1, -2.47475, 11.1393, 19.5862, 11.1497, 90.4453, -106.807
1.99145, -1, -2.65093, 11.0495, 19.6189, 11.1441, 90.3472, -107.051
1.99947, -1, -2.82683, 10.9597, 19.6516, 11.1384, 90.2493, -107.295
2.00751, -1, -3.00307, 10.87, 19.6843, 11.1328, 90.151, -107.539
2.01546, -1, -3.17953, 10.7804, 19.7168, 11.1272, 90.053, -107.783
2.02347, -1, -3.3563, 10.6907, 19.7495, 11.1215, 89.9552, -108.027
2.03154, -1, -3.53349, 10.601, 19.7821, 11.1158, 89.8571, -108.271
2.0394, -1, -3.71079, 10.5114, 19.8146, 11.11, 89.7593, -108.514
2.04739, -1, -3.88847, 10.4219, 19.8471, 11.1042, 89.6617, -108.758
2.05545, -1, -4.06636, 10.3324, 19.8797, 11.0983, 89.5638, -109.001
2.06343, -1, -4.2445, 10.243, 19.9122, 11.0923, 89.4662, -109.244
2.07163, -1, -4.42255, 10.1536, 19.9446, 11.0862, 89.3688, -109.487
2.08048, -1, -4.60019, 10.0643, 19.9772, 11.0801, 89.271, -109.73
2.08777, -1, -4.77738, 9.97501, 20.0096, 11.0738, 89.1735, -109.973
2.09637, -1, -4.95398, 9.88572, 20.042, 11.0677, 89.0763, -110.215
2.10455, -1, -5.12987, 9.7965, 20.0744, 11.0615, 88.9788, -110.458
2.11181, -1, -5.30536, 9.70738, 20.1069, 11.0553, 88.8814, -110.7
2.11992, -1, -5.48042, 9.61835, 20.1393, 11.0492, 88.7844, -110.942
2.12872, -1, -5.65494, 9.52931, 20.1716, 11.0433, 88.6869, -111.185
2.13608, -1, -5.82935, 9.44044, 20.2041, 11.0374, 88.5897, -111.427
2.144, -1, -6.00393, 9.35159, 20.2365, 11.0316, 88.4927, -111.669
2.15278, -1, -6.09135, 9.30715, 20.2688, 11.0259, 88.3954, -111.91
2.1599, -1, -6.26648, 9.21831, 20.2849, 11.023, 88.347, -112.031
2.16837, -1, -6.52984, 9.08506, 20.3335, 11.0146, 88.2018, -112.393
2.17534, -1, -6.61772, 9.04065, 20.3496, 11.0118, 88.1533, -112.514
2.18335, -1, -6.79381, 8.95193, 20.3818, 11.0063, 88.0564, -112.755
2.19141, -1, -6.97032, 8.86328, 20.4141, 11.0007, 87.9598, -112.997
2.19934, -1, -7.147, 8.77462, 20.4464, 10.9952, 87.863, -113.238
2.20742, -1, -7.32359, 8.68601, 20.4786, 10.9896, 87.7661, -113.479
2.21537, -1, -7.49973, 8.59735, 20.5107, 10.9841, 87.6694, -113.719
2.22335, -1, -7.6756, 8.5088, 20.543, 10.9786, 87.5727, -113.96
2.23143, -1, -7.8509, 8.42024, 20.5751, 10.9731, 87.476, -114.201
2.23943, -1, -8.0255, 8.33165, 20.6073, 10.9675, 87.3795, -114.441
2.24734, -1, -8.19963, 8.24326, 20.6395, 10.9618, 87.2828, -114.682
2.25541, -1, -8.37329, 8.15493, 20.6716, 10.9561, 87.1862, -114.922
2.26495, -1, -8.63269, 8.02244, 20.7197, 10.9474, 87.0415, -115.282
2.27378, -1, -8.80559, 7.9343, 20.7519, 10.9414, 86.9448, -115.522
2.27942, -1, -8.89208, 7.89024, 20.768, 10.9384, 86.8966, -115.642
2.28734, -1, -9.06544, 7.80206, 20.8001, 10.9323, 86.8001, -115.882
2.29636, -1, -9.23921, 7.71397, 20.8321, 10.9262, 86.7037, -116.121
2.30342, -1, -9.41315, 7.62587, 20.8642, 10.9199, 86.6072, -116.361
2.31135, -1, -9.58748, 7.53792, 20.8963, 10.9137, 86.5111, -116.6
2.31936, -1, -9.76213, 7.45, 20.9282, 10.9077, 86.4149, -116.84
2.32736, -1, -9.93704, 7.3622, 20.9602, 10.9015, 86.3188, -117.079
2.33542, -1, -10.1122, 7.27438, 20.9923, 10.8955, 86.2227, -117.318
2.34334, -1, -10.2874, 7.18653, 21.0242, 10.8896, 86.1267, -117.557
2.35144, -1, -10.4622, 7.09873, 21.056, 10.8838, 86.0307, -117.796
2.35941, -1, -10.6366, 7.01097, 21.088, 10.8781, 85.9348, -118.034
2.36734, -1, -10.8105, 6.92311, 21.1199, 10.8725, 85.839, -118.273
2.37535, -1, -10.9837, 6.83533, 21.1517, 10.867, 85.7431, -118.511
2.38341, -1, -11.1561, 6.74769, 21.1835, 10.8615, 85.6476, -118.75
2.39135, -1, -11.328, 6.6601, 21.2154, 10.856, 85.5523, -118.988
2.39935, -1, -11.4995, 6.57258, 21.2472, 10.8506, 85.4569, -119.226
2.4075, -1, -11.671, 6.48513, 21.2789, 10.8452, 85.3615, -119.464
2.41534, -1, -11.8426, 6.39781, 21.3108, 10.8398, 85.2664, -119.701
2.42334, -1, -12.0142, 6.31048, 21.3427, 10.8343, 85.1711, -119.939
2.43142, -1, -12.1862, 6.22313, 21.3744, 10.8288, 85.0759, -120.177
2.43934, -1, -12.3586, 6.13583, 21.4061, 10.8232, 84.9809, -120.414
2.44741, -1, -12.5315, 6.04863, 21.438, 10.8176, 84.8856, -120.651
2.45544, -1, -12.7047, 5.96142, 21.4697, 10.8119, 84.7905, -120.888
2.5936, -1, -15.6217, 4.4857, 22.0069, 10.7143, 83.1761, -124.901
2.59548, -1, -15.6217, 4.4857, 22.0069, 10.7143, 83.1761, -125.019
2.59704, -1, -15.7076, 4.44246, 22.0225, 10.7116, 83.1289, -125.019
2.59829, -1, -15.7076, 4.44246, 22.0225, 10.7116, 83.1289, -125.019
2.60026, -1, -15.7935, 4.39929, 22.0382, 10.709, 83.0817, -125.137
2.6016, -1, -15.7935, 4.39929, 22.0382, 10.709, 83.0817, -125.137
2.60282, -1, -15.7935, 4.39929, 22.0382, 10.709, 83.0817, -125.137
2.60639, -1, -15.8794, 4.35611, 22.0539, 10.7063, 83.0345, -125.254
2.76763, -1, -19.2802, 2.63706, 22.6796, 10.592, 81.159, -129.929
2.76971, -1, -19.3652, 2.59431, 22.6951, 10.5892, 81.1123, -130.045
2.77106, -1, -19.3652, 2.59431, 22.6951, 10.5892, 81.1123, -130.045
2.77278, -1, -19.3652, 2.59431, 22.6951, 10.5892, 81.1123, -130.162
2.77429, -1, -19.4501, 2.55155, 22.7106, 10.5865, 81.0656, -130.162
2.77547, -1, -19.4501, 2.55155, 22.7106, 10.5865, 81.0656, -130.162
2.77749, -1, -19.5349, 2.50878, 22.7261, 10.5838, 81.0189, -130.278
2.78222, -1, -19.6195, 2.46601, 22.7417, 10.5811, 80.9724, -130.394
2.78347, -1, -19.6195, 2.46601, 22.7417, 10.5811, 80.9724, -130.394
2.78637, -1, -19.7039, 2.42323, 22.7573, 10.5784, 80.9258, -130.51
2.78759, -1, -19.7039, 2.42323, 22.7573, 10.5784, 80.9258, -130.51
2.78963, -1, -19.7881, 2.38045, 22.7729, 10.5758, 80.8791, -130.626
2.79083, -1, -19.7881, 2.38045, 22.7729, 10.5758, 80.8791, -130.626
2.79212, -1, -19.7881, 2.38045, 22.7729, 10.5758, 80.8791, -130.626
2.79416, -1, -19.8722, 2.33773, 22.7885, 10.5731, 80.8324, -130.742
2.79785, -1, -19.9562, 2.29502, 22.804, 10.5705, 80.7858, -130.858
2.79916, -1, -19.9562, 2.29502, 22.804, 10.5705, 80.7858, -130.858
2.80041, -1, -19.9562, 2.29502, 22.804, 10.5705, 80.7858, -130.858
2.80244, -1, -20.0402, 2.25235, 22.8194, 10.5678, 80.7391, -130.974
2.80373, -1, -20.0402, 2.25235, 22.8194, 10.5678, 80.7391, -130.974
2.80664, -1, -20.124, 2.20972, 22.8349, 10.5652, 80.6926, -131.09
2.80785, -1, -20.124, 2.20972, 22.8349, 10.5652, 80.6926, -131.09
2.81235, -1, -20.2077, 2.16708, 22.8504, 10.5625, 80.6461, -131.206
2.8145, -1, -20.2913, 2.12441, 22.866, 10.5599, 80.5994, -131.322
2.81577, -1, -20.2913, 2.12441, 22.866, 10.5599, 80.5994, -131.322
2.81758, -1, -20.3749, 2.08178, 22.8816, 10.5572, 80.5527, -131.438
2.81903, -1, -20.3749, 2.08178, 22.8816, 10.5572, 80.5527, -131.438
2.82021, -1, -20.3749, 2.08178, 22.8816, 10.5572, 80.5527, -131.438
2.82236, -1, -20.4585, 2.03919, 22.8971, 10.5546, 80.5061, -131.554
2.82356, -1, -20.4585, 2.03919, 22.8971, 10.5546, 80.5061, -131.554
2.82637, -1, -20.5421, 1.99663, 22.9126, 10.5519, 80.4595, -131.67
2.82776, -1, -20.5421, 1.99663, 22.9126, 10.5519, 80.4595, -131.67
2.83044, -1, -20.6256, 1.95407, 22.9281, 10.5492, 80.413, -131.785
2.83166, -1, -20.6256, 1.95407, 22.9281, 10.5492, 80.413, -131.785
2.83438, -1, -20.7092, 1.91149, 22.9436, 10.5465, 80.3665, -131.901
2.83563, -1, -20.7092, 1.91149, 22.9436, 10.5465, 80.3665, -131.901
2.83749, -1, -20.7092, 1.86891, 22.9592, 10.5438, 80.3198, -132.017
2.84034, -1, -20.7929, 1.86891, 22.9592, 10.5438, 80.3198, -132.017
2.84237, -1, -20.8767, 1.82637, 22.9747, 10.5411, 80.2731, -132.133
2.84366, -1, -20.8767, 1.82637, 22.9747, 10.5411, 80.2731, -132.133
2.84732, -1, -20.9606, 1.78384, 22.9903, 10.5384, 80.2266, -132.249
2.85539, -1, -21.1285, 1.69872, 23.0212, 10.5329, 80.1336, -132.48
2.86334, -1, -21.2968, 1.61369, 23.052, 10.5274, 80.0408, -132.711
2.8714, -1, -21.4654, 1.52868, 23.0831, 10.5218, 79.9477, -132.942
2.87931, -1, -21.6341, 1.44373, 23.114, 10.516, 79.8549, -133.173
2.88733, -1, -21.8029, 1.35882, 23.1448, 10.5103, 79.7623, -133.404
2.89539, -1, -21.9718, 1.27391, 23.1756, 10.5044, 79.6693, -133.635
2.90333, -1, -22.1406, 1.189, 23.2066, 10.4985, 79.5766, -133.865
2.91142, -1, -22.3093, 1.10421, 23.2374, 10.4925, 79.4841, -134.096
2.9194, -1, -22.4775, 1.01937, 23.2683, 10.4866, 79.3913, -134.327
2.92732, -1, -22.6452, 0.934513, 23.2991, 10.4807, 79.2987, -134.557
2.93533, -1, -22.8122, 0.849798, 23.33, 10.4749, 79.2063, -134.788
2.9434, -1, -22.9787, 0.765171, 23.3607, 10.4692, 79.1137, -135.018
2.95132, -1, -23.1451, 0.680627, 23.3914, 10.4635, 79.0213, -135.248
2.95951, -1, -23.311, 0.596123, 23.4223, 10.4579, 78.9291, -135.477
2.96732, -1, -23.4769, 0.51177, 23.4531, 10.4524, 78.8367, -135.707
2.97533, -1, -23.6429, 0.427422, 23.4838, 10.4469, 78.7444, -135.937
2.98369, -1, -23.8091, 0.343027, 23.5145, 10.4416, 78.6524, -136.166
2.99137, -1, -23.9754, 0.258732, 23.5453, 10.4362, 78.5604, -136.396
2.99941, -1, -24.1419, 0.174394, 23.576, 10.4309, 78.4682, -136.626
3.00788, -1, -24.3087, 0.0901084, 23.6066, 10.4257, 78.3761, -136.855
3.01543, -1, -24.4756, 0.00585629, 23.6374, 10.4203, 78.2843, -137.084
3.02348, -1, -24.6429, -0.0783991, 23.668, 10.415, 78.1921, -137.313
3.03191, -1, -24.8104, -0.162581, 23.6985, 10.4097, 78.1002, -137.542
3.03933, -1, -24.9779, -0.246732, 23.729, 10.4043, 78.0085, -137.771
3.04734, -1, -25.1452, -0.330837, 23.7598, 10.399, 77.9165, -137.999
3.05627, -1, -25.312, -0.414929, 23.7904, 10.3936, 77.8248, -138.228
3.06341, -1, -25.4784, -0.499028, 23.8209, 10.3882, 77.7334, -138.456
3.07142, -1, -25.6444, -0.583145, 23.8514, 10.3827, 77.6417, -138.685
3.08043, -1, -25.81, -0.667121, 23.882, 10.3773, 77.55, -138.914
3.08755, -1, -25.9753, -0.751002, 23.9124, 10.3717, 77.4585, -139.142
3.09565, -1, -26.1403, -0.834945, 23.9428, 10.366, 77.3668, -139.37
3.10471, -1, -26.3049, -0.918802, 23.9734, 10.3602, 77.2751, -139.597
3.11175, -1, -26.4696, -1.0025, 24.0039, 10.3544, 77.1836, -139.825
3.11984, -1, -26.6345, -1.08625, 24.0343, 10.3486, 77.0919, -140.053
3.12871, -1, -26.7994, -1.16994, 24.0647, 10.3427, 77.0003, -140.281
3.13584, -1, -26.9646, -1.25364, 24.0953, 10.3369, 76.9088, -140.508
3.14449, -1, -27.1299, -1.33727, 24.1257, 10.3311, 76.8174, -140.736
3.15285, -1, -27.2126, -1.42092, 24.1561, 10.3254, 76.7259, -140.963
3.15985, -1, -27.3782, -1.46271, 24.1713, 10.3226, 76.6345, -141.191
3.16834, -1, -27.627, -1.58792, 24.217, 10.3142, 76.5432, -141.418
3.17533, -1, -27.7099, -1.62966, 24.2321, 10.3115, 76.4973, -141.531
3.18331, -1, -27.8758, -1.71303, 24.2625, 10.3061, 76.4061, -141.758
3.19136, -1, -28.0416, -1.79644, 24.2929, 10.3006, 76.3148, -141.985
3.20144, -1, -28.2898, -1.92152, 24.3385, 10.2928, 76.1779, -142.325
3.20737, -1, -28.3724, -1.96321, 24.3536, 10.2901, 76.1324, -142.439
3.21532, -1, -28.5373, -2.04662, 24.3838, 10.2849, 76.0414, -142.665
3.22332, -1, -28.7019, -2.12992, 24.4142, 10.2797, 75.9504, -142.892
3.23137, -1, -28.8661, -2.21322, 24.4445, 10.2746, 75.8593, -143.118
3.24085, -1, -29.1116, -2.33814, 24.4897, 10.2668, 75.7231, -143.458
3.24983, -1, -29.2751, -2.4213, 24.52, 10.2617, 75.6321, -143.684
3.25537, -1, -29.357, -2.46283, 24.5351, 10.259, 75.5867, -143.797
3.2657, -1, -29.6025, -2.58739, 24.5804, 10.251, 75.4506, -144.136
3.27134, -1, -29.6844, -2.62889, 24.5955, 10.2484, 75.4053, -144.249
3.28089, -1, -29.8482, -2.75341, 24.641, 10.2403, 75.269, -144.588
3.28983, -1, -30.012, -2.79487, 24.6561, 10.2348, 75.1783, -144.814
3.29552, -1, -30.1758, -2.87782, 24.6862, 10.232, 75.1333, -144.926
3.30336, -1, -30.34, -2.96072, 24.7163, 10.2264, 75.0427, -145.152
3.31232, -1, -30.5045, -3.04355, 24.7465, 10.2207, 74.9523, -145.378
3.3201, -1, -30.6689, -3.12642, 24.7767, 10.2149, 74.8621, -145.603
3.32731, -1, -30.8335, -3.20922, 24.8067, 10.209, 74.7719, -145.829
3.33531, -1, -30.9979, -3.29204, 24.8369, 10.2032, 74.6816, -146.053
3.34421, -1, -31.1619, -3.37477, 24.8671, 10.1973, 74.5913, -146.278
3.3524, -1, -31.3258, -3.45754, 24.8972, 10.1915, 74.5013, -146.503
3.35935, -1, -31.4894, -3.54034, 24.9272, 10.1858, 74.4108, -146.729
3.36811, -1, -31.6526, -3.62293, 24.9573, 10.1802, 74.3206, -146.953
3.37532, -1, -31.8156, -3.70556, 24.9874, 10.1746, 74.2306, -147.178
3.38338, -1, -31.9784, -3.78816, 25.0174, 10.1692, 74.1402, -147.402
3.39211, -1, -32.141, -3.87068, 25.0473, 10.1638, 74.05, -147.627
3.39931, -1, -32.3034, -3.9531, 25.0774, 10.1586, 73.9599, -147.852
3.40739, -1, -32.466, -4.03546, 25.1075, 10.1534, 73.8696, -148.076
3.41622, -1, -32.6285, -4.11784, 25.1374, 10.1483, 73.7796, -148.3
3.42331, -1, -32.7911, -4.20026, 25.1674, 10.1432, 73.6897, -148.524
3.43138, -1, -32.9537, -4.28263, 25.1975, 10.1381, 73.5996, -148.748
3.44009, -1, -33.1165, -4.36501, 25.2274, 10.1331, 73.5095, -148.972
3.44832, -1, -33.2795, -4.44737, 25.2573, 10.128, 73.4195, -149.196
3.45538, -1, -33.4425, -4.52967, 25.2872, 10.123, 73.3296, -149.419
3.4641, -1, -33.6057, -4.61202, 25.3172, 10.1178, 73.2395, -149.643
3.47136, -1, -33.7687, -4.69432, 25.3471, 10.1127, 73.1494, -149.867
3.47935, -1, -33.9315, -4.77654, 25.377, 10.1075, 73.0597, -150.091
3.48807, -1, -34.0943, -4.85871, 25.4069, 10.1022, 72.9694, -150.314
3.49631, -1, -34.2571, -4.9409, 25.4369, 10.0969, 72.8795, -150.537
3.50341, -1, -34.4198, -5.02313, 25.4668, 10.0916, 72.7899, -150.76
3.51208, -1, -34.5822, -5.10521, 25.4967, 10.0862, 72.7, -150.983
3.52039, -1, -34.7442, -5.18727, 25.5266, 10.0807, 72.6103, -151.207
3.52742, -1, -34.9057, -5.26937, 25.5564, 10.0751, 72.5208, -151.43
3.53651, -1, -35.0673, -5.35138, 25.5862, 10.0695, 72.4311, -151.652
3.54349, -1, -35.2287, -5.43329, 25.616, 10.0638, 72.3416, -151.875
3.55133, -1, -35.3902, -5.51521, 25.6458, 10.0581, 72.2522, -152.098
3.55936, -1, -35.5517, -5.5971, 25.6757, 10.0523, 72.1629, -152.321
3.5674, -1, -35.7133, -5.67898, 25.7054, 10.0467, 72.0735, -152.544
3.57541, -1, -35.8748, -5.76085, 25.7352, 10.0411, 71.9841, -152.766
3.58365, -1, -36.0363, -5.84263, 25.765, 10.0355, 71.895, -152.989
3.59161, -1, -36.1979, -5.92434, 25.7947, 10.0301, 71.8054, -153.211
3.5996, -1, -36.3596, -6.00602, 25.8244, 10.0248, 71.7162, -153.433
3.60781, -1, -36.5214, -6.08774, 25.8541, 10.0195, 71.6274, -153.655
3.61642, -1, -36.6832, -6.16935, 25.8839, 10.0142, 71.5382, -153.878
3.62377, -1, -36.8449, -6.25095, 25.9135, 10.009, 71.4492, -154.1
3.63248, -1, -37.0066, -6.33248, 25.9432, 10.0038, 71.3603, -154.322
3.63985, -1, -37.1681, -6.41406, 25.973, 9.99868, 71.2714, -154.544
3.64842, -1, -37.3297, -6.49568, 26.0027, 9.99355, 71.1823, -154.766
3.656, -1, -37.4909, -6.57718, 26.0323, 9.98848, 71.0933, -154.987
3.66383, -1, -37.5713, -6.61794, 26.0471, 9.98592, 71.0489, -155.208
3.6713, -1, -37.7322, -6.6995, 26.0768, 9.9808, 70.9597, -155.319
3.68035, -1, -37.9733, -6.82178, 26.1212, 9.97316, 70.8262, -155.652
3.68728, -1, -38.0537, -6.86249, 26.136, 9.97065, 70.7818, -155.762
3.6953, -1, -38.2143, -6.94386, 26.1655, 9.96538, 70.693, -155.984
3.70335, -1, -38.3748, -7.02523, 26.1952, 9.96013, 70.6042, -156.205
3.71129, -1, -38.5352, -7.10654, 26.2249, 9.95481, 70.5153, -156.426
3.71931, -1, -38.6955, -7.18788, 26.2544, 9.94944, 70.4267, -156.647
3.72876, -1, -38.9361, -7.30977, 26.2988, 9.94131, 70.2933, -156.979
3.73531, -1, -39.0163, -7.35041, 26.3137, 9.93852, 70.2489, -157.089
3.74475, -1, -39.2571, -7.47227, 26.3579, 9.93016, 70.1158, -157.42
3.753, -1, -39.4177, -7.55344, 26.3873, 9.92451, 70.0271, -157.641
3.76086, -1, -39.5783, -7.63466, 26.4169, 9.91877, 69.9382, -157.862
3.76887, -1, -39.7389, -7.71578, 26.4465, 9.91304, 69.8497, -158.082
3.77701, -1, -39.8995, -7.79686, 26.4759, 9.90734, 69.7608, -158.303
3.78329, -1, -39.9798, -7.8374, 26.4906, 9.90453, 69.7166, -158.413
3.79138, -1, -40.1405, -7.91852, 26.5201, 9.899, 69.6281, -158.633
3.80101, -1, -40.3009, -7.99961, 26.5497, 9.89347, 69.5398, -158.854
3.8073, -1, -40.461, -8.08059, 26.5791, 9.88807, 69.4513, -159.074
3.81539, -1, -40.6211, -8.16153, 26.6085, 9.8827, 69.3628, -159.294
3.8234, -1, -40.7811, -8.24251, 26.638, 9.87754, 69.2747, -159.514
3.83129, -1, -40.9408, -8.32343, 26.6675, 9.87247, 69.1861, -159.734
3.83936, -1, -41.1005, -8.40426, 26.6968, 9.86743, 69.0978, -159.954
3.8473, -1, -41.26, -8.48505, 26.7262, 9.86241, 69.0097, -160.174
3.85536, -1, -41.4194, -8.56587, 26.7558, 9.85746, 68.9213, -160.394
3.86329, -1, -41.5788, -8.64668, 26.7852, 9.85242, 68.8331, -160.614
3.87131, -1, -41.7382, -8.72741, 26.8146, 9.84753, 68.7448, -160.833
3.87936, -1, -41.8977, -8.80816, 26.844, 9.8426, 68.6566, -161.053
3.88729, -1, -42.0574, -8.88891, 26.8735, 9.83764, 68.5683, -161.273
3.8953, -1, -42.2169, -8.96957, 26.9028, 9.83264, 68.4801, -161.492
3.90336, -1, -42.3764, -9.05029, 26.932, 9.82764, 68.3921, -161.712
3.9113, -1, -42.536, -9.13094, 26.9614, 9.82265, 68.3038, -161.931
3.91938, -1, -42.6956, -9.21155, 26.9908, 9.81752, 68.2156, -162.15
3.92736, -1, -42.855, -9.29214, 27.02, 9.81236, 68.1279, -162.37
3.93529, -1, -43.0146, -9.37272, 27.0493, 9.80707, 68.0396, -162.589
3.94329, -1, -43.174, -9.45334, 27.0787, 9.80179, 67.9516, -162.808
3.95137, -1, -43.3333, -9.53381, 27.108, 9.79637, 67.8635, -163.027
3.95929, -1, -43.4926, -9.61433, 27.1372, 9.79088, 67.7755, -163.246
3.96729, -1, -43.6518, -9.69483, 27.1664, 9.78531, 67.6875, -163.465
3.97536, -1, -43.811, -9.77536, 27.1957, 9.7797, 67.5995, -163.684
3.98331, -1, -43.97, -9.8558, 27.2249, 9.77406, 67.5119, -163.902
3.99133, -1, -44.1287, -9.93625, 27.2541, 9.76834, 67.4239, -164.121
3.99943, -1, -44.2873, -10.0167, 27.2833, 9.76277, 67.3362, -164.34
4.00744, -1, -44.4458, -10.0971, 27.3126, 9.75723, 67.2486, -164.558
4.01545, -1, -44.6044, -10.1775, 27.3418, 9.75168, 67.1608, -164.777
4.0234, -1, -44.7629, -10.2578, 27.3709, 9.74628, 67.0731, -164.995
4.03139, -1, -44.9215, -10.338, 27.4002, 9.74094, 66.9854, -165.213
4.03946, -1, -45.08, -10.4182, 27.4295, 9.73564, 66.8976, -165.432
4.04741, -1, -45.2382, -10.4983, 27.4586, 9.73043, 66.8099, -165.65
4.05532, -1, -45.3955, -10.5778, 27.4879, 9.72528, 66.7223, -165.868
4.0634, -1, -45.5505, -10.656, 27.5174, 9.72028, 66.635, -166.085
4.07148, -1, -45.7009, -10.7314, 27.5471, 9.71539, 66.5484, -166.301
4.07947, -1, -45.8453, -10.8027, 27.5765, 9.71065, 66.4637, -166.511
4.0878, -1, -45.9812, -10.8693, 27.605, 9.70612, 66.3833, -166.712
4.09556, -1, -46.1063, -10.9302, 27.6317, 9.70213, 66.3082, -166.898
4.10367, -1, -46.2179, -10.9841, 27.6554, 9.69857, 66.2419, -167.063
4.11181, -1, -46.3138, -11.0312, 27.6749, 9.69563, 66.185, -167.204
4.12041, -1, -46.3943, -11.0722, 27.6899, 9.6931, 66.1396, -167.316
4.12789, -1, -46.4601, -11.1074, 27.7003, 9.6911, 66.1058, -167.402
4.13646, -1, -46.5117, -11.1361, 27.7067, 9.68941, 66.0821, -167.461
4.14389, -1, -46.5505, -11.1577, 27.7101, 9.68824, 66.0667, -167.5
4.1524, -1, -46.5782, -11.1729, 27.7117, 9.68729, 66.0574, -167.523
4.15988, -1, -46.5886, -11.1832, 27.7124, 9.68654, 66.0523, -167.536
4.16849, -1, -46.6083, -11.1895, 27.7127, 9.68614, 66.0496, -167.542
4.17528, -1, -46.6119, -11.1914, 27.7128, 9.68602, 66.0489, -167.544
4.18331, 2, -46.6159, -11.1936, 27.7129, 9.68586, 66.048, -167.546
4.19247, 2, -46.6169, -11.1947, 27.713, 9.68571, 66.0475, -167.547
4.1995, 2, -46.6166, -11.1947, 27.713, 9.68569, 66.0474, -167.547
4.20742, 2, -46.6163, -11.1948, 27.713, 9.68562, 66.0473, -167.548
4.21528, 2, -46.6163, -11.1948, 27.7131, 9.68564, 66.0473, -167.548
4.22329, 2, -46.6168, -11.1949, 27.7131, 9.68557, 66.0472, -167.548
4.2326, 2, -46.6184, -11.1955, 27.7131, 9.68552, 66.0472, -167.548
4.23928, 2, -46.6192, -11.1957, 27.7131, 9.68551, 66.0472, -167.548
4.24881, 2, -46.6218, -11.1967, 27.7131, 9.68543, 66.0471, -167.548
4.25683, 2, -46.6231, -11.1974, 27.7131, 9.68536, 66.0471, -167.548
4.26499, 2, -46.6242, -11.1979, 27.7131, 9.68533, 66.0471, -167.548
4.27292, 2, -46.6248, -11.1982, 27.7131, 9.68532, 66.0471, -167.548
4.27934, 2, -46.625, -11.1983, 27.7131, 9.68532, 66.0471, -167.548
4.28891, 2, -46.6253, -11.1984, 27.7131, 9.68536, 66.0472, -167.548
4.29681, 2, -46.6253, -11.1984, 27.7131, 9.68535, 66.0472, -167.548
4.30335, 2, -46.6252, -11.1984, 27.7131, 9.68531, 66.0471, -167.548
4.31337, 2, -46.6247, -11.1982, 27.7131, 9.68534, 66.0472, -167.548
4.31929, 2, -46.6244, -11.1982, 27.7131, 9.68533, 66.0472, -167.548
4.3274, 2, -46.6239, -11.1981, 27.7131, 9.68532, 66.0472, -167.548
4.33528, 2, -46.6236, -11.1981, 27.7131, 9.68531, 66.0472, -167.548
4.34329, 2, -46.6235, -11.1982, 27.7131, 9.68529, 66.0471, -167.548
4.35134, 2, -46.6236, -11.1983, 27.7131, 9.68529, 66.0471, -167.548
4.35927, 2, -46.6237, -11.1985, 27.7131, 9.68528, 66.0471, -167.548
4.36734, 2, -46.6243, -11.1987, 27.7131, 9.68528, 66.0471, -167.548
4.37534, 2, -46.625, -11.1988, 27.7131, 9.68528, 66.0471, -167.547
4.38329, 2, -46.6254, -11.1989, 27.7131, 9.68528, 66.0471, -167.547
4.39128, 2, -46.6255, -11.1989, 27.7131, 9.68526, 66.0471, -167.547
4.39935, 2, -46.6255, -11.1989, 27.7131, 9.68526, 66.0472, -167.547
4.40734, 2, -46.6255, -11.1988, 27.7131, 9.68527, 66.0472, -167.547
4.41528, 2, -46.6254, -11.1987, 27.7131, 9.68526, 66.0472, -167.547
4.42342, 2, -46.6252, -11.1987, 27.7131, 9.68528, 66.0472, -167.547
4.43127, 2, -46.6249, -11.1986, 27.7131, 9.68526, 66.0472, -167.547
4.43928, 2, -46.6247, -11.1986, 27.7131, 9.68527, 66.0472, -167.547
4.4474, 2, -46.6245, -11.1986, 27.7131, 9.68528, 66.0472, -167.547
4.45528, 2, -46.6243, -11.1987, 27.7131, 9.68528, 66.0472, -167.547
4.4633, 2, -46.6242, -11.1987, 27.7131, 9.68526, 66.0472, -167.547
4.47135, 2, -46.6241, -11.1987, 27.7131, 9.68523, 66.0472, -167.547
4.47928, 2, -46.6241, -11.1988, 27.7131, 9.68526, 66.0472, -167.547
4.48736, 2, -46.624, -11.1988, 27.7131, 9.68529, 66.0472, -167.547
4.49539, 2, -46.624, -11.1988, 27.7131, 9.68528, 66.0472, -167.547
4.50337, 2, -46.624, -11.1987, 27.7131, 9.68528, 66.0472, -167.547
4.51137, 2, -46.624, -11.1987, 27.7131, 9.68529, 66.0472, -167.547
4.51944, 2, -46.6239, -11.1986, 27.7131, 9.68529, 66.0472, -167.547
4.52744, 2, -46.6239, -11.1986, 27.7131, 9.68528, 66.0472, -167.547
4.53538, 2, -46.6238, -11.1985, 27.7131, 9.68528, 66.0472, -167.546
4.54346, 2, -46.6237, -11.1985, 27.7131, 9.68525, 66.0472, -167.546
4.55128, 2, -46.6236, -11.1985, 27.7131, 9.68527, 66.0472, -167.546
4.5593, 2, -46.6235, -11.1985, 27.7131, 9.68527, 66.0472, -167.546
4.56743, 2, -46.6234, -11.1986, 27.7131, 9.68525, 66.0472, -167.546
4.57537, 2, -46.6233, -11.1986, 27.7131, 9.68526, 66.0472, -167.546
4.58345, 2, -46.6233, -11.1986, 27.7131, 9.68527, 66.0472, -167.546
4.59171, 2, -46.6232, -11.1986, 27.7131, 9.68526, 66.0472, -167.546
4.59957, 2, -46.6231, -11.1986, 27.7131, 9.68526, 66.0472, -167.546
4.60772, 2, -46.623, -11.1986, 27.7131, 9.68527, 66.0472, -167.546
4.61575, 2, -46.6229, -11.1986, 27.7131, 9.68528, 66.0472, -167.546
4.6244, 2, -46.6228, -11.1985, 27.7131, 9.68528, 66.0472, -167.546
4.63183, 2, -46.6227, -11.1984, 27.7131, 9.68528, 66.0472, -167.546
4.64038, 2, -46.6226, -11.1984, 27.7131, 9.68528, 66.0472, -167.546
4.64788, 2, -46.6225, -11.1984, 27.7131, 9.68528, 66.0472, -167.546
4.65638, 2, -46.6224, -11.1984, 27.7131, 9.68528, 66.0472, -167.546
4.66387, 2, -46.6223, -11.1984, 27.7131, 9.68528, 66.0473, -167.546
4.67238, 2, -46.6222, -11.1984, 27.7131, 9.68528, 66.0473, -167.546
4.67929, 2, -46.6221, -11.1984, 27.7131, 9.68528, 66.0473, -167.546
4.68836, 2, -46.622, -11.1984, 27.7131, 9.68528, 66.0473, -167.546
4.69526, 2, -46.6219, -11.1984, 27.7131, 9.68528, 66.0473, -167.546
4.7033, 2, -46.6218, -11.1984, 27.7131, 9.68526, 66.0473, -167.546
4.71129, 2, -46.6218, -11.1984, 27.7131, 9.68526, 66.0473, -167.546
4.71926, 2, -46.6217, -11.1984, 27.7131, 9.68527, 66.0473, -167.546
4.72736, 2, -46.6216, -11.1984, 27.7131, 9.68528, 66.0472, -167.546
4.73528, 2, -46.6215, -11.1984, 27.7131, 9.68528, 66.0472, -167.546
4.74473, 2, -46.6213, -11.1983, 27.7131, 9.68528, 66.0472, -167.546
4.75129, 2, -46.6213, -11.1983, 27.7131, 9.68526, 66.0472, -167.546
4.76086, 2, -46.6211, -11.1983, 27.7131, 9.68525, 66.0472, -167.546
4.76887, 2, -46.621, -11.1983, 27.7131, 9.68525, 66.0473, -167.546
4.77689, 2, -46.6209, -11.1983, 27.7131, 9.68528, 66.0473, -167.546
4.7833, 2, -46.6209, -11.1983, 27.7131, 9.68526, 66.0472, -167.546
4.79289, 2, -46.6208, -11.1983, 27.7131, 9.68523, 66.0473, -167.546
4.80027, 2, -46.6207, -11.1983, 27.7131, 9.68523, 66.0473, -167.546
4.80735, 2, -46.6207, -11.1983, 27.7131, 9.68526, 66.0473, -167.546
4.81629, 2, -46.6207, -11.1983, 27.7131, 9.68527, 66.0473, -167.546
4.82332, 2, -46.6207, -11.1983, 27.7131, 9.68525, 66.0473, -167.546
4.83129, 2, -46.6206, -11.1983, 27.7131, 9.68526, 66.0473, -167.546
4.8393, 2, -46.6206, -11.1982, 27.7131, 9.68527, 66.0473, -167.546
4.84737, 2, -46.6206, -11.1982, 27.7131, 9.68528, 66.0473, -167.546
4.85529, 2, -46.6205, -11.1982, 27.7131, 9.68528, 66.0473, -167.546
4.86327, 2, -46.6205, -11.1981, 27.7131, 9.68528, 66.0473, -167.546
4.8713, 2, -46.6204, -11.1981, 27.7131, 9.68528, 66.0473, -167.546
4.87928, 2, -46.6203, -11.1981, 27.7131, 9.68528, 66.0473, -167.546
4.88732, 2, -46.6202, -11.1981, 27.7131, 9.68528, 66.0473, -167.546
4.89533, 2, -46.6201, -11.1982, 27.7131, 9.68525, 66.0473, -167.546
4.90332, 2, -46.6201, -11.1981, 27.713, 9.68525, 66.0473, -167.546
4.91126, 2, -46.6201, -11.1981, 27.713, 9.68525, 66.0473, -167.546
4.91936, 2, -46.6201, -11.1981, 27.713, 9.68528, 66.0473, -167.546
4.92743, 2, -46.62, -11.1981, 27.7131, 9.68529, 66.0473, -167.546
4.93526, 2, -46.62, -11.1981, 27.7131, 9.68529, 66.0473, -167.546
4.94331, 2, -46.62, -11.1981, 27.7131, 9.68526, 66.0473, -167.546
4.95129, 2, -46.62, -11.198, 27.7131, 9.68524, 66.0473, -167.546
4.95926, 2, -46.6199, -11.198, 27.7131, 9.68525, 66.0473, -167.546
4.96738, 2, -46.6198, -11.198, 27.7131, 9.68527, 66.0473, -167.546
4.9753, 2, -46.6198, -11.198, 27.7131, 9.68527, 66.0474, -167.546
4.98328, 2, -46.6197, -11.198, 27.7131, 9.68528, 66.0474, -167.546
4.99135, 2, -46.6196, -11.198, 27.7131, 9.68528, 66.0473, -167.546
4.99933, 2, -46.6195, -11.198, 27.713, 9.68531, 66.0474, -167.545
5.0074, 2, -46.6194, -11.198, 27.7131, 9.68529, 66.0473, -167.546
5.0154, 2, -46.6193, -11.198, 27.7131, 9.68528, 66.0474, -167.546
5.02341, 2, -46.6193, -11.198, 27.7131, 9.68528, 66.0474, -167.546
5.03137, 2, -46.6193, -11.1979, 27.7131, 9.68526, 66.0474, -167.546
5.03941, 2, -46.6193, -11.1979, 27.713, 9.68529, 66.0474, -167.545
5.04747, 2, -46.6193, -11.1979, 27.713, 9.68528, 66.0474, -167.545
5.05527, 2, -46.6192, -11.1979, 27.7131, 9.68528, 66.0474, -167.546
5.06335, 2, -46.6192, -11.1978, 27.7131, 9.68528, 66.0474, -167.546
5.07133, 2, -46.6191, -11.1978, 27.713, 9.6853, 66.0474, -167.545
5.07931, 2, -46.619, -11.1978, 27.713, 9.6853, 66.0474, -167.545
5.08797, 2, -46.6189, -11.1978, 27.7131, 9.68529, 66.0474, -167.545
5.09632, 2, -46.6189, -11.1978, 27.713, 9.68528, 66.0474, -167.545
5.10354, 2, -46.6187, -11.1978, 27.713, 9.68526, 66.0474, -167.545
5.11195, 2, -46.6187, -11.1978, 27.713, 9.68526, 66.0474, -167.545
5.12033, 2, -46.6186, -11.1978, 27.713, 9.68527, 66.0474, -167.545
5.12776, 2, -46.6185, -11.1978, 27.713, 9.68532, 66.0474, -167.545
5.13636, 2, -46.6185, -11.1978, 27.713, 9.68531, 66.0475, -167.545
5.14382, 2, -46.6185, -11.1978, 27.713, 9.6853, 66.0474, -167.545
5.1524, 2, -46.6185, -11.1978, 27.713, 9.68528, 66.0475, -167.545
5.1601, 2, -46.6184, -11.1977, 27.713, 9.68528, 66.0474, -167.545
5.16792, 2, -46.6184, -11.1977, 27.713, 9.68532, 66.0475, -167.545
5.17525, 2, -46.6184, -11.1977, 27.713, 9.68533, 66.0475, -167.545
5.18465, 2, -46.6183, -11.1977, 27.713, 9.68531, 66.0474, -167.545
5.1923, 2, -46.6182, -11.1977, 27.713, 9.68531, 66.0474, -167.545
5.19928, 2, -46.6182, -11.1976, 27.713, 9.68534, 66.0474, -167.545
5.20731, 2, -46.6181, -11.1976, 27.713, 9.68532, 66.0474, -167.545
5.21528, 2, -46.6181, -11.1976, 27.7131, 9.6853, 66.0474, -167.545
5.2233, 2, -46.618, -11.1976, 27.713, 9.68529, 66.0474, -167.545
5.23126, 2, -46.6179, -11.1976, 27.713, 9.68531, 66.0475, -167.545
5.23928, 2, -46.6178, -11.1976, 27.713, 9.68529, 66.0475, -167.545
5.24734, 2, -46.6178, -11.1976, 27.713, 9.68533, 66.0475, -167.545
5.25676, 2, -46.6178, -11.1976, 27.713, 9.68532, 66.0475, -167.545
5.26516, 4, -46.6178, -11.1975, 27.713, 9.68533, 66.0475, -167.545
5.27129, 4, -46.6178, -11.1975, 27.713, 9.68533, 66.0475, -167.545
5.28121, 4, -46.6177, -11.1975, 27.713, 9.6853, 66.0475, -167.545
5.28734, 4, -46.6177, -11.1975, 27.713, 9.68531, 66.0474, -167.545
5.2968, 4, -46.6176, -11.1975, 27.713, 9.68534, 66.0475, -167.545
5.30481, 4, -46.6175, -11.1975, 27.713, 9.68534, 66.0475, -167.545
5.31128, 4, -46.6175, -11.1975, 27.713, 9.68531, 66.0475, -167.545
5.31928, 4, -46.6174, -11.1975, 27.713, 9.68534, 66.0475, -167.545
5.32733, 4, -46.6173, -11.1975, 27.713, 9.68532, 66.0475, -167.545
5.33528, 4, -46.6173, -11.1975, 27.713, 9.68531, 66.0475, -167.545
5.34332, 4, -46.6172, -11.1974, 27.713, 9.68532, 66.0474, -167.545
5.35125, 4, -46.6172, -11.1974, 27.713, 9.68531, 66.0475, -167.545
5.35928, 4, -46.6171, -11.1974, 27.713, 9.68529, 66.0474, -167.545
5.36752, 4, -46.6171, -11.1974, 27.713, 9.6853, 66.0475, -167.545
5.39146, 4, -46.617, -11.1973, 27.713, 9.68532, 66.0475, -167.545
5.39391, 4, -46.617, -11.1973, 27.713, 9.68531, 66.0475, -167.545
5.39582, 4, -46.617, -11.1973, 27.713, 9.68531, 66.0475, -167.545
5.40043, 4, -46.617, -11.1973, 27.713, 9.68532, 66.0475, -167.545
5.41044, 4, -46.617, -11.1973, 27.713, 9.68535, 66.0475, -167.545
5.4181, 4, -46.6171, -11.1973, 27.7131, 9.68534, 66.0474, -167.545
5.42324, 4, -46.6174, -11.1975, 27.7131, 9.68539, 66.0475, -167.545
5.43133, 4, -46.6189, -11.1984, 27.7138, 9.68618, 66.0479, -167.545
5.43939, 4, -46.6219, -11.2012, 27.7167, 9.69164, 66.0495, -167.544
5.44737, 4, -46.6269, -11.2068, 27.7242, 9.70841, 66.0543, -167.541
5.45525, 4, -46.6342, -11.2158, 27.7388, 9.74298, 66.0649, -167.534
5.4634, 5, -46.6447, -11.2292, 27.7633, 9.80398, 66.0835, -167.519
5.47132, 5, -46.659, -11.2478, 27.7997, 9.8956, 66.1116, -167.497
5.47925, 5, -46.6776, -11.2714, 27.8492, 10.022, 66.1511, -167.465
5.48749, 5, -46.7004, -11.2999, 27.9119, 10.1829, 66.2022, -167.425
5.49645, 5, -46.727, -11.3333, 27.9865, 10.3745, 66.2617, -167.376
5.50336, 5, -46.7573, -11.3715, 28.071, 10.5901, 66.3299, -167.321
5.51163, 5, -46.7904, -11.4138, 28.1634, 10.8232, 66.4022, -167.263
5.5203, 5, -46.8257, -11.4592, 28.2616, 11.068, 66.4784, -167.201
5.5274, 5, -46.8629, -11.5071, 28.3635, 11.3194, 66.5561, -167.137
5.53777, 5, -46.9018, -11.5567, 28.4676, 11.5746, 66.6349, -167.074
5.54602, 5, -46.9421, -11.6074, 28.5734, 11.8318, 66.713, -167.009
5.55126, 5, -46.9833, -11.6588, 28.6808, 12.0899, 66.7912, -166.945
5.55927, 5, -47.0248, -11.7106, 28.7893, 12.3485, 66.8688, -166.881
5.56747, 5, -47.0668, -11.7627, 28.8992, 12.6073, 66.9461, -166.817
5.57528, 5, -47.1089, -11.8149, 29.01, 12.8663, 67.0225, -166.753
5.5834, 5, -47.1511, -11.8673, 29.1216, 13.1253, 67.0983, -166.69
5.59179, 5, -47.1932, -11.9199, 29.2339, 13.3843, 67.1737, -166.626
5.59955, 5, -47.2351, -11.9725, 29.3473, 13.6435, 67.2482, -166.563
5.60769, 5, -47.2771, -12.0254, 29.4619, 13.903, 67.3223, -166.501
5.61561, 5, -47.3193, -12.0785, 29.5776, 14.1623, 67.3957, -166.438
5.62372, 5, -47.3618, -12.1319, 29.6942, 14.4218, 67.4688, -166.376
5.63183, 5, -47.4049, -12.1857, 29.8114, 14.6813, 67.5409, -166.315
5.64051, 5, -47.4486, -12.2399, 29.9294, 14.9408, 67.6125, -166.253
5.64783, 5, -47.4925, -12.2944, 30.0485, 15.2002, 67.6833, -166.193
5.65642, 5, -47.5366, -12.3493, 30.1686, 15.46, 67.7537, -166.133
5.66395, 5, -47.581, -12.4046, 30.2898, 15.7198, 67.8234, -166.072
5.67242, 5, -47.6256, -12.4602, 30.4119, 15.9796, 67.8925, -166.013
5.67979, 5, -47.648, -12.488, 30.4731, 16.1095, 67.9272, -165.983
5.68862, 5, -47.7153, -12.5718, 30.658, 16.4992, 68.0292, -165.894
5.69635, 5, -47.7605, -12.6279, 30.7827, 16.7589, 68.0972, -165.836
5.70323, 5, -47.7831, -12.6559, 30.8454, 16.8888, 68.1303, -165.807
5.71138, 5, -47.8284, -12.7122, 30.9718, 17.1489, 68.197, -165.749
5.72076, 5, -47.8739, -12.7969, 31.1628, 17.5389, 68.2957, -165.662
5.7273, 5, -47.9193, -12.8252, 31.2269, 17.6689, 68.3285, -165.634
5.73523, 5, -47.9644, -12.8821, 31.3558, 17.9291, 68.3938, -165.577
5.74461, 5, -48.0326, -12.9678, 31.5507, 18.3194, 68.4899, -165.491
5.75124, 5, -48.0555, -12.9966, 31.6162, 18.4494, 68.5219, -165.463
5.76186, 5, -48.1248, -13.0835, 31.8139, 18.84, 68.6165, -165.379
5.76753, 5, -48.148, -13.1126, 31.8803, 18.9703, 68.6482, -165.351
5.77686, 5, -48.2184, -13.2005, 32.0806, 19.3609, 68.7409, -165.268
5.78485, 5, -48.2654, -13.2594, 32.2153, 19.6213, 68.803, -165.213
5.79276, 5, -48.2889, -13.2889, 32.2829, 19.8818, 68.8637, -165.158
5.80094, 5, -48.3362, -13.3481, 32.4189, 20.1423, 68.9246, -165.104
5.80887, 5, -48.3835, -13.4074, 32.5559, 20.2725, 68.9549, -165.077
5.81624, 5, -48.4307, -13.4669, 32.6939, 20.5332, 69.0142, -165.024
5.8233, 5, -48.478, -13.5265, 32.8327, 20.794, 69.0738, -164.97
5.83126, 5, -48.5253, -13.5862, 32.9724, 21.0547, 69.1326, -164.917
5.8394, 5, -48.5718, -13.6459, 33.1128, 21.3153, 69.1908, -164.865
5.84725, 5, -48.6169, -13.7053, 33.2538, 21.5755, 69.2496, -164.812
5.85523, 5, -48.6601, -13.7642, 33.395, 21.834, 69.3071, -164.756
5.86338, 5, -48.7013, -13.8223, 33.5357, 22.0894, 69.3662, -164.696
5.87271, 6, -48.7397, -13.8792, 33.6745, 22.3397, 69.426, -164.627
5.87924, 6, -48.7743, -13.9344, 33.8104, 22.5818, 69.4875, -164.546
5.88828, 6, -48.8045, -13.9876, 33.9427, 22.8139, 69.5522, -164.45
5.89629, 6, -48.8299, -14.0385, 34.0704, 23.034, 69.6185, -164.335
5.90424, 6, -48.8499, -14.0871, 34.1929, 23.2415, 69.6892, -164.202
5.91237, 6, -48.8639, -14.1328, 34.3103, 23.4366, 69.7618, -164.049
5.92242, 7, -48.8741, -14.196, 34.4771, 23.7078, 69.8769, -163.789
5.92724, 7, -48.875, -14.2158, 34.5304, 23.7931, 69.9161, -163.695
5.93719, 7, -48.8733, -14.2534, 34.6339, 23.9578, 69.997, -163.496
5.94424, 7, -48.8671, -14.2886, 34.7338, 24.1154, 70.0796, -163.285
5.95224, 7, -48.857, -14.3218, 34.8308, 24.2668, 70.164, -163.065
5.95921, 8, -48.8438, -14.3535, 34.9251, 24.4133, 70.2499, -162.836
5.96805, 8, -48.8281, -14.3835, 35.0169, 24.5559, 70.3372, -162.601
5.97531, 8, -48.8102, -14.4124, 35.1065, 24.6953, 70.4258, -162.36
5.98332, 8, -48.7903, -14.4401, 35.1941, 24.8325, 70.5153, -162.115
5.9923, 8, -48.7691, -14.4672, 35.2803, 24.9682, 70.6059, -161.866
5.99929, 8, -48.747, -14.4934, 35.3653, 25.1028, 70.6973, -161.615
6.00736, 9, -48.724, -14.5189, 35.4495, 25.2367, 70.789, -161.362
6.01582, 9, -48.7003, -14.5438, 35.5329, 25.3703, 70.8815, -161.108
6.0243, 9, -48.6758, -14.5682, 35.6154, 25.5041, 70.9744, -160.853
6.03133, 9, -48.6507, -14.5923, 35.6971, 25.6382, 71.0669, -160.598
6.03954, 9, -48.6247, -14.6157, 35.7783, 25.7731, 71.1601, -160.343
6.04851, 10, -48.5982, -14.6388, 35.8591, 25.9087, 71.2535, -160.088
6.05623, 10, -48.5715, -14.6616, 35.9397, 26.0452, 71.3469, -159.833
6.06389, 10, -48.5444, -14.6841, 36.0201, 26.1824, 71.4405, -159.58
6.0723, 10, -48.5172, -14.7068, 36.1004, 26.3205, 71.5342, -159.327
6.07928, 10, -48.4898, -14.7292, 36.1804, 26.4597, 71.6276, -159.075
6.0885, 10, -48.4623, -14.7515, 36.2601, 26.5998, 71.7208, -158.825
6.09651, 11, -48.4349, -14.7741, 36.3396, 26.741, 71.8141, -158.575
6.10405, 11, -48.4075, -14.7965, 36.4189, 26.883, 71.9072, -158.326
6.11364, 11, -48.38, -14.819, 36.498, 27.0258, 71.9999, -158.078
6.12054, 11, -48.3525, -14.8416, 36.5769, 27.1693, 72.0929, -157.831
6.12766, 11, -48.3245, -14.8639, 36.6557, 27.3135, 72.1855, -157.585
6.13631, 12, -48.2961, -14.8863, 36.7344, 27.4586, 72.2778, -157.34
6.14623, 12, -48.2675, -14.9085, 36.8129, 27.6044, 72.37, -157.095
6.15233, 12, -48.2383, -14.9306, 36.8912, 27.7506, 72.4621, -156.852
6.15981, 12, -48.2088, -14.9529, 36.9692, 27.8971, 72.5537, -156.609
6.17025, 12, -48.1789, -14.975, 37.0468, 28.0441, 72.6453, -156.366
6.17655, 13, -48.1484, -14.9969, 37.124, 28.1911, 72.7369, -156.125
6.18381, 13, -48.1331, -15.008, 37.1625, 28.2648, 72.7823, -155.884
6.1926, 13, -48.0865, -15.0409, 37.2775, 28.4864, 72.9184, -155.643
6.20039, 13, -48.0549, -15.0629, 37.3538, 28.634, 73.009, -155.403
6.20727, 13, -48.0389, -15.074, 37.3918, 28.7079, 73.0542, -155.283
6.2195, 14, -47.9901, -15.1069, 37.5053, 28.9295, 73.1894, -154.923
6.22443, 14, -47.9569, -15.1288, 37.5804, 29.077, 73.2793, -154.685
6.23131, 14, -47.9401, -15.1398, 37.6178, 29.1509, 73.3243, -154.565
6.23925, 14, -47.9062, -15.1617, 37.6922, 29.2987, 73.4135, -154.327
6.24886, 14, -47.8537, -15.1943, 37.803, 29.5197, 73.5473, -153.97
6.25674, 14, -47.8177, -15.216, 37.8763, 29.6669, 73.6363, -153.732
6.26514, 15, -47.7811, -15.2374, 37.9492, 29.8137, 73.7248, -153.495
6.27151, 15, -47.7626, -15.2483, 37.9855, 29.8871, 73.7691, -153.377
6.27923, 15, -47.725, -15.2699, 38.0578, 30.0338, 73.8573, -153.14
6.28886, 15, -47.6672, -15.3021, 38.1656, 30.2531, 73.989, -152.785
6.29701, 15, -47.6476, -15.3239, 38.2369, 30.399, 74.0765, -152.55
6.30476, 15, -47.6081, -15.3348, 38.2724, 30.4718, 74.1201, -152.432
6.3122, 16, -47.568, -15.3564, 38.3429, 30.6171, 74.2071, -152.198
6.31939, 16, -47.5272, -15.3782, 38.413, 30.7622, 74.2934, -151.963
6.32722, 16, -47.4858, -15.4001, 38.4827, 30.9072, 74.3796, -151.73
6.33931, 16, -47.4224, -15.4329, 38.5867, 31.1242, 74.508, -151.381
6.34337, 16, -47.4009, -15.444, 38.6211, 31.1963, 74.5502, -151.265
6.35118, 17, -47.3573, -15.4661, 38.6898, 31.3405, 74.635, -151.033
6.35929, 17, -47.313, -15.4882, 38.7583, 31.4843, 74.719, -150.802
6.36722, 17, -47.2682, -15.5107, 38.8263, 31.6278, 74.8029, -150.572
6.3753, 17, -47.2224, -15.5332, 38.8942, 31.7713, 74.8858, -150.343
6.38323, 17, -47.1761, -15.5559, 38.9617, 31.9145, 74.9684, -150.114
6.39144, 17, -47.1291, -15.579, 39.0289, 32.0576, 75.0507, -149.887
6.39919, 18, -47.0814, -15.6021, 39.0958, 32.2002, 75.1318, -149.66
6.40722, 18, -47.0333, -15.6256, 39.1623, 32.3426, 75.2124, -149.435
6.4153, 18, -46.9846, -15.6493, 39.2286, 32.4849, 75.2923, -149.21
6.42323, 18, -46.9352, -15.6733, 39.2947, 32.6269, 75.3718, -148.987
6.43122, 18, -46.8851, -15.6978, 39.3607, 32.769, 75.45, -148.764
6.43952, 19, -46.8345, -15.7226, 39.4265, 32.9107, 75.528, -148.542
6.44833, 19, -46.7833, -15.7476, 39.492, 33.052, 75.6049, -148.322
6.45622, 19, -46.7312, -15.773, 39.5573, 33.1932, 75.6814, -148.102
6.46322, 19, -46.6785, -15.7986, 39.6224, 33.334, 75.7567, -147.884
6.47129, 19, -46.625, -15.8247, 39.6871, 33.4746, 75.8314, -147.667
6.47922, 19, -46.5708, -15.851, 39.7517, 33.6151, 75.9054, -147.451
6.48764, 20, -46.516, -15.8777, 39.8161, 33.7551, 75.9785, -147.236
6.49627, 20, -46.4606, -15.9049, 39.8802, 33.895, 76.0507, -147.023
6.50327, 20, -46.4043, -15.9324, 39.9442, 34.0343, 76.1223, -146.81
6.51481, 20, -46.3189, -15.9746, 40.0396, 34.2426, 76.2283, -146.493
6.51953, 20, -46.2901, -15.9888, 40.0714, 34.3119, 76.263, -146.388
6.52834, 21, -46.232, -16.0175, 40.1347, 34.4503, 76.3316, -146.179
6.53565, 21, -46.1733, -16.0466, 40.1977, 34.5884, 76.4002, -145.97
6.54333, 21, -46.1137, -16.0763, 40.2605, 34.7259, 76.4671, -145.763
6.55141, 21, -46.0533, -16.1061, 40.3229, 34.863, 76.5342, -145.556
6.55922, 21, -45.9922, -16.1364, 40.385, 34.9995, 76.5993, -145.351
6.56755, 22, -45.9301, -16.1669, 40.4467, 35.1355, 76.6649, -145.146
6.57623, 22, -45.8673, -16.1979, 40.508, 35.2712, 76.7287, -144.943
6.58334, 22, -45.8038, -16.2291, 40.5691, 35.4063, 76.7925, -144.74
6.59135, 22, -45.7395, -16.2607, 40.6298, 35.5408, 76.8552, -144.538
6.60017, 22, -45.6745, -16.2926, 40.6901, 35.6746, 76.9167, -144.337
6.60763, 22, -45.6086, -16.3248, 40.7502, 35.8078, 76.9782, -144.137
6.61643, 23, -45.5419, -16.3572, 40.8097, 35.9403, 77.0381, -143.937
6.6246, 23, -45.4742, -16.3898, 40.8687, 36.0722, 77.0985, -143.738
6.63174, 23, -45.4058, -16.4227, 40.9273, 36.2035, 77.157, -143.54
6.64031, 23, -45.3364, -16.4559, 40.9854, 36.334, 77.2151, -143.342
6.64781, 23, -45.2663, -16.4892, 41.0429, 36.4637, 77.273, -143.145
6.65659, 24, -45.1951, -16.5227, 41.0999, 36.5924, 77.3292, -142.948
6.66395, 24, -45.1231, -16.5564, 41.1562, 36.7202, 77.3862, -142.752
6.67293, 24, -45.0502, -16.5903, 41.212, 36.8473, 77.4415, -142.557
6.68039, 24, -44.9762, -16.6243, 41.2672, 36.9735, 77.4963, -142.362
6.69037, 24, -44.9014, -16.6584, 41.3217, 37.099, 77.5512, -142.168
6.69609, 24, -44.8636, -16.6756, 41.3487, 37.2233, 77.6044, -141.973
6.70521, 25, -44.7489, -16.727, 41.429, 37.3467, 77.658, -141.779
6.71122, 25, -44.7102, -16.7442, 41.4553, 37.4081, 77.6846, -141.682
6.71917, 25, -44.6322, -16.7785, 41.5075, 37.5297, 77.7364, -141.489
6.72849, 25, -44.5134, -16.8301, 41.5845, 37.7106, 77.814, -141.199
6.73529, 25, -44.4733, -16.8473, 41.6097, 37.7704, 77.8396, -141.103
6.74334, 26, -44.3922, -16.8817, 41.6597, 37.8893, 77.8897, -140.91
6.75126, 26, -44.3101, -16.916, 41.7088, 38.0073, 77.94, -140.718
6.76077, 26, -44.1851, -16.9672, 41.781, 38.1818, 78.0143, -140.43
6.76937, 26, -44.1005, -17.0014, 41.828, 38.297, 78.0625, -140.238
6.77529, 26, -44.0579, -17.0184, 41.8512, 38.3541, 78.0869, -140.142
6.78479, 26, -43.9286, -17.0694, 41.9197, 38.5235, 78.1588, -139.854
6.79299, 27, -43.8412, -17.1031, 41.9642, 38.6352, 78.2055, -139.662
6.79921, 27, -43.7971, -17.12, 41.9862, 38.6906, 78.2292, -139.567
6.80884, 27, -43.7082, -17.1535, 42.0294, 38.8554, 78.2993, -139.279
6.81777, 27, -43.6184, -17.187, 42.0718, 38.9097, 78.3219, -139.184
6.82421, 27, -43.5275, -17.2201, 42.1133, 39.0174, 78.3672, -138.993
6.83217, 28, -43.4355, -17.2531, 42.1537, 39.124, 78.4129, -138.801
6.8404, 28, -43.3426, -17.2858, 42.1934, 39.2294, 78.4574, -138.611
6.84804, 28, -43.2486, -17.3184, 42.2321, 39.3335, 78.5014, -138.419
6.8562, 28, -43.1537, -17.3506, 42.2698, 39.4367, 78.546, -138.228
6.86558, 28, -43.0094, -17.3985, 42.3247, 39.5892, 78.6109, -137.942
6.87394, 28, -42.9608, -17.4303, 42.36, 39.6897, 78.6535, -137.751
6.88028, 29, -42.8628, -17.446, 42.3773, 39.7393, 78.675, -137.656
6.89098, 29, -42.7139, -17.4928, 42.4279, 39.8867, 78.7383, -137.37
6.89628, 29, -42.6638, -17.5082, 42.4442, 39.9353, 78.759, -137.274
6.9042, 29, -42.5628, -17.539, 42.4761, 40.0314, 78.8004, -137.083
6.91126, 29, -42.4609, -17.5695, 42.5071, 40.1263, 78.8421, -136.893
6.91935, 30, -42.3581, -17.5996, 42.5372, 40.2201, 78.8829, -136.702
6.92721, 30, -42.2543, -17.6293, 42.5661, 40.3127, 78.9227, -136.512
6.93527, 30, -42.1497, -17.6587, 42.5942, 40.4042, 78.9628, -136.322
6.94328, 30, -42.0442, -17.6879, 42.6213, 40.4946, 79.0028, -136.131
6.95127, 30, -41.9376, -17.7165, 42.6474, 40.584, 79.0418, -135.941
6.9592, 30, -41.83, -17.7449, 42.6725, 40.672, 79.0805, -135.751
6.96736, 31, -41.7215, -17.7729, 42.6966, 40.759, 79.1196, -135.561
6.97619, 31, -41.6121, -17.8007, 42.7198, 40.845, 79.1582, -135.371
6.9832, 31, -41.5017, -17.8279, 42.7421, 40.9295, 79.1956, -135.18
6.99136, 31, -41.3904, -17.8548, 42.7634, 41.013, 79.2328, -134.991
6.99923, 31, -41.2782, -17.8813, 42.7837, 41.0952, 79.2703, -134.801
7.00726, 32, -41.1653, -17.9075, 42.8031, 41.1768, 79.3073, -134.611
7.01577, 32, -41.0516, -17.9334, 42.8215, 41.2568, 79.3434, -134.422
7.02506, 32, -40.937, -17.9588, 42.8387, 41.3362, 79.3793, -134.232
7.0313, 32, -40.8215, -17.9839, 42.8553, 41.4144, 79.4157, -134.043
7.03963, 32, -40.7052, -18.0085, 42.8708, 41.4914, 79.4515, -133.853
7.04857, 33, -40.588, -18.0328, 42.8851, 41.5673, 79.4863, -133.665
7.05527, 33, -40.4697, -18.0567, 42.8986, 41.6422, 79.5207, -133.476
7.0652, 33, -40.3507, -18.0801, 42.9112, 41.7162, 79.5554, -133.287
7.07129, 33, -40.231, -18.1031, 42.9227, 41.7887, 79.5898, -133.098
7.08007, 33, -40.1106, -18.1258, 42.9333, 41.8605, 79.6234, -132.909
7.08925, 33, -39.9893, -18.148, 42.9429, 41.9309, 79.6564, -132.721
7.09567, 34, -39.8671, -18.1699, 42.9515, 42.0005, 79.6897, -132.533
7.10425, 34, -39.744, -18.1912, 42.9595, 42.0689, 79.7231, -132.345
7.11152, 34, -39.62, -18.2121, 42.9664, 42.1363, 79.7556, -132.157
7.12019, 34, -39.4949, -18.2326, 42.9723, 42.203, 79.7874, -131.969
7.1276, 34, -39.3692, -18.2526, 42.9774, 42.2684, 79.8189, -131.781
7.13626, 35, -39.2429, -18.2722, 42.9815, 42.3332, 79.8509, -131.594
7.14511, 35, -39.1159, -18.2915, 42.9846, 42.3963, 79.8824, -131.407
7.15176, 35, -38.988, -18.3102, 42.9868, 42.4591, 79.9132, -131.22
7.1603, 35, -38.8594, -18.3285, 42.988, 42.5199, 79.9436, -131.032
7.1689, 35, -38.7299, -18.3463, 42.9885, 42.5808, 79.974, -130.846
7.1763, 35, -38.5995, -18.3638, 42.9884, 42.6397, 80.0047, -130.659
7.18378, 36, -38.534, -18.3722, 42.9881, 42.6688, 80.0348, -130.473
7.19314, 36, -38.3366, -18.397, 42.9856, 42.7556, 80.0642, -130.287
7.20023, 36, -38.2041, -18.4131, 42.9828, 42.8113, 80.093, -130.101
7.20725, 36, -38.1376, -18.421, 42.9811, 42.8393, 80.1074, -130.008
7.22245, 37, -37.8698, -18.4507, 42.9716, 42.9475, 80.1656, -129.637
7.22528, 37, -37.8024, -18.4578, 42.9686, 42.9741, 80.1798, -129.544
7.23124, 37, -37.7349, -18.4649, 42.9654, 43.0007, 80.1939, -129.452
7.23922, 37, -37.5993, -18.4789, 42.9582, 43.0527, 80.2216, -129.267
7.24859, 37, -37.3944, -18.4985, 42.9455, 43.1284, 80.263, -128.99
7.2552, 37, -37.3257, -18.5048, 42.9409, 43.1536, 80.2768, -128.898
7.2653, 37, -37.1188, -18.5231, 42.9256, 43.2263, 80.3181, -128.621
7.2714, 38, -37.0495, -18.529, 42.92, 43.2499, 80.3315, -128.529
7.28082, 38, -36.8405, -18.5463, 42.9017, 43.3205, 80.3709, -128.253
7.28882, 38, -36.7002, -18.5569, 42.8885, 43.3655, 80.3966, -128.07
7.2976, 38, -36.5591, -18.5668, 42.8745, 43.4098, 80.4227, -127.887
7.30319, 38, -36.4882, -18.5716, 42.8671, 43.4319, 80.4358, -127.795
7.31216, 39, -36.346, -18.5809, 42.8515, 43.4751, 80.4616, -127.612
7.32273, 39, -36.1313, -18.594, 42.8263, 43.5367, 80.4993, -127.338
7.32825, 39, -36.0595, -18.5982, 42.8175, 43.5571, 80.5117, -127.247
7.33775, 39, -35.843, -18.61, 42.7897, 43.6172, 80.5486, -126.975
7.34328, 39, -35.7705, -18.6136, 42.7801, 43.6364, 80.561, -126.884
7.35226, 39, -35.6251, -18.6203, 42.7602, 43.674, 80.586, -126.702
7.35919, 40, -35.479, -18.6265, 42.7392, 43.7112, 80.6105, -126.521
7.36734, 40, -35.3323, -18.6322, 42.7173, 43.7478, 80.6344, -126.339
7.37616, 40, -35.1848, -18.6377, 42.6946, 43.7827, 80.6577, -126.159
7.38431, 40, -35.0368, -18.6425, 42.6709, 43.8164, 80.6806, -125.978
7.3914, 40, -34.8881, -18.6469, 42.6466, 43.8497, 80.7037, -125.798
7.39916, 41, -34.7388, -18.6508, 42.6213, 43.8826, 80.727, -125.618
7.40718, 41, -34.5891, -18.6542, 42.5952, 43.914, 80.7499, -125.439
7.41521, 41, -34.4388, -18.6572, 42.5684, 43.9441, 80.7721, -125.259
7.4233, 41, -34.2877, -18.6598, 42.5406, 43.9733, 80.7941, -125.08
7.43119, 41, -34.136, -18.662, 42.512, 44.0021, 80.8156, -124.902
7.43938, 42, -33.9838, -18.6637, 42.4826, 44.03, 80.8371, -124.724
7.44753, 42, -33.8309, -18.665, 42.4524, 44.0567, 80.8587, -124.546
7.45626, 42, -33.6773, -18.6658, 42.4215, 44.0821, 80.8805, -124.368
7.46425, 42, -33.5231, -18.6662, 42.3896, 44.1065, 80.9017, -124.19
7.47119, 42, -33.3682, -18.6663, 42.3569, 44.1302, 80.9224, -124.013
7.47925, 42, -33.2127, -18.6663, 42.3236, 44.1532, 80.9426, -123.836
7.48828, 43, -33.0566, -18.6659, 42.2894, 44.1754, 80.9625, -123.66
7.49949, 43, -32.8211, -18.6643, 42.2367, 44.2064, 80.9921, -123.396
7.5032, 43, -32.7424, -18.6635, 42.2188, 44.2162, 81.0021, -123.308
7.51318, 43, -32.5845, -18.6616, 42.1823, 44.2349, 81.022, -123.132
7.51933, 43, -32.4259, -18.6591, 42.1449, 44.2525, 81.0414, -122.957
7.52748, 44, -32.2667, -18.6561, 42.1069, 44.2694, 81.0604, -122.782
7.53528, 44, -32.1069, -18.6525, 42.068, 44.2856, 81.079, -122.608
7.54354, 44, -31.9467, -18.6484, 42.0282, 44.3011, 81.0973, -122.434
7.55236, 44, -31.7859, -18.6439, 41.9878, 44.3157, 81.1152, -122.26
7.55978, 44, -31.6248, -18.6387, 41.9466, 44.3291, 81.1332, -122.086
7.56744, 44, -31.4632, -18.633, 41.9046, 44.3413, 81.1512, -121.913
7.57615, 45, -31.301, -18.6266, 41.8618, 44.3523, 81.1694, -121.74
7.58405, 45, -31.1381, -18.6199, 41.8182, 44.3622, 81.1871, -121.567
7.59218, 45, -30.9745, -18.6127, 41.774, 44.371, 81.2044, -121.395
7.59935, 45, -30.8103, -18.605, 41.7288, 44.3788, 81.2212, -121.223
7.60746, 45, -30.6454, -18.5966, 41.683, 44.3855, 81.2377, -121.052
7.61599, 46, -30.4797, -18.5875, 41.6364, 44.3912, 81.2539, -120.88
7.62358, 46, -30.3135, -18.5781, 41.589, 44.3959, 81.27, -120.709
7.63168, 46, -30.1468, -18.5681, 41.5408, 44.3996, 81.2862, -120.539
7.64029, 46, -29.9795, -18.5577, 41.4917, 44.4022, 81.3026, -120.368
7.6486, 46, -29.8117, -18.5468, 41.442, 44.4039, 81.3188, -120.198
7.65574, 46, -29.6431, -18.5352, 41.3914, 44.4048, 81.3349, -120.029
7.66447, 47, -29.4738, -18.5229, 41.34, 44.4052, 81.3505, -119.859
7.67276, 47, -29.304, -18.5099, 41.2878, 44.405, 81.3658, -119.689
7.68028, 47, -29.1335, -18.4964, 41.2348, 44.4039, 81.3809, -119.52
7.6887, 47, -29.048, -18.4896, 41.2079, 44.4029, 81.3958, -119.351
7.69626, 47, -28.7911, -18.4678, 41.1262, 44.3977, 81.4107, -119.182
7.70403, 48, -28.7051, -18.4602, 41.0986, 44.3953, 81.4257, -119.014
7.71136, 48, -28.5328, -18.4445, 41.0427, 44.3896, 81.4332, -118.93
7.72081, 48, -28.2733, -18.4204, 40.9573, 44.3789, 81.456, -118.678
7.72717, 48, -28.1865, -18.412, 40.9285, 44.3747, 81.4637, -118.594
7.7376, 48, -27.9254, -18.3855, 40.8406, 44.3602, 81.4863, -118.342
7.74557, 48, -27.7504, -18.3674, 40.7809, 44.349, 81.5011, -118.175
7.75117, 49, -27.6626, -18.358, 40.7508, 44.3428, 81.5083, -118.092
7.76064, 49, -27.3979, -18.3287, 40.6589, 44.322, 81.53, -117.841
7.7688, 49, -27.2205, -18.3083, 40.5965, 44.3062, 81.5443, -117.674
7.77751, 49, -27.0426, -18.2872, 40.5332, 44.2889, 81.5587, -117.507
7.78328, 49, -26.9535, -18.2764, 40.5012, 44.2797, 81.5659, -117.424
7.79372, 50, -26.6852, -18.2428, 40.4041, 44.2509, 81.5882, -117.174
7.79917, 50, -26.5954, -18.2312, 40.3712, 44.2408, 81.5957, -117.091
7.80883, 50, -26.4152, -18.1955, 40.2714, 44.2085, 81.6186, -116.841
7.81616, 50, -26.2343, -18.1833, 40.2377, 44.1971, 81.6262, -116.758
7.82324, 50, -26.0528, -18.1582, 40.1696, 44.1729, 81.6413, -116.592
7.83219, 51, -25.8704, -18.1323, 40.1006, 44.147, 81.6564, -116.426
7.84032, 51, -25.6875, -18.1059, 40.0306, 44.1202, 81.6715, -116.26
7.84725, 51, -25.5043, -18.0784, 39.9596, 44.0924, 81.6866, -116.094
7.85517, 51, -25.3207, -18.0504, 39.8877, 44.0634, 81.7019, -115.928
7.86317, 51, -25.1368, -18.0215, 39.8148, 44.0326, 81.7177, -115.763
7.87117, 51, -24.9521, -17.9919, 39.7411, 43.9998, 81.7337, -115.597
7.87924, 52, -24.7665, -17.9615, 39.6664, 43.9662, 81.7503, -115.431
7.88731, 52, -24.5798, -17.9304, 39.5909, 43.9316, 81.7669, -115.266
7.8977, 52, -24.298, -17.8819, 39.4758, 43.8764, 81.7918, -115.017
7.90415, 52, -24.2038, -17.8654, 39.437, 43.857, 81.8, -114.934
7.91368, 52, -24.0147, -17.8317, 39.3585, 43.8179, 81.8248, -114.686
7.91934, 53, -23.8251, -17.7973, 39.2791, 43.7779, 81.8332, -114.603
7.92823, 53, -23.6348, -17.762, 39.1987, 43.7357, 81.85, -114.438
7.93518, 53, -23.444, -17.7259, 39.1173, 43.6917, 81.8674, -114.272
7.94434, 53, -23.2526, -17.689, 39.0351, 43.6475, 81.8853, -114.106
7.95218, 53, -23.0602, -17.6513, 38.952, 43.6012, 81.9035, -113.941
7.96017, 53, -22.8668, -17.6129, 38.868, 43.5532, 81.9219, -113.776
7.96732, 54, -22.6728, -17.5737, 38.783, 43.5047, 81.9401, -113.611
7.97616, 54, -22.4784, -17.5337, 38.6971, 43.4541, 81.9585, -113.446
7.98323, 54, -22.2836, -17.4928, 38.6101, 43.4015, 81.9771, -113.28
7.99124, 54, -22.0883, -17.4512, 38.5221, 43.3486, 81.996, -113.115
7.99918, 54, -21.8926, -17.4088, 38.4333, 43.293, 82.0154, -112.949
8.00723, 55, -21.6958, -17.3655, 38.3437, 43.2366, 82.0355, -112.784
8.0154, 55, -21.4981, -17.3215, 38.2533, 43.179, 82.0558, -112.618
8.02414, 55, -21.2993, -17.2765, 38.162, 43.1188, 82.076, -112.453
8.03133, 55, -21.0993, -17.2308, 38.0697, 43.0583, 82.0963, -112.288
8.03973, 55, -20.8987, -17.1844, 37.9764, 42.995, 82.1166, -112.123
8.04822, 55, -20.6975, -17.137, 37.8822, 42.9311, 82.137, -111.958
8.05536, 56, -20.4959, -17.0889, 37.787, 42.865, 82.158, -111.793
8.06413, 56, -20.2937, -17.0402, 37.6911, 42.7975, 82.1797, -111.628
8.07395, 56, -20.0903, -16.9907, 37.5945, 42.7287, 82.2016, -111.463
8.07929, 56, -19.8859, -16.9405, 37.497, 42.6581, 82.2233, -111.299
8.08877, 56, -19.6806, -16.8897, 37.3987, 42.5866, 82.2452, -111.134
8.09831, 57, -19.475, -16.8381, 37.2994, 42.5127, 82.2671, -110.969
8.1034, 57, -19.2689, -16.7858, 37.199, 42.4376, 82.2894, -110.804
8.11141, 57, -19.0625, -16.7329, 37.0979, 42.3608, 82.3123, -110.639
8.12017, 57, -18.8558, -16.6793, 36.9961, 42.2822, 82.3358, -110.474
8.12755, 57, -18.6484, -16.6249, 36.8936, 42.2021, 82.3593, -110.31
8.13622, 57, -18.4397, -16.5698, 36.7904, 42.1201, 82.3826, -110.145
8.14506, 58, -18.2296, -16.5139, 36.6862, 42.0369, 82.406, -109.981
8.15322, 58, -18.0181, -16.4573, 36.5811, 41.9516, 82.4296, -109.816
8.1597, 58, -17.8056, -16.3999, 36.475, 41.8649, 82.4538, -109.652
8.17016, 58, -17.5928, -16.3419, 36.3682, 41.7767, 82.4787, -109.488
8.17626, 58, -17.3793, -16.2832, 36.261, 41.6867, 82.5036, -109.324
8.18394, 59, -17.2723, -16.2537, 36.2071, 41.595, 82.5284, -109.16
8.19319, 59, -16.9498, -16.1642, 36.0443, 41.5015, 82.5534, -108.996
8.20323, 59, -16.7335, -16.1037, 35.9345, 41.4063, 82.5787, -108.832
8.20825, 59, -16.5164, -16.0426, 35.8237, 41.3093, 82.6047, -108.668
8.21532, 59, -16.4074, -16.0117, 35.7681, 41.26, 82.618, -108.585
8.22313, 59, -16.189, -15.9496, 35.6564, 41.1605, 82.6446, -108.421
8.23121, 60, -15.9703, -15.8868, 35.5442, 41.0589, 82.671, -108.257
8.24046, 60, -15.6429, -15.7914, 35.3745, 40.9035, 82.7106, -108.012
8.24722, 60, -15.5335, -15.7591, 35.3174, 40.8508, 82.724, -107.93
8.25742, 60, -15.2024, -15.6612, 35.1448, 40.6899, 82.7655, -107.684
8.26335, 60, -15.0912, -15.6282, 35.0869, 40.6356, 82.7795, -107.602
8.27129, 61, -14.8677, -15.5616, 34.9706, 40.525, 82.8075, -107.438
8.28167, 61, -14.5304, -15.4604, 34.7952, 40.3558, 82.8496, -107.192
8.28877, 61, -14.3042, -15.3921, 34.6774, 40.2407, 82.8782, -107.028
8.29675, 61, -14.0769, -15.3232, 34.5586, 40.1238, 82.9079, -106.865
8.30472, 61, -13.9629, -15.2885, 34.4989, 40.0051, 82.9378, -106.701
8.31293, 62, -13.6197, -15.1832, 34.3184, 39.8845, 82.9677, -106.536
8.31941, 62, -13.5048, -15.1477, 34.258, 39.8234, 82.9827, -106.454
8.32823, 62, -13.2742, -15.0763, 34.1368, 39.7, 83.0128, -106.29
8.33772, 62, -12.9279, -14.9679, 33.9535, 39.5107, 83.0599, -106.043
8.34322, 62, -12.8126, -14.9313, 33.8919, 39.4467, 83.0759, -105.961
8.35116, 62, -12.5817, -14.8576, 33.768, 39.317, 83.1075, -105.796
8.35916, 63, -12.3498, -14.783, 33.6434, 39.1856, 83.1395, -105.632
8.3673, 63, -12.1165, -14.7077, 33.5182, 39.0522, 83.1723, -105.467
8.37823, 63, -11.7644, -14.5933, 33.3294, 38.8483, 83.2235, -105.219
8.38316, 63, -11.6463, -14.5547, 33.266, 38.7792, 83.2406, -105.137
8.39139, 63, -11.4087, -14.477, 33.1385, 38.6395, 83.2747, -104.971
8.40018, 64, -11.1695, -14.3984, 33.0101, 38.4978, 83.3094, -104.806
8.4082, 64, -10.9291, -14.319, 32.8811, 38.3542, 83.3454, -104.64
8.41519, 64, -10.6871, -14.2388, 32.7514, 38.2087, 83.382, -104.474
8.42322, 64, -10.4434, -14.1575, 32.6211, 38.0609, 83.4186, -104.308
8.43117, 64, -10.1983, -14.0754, 32.4899, 37.9109, 83.4558, -104.142
8.43931, 64, -9.95326, -13.9925, 32.358, 37.7588, 83.4945, -103.975
8.44996, 65, -9.70863, -13.9086, 32.2254, 37.6044, 83.553, -103.724
8.4563, 65, -9.46413, -13.8238, 32.0919, 37.4481, 83.5725, -103.641
8.46416, 65, -9.21932, -13.7381, 31.9578, 37.2898, 83.6128, -103.473
8.47116, 65, -8.97357, -13.6513, 31.823, 37.1294, 83.6545, -103.305
8.47916, 65, -8.72605, -13.5636, 31.6875, 36.9666, 83.6963, -103.137
8.4882, 66, -8.47641, -13.475, 31.5514, 36.8019, 83.7386, -102.969
8.49637, 66, -8.22559, -13.3855, 31.4144, 36.6351, 83.7826, -102.801
8.50414, 66, -7.97376, -13.295, 31.2768, 36.4663, 83.8272, -102.632
8.5131, 66, -7.71986, -13.2036, 31.1384, 36.2955, 83.8717, -102.463
8.52016, 66, -7.46375, -13.1113, 30.9997, 36.1223, 83.9178, -102.294
8.52724, 66, -7.20594, -13.0179, 30.8602, 35.947, 83.9648, -102.124
8.53525, 67, -6.94731, -12.9236, 30.72, 35.7697, 84.012, -101.953
8.54512, 67, -6.68855, -12.8283, 30.579, 35.5903, 84.0608, -101.783
8.55127, 67, -6.42995, -12.7319, 30.4375, 35.4086, 84.1107, -101.612
8.55926, 67, -6.17141, -12.6346, 30.2956, 35.2248, 84.1604, -101.441
8.56732, 67, -5.91213, -12.5363, 30.1532, 35.039, 84.2119, -101.269
8.57516, 68, -5.6513, -12.4371, 30.01, 34.8511, 84.2643, -101.097
8.58321, 68, -5.38939, -12.3369, 29.8663, 34.6612, 84.3168, -100.925
8.59166, 68, -5.12654, -12.2357, 29.722, 34.4691, 84.3715, -100.753
8.60021, 68, -4.86201, -12.1335, 29.5774, 34.2749, 84.4262, -100.58
8.60734, 68, -4.59528, -12.0303, 29.4323, 34.0787, 84.4819, -100.407
8.61592, 68, -4.32663, -11.9262, 29.2867, 33.8806, 84.5392, -100.234
8.62353, 69, -4.05617, -11.8211, 29.1406, 33.6803, 84.5964, -100.06
8.63164, 69, -3.78449, -11.7153, 28.9944, 33.478, 84.6558, -99.8861
8.63963, 69, -3.513, -11.6085, 28.8478, 33.2737, 84.7153, -99.7114
8.64845, 69, -3.24165, -11.5005, 28.7006, 33.0676, 84.7758, -99.5364
8.65573, 69, -2.96958, -11.3914, 28.5529, 32.8597, 84.8379, -99.3613
8.66447, 70, -2.69647, -11.2815, 28.4051, 32.6496, 84.9, -99.1861
8.67337, 70, -2.42263, -11.1706, 28.2571, 32.4377, 84.9643, -99.0106
8.67977, 70, -2.14803, -11.0589, 28.1087, 32.2239, 85.0282, -98.8343
8.68833, 70, -1.87241, -10.9463, 27.96, 32.0082, 85.0941, -98.6579
8.69573, 70, -1.73421, -10.8897, 27.8856, 31.8997, 85.1274, -98.5696
8.70424, 71, -1.31732, -10.7181, 27.6623, 31.5713, 85.2281, -98.3041
8.71129, 71, -1.17721, -10.6604, 27.588, 31.461, 85.2625, -98.2156
8.72067, 71, -0.89555, -10.5443, 27.3644, 31.1273, 85.3661, -97.9496
8.72714, 71, -0.613428, -10.4274, 27.2897, 31.0151, 85.4016, -97.8607
8.73824, 71, -0.189726, -10.2504, 27.0655, 30.676, 85.5083, -97.5932
8.74598, 71, 0.0935834, -10.1312, 26.9162, 30.448, 85.5812, -97.4144
8.75259, 72, 0.377727, -10.0111, 26.7667, 30.2183, 85.6544, -97.2352
8.75923, 72, 0.520048, -9.95058, 26.6919, 30.1028, 85.6918, -97.1456
8.76716, 72, 0.805145, -9.82896, 26.5424, 29.8708, 85.7666, -96.9663
8.77665, 72, 1.23317, -9.64486, 26.3183, 29.5197, 85.8812, -96.6967
8.78476, 72, 1.51954, -9.52107, 26.1691, 29.2839, 85.9585, -96.5164
8.79349, 73, 1.80776, -9.39643, 26.0198, 29.0465, 86.037, -96.3358
8.7992, 73, 1.9525, -9.33372, 25.9452, 28.9273, 86.0767, -96.2454
8.8089, 73, 2.38773, -9.14385, 25.7217, 28.5677, 86.1971, -95.974
8.81612, 73, 2.53293, -9.08011, 25.6475, 28.447, 86.2377, -95.8835
8.82474, 73, 2.82383, -8.95188, 25.4989, 28.2048, 86.32, -95.7021
8.83219, 73, 3.11523, -8.82275, 25.3504, 27.9616, 86.4036, -95.52
8.84107, 74, 3.40774, -8.69275, 25.2021, 27.7171, 86.5304, -95.2462
8.84736, 74, 3.70127, -8.56158, 25.0542, 27.4712, 86.5733, -95.1547
8.8562, 74, 3.99469, -8.42932, 24.9068, 27.2241, 86.6599, -94.9716
8.86418, 74, 4.28787, -8.29605, 24.7596, 26.9759, 86.7478, -94.7882
8.87114, 74, 4.5816, -8.16183, 24.6124, 26.7268, 86.8367, -94.6047
8.87917, 75, 4.87627, -8.02684, 24.4656, 26.4768, 86.9266, -94.4205
8.88731, 75, 5.17181, -7.89089, 24.3195, 26.2259, 87.0179, -94.236
8.89768, 75, 5.61637, -7.68465, 24.101, 25.8478, 87.1571, -93.9585
8.90412, 75, 5.76452, -7.61534, 24.0284, 25.7214, 87.204, -93.8659
8.914, 75, 6.20865, -7.40592, 23.8109, 25.3413, 87.3467, -93.5877
8.9193, 75, 6.35706, -7.33569, 23.7387, 25.2144, 87.3948, -93.4948
8.92819, 76, 6.65483, -7.19442, 23.5947, 24.9597, 87.4921, -93.3085
8.93884, 76, 7.10139, -6.98016, 23.3797, 24.5768, 87.6404, -93.0282
8.94419, 76, 7.24997, -6.9082, 23.3082, 24.449, 87.6904, -92.9345
8.95214, 76, 7.54715, -6.76337, 23.1656, 24.1928, 87.7916, -92.7468
8.96012, 76, 7.84468, -6.6176, 23.0236, 23.9362, 87.8941, -92.559
8.9673, 77, 8.14303, -6.471, 22.8823, 23.6793, 87.9979, -92.3707
8.97719, 77, 8.44201, -6.32309, 22.7416, 23.4222, 88.1031, -92.1818
8.98321, 77, 8.74027, -6.17374, 22.6015, 23.1648, 88.2095, -91.9926
8.99121, 77, 9.03783, -6.02336, 22.462, 22.9076, 88.3173, -91.8031
8.99916, 77, 9.33568, -5.87189, 22.3231, 22.6503, 88.4266, -91.613
9.00715, 77, 9.6343, -5.7194, 22.185, 22.393, 88.5368, -91.4228
9.0154, 78, 9.93279, -5.56539, 22.0475, 22.1359, 88.6487, -91.2318
9.02423, 78, 10.2308, -5.41001, 21.9107, 21.8789, 88.762, -91.0401
9.03123, 78, 10.5278, -5.25346, 21.7745, 21.6222, 88.8762, -90.8481
9.03953, 78, 10.8244, -5.09604, 21.6391, 21.3657, 88.9922, -90.6553
9.04723, 78, 11.1217, -4.93772, 21.5044, 21.1098, 89.1092, -90.4624
9.05531, 79, 11.4192, -4.77786, 21.3705, 20.8544, 89.2277, -90.2691
9.06413, 79, 11.7157, -4.61665, 21.2373, 20.5991, 89.3477, -90.0751
9.07201, 79, 12.0112, -4.45443, 21.1048, 20.3446, 89.4688, -89.8803
9.07923, 79, 12.3064, -4.29143, 20.9731, 20.0908, 89.5916, -89.6852
9.08878, 79, 12.601, -4.12704, 20.8422, 19.8379, 89.7156, -89.4895
9.09799, 80, 12.8954, -3.96067, 20.7121, 19.5857, 89.8412, -89.2934
9.10412, 80, 13.1888, -3.79278, 20.5828, 19.3345, 89.9679, -89.097
9.11134, 80, 13.4808, -3.62409, 20.4543, 19.0842, 90.0961, -88.8997
9.11944, 80, 13.7721, -3.45443, 20.3265, 18.8349, 90.2259, -88.7016
9.12844, 80, 14.0638, -3.28281, 20.1996, 18.5868, 90.3569, -88.5029
9.13552, 80, 14.3554, -3.10939, 20.0736, 18.34, 90.4895, -88.3033
9.14454, 81, 14.6458, -2.93492, 19.9484, 18.0942, 90.6234, -88.1035
9.15271, 81, 14.9348, -2.75979, 19.8239, 17.8498, 90.7589, -87.9029
9.16023, 81, 15.2227, -2.58308, 19.7002, 17.6069, 90.8955, -87.7017
9.16836, 81, 15.5096, -2.40431, 19.5773, 17.3654, 91.0339, -87.4998
9.17571, 81, 15.7959, -2.22415, 19.4552, 17.1253, 91.1736, -87.2972
9.18446, 82, 16.0809, -2.04342, 19.334, 16.8867, 91.3149, -87.094
9.19198, 82, 16.2226, -1.86163, 19.2135, 16.6499, 91.4577, -86.8903
9.19911, 82, 16.5049, -1.76996, 19.1534, 16.5322, 91.5298, -86.7879
9.20822, 82, 16.9271, -1.49169, 18.9744, 16.1813, 91.748, -86.4795
9.21518, 82, 17.0677, -1.39833, 18.9152, 16.0654, 91.8215, -86.3763
9.22318, 82, 17.3483, -1.21093, 18.7975, 15.8351, 91.9697, -86.1694
9.23234, 83, 17.7669, -0.926347, 18.6225, 15.4931, 92.1948, -85.8577
9.23925, 83, 17.9055, -0.830334, 18.5644, 15.38, 92.2706, -85.7535
9.24912, 83, 18.3179, -0.540659, 18.3911, 15.0444, 92.5004, -85.4391
9.25514, 83, 18.4545, -0.443622, 18.3337, 14.9336, 92.5778, -85.3338
9.26453, 83, 18.727, -0.149723, 18.1631, 14.6045, 92.8121, -85.0169
9.27301, 84, 19.132, 0.0482469, 18.0503, 14.3878, 92.9701, -84.8047
9.28154, 84, 19.3994, 0.247165, 17.9381, 14.1736, 93.1298, -84.5918
9.28969, 84, 19.666, 0.447756, 17.8264, 13.962, 93.2908, -84.3776
9.29526, 84, 19.799, 0.548893, 17.7708, 13.8569, 93.3719, -84.2701
9.30475, 84, 20.1972, 0.854824, 17.6053, 13.5456, 93.6173, -83.9464
9.31265, 84, 20.3294, 0.957217, 17.5506, 13.4431, 93.7828, -83.7295
9.32231, 85, 20.7236, 1.26682, 17.388, 13.1396, 93.9495, -83.5118
9.32876, 85, 20.8538, 1.37104, 17.334, 13.0398, 94.0334, -83.4026
9.33611, 85, 21.112, 1.5806, 17.2264, 12.842, 94.2021, -83.1832
9.34414, 85, 21.3681, 1.79138, 17.1194, 12.6471, 94.372, -82.9631
9.35217, 85, 21.6226, 2.00391, 17.0133, 12.4552, 94.5434, -82.742
9.36009, 86, 21.8747, 2.21844, 16.9083, 12.266, 94.7158, -82.5202
9.36836, 86, 22.1241, 2.43366, 16.8043, 12.0799, 94.8897, -82.2971
9.3751, 86, 22.3714, 2.64995, 16.7009, 11.8963, 95.0649, -82.073
9.38314, 86, 22.6175, 2.86827, 16.598, 11.7161, 95.2412, -81.848
9.39112, 86, 22.8625, 3.08782, 16.4957, 11.5387, 95.4189, -81.6222
9.40042, 87, 23.1065, 3.30859, 16.3945, 11.3644, 95.5973, -81.3957
9.40715, 87, 23.3494, 3.53137, 16.2945, 11.1932, 95.777, -81.1682
9.41788, 87, 23.7095, 3.86779, 16.1462, 10.942, 96.0484, -80.8251
9.4233, 87, 23.8278, 3.98008, 16.0972, 10.8599, 96.1391, -80.7103
9.43211, 87, 24.0624, 4.20563, 15.9996, 10.698, 96.3213, -80.4803
9.43912, 87, 24.2947, 4.43242, 15.9027, 10.5393, 96.504, -80.2498
9.44835, 88, 24.525, 4.65948, 15.8069, 10.3837, 96.6873, -80.0182
9.45611, 88, 24.7526, 4.88738, 15.7123, 10.231, 96.8711, -79.7857
9.46322, 88, 24.978, 5.11683, 15.6188, 10.0818, 97.0553, -79.5525
9.47218, 88, 25.2015, 5.34681, 15.5263, 9.93566, 97.24, -79.3186
9.47912, 88, 25.4237, 5.57725, 15.4348, 9.79285, 97.4249, -79.0842
9.48838, 89, 25.6439, 5.8089, 15.3441, 9.65327, 97.6101, -78.849
9.49527, 89, 25.8624, 6.04106, 15.2544, 9.51695, 97.7953, -78.6132
9.50319, 89, 26.0793, 6.27363, 15.1658, 9.3836, 97.9807, -78.3767
9.51113, 89, 26.2941, 6.50755, 15.0785, 9.2537, 98.1662, -78.1399
9.51944, 89, 26.5066, 6.74227, 14.9924, 9.12697, 98.3518, -77.9023
9.52721, 89, 26.7167, 6.97683, 14.9074, 9.00365, 98.5378, -77.6639
9.53522, 90, 26.9244, 7.21221, 14.8234, 8.88361, 98.7235, -77.4248
9.54384, 90, 27.1298, 7.44828, 14.7406, 8.76667, 98.9095, -77.1853
9.55155, 90, 27.3329, 7.68437, 14.6588, 8.65313, 99.0951, -76.9455
9.55924, 90, 27.5334, 7.92148, 14.5781, 8.54267, 99.2805, -76.705
9.56753, 90, 27.7316, 8.15967, 14.4985, 8.43532, 99.4658, -76.4639
9.57613, 91, 27.9277, 8.39757, 14.4201, 8.33126, 99.6507, -76.2222
9.58316, 91, 28.1218, 8.63567, 14.3427, 8.23044, 99.8357, -75.9802
9.59274, 91, 28.3139, 8.8743, 14.2665, 8.13313, 100.02, -75.7377
9.60011, 91, 28.5042, 9.11268, 14.1915, 8.03898, 100.205, -75.4945
9.60818, 91, 28.6931, 9.35173, 14.1174, 7.94797, 100.389, -75.2504
9.6153, 91, 28.88, 9.59196, 14.0443, 7.86023, 100.573, -75.0058
9.62342, 92, 29.0649, 9.83205, 13.9721, 7.77561, 100.757, -74.7608
9.63235, 92, 29.2477, 10.0722, 13.9009, 7.69415, 100.941, -74.5152
9.63952, 92, 29.4282, 10.3131, 13.8306, 7.61565, 101.124, -74.2687
9.64762, 92, 29.6069, 10.554, 13.7614, 7.54101, 101.308, -74.0217
9.65628, 92, 29.7833, 10.7954, 13.6932, 7.46884, 101.491, -73.774
9.66389, 93, 29.9574, 11.0379, 13.6259, 7.40056, 101.674, -73.5255
9.67221, 93, 30.1292, 11.2805, 13.5596, 7.33517, 101.856, -73.2761
9.67977, 93, 30.2984, 11.5229, 13.4941, 7.27334, 102.039, -73.0258
9.68827, 93, 30.4651, 11.7661, 13.4295, 7.21503, 102.221, -72.7746
9.69508, 93, 30.5477, 11.8879, 13.3976, 7.18652, 102.313, -72.6488
9.70412, 93, 30.7921, 12.2537, 13.3031, 7.10767, 102.586, -72.2705
9.71116, 94, 30.8726, 12.3764, 13.272, 7.08292, 102.677, -72.1439
9.72028, 94, 31.1115, 12.7455, 13.1801, 7.01254, 102.95, -71.763
9.72713, 94, 31.1902, 12.8684, 13.1499, 6.9913, 103.041, -71.6357
9.73713, 94, 31.4234, 13.2379, 13.0607, 6.93204, 103.313, -71.2525
9.74439, 94, 31.5765, 13.484, 13.0025, 6.89556, 103.493, -70.9958
9.75107, 95, 31.6524, 13.607, 12.9738, 6.87872, 103.584, -70.8672
9.76138, 95, 31.8771, 13.9771, 12.8889, 6.83382, 103.854, -70.4801
9.76711, 95, 31.9512, 14.1007, 12.8611, 6.82053, 103.944, -70.3508
9.77662, 95, 32.1708, 14.4706, 12.779, 6.78512, 104.212, -69.9616
9.78483, 95, 32.3148, 14.7176, 12.7253, 6.76494, 104.391, -69.7012
9.79267, 95, 32.4566, 14.9643, 12.6728, 6.74784, 104.569, -69.4402
9.79926, 96, 32.5265, 15.0875, 12.647, 6.74039, 104.657, -69.3095
9.80883, 96, 32.7329, 15.4577, 12.5709, 6.7229, 104.921, -68.9161
9.81666, 96, 32.8007, 15.5812, 12.546, 6.71872, 105.096, -68.653
9.82411, 96, 32.9348, 15.8277, 12.4971, 6.71274, 105.183, -68.5211
9.8311, 96, 33.0668, 16.0741, 12.4493, 6.70959, 105.357, -68.2571
9.83909, 97, 33.1968, 16.3206, 12.4025, 6.70842, 105.53, -67.9928
9.84816, 97, 33.3245, 16.5664, 12.357, 6.70938, 105.702, -67.7279
9.85614, 97, 33.45, 16.8122, 12.3126, 6.71376, 105.873, -67.4626
9.86412, 97, 33.5738, 17.0586, 12.2692, 6.72152, 106.043, -67.1968
9.8721, 97, 33.6961, 17.3042, 12.227, 6.73247, 106.212, -66.9305
9.88036, 98, 33.8172, 17.5495, 12.1857, 6.74685, 106.38, -66.6637
9.88815, 98, 33.9367, 17.7946, 12.1457, 6.76458, 106.546, -66.3963
9.8961, 98, 34.0548, 18.0387, 12.1068, 6.78507, 106.712, -66.1284
9.90425, 98, 34.1711, 18.2828, 12.0687, 6.80809, 106.877, -65.8604
9.91211, 98, 34.2859, 18.5272, 12.0318, 6.83357, 107.04, -65.5917
9.92016, 98, 34.3991, 18.7708, 11.996, 6.86175, 107.203, -65.3225
9.92815, 99, 34.511, 19.0137, 11.9611, 6.8934, 107.364, -65.0529
9.93623, 99, 34.6216, 19.2565, 11.9273, 6.92786, 107.524, -64.7831
9.9431, 99, 34.7307, 19.4984, 11.8947, 6.96429, 107.683, -64.5124
9.9511, 99, 34.8381, 19.7399, 11.863, 7.00294, 107.841, -64.2411
9.9601, 99, 34.9435, 19.9813, 11.8323, 7.04488, 107.997, -63.9693
9.9682, 100, 35.047, 20.2215, 11.8029, 7.08923, 108.152, -63.6975
9.9761, 100, 35.149, 20.4605, 11.7746, 7.13544, 108.306, -63.4257
9.9839, 100, 35.2495, 20.699, 11.7474, 7.18485, 108.458, -63.1537
9.99216, 100, 35.3487, 20.9363, 11.7215, 7.23625, 108.608, -62.8817
9.99923, 100, 35.4464, 21.1726, 11.697, 7.28912, 108.756, -62.6101
10.008, 100, 35.5428, 21.4088, 11.6738, 7.34508, 108.903, -62.3388
10.0161, 101, 35.6377, 21.6436, 11.6519, 7.40233, 109.047, -62.0679
10.0235, 101, 35.7313, 21.8765, 11.6315, 7.4616, 109.188, -61.7977
10.032, 101, 35.8235, 22.1082, 11.6127, 7.52297, 109.328, -61.5287
10.0401, 101, 35.9148, 22.3379, 11.5953, 7.58521, 109.464, -61.2607
10.0473, 101, 36.0051, 22.5655, 11.5792, 7.65024, 109.597, -60.9934
10.0552, 102, 36.0945, 22.7917, 11.5647, 7.71586, 109.728, -60.7275
10.0632, 102, 36.1828, 23.0167, 11.5516, 7.78391, 109.856, -60.4627
10.0713, 102, 36.27, 23.2397, 11.5398, 7.85254, 109.982, -60.1989
10.0806, 102, 36.356, 23.4616, 11.5291, 7.9234, 110.105, -59.9357
10.0879, 102, 36.441, 23.6833, 11.5194, 7.99523, 110.226, -59.6726
10.0961, 102, 36.5247, 23.9042, 11.5107, 8.06946, 110.346, -59.4096
10.1032, 103, 36.6075, 24.1245, 11.5028, 8.14514, 110.465, -59.1463
10.1121, 103, 36.6896, 24.3446, 11.4956, 8.22354, 110.584, -58.8819
10.1202, 103, 36.7708, 24.5629, 11.4891, 8.30387, 110.702, -58.6167
10.1273, 103, 36.8514, 24.778, 11.4836, 8.38681, 110.82, -58.3508
10.1363, 103, 36.931, 24.9905, 11.4791, 8.47171, 110.935, -58.0855
10.1435, 104, 37.0097, 25.2004, 11.4761, 8.55862, 111.047, -57.8215
10.1516, 104, 37.0875, 25.4071, 11.4748, 8.64737, 111.154, -57.5604
10.1605, 104, 37.1642, 25.6112, 11.4754, 8.7369, 111.254, -57.3033
10.168, 104, 37.2396, 25.8139, 11.4785, 8.82757, 111.348, -57.0512
10.1762, 104, 37.3141, 26.014, 11.4839, 8.91888, 111.434, -56.8039
10.1845, 104, 37.3511, 26.2102, 11.4911, 9.01046, 111.515, -56.5608
10.1917, 104, 37.4244, 26.307, 11.4952, 9.10298, 111.591, -56.321
10.2001, 104, 37.5334, 26.5939, 11.5094, 9.19624, 111.664, -56.0839
10.2071, 104, 37.5695, 26.6882, 11.5145, 9.24306, 111.699, -55.966
10.2151, 104, 37.6414, 26.8741, 11.5248, 9.33742, 111.769, -55.7313
10.2241, 104, 37.7484, 27.15, 11.541, 9.48071, 111.872, -55.3802
10.2311, 104, 37.7839, 27.2419, 11.5463, 9.52883, 111.906, -55.2633
10.2391, 104, 37.8544, 27.4252, 11.557, 9.6257, 111.973, -55.0302
10.2484, 104, 37.9594, 27.6991, 11.5729, 9.77265, 112.075, -54.6815
10.2551, 104, 37.9943, 27.7905, 11.5781, 9.822, 112.108, -54.5656
10.2632, 104, 38.0639, 27.974, 11.5886, 9.92118, 112.175, -54.3336
10.2726, 104, 38.1678, 28.2497, 11.6043, 10.0719, 112.275, -53.9865
10.2792, 104, 38.2023, 28.3415, 11.6095, 10.1225, 112.309, -53.871
10.2887, 104, 38.3054, 28.6179, 11.6251, 10.2758, 112.408, -53.5251
10.2967, 104, 38.3737, 28.8034, 11.6353, 10.3794, 112.474, -53.2948
10.3055, 104, 38.4417, 28.9886, 11.6456, 10.4832, 112.539, -53.0649
10.3112, 104, 38.4755, 29.0809, 11.6508, 10.5355, 112.572, -52.95
10.3207, 104, 38.543, 29.2658, 11.661, 10.6939, 112.67, -52.6061
10.3295, 104, 38.61, 29.4513, 11.6711, 10.747, 112.703, -52.3773
10.3352, 104, 38.6766, 29.6369, 11.681, 10.8539, 112.768, -52.2631
10.3442, 104, 38.7429, 29.8219, 11.6909, 10.9616, 112.832, -52.0346
10.3521, 104, 38.8087, 30.007, 11.7007, 11.0701, 112.897, -51.8066
10.3591, 104, 38.874, 30.1929, 11.7103, 11.1797, 112.962, -51.5789
10.3671, 104, 38.939, 30.379, 11.7199, 11.2899, 113.025, -51.3516
10.3752, 104, 39.0037, 30.5647, 11.7296, 11.4009, 113.089, -51.1243
10.3831, 104, 39.068, 30.7505, 11.7392, 11.5127, 113.152, -50.8973
10.3911, 104, 39.132, 30.937, 11.7487, 11.6254, 113.217, -50.6706
10.4001, 104, 39.1957, 31.1236, 11.7582, 11.7386, 113.279, -50.4444
10.4071, 104, 39.2591, 31.3095, 11.7677, 11.8527, 113.342, -50.2186
10.4151, 104, 39.3222, 31.4955, 11.7771, 11.9678, 113.405, -49.9928
10.4241, 104, 39.3851, 31.6823, 11.7865, 12.0838, 113.467, -49.7675
10.4311, 104, 39.4479, 31.8694, 11.7957, 12.2003, 113.53, -49.5426
10.4391, 104, 39.5105, 32.056, 11.8048, 12.3177, 113.591, -49.3179
10.4481, 104, 39.5729, 32.2424, 11.8139, 12.4356, 113.653, -49.0938
10.4561, 104, 39.635, 32.4294, 11.8229, 12.5543, 113.714, -48.8697
10.4641, 104, 39.6969, 32.6168, 11.8317, 12.6738, 113.776, -48.6458
10.4721, 104, 39.7585, 32.8037, 11.8406, 12.7941, 113.836, -48.4222
10.4802, 104, 39.8197, 32.9904, 11.8495, 12.9152, 113.897, -48.1992
10.4871, 104, 39.8806, 33.1776, 11.8582, 13.037, 113.958, -47.9767
10.4952, 104, 39.9408, 33.3648, 11.8668, 13.1595, 114.017, -47.7543
10.5031, 104, 40, 33.5502, 11.8755, 13.2825, 114.078, -47.5325
10.5111, 104, 40.0575, 33.7327, 11.8837, 13.4056, 114.137, -47.3118
10.5201, 104, 40.1134, 33.9114, 11.8916, 13.5285, 114.196, -47.0931
10.5282, 104, 40.1669, 34.0836, 11.8988, 13.6499, 114.254, -46.8784
10.5352, 104, 40.218, 34.2477, 11.9053, 13.7682, 114.31, -46.6701
10.5432, 104, 40.2668, 34.4028, 11.9111, 13.8811, 114.364, -46.4719
10.5512, 104, 40.3122, 34.5473, 11.9165, 13.9868, 114.413, -46.2875
10.5592, 104, 40.3538, 34.6798, 11.9215, 14.0832, 114.457, -46.12
10.5673, 104, 40.3914, 34.8002, 11.9265, 14.1683, 114.497, -45.9725
10.5751, 104, 40.425, 34.9078, 11.9314, 14.242, 114.531, -45.8462
10.5831, 104, 40.4544, 35.001, 11.936, 14.3027, 114.558, -45.7411
10.5912, 104, 40.4789, 35.0794, 11.9402, 14.3518, 114.579, -45.6569
10.5992, 104, 40.4989, 35.1439, 11.944, 14.3903, 114.596, -45.5917
10.6072, 104, 40.5149, 35.1958, 11.9472, 14.4187, 114.608, -45.5431
10.6153, 104, 40.5272, 35.2363, 11.95, 14.4386, 114.617, -45.5085
10.6234, 104, 40.5359, 35.2664, 11.9524, 14.4518, 114.622, -45.4854
10.6314, 104, 40.5419, 35.2881, 11.9543, 14.46, 114.626, -45.4709
10.6396, 104, 40.5461, 35.3035, 11.9558, 14.4648, 114.628, -45.4627
10.648, 104, 40.5492, 35.314, 11.9568, 14.4672, 114.629, -45.4585
10.6562, 105, 40.5511, 35.3205, 11.9576, 14.4685, 114.629, -45.4565
10.6637, 105, 40.5516, 35.3241, 11.9582, 14.4691, 114.629, -45.4555
10.6722, 105, 40.5512, 35.3263, 11.9586, 14.4694, 114.63, -45.4552
10.6796, 105, 40.5507, 35.3278, 11.959, 14.4696, 114.63, -45.4551
10.6882, 105, 40.5501, 35.3289, 11.9594, 14.4697, 114.63, -45.4552
10.696, 105, 40.5498, 35.33, 11.9598, 14.4698, 114.63, -45.4553
10.7031, 105, 40.5498, 35.3305, 11.9599, 14.4698, 114.63, -45.4554
10.7121, 105, 40.5497, 35.3319, 11.9604, 14.4699, 114.63, -45.4557
10.7191, 105, 40.5497, 35.3323, 11.9606, 14.4699, 114.63, -45.4558
10.7282, 105, 40.55, 35.3333, 11.961, 14.4699, 114.63, -45.4561
10.736, 105, 40.5502, 35.3336, 11.9612, 14.47, 114.63, -45.4561
10.7431, 105, 40.5507, 35.334, 11.9613, 14.4699, 114.63, -45.4563
10.7523, 105, 40.5515, 35.3344, 11.9615, 14.4699, 114.63, -45.4563
10.7591, 105, 40.5519, 35.3345, 11.9615, 14.4699, 114.63, -45.4564
10.7686, 105, 40.5528, 35.3346, 11.9615, 14.4699, 114.63, -45.4564
