rpiRobotics/ARM-21-02-F-19-Robot-Motion-Program/data_performance_abb/curve_2/baseline/100L/realrobot/v402.83203125_iteration3.csv
timestamp, cmd_num, J1, J2, J3, J4, J5, J6
0.000372, -1, 40.5513, 35.335, 11.9625, 14.4703, 114.629, -45.4595
0.00428, -1, 40.5513, 35.335, 11.9625, 14.4703, 114.629, -45.4595
0.007701, -1, 40.5514, 35.335, 11.9626, 14.4703, 114.629, -45.4595
0.029542, -1, 40.5513, 35.335, 11.9626, 14.4703, 114.629, -45.4595
0.031613, -1, 40.5513, 35.335, 11.9626, 14.4704, 114.629, -45.4595
0.034374, -1, 40.5513, 35.335, 11.9626, 14.4704, 114.629, -45.4595
0.039476, -1, 40.5513, 35.335, 11.9625, 14.4704, 114.629, -45.4595
0.047543, -1, 40.5513, 35.335, 11.9625, 14.4704, 114.629, -45.4595
0.055492, -1, 40.5507, 35.335, 11.9625, 14.4704, 114.629, -45.4595
0.063492, -1, 40.5485, 35.3345, 11.9625, 14.4703, 114.629, -45.4595
0.0716, -1, 40.5434, 35.333, 11.9625, 14.4704, 114.629, -45.4597
0.079481, -1, 40.5351, 35.3299, 11.9624, 14.4704, 114.629, -45.4608
0.087516, -1, 40.5226, 35.3246, 11.9624, 14.4704, 114.627, -45.4659
0.095634, -1, 40.5037, 35.3162, 11.9624, 14.4703, 114.624, -45.4772
0.103585, -1, 40.4766, 35.3036, 11.9627, 14.4702, 114.616, -45.4979
0.111581, -1, 40.4404, 35.2859, 11.9641, 14.47, 114.604, -45.5321
0.119641, -1, 40.3935, 35.2622, 11.968, 14.4692, 114.585, -45.5826
0.127588, -1, 40.3347, 35.2318, 11.975, 14.4673, 114.558, -45.6529
0.135537, -1, 40.263, 35.1938, 11.9858, 14.4644, 114.521, -45.7468
0.143667, -1, 40.1779, 35.1482, 12.001, 14.4605, 114.474, -45.8648
0.151522, -1, 40.0791, 35.0944, 12.0202, 14.4555, 114.418, -46.0086
0.159513, -1, 39.9667, 35.0326, 12.0433, 14.4495, 114.351, -46.1767
0.167813, -1, 39.8411, 34.9636, 12.0697, 14.4425, 114.275, -46.3679
0.175691, -1, 39.7036, 34.888, 12.0994, 14.4347, 114.191, -46.5784
0.183703, -1, 39.555, 34.8063, 12.1311, 14.4262, 114.1, -46.8056
0.1919, -1, 39.3967, 34.7197, 12.1642, 14.4171, 114.004, -47.0449
0.199808, -1, 39.2307, 34.6291, 12.1982, 14.4074, 113.905, -47.2932
0.207928, -1, 39.0584, 34.5354, 12.2325, 14.3972, 113.804, -47.5473
0.216026, -1, 38.8808, 34.4393, 12.2665, 14.3865, 113.701, -47.805
0.224036, -1, 38.6989, 34.3415, 12.3003, 14.3756, 113.598, -48.0643
0.232048, -1, 38.5138, 34.2429, 12.3341, 14.3647, 113.495, -48.3239
0.240097, -1, 38.3268, 34.1439, 12.3677, 14.3538, 113.391, -48.5843
0.248076, -1, 38.1391, 34.0448, 12.4013, 14.343, 113.287, -48.8452
0.256109, -1, 38.0452, 33.9953, 12.4351, 14.3324, 113.183, -49.106
0.264188, -1, 37.8578, 33.8962, 12.4688, 14.322, 113.079, -49.3669
0.271473, -1, 37.6713, 33.7972, 12.4856, 14.3168, 113.027, -49.4973
0.279469, -1, 37.4854, 33.6983, 12.5192, 14.3066, 112.923, -49.7582
0.287516, -1, 37.2999, 33.5993, 12.5531, 14.2964, 112.819, -50.0193
0.295475, -1, 37.1147, 33.5003, 12.587, 14.2862, 112.716, -50.2802
0.303477, -1, 36.9303, 33.4013, 12.6207, 14.2759, 112.612, -50.541
0.31157, -1, 36.7465, 33.3023, 12.6544, 14.2657, 112.508, -50.8021
0.319482, -1, 36.5626, 33.2031, 12.6882, 14.2552, 112.404, -51.0633
0.327514, -1, 36.3782, 33.1039, 12.7219, 14.2445, 112.3, -51.3245
0.335591, -1, 36.1931, 33.0045, 12.7557, 14.2337, 112.195, -51.5854
0.343473, -1, 36.0072, 32.9049, 12.7895, 14.2229, 112.091, -51.8466
0.351512, -1, 35.8207, 32.8053, 12.8231, 14.2121, 111.987, -52.1079
0.359482, -1, 35.6338, 32.7057, 12.8568, 14.2016, 111.883, -52.3692
0.367468, -1, 35.4463, 32.6063, 12.8906, 14.1912, 111.779, -52.6302
0.37796, -1, 35.1639, 32.4572, 12.9412, 14.176, 111.623, -53.0221
0.383473, -1, 35.0696, 32.4074, 12.9581, 14.1709, 111.571, -53.1528
0.391476, -1, 34.8812, 32.308, 12.9919, 14.1608, 111.467, -53.4144
0.399544, -1, 34.6934, 32.2085, 13.0255, 14.1508, 111.363, -53.6755
0.408517, -1, 34.506, 32.109, 13.0591, 14.1408, 111.259, -53.9367
0.415464, -1, 34.319, 32.0094, 13.093, 14.1307, 111.154, -54.1979
0.423531, -1, 34.1325, 31.91, 13.1268, 14.1205, 111.05, -54.4592
0.431466, -1, 33.9466, 31.8105, 13.1604, 14.1101, 110.946, -54.7203
0.439512, -1, 33.7611, 31.711, 13.194, 14.0995, 110.842, -54.9813
0.447526, -1, 33.576, 31.6115, 13.2278, 14.0888, 110.738, -55.2426
0.455473, -1, 33.3909, 31.5119, 13.2614, 14.0781, 110.634, -55.5037
0.463473, -1, 33.2057, 31.4122, 13.2952, 14.0675, 110.53, -55.765
0.47154, -1, 33.0201, 31.3125, 13.329, 14.057, 110.426, -56.026
0.479463, -1, 32.8342, 31.2129, 13.3627, 14.0467, 110.322, -56.2872
0.616237, -1, 29.6603, 29.5208, 13.9355, 13.8722, 108.556, -60.7261
0.617448, -1, 29.6603, 29.5208, 13.9355, 13.8722, 108.556, -60.7261
0.619823, -1, 29.5669, 29.4711, 13.9523, 13.8673, 108.504, -60.8566
0.621095, -1, 29.5669, 29.4711, 13.9523, 13.8673, 108.504, -60.8566
0.622938, -1, 29.5669, 29.4711, 13.9523, 13.8673, 108.504, -60.9872
0.624328, -1, 29.4735, 29.4213, 13.9691, 13.8623, 108.452, -60.9872
0.625586, -1, 29.4735, 29.4213, 13.9691, 13.8623, 108.452, -60.9872
0.632096, -1, 29.2865, 29.3218, 14.0028, 13.8523, 108.348, -61.2483
0.791613, -1, 25.6516, 27.383, 14.6581, 13.6513, 106.325, -66.3325
0.793785, -1, 25.5583, 27.3333, 14.6749, 13.6459, 106.274, -66.4627
0.794978, -1, 25.5583, 27.3333, 14.6749, 13.6459, 106.274, -66.4627
0.797016, -1, 25.4652, 27.2836, 14.6916, 13.6406, 106.222, -66.593
0.798481, -1, 25.4652, 27.2836, 14.6916, 13.6406, 106.222, -66.593
0.799676, -1, 25.4652, 27.2836, 14.6916, 13.6406, 106.222, -66.593
0.802427, -1, 25.3721, 27.234, 14.7083, 13.6353, 106.17, -66.7232
0.805556, -1, 25.2791, 27.1844, 14.7251, 13.6301, 106.118, -66.8534
0.80679, -1, 25.2791, 27.1844, 14.7251, 13.6301, 106.118, -66.8534
0.808676, -1, 25.1861, 27.1347, 14.7419, 13.6249, 106.066, -66.9836
0.810031, -1, 25.1861, 27.1347, 14.7419, 13.6249, 106.066, -66.9836
0.811331, -1, 25.1861, 27.1347, 14.7419, 13.6249, 106.066, -66.9836
0.813408, -1, 25.093, 27.0851, 14.7587, 13.6197, 106.015, -67.1136
0.814716, -1, 25.093, 27.0851, 14.7587, 13.6197, 106.015, -67.1136
0.816639, -1, 25.0001, 27.0354, 14.7756, 13.6146, 105.963, -67.2437
0.823888, -1, 24.9073, 26.9857, 14.7924, 13.6097, 105.911, -67.3739
0.82662, -1, 24.8145, 26.9361, 14.8091, 13.6047, 105.859, -67.5041
0.827799, -1, 24.8145, 26.9361, 14.8091, 13.6047, 105.859, -67.5041
0.830521, -1, 24.7219, 26.8865, 14.8259, 13.5997, 105.807, -67.6343
0.831706, -1, 24.7219, 26.8865, 14.8259, 13.5997, 105.807, -67.6343
0.83374, -1, 24.6293, 26.8369, 14.8426, 13.5947, 105.755, -67.7644
0.834938, -1, 24.6293, 26.8369, 14.8426, 13.5947, 105.755, -67.7644
0.838561, -1, 24.5369, 26.7873, 14.8594, 13.5898, 105.704, -67.8945
0.83992, -1, 24.5369, 26.7873, 14.8594, 13.5898, 105.704, -67.8945
0.842248, -1, 24.4445, 26.7378, 14.8763, 13.5849, 105.652, -68.0244
0.843426, -1, 24.4445, 26.7378, 14.8763, 13.5849, 105.652, -68.0244
0.845442, -1, 24.3521, 26.6883, 14.8931, 13.5801, 105.6, -68.1544
0.846649, -1, 24.3521, 26.6883, 14.8931, 13.5801, 105.6, -68.1544
0.847896, -1, 24.3521, 26.6883, 14.8931, 13.5801, 105.6, -68.1544
0.850725, -1, 24.2596, 26.6388, 14.91, 13.5751, 105.549, -68.2843
0.854296, -1, 24.1671, 26.5893, 14.9267, 13.5702, 105.497, -68.4143
0.855494, -1, 24.1671, 26.5893, 14.9267, 13.5702, 105.497, -68.4143
0.857529, -1, 24.0746, 26.5397, 14.9435, 13.5653, 105.445, -68.5443
0.858814, -1, 24.0746, 26.5397, 14.9435, 13.5653, 105.445, -68.5443
0.860072, -1, 24.0746, 26.5397, 14.9435, 13.5653, 105.445, -68.5443
0.862261, -1, 23.982, 26.4902, 14.9602, 13.5604, 105.393, -68.6743
0.863458, -1, 23.982, 26.4902, 14.9602, 13.5604, 105.393, -68.6743
0.86632, -1, 23.8894, 26.4407, 14.977, 13.5554, 105.342, -68.8043
0.867546, -1, 23.8894, 26.4407, 14.977, 13.5554, 105.342, -68.8043
0.869568, -1, 23.7967, 26.3912, 14.9938, 13.5504, 105.29, -68.9343
0.8715, -1, 23.7967, 26.3912, 14.9938, 13.5504, 105.29, -68.9343
0.881292, -1, 23.5183, 26.2424, 15.044, 13.5352, 105.135, -69.324
0.887446, -1, 23.4253, 26.1928, 15.0607, 13.5301, 105.083, -69.4539
0.896446, -1, 23.2391, 26.0935, 15.0943, 13.5196, 104.979, -69.7137
0.903439, -1, 23.0526, 25.9944, 15.1278, 13.509, 104.876, -69.9736
0.912447, -1, 22.8661, 25.8952, 15.1611, 13.4985, 104.772, -70.2334
0.919508, -1, 22.6797, 25.7961, 15.1945, 13.488, 104.669, -70.4928
0.92745, -1, 22.4937, 25.6971, 15.228, 13.4778, 104.565, -70.7525
0.93546, -1, 22.308, 25.5981, 15.2615, 13.4677, 104.462, -71.0123
0.943522, -1, 22.1225, 25.4991, 15.2949, 13.4577, 104.359, -71.2719
0.951459, -1, 21.9373, 25.4002, 15.3285, 13.4478, 104.255, -71.5313
0.959509, -1, 21.7526, 25.3014, 15.3619, 13.4379, 104.152, -71.7908
0.96745, -1, 21.5684, 25.2027, 15.3953, 13.4281, 104.049, -72.0503
0.975507, -1, 21.3843, 25.1042, 15.4289, 13.4181, 103.946, -72.3098
0.983444, -1, 21.2, 25.0054, 15.4624, 13.4081, 103.842, -72.5688
0.991469, -1, 21.0157, 24.9068, 15.4958, 13.3979, 103.739, -72.8277
0.99951, -1, 20.8313, 24.8081, 15.5292, 13.3876, 103.637, -73.0867
1.00753, -1, 20.6468, 24.7093, 15.5627, 13.3771, 103.533, -73.3458
1.01545, -1, 20.4618, 24.6105, 15.596, 13.3665, 103.43, -73.6047
1.02351, -1, 20.2763, 24.5117, 15.6294, 13.3559, 103.328, -73.8636
1.03147, -1, 20.0904, 24.413, 15.6628, 13.3455, 103.224, -74.1225
1.03945, -1, 19.9046, 24.3142, 15.6961, 13.3353, 103.122, -74.3813
1.04751, -1, 19.7188, 24.2155, 15.7293, 13.3252, 103.019, -74.64
1.05544, -1, 19.5333, 24.1168, 15.7627, 13.3154, 102.916, -74.8985
1.06345, -1, 19.348, 24.018, 15.796, 13.3056, 102.813, -75.1568
1.07153, -1, 19.1632, 23.9194, 15.8292, 13.2959, 102.71, -75.4154
1.07945, -1, 18.9786, 23.8208, 15.8626, 13.2863, 102.607, -75.674
1.08767, -1, 18.7944, 23.7224, 15.8959, 13.2766, 102.505, -75.9322
1.0955, -1, 18.6107, 23.6242, 15.9291, 13.2667, 102.402, -76.1905
1.10353, -1, 18.4273, 23.5259, 15.9624, 13.2569, 102.299, -76.4487
1.11184, -1, 18.244, 23.4276, 15.9958, 13.2467, 102.197, -76.707
1.11954, -1, 18.0606, 23.3294, 16.0291, 13.2364, 102.094, -76.9647
1.12756, -1, 17.8772, 23.2311, 16.0623, 13.2259, 101.991, -77.2224
1.13608, -1, 17.6934, 23.1327, 16.0957, 13.2154, 101.889, -77.4803
1.14451, -1, 17.5093, 23.0345, 16.129, 13.205, 101.786, -77.7382
1.15146, -1, 17.3249, 22.9363, 16.1621, 13.1947, 101.683, -77.9959
1.16023, -1, 17.1402, 22.8381, 16.1953, 13.1846, 101.581, -78.2534
1.16751, -1, 16.9554, 22.74, 16.2286, 13.1746, 101.478, -78.5109
1.17566, -1, 16.7706, 22.6418, 16.2618, 13.1647, 101.376, -78.7686
1.18447, -1, 16.5859, 22.5435, 16.295, 13.1548, 101.274, -79.026
1.19177, -1, 16.4013, 22.4453, 16.3283, 13.145, 101.171, -79.2833
1.19985, -1, 16.2171, 22.3472, 16.3614, 13.1352, 101.069, -79.5405
1.20854, -1, 16.0335, 22.2491, 16.3945, 13.1252, 100.967, -79.7977
1.21595, -1, 15.8504, 22.1512, 16.4277, 13.1152, 100.864, -80.0551
1.22458, -1, 15.6675, 22.0532, 16.4608, 13.1052, 100.762, -80.3121
1.23272, -1, 15.485, 21.9552, 16.4938, 13.0949, 100.66, -80.569
1.24004, -1, 15.3025, 21.8573, 16.5269, 13.0845, 100.558, -80.826
1.24803, -1, 15.1201, 21.7593, 16.5601, 13.0739, 100.456, -81.0829
1.2568, -1, 15.0289, 21.6613, 16.5932, 13.0636, 100.353, -81.3395
1.26413, -1, 14.7551, 21.5635, 16.6262, 13.0534, 100.251, -81.5958
1.27199, -1, 14.6637, 21.5146, 16.6428, 13.0483, 100.2, -81.7239
1.27943, -1, 14.4806, 21.4169, 16.6758, 13.0384, 100.098, -81.9804
1.28743, -1, 14.2971, 21.3192, 16.7088, 13.0286, 99.996, -82.2368
1.29543, -1, 14.1135, 21.2216, 16.7418, 13.0188, 99.8941, -82.4929
1.30348, -1, 13.9297, 21.1241, 16.775, 13.0091, 99.792, -82.749
1.31148, -1, 13.7457, 21.0265, 16.808, 12.9993, 99.6899, -83.0051
1.31944, -1, 13.5619, 20.9289, 16.841, 12.9897, 99.5883, -83.2612
1.32744, -1, 13.3783, 20.8315, 16.8741, 12.9798, 99.4864, -83.5172
1.33544, -1, 13.1952, 20.7341, 16.9071, 12.9699, 99.3844, -83.7728
1.3449, -1, 12.9216, 20.5882, 16.9566, 12.9546, 99.2321, -84.156
1.35144, -1, 12.8305, 20.5395, 16.9731, 12.9494, 99.1812, -84.2838
1.35944, -1, 12.6486, 20.4421, 17.0061, 12.9389, 99.0794, -84.5394
1.36901, -1, 12.3765, 20.296, 17.0553, 12.9233, 98.9272, -84.9223
1.37543, -1, 12.286, 20.2473, 17.0717, 12.9181, 98.8764, -85.0499
1.38344, -1, 12.1049, 20.1498, 17.1048, 12.9079, 98.775, -85.3052
1.39306, -1, 11.9236, 20.0525, 17.1376, 12.8978, 98.6738, -85.6881
1.39944, -1, 11.7421, 19.9552, 17.1704, 12.8878, 98.5724, -85.8155
1.4084, -1, 11.5603, 19.858, 17.2033, 12.878, 98.4711, -86.07
1.41549, -1, 11.3782, 19.7609, 17.2362, 12.8682, 98.3699, -86.3247
1.42343, -1, 11.1958, 19.6637, 17.2689, 12.8584, 98.2686, -86.5794
1.43148, -1, 11.0131, 19.5665, 17.3017, 12.8485, 98.1674, -86.834
1.4395, -1, 10.8303, 19.4694, 17.3346, 12.8387, 98.0662, -87.0882
1.44743, -1, 10.6476, 19.3724, 17.3673, 12.8288, 97.9648, -87.3424
1.45546, -1, 10.4651, 19.2756, 17.4001, 12.8188, 97.8637, -87.5968
1.46346, -1, 10.283, 19.1788, 17.4331, 12.8086, 97.7623, -87.8511
1.47144, -1, 10.1014, 19.0821, 17.4658, 12.7982, 97.661, -88.105
1.47951, -1, 9.92019, 18.9854, 17.4986, 12.7878, 97.56, -88.3587
1.48742, -1, 9.73925, 18.8887, 17.5313, 12.7775, 97.4588, -88.6125
1.49545, -1, 9.55884, 18.7921, 17.5641, 12.7673, 97.3576, -88.8666
1.5035, -1, 9.37898, 18.6954, 17.5968, 12.7574, 97.2567, -89.1203
1.51157, -1, 9.19912, 18.5988, 17.6295, 12.7476, 97.1555, -89.3738
1.51944, -1, 9.0192, 18.5023, 17.6623, 12.7379, 97.0546, -89.6274
1.52751, -1, 8.83901, 18.4058, 17.6949, 12.7283, 96.954, -89.8809
1.53546, -1, 8.65867, 18.3093, 17.7275, 12.7188, 96.853, -90.1342
1.54344, -1, 8.47818, 18.2129, 17.7601, 12.7093, 96.7522, -90.3871
1.5515, -1, 8.29725, 18.1165, 17.7928, 12.6996, 96.6517, -90.64
1.55943, -1, 8.11586, 18.02, 17.8253, 12.6899, 96.5509, -90.8929
1.56758, -1, 7.93438, 17.9236, 17.8579, 12.6801, 96.4503, -91.1458
1.57565, -1, 7.75273, 17.8273, 17.8904, 12.6701, 96.3499, -91.3984
1.58343, -1, 7.57135, 17.731, 17.923, 12.6599, 96.2492, -91.6509
1.59164, -1, 7.3902, 17.6348, 17.9555, 12.6495, 96.1488, -91.9033
1.60029, -1, 7.20947, 17.5387, 17.9881, 12.6393, 96.049, -92.1558
1.60752, -1, 7.02914, 17.4426, 18.0206, 12.6291, 95.9486, -92.4081
1.61595, -1, 6.84926, 17.3464, 18.0531, 12.6191, 95.8485, -92.6599
1.62451, -1, 6.66996, 17.2502, 18.0857, 12.6092, 95.7486, -92.9118
1.63154, -1, 6.49121, 17.1542, 18.1183, 12.5995, 95.6484, -93.1636
1.64013, -1, 6.31257, 17.0582, 18.1506, 12.5899, 95.5483, -93.4156
1.6489, -1, 6.13406, 16.9623, 18.1831, 12.5803, 95.4485, -93.6671
1.65544, -1, 5.95543, 16.8664, 18.2157, 12.5708, 95.3484, -93.9185
1.66435, -1, 5.77668, 16.7707, 18.2481, 12.5613, 95.2486, -94.1699
1.67148, -1, 5.5977, 16.6749, 18.2805, 12.5517, 95.1487, -94.4213
1.6797, -1, 5.41833, 16.5791, 18.313, 12.542, 95.0487, -94.6724
1.68757, -1, 5.2386, 16.4835, 18.3454, 12.5322, 94.949, -94.9232
1.69574, -1, 5.0585, 16.3879, 18.3776, 12.5222, 94.8491, -95.174
1.70373, -1, 4.87836, 16.2925, 18.41, 12.5121, 94.7492, -95.4248
1.71192, -1, 4.69821, 16.197, 18.4425, 12.5019, 94.6493, -95.6757
1.71996, -1, 4.51821, 16.1016, 18.4747, 12.4917, 94.5493, -95.9261
1.72857, -1, 4.33854, 16.0062, 18.5069, 12.4816, 94.4493, -96.1765
1.73594, -1, 4.1592, 15.9108, 18.5393, 12.4718, 94.3497, -96.4268
1.74452, -1, 3.98044, 15.8153, 18.5716, 12.4622, 94.2498, -96.677
1.752, -1, 3.80247, 15.7199, 18.6038, 12.4526, 94.1501, -96.9272
1.76017, -1, 3.71357, 15.6246, 18.636, 12.4432, 94.0505, -97.177
1.76812, -1, 3.53608, 15.5294, 18.6683, 12.4339, 93.9508, -97.4266
1.77541, -1, 3.35894, 15.4818, 18.6843, 12.4292, 93.901, -97.5516
1.78342, -1, 3.18188, 15.3866, 18.7164, 12.4198, 93.8015, -97.8015
1.79148, -1, 3.00474, 15.2916, 18.7487, 12.4104, 93.7021, -98.0511
1.79942, -1, 2.82753, 15.1965, 18.781, 12.4008, 93.6027, -98.3004
1.80742, -1, 2.64994, 15.1014, 18.8132, 12.3911, 93.5036, -98.5497
1.81547, -1, 2.47201, 15.0064, 18.8452, 12.3812, 93.4045, -98.7991
1.82342, -1, 2.29387, 14.9115, 18.8775, 12.3711, 93.3054, -99.0484
1.83143, -1, 2.11525, 14.8168, 18.9096, 12.3608, 93.2064, -99.2972
1.84091, -1, 1.84721, 14.6747, 18.9578, 12.3456, 93.0579, -99.6702
1.84752, -1, 1.75783, 14.6273, 18.9738, 12.3405, 93.0084, -99.7945
1.85547, -1, 1.5792, 14.5326, 19.006, 12.3305, 92.9096, -100.043
1.86343, -1, 1.40069, 14.4379, 19.0379, 12.3209, 92.8107, -100.292
1.87142, -1, 1.22258, 14.3432, 19.0699, 12.3113, 92.7118, -100.54
1.881, -1, 0.956598, 14.2012, 19.118, 12.2971, 92.5642, -100.912
1.89014, -1, 0.78005, 14.1066, 19.1499, 12.2876, 92.4656, -101.16
1.89542, -1, 0.691891, 14.0594, 19.1658, 12.2829, 92.4162, -101.284
1.90348, -1, 0.515872, 13.9649, 19.1978, 12.2735, 92.318, -101.532
1.91248, -1, 0.34024, 13.8706, 19.2297, 12.264, 92.2195, -101.779
1.91941, -1, 0.164848, 13.7763, 19.2617, 12.2545, 92.121, -102.027
1.92749, -1, -0.0105307, 13.682, 19.2936, 12.2448, 92.0227, -102.275
1.93542, -1, -0.186225, 13.5877, 19.3257, 12.2349, 91.9242, -102.522
1.94342, -1, -0.362331, 13.4935, 19.3575, 12.2248, 91.8258, -102.769
1.95148, -1, -0.538889, 13.3993, 19.3893, 12.2148, 91.7277, -103.016
1.95948, -1, -0.715731, 13.3053, 19.4213, 12.2047, 91.6295, -103.263
1.96741, -1, -0.892752, 13.2112, 19.4531, 12.1947, 91.5313, -103.51
1.97541, -1, -1.06995, 13.1172, 19.4849, 12.1849, 91.4333, -103.756
1.9835, -1, -1.24747, 13.0231, 19.5167, 12.1753, 91.3351, -104.003
1.99142, -1, -1.4247, 12.9291, 19.5486, 12.1658, 91.2369, -104.249
1.99941, -1, -1.60153, 12.835, 19.5803, 12.1564, 91.1391, -104.496
2.00749, -1, -1.77805, 12.741, 19.612, 12.147, 91.0408, -104.742
2.0155, -1, -1.95396, 12.6471, 19.6438, 12.1377, 90.9428, -104.988
2.02343, -1, -2.12914, 12.5533, 19.6756, 12.1284, 90.8451, -105.234
2.03148, -1, -2.3039, 12.4596, 19.7071, 12.119, 90.7471, -105.48
2.03941, -1, -2.47837, 12.3661, 19.7388, 12.1096, 90.6492, -105.725
2.04741, -1, -2.65233, 12.2726, 19.7706, 12.1, 90.5517, -105.971
2.05549, -1, -2.82598, 12.179, 19.8022, 12.0901, 90.4537, -106.216
2.06347, -1, -2.9999, 12.0856, 19.8338, 12.0801, 90.3561, -106.461
2.07146, -1, -3.17427, 11.9922, 19.8655, 12.0701, 90.2587, -106.707
2.07941, -1, -3.34891, 11.8989, 19.8971, 12.0601, 90.1609, -106.952
2.0876, -1, -3.52382, 11.8058, 19.9286, 12.0502, 90.0634, -107.197
2.09544, -1, -3.69899, 11.7126, 19.9601, 12.0404, 89.966, -107.442
2.1035, -1, -3.87447, 11.6195, 19.9917, 12.0308, 89.8685, -107.686
2.11179, -1, -4.0502, 11.5263, 20.0232, 12.0214, 89.7711, -107.931
2.11951, -1, -4.22625, 11.4331, 20.0546, 12.0119, 89.6741, -108.175
2.12751, -1, -4.40209, 11.3398, 20.0861, 12.0026, 89.5767, -108.42
2.13595, -1, -4.57745, 11.2466, 20.1177, 11.9933, 89.4795, -108.664
2.14353, -1, -4.75239, 11.1535, 20.149, 11.9839, 89.3827, -108.908
2.15154, -1, -4.92694, 11.0605, 20.1803, 11.9746, 89.2854, -109.152
2.16018, -1, -5.10064, 10.9676, 20.2118, 11.9651, 89.1884, -109.395
2.16745, -1, -5.2739, 10.8747, 20.2433, 11.9555, 89.0919, -109.639
2.17545, -1, -5.44681, 10.7818, 20.2745, 11.9457, 88.9948, -109.883
2.18449, -1, -5.61903, 10.689, 20.3059, 11.9357, 88.898, -110.126
2.19162, -1, -5.79111, 10.5962, 20.3374, 11.9257, 88.8014, -110.369
2.19971, -1, -5.96336, 10.5035, 20.3686, 11.9158, 88.7045, -110.612
2.20857, -1, -6.1359, 10.411, 20.3999, 11.906, 88.6078, -110.855
2.21579, -1, -6.30897, 10.3185, 20.4313, 11.8964, 88.5113, -111.098
2.22396, -1, -6.48234, 10.226, 20.4626, 11.8869, 88.4146, -111.341
2.23274, -1, -6.65592, 10.1336, 20.4937, 11.8775, 88.3181, -111.583
2.23997, -1, -6.82998, 10.0412, 20.525, 11.8682, 88.222, -111.826
2.24851, -1, -7.00414, 9.94886, 20.5563, 11.8591, 88.1256, -112.068
2.25682, -1, -7.17866, 9.8565, 20.5875, 11.8499, 88.0293, -112.31
2.26404, -1, -7.26586, 9.81033, 20.6187, 11.8407, 87.9333, -112.552
2.27203, -1, -7.43988, 9.71807, 20.6343, 11.8314, 87.8369, -112.794
2.27941, -1, -7.6135, 9.6259, 20.6655, 11.8268, 87.7887, -112.915
2.2874, -1, -7.78677, 9.53374, 20.6966, 11.8175, 87.6925, -113.157
2.29545, -1, -7.9593, 9.4417, 20.7277, 11.808, 87.5965, -113.399
2.3034, -1, -8.13126, 9.34971, 20.759, 11.7982, 87.5003, -113.64
2.31141, -1, -8.30268, 9.25768, 20.7901, 11.7885, 87.4043, -113.881
2.31946, -1, -8.47348, 9.16573, 20.8212, 11.7787, 87.3083, -114.123
2.3274, -1, -8.64401, 9.07378, 20.8523, 11.7689, 87.2122, -114.364
2.33545, -1, -8.81465, 8.98195, 20.8835, 11.7594, 87.1161, -114.605
2.3434, -1, -8.98553, 8.89015, 20.9145, 11.75, 87.0202, -114.845
2.3515, -1, -9.15685, 8.79849, 20.9455, 11.7407, 86.9241, -115.086
2.36095, -1, -9.41444, 8.66099, 20.9922, 11.7267, 86.7804, -115.447
2.36897, -1, -9.58649, 8.56941, 21.023, 11.7176, 86.6844, -115.687
2.3778, -1, -9.75878, 8.4779, 21.0539, 11.7085, 86.5886, -115.928
2.38348, -1, -9.84506, 8.43211, 21.0694, 11.7039, 86.5408, -116.048
2.3914, -1, -10.0178, 8.34045, 21.1005, 11.6947, 86.4453, -116.288
2.4017, -1, -10.1908, 8.24896, 21.1315, 11.6854, 86.3496, -116.528
2.40754, -1, -10.3635, 8.15754, 21.1623, 11.6759, 86.2541, -116.768
2.41644, -1, -10.5358, 8.06606, 21.1931, 11.6666, 86.1588, -117.008
2.4234, -1, -10.7076, 7.97469, 21.224, 11.657, 86.0633, -117.247
2.43146, -1, -10.8788, 7.88339, 21.2549, 11.6473, 85.968, -117.487
2.43941, -1, -11.0492, 7.79208, 21.2857, 11.6375, 85.8729, -117.726
2.4474, -1, -11.219, 7.70085, 21.3166, 11.6278, 85.7775, -117.966
2.45547, -1, -11.3884, 7.60965, 21.3474, 11.6182, 85.6823, -118.204
2.4634, -1, -11.5576, 7.51859, 21.3782, 11.6088, 85.5877, -118.444
2.47176, -1, -11.7266, 7.42767, 21.409, 11.5996, 85.4928, -118.682
2.47939, -1, -11.8959, 7.33683, 21.44, 11.5906, 85.398, -118.921
2.4874, -1, -12.0653, 7.24603, 21.4708, 11.5816, 85.3036, -119.16
2.49619, -1, -12.2351, 7.15531, 21.5015, 11.5727, 85.2087, -119.398
2.50339, -1, -12.4053, 7.06466, 21.5323, 11.5638, 85.114, -119.636
2.51139, -1, -12.576, 6.97397, 21.5631, 11.5548, 85.0197, -119.874
2.52029, -1, -12.7469, 6.88324, 21.5938, 11.5459, 84.925, -120.113
2.52748, -1, -12.9181, 6.79259, 21.6246, 11.5367, 84.8305, -120.35
2.53545, -1, -13.0894, 6.70198, 21.6554, 11.5274, 84.7362, -120.588
2.54419, -1, -13.2604, 6.61137, 21.6861, 11.5179, 84.6415, -120.826
2.5514, -1, -13.4311, 6.52074, 21.7166, 11.5083, 84.547, -121.064
2.55939, -1, -13.6014, 6.43021, 21.7473, 11.4987, 84.4525, -121.301
2.56818, -1, -13.7714, 6.33967, 21.778, 11.489, 84.358, -121.538
2.57541, -1, -13.9405, 6.24912, 21.8086, 11.4794, 84.2635, -121.775
2.5834, -1, -14.1089, 6.1586, 21.8391, 11.4699, 84.1692, -122.012
2.59287, -1, -14.277, 6.06823, 21.8698, 11.4606, 84.0747, -122.249
2.59943, -1, -14.4446, 5.97796, 21.9003, 11.4515, 83.9803, -122.486
2.60754, -1, -14.6121, 5.88783, 21.9308, 11.4424, 83.886, -122.723
2.61567, -1, -14.7797, 5.79774, 21.9614, 11.4333, 83.7916, -122.959
2.62349, -1, -14.9476, 5.70771, 21.9921, 11.4244, 83.6973, -123.196
2.63158, -1, -15.1157, 5.61774, 22.0225, 11.4153, 83.6031, -123.432
2.63987, -1, -15.2844, 5.52786, 22.053, 11.4063, 83.5088, -123.668
2.64746, -1, -15.4535, 5.43796, 22.0836, 11.3971, 83.4146, -123.904
2.65552, -1, -15.6229, 5.348, 22.1141, 11.3879, 83.3204, -124.14
2.66487, -1, -15.7924, 5.2582, 22.1445, 11.3785, 83.2265, -124.376
2.67144, -1, -15.9619, 5.16844, 22.1749, 11.369, 83.1324, -124.612
2.67971, -1, -16.1315, 5.07859, 22.2055, 11.3592, 83.0386, -124.847
2.68914, -1, -16.3009, 4.98881, 22.2358, 11.3494, 82.945, -125.083
2.69557, -1, -16.4699, 4.89905, 22.2661, 11.3398, 82.8512, -125.319
2.70369, -1, -16.6385, 4.80928, 22.2965, 11.3304, 82.7576, -125.554
2.71331, -1, -16.8065, 4.7195, 22.3269, 11.3212, 82.6642, -125.789
2.71978, -1, -16.9736, 4.62979, 22.3572, 11.3121, 82.5706, -126.024
2.72818, -1, -17.1403, 4.54022, 22.3874, 11.3031, 82.4772, -126.259
2.73741, -1, -17.3066, 4.45078, 22.4177, 11.2942, 82.384, -126.493
2.74392, -1, -17.4728, 4.3614, 22.448, 11.2854, 82.2904, -126.728
2.75253, -1, -17.639, 4.27208, 22.4783, 11.2766, 82.1972, -126.963
2.76147, -1, -17.8053, 4.18281, 22.5085, 11.2677, 82.1044, -127.197
2.76804, -1, -17.9718, 4.09356, 22.5388, 11.2588, 82.0112, -127.432
2.77617, -1, -18.0552, 4.04894, 22.5539, 11.2543, 81.9648, -127.549
2.78339, -1, -18.2221, 3.95964, 22.584, 11.2452, 81.8717, -127.783
2.79145, -1, -18.3895, 3.87039, 22.6141, 11.236, 81.7789, -128.017
2.79938, -1, -18.5573, 3.78123, 22.6444, 11.2266, 81.6859, -128.251
2.8074, -1, -18.7253, 3.69206, 22.6746, 11.217, 81.593, -128.484
2.81544, -1, -18.8934, 3.60294, 22.7046, 11.2073, 81.5004, -128.718
2.82338, -1, -19.0614, 3.51391, 22.7347, 11.1978, 81.4072, -128.951
2.83138, -1, -19.2291, 3.42493, 22.7649, 11.1882, 81.3145, -129.185
2.84151, -1, -19.4802, 3.29154, 22.8101, 11.1744, 81.1756, -129.535
2.84739, -1, -19.5637, 3.24702, 22.8251, 11.1698, 81.1292, -129.651
2.85685, -1, -19.813, 3.11367, 22.8703, 11.1562, 80.9901, -130.001
2.86343, -1, -19.8959, 3.06931, 22.8854, 11.1518, 80.9439, -130.117
2.87139, -1, -20.0614, 2.98059, 22.9153, 11.1428, 80.8511, -130.35
2.87938, -1, -20.2264, 2.89203, 22.9453, 11.134, 80.7585, -130.582
2.88739, -1, -20.3911, 2.80352, 22.9754, 11.1251, 80.6661, -130.815
2.89538, -1, -20.5559, 2.71503, 23.0055, 11.1162, 80.5735, -131.047
2.90346, -1, -20.7206, 2.62654, 23.0354, 11.1072, 80.4809, -131.28
2.91244, -1, -20.8858, 2.53814, 23.0654, 11.0982, 80.3885, -131.512
2.91938, -1, -21.0512, 2.44965, 23.0954, 11.0889, 80.2958, -131.744
2.92746, -1, -21.2168, 2.36122, 23.1252, 11.0795, 80.2034, -131.976
2.93538, -1, -21.383, 2.27288, 23.1551, 11.0701, 80.111, -132.208
2.94338, -1, -21.5493, 2.18451, 23.1849, 11.0605, 80.0187, -132.44
2.95146, -1, -21.7156, 2.09616, 23.2148, 11.0511, 79.9264, -132.671
2.95943, -1, -21.8819, 2.00795, 23.2446, 11.0417, 79.8342, -132.903
2.96739, -1, -22.0483, 1.91973, 23.2744, 11.0325, 79.7422, -133.134
2.97545, -1, -22.2145, 1.83147, 23.3043, 11.0235, 79.6499, -133.366
2.98338, -1, -22.3804, 1.74321, 23.3342, 11.0146, 79.5579, -133.597
2.99138, -1, -22.5459, 1.655, 23.3639, 11.0059, 79.466, -133.828
2.99945, -1, -22.7108, 1.56684, 23.3936, 10.9972, 79.3739, -134.059
3.00739, -1, -22.8752, 1.47878, 23.4235, 10.9886, 79.2819, -134.29
3.01538, -1, -23.0391, 1.39082, 23.4532, 10.98, 79.1902, -134.521
3.02353, -1, -23.2029, 1.30287, 23.4828, 10.9711, 79.0982, -134.752
3.03139, -1, -23.3665, 1.21503, 23.5126, 10.9624, 79.0065, -134.982
3.03945, -1, -23.5299, 1.12728, 23.5424, 10.9533, 78.915, -135.212
3.04739, -1, -23.6935, 1.03951, 23.5721, 10.9442, 78.8232, -135.443
3.05538, -1, -23.8572, 0.951811, 23.6017, 10.935, 78.7315, -135.673
3.06345, -1, -24.0211, 0.864152, 23.6315, 10.9256, 78.6402, -135.903
3.07138, -1, -24.1853, 0.77653, 23.6612, 10.9162, 78.5487, -136.133
3.07938, -1, -24.3498, 0.689066, 23.6907, 10.9068, 78.4573, -136.363
3.08745, -1, -24.5144, 0.601461, 23.7203, 10.8975, 78.3658, -136.593
3.09539, -1, -24.6794, 0.513973, 23.7499, 10.8883, 78.2746, -136.823
3.10343, -1, -24.8444, 0.426565, 23.7796, 10.8792, 78.1832, -137.053
3.11154, -1, -25.0093, 0.339054, 23.8091, 10.8704, 78.0918, -137.282
3.11948, -1, -25.174, 0.25152, 23.8386, 10.8615, 78.0008, -137.511
3.12748, -1, -25.3384, 0.164031, 23.8683, 10.8528, 77.9094, -137.74
3.13555, -1, -25.5021, 0.0765912, 23.8978, 10.8441, 77.8184, -137.969
3.1435, -1, -25.6655, -0.0108391, 23.9272, 10.8355, 77.7276, -138.198
3.15144, -1, -25.8286, -0.0980958, 23.9567, 10.8269, 77.6365, -138.427
3.1595, -1, -25.9915, -0.18533, 23.9863, 10.8181, 77.5455, -138.656
3.16741, -1, -26.154, -0.272533, 24.0158, 10.8092, 77.4547, -138.885
3.17541, -1, -26.3162, -0.359566, 24.0452, 10.8003, 77.3636, -139.114
3.1836, -1, -26.4785, -0.446613, 24.0747, 10.7911, 77.2726, -139.342
3.19164, -1, -26.6408, -0.533674, 24.1044, 10.7818, 77.1816, -139.57
3.19965, -1, -26.8033, -0.620621, 24.1338, 10.7726, 77.0905, -139.798
3.2077, -1, -26.966, -0.707569, 24.1632, 10.7633, 76.9996, -140.027
3.21578, -1, -27.1289, -0.794423, 24.1926, 10.7542, 76.9087, -140.255
3.22385, -1, -27.2919, -0.881418, 24.2221, 10.7451, 76.818, -140.483
3.23192, -1, -27.4552, -0.968261, 24.2514, 10.7363, 76.7271, -140.711
3.24046, -1, -27.6187, -1.05501, 24.2807, 10.7277, 76.6363, -140.939
3.24795, -1, -27.7821, -1.14188, 24.3101, 10.7191, 76.5458, -141.167
3.25599, -1, -27.9454, -1.22869, 24.3395, 10.7105, 76.4548, -141.394
3.26448, -1, -28.1086, -1.31542, 24.3688, 10.702, 76.3642, -141.621
3.27203, -1, -28.1901, -1.35877, 24.3981, 10.6934, 76.2738, -141.849
3.28017, -1, -28.4343, -1.48872, 24.4275, 10.6848, 76.183, -142.076
3.28735, -1, -28.5155, -1.53198, 24.4421, 10.6805, 76.1378, -142.19
3.29538, -1, -28.6776, -1.61852, 24.4713, 10.6717, 76.0474, -142.417
3.30343, -1, -28.8394, -1.70505, 24.5004, 10.6629, 75.9572, -142.644
3.31137, -1, -29.0007, -1.79147, 24.5297, 10.6539, 75.8666, -142.871
3.31938, -1, -29.1618, -1.87787, 24.5589, 10.6448, 75.7763, -143.098
3.32741, -1, -29.323, -1.96424, 24.5881, 10.6354, 75.6863, -143.325
3.33537, -1, -29.4842, -2.05061, 24.6173, 10.6262, 75.5959, -143.552
3.34339, -1, -29.6455, -2.13683, 24.6466, 10.617, 75.5057, -143.778
3.35283, -1, -29.8875, -2.26613, 24.6903, 10.6034, 75.3708, -144.118
3.35945, -1, -29.9682, -2.30924, 24.7049, 10.5989, 75.3256, -144.231
3.36738, -1, -30.1296, -2.39545, 24.734, 10.5901, 75.2354, -144.457
3.37695, -1, -30.3721, -2.52466, 24.7778, 10.5772, 75.1008, -144.796
3.38496, -1, -30.534, -2.61083, 24.8069, 10.5686, 75.0107, -145.022
3.39302, -1, -30.6151, -2.69699, 24.836, 10.56, 74.9211, -145.248
3.39943, -1, -30.7772, -2.74009, 24.8506, 10.5557, 74.8762, -145.361
3.40916, -1, -31.02, -2.86928, 24.8943, 10.5428, 74.7418, -145.7
3.41575, -1, -31.1008, -2.9123, 24.9088, 10.5384, 74.6971, -145.813
3.42337, -1, -31.2624, -2.99827, 24.9378, 10.5296, 74.6074, -146.039
3.43137, -1, -31.4236, -3.08425, 24.967, 10.5209, 74.518, -146.264
3.44015, -1, -31.5845, -3.17021, 24.9961, 10.5119, 74.4282, -146.489
3.44736, -1, -31.7452, -3.25612, 25.025, 10.5029, 74.3386, -146.715
3.45537, -1, -31.9057, -3.34198, 25.054, 10.4937, 74.2492, -146.94
3.46432, -1, -32.0659, -3.42777, 25.0832, 10.4844, 74.1595, -147.165
3.47243, -1, -32.2261, -3.51361, 25.1123, 10.4752, 74.0699, -147.39
3.47936, -1, -32.3862, -3.59926, 25.1412, 10.4662, 73.9804, -147.615
3.48815, -1, -32.5463, -3.6849, 25.1702, 10.4573, 73.8909, -147.84
3.49536, -1, -32.7064, -3.77045, 25.1993, 10.4485, 73.8013, -148.065
3.50337, -1, -32.8665, -3.85606, 25.2283, 10.4398, 73.7118, -148.29
3.51215, -1, -33.0267, -3.94156, 25.2572, 10.4312, 73.6226, -148.514
3.51936, -1, -33.1871, -4.02707, 25.2862, 10.4226, 73.5332, -148.739
3.52745, -1, -33.3478, -4.1127, 25.3153, 10.4141, 73.4437, -148.963
3.53622, -1, -33.5085, -4.19835, 25.3442, 10.4055, 73.3545, -149.187
3.54337, -1, -33.6693, -4.28393, 25.3731, 10.3969, 73.2649, -149.412
3.55136, -1, -33.8298, -4.36945, 25.402, 10.3883, 73.1755, -149.636
3.56053, -1, -33.99, -4.45489, 25.4311, 10.3795, 73.0863, -149.86
3.56736, -1, -34.1503, -4.54032, 25.46, 10.3707, 72.9967, -150.084
3.57543, -1, -34.3106, -4.62574, 25.4889, 10.3616, 72.9075, -150.308
3.58338, -1, -34.4708, -4.71108, 25.5178, 10.3524, 72.8183, -150.532
3.59138, -1, -34.6306, -4.79634, 25.5468, 10.3432, 72.7291, -150.755
3.59944, -1, -34.79, -4.8816, 25.5756, 10.3341, 72.6399, -150.979
3.60749, -1, -34.9492, -4.96695, 25.6044, 10.3251, 72.5508, -151.203
3.61544, -1, -35.1084, -5.05217, 25.6333, 10.3162, 72.462, -151.426
3.62353, -1, -35.2675, -5.13733, 25.6623, 10.3074, 72.3729, -151.65
3.63172, -1, -35.4266, -5.22244, 25.691, 10.2987, 72.2841, -151.873
3.63947, -1, -35.5857, -5.30757, 25.7197, 10.2902, 72.1955, -152.096
3.64754, -1, -35.7448, -5.3926, 25.7486, 10.2817, 72.1065, -152.32
3.65537, -1, -35.9039, -5.47758, 25.7774, 10.2732, 72.0178, -152.543
3.6634, -1, -36.063, -5.56263, 25.8062, 10.2648, 71.9293, -152.766
3.67147, -1, -36.2223, -5.64762, 25.8349, 10.2563, 71.8405, -152.989
3.67942, -1, -36.3817, -5.73263, 25.8637, 10.2477, 71.7518, -153.212
3.68746, -1, -36.5411, -5.81759, 25.8924, 10.2391, 71.6633, -153.435
3.69593, -1, -36.7003, -5.90249, 25.9211, 10.2302, 71.575, -153.657
3.70362, -1, -36.8596, -5.98726, 25.9498, 10.2212, 71.4866, -153.88
3.71165, -1, -37.0189, -6.07201, 25.9786, 10.2121, 71.3981, -154.102
3.7197, -1, -37.1779, -6.15675, 26.0074, 10.2029, 71.31, -154.325
3.72787, -1, -37.337, -6.24136, 26.036, 10.1937, 71.2214, -154.547
3.7365, -1, -37.4959, -6.32599, 26.0647, 10.1846, 71.1329, -154.77
3.74399, -1, -37.6544, -6.41067, 26.0935, 10.1757, 71.0447, -154.992
3.75246, -1, -37.8129, -6.49536, 26.1222, 10.1669, 70.9561, -155.214
3.75993, -1, -37.9712, -6.57998, 26.1508, 10.1584, 70.8676, -155.436
3.76799, -1, -38.1295, -6.6646, 26.1794, 10.1498, 70.7794, -155.658
3.77642, -1, -38.2878, -6.74918, 26.2081, 10.1415, 70.6912, -155.88
3.78335, -1, -38.3668, -6.79148, 26.2224, 10.1373, 70.647, -155.991
3.79135, -1, -38.5247, -6.876, 26.2509, 10.129, 70.5588, -156.212
3.79942, -1, -38.6827, -6.96046, 26.2795, 10.1207, 70.4707, -156.434
3.80736, -1, -38.8407, -7.04494, 26.3082, 10.1123, 70.3824, -156.656
3.81535, -1, -38.9988, -7.1294, 26.3369, 10.1039, 70.2941, -156.878
3.82459, -1, -39.236, -7.25608, 26.3796, 10.0911, 70.162, -157.21
3.83136, -1, -39.3152, -7.29828, 26.3938, 10.0867, 70.1177, -157.32
3.83936, -1, -39.4734, -7.38267, 26.4225, 10.0779, 70.0295, -157.542
3.84736, -1, -39.6316, -7.46704, 26.4511, 10.069, 69.9413, -157.763
3.85536, -1, -39.7899, -7.55139, 26.4795, 10.06, 69.8535, -157.984
3.86485, -1, -40.0272, -7.67782, 26.5223, 10.0465, 69.7213, -158.316
3.87296, -1, -40.1854, -7.76211, 26.5509, 10.0376, 69.6332, -158.537
3.88091, -1, -40.3434, -7.84631, 26.5793, 10.0288, 69.5455, -158.758
3.8874, -1, -40.4224, -7.88843, 26.5936, 10.0245, 69.5014, -158.868
3.89536, -1, -40.5801, -7.9727, 26.6221, 10.0159, 69.4136, -159.089
3.90491, -1, -40.7378, -8.05687, 26.6507, 10.0073, 69.3258, -159.42
3.91142, -1, -40.8953, -8.14101, 26.6791, 9.99897, 69.238, -159.531
3.92041, -1, -41.0525, -8.22507, 26.7074, 9.99057, 69.1502, -159.751
3.92735, -1, -41.2098, -8.30912, 26.7358, 9.98216, 69.0625, -159.972
3.93543, -1, -41.3668, -8.39311, 26.7644, 9.97387, 68.975, -160.193
3.94335, -1, -41.5239, -8.47703, 26.7928, 9.96542, 68.8871, -160.413
3.95135, -1, -41.681, -8.561, 26.8212, 9.95694, 68.7993, -160.633
3.95941, -1, -41.8382, -8.64496, 26.8497, 9.94836, 68.7118, -160.854
3.96736, -1, -41.9954, -8.72888, 26.8782, 9.93962, 68.6239, -161.074
3.97536, -1, -42.1526, -8.8128, 26.9065, 9.93071, 68.5363, -161.294
3.98341, -1, -42.3098, -8.8967, 26.9349, 9.92174, 68.4488, -161.514
3.99136, -1, -42.467, -8.98052, 26.9633, 9.91265, 68.3611, -161.734
3.99935, -1, -42.6244, -9.06444, 26.9918, 9.90366, 68.2735, -161.954
4.00742, -1, -42.7816, -9.14826, 27.0201, 9.89475, 68.1859, -162.174
4.01535, -1, -42.9388, -9.23204, 27.0483, 9.886, 68.0987, -162.394
4.02335, -1, -43.0959, -9.31579, 27.0767, 9.87742, 68.011, -162.614
4.0315, -1, -43.2529, -9.39958, 27.1052, 9.86888, 67.9234, -162.834
4.03935, -1, -43.4099, -9.48337, 27.1335, 9.86058, 67.8362, -163.053
4.04735, -1, -43.5669, -9.56699, 27.1618, 9.85239, 67.7485, -163.273
4.05542, -1, -43.7237, -9.6507, 27.1901, 9.84423, 67.6611, -163.493
4.06334, -1, -43.8804, -9.73435, 27.2184, 9.83608, 67.5738, -163.712
4.07141, -1, -44.037, -9.81796, 27.2466, 9.82791, 67.4866, -163.931
4.07941, -1, -44.1935, -9.90161, 27.2748, 9.81963, 67.3992, -164.151
4.08735, -1, -44.3498, -9.98521, 27.3032, 9.81123, 67.3121, -164.37
4.09535, -1, -44.5061, -10.0687, 27.3315, 9.80278, 67.2251, -164.589
4.10345, -1, -44.6622, -10.1524, 27.3597, 9.79409, 67.1378, -164.808
4.11141, -1, -44.8185, -10.2359, 27.388, 9.78537, 67.0505, -165.027
4.11944, -1, -44.9747, -10.3193, 27.4163, 9.77636, 66.9635, -165.247
4.12751, -1, -45.1307, -10.4027, 27.4446, 9.76735, 66.8762, -165.466
4.13545, -1, -45.286, -10.4855, 27.4729, 9.75845, 66.7891, -165.685
4.14345, -1, -45.4399, -10.5676, 27.5013, 9.74967, 66.7023, -165.903
4.15154, -1, -45.5912, -10.6482, 27.5297, 9.74109, 66.6158, -166.12
4.15935, -1, -45.7383, -10.7257, 27.5582, 9.73286, 66.5305, -166.333
4.16736, -1, -45.8788, -10.7987, 27.5863, 9.72495, 66.4475, -166.542
4.17544, -1, -46.0105, -10.8666, 27.6135, 9.71748, 66.3691, -166.74
4.18338, -1, -46.1315, -10.9286, 27.6387, 9.71082, 66.2962, -166.922
4.19153, -1, -46.2388, -10.9833, 27.6609, 9.70488, 66.2323, -167.083
4.19983, -1, -46.3307, -11.0308, 27.6791, 9.69994, 66.1775, -167.219
4.20783, -1, -46.4074, -11.0722, 27.6929, 9.69593, 66.1343, -167.328
4.21635, -1, -46.4699, -11.1076, 27.7024, 9.6928, 66.1021, -167.41
4.22386, -1, -46.5186, -11.1365, 27.708, 9.6904, 66.0797, -167.466
4.23245, -1, -46.555, -11.1581, 27.711, 9.68874, 66.0652, -167.503
4.23985, -1, -46.581, -11.1733, 27.7124, 9.68757, 66.0565, -167.525
4.24843, -1, -46.5985, -11.1834, 27.7129, 9.68677, 66.0518, -167.537
4.25587, -1, -46.6091, -11.1897, 27.7132, 9.68628, 66.0493, -167.543
4.26389, 2, -46.6146, -11.1928, 27.7133, 9.68602, 66.0482, -167.546
4.27244, 2, -46.6168, -11.1941, 27.7134, 9.68586, 66.0477, -167.547
4.28027, 2, -46.6168, -11.1947, 27.7134, 9.68576, 66.0474, -167.548
4.28734, 2, -46.6166, -11.1947, 27.7134, 9.68572, 66.0473, -167.548
4.29638, 2, -46.6163, -11.1948, 27.7134, 9.68567, 66.0472, -167.548
4.30334, 2, -46.6164, -11.1949, 27.7134, 9.68566, 66.0472, -167.548
4.31135, 2, -46.6169, -11.195, 27.7134, 9.68561, 66.0471, -167.548
4.32051, 2, -46.6184, -11.1956, 27.7135, 9.68551, 66.0471, -167.548
4.32734, 2, -46.6192, -11.1958, 27.7135, 9.6855, 66.0471, -167.548
4.33533, 2, -46.6209, -11.1965, 27.7134, 9.68548, 66.0471, -167.548
4.34479, 2, -46.6229, -11.1976, 27.7134, 9.68538, 66.0471, -167.548
4.35135, 2, -46.6234, -11.1978, 27.7134, 9.68538, 66.0471, -167.548
4.35933, 2, -46.6242, -11.1982, 27.7134, 9.68537, 66.047, -167.548
4.36888, 2, -46.6247, -11.1985, 27.7134, 9.68534, 66.0471, -167.548
4.377, 2, -46.6248, -11.1985, 27.7134, 9.68536, 66.0471, -167.548
4.38489, 2, -46.6249, -11.1984, 27.7135, 9.68536, 66.0471, -167.548
4.39294, 2, -46.6246, -11.1984, 27.7135, 9.68536, 66.0471, -167.548
4.40104, 2, -46.6242, -11.1983, 27.7135, 9.68536, 66.0471, -167.548
4.40734, 2, -46.624, -11.1982, 27.7135, 9.68535, 66.0471, -167.548
4.41635, 2, -46.6236, -11.1982, 27.7134, 9.68534, 66.047, -167.548
4.42439, 2, -46.6234, -11.1982, 27.7134, 9.68536, 66.047, -167.548
4.43134, 2, -46.6233, -11.1982, 27.7134, 9.68537, 66.047, -167.548
4.4394, 2, -46.6234, -11.1984, 27.7134, 9.68535, 66.0471, -167.548
4.44734, 2, -46.6235, -11.1985, 27.7134, 9.68532, 66.0471, -167.548
4.45533, 2, -46.6241, -11.1987, 27.7134, 9.68534, 66.0471, -167.548
4.46339, 2, -46.6247, -11.1988, 27.7134, 9.68534, 66.0471, -167.548
4.47139, 2, -46.625, -11.1989, 27.7134, 9.68532, 66.0471, -167.548
4.47933, 2, -46.6251, -11.1989, 27.7134, 9.68532, 66.0471, -167.548
4.4874, 2, -46.6252, -11.1989, 27.7134, 9.6853, 66.0471, -167.548
4.49532, 2, -46.6251, -11.1988, 27.7134, 9.68532, 66.0471, -167.547
4.50333, 2, -46.625, -11.1988, 27.7134, 9.6853, 66.0471, -167.547
4.51141, 2, -46.6249, -11.1987, 27.7134, 9.68529, 66.047, -167.547
4.51933, 2, -46.6246, -11.1987, 27.7134, 9.68531, 66.0471, -167.547
4.52733, 2, -46.6245, -11.1986, 27.7134, 9.68529, 66.0471, -167.547
4.53554, 2, -46.6242, -11.1987, 27.7134, 9.68531, 66.0471, -167.547
4.54333, 2, -46.6241, -11.1987, 27.7134, 9.68532, 66.0471, -167.547
4.55135, 2, -46.624, -11.1987, 27.7134, 9.68534, 66.0471, -167.547
4.55939, 2, -46.6239, -11.1988, 27.7134, 9.68535, 66.0471, -167.547
4.56734, 2, -46.6238, -11.1988, 27.7134, 9.68531, 66.0471, -167.547
4.57533, 2, -46.6238, -11.1988, 27.7134, 9.68529, 66.0471, -167.547
4.58339, 2, -46.6238, -11.1988, 27.7134, 9.6853, 66.0471, -167.547
4.59135, 2, -46.6238, -11.1988, 27.7134, 9.6853, 66.0471, -167.547
4.59936, 2, -46.6237, -11.1987, 27.7134, 9.68531, 66.0471, -167.547
4.60743, 2, -46.6237, -11.1987, 27.7134, 9.68533, 66.0471, -167.547
4.6154, 2, -46.6236, -11.1986, 27.7134, 9.6853, 66.0471, -167.547
4.62342, 2, -46.6236, -11.1986, 27.7134, 9.68529, 66.0471, -167.547
4.6315, 2, -46.6235, -11.1986, 27.7134, 9.68528, 66.0471, -167.547
4.63943, 2, -46.6234, -11.1986, 27.7134, 9.68528, 66.0471, -167.547
4.64744, 2, -46.6233, -11.1986, 27.7134, 9.68528, 66.0471, -167.547
4.6555, 2, -46.6232, -11.1986, 27.7134, 9.68525, 66.0472, -167.547
4.66337, 2, -46.6231, -11.1986, 27.7134, 9.68529, 66.0472, -167.547
4.67136, 2, -46.623, -11.1987, 27.7134, 9.6853, 66.0472, -167.547
4.67943, 2, -46.623, -11.1986, 27.7134, 9.68535, 66.0472, -167.547
4.6874, 2, -46.6229, -11.1986, 27.7134, 9.68532, 66.0472, -167.547
4.69543, 2, -46.6228, -11.1986, 27.7134, 9.68532, 66.0472, -167.547
4.70366, 2, -46.6227, -11.1986, 27.7134, 9.68534, 66.0472, -167.547
4.71211, 2, -46.6226, -11.1985, 27.7134, 9.6853, 66.0472, -167.547
4.72033, 2, -46.6225, -11.1985, 27.7134, 9.68534, 66.0472, -167.547
4.72778, 2, -46.6224, -11.1985, 27.7134, 9.68534, 66.0472, -167.547
4.73615, 2, -46.6223, -11.1984, 27.7134, 9.68531, 66.0472, -167.547
4.7438, 2, -46.6222, -11.1984, 27.7134, 9.68529, 66.0472, -167.547
4.75189, 2, -46.6221, -11.1984, 27.7134, 9.6853, 66.0472, -167.547
4.7605, 2, -46.622, -11.1984, 27.7134, 9.68533, 66.0472, -167.546
4.76789, 2, -46.6219, -11.1985, 27.7134, 9.6853, 66.0472, -167.546
4.77644, 2, -46.6218, -11.1985, 27.7134, 9.68529, 66.0472, -167.546
4.78421, 2, -46.6217, -11.1985, 27.7134, 9.6853, 66.0472, -167.546
4.79134, 2, -46.6216, -11.1985, 27.7134, 9.68531, 66.0472, -167.546
4.80035, 2, -46.6216, -11.1985, 27.7134, 9.68529, 66.0472, -167.546
4.80844, 2, -46.6215, -11.1984, 27.7134, 9.68529, 66.0472, -167.546
4.81532, 2, -46.6215, -11.1984, 27.7134, 9.6853, 66.0472, -167.546
4.82446, 2, -46.6214, -11.1983, 27.7134, 9.68532, 66.0472, -167.546
4.83133, 2, -46.6214, -11.1983, 27.7134, 9.68532, 66.0472, -167.546
4.83931, 2, -46.6213, -11.1983, 27.7134, 9.68531, 66.0473, -167.546
4.84864, 2, -46.6212, -11.1983, 27.7134, 9.68532, 66.0473, -167.546
4.85532, 2, -46.6211, -11.1983, 27.7134, 9.68533, 66.0473, -167.546
4.86332, 2, -46.621, -11.1983, 27.7134, 9.68532, 66.0473, -167.546
4.87283, 2, -46.621, -11.1983, 27.7134, 9.6853, 66.0472, -167.546
4.88127, 2, -46.6209, -11.1983, 27.7134, 9.68529, 66.0473, -167.546
4.88753, 2, -46.6209, -11.1983, 27.7134, 9.6853, 66.0472, -167.546
4.89538, 2, -46.6209, -11.1983, 27.7134, 9.68535, 66.0473, -167.546
4.90537, 2, -46.6209, -11.1983, 27.7134, 9.68537, 66.0473, -167.546
4.91133, 2, -46.6208, -11.1983, 27.7134, 9.68538, 66.0473, -167.546
4.91938, 2, -46.6208, -11.1983, 27.7134, 9.68536, 66.0473, -167.546
4.92732, 2, -46.6208, -11.1982, 27.7134, 9.68532, 66.0473, -167.546
4.93532, 2, -46.6207, -11.1982, 27.7134, 9.68534, 66.0473, -167.546
4.94338, 2, -46.6207, -11.1982, 27.7134, 9.68532, 66.0473, -167.546
4.95133, 2, -46.6206, -11.1982, 27.7134, 9.68531, 66.0473, -167.546
4.95931, 2, -46.6205, -11.1981, 27.7134, 9.68531, 66.0473, -167.546
4.96738, 2, -46.6204, -11.1982, 27.7134, 9.68531, 66.0473, -167.546
4.97531, 2, -46.6203, -11.1982, 27.7134, 9.68535, 66.0473, -167.546
4.98331, 2, -46.6203, -11.1981, 27.7134, 9.68532, 66.0473, -167.546
4.99139, 2, -46.6202, -11.1981, 27.7134, 9.68532, 66.0474, -167.546
4.99931, 2, -46.6202, -11.1981, 27.7134, 9.68535, 66.0474, -167.546
5.00732, 2, -46.6201, -11.1981, 27.7134, 9.68537, 66.0474, -167.546
5.01538, 2, -46.6201, -11.1981, 27.7134, 9.68533, 66.0474, -167.546
5.02331, 2, -46.6201, -11.1981, 27.7134, 9.68533, 66.0474, -167.546
5.03133, 2, -46.62, -11.1981, 27.7134, 9.6853, 66.0473, -167.546
5.03958, 2, -46.62, -11.198, 27.7134, 9.68529, 66.0473, -167.546
5.04732, 2, -46.6199, -11.198, 27.7134, 9.68528, 66.0473, -167.546
5.05531, 2, -46.6199, -11.198, 27.7134, 9.68531, 66.0473, -167.546
5.06338, 2, -46.6197, -11.198, 27.7134, 9.68532, 66.0473, -167.546
5.07132, 2, -46.6196, -11.198, 27.7134, 9.68532, 66.0473, -167.546
5.07932, 2, -46.6196, -11.198, 27.7134, 9.68534, 66.0474, -167.546
5.08739, 2, -46.6195, -11.198, 27.7134, 9.68532, 66.0474, -167.546
5.09531, 2, -46.6194, -11.198, 27.7134, 9.68531, 66.0474, -167.546
5.10342, 2, -46.6194, -11.198, 27.7134, 9.68532, 66.0474, -167.546
5.11144, 2, -46.6193, -11.198, 27.7134, 9.68533, 66.0474, -167.546
5.1194, 2, -46.6193, -11.198, 27.7134, 9.6853, 66.0473, -167.546
5.12741, 2, -46.6193, -11.1979, 27.7134, 9.68531, 66.0473, -167.546
5.13547, 2, -46.6192, -11.1979, 27.7134, 9.68535, 66.0474, -167.546
5.14342, 2, -46.6192, -11.1979, 27.7134, 9.68532, 66.0474, -167.546
5.15143, 2, -46.6191, -11.1978, 27.7134, 9.6853, 66.0474, -167.546
5.15949, 2, -46.6191, -11.1978, 27.7134, 9.68529, 66.0474, -167.546
5.16733, 2, -46.619, -11.1978, 27.7134, 9.68528, 66.0474, -167.546
5.17534, 2, -46.6189, -11.1978, 27.7134, 9.68528, 66.0474, -167.546
5.18341, 2, -46.6188, -11.1978, 27.7134, 9.6853, 66.0474, -167.546
5.19143, 2, -46.6187, -11.1978, 27.7134, 9.68533, 66.0474, -167.545
5.19946, 2, -46.6186, -11.1978, 27.7134, 9.68535, 66.0474, -167.545
5.20767, 2, -46.6186, -11.1978, 27.7134, 9.68534, 66.0474, -167.545
5.21557, 2, -46.6185, -11.1978, 27.7134, 9.68532, 66.0474, -167.545
5.22367, 2, -46.6185, -11.1978, 27.7134, 9.68534, 66.0474, -167.545
5.23179, 2, -46.6185, -11.1978, 27.7134, 9.68535, 66.0474, -167.545
5.23977, 2, -46.6185, -11.1977, 27.7134, 9.68533, 66.0474, -167.545
5.2484, 2, -46.6184, -11.1977, 27.7134, 9.68533, 66.0475, -167.545
5.25586, 2, -46.6184, -11.1977, 27.7134, 9.68536, 66.0475, -167.545
5.26655, 2, -46.6183, -11.1976, 27.7134, 9.68536, 66.0474, -167.545
5.27186, 2, -46.6182, -11.1976, 27.7134, 9.68533, 66.0474, -167.545
5.28041, 2, -46.6181, -11.1976, 27.7134, 9.68536, 66.0474, -167.545
5.28797, 2, -46.6181, -11.1976, 27.7134, 9.68537, 66.0474, -167.545
5.29535, 2, -46.618, -11.1976, 27.7134, 9.68536, 66.0474, -167.545
5.30434, 2, -46.6179, -11.1976, 27.7134, 9.68537, 66.0474, -167.545
5.31131, 2, -46.6179, -11.1976, 27.7134, 9.68537, 66.0474, -167.545
5.3193, 2, -46.6178, -11.1976, 27.7134, 9.68536, 66.0474, -167.545
5.32732, 4, -46.6178, -11.1976, 27.7134, 9.68535, 66.0474, -167.545
5.33662, 4, -46.6178, -11.1976, 27.7134, 9.68533, 66.0475, -167.545
5.3433, 4, -46.6177, -11.1975, 27.7134, 9.68531, 66.0475, -167.545
5.35137, 4, -46.6177, -11.1975, 27.7134, 9.68531, 66.0475, -167.545
5.36086, 4, -46.6177, -11.1975, 27.7134, 9.68532, 66.0475, -167.545
5.36917, 4, -46.6176, -11.1974, 27.7134, 9.68532, 66.0475, -167.545
5.37544, 4, -46.6176, -11.1974, 27.7134, 9.68532, 66.0475, -167.545
5.38495, 4, -46.6175, -11.1974, 27.7134, 9.68534, 66.0475, -167.545
5.39316, 4, -46.6174, -11.1974, 27.7134, 9.68533, 66.0474, -167.545
5.39936, 4, -46.6173, -11.1974, 27.7134, 9.68535, 66.0475, -167.545
5.40901, 4, -46.6173, -11.1974, 27.7134, 9.68534, 66.0475, -167.545
5.4153, 4, -46.6172, -11.1974, 27.7134, 9.68534, 66.0475, -167.545
5.42339, 4, -46.6172, -11.1974, 27.7134, 9.68534, 66.0475, -167.545
5.44918, 4, -46.6171, -11.1974, 27.7134, 9.68531, 66.0475, -167.545
5.45125, 4, -46.6171, -11.1973, 27.7134, 9.68533, 66.0475, -167.545
5.45359, 4, -46.6171, -11.1973, 27.7133, 9.68537, 66.0475, -167.545
5.45838, 4, -46.6171, -11.1973, 27.7133, 9.68536, 66.0475, -167.545
5.46762, 4, -46.617, -11.1973, 27.7133, 9.68533, 66.0475, -167.545
5.47375, 4, -46.617, -11.1973, 27.7133, 9.68534, 66.0475, -167.545
5.47934, 4, -46.6171, -11.1973, 27.7134, 9.68534, 66.0475, -167.545
5.4873, 4, -46.618, -11.1977, 27.7136, 9.6856, 66.0476, -167.545
5.49553, 4, -46.6202, -11.1995, 27.7151, 9.68787, 66.0485, -167.545
5.50433, 4, -46.6241, -11.2037, 27.72, 9.69824, 66.0515, -167.543
5.51229, 4, -46.6302, -11.211, 27.7305, 9.72293, 66.0589, -167.538
5.52052, 4, -46.6389, -11.2222, 27.7495, 9.77001, 66.0732, -167.526
5.52729, 5, -46.6511, -11.2384, 27.7796, 9.84579, 66.0964, -167.508
5.53535, 5, -46.6675, -11.2596, 27.8224, 9.95454, 66.13, -167.481
5.54369, 5, -46.6883, -11.2856, 27.8785, 10.0986, 66.1756, -167.445
5.55314, 5, -46.7131, -11.3166, 27.9473, 10.2755, 66.231, -167.4
5.55929, 5, -46.7417, -11.3523, 28.027, 10.48, 66.295, -167.348
5.57084, 5, -46.7904, -11.414, 28.1628, 10.8236, 66.4023, -167.262
5.57544, 5, -46.8078, -11.4363, 28.2113, 10.9448, 66.44, -167.231
5.5833, 5, -46.8441, -11.483, 28.3115, 11.1935, 66.5173, -167.168
5.59141, 5, -46.8822, -11.5318, 28.4146, 11.4471, 66.5955, -167.105
5.59951, 5, -46.9219, -11.5819, 28.5196, 11.7035, 66.674, -167.041
5.60731, 5, -46.9627, -11.633, 28.6262, 11.9612, 66.7523, -166.976
5.61554, 5, -47.0041, -11.6846, 28.7342, 12.2196, 66.83, -166.913
5.62339, 5, -47.0458, -11.7366, 28.8433, 12.4782, 66.9077, -166.849
5.63141, 5, -47.0878, -11.7889, 28.9537, 12.7371, 66.9843, -166.785
5.63972, 5, -47.1299, -11.8413, 29.0649, 12.9961, 67.0607, -166.721
5.64753, 5, -47.1721, -11.8938, 29.1768, 13.255, 67.136, -166.658
5.6563, 5, -47.214, -11.9464, 29.2897, 13.5141, 67.2113, -166.594
5.66401, 5, -47.256, -11.9991, 29.4037, 13.7735, 67.2852, -166.532
5.67157, 5, -47.2981, -12.0521, 29.5188, 14.0329, 67.3592, -166.469
5.67951, 5, -47.3405, -12.1053, 29.6351, 14.2923, 67.4323, -166.407
5.68828, 5, -47.3833, -12.1588, 29.752, 14.5517, 67.5052, -166.345
5.6957, 5, -47.4268, -12.2127, 29.8696, 14.8112, 67.5765, -166.283
5.70428, 5, -47.4706, -12.267, 29.9882, 15.0706, 67.6482, -166.222
5.71245, 5, -47.5147, -12.3217, 30.1078, 15.3302, 67.7183, -166.162
5.71991, 5, -47.559, -12.3768, 30.2286, 15.5901, 67.7889, -166.101
5.72836, 5, -47.6034, -12.4323, 30.3503, 15.8499, 67.8578, -166.041
5.73643, 5, -47.648, -12.4879, 30.4727, 16.1095, 67.9271, -165.982
5.74482, 5, -47.6929, -12.5437, 30.5957, 16.3694, 67.9952, -165.923
5.75559, 5, -47.7379, -12.5998, 30.7197, 16.6291, 68.097, -165.835
5.76078, 5, -47.7831, -12.6559, 30.8449, 16.8889, 68.1302, -165.806
5.76785, 5, -47.8284, -12.7122, 30.9712, 17.149, 68.1968, -165.748
5.77644, 5, -47.8739, -12.7686, 31.0984, 17.409, 68.263, -165.69
5.78448, 5, -47.8966, -12.7969, 31.1622, 17.539, 68.3285, -165.633
5.79194, 5, -47.9419, -12.8535, 31.2906, 17.799, 68.3937, -165.576
5.80037, 5, -48.0099, -12.9389, 31.4848, 18.1894, 68.4576, -165.519
5.8073, 5, -48.0327, -12.9676, 31.55, 18.3194, 68.4898, -165.49
5.8172, 5, -48.1017, -13.0542, 31.7471, 18.7099, 68.5848, -165.406
5.82492, 5, -48.1482, -13.1123, 31.8795, 18.9703, 68.6481, -165.35
5.83155, 5, -48.1715, -13.1415, 31.946, 19.1005, 68.6794, -165.322
5.83935, 5, -48.2185, -13.2002, 32.0797, 19.3609, 68.7409, -165.267
5.84864, 5, -48.289, -13.2886, 32.282, 19.7516, 68.8335, -165.185
5.85528, 5, -48.3126, -13.3182, 32.3498, 19.8819, 68.8637, -165.157
5.86334, 5, -48.3599, -13.3775, 32.4862, 20.1423, 68.9246, -165.103
5.87314, 5, -48.4307, -13.4667, 32.6928, 20.5333, 69.0141, -165.023
5.87931, 5, -48.4543, -13.4966, 32.7622, 20.6637, 69.0439, -164.996
5.88883, 5, -48.5253, -13.5861, 32.9713, 21.0547, 69.1326, -164.917
5.89706, 5, -48.5718, -13.6458, 33.1116, 21.3153, 69.1908, -164.865
5.9071, 5, -48.6169, -13.7052, 33.2526, 21.5755, 69.2495, -164.811
5.91284, 5, -48.6387, -13.7347, 33.3232, 21.7051, 69.2783, -164.756
5.92189, 5, -48.7014, -13.8222, 33.5344, 22.0894, 69.3661, -164.695
5.92751, 5, -48.7211, -13.8508, 33.6041, 22.2154, 69.396, -164.662
5.93633, 6, -48.7577, -13.9069, 33.7416, 22.4619, 69.4562, -164.588
5.94429, 6, -48.7901, -13.9612, 33.8758, 22.6993, 69.5197, -164.5
5.95229, 6, -48.818, -14.0133, 34.0059, 22.9255, 69.5848, -164.394
5.95935, 6, -48.8408, -14.0631, 34.131, 23.1393, 69.6535, -164.27
5.96729, 6, -48.8577, -14.1103, 34.251, 23.3405, 69.7251, -164.127
5.97543, 7, -48.8687, -14.1546, 34.3659, 23.5297, 69.7998, -163.966
5.98429, 7, -48.8741, -14.1961, 34.476, 23.7077, 69.8769, -163.788
5.99129, 7, -48.8747, -14.235, 34.5815, 23.8763, 69.9563, -163.596
5.99928, 7, -48.8706, -14.2714, 34.6832, 24.0373, 70.038, -163.391
6.00737, 7, -48.8624, -14.3056, 34.7816, 24.1917, 70.1218, -163.176
6.01528, 7, -48.8508, -14.338, 34.8773, 24.3404, 70.2067, -162.951
6.02345, 8, -48.8363, -14.3687, 34.9703, 24.4849, 70.2933, -162.719
6.03135, 8, -48.8194, -14.3982, 35.0611, 24.6258, 70.3814, -162.481
6.03928, 8, -48.8005, -14.4264, 35.1497, 24.764, 70.4704, -162.238
6.04738, 8, -48.7799, -14.4538, 35.2366, 24.9004, 70.5606, -161.991
6.0553, 8, -48.7582, -14.4804, 35.3221, 25.0355, 70.6516, -161.741
6.06328, 9, -48.7356, -14.5062, 35.4068, 25.1697, 70.743, -161.488
6.07152, 9, -48.7123, -14.5314, 35.4906, 25.3034, 70.8352, -161.235
6.08032, 9, -48.6881, -14.5561, 35.5736, 25.4371, 70.9278, -160.98
6.08729, 9, -48.6633, -14.5804, 35.6558, 25.571, 71.0206, -160.725
6.09647, 9, -48.6377, -14.6041, 35.7371, 25.7054, 71.1135, -160.47
6.10678, 10, -48.5981, -14.6388, 35.8585, 25.9087, 71.2535, -160.088
6.11137, 10, -48.5847, -14.6503, 35.8989, 25.9767, 71.3002, -159.96
6.12138, 10, -48.5578, -14.6729, 35.9794, 26.1136, 71.3935, -159.706
6.12827, 10, -48.5307, -14.6954, 36.0598, 26.2512, 71.4872, -159.453
6.13569, 10, -48.5034, -14.718, 36.14, 26.39, 71.581, -159.201
6.14338, 10, -48.476, -14.7402, 36.2198, 26.5296, 71.6741, -158.95
6.15162, 11, -48.4486, -14.7627, 36.2994, 26.6702, 71.7674, -158.7
6.16036, 11, -48.4213, -14.7852, 36.3789, 26.8119, 71.8607, -158.45
6.16729, 11, -48.3938, -14.8075, 36.4582, 26.9542, 71.9535, -158.202
6.17529, 11, -48.3663, -14.8301, 36.5372, 27.0974, 72.0463, -157.955
6.18337, 11, -48.3385, -14.8525, 36.6161, 27.2413, 72.1392, -157.708
6.19135, 11, -48.3101, -14.8748, 36.6948, 27.3859, 72.2316, -157.462
6.19979, 12, -48.2816, -14.8972, 36.7734, 27.5314, 72.3239, -157.217
6.20832, 12, -48.2528, -14.9193, 36.8519, 27.6774, 72.4162, -156.973
6.21553, 12, -48.2235, -14.9415, 36.9301, 27.8237, 72.5078, -156.73
6.22443, 12, -48.1938, -14.9637, 37.0079, 27.9705, 72.5995, -156.487
6.23167, 12, -48.1636, -14.9856, 37.0853, 28.1175, 72.6911, -156.245
6.23981, 13, -48.133, -15.0077, 37.1623, 28.2647, 72.7822, -156.004
6.24883, 13, -48.102, -15.0297, 37.2391, 28.4125, 72.8731, -155.763
6.25673, 13, -48.0706, -15.0516, 37.3156, 28.5602, 72.9636, -155.523
6.26385, 13, -48.0389, -15.0737, 37.3917, 28.7078, 73.0541, -155.283
6.27265, 13, -48.0065, -15.0957, 37.4675, 28.8556, 73.1442, -155.043
6.28235, 14, -47.9735, -15.1175, 37.5429, 29.0032, 73.2343, -154.804
6.28839, 14, -47.9401, -15.1396, 37.6178, 29.1508, 73.3243, -154.565
6.29788, 14, -47.9061, -15.1614, 37.6922, 29.2986, 73.4135, -154.327
6.3043, 14, -47.8713, -15.1831, 37.7662, 29.4461, 73.5027, -154.088
6.31128, 14, -47.8536, -15.194, 37.803, 29.5197, 73.5472, -153.97
6.31933, 14, -47.8176, -15.2157, 37.8763, 29.6669, 73.6363, -153.732
6.32875, 15, -47.7624, -15.248, 37.9855, 29.887, 73.769, -153.377
6.33527, 15, -47.7437, -15.2589, 38.0217, 29.9604, 73.8131, -153.258
6.34332, 15, -47.7057, -15.2804, 38.0939, 30.1069, 73.9014, -153.022
6.35427, 15, -47.6475, -15.3128, 38.2013, 30.326, 74.0328, -152.667
6.35938, 15, -47.6278, -15.3237, 38.2369, 30.3989, 74.0765, -152.55
6.36724, 16, -47.5881, -15.3454, 38.3078, 30.5445, 74.1637, -152.315
6.37816, 16, -47.527, -15.378, 38.4131, 30.7622, 74.2934, -151.963
6.38332, 16, -47.5064, -15.389, 38.448, 30.8347, 74.3366, -151.847
6.39285, 16, -47.4435, -15.4217, 38.5522, 31.0519, 74.4654, -151.497
6.40227, 16, -47.4007, -15.4438, 38.6212, 31.1963, 74.5501, -151.265
6.40734, 16, -47.379, -15.4549, 38.6556, 31.2684, 74.5926, -151.149
6.41689, 17, -47.335, -15.477, 38.7242, 31.4125, 74.677, -150.802
6.42523, 17, -47.2904, -15.4993, 38.8264, 31.6278, 74.8029, -150.572
6.4321, 17, -47.2451, -15.5218, 38.8604, 31.6995, 74.8442, -150.457
6.43932, 17, -47.1991, -15.5443, 38.9281, 31.843, 74.9272, -150.228
6.4484, 17, -47.1524, -15.5673, 38.9954, 31.986, 75.0095, -150.001
6.45538, 18, -47.1051, -15.5904, 39.0624, 32.1289, 75.0915, -149.773
6.46328, 18, -47.0571, -15.6136, 39.1292, 32.2714, 75.1721, -149.547
6.47215, 18, -47.0087, -15.6373, 39.1955, 32.4137, 75.2525, -149.322
6.48032, 18, -46.9597, -15.6611, 39.2617, 32.5559, 75.3322, -149.098
6.48831, 18, -46.91, -15.6854, 39.3277, 32.6979, 75.4109, -148.875
6.49634, 18, -46.8596, -15.7101, 39.3936, 32.8398, 75.4892, -148.653
6.50588, 19, -46.783, -15.7475, 39.492, 33.0521, 75.6049, -148.322
6.51225, 19, -46.757, -15.7602, 39.5246, 33.1226, 75.6434, -148.212
6.5218, 19, -46.7046, -15.7985, 39.6223, 33.334, 75.7567, -147.884
6.52827, 19, -46.6515, -15.8116, 39.6547, 33.4044, 75.7943, -147.775
6.53537, 19, -46.5977, -15.8379, 39.7193, 33.5449, 75.8684, -147.559
6.54327, 20, -46.5432, -15.8643, 39.7838, 33.6852, 75.9424, -147.344
6.55874, 20, -46.4603, -15.905, 39.9121, 33.9647, 76.0867, -146.916
6.56024, 20, -46.4323, -15.9187, 39.9121, 33.9647, 76.0867, -146.916
6.56727, 20, -46.3758, -15.9465, 39.9759, 34.1037, 76.1575, -146.704
6.57541, 20, -46.3187, -15.9747, 40.0395, 34.2426, 76.2283, -146.493
6.58333, 20, -46.2609, -16.0032, 40.1029, 34.3812, 76.2973, -146.283
6.59126, 21, -46.2025, -16.0321, 40.166, 34.5195, 76.3662, -146.074
6.59932, 21, -46.1434, -16.0616, 40.2289, 34.6571, 76.4337, -145.866
6.60727, 21, -46.0834, -16.0914, 40.2915, 34.7945, 76.5008, -145.659
6.61558, 21, -46.0227, -16.1215, 40.3538, 34.9313, 76.5668, -145.453
6.6235, 21, -45.9611, -16.1518, 40.4157, 35.0675, 76.6321, -145.248
6.63226, 22, -45.8986, -16.1826, 40.4773, 35.2034, 76.6971, -145.044
6.63975, 22, -45.8356, -16.2137, 40.5384, 35.3388, 76.7605, -144.841
6.64737, 22, -45.7717, -16.2451, 40.5994, 35.4736, 76.8242, -144.639
6.65536, 22, -45.707, -16.2768, 40.6599, 35.6078, 76.8858, -144.438
6.66345, 22, -45.6416, -16.3089, 40.7201, 35.7412, 76.9477, -144.237
6.67157, 23, -45.5753, -16.3412, 40.7799, 35.8741, 77.0083, -144.037
6.68145, 23, -45.5081, -16.3737, 40.8391, 36.0062, 77.0684, -143.837
6.68827, 23, -45.44, -16.4065, 40.898, 36.1378, 77.1281, -143.639
6.69595, 23, -45.3712, -16.4396, 40.9563, 36.2688, 77.186, -143.441
6.70434, 23, -45.3014, -16.4728, 41.014, 36.3988, 77.2444, -143.243
6.71144, 23, -45.2308, -16.5063, 41.0713, 36.5281, 77.3011, -143.047
6.72067, 24, -45.1592, -16.5399, 41.128, 36.6563, 77.3578, -142.85
6.72919, 24, -45.0867, -16.5737, 41.184, 36.7839, 77.4142, -142.655
6.73566, 24, -45.0133, -16.6076, 41.2395, 36.9106, 77.4688, -142.46
6.74384, 24, -44.9389, -16.6417, 41.2944, 37.0364, 77.524, -142.265
6.75327, 24, -44.8636, -16.676, 41.3486, 37.1613, 77.5779, -142.07
6.75985, 25, -44.7874, -16.7102, 41.4022, 37.285, 77.6311, -141.876
6.76838, 25, -44.7101, -16.7445, 41.4552, 37.4081, 77.6846, -141.682
6.7761, 25, -44.6321, -16.7789, 41.5073, 37.5297, 77.7363, -141.489
6.7838, 25, -44.5928, -16.7961, 41.5589, 37.6506, 77.7879, -141.296
6.79273, 25, -44.5133, -16.8305, 41.5843, 37.7106, 77.8396, -141.103
6.80019, 25, -44.3921, -16.8821, 41.6595, 37.8893, 77.8898, -140.91
6.80871, 26, -44.31, -16.9164, 41.7087, 38.0073, 77.9401, -140.718
6.81525, 26, -44.2686, -16.9335, 41.7329, 38.0658, 77.9653, -140.622
6.82327, 26, -44.1849, -16.9677, 41.7809, 38.1819, 78.0144, -140.43
6.83321, 26, -44.0577, -17.0189, 41.8511, 38.354, 78.087, -140.142
6.83932, 26, -44.0149, -17.0359, 41.8741, 38.4108, 78.1114, -140.046
6.84747, 27, -43.9284, -17.0699, 41.9196, 38.5236, 78.1587, -139.854
6.85529, 27, -43.841, -17.1036, 41.9641, 38.6352, 78.2055, -139.663
6.86328, 27, -43.7526, -17.1372, 42.0078, 38.7458, 78.2529, -139.471
6.87273, 27, -43.6183, -17.1874, 42.0717, 38.9097, 78.3218, -139.184
6.88087, 27, -43.5273, -17.2206, 42.1131, 39.0175, 78.3672, -138.993
6.8893, 27, -43.4354, -17.2535, 42.1536, 39.124, 78.4129, -138.801
6.89543, 28, -43.3891, -17.2698, 42.1735, 39.1768, 78.4354, -138.706
6.90408, 28, -43.2956, -17.3025, 42.2127, 39.2816, 78.4794, -138.515
6.91124, 28, -43.2012, -17.3349, 42.2509, 39.3853, 78.5238, -138.324
6.92163, 28, -43.1058, -17.3671, 42.2881, 39.4877, 78.568, -138.133
6.92725, 28, -43.0093, -17.399, 42.3245, 39.5892, 78.6108, -137.942
6.93525, 29, -42.9119, -17.4307, 42.3597, 39.6897, 78.6535, -137.751
6.94425, 29, -42.8134, -17.4621, 42.3941, 39.7887, 78.6964, -137.56
6.95382, 29, -42.7139, -17.5087, 42.444, 39.9353, 78.759, -137.274
6.95931, 29, -42.6134, -17.524, 42.46, 39.9835, 78.7797, -137.179
6.97062, 29, -42.4609, -17.5699, 42.5068, 40.1262, 78.8421, -136.893
6.9765, 30, -42.4096, -17.585, 42.522, 40.1732, 78.8627, -136.798
6.98325, 30, -42.3063, -17.6149, 42.5515, 40.2666, 78.9029, -136.607
6.99143, 30, -42.202, -17.6444, 42.58, 40.3585, 78.9427, -136.417
6.99931, 30, -42.097, -17.6737, 42.6076, 40.4496, 78.983, -136.226
7.00731, 30, -41.9909, -17.7026, 42.6342, 40.5395, 79.0225, -136.036
7.01532, 30, -41.8838, -17.7311, 42.6599, 40.6281, 79.0612, -135.846
7.0234, 31, -41.7758, -17.7594, 42.6844, 40.7157, 79.1, -135.656
7.03131, 31, -41.6669, -17.7872, 42.7081, 40.802, 79.1391, -135.466
7.0393, 31, -41.557, -17.8148, 42.7308, 40.8873, 79.177, -135.276
7.04732, 31, -41.4462, -17.8418, 42.7526, 40.9713, 79.2142, -135.085
7.05526, 31, -41.3344, -17.8685, 42.7734, 41.0541, 79.2515, -134.895
7.06346, 32, -41.2218, -17.8948, 42.7933, 41.1361, 79.289, -134.706
7.07147, 32, -41.1085, -17.9208, 42.8123, 41.2167, 79.3255, -134.516
7.07948, 32, -40.9943, -17.9465, 42.83, 41.2968, 79.3614, -134.326
7.08725, 32, -40.8792, -17.9716, 42.8468, 41.3752, 79.3976, -134.137
7.09636, 32, -40.7634, -17.9965, 42.8629, 41.4532, 79.4337, -133.948
7.10505, 32, -40.6466, -18.0209, 42.8779, 41.5293, 79.469, -133.759
7.11125, 33, -40.5289, -18.0451, 42.8917, 41.605, 79.5035, -133.57
7.12153, 33, -40.4102, -18.0687, 42.9048, 41.6793, 79.538, -133.381
7.1274, 33, -40.2908, -18.0919, 42.9169, 41.7527, 79.5728, -133.192
7.13534, 33, -40.1708, -18.1148, 42.9279, 41.8246, 79.6068, -133.004
7.14335, 33, -40.0499, -18.1372, 42.938, 41.896, 79.6399, -132.815
7.15158, 34, -39.9282, -18.1593, 42.9471, 41.9657, 79.673, -132.627
7.15942, 34, -39.8056, -18.1809, 42.9554, 42.035, 79.7065, -132.438
7.16731, 34, -39.6821, -18.2019, 42.9629, 42.1025, 79.7395, -132.25
7.17525, 34, -39.5575, -18.2227, 42.9693, 42.17, 79.7716, -132.062
7.18413, 34, -39.4321, -18.243, 42.9748, 42.2357, 79.8032, -131.875
7.1913, 34, -39.3061, -18.2626, 42.9794, 42.3011, 79.8349, -131.687
7.19974, 35, -39.1793, -18.2822, 42.983, 42.3648, 79.8668, -131.5
7.20828, 35, -39.0518, -18.3012, 42.9857, 42.4279, 79.8979, -131.313
7.21543, 35, -38.9236, -18.3196, 42.9874, 42.4897, 79.9285, -131.126
7.22358, 35, -38.7946, -18.3377, 42.9883, 42.5504, 79.9587, -130.939
7.23163, 35, -38.6646, -18.3553, 42.9885, 42.6106, 79.9894, -130.752
7.23967, 36, -38.5338, -18.3724, 42.988, 42.6688, 80.02, -130.566
7.24844, 36, -38.4024, -18.389, 42.9866, 42.7272, 80.0496, -130.38
7.25675, 36, -38.2703, -18.4052, 42.9843, 42.7837, 80.0787, -130.194
7.26379, 36, -38.1374, -18.4212, 42.9811, 42.8393, 80.1075, -130.008
7.2727, 36, -38.0039, -18.4363, 42.9768, 42.8944, 80.1366, -129.822
7.28391, 37, -37.8697, -18.4579, 42.9686, 42.9741, 80.1799, -129.544
7.28843, 37, -37.7348, -18.465, 42.9654, 43.0007, 80.194, -129.452
7.29587, 37, -37.6671, -18.472, 42.962, 43.027, 80.2079, -129.267
7.30426, 37, -37.4627, -18.4923, 42.95, 43.1031, 80.2491, -129.083
7.31123, 37, -37.3942, -18.4986, 42.9456, 43.1284, 80.263, -128.99
7.31931, 37, -37.2568, -18.511, 42.9361, 43.1783, 80.2908, -128.806
7.32864, 38, -37.0494, -18.5291, 42.92, 43.25, 80.3315, -128.529
7.33524, 38, -36.9799, -18.5349, 42.9141, 43.2737, 80.3448, -128.437
7.34329, 38, -36.8404, -18.5463, 42.9017, 43.3205, 80.3708, -128.253
7.35257, 38, -36.6296, -18.5619, 42.8816, 43.3877, 80.4096, -127.978
7.3593, 38, -36.5589, -18.5668, 42.8745, 43.4099, 80.4227, -127.887
7.36728, 38, -36.4171, -18.5764, 42.8594, 43.4538, 80.4489, -127.704
7.37537, 39, -36.2746, -18.5854, 42.8432, 43.4959, 80.4743, -127.521
7.38324, 39, -36.1314, -18.594, 42.8262, 43.5367, 80.4994, -127.339
7.39282, 39, -35.9153, -18.6062, 42.7991, 43.5976, 80.5363, -127.065
7.40228, 39, -35.7705, -18.6136, 42.7799, 43.6364, 80.5611, -126.884
7.4073, 39, -35.6978, -18.6171, 42.7701, 43.6552, 80.5736, -126.793
7.41688, 40, -35.552, -18.6235, 42.7391, 43.7112, 80.6105, -126.521
7.42583, 40, -35.4056, -18.6294, 42.7171, 43.7478, 80.6344, -126.34
7.43142, 40, -35.2585, -18.635, 42.7059, 43.7655, 80.6461, -126.249
7.44029, 40, -35.1108, -18.6402, 42.6827, 43.7996, 80.6692, -126.069
7.44838, 40, -34.9625, -18.6448, 42.6587, 43.833, 80.6922, -125.888
7.45629, 40, -34.8135, -18.6489, 42.634, 43.8662, 80.7154, -125.709
7.46326, 41, -34.6639, -18.6526, 42.6082, 43.8984, 80.7385, -125.529
7.47227, 41, -34.514, -18.6558, 42.5817, 43.9292, 80.7611, -125.349
7.48028, 41, -34.3632, -18.6586, 42.5544, 43.9587, 80.7833, -125.17
7.48824, 41, -34.2117, -18.661, 42.5262, 43.9877, 80.8049, -124.991
7.49626, 41, -34.0599, -18.6629, 42.4971, 44.0162, 80.8264, -124.813
7.50433, 42, -33.9074, -18.6645, 42.4673, 44.0435, 80.8479, -124.635
7.51224, 42, -33.7541, -18.6655, 42.4368, 44.0695, 80.8696, -124.457
7.52182, 42, -33.523, -18.6662, 42.3894, 44.1064, 80.9017, -124.19
7.52825, 42, -33.4456, -18.6663, 42.3731, 44.1183, 80.9121, -124.102
7.53526, 42, -33.2904, -18.6663, 42.3401, 44.1418, 80.9326, -123.925
7.54319, 43, -33.1345, -18.6661, 42.3064, 44.1645, 80.9526, -123.748
7.55299, 43, -32.9781, -18.6655, 42.2718, 44.1862, 80.9724, -123.572
7.5593, 43, -32.821, -18.6643, 42.2364, 44.2065, 80.9922, -123.396
7.56723, 43, -32.6634, -18.6627, 42.2004, 44.2257, 81.0121, -123.22
7.5763, 43, -32.5052, -18.6604, 42.1634, 44.2439, 81.0318, -123.045
7.58323, 43, -32.3463, -18.6577, 42.1257, 44.2612, 81.051, -122.87
7.59131, 44, -32.1868, -18.6544, 42.0873, 44.2776, 81.0698, -122.695
7.59958, 44, -32.0267, -18.6506, 42.0478, 44.2935, 81.0882, -122.521
7.6083, 44, -31.8662, -18.6462, 42.0077, 44.3085, 81.1063, -122.347
7.61524, 44, -31.7053, -18.6414, 41.9669, 44.3225, 81.1243, -122.173
7.62346, 44, -31.544, -18.6359, 41.9253, 44.3354, 81.1423, -122
7.63221, 45, -31.3821, -18.6299, 41.8828, 44.347, 81.1603, -121.826
7.63943, 45, -31.2195, -18.6233, 41.8396, 44.3574, 81.1784, -121.654
7.64789, 45, -31.0562, -18.6163, 41.7957, 44.3667, 81.1958, -121.481
7.6563, 45, -30.8923, -18.6089, 41.751, 44.375, 81.2129, -121.309
7.66387, 45, -30.7278, -18.6008, 41.7055, 44.3823, 81.2296, -121.138
7.6724, 45, -30.5626, -18.592, 41.6593, 44.3885, 81.2459, -120.966
7.67958, 46, -30.3967, -18.5828, 41.6123, 44.3937, 81.262, -120.795
7.68805, 46, -30.2302, -18.5731, 41.5645, 44.3979, 81.2782, -120.624
7.69724, 46, -30.0632, -18.5629, 41.5159, 44.4011, 81.2944, -120.453
7.70332, 46, -29.8956, -18.5522, 41.4665, 44.4032, 81.3108, -120.283
7.71153, 46, -29.7274, -18.541, 41.4163, 44.4045, 81.3269, -120.114
7.71949, 47, -29.5585, -18.529, 41.3653, 44.405, 81.3428, -119.944
7.73039, 47, -29.3889, -18.5163, 41.3135, 44.4051, 81.3582, -119.774
7.73562, 47, -29.2187, -18.503, 41.2609, 44.4046, 81.3734, -119.605
7.74359, 47, -29.0479, -18.4894, 41.2074, 44.4029, 81.3884, -119.435
7.75176, 47, -28.8769, -18.4751, 41.1531, 44.3997, 81.4032, -119.267
7.76042, 47, -28.7051, -18.4599, 41.0981, 44.3953, 81.4181, -119.098
7.76774, 48, -28.5327, -18.4443, 41.0422, 44.3897, 81.4332, -118.93
7.77849, 48, -28.3599, -18.4284, 40.9855, 44.3828, 81.4484, -118.762
7.7844, 48, -28.1865, -18.4118, 40.928, 44.3747, 81.4638, -118.594
7.7928, 48, -28.0996, -18.4032, 40.8989, 44.3654, 81.4789, -118.426
7.80016, 48, -27.838, -18.3763, 40.8104, 44.3547, 81.4938, -118.259
7.80882, 49, -27.6626, -18.3579, 40.7503, 44.3428, 81.5084, -118.092
7.81523, 49, -27.5746, -18.3483, 40.7199, 44.3362, 81.5156, -118.008
7.82323, 49, -27.3978, -18.3286, 40.6584, 44.322, 81.53, -117.841
7.83233, 49, -27.1316, -18.2978, 40.5645, 44.2977, 81.5514, -117.591
7.8393, 49, -27.0426, -18.2871, 40.5328, 44.2888, 81.5586, -117.507
7.84884, 50, -26.7747, -18.2541, 40.4362, 44.2608, 81.5807, -117.257
7.85536, 50, -26.6851, -18.2427, 40.4036, 44.2509, 81.5882, -117.174
7.86322, 50, -26.5053, -18.2195, 40.3377, 44.2303, 81.6034, -117.007
7.87267, 50, -26.2343, -18.1834, 40.2374, 44.1971, 81.6262, -116.758
7.8793, 50, -26.1437, -18.1709, 40.2034, 44.1852, 81.6338, -116.675
7.88725, 50, -25.9617, -18.1453, 40.1349, 44.1602, 81.6489, -116.509
7.89725, 51, -25.6876, -18.1059, 40.0302, 44.1202, 81.6715, -116.26
7.90399, 51, -25.5961, -18.0922, 39.9949, 44.1064, 81.679, -116.177
7.91127, 51, -25.4126, -18.0645, 39.9235, 44.078, 81.6941, -116.011
7.92089, 51, -25.1367, -18.0215, 39.8145, 44.0326, 81.7175, -115.763
7.92822, 51, -25.0445, -18.0068, 39.7778, 44.0164, 81.7256, -115.68
7.93688, 52, -24.8594, -17.9768, 39.7035, 43.9831, 81.7419, -115.514
7.94422, 52, -24.6732, -17.9461, 39.6285, 43.9491, 81.7586, -115.348
7.9514, 52, -24.486, -17.9145, 39.5525, 43.9138, 81.7753, -115.183
7.9603, 52, -24.298, -17.8819, 39.4756, 43.8764, 81.7918, -115.017
7.97059, 52, -24.0147, -17.8317, 39.3584, 43.8179, 81.8166, -114.768
7.97807, 52, -23.9199, -17.8146, 39.3188, 43.7981, 81.8248, -114.603
7.98322, 53, -23.73, -17.7797, 39.2389, 43.757, 81.8415, -114.52
7.99131, 53, -23.5394, -17.744, 39.158, 43.7137, 81.8586, -114.355
7.99937, 53, -23.3483, -17.7074, 39.0762, 43.6697, 81.8762, -114.189
8.00728, 53, -23.1564, -17.6702, 38.9936, 43.6247, 81.8943, -114.024
8.01522, 53, -22.9635, -17.6321, 38.9101, 43.5772, 81.9127, -113.858
8.02343, 54, -22.7698, -17.5933, 38.8257, 43.529, 81.931, -113.693
8.03129, 54, -22.5756, -17.5538, 38.7403, 43.4798, 81.9493, -113.528
8.03927, 54, -22.381, -17.5133, 38.6538, 43.4278, 81.9678, -113.363
8.04728, 54, -22.186, -17.4721, 38.5663, 43.3751, 81.9865, -113.197
8.05522, 54, -21.9905, -17.4301, 38.4779, 43.3212, 82.0056, -113.032
8.06324, 54, -21.7943, -17.3872, 38.3888, 43.2647, 82.0254, -112.866
8.07145, 55, -21.597, -17.3435, 38.2988, 43.2082, 82.0456, -112.701
8.08028, 55, -21.3988, -17.299, 38.208, 43.1489, 82.0659, -112.536
8.08722, 55, -21.1994, -17.2537, 38.1163, 43.0887, 82.0861, -112.371
8.09522, 55, -20.9991, -17.2076, 38.0235, 43.027, 82.1064, -112.206
8.10328, 55, -20.7981, -17.1607, 37.9298, 42.963, 82.1267, -112.04
8.11125, 56, -20.5967, -17.1129, 37.835, 42.8985, 82.1474, -111.875
8.11979, 56, -20.3949, -17.0646, 37.7395, 42.8313, 82.1688, -111.71
8.13077, 56, -20.0902, -16.9906, 37.5949, 42.7288, 82.2016, -111.463
8.13537, 56, -19.9881, -16.9657, 37.5463, 42.6935, 82.2124, -111.381
8.14705, 56, -19.6805, -16.8897, 37.3991, 42.5866, 82.2452, -111.134
8.15213, 56, -19.5777, -16.864, 37.3496, 42.5498, 82.2561, -111.051
8.16001, 57, -19.372, -16.8121, 37.2497, 42.4755, 82.2781, -110.886
8.16825, 57, -19.1657, -16.7595, 37.1489, 42.3993, 82.3007, -110.721
8.17623, 57, -18.9592, -16.7063, 37.0475, 42.3218, 82.324, -110.556
8.18398, 57, -18.7522, -16.6523, 36.9453, 42.2423, 82.3475, -110.392
8.19229, 57, -18.5443, -16.5976, 36.8425, 42.1613, 82.3709, -110.228
8.19961, 58, -18.3349, -16.5421, 36.7388, 42.0788, 82.3943, -110.063
8.20823, 58, -18.1239, -16.4859, 36.6341, 41.9944, 82.4178, -109.899
8.21539, 58, -17.9118, -16.4289, 36.5285, 41.9085, 82.4416, -109.734
8.22344, 58, -17.6992, -16.3712, 36.422, 41.821, 82.4662, -109.57
8.23163, 58, -17.4862, -16.3129, 36.3151, 41.7319, 82.4911, -109.406
8.2396, 58, -17.2724, -16.254, 36.2074, 41.641, 82.516, -109.242
8.24841, 59, -17.0576, -16.1945, 36.0991, 41.5484, 82.5409, -109.078
8.25801, 59, -16.8418, -16.1344, 35.9898, 41.4542, 82.5659, -108.914
8.26376, 59, -16.6251, -16.0736, 35.8795, 41.3581, 82.5916, -108.75
8.27263, 59, -16.4073, -16.0121, 35.7684, 41.26, 82.6181, -108.586
8.27985, 59, -16.1889, -15.95, 35.6567, 41.1605, 82.6446, -108.422
8.28839, 60, -15.9703, -15.8873, 35.5444, 41.0589, 82.671, -108.258
8.29677, 60, -15.7521, -15.8238, 35.4315, 40.9556, 82.6974, -108.094
8.30469, 60, -15.643, -15.7596, 35.3177, 40.8508, 82.724, -107.93
8.31121, 60, -15.4238, -15.7271, 35.2604, 40.7976, 82.7376, -107.848
8.3217, 60, -15.0913, -15.6286, 35.0871, 40.6356, 82.7795, -107.602
8.3293, 61, -14.8677, -15.5621, 34.9709, 40.5251, 82.8075, -107.438
8.33519, 61, -14.7555, -15.5285, 34.9125, 40.4691, 82.8215, -107.356
8.34442, 61, -14.4173, -15.4268, 34.7367, 40.2985, 82.8639, -107.111
8.35253, 61, -14.1906, -15.3582, 34.6185, 40.1824, 82.893, -106.947
8.35933, 61, -14.0769, -15.3237, 34.5589, 40.1237, 82.908, -106.865
8.36726, 61, -13.8488, -15.2539, 34.4391, 40.0052, 82.9379, -106.701
8.37763, 62, -13.5048, -15.1481, 34.2582, 39.8234, 82.9826, -106.454
8.38316, 62, -13.3896, -15.1125, 34.1977, 39.7619, 82.9976, -106.372
8.39126, 62, -13.1588, -15.0407, 34.0761, 39.6374, 83.0283, -106.208
8.40172, 62, -12.8127, -14.9316, 33.8921, 39.4466, 83.0758, -105.961
8.40728, 62, -12.6972, -14.8948, 33.8303, 39.3821, 83.0917, -105.879
8.41682, 63, -12.3497, -14.7832, 33.6436, 39.1857, 83.1395, -105.632
8.42579, 63, -12.1165, -14.7078, 33.5184, 39.0523, 83.1723, -105.467
8.43124, 63, -11.9994, -14.6698, 33.4556, 38.9848, 83.1892, -105.384
8.44026, 63, -11.7643, -14.5932, 33.3295, 38.8483, 83.2234, -105.219
8.44834, 63, -11.5277, -14.5159, 33.2026, 38.7096, 83.2576, -105.054
8.45616, 63, -11.2892, -14.4376, 33.0746, 38.5688, 83.2919, -104.888
8.46433, 64, -11.0494, -14.3586, 32.9459, 38.4263, 83.3273, -104.723
8.47224, 64, -10.8083, -14.2787, 32.8166, 38.2817, 83.3637, -104.558
8.48026, 64, -10.5654, -14.1979, 32.6865, 38.1351, 83.4002, -104.391
8.4882, 64, -10.3208, -14.1163, 32.5558, 37.9862, 83.437, -104.225
8.49618, 64, -10.0757, -14.0337, 32.4243, 37.835, 83.475, -104.058
8.50332, 65, -9.83085, -13.9503, 32.292, 37.6818, 83.5141, -103.891
8.51221, 65, -9.58633, -13.866, 32.1589, 37.5265, 83.553, -103.724
8.52174, 65, -9.21934, -13.7376, 31.9579, 37.2897, 83.6128, -103.473
8.52821, 65, -9.09667, -13.6944, 31.8906, 37.2098, 83.6335, -103.389
8.53621, 65, -8.85008, -13.6071, 31.7555, 37.0483, 83.6754, -103.221
8.5432, 65, -8.60142, -13.519, 31.6197, 36.8845, 83.7173, -103.053
8.55237, 66, -8.35107, -13.4299, 31.4831, 36.7188, 83.7604, -102.885
8.56021, 66, -8.0998, -13.3399, 31.3458, 36.551, 83.805, -102.716
8.56722, 66, -7.84703, -13.249, 31.2078, 36.3812, 83.8493, -102.547
8.57628, 66, -7.59206, -13.1572, 31.0692, 36.2091, 83.8945, -102.378
8.58321, 66, -7.33497, -13.0643, 30.9302, 36.0349, 83.9413, -102.209
8.59127, 67, -7.07674, -12.9704, 30.7904, 35.8587, 83.9883, -102.038
8.5994, 67, -6.81797, -12.8756, 30.6497, 35.6802, 84.0361, -101.868
8.60727, 67, -6.55914, -12.7798, 30.5084, 35.4997, 84.0858, -101.697
8.6152, 67, -6.30068, -12.6829, 30.3667, 35.317, 84.1354, -101.526
8.62341, 67, -6.04188, -12.5851, 30.2246, 35.1321, 84.1858, -101.355
8.63126, 67, -5.78179, -12.4863, 30.0818, 34.9453, 84.2381, -101.183
8.63934, 68, -5.52035, -12.3867, 29.9384, 34.7565, 84.2902, -101.011
8.64782, 68, -5.25802, -12.286, 29.7944, 34.5654, 84.3439, -100.839
8.65616, 68, -4.99445, -12.1843, 29.65, 34.3722, 84.3989, -100.666
8.66368, 68, -4.72878, -12.0816, 29.5051, 34.177, 84.4537, -100.493
8.67162, 68, -4.4611, -11.978, 29.3597, 33.9799, 84.5105, -100.32
8.68043, 69, -4.19158, -11.8734, 29.2139, 33.7808, 84.5677, -100.147
8.68784, 69, -3.92032, -11.7678, 29.0677, 33.5794, 84.6258, -99.9729
8.69729, 69, -3.64867, -11.6616, 28.9214, 33.3761, 84.6856, -99.7985
8.7042, 69, -3.37745, -11.5542, 28.7745, 33.171, 84.7452, -99.6236
8.71132, 69, -3.10595, -11.4457, 28.6271, 32.964, 84.8068, -99.4486
8.71941, 69, -2.83331, -11.3362, 28.4792, 32.7549, 84.8688, -99.2734
8.72797, 70, -2.55972, -11.2258, 28.3314, 32.5438, 84.9321, -99.0981
8.73627, 70, -2.28545, -11.1145, 28.1832, 32.331, 84.9964, -98.9221
8.74354, 70, -2.01036, -11.0024, 28.0347, 32.1162, 85.0608, -98.7458
8.75242, 70, -1.73427, -10.8894, 27.8859, 31.8997, 85.1273, -98.5693
8.75972, 70, -1.45678, -10.7753, 27.737, 31.6812, 85.1938, -98.3924
8.7683, 71, -1.17721, -10.6601, 27.5882, 31.4611, 85.2625, -98.2154
8.77696, 71, -0.895543, -10.5441, 27.4393, 31.2391, 85.331, -98.0381
8.78376, 71, -0.613417, -10.4272, 27.29, 31.0152, 85.4015, -97.8606
8.79231, 71, -0.33111, -10.3094, 27.1404, 30.7894, 85.4723, -97.6822
8.80024, 71, -0.0482301, -10.1908, 26.9911, 30.5622, 85.5448, -97.5038
8.80814, 72, 0.235486, -10.0711, 26.8417, 30.3334, 85.6175, -97.3248
8.81524, 72, 0.377667, -10.0109, 26.7669, 30.2183, 85.6544, -97.2352
8.82433, 72, 0.805132, -9.82888, 26.5426, 29.8707, 85.7666, -96.9663
8.83124, 72, 0.947831, -9.76773, 26.4678, 29.7541, 85.8046, -96.8765
8.84113, 72, 1.37618, -9.58307, 26.2439, 29.4021, 85.9195, -96.6066
8.84733, 72, 1.51951, -9.5211, 26.1693, 29.2839, 85.9584, -96.5164
8.8554, 73, 1.80771, -9.39643, 26.02, 29.0464, 86.037, -96.3358
8.86544, 73, 2.24268, -9.20741, 25.7963, 28.6879, 86.1568, -96.0646
8.87292, 73, 2.53305, -9.08014, 25.6477, 28.447, 86.2377, -95.8836
8.88145, 73, 2.82394, -8.9519, 25.4991, 28.2048, 86.32, -95.7022
8.88725, 73, 2.96954, -8.88742, 25.4248, 28.0834, 86.3616, -95.6112
8.8972, 74, 3.40772, -8.69277, 25.2022, 27.717, 86.4878, -95.3378
8.90335, 74, 3.55439, -8.62735, 25.1282, 27.5943, 86.5303, -95.2464
8.91125, 74, 3.84807, -8.49561, 24.9806, 27.3477, 86.6163, -95.0633
8.92201, 74, 4.28784, -8.29615, 24.7597, 26.976, 86.7477, -94.7883
8.92882, 74, 4.4345, -8.22917, 24.6861, 26.8515, 86.8366, -94.6049
8.93681, 74, 4.72869, -8.09456, 24.539, 26.6019, 86.8815, -94.5128
8.94419, 75, 5.02389, -7.95912, 24.3925, 26.3514, 86.9721, -94.3284
8.95142, 75, 5.31997, -7.8226, 24.2466, 26.1002, 87.0638, -94.1438
8.95924, 75, 5.6163, -7.68483, 24.1011, 25.8478, 87.157, -93.9587
8.96718, 75, 5.91235, -7.54593, 23.9558, 25.5948, 87.2514, -93.7733
8.9754, 75, 6.20846, -7.40603, 23.8109, 25.3414, 87.3467, -93.588
8.98317, 76, 6.50571, -7.26532, 23.6666, 25.0871, 87.4433, -93.402
8.99127, 76, 6.8037, -7.12337, 23.5229, 24.8322, 87.5413, -93.2153
8.99927, 76, 7.10122, -6.98019, 23.3797, 24.5768, 87.6404, -93.0284
9.00725, 76, 7.39841, -6.8359, 23.2368, 24.321, 87.7408, -92.8408
9.01518, 76, 7.69566, -6.69056, 23.0945, 24.0646, 87.8427, -92.6531
9.02338, 76, 7.99356, -6.54439, 22.9529, 23.8077, 87.9457, -92.465
9.03233, 77, 8.29243, -6.39718, 22.8119, 23.5509, 88.0503, -92.2764
9.0402, 77, 8.59129, -6.24851, 22.6715, 23.2935, 88.1562, -92.0872
9.04821, 77, 8.88908, -6.09865, 22.5316, 23.0362, 88.2632, -91.8977
9.05626, 77, 9.18672, -5.94767, 22.3924, 22.779, 88.3717, -91.7079
9.0642, 77, 9.48507, -5.79568, 22.2539, 22.5217, 88.4816, -91.5177
9.07233, 78, 9.78367, -5.64251, 22.1162, 22.2645, 88.5926, -91.3273
9.08007, 78, 10.0819, -5.48778, 21.979, 22.0074, 88.7053, -91.1359
9.0882, 78, 10.3795, -5.33175, 21.8425, 21.7506, 88.8188, -90.9442
9.09706, 78, 10.6761, -5.17476, 21.7067, 21.4939, 88.9339, -90.7518
9.10318, 78, 10.9729, -5.01693, 21.5716, 21.2377, 89.0506, -90.5588
9.11128, 78, 11.2705, -4.85788, 21.4374, 20.9821, 89.1681, -90.3656
9.11926, 79, 11.5676, -4.69728, 21.3039, 20.7268, 89.2876, -90.1721
9.12738, 79, 11.8635, -4.53552, 21.171, 20.4718, 89.4081, -89.9775
9.13626, 79, 12.159, -4.37288, 21.0388, 20.2177, 89.5299, -89.7826
9.14348, 79, 12.454, -4.20926, 20.9076, 19.9643, 89.6535, -89.5872
9.15234, 79, 12.7485, -4.04382, 20.7771, 19.7116, 89.7781, -89.3913
9.16019, 80, 13.0425, -3.8766, 20.6474, 19.46, 89.9044, -89.195
9.16763, 80, 13.3351, -3.70828, 20.5185, 19.2092, 90.0317, -88.9983
9.17536, 80, 13.6266, -3.5392, 20.3903, 18.9594, 90.1608, -88.8004
9.18319, 80, 13.918, -3.36864, 20.263, 18.7106, 90.2912, -88.6021
9.1912, 80, 14.2099, -3.19606, 20.1365, 18.4632, 90.423, -88.4029
9.19973, 81, 14.5008, -3.02204, 20.011, 18.217, 90.5561, -88.2033
9.20825, 81, 14.7904, -2.84733, 19.8862, 17.9717, 90.6909, -88.0033
9.21537, 81, 15.0787, -2.67156, 19.762, 17.7282, 90.8269, -87.8023
9.22336, 81, 15.366, -2.49382, 19.6387, 17.486, 90.9644, -87.6007
9.23223, 81, 15.6525, -2.31422, 19.5161, 17.2452, 91.1035, -87.3984
9.23964, 81, 15.9383, -2.13374, 19.3945, 17.0059, 91.244, -87.1956
9.24798, 82, 16.2224, -1.95263, 19.2736, 16.7681, 91.3862, -86.9921
9.2564, 82, 16.5046, -1.76983, 19.1533, 16.5322, 91.5298, -86.7878
9.26372, 82, 16.7863, -1.5847, 19.0338, 16.2978, 91.6749, -86.5824
9.27228, 82, 17.0676, -1.39822, 18.9152, 16.0655, 91.8215, -86.3763
9.27991, 82, 17.3483, -1.21079, 18.7974, 15.8351, 91.9697, -86.1693
9.28855, 83, 17.6276, -1.02161, 18.6807, 15.6067, 92.1192, -85.9618
9.29591, 83, 17.9053, -0.830141, 18.5644, 15.3801, 92.2706, -85.7535
9.30524, 83, 18.1808, -0.637114, 18.4487, 15.1558, 92.4233, -85.5441
9.31118, 83, 18.3179, -0.540353, 18.3911, 15.0444, 92.5004, -85.4391
9.32182, 83, 18.7271, -0.247988, 18.2197, 14.7137, 92.7334, -85.1227
9.33004, 83, 18.9977, -0.0506933, 18.1066, 14.4959, 92.8909, -84.9109
9.33633, 84, 19.266, 0.147647, 17.9942, 14.2805, 93.0496, -84.6983
9.34319, 84, 19.3995, 0.247215, 17.9381, 14.1738, 93.1297, -84.5918
9.35243, 84, 19.7989, 0.548907, 17.7707, 13.8569, 93.3719, -84.2701
9.35923, 84, 19.9318, 0.65059, 17.7152, 13.7525, 93.4533, -84.1625
9.36732, 84, 20.197, 0.854841, 17.6052, 13.5455, 93.6174, -83.9464
9.37831, 85, 20.5926, 1.1631, 17.4419, 13.2401, 93.866, -83.6207
9.38548, 85, 20.8536, 1.37099, 17.3339, 13.0399, 94.0334, -83.4025
9.39122, 85, 20.983, 1.47562, 17.28, 12.9407, 94.1176, -83.2929
9.40077, 85, 21.3679, 1.79126, 17.1192, 12.6472, 94.372, -82.963
9.40873, 85, 21.6224, 2.00386, 17.0132, 12.4552, 94.5434, -82.7419
9.4168, 85, 21.8745, 2.21834, 16.9082, 12.2661, 94.7158, -82.5202
9.42334, 86, 21.9995, 2.32587, 16.8561, 12.1727, 94.8026, -82.4089
9.43123, 86, 22.2477, 2.54142, 16.7524, 11.9878, 94.9771, -82.1853
9.44078, 86, 22.4943, 2.75869, 16.6493, 11.8058, 95.1529, -81.9608
9.44824, 86, 22.7399, 2.97781, 16.5466, 11.6271, 95.3298, -81.7354
9.45517, 86, 22.9845, 3.1979, 16.4448, 11.4512, 95.5079, -81.5091
9.46321, 87, 23.228, 3.41954, 16.3442, 11.2785, 95.687, -81.2822
9.47132, 87, 23.4699, 3.64306, 16.2448, 11.1087, 95.8672, -81.054
9.47997, 87, 23.7092, 3.86745, 16.1461, 10.942, 96.0484, -80.8251
9.48819, 87, 23.9452, 4.09246, 16.0483, 10.7786, 96.2302, -80.5954
9.49764, 87, 24.2944, 4.43219, 15.9027, 10.5393, 96.504, -80.2497
9.50332, 87, 24.4098, 4.54571, 15.8546, 10.4611, 96.5956, -80.134
9.51174, 88, 24.6388, 4.77314, 15.7593, 10.3069, 96.7792, -79.9021
9.5228, 88, 24.9778, 5.11675, 15.6188, 10.0818, 97.0552, -79.5526
9.52717, 88, 25.0898, 5.23177, 15.5724, 10.0084, 97.1476, -79.4356
9.53527, 88, 25.3127, 5.46188, 15.4804, 9.86388, 97.3324, -79.2015
9.54323, 88, 25.5338, 5.69287, 15.3893, 9.72267, 97.5174, -78.9668
9.55132, 89, 25.753, 5.92484, 15.2991, 9.58473, 97.7027, -78.7312
9.55925, 89, 25.9708, 6.15712, 15.21, 9.4499, 97.8879, -78.4951
9.56723, 89, 26.1867, 6.39027, 15.1221, 9.31829, 98.0734, -78.2584
9.57526, 89, 26.4004, 6.62474, 15.0354, 9.18999, 98.259, -78.0213
9.58317, 89, 26.6117, 6.8593, 14.9498, 9.06488, 98.4448, -77.7831
9.59139, 90, 26.8207, 7.09412, 14.8653, 8.94323, 98.6307, -77.5445
9.59946, 90, 27.0272, 7.32987, 14.782, 8.82468, 98.8164, -77.3052
9.60815, 90, 27.2315, 7.56595, 14.6997, 8.70948, 99.0022, -77.0655
9.61523, 90, 27.4333, 7.80259, 14.6184, 8.59749, 99.1879, -76.8254
9.62337, 90, 27.6325, 8.04051, 14.5383, 8.48853, 99.3731, -76.5845
9.6312, 90, 27.8296, 8.27872, 14.4593, 8.38291, 99.5583, -76.3431
9.63931, 91, 28.0248, 8.51662, 14.3814, 8.28049, 99.7433, -76.1012
9.64783, 91, 28.2179, 8.75503, 14.3047, 8.18135, 99.9279, -75.8589
9.65546, 91, 28.4091, 8.99362, 14.229, 8.0857, 100.113, -75.6161
9.6633, 91, 28.5987, 9.23226, 14.1544, 7.99312, 100.297, -75.3725
9.67233, 91, 28.7866, 9.47193, 14.0808, 7.90363, 100.481, -75.1282
9.67931, 92, 28.9725, 9.71214, 14.0082, 7.8176, 100.665, -74.8833
9.68729, 92, 29.1564, 9.95206, 13.9365, 7.73441, 100.849, -74.6381
9.69525, 92, 29.338, 10.1925, 13.8657, 7.65457, 101.032, -74.3921
9.70419, 92, 29.5177, 10.4335, 13.796, 7.57787, 101.216, -74.1452
9.71203, 92, 29.6953, 10.6747, 13.7272, 7.50472, 101.399, -73.898
9.72017, 92, 29.8706, 10.9166, 13.6595, 7.4341, 101.582, -73.65
9.72746, 93, 30.0436, 11.1593, 13.5927, 7.36768, 101.765, -73.4011
9.73638, 93, 30.214, 11.4015, 13.5268, 7.30363, 101.948, -73.1513
9.74365, 93, 30.3819, 11.6444, 13.4618, 7.24399, 102.13, -72.9005
9.7523, 93, 30.5475, 11.888, 13.3977, 7.18654, 102.313, -72.6491
9.7597, 93, 30.711, 12.1317, 13.3344, 7.13295, 102.495, -72.3971
9.76832, 94, 30.8725, 12.3766, 13.2721, 7.0829, 102.677, -72.144
9.77652, 94, 31.0322, 12.6228, 13.2106, 7.03496, 102.859, -71.8902
9.78373, 94, 31.19, 12.8687, 13.15, 6.99136, 103.041, -71.6358
9.79227, 94, 31.3458, 13.1148, 13.0904, 6.95117, 103.222, -71.3805
9.79981, 94, 31.5, 13.3613, 13.0316, 6.91336, 103.403, -71.1243
9.80834, 94, 31.6523, 13.6073, 12.9738, 6.8787, 103.584, -70.8673
9.81515, 95, 31.7276, 13.7304, 12.9453, 6.86287, 103.674, -70.7384
9.82421, 95, 31.9511, 14.1009, 12.8611, 6.82059, 103.944, -70.3508
9.83124, 95, 32.0248, 14.2243, 12.8335, 6.80806, 104.033, -70.2213
9.84123, 95, 32.243, 14.5943, 12.752, 6.77466, 104.302, -69.8315
9.84723, 95, 32.3147, 14.7178, 12.7253, 6.76494, 104.391, -69.7013
9.85644, 96, 32.5265, 15.0877, 12.6469, 6.74033, 104.657, -69.3095
9.86316, 96, 32.5959, 15.211, 12.6213, 6.73365, 104.745, -69.1787
9.87131, 96, 32.7329, 15.458, 12.5709, 6.72287, 104.921, -68.9161
9.8806, 96, 32.9348, 15.8281, 12.497, 6.71268, 105.183, -68.521
9.88716, 96, 33.001, 15.9512, 12.473, 6.71082, 105.27, -68.3891
9.89703, 97, 33.1966, 16.3208, 12.4025, 6.70838, 105.53, -67.9928
9.90474, 97, 33.3244, 16.5666, 12.357, 6.70931, 105.702, -67.7278
9.91276, 97, 33.45, 16.8125, 12.3126, 6.71369, 105.873, -67.4626
9.92074, 97, 33.5737, 17.0589, 12.2692, 6.72149, 106.043, -67.1967
9.92958, 97, 33.635, 17.3045, 12.227, 6.73243, 106.212, -66.9305
9.93516, 97, 33.7567, 17.427, 12.2062, 6.73916, 106.296, -66.7973
9.94417, 98, 33.877, 17.6723, 12.1655, 6.75531, 106.463, -66.5301
9.95221, 98, 33.9958, 17.9169, 12.1261, 6.7745, 106.629, -66.2625
9.96017, 98, 34.113, 18.1608, 12.0876, 6.79627, 106.795, -65.9944
9.96817, 98, 34.2286, 18.4051, 12.0501, 6.82047, 106.959, -65.7262
9.97516, 98, 34.3426, 18.6491, 12.0138, 6.84723, 107.122, -65.4572
9.98338, 99, 34.4552, 18.8922, 11.9784, 6.87712, 107.283, -65.1877
9.99124, 99, 34.5665, 19.1351, 11.9441, 6.91042, 107.444, -64.918
9.99921, 99, 34.6763, 19.3775, 11.9109, 6.9459, 107.604, -64.6477
10.0071, 99, 34.7846, 19.619, 11.8787, 6.98333, 107.762, -64.3767
10.0161, 99, 34.891, 19.8606, 11.8475, 7.02348, 107.919, -64.1052
10.0231, 99, 34.9955, 20.1016, 11.8175, 7.067, 108.075, -63.8335
10.0311, 100, 35.0982, 20.3411, 11.7886, 7.11206, 108.229, -63.5617
10.0401, 100, 35.1994, 20.5798, 11.7609, 7.15973, 108.382, -63.2896
10.0482, 100, 35.2992, 20.8177, 11.7344, 7.21042, 108.533, -63.0177
10.0562, 100, 35.3976, 21.0543, 11.7091, 7.2624, 108.682, -62.7458
10.0639, 100, 35.4947, 21.2907, 11.6852, 7.31667, 108.83, -62.4743
10.0722, 101, 35.5903, 21.5264, 11.6628, 7.37362, 108.975, -62.2032
10.0792, 101, 35.6846, 21.7601, 11.6416, 7.43144, 109.118, -61.9326
10.0879, 101, 35.7774, 21.9923, 11.622, 7.49221, 109.258, -61.6628
10.0962, 101, 35.8692, 22.2232, 11.6039, 7.55371, 109.396, -61.3944
10.1033, 101, 35.96, 22.4518, 11.5871, 7.61759, 109.531, -61.1269
10.1112, 101, 36.0499, 22.6785, 11.5718, 7.68289, 109.663, -60.8602
10.1192, 102, 36.1388, 22.9043, 11.558, 7.74965, 109.792, -60.5948
10.1274, 102, 36.2266, 23.1283, 11.5456, 7.81818, 109.919, -60.3307
10.1365, 102, 36.3131, 23.3506, 11.5344, 7.88766, 110.044, -60.0673
10.1433, 102, 36.3986, 23.5725, 11.5242, 7.95919, 110.166, -59.8041
10.1513, 102, 36.483, 23.7938, 11.515, 8.032, 110.286, -59.5411
10.1593, 103, 36.5661, 24.0144, 11.5067, 8.10708, 110.405, -59.2779
10.1673, 103, 36.6487, 24.2346, 11.4992, 8.18397, 110.524, -59.0143
10.1753, 103, 36.7303, 24.4541, 11.4923, 8.26338, 110.643, -58.7492
10.1832, 103, 36.8112, 24.6707, 11.4863, 8.34517, 110.761, -58.4838
10.1912, 103, 36.8913, 24.8845, 11.4813, 8.42891, 110.878, -58.218
10.1992, 103, 36.9705, 25.0958, 11.4775, 8.51501, 110.992, -57.9533
10.2072, 104, 37.0487, 25.3041, 11.4754, 8.60283, 111.101, -57.6905
10.2153, 104, 37.126, 25.5093, 11.4749, 8.69204, 111.205, -57.4313
10.2233, 104, 37.202, 25.7127, 11.4767, 8.78218, 111.302, -57.1767
10.2314, 104, 37.2768, 25.9142, 11.481, 8.87306, 111.392, -56.9271
10.2395, 104, 37.351, 26.1124, 11.4873, 8.96463, 111.475, -56.6819
10.2476, 104, 37.4244, 26.307, 11.4952, 9.05662, 111.553, -56.4405
10.2562, 104, 37.4971, 26.4988, 11.5044, 9.14951, 111.628, -56.2021
10.2637, 104, 37.5694, 26.688, 11.5144, 9.24312, 111.699, -55.966
10.2723, 104, 37.6414, 26.874, 11.5248, 9.33745, 111.769, -55.7312
10.2797, 104, 37.7128, 27.0581, 11.5355, 9.43279, 111.837, -55.497
10.2883, 104, 37.7838, 27.2418, 11.5462, 9.5289, 111.906, -55.2634
10.2958, 104, 37.8543, 27.4251, 11.5569, 9.62576, 111.973, -55.0302
10.3043, 104, 37.9245, 27.6078, 11.5675, 9.72336, 112.042, -54.7976
10.3118, 104, 37.9594, 27.699, 11.5728, 9.82201, 112.108, -54.5656
10.3203, 104, 38.0638, 27.9739, 11.5885, 9.92118, 112.175, -54.3336
10.3271, 104, 38.0985, 28.0658, 11.5937, 9.97104, 112.209, -54.2178
10.3362, 104, 38.2023, 28.3414, 11.6094, 10.1225, 112.309, -53.8709
10.3431, 104, 38.2368, 28.4333, 11.6146, 10.1733, 112.342, -53.7556
10.3523, 104, 38.3396, 28.7103, 11.6301, 10.3276, 112.441, -53.41
10.3592, 104, 38.3737, 28.803, 11.6353, 10.3793, 112.474, -53.2948
10.3686, 104, 38.4754, 29.0805, 11.6507, 10.5357, 112.572, -52.9499
10.3752, 104, 38.5092, 29.173, 11.6558, 10.5883, 112.605, -52.8351
10.3846, 104, 38.61, 29.4509, 11.671, 10.7471, 112.703, -52.4917
10.3911, 104, 38.6433, 29.5437, 11.676, 10.8004, 112.735, -52.3774
10.4007, 104, 38.7429, 29.8214, 11.6908, 10.9616, 112.832, -52.0344
10.4087, 104, 38.8086, 30.0066, 11.7006, 11.0702, 112.897, -51.8065
10.4169, 104, 38.874, 30.1925, 11.7103, 11.1797, 112.962, -51.5787
10.4247, 104, 38.9066, 30.3787, 11.7199, 11.2899, 113.025, -51.3516
10.4328, 104, 39.0037, 30.5644, 11.7295, 11.401, 113.089, -51.1243
10.4409, 104, 39.0359, 30.6572, 11.7344, 11.5128, 113.153, -50.8974
10.4481, 104, 39.1, 30.8433, 11.7439, 11.5689, 113.185, -50.784
10.4563, 104, 39.1637, 31.03, 11.7534, 11.6819, 113.248, -50.5574
10.4642, 104, 39.2272, 31.2163, 11.7629, 11.7955, 113.311, -50.3314
10.4721, 104, 39.2905, 31.4022, 11.7724, 11.9101, 113.374, -50.1058
10.4802, 104, 39.3535, 31.5885, 11.7818, 12.0256, 113.436, -49.8803
10.4881, 104, 39.4163, 31.7757, 11.7911, 12.1419, 113.499, -49.6552
10.4962, 104, 39.479, 31.9626, 11.8003, 12.2589, 113.56, -49.4303
10.5041, 104, 39.5416, 32.1489, 11.8094, 12.3766, 113.622, -49.206
10.5122, 104, 39.6038, 32.3355, 11.8185, 12.4949, 113.684, -48.9819
10.5202, 104, 39.6659, 32.5229, 11.8273, 12.614, 113.745, -48.7578
10.5281, 104, 39.7276, 32.7102, 11.8362, 12.7339, 113.806, -48.5342
10.5361, 104, 39.789, 32.8969, 11.8451, 12.8546, 113.866, -48.3108
10.5442, 104, 39.8502, 33.0838, 11.8539, 12.976, 113.927, -48.0881
10.5522, 104, 39.9109, 33.2712, 11.8626, 13.0982, 113.987, -47.8656
10.5601, 104, 39.9707, 33.4577, 11.8712, 13.2209, 114.048, -47.6434
10.5682, 104, 40.029, 33.6417, 11.8797, 13.344, 114.108, -47.422
10.5761, 104, 40.0858, 33.8225, 11.8878, 13.4672, 114.166, -47.202
10.5841, 104, 40.1405, 33.9983, 11.8953, 13.5895, 114.226, -46.9851
10.5911, 104, 40.1927, 34.1667, 11.9022, 13.7095, 114.282, -46.7733
10.5992, 104, 40.2428, 34.3263, 11.9083, 13.8254, 114.337, -46.5696
10.6072, 104, 40.29, 34.4764, 11.9139, 13.9349, 114.389, -46.3778
10.6151, 104, 40.3335, 34.6151, 11.9191, 14.0361, 114.436, -46.2015
10.6231, 104, 40.3731, 34.7415, 11.9241, 14.1272, 114.478, -46.0437
10.6312, 104, 40.4086, 34.8556, 11.9291, 14.2066, 114.515, -45.9064
10.6392, 104, 40.4402, 34.9562, 11.9339, 14.274, 114.545, -45.791
10.6472, 104, 40.4672, 35.042, 11.9383, 14.3285, 114.569, -45.6963
10.6553, 104, 40.4893, 35.1133, 11.9423, 14.3725, 114.588, -45.6221
10.6632, 104, 40.5073, 35.1714, 11.9458, 14.4057, 114.603, -45.5654
10.6712, 104, 40.5215, 35.2174, 11.9488, 14.4297, 114.613, -45.5242
10.6794, 104, 40.5319, 35.2526, 11.9514, 14.446, 114.62, -45.4958
10.6872, 104, 40.5391, 35.2782, 11.9534, 14.4564, 114.624, -45.4773
10.6951, 104, 40.5441, 35.2965, 11.9551, 14.4629, 114.627, -45.4662
10.7032, 104, 40.5477, 35.3093, 11.9564, 14.4663, 114.628, -45.4603
10.7117, 105, 40.5502, 35.3177, 11.9573, 14.4682, 114.629, -45.4574
10.7201, 105, 40.5515, 35.3225, 11.9579, 14.4691, 114.63, -45.456
10.7274, 105, 40.5514, 35.3253, 11.9584, 14.4695, 114.63, -45.4554
10.7354, 105, 40.5509, 35.3271, 11.9589, 14.4698, 114.63, -45.4552
10.7434, 105, 40.5504, 35.3284, 11.9593, 14.4699, 114.63, -45.4552
10.7515, 105, 40.55, 35.3294, 11.9596, 14.47, 114.63, -45.4553
10.76, 105, 40.5498, 35.3305, 11.96, 14.47, 114.63, -45.4554
10.7682, 105, 40.5497, 35.3314, 11.9603, 14.47, 114.63, -45.4557
10.7757, 105, 40.5498, 35.3323, 11.9606, 14.47, 114.63, -45.4558
10.7843, 105, 40.5499, 35.333, 11.9609, 14.47, 114.63, -45.456
10.7917, 105, 40.5503, 35.3336, 11.9612, 14.4701, 114.63, -45.4562
10.8002, 105, 40.5508, 35.334, 11.9614, 14.4701, 114.63, -45.4563
10.8079, 105, 40.551, 35.3342, 11.9614, 14.4702, 114.63, -45.4564
10.8167, 105, 40.5519, 35.3345, 11.9615, 14.4701, 114.63, -45.4564
