rpiRobotics/ARM-21-02-F-19-Robot-Motion-Program/data_performance_abb/curve_2/baseline/100L/realrobot/v402.83203125_iteration4.csv
timestamp, cmd_num, J1, J2, J3, J4, J5, J6
0.000356, -1, 40.5511, 35.3349, 11.9625, 14.4704, 114.629, -45.4594
0.004085, -1, 40.5511, 35.3349, 11.9626, 14.4704, 114.629, -45.4595
0.007567, -1, 40.5511, 35.3349, 11.9626, 14.4704, 114.629, -45.4595
0.029287, -1, 40.5511, 35.335, 11.9626, 14.4704, 114.629, -45.4594
0.031189, -1, 40.5511, 35.335, 11.9626, 14.4703, 114.629, -45.4594
0.034145, -1, 40.5511, 35.335, 11.9626, 14.4703, 114.629, -45.4594
0.040322, -1, 40.5511, 35.3349, 11.9626, 14.4704, 114.629, -45.4594
0.047314, -1, 40.5509, 35.3349, 11.9626, 14.4704, 114.629, -45.4595
0.055365, -1, 40.5497, 35.3347, 11.9625, 14.4704, 114.629, -45.4595
0.0634, -1, 40.5461, 35.3338, 11.9625, 14.4703, 114.629, -45.4596
0.071486, -1, 40.5394, 35.3315, 11.9625, 14.4703, 114.629, -45.4599
0.079565, -1, 40.5292, 35.3273, 11.9624, 14.4703, 114.628, -45.4625
0.088295, -1, 40.5138, 35.3206, 11.9624, 14.4703, 114.626, -45.4704
0.095668, -1, 40.491, 35.3102, 11.9624, 14.4702, 114.62, -45.4859
0.103705, -1, 40.4595, 35.2952, 11.9631, 14.4701, 114.611, -45.5129
0.112472, -1, 40.4181, 35.2745, 11.9657, 14.4696, 114.595, -45.5549
0.119926, -1, 40.3653, 35.2476, 11.9711, 14.4683, 114.572, -45.6148
0.128421, -1, 40.3003, 35.2134, 11.98, 14.4658, 114.541, -45.6968
0.136623, -1, 40.2219, 35.1717, 11.9929, 14.4624, 114.499, -45.8024
0.14385, -1, 40.13, 35.122, 12.0102, 14.4579, 114.447, -45.9336
0.151829, -1, 40.0789, 35.0941, 12.0203, 14.4524, 114.386, -46.0897
0.160838, -1, 39.9054, 34.9988, 12.0562, 14.4459, 114.313, -46.2697
0.168279, -1, 39.7737, 34.9264, 12.0843, 14.4385, 114.233, -46.4709
0.175248, -1, 39.7035, 34.8878, 12.0995, 14.4345, 114.19, -46.5784
0.185214, -1, 39.4769, 34.7634, 12.1476, 14.4215, 114.052, -46.924
0.191292, -1, 39.3967, 34.7195, 12.1643, 14.4168, 114.004, -47.0449
0.200497, -1, 39.1453, 34.5824, 12.2154, 14.4021, 113.855, -47.4196
0.207284, -1, 39.0584, 34.5352, 12.2325, 14.397, 113.804, -47.5472
0.216549, -1, 38.7902, 34.3904, 12.2835, 14.3809, 113.649, -47.9343
0.223249, -1, 38.6988, 34.3413, 12.3004, 14.3755, 113.598, -48.064
0.233529, -1, 38.4203, 34.1932, 12.351, 14.359, 113.443, -48.4539
0.239443, -1, 38.3267, 34.1436, 12.3679, 14.3536, 113.391, -48.5841
0.247261, -1, 38.139, 34.0446, 12.4015, 14.3428, 113.287, -48.8448
0.257702, -1, 37.8576, 33.896, 12.4521, 14.327, 113.131, -49.2361
0.263307, -1, 37.7643, 33.8465, 12.4689, 14.3218, 113.079, -49.3665
0.272927, -1, 37.4852, 33.6981, 12.5194, 14.3064, 112.923, -49.758
0.281627, -1, 37.3924, 33.6486, 12.5363, 14.3013, 112.871, -50.0191
0.2873, -1, 37.207, 33.5496, 12.5702, 14.2911, 112.767, -50.1495
0.296288, -1, 37.0223, 33.4506, 12.604, 14.2809, 112.663, -50.4102
0.303232, -1, 36.8382, 33.3516, 12.6377, 14.2706, 112.559, -50.6712
0.311304, -1, 36.6545, 33.2525, 12.6715, 14.2603, 112.455, -50.9325
0.319325, -1, 36.4704, 33.1533, 12.7052, 14.2496, 112.352, -51.1938
0.327316, -1, 36.2857, 33.0541, 12.7389, 14.239, 112.247, -51.4548
0.335266, -1, 36.1002, 32.9546, 12.7728, 14.2281, 112.143, -51.7158
0.343254, -1, 35.9139, 32.8549, 12.8065, 14.2173, 112.039, -51.977
0.351311, -1, 35.7272, 32.7554, 12.84, 14.2066, 111.935, -52.2384
0.359293, -1, 35.5399, 32.6559, 12.8738, 14.1962, 111.831, -52.4997
0.36731, -1, 35.3521, 32.5565, 12.9076, 14.1859, 111.727, -52.7607
0.375375, -1, 35.1636, 32.457, 12.9413, 14.1758, 111.623, -53.022
0.38325, -1, 34.9751, 32.3576, 12.9751, 14.1657, 111.519, -53.2835
0.391253, -1, 34.787, 32.2581, 13.0089, 14.1557, 111.415, -53.5448
0.399376, -1, 34.5993, 32.1586, 13.0424, 14.1457, 111.31, -53.8059
0.407238, -1, 34.4121, 32.059, 13.0761, 14.1356, 111.206, -54.0672
0.415277, -1, 34.2254, 31.9596, 13.11, 14.1255, 111.102, -54.3285
0.423316, -1, 34.0392, 31.8601, 13.1437, 14.1151, 110.998, -54.5897
0.431233, -1, 33.8535, 31.7605, 13.1773, 14.1047, 110.894, -54.8506
0.439307, -1, 33.6682, 31.6611, 13.211, 14.094, 110.79, -55.1118
0.447321, -1, 33.4832, 31.5616, 13.2447, 14.0833, 110.686, -55.373
0.455252, -1, 33.2982, 31.4619, 13.2784, 14.0726, 110.582, -55.6344
0.463386, -1, 33.1128, 31.3623, 13.3122, 14.0621, 110.478, -55.8954
0.471327, -1, 32.9271, 31.2626, 13.346, 14.0517, 110.374, -56.1564
0.479307, -1, 32.7408, 31.163, 13.3795, 14.0415, 110.27, -56.4177
0.488067, -1, 32.5539, 31.0635, 13.4132, 14.0313, 110.166, -56.6791
0.496341, -1, 32.3665, 30.964, 13.447, 14.0214, 110.062, -56.9403
0.637097, -1, 29.0992, 29.2221, 14.0363, 13.8421, 108.244, -61.5091
0.638302, -1, 29.0992, 29.2221, 14.0363, 13.8421, 108.244, -61.5091
0.640403, -1, 29.0056, 29.1722, 14.0531, 13.837, 108.192, -61.6396
0.641714, -1, 29.0056, 29.1722, 14.0531, 13.837, 108.192, -61.6396
0.643051, -1, 29.0056, 29.1722, 14.0531, 13.837, 108.192, -61.6396
0.645097, -1, 28.9119, 29.1224, 14.0699, 13.8319, 108.14, -61.7702
0.646325, -1, 28.9119, 29.1224, 14.0699, 13.8319, 108.14, -61.7702
0.651988, -1, 28.7246, 29.0227, 14.1037, 13.8216, 108.037, -62.0312
0.810797, -1, 25.0929, 27.085, 14.7587, 13.6196, 106.014, -67.1136
0.812104, -1, 25.0929, 27.085, 14.7587, 13.6196, 106.014, -67.1136
0.814192, -1, 25, 27.0354, 14.7756, 13.6145, 105.963, -67.2437
0.815395, -1, 25, 27.0354, 14.7756, 13.6145, 105.963, -67.2437
0.817302, -1, 24.9072, 26.9857, 14.7924, 13.6096, 105.911, -67.3738
0.818685, -1, 24.9072, 26.9857, 14.7924, 13.6096, 105.911, -67.3738
0.820048, -1, 24.9072, 26.9857, 14.7924, 13.6096, 105.911, -67.3738
0.82335, -1, 24.8144, 26.936, 14.8091, 13.6046, 105.859, -67.504
0.82674, -1, 24.8144, 26.936, 14.8091, 13.5997, 105.807, -67.6342
0.828022, -1, 24.7217, 26.8864, 14.8259, 13.5997, 105.807, -67.6342
0.83009, -1, 24.6292, 26.8368, 14.8426, 13.5947, 105.755, -67.7644
0.831283, -1, 24.6292, 26.8368, 14.8426, 13.5947, 105.755, -67.7644
0.832551, -1, 24.6292, 26.8368, 14.8426, 13.5947, 105.755, -67.7644
0.83452, -1, 24.5368, 26.7873, 14.8594, 13.5897, 105.704, -67.8945
0.835814, -1, 24.5368, 26.7873, 14.8594, 13.5897, 105.704, -67.8945
0.838531, -1, 24.4444, 26.7377, 14.8762, 13.5849, 105.652, -68.0244
0.839847, -1, 24.4444, 26.7377, 14.8762, 13.5849, 105.652, -68.0244
0.84201, -1, 24.3519, 26.6882, 14.8931, 13.58, 105.6, -68.1544
0.843234, -1, 24.3519, 26.6882, 14.8931, 13.58, 105.6, -68.1544
0.844498, -1, 24.3519, 26.6882, 14.8931, 13.58, 105.6, -68.1544
0.846566, -1, 24.2595, 26.6387, 14.9099, 13.5751, 105.548, -68.2844
0.847838, -1, 24.2595, 26.6387, 14.9099, 13.5751, 105.548, -68.2844
0.854292, -1, 24.0745, 26.5397, 14.9434, 13.5652, 105.445, -68.5444
0.855584, -1, 24.0745, 26.5397, 14.9434, 13.5652, 105.445, -68.5444
0.857472, -1, 24.0745, 26.4901, 14.9602, 13.5603, 105.393, -68.6744
0.858867, -1, 23.9819, 26.4901, 14.9602, 13.5603, 105.393, -68.6744
0.860288, -1, 23.9819, 26.4901, 14.9602, 13.5603, 105.393, -68.6744
0.862375, -1, 23.8892, 26.4406, 14.977, 13.5553, 105.342, -68.8044
0.863577, -1, 23.8892, 26.4406, 14.977, 13.5553, 105.342, -68.8044
0.864748, -1, 23.8892, 26.4406, 14.977, 13.5553, 105.342, -68.8044
0.867855, -1, 23.7965, 26.391, 14.9938, 13.5503, 105.29, -68.9344
0.869728, -1, 23.7038, 26.3415, 15.0106, 13.5453, 105.238, -69.0643
0.871175, -1, 23.7038, 26.3415, 15.0106, 13.5453, 105.238, -69.0643
0.872462, -1, 23.7038, 26.3415, 15.0106, 13.5453, 105.238, -69.0643
0.87583, -1, 23.611, 26.2919, 15.0273, 13.5402, 105.186, -69.1941
0.877698, -1, 23.5181, 26.2423, 15.044, 13.535, 105.135, -69.324
0.879257, -1, 23.5181, 26.2423, 15.044, 13.535, 105.135, -69.324
0.884119, -1, 23.4251, 26.1927, 15.0607, 13.5299, 105.083, -69.4538
0.886104, -1, 23.332, 26.143, 15.0775, 13.5247, 105.031, -69.5837
0.887434, -1, 23.332, 26.143, 15.0775, 13.5247, 105.031, -69.5837
0.888615, -1, 23.332, 26.143, 15.0775, 13.5247, 105.031, -69.5837
0.895253, -1, 23.1456, 26.0438, 15.1111, 13.5142, 104.927, -69.8437
0.903218, -1, 22.9591, 25.9447, 15.1444, 13.5036, 104.824, -70.1036
0.911292, -1, 22.7726, 25.8455, 15.1778, 13.4931, 104.72, -70.3632
0.919294, -1, 22.5865, 25.7465, 15.2113, 13.4828, 104.617, -70.6227
0.927391, -1, 22.4006, 25.6476, 15.2447, 13.4727, 104.514, -70.8823
0.93523, -1, 22.215, 25.5486, 15.2782, 13.4626, 104.41, -71.1423
0.943217, -1, 22.0296, 25.4496, 15.3117, 13.4526, 104.307, -71.4018
0.951287, -1, 21.8447, 25.3507, 15.3452, 13.4428, 104.204, -71.6612
0.95927, -1, 21.6603, 25.252, 15.3785, 13.4329, 104.1, -71.9207
0.967224, -1, 21.4762, 25.1533, 15.412, 13.4231, 103.997, -72.1802
0.975301, -1, 21.292, 25.0547, 15.4457, 13.413, 103.894, -72.4394
0.983351, -1, 21.1077, 24.956, 15.4791, 13.403, 103.791, -72.6983
0.991294, -1, 20.9233, 24.8574, 15.5124, 13.3927, 103.688, -72.9573
0.999423, -1, 20.7389, 24.7586, 15.546, 13.3823, 103.585, -73.2163
1.00734, -1, 20.5541, 24.6598, 15.5793, 13.3717, 103.482, -73.4753
1.01532, -1, 20.3689, 24.5611, 15.6127, 13.3612, 103.379, -73.7341
1.02339, -1, 20.1831, 24.4623, 15.6461, 13.3506, 103.276, -73.993
1.03132, -1, 19.9973, 24.3636, 15.6795, 13.3402, 103.173, -74.2519
1.0394, -1, 19.8114, 24.2648, 15.7126, 13.3301, 103.07, -74.5107
1.04746, -1, 19.6257, 24.1661, 15.746, 13.3202, 102.967, -74.7694
1.05526, -1, 19.4403, 24.0674, 15.7794, 13.3105, 102.864, -75.0277
1.06331, -1, 19.2553, 23.9686, 15.8126, 13.3007, 102.762, -75.2862
1.07141, -1, 19.0706, 23.8701, 15.8459, 13.2911, 102.659, -75.545
1.07945, -1, 18.8862, 23.7716, 15.8793, 13.2814, 102.556, -75.8034
1.08754, -1, 18.7023, 23.6732, 15.9126, 13.2716, 102.453, -76.0615
1.09554, -1, 18.5189, 23.575, 15.9458, 13.2617, 102.35, -76.3197
1.10422, -1, 18.3355, 23.4767, 15.9791, 13.2517, 102.248, -76.578
1.11173, -1, 18.1521, 23.3785, 16.0125, 13.2415, 102.145, -76.836
1.12038, -1, 17.9688, 23.2802, 16.0457, 13.2311, 102.042, -77.0937
1.12775, -1, 17.7852, 23.1819, 16.0791, 13.2206, 101.94, -77.3515
1.13631, -1, 17.6012, 23.0836, 16.1125, 13.2101, 101.837, -77.6094
1.14379, -1, 17.417, 22.9854, 16.1457, 13.1997, 101.734, -77.8673
1.15181, -1, 17.3248, 22.9363, 16.1788, 13.1896, 101.632, -78.1248
1.16033, -1, 17.0476, 22.789, 16.2121, 13.1795, 101.529, -78.3824
1.16721, -1, 16.9552, 22.74, 16.2288, 13.1745, 101.478, -78.5111
1.17624, -1, 16.678, 22.5926, 16.2786, 13.1597, 101.325, -78.8975
1.18326, -1, 16.5856, 22.5435, 16.2952, 13.1548, 101.273, -79.0261
1.19238, -1, 16.3089, 22.3962, 16.345, 13.14, 101.12, -79.4119
1.19926, -1, 16.2169, 22.3472, 16.3615, 13.1351, 101.069, -79.5405
1.20726, -1, 16.0334, 22.2491, 16.3947, 13.1251, 100.967, -79.7978
1.21653, -1, 15.7587, 22.1021, 16.4445, 13.1101, 100.813, -80.1837
1.22324, -1, 15.6673, 22.0532, 16.461, 13.1051, 100.762, -80.3122
1.23269, -1, 15.3935, 21.9062, 16.5105, 13.0896, 100.609, -80.6976
1.23927, -1, 15.3022, 21.8573, 16.5271, 13.0843, 100.557, -80.8261
1.24874, -1, 15.0287, 21.7103, 16.5768, 13.0686, 100.404, -81.2113
1.25725, -1, 14.8462, 21.6124, 16.6099, 13.0583, 100.302, -81.4677
1.2632, -1, 14.7549, 21.5634, 16.6264, 13.0532, 100.251, -81.5959
1.27127, -1, 14.572, 21.4657, 16.6595, 13.0432, 100.149, -81.8522
1.28089, -1, 14.2969, 21.3191, 16.7089, 13.0285, 99.9959, -82.2367
1.28898, -1, 14.2051, 21.2215, 16.7421, 13.0187, 99.8941, -82.4929
1.2962, -1, 14.0213, 21.1727, 16.7587, 13.0139, 99.8431, -82.621
1.30425, -1, 13.8374, 21.0751, 16.7917, 13.0042, 99.7409, -82.8772
1.31222, -1, 13.6535, 20.9776, 16.8247, 12.9945, 99.6389, -83.1332
1.32024, -1, 13.4698, 20.8801, 16.8577, 12.9847, 99.5373, -83.3893
1.32721, -1, 13.2865, 20.7828, 16.8908, 12.9748, 99.4353, -83.645
1.33522, -1, 13.1038, 20.6855, 16.9237, 12.9648, 99.3336, -83.9005
1.3433, -1, 12.9215, 20.5882, 16.9567, 12.9545, 99.232, -84.1561
1.35121, -1, 12.7394, 20.4907, 16.9898, 12.9441, 99.1302, -84.4119
1.35928, -1, 12.5576, 20.3934, 17.0226, 12.9336, 99.0286, -84.6672
1.36728, -1, 12.3762, 20.2959, 17.0554, 12.9232, 98.9271, -84.9224
1.3752, -1, 12.1952, 20.1984, 17.0884, 12.9129, 98.8255, -85.1777
1.38327, -1, 12.014, 20.1011, 17.1213, 12.9027, 98.7243, -85.433
1.39127, -1, 11.8326, 20.0038, 17.1541, 12.8927, 98.6229, -85.6882
1.39926, -1, 11.651, 19.9065, 17.1869, 12.8828, 98.5216, -85.9429
1.40728, -1, 11.469, 19.8093, 17.2198, 12.873, 98.4205, -86.1975
1.4152, -1, 11.2868, 19.7122, 17.2526, 12.8632, 98.3192, -86.4521
1.42322, -1, 11.1043, 19.6151, 17.2854, 12.8534, 98.2178, -86.7068
1.43128, -1, 10.9216, 19.5179, 17.3183, 12.8436, 98.1168, -86.9612
1.43925, -1, 10.7387, 19.4209, 17.351, 12.8337, 98.0154, -87.2156
1.44721, -1, 10.5561, 19.324, 17.3838, 12.8237, 97.914, -87.4697
1.45527, -1, 10.3738, 19.2272, 17.4166, 12.8136, 97.813, -87.7241
1.4632, -1, 10.1919, 19.1304, 17.4495, 12.8033, 97.7116, -87.9782
1.4712, -1, 10.0106, 19.0337, 17.4822, 12.7929, 97.6104, -88.232
1.47954, -1, 9.82957, 18.937, 17.5149, 12.7825, 97.5093, -88.4859
1.48724, -1, 9.64876, 18.8403, 17.5478, 12.7724, 97.4081, -88.7398
1.49529, -1, 9.46867, 18.7436, 17.5805, 12.7623, 97.307, -88.9937
1.50409, -1, 9.28881, 18.647, 17.6132, 12.7524, 97.206, -89.2474
1.51227, -1, 9.10897, 18.5505, 17.6459, 12.7426, 97.1049, -89.5008
1.51936, -1, 8.92898, 18.454, 17.6786, 12.733, 97.0042, -89.7543
1.52812, -1, 8.74869, 18.3575, 17.7111, 12.7235, 96.9033, -90.0078
1.53526, -1, 8.56827, 18.2612, 17.7438, 12.7139, 96.8024, -90.2609
1.54321, -1, 8.38758, 18.1647, 17.7765, 12.7044, 96.7018, -90.5137
1.55226, -1, 8.2064, 18.0682, 17.809, 12.6947, 96.6011, -90.7665
1.55929, -1, 8.02498, 17.9718, 17.8416, 12.6849, 96.5004, -91.0192
1.56762, -1, 7.84341, 17.8754, 17.8742, 12.6751, 96.4001, -91.2722
1.5762, -1, 7.66188, 17.7791, 17.9067, 12.665, 96.2994, -91.5245
1.58337, -1, 7.48058, 17.6829, 17.9392, 12.6547, 96.1988, -91.777
1.59156, -1, 7.29961, 17.5867, 17.9718, 12.6443, 96.0989, -92.0294
1.6004, -1, 7.11902, 17.4905, 18.0043, 12.6341, 95.9986, -92.2819
1.60757, -1, 6.93897, 17.3945, 18.0368, 12.624, 95.8984, -92.5339
1.61606, -1, 6.75939, 17.2983, 18.0693, 12.6141, 95.7986, -92.7857
1.62507, -1, 6.58034, 17.2022, 18.102, 12.6043, 95.6983, -93.0377
1.63229, -1, 6.40163, 17.1061, 18.1344, 12.5946, 95.5982, -93.2897
1.63988, -1, 6.2231, 17.0102, 18.1668, 12.585, 95.4984, -93.5413
1.64965, -1, 6.0446, 16.9143, 18.1993, 12.5756, 95.3982, -93.7927
1.6558, -1, 5.86587, 16.8185, 18.2318, 12.566, 95.2983, -94.0441
1.66438, -1, 5.68694, 16.7228, 18.2642, 12.5565, 95.1986, -94.2956
1.67118, -1, 5.59742, 16.6749, 18.2804, 12.5517, 95.1486, -94.4213
1.68118, -1, 5.32835, 16.5313, 18.3291, 12.5371, 94.9987, -94.7978
1.68717, -1, 5.23844, 16.4835, 18.3452, 12.5321, 94.9489, -94.9232
1.69524, -1, 5.05834, 16.3878, 18.3775, 12.5221, 94.849, -95.1741
1.70439, -1, 4.78807, 16.2446, 18.4261, 12.5069, 94.6991, -95.5504
1.71118, -1, 4.69804, 16.1969, 18.4424, 12.5018, 94.6492, -95.6758
1.71934, -1, 4.51805, 16.1015, 18.4746, 12.4916, 94.5492, -95.9263
1.72859, -1, 4.2487, 15.9583, 18.5229, 12.4767, 94.3994, -96.3016
1.73518, -1, 4.15909, 15.9106, 18.5391, 12.4718, 94.3496, -96.4268
1.74327, -1, 3.98034, 15.8152, 18.5714, 12.4621, 94.2497, -96.6771
1.75275, -1, 3.71337, 15.6721, 18.6198, 12.4479, 94.1001, -97.0522
1.76173, -1, 3.53581, 15.5768, 18.6521, 12.4384, 94.0006, -97.302
1.76726, -1, 3.44726, 15.5292, 18.6682, 12.4338, 93.9507, -97.4268
1.77679, -1, 3.18164, 15.3864, 18.7163, 12.4198, 93.8014, -97.8017
1.78561, -1, 3.09307, 15.3389, 18.7486, 12.4103, 93.702, -98.0512
1.79126, -1, 2.91586, 15.2438, 18.7648, 12.4055, 93.6523, -98.1759
1.80023, -1, 2.73852, 15.1488, 18.7971, 12.3958, 93.553, -98.4253
1.8082, -1, 2.56077, 15.0537, 18.8291, 12.386, 93.454, -98.6746
1.81618, -1, 2.38277, 14.9587, 18.8613, 12.3761, 93.3547, -98.924
1.82429, -1, 2.20437, 14.8639, 18.8935, 12.3659, 93.2557, -99.1728
1.83218, -1, 2.02571, 14.7691, 18.9256, 12.3556, 93.1569, -99.4215
1.83928, -1, 1.84704, 14.6744, 18.9577, 12.3455, 93.0578, -99.6702
1.84722, -1, 1.66829, 14.5797, 18.9899, 12.3354, 92.9588, -99.9189
1.8552, -1, 1.4897, 14.4849, 19.0219, 12.3256, 92.8601, -100.168
1.8632, -1, 1.31139, 14.3902, 19.0538, 12.316, 92.7611, -100.416
1.87117, -1, 1.13357, 14.2955, 19.0859, 12.3065, 92.6624, -100.664
1.87931, -1, 0.95648, 14.2009, 19.118, 12.297, 92.5641, -100.912
1.88724, -1, 0.779905, 14.1064, 19.1499, 12.2876, 92.4654, -101.16
1.89518, -1, 0.603638, 14.012, 19.1818, 12.2781, 92.367, -101.408
1.90327, -1, 0.427823, 13.9176, 19.2138, 12.2687, 92.2687, -101.656
1.91118, -1, 0.25226, 13.8233, 19.2457, 12.2592, 92.1701, -101.903
1.91924, -1, 0.0769125, 13.729, 19.2776, 12.2496, 92.0716, -102.151
1.92727, -1, -0.0986017, 13.6347, 19.3097, 12.2399, 91.9734, -102.398
1.93518, -1, -0.274465, 13.5405, 19.3416, 12.2299, 91.8748, -102.645
1.94322, -1, -0.450775, 13.4463, 19.3734, 12.2198, 91.7766, -102.893
1.95125, -1, -0.627564, 13.3521, 19.4053, 12.2097, 91.6785, -103.14
1.95925, -1, -0.804468, 13.2581, 19.4373, 12.1996, 91.5803, -103.387
1.96726, -1, -0.981483, 13.1641, 19.469, 12.1898, 91.4822, -103.633
1.97519, -1, -1.15898, 13.07, 19.5008, 12.18, 91.3842, -103.88
1.98326, -1, -1.33634, 12.976, 19.5327, 12.1704, 91.286, -104.126
1.99129, -1, -1.51334, 12.882, 19.5645, 12.161, 91.1879, -104.373
1.99933, -1, -1.69003, 12.7879, 19.5962, 12.1516, 91.0899, -104.619
2.00729, -1, -1.86621, 12.694, 19.6279, 12.1423, 90.9918, -104.865
2.01538, -1, -2.0418, 12.6002, 19.6598, 12.1331, 90.8938, -105.111
2.02329, -1, -2.21679, 12.5064, 19.6914, 12.1236, 90.796, -105.357
2.03129, -1, -2.3914, 12.4128, 19.723, 12.1142, 90.698, -105.603
2.03942, -1, -2.56554, 12.3193, 19.7548, 12.1047, 90.6002, -105.848
2.04718, -1, -2.73933, 12.2258, 19.7865, 12.095, 90.5026, -106.094
2.05527, -1, -2.91317, 12.1323, 19.8181, 12.0851, 90.4049, -106.339
2.06331, -1, -3.08735, 12.0389, 19.8497, 12.0751, 90.3073, -106.584
2.07127, -1, -3.26185, 11.9455, 19.8815, 12.0651, 90.2096, -106.83
2.07944, -1, -3.43671, 11.8523, 19.913, 12.0552, 90.112, -107.074
2.08743, -1, -3.61173, 11.7591, 19.9445, 12.0453, 90.0146, -107.319
2.09547, -1, -3.78704, 11.666, 19.9761, 12.0356, 89.9171, -107.564
2.10356, -1, -3.9626, 11.5728, 20.0077, 12.0261, 89.8197, -107.809
2.11162, -1, -4.13851, 11.4796, 20.039, 12.0167, 89.7225, -108.053
2.12026, -1, -4.31453, 11.3864, 20.0705, 12.0072, 89.6253, -108.298
2.12778, -1, -4.49017, 11.2931, 20.1021, 11.9979, 89.528, -108.542
2.13634, -1, -4.66536, 11.2, 20.1336, 11.9886, 89.4309, -108.786
2.14375, -1, -4.84011, 11.1069, 20.1649, 11.9793, 89.334, -109.03
2.15229, -1, -5.01413, 11.014, 20.1964, 11.9698, 89.2368, -109.274
2.16, -1, -5.18748, 10.9211, 20.2279, 11.9602, 89.14, -109.517
2.16818, -1, -5.36059, 10.8282, 20.2592, 11.9506, 89.0432, -109.761
2.17573, -1, -5.44697, 10.7818, 20.2748, 11.9456, 88.9947, -109.883
2.1843, -1, -5.70527, 10.6426, 20.322, 11.9307, 88.8496, -110.248
2.19117, -1, -5.79135, 10.5962, 20.3377, 11.9257, 88.8013, -110.369
2.20026, -1, -6.04988, 10.4571, 20.3846, 11.9109, 88.6561, -110.734
2.20718, -1, -6.13621, 10.4108, 20.4003, 11.9059, 88.6077, -110.855
2.21642, -1, -6.39585, 10.2722, 20.4473, 11.8916, 88.4629, -111.22
2.22321, -1, -6.48258, 10.2259, 20.463, 11.8868, 88.4145, -111.341
2.23259, -1, -6.74313, 10.0873, 20.5098, 11.8728, 88.27, -111.705
2.2406, -1, -6.91727, 9.99501, 20.5411, 11.8636, 88.1738, -111.947
2.24716, -1, -7.00444, 9.94885, 20.5568, 11.859, 88.1256, -112.068
2.25674, -1, -7.26613, 9.81028, 20.6036, 11.8452, 87.9812, -112.431
2.26475, -1, -7.44013, 9.71801, 20.6348, 11.836, 87.885, -112.673
2.27279, -1, -7.61375, 9.62584, 20.6661, 11.8268, 87.7887, -112.915
2.28078, -1, -7.70041, 9.53369, 20.6971, 11.8174, 87.6924, -113.157
2.28882, -1, -7.87329, 9.48766, 20.7282, 11.8079, 87.5964, -113.399
2.29676, -1, -8.04552, 9.39563, 20.7439, 11.803, 87.5483, -113.64
2.30419, -1, -8.21727, 9.3036, 20.7751, 11.7933, 87.4522, -113.761
2.31217, -1, -8.38834, 9.21162, 20.8062, 11.7835, 87.3563, -114.002
2.32023, -1, -8.5589, 9.11963, 20.8373, 11.7737, 87.2601, -114.243
2.32822, -1, -8.7295, 9.02774, 20.8685, 11.7641, 87.164, -114.484
2.33617, -1, -8.90018, 8.93591, 20.8996, 11.7547, 87.0681, -114.725
2.34423, -1, -9.07122, 8.84424, 20.9306, 11.7453, 86.972, -114.966
2.35217, -1, -9.24276, 8.75254, 20.9616, 11.7359, 86.876, -115.206
2.36018, -1, -9.41452, 8.66088, 20.9927, 11.7267, 86.7802, -115.447
2.36823, -1, -9.58659, 8.5693, 21.0236, 11.7176, 86.6842, -115.688
2.37618, -1, -9.75895, 8.47777, 21.0545, 11.7084, 86.5885, -115.928
2.38418, -1, -9.93159, 8.38613, 21.0856, 11.6993, 86.493, -116.168
2.39227, -1, -10.1045, 8.29458, 21.1166, 11.6901, 86.3973, -116.408
2.40018, -1, -10.2774, 8.20317, 21.1474, 11.6807, 86.3017, -116.648
2.40817, -1, -10.4499, 8.11171, 21.1782, 11.6712, 86.2064, -116.888
2.41622, -1, -10.6219, 8.02022, 21.2092, 11.6617, 86.1109, -117.128
2.42418, -1, -10.7935, 7.92891, 21.24, 11.6521, 86.0155, -117.367
2.43117, -1, -10.9644, 7.83759, 21.2708, 11.6423, 85.9203, -117.607
2.43923, -1, -11.1344, 7.74633, 21.3016, 11.6326, 85.8251, -117.846
2.44729, -1, -11.3039, 7.65506, 21.3326, 11.6229, 85.7297, -118.085
2.45522, -1, -11.4732, 7.56393, 21.3633, 11.6135, 85.6349, -118.324
2.46316, -1, -11.6422, 7.47294, 21.394, 11.6041, 85.5401, -118.563
2.47236, -1, -11.8113, 7.38206, 21.4249, 11.595, 85.4453, -118.802
2.47923, -1, -11.9806, 7.29124, 21.4558, 11.5861, 85.3506, -119.041
2.48725, -1, -12.1502, 7.20048, 21.4865, 11.5771, 85.2561, -119.279
2.49519, -1, -12.3202, 7.10979, 21.5172, 11.5681, 85.1614, -119.517
2.50332, -1, -12.4908, 7.01911, 21.5481, 11.5592, 85.0667, -119.755
2.51128, -1, -12.6616, 6.92839, 21.5787, 11.5502, 84.9723, -119.994
2.51935, -1, -12.8327, 6.83767, 21.6094, 11.5412, 84.8777, -120.232
2.52733, -1, -13.004, 6.74706, 21.6401, 11.5319, 84.7832, -120.469
2.53527, -1, -13.1751, 6.65644, 21.6709, 11.5225, 84.6888, -120.707
2.54316, -1, -13.3461, 6.56581, 21.7014, 11.513, 84.5941, -120.945
2.55131, -1, -13.5165, 6.47525, 21.7319, 11.5034, 84.4996, -121.183
2.55925, -1, -13.6867, 6.38475, 21.7626, 11.4937, 84.4052, -121.42
2.56732, -1, -13.8562, 6.29419, 21.7932, 11.4841, 84.3107, -121.657
2.57535, -1, -14.0249, 6.20367, 21.8238, 11.4745, 84.2161, -121.894
2.58344, -1, -14.1932, 6.11322, 21.8543, 11.4651, 84.1219, -122.131
2.59143, -1, -14.361, 6.02291, 21.8849, 11.456, 84.0274, -122.368
2.60016, -1, -14.5285, 5.9327, 21.9154, 11.4469, 83.9329, -122.604
2.60749, -1, -14.6959, 5.84261, 21.9459, 11.4378, 83.8388, -122.841
2.61568, -1, -14.8637, 5.75256, 21.9766, 11.4289, 83.7443, -123.078
2.62433, -1, -15.0317, 5.66261, 22.0071, 11.4198, 83.65, -123.314
2.63206, -1, -15.2002, 5.57263, 22.0375, 11.4108, 83.556, -123.551
2.63985, -1, -15.3691, 5.48275, 22.068, 11.4017, 83.4615, -123.786
2.64772, -1, -15.5384, 5.39281, 22.0986, 11.3925, 83.3674, -124.022
2.65627, -1, -15.7078, 5.30294, 22.129, 11.3832, 83.2735, -124.258
2.66381, -1, -15.7926, 5.21314, 22.1594, 11.3737, 83.1793, -124.494
2.67236, -1, -16.0469, 5.12337, 22.1899, 11.3641, 83.0854, -124.73
2.67921, -1, -16.1317, 5.07843, 22.2051, 11.3592, 83.0385, -124.848
2.6882, -1, -16.3856, 4.94378, 22.2506, 11.3446, 82.8979, -125.201
2.69515, -1, -16.4701, 4.89892, 22.2658, 11.3398, 82.851, -125.319
2.70427, -1, -16.7229, 4.76427, 22.3114, 11.3257, 82.7108, -125.672
2.71118, -1, -16.8067, 4.71935, 22.3266, 11.3211, 82.6641, -125.789
2.7192, -1, -16.9737, 4.62964, 22.3568, 11.312, 82.5704, -126.024
2.72861, -1, -17.2237, 4.49529, 22.4021, 11.2986, 82.4305, -126.376
2.73664, -1, -17.3899, 4.40588, 22.4325, 11.2898, 82.337, -126.611
2.74316, -1, -17.473, 4.36119, 22.4477, 11.2854, 82.2903, -126.729
2.75263, -1, -17.7224, 4.22715, 22.493, 11.2721, 82.1506, -127.08
2.75934, -1, -17.8055, 4.18253, 22.5081, 11.2677, 82.1043, -127.197
2.7687, -1, -18.0553, 4.04873, 22.5536, 11.2543, 81.9646, -127.549
2.7769, -1, -18.2223, 3.95942, 22.5837, 11.2452, 81.8715, -127.783
2.78479, -1, -18.3897, 3.87019, 22.6138, 11.236, 81.7788, -128.017
2.79126, -1, -18.4736, 3.82564, 22.6289, 11.2313, 81.7322, -128.134
2.80015, -1, -18.6415, 3.73646, 22.6592, 11.2218, 81.6394, -128.367
2.80822, -1, -18.8095, 3.64736, 22.6892, 11.2122, 81.5466, -128.601
2.81616, -1, -18.9776, 3.55829, 22.7193, 11.2026, 81.4537, -128.835
2.82415, -1, -19.1455, 3.46928, 22.7494, 11.1929, 81.3608, -129.068
2.8322, -1, -19.3131, 3.3803, 22.7796, 11.1835, 81.2681, -129.302
2.84015, -1, -19.4804, 3.29139, 22.8097, 11.1743, 81.1755, -129.535
2.84817, -1, -19.6471, 3.20238, 22.8397, 11.1651, 81.0827, -129.768
2.8562, -1, -19.8132, 3.11352, 22.8699, 11.1562, 80.99, -130.001
2.86316, -1, -19.9789, 3.02482, 22.9, 11.1472, 80.8974, -130.234
2.87122, -1, -20.1441, 2.9362, 22.9299, 11.1383, 80.8047, -130.466
2.8792, -1, -20.3089, 2.84768, 22.9599, 11.1295, 80.7121, -130.699
2.88715, -1, -20.4736, 2.7592, 22.9901, 11.1206, 80.6197, -130.931
2.89522, -1, -20.6384, 2.67075, 23.02, 11.1117, 80.5271, -131.164
2.90315, -1, -20.8033, 2.58237, 23.05, 11.1027, 80.4345, -131.396
2.91115, -1, -20.9686, 2.49395, 23.08, 11.0936, 80.3421, -131.628
2.91927, -1, -21.1341, 2.40545, 23.1099, 11.0842, 80.2494, -131.86
2.92714, -1, -21.3001, 2.31707, 23.1398, 11.0748, 80.1571, -132.092
2.93517, -1, -21.4663, 2.22869, 23.1696, 11.0653, 80.0649, -132.324
2.94323, -1, -21.6327, 2.14031, 23.1995, 11.0558, 79.9724, -132.556
2.95114, -1, -21.799, 2.05203, 23.2293, 11.0464, 79.8802, -132.787
2.95929, -1, -21.9654, 1.96382, 23.2591, 11.0371, 79.7882, -133.018
2.96719, -1, -22.1316, 1.87556, 23.2889, 11.028, 79.6959, -133.25
2.97514, -1, -22.2978, 1.7873, 23.3188, 11.0191, 79.6038, -133.481
2.98335, -1, -22.4634, 1.69907, 23.3486, 11.0103, 79.5119, -133.712
2.99116, -1, -22.6286, 1.6109, 23.3783, 11.0015, 79.4198, -133.944
2.99926, -1, -22.7933, 1.5228, 23.4081, 10.9929, 79.3278, -134.175
3.00751, -1, -22.9575, 1.43481, 23.438, 10.9842, 79.2359, -134.406
3.01525, -1, -23.1214, 1.34683, 23.4676, 10.9756, 79.1441, -134.637
3.0233, -1, -23.2849, 1.25894, 23.4973, 10.9668, 79.0523, -134.867
3.03168, -1, -23.4483, 1.17113, 23.5271, 10.9579, 78.9606, -135.097
3.03931, -1, -23.6119, 1.08338, 23.5569, 10.9488, 78.869, -135.328
3.04714, -1, -23.7755, 0.995658, 23.5866, 10.9396, 78.7773, -135.558
3.05588, -1, -23.9393, 0.907999, 23.6163, 10.9303, 78.6856, -135.788
3.06427, -1, -24.1033, 0.820377, 23.6461, 10.9208, 78.5945, -136.018
3.07118, -1, -24.2677, 0.732818, 23.6758, 10.9114, 78.5029, -136.248
3.08018, -1, -24.4323, 0.64526, 23.7053, 10.902, 78.4114, -136.478
3.08734, -1, -24.5971, 0.557727, 23.7349, 10.8928, 78.3202, -136.708
3.09541, -1, -24.7621, 0.470315, 23.7646, 10.8837, 78.2286, -136.938
3.10431, -1, -24.9271, 0.382775, 23.7942, 10.8748, 78.1373, -137.167
3.11151, -1, -25.0919, 0.295263, 23.8237, 10.8659, 78.0462, -137.396
3.11969, -1, -25.2564, 0.207724, 23.8533, 10.8572, 77.955, -137.626
3.12855, -1, -25.4204, 0.120293, 23.8829, 10.8485, 77.8638, -137.855
3.13568, -1, -25.584, 0.0328513, 23.9123, 10.8398, 77.7729, -138.084
3.14425, -1, -25.7474, -0.0544551, 23.9418, 10.8312, 77.6819, -138.313
3.15256, -1, -25.9103, -0.141686, 23.9713, 10.8224, 77.5909, -138.542
3.15984, -1, -26.0729, -0.228946, 24.0009, 10.8136, 77.4999, -138.771
3.16822, -1, -26.2353, -0.316065, 24.0303, 10.8047, 77.4091, -139
3.17514, -1, -26.3164, -0.359531, 24.045, 10.8001, 77.3635, -139.114
3.18313, -1, -26.4786, -0.446582, 24.0744, 10.791, 77.2725, -139.342
3.19218, -1, -26.7223, -0.577158, 24.1188, 10.7772, 77.1361, -139.685
3.1992, -1, -26.8035, -0.620631, 24.1334, 10.7725, 77.0904, -139.799
3.20713, -1, -26.9663, -0.707586, 24.1628, 10.7633, 76.9995, -140.027
3.21633, -1, -27.2107, -0.837901, 24.207, 10.7496, 76.8634, -140.369
3.22313, -1, -27.2922, -0.881384, 24.2217, 10.7451, 76.8179, -140.483
3.23118, -1, -27.4554, -0.968228, 24.251, 10.7363, 76.7271, -140.711
3.24134, -1, -27.7006, -1.09845, 24.295, 10.7234, 76.591, -141.053
3.24713, -1, -27.7823, -1.14188, 24.3098, 10.7191, 76.5456, -141.167
3.25666, -1, -28.0272, -1.27209, 24.3538, 10.7063, 76.4094, -141.508
3.26543, -1, -28.1903, -1.35884, 24.3831, 10.6977, 76.3188, -141.735
3.27115, -1, -28.2718, -1.40218, 24.3978, 10.6934, 76.2737, -141.849
3.28074, -1, -28.5157, -1.53205, 24.4418, 10.6804, 76.1377, -142.19
3.2895, -1, -28.6778, -1.61861, 24.471, 10.6717, 76.0472, -142.417
3.29519, -1, -28.7588, -1.66188, 24.4856, 10.6673, 76.0022, -142.531
3.30414, -1, -28.9204, -1.7483, 24.5148, 10.6584, 75.9117, -142.758
3.31358, -1, -29.0816, -1.83473, 24.5442, 10.6493, 75.8213, -142.985
3.3192, -1, -29.2426, -1.92111, 24.5733, 10.6401, 75.7312, -143.212
3.32719, -1, -29.4038, -2.00747, 24.6026, 10.6307, 75.641, -143.439
3.33515, -1, -29.5651, -2.09376, 24.6318, 10.6215, 75.5508, -143.665
3.34314, -1, -29.7263, -2.17995, 24.6612, 10.6124, 75.4606, -143.892
3.3512, -1, -29.8878, -2.26615, 24.6903, 10.6034, 75.3706, -144.118
3.35921, -1, -30.0491, -2.35238, 24.7194, 10.5945, 75.2803, -144.344
3.36715, -1, -30.2105, -2.43852, 24.7486, 10.5858, 75.1903, -144.57
3.37519, -1, -30.3723, -2.52465, 24.7778, 10.5771, 75.1007, -144.796
3.38313, -1, -30.5342, -2.61085, 24.8069, 10.5685, 75.0106, -145.023
3.39114, -1, -30.6963, -2.69703, 24.836, 10.5599, 74.9209, -145.249
3.39926, -1, -30.8584, -2.7832, 24.8652, 10.5513, 74.8315, -145.475
3.40713, -1, -31.0201, -2.86931, 24.8944, 10.5427, 74.7418, -145.701
3.41565, -1, -31.1818, -2.95537, 24.9234, 10.534, 74.6522, -145.926
3.42312, -1, -31.3433, -3.04134, 24.9525, 10.5252, 74.5625, -146.151
3.43113, -1, -31.5043, -3.12735, 24.9816, 10.5164, 74.473, -146.377
3.44017, -1, -31.6651, -3.21329, 25.0106, 10.5074, 74.3834, -146.602
3.44716, -1, -31.8257, -3.29917, 25.0395, 10.4983, 74.2938, -146.828
3.45512, -1, -31.986, -3.38499, 25.0686, 10.489, 74.2043, -147.053
3.46402, -1, -32.1462, -3.47082, 25.0978, 10.4797, 74.1146, -147.278
3.47222, -1, -32.3063, -3.55659, 25.1268, 10.4707, 74.0249, -147.503
3.47918, -1, -32.4663, -3.64222, 25.1557, 10.4617, 73.9356, -147.728
3.48795, -1, -32.6265, -3.72784, 25.1847, 10.4529, 73.846, -147.953
3.49622, -1, -32.7866, -3.81346, 25.2138, 10.4441, 73.7565, -148.178
3.50324, -1, -32.9467, -3.89902, 25.2427, 10.4354, 73.6673, -148.402
3.51201, -1, -33.1071, -3.98449, 25.2716, 10.4268, 73.5778, -148.627
3.5202, -1, -33.2677, -4.07009, 25.3007, 10.4183, 73.4883, -148.851
3.52727, -1, -33.4283, -4.15566, 25.3297, 10.4098, 73.399, -149.076
3.53597, -1, -33.5891, -4.24127, 25.3586, 10.4012, 73.3095, -149.3
3.5442, -1, -33.7497, -4.32682, 25.3875, 10.3927, 73.2201, -149.524
3.55113, -1, -33.9101, -4.41229, 25.4165, 10.3839, 73.1307, -149.748
3.56048, -1, -34.0704, -4.49769, 25.4455, 10.3751, 73.0414, -149.972
3.56716, -1, -34.2307, -4.58307, 25.4744, 10.3662, 72.9519, -150.197
3.57524, -1, -34.391, -4.66843, 25.5033, 10.357, 72.8625, -150.42
3.58329, -1, -34.551, -4.75378, 25.5322, 10.3478, 72.7736, -150.644
3.5913, -1, -34.7105, -4.83903, 25.5611, 10.3387, 72.6842, -150.867
3.59976, -1, -34.8698, -4.92434, 25.5899, 10.3296, 72.5952, -151.091
3.60824, -1, -35.029, -5.00963, 25.6188, 10.3206, 72.5064, -151.315
3.61548, -1, -35.1881, -5.0948, 25.6477, 10.3118, 72.4173, -151.538
3.62364, -1, -35.3472, -5.17994, 25.6766, 10.303, 72.3284, -151.762
3.63305, -1, -35.5064, -5.26502, 25.7053, 10.2944, 72.2397, -151.985
3.64022, -1, -35.6655, -5.35012, 25.7341, 10.2859, 72.1508, -152.209
3.64861, -1, -35.8246, -5.43511, 25.763, 10.2774, 72.0621, -152.432
3.65569, -1, -35.9837, -5.5201, 25.7918, 10.2689, 71.9734, -152.655
3.66372, -1, -36.0632, -5.60513, 25.8205, 10.2605, 71.8848, -152.878
3.6727, -1, -36.3022, -5.69017, 25.8492, 10.252, 71.796, -153.101
3.68101, -1, -36.4616, -5.77513, 25.8781, 10.2434, 71.7074, -153.324
3.68818, -1, -36.6209, -5.86006, 25.9067, 10.2346, 71.6192, -153.546
3.69521, -1, -36.7005, -5.9025, 25.9211, 10.2302, 71.5748, -153.658
3.70657, -1, -36.9395, -6.02968, 25.9642, 10.2167, 71.4422, -153.991
3.71108, -1, -37.0191, -6.07206, 25.9786, 10.2121, 71.3979, -154.103
3.72113, -1, -37.2577, -6.19906, 26.0217, 10.1983, 71.2656, -154.437
3.72716, -1, -37.3372, -6.24139, 26.036, 10.1938, 71.2213, -154.548
3.73654, -1, -37.5753, -6.36834, 26.0791, 10.1801, 71.0886, -154.881
3.74312, -1, -37.6545, -6.4107, 26.0936, 10.1757, 71.0446, -154.992
3.75256, -1, -37.8922, -6.53769, 26.1366, 10.1626, 70.9117, -155.325
3.75918, -1, -37.9714, -6.58, 26.1509, 10.1583, 70.8676, -155.436
3.76948, -1, -38.2089, -6.70691, 26.1939, 10.1457, 70.7353, -155.769
3.77518, -1, -38.288, -6.74921, 26.2082, 10.1414, 70.6911, -155.88
3.78473, -1, -38.5249, -6.87605, 26.2511, 10.129, 70.5587, -156.213
3.79366, -1, -38.6039, -6.91829, 26.2654, 10.1207, 70.4707, -156.434
3.79929, -1, -38.7619, -7.00274, 26.294, 10.1165, 70.4266, -156.545
3.80869, -1, -38.9199, -7.08722, 26.3228, 10.1081, 70.3382, -156.767
3.81611, -1, -39.078, -7.17174, 26.3513, 10.0996, 70.2498, -156.989
3.82319, -1, -39.2362, -7.25617, 26.3798, 10.0911, 70.1619, -157.21
3.83111, -1, -39.3945, -7.34058, 26.4085, 10.0824, 70.0735, -157.431
3.83919, -1, -39.5527, -7.425, 26.4371, 10.0735, 69.9853, -157.652
3.84712, -1, -39.7109, -7.50929, 26.4656, 10.0645, 69.8974, -157.874
3.8551, -1, -39.869, -7.59364, 26.4941, 10.0555, 69.8092, -158.095
3.86412, -1, -40.0272, -7.67789, 26.5227, 10.0465, 69.7211, -158.316
3.87111, -1, -40.1854, -7.76215, 26.5512, 10.0376, 69.6331, -158.537
3.87917, -1, -40.3435, -7.84637, 26.5797, 10.0288, 69.5454, -158.758
3.88721, -1, -40.5014, -7.93066, 26.6082, 10.0202, 69.4574, -158.979
3.89511, -1, -40.6592, -8.01493, 26.6367, 10.0116, 69.3695, -159.2
3.90312, -1, -40.8168, -8.09911, 26.6653, 10.0032, 69.2819, -159.421
3.91118, -1, -40.9741, -8.18322, 26.6936, 9.9948, 69.194, -159.641
3.91917, -1, -41.1314, -8.26734, 26.722, 9.98647, 69.1063, -159.862
3.92711, -1, -41.2885, -8.35136, 26.7505, 9.97815, 69.0187, -160.083
3.93518, -1, -41.4456, -8.43528, 26.7791, 9.96969, 68.9308, -160.303
3.94312, -1, -41.6027, -8.51922, 26.8075, 9.96122, 68.8431, -160.523
3.95111, -1, -41.7598, -8.60313, 26.8359, 9.95266, 68.7554, -160.744
3.96012, -1, -41.917, -8.68709, 26.8645, 9.944, 68.6678, -160.964
3.96827, -1, -42.0743, -8.771, 26.8929, 9.93515, 68.58, -161.185
3.97511, -1, -42.2314, -8.85491, 26.9212, 9.92611, 68.4924, -161.405
3.98318, -1, -42.3885, -8.93878, 26.9496, 9.91707, 68.405, -161.625
3.99121, -1, -42.5458, -9.02265, 26.978, 9.90807, 68.3172, -161.845
3.9992, -1, -42.7031, -9.10651, 27.0063, 9.89908, 68.2297, -162.065
4.00728, -1, -42.8604, -9.19034, 27.0345, 9.89028, 68.1424, -162.285
4.01546, -1, -43.0177, -9.27409, 27.0628, 9.88161, 68.0547, -162.504
4.02322, -1, -43.1748, -9.35784, 27.0913, 9.87312, 67.9673, -162.724
4.03135, -1, -43.3317, -9.44162, 27.1196, 9.86476, 67.8797, -162.944
4.03964, -1, -43.4886, -9.5253, 27.1479, 9.85651, 67.7923, -163.163
4.04717, -1, -43.6455, -9.60899, 27.1761, 9.84824, 67.7047, -163.383
4.05524, -1, -43.8023, -9.69265, 27.2045, 9.84012, 67.6173, -163.603
4.0636, -1, -43.9589, -9.77633, 27.2327, 9.832, 67.5303, -163.822
4.07114, -1, -44.1155, -9.85994, 27.2609, 9.82375, 67.4427, -164.041
4.07935, -1, -44.2718, -9.94357, 27.2892, 9.81544, 67.3555, -164.261
4.08824, -1, -44.4281, -10.0272, 27.3176, 9.80701, 67.2685, -164.48
4.0953, -1, -44.5843, -10.1108, 27.3458, 9.79843, 67.1812, -164.699
4.10352, -1, -44.7405, -10.1944, 27.374, 9.78973, 67.0941, -164.918
4.11142, -1, -44.8968, -10.2778, 27.4023, 9.78083, 67.0068, -165.137
4.11956, -1, -45.053, -10.3612, 27.4307, 9.77181, 66.9198, -165.356
4.12769, -1, -45.2087, -10.4443, 27.4589, 9.76282, 66.8326, -165.576
4.13634, -1, -45.3634, -10.5269, 27.4872, 9.75397, 66.7454, -165.794
4.14369, -1, -45.5163, -10.6084, 27.5156, 9.74528, 66.659, -166.012
4.15221, -1, -45.6657, -10.6876, 27.5441, 9.73685, 66.5728, -166.227
4.16013, -1, -45.8097, -10.763, 27.5725, 9.7288, 66.4885, -166.439
4.16773, -1, -45.879, -10.8335, 27.6002, 9.7211, 66.4075, -166.642
4.17617, -1, -46.0726, -10.8986, 27.6265, 9.714, 66.3316, -166.833
4.18404, -1, -46.1871, -10.9569, 27.6503, 9.70769, 66.263, -167.005
4.19113, -1, -46.2389, -10.9833, 27.661, 9.70486, 66.2322, -167.083
4.20016, -1, -46.371, -11.0523, 27.6866, 9.69779, 66.1543, -167.277
4.2081, -1, -46.4074, -11.0722, 27.6929, 9.69592, 66.1341, -167.328
4.2151, -1, -46.4699, -11.1077, 27.7024, 9.6928, 66.1019, -167.41
4.22438, -1, -46.5383, -11.1482, 27.7098, 9.68951, 66.0716, -167.486
4.2311, -1, -46.5551, -11.1581, 27.711, 9.68875, 66.0652, -167.503
4.23916, -1, -46.5811, -11.1733, 27.7124, 9.68756, 66.0565, -167.525
4.24856, -1, -46.6046, -11.187, 27.7131, 9.68647, 66.0503, -167.54
4.2551, -1, -46.6092, -11.1896, 27.7132, 9.68628, 66.0493, -167.543
4.26467, 2, -46.6161, -11.1935, 27.7133, 9.68593, 66.0479, -167.546
4.27268, 2, -46.617, -11.1944, 27.7134, 9.68582, 66.0475, -167.547
4.28076, 2, -46.6166, -11.1946, 27.7134, 9.68577, 66.0473, -167.547
4.2887, 2, -46.6163, -11.1947, 27.7134, 9.68568, 66.0472, -167.548
4.2967, 2, -46.6163, -11.1948, 27.7134, 9.68564, 66.0472, -167.548
4.30482, 2, -46.6168, -11.1949, 27.7134, 9.68558, 66.0471, -167.548
4.3121, 2, -46.6172, -11.195, 27.7134, 9.68555, 66.0471, -167.548
4.32096, 2, -46.6183, -11.1955, 27.7134, 9.68551, 66.0471, -167.548
4.32715, 2, -46.6201, -11.196, 27.7134, 9.68548, 66.047, -167.548
4.3361, 2, -46.6216, -11.1968, 27.7134, 9.68545, 66.0471, -167.548
4.3441, 2, -46.6229, -11.1974, 27.7134, 9.68542, 66.0471, -167.548
4.35109, 2, -46.6239, -11.1979, 27.7134, 9.6854, 66.0471, -167.548
4.35916, 2, -46.6244, -11.1982, 27.7134, 9.68539, 66.0471, -167.548
4.36724, 2, -46.6247, -11.1984, 27.7134, 9.68536, 66.0471, -167.548
4.37509, 2, -46.6248, -11.1984, 27.7134, 9.68537, 66.0471, -167.548
4.3831, 2, -46.6248, -11.1984, 27.7134, 9.68536, 66.0471, -167.548
4.3922, 2, -46.6246, -11.1983, 27.7134, 9.68533, 66.0471, -167.548
4.39914, 2, -46.6243, -11.1982, 27.7134, 9.68536, 66.0471, -167.548
4.40715, 2, -46.6239, -11.1981, 27.7134, 9.68536, 66.0471, -167.548
4.41516, 2, -46.6235, -11.1981, 27.7134, 9.68531, 66.0471, -167.548
4.4231, 2, -46.6233, -11.1981, 27.7134, 9.6853, 66.0471, -167.548
4.43109, 2, -46.6233, -11.1982, 27.7134, 9.68529, 66.0471, -167.548
4.4401, 2, -46.6234, -11.1984, 27.7134, 9.68531, 66.0471, -167.548
4.4482, 2, -46.6236, -11.1986, 27.7134, 9.68529, 66.0471, -167.548
4.4561, 2, -46.6243, -11.1987, 27.7134, 9.68529, 66.0471, -167.548
4.46317, 2, -46.6247, -11.1988, 27.7134, 9.6853, 66.0471, -167.548
4.4711, 2, -46.625, -11.1988, 27.7134, 9.68533, 66.0471, -167.547
4.47916, 2, -46.6251, -11.1989, 27.7134, 9.6853, 66.0471, -167.547
4.48716, 2, -46.625, -11.1988, 27.7134, 9.68529, 66.0471, -167.547
4.4951, 2, -46.625, -11.1988, 27.7134, 9.68528, 66.0471, -167.547
4.50312, 2, -46.6249, -11.1987, 27.7134, 9.68528, 66.0471, -167.547
4.51126, 2, -46.6247, -11.1986, 27.7134, 9.68531, 66.0471, -167.547
4.51925, 2, -46.6244, -11.1986, 27.7134, 9.68532, 66.0471, -167.547
4.52719, 2, -46.6242, -11.1986, 27.7134, 9.68533, 66.0471, -167.547
4.53534, 2, -46.6241, -11.1986, 27.7134, 9.6853, 66.0471, -167.547
4.54321, 2, -46.624, -11.1987, 27.7134, 9.68529, 66.0471, -167.547
4.55115, 2, -46.6239, -11.1987, 27.7134, 9.68528, 66.0471, -167.547
4.55934, 2, -46.6238, -11.1988, 27.7134, 9.68528, 66.0471, -167.547
4.5672, 2, -46.6238, -11.1988, 27.7134, 9.6853, 66.0471, -167.547
4.57513, 2, -46.6238, -11.1988, 27.7134, 9.68532, 66.0471, -167.547
4.58324, 2, -46.6237, -11.1988, 27.7134, 9.68531, 66.0471, -167.547
4.59131, 2, -46.6237, -11.1987, 27.7134, 9.68529, 66.0471, -167.547
4.59934, 2, -46.6237, -11.1986, 27.7134, 9.68531, 66.0471, -167.547
4.60742, 2, -46.6236, -11.1986, 27.7134, 9.68531, 66.0471, -167.547
4.61567, 2, -46.6236, -11.1986, 27.7134, 9.6853, 66.0472, -167.547
4.62412, 2, -46.6235, -11.1986, 27.7134, 9.68529, 66.0472, -167.547
4.63164, 2, -46.6234, -11.1986, 27.7134, 9.68528, 66.0472, -167.547
4.64032, 2, -46.6233, -11.1986, 27.7134, 9.68528, 66.0472, -167.546
4.64764, 2, -46.6232, -11.1986, 27.7134, 9.6853, 66.0471, -167.547
4.6562, 2, -46.6231, -11.1986, 27.7134, 9.6853, 66.0472, -167.547
4.66395, 2, -46.623, -11.1986, 27.7134, 9.68532, 66.0471, -167.546
4.67222, 2, -46.6229, -11.1986, 27.7134, 9.6853, 66.0471, -167.546
4.67979, 2, -46.6229, -11.1986, 27.7134, 9.68529, 66.0472, -167.546
4.68824, 2, -46.6228, -11.1986, 27.7134, 9.6853, 66.0472, -167.546
4.69508, 2, -46.6227, -11.1986, 27.7134, 9.68531, 66.0472, -167.546
4.70423, 2, -46.6226, -11.1985, 27.7134, 9.6853, 66.0472, -167.546
4.71108, 2, -46.6225, -11.1985, 27.7134, 9.68531, 66.0472, -167.546
4.72024, 2, -46.6224, -11.1984, 27.7134, 9.68529, 66.0472, -167.546
4.72713, 2, -46.6223, -11.1984, 27.7134, 9.68529, 66.0472, -167.546
4.73651, 2, -46.6222, -11.1984, 27.7134, 9.6853, 66.0472, -167.546
4.74309, 2, -46.6221, -11.1984, 27.7134, 9.68531, 66.0472, -167.546
4.7525, 2, -46.622, -11.1984, 27.7134, 9.68529, 66.0472, -167.546
4.75925, 2, -46.622, -11.1985, 27.7134, 9.68529, 66.0472, -167.546
4.76719, 2, -46.6218, -11.1985, 27.7134, 9.68531, 66.0472, -167.546
4.77664, 2, -46.6217, -11.1985, 27.7134, 9.68531, 66.0472, -167.546
4.78478, 2, -46.6216, -11.1985, 27.7134, 9.68529, 66.0473, -167.546
4.79267, 2, -46.6215, -11.1985, 27.7134, 9.68531, 66.0472, -167.546
4.80062, 2, -46.6214, -11.1985, 27.7134, 9.6853, 66.0473, -167.546
4.80901, 2, -46.6213, -11.1984, 27.7134, 9.6853, 66.0473, -167.546
4.81508, 2, -46.6212, -11.1984, 27.7134, 9.6853, 66.0473, -167.546
4.82409, 2, -46.6211, -11.1984, 27.7134, 9.68529, 66.0473, -167.546
4.83217, 2, -46.6211, -11.1983, 27.7134, 9.68528, 66.0472, -167.546
4.84008, 2, -46.621, -11.1983, 27.7134, 9.6853, 66.0472, -167.546
4.8481, 2, -46.6209, -11.1983, 27.7134, 9.6853, 66.0473, -167.546
4.85614, 2, -46.6208, -11.1983, 27.7134, 9.6853, 66.0473, -167.546
4.86409, 2, -46.6207, -11.1983, 27.7134, 9.68532, 66.0473, -167.546
4.8721, 2, -46.6206, -11.1984, 27.7134, 9.68534, 66.0473, -167.546
4.88015, 2, -46.6206, -11.1983, 27.7134, 9.68531, 66.0473, -167.546
4.8881, 2, -46.6206, -11.1983, 27.7134, 9.68529, 66.0473, -167.546
4.89609, 2, -46.6205, -11.1983, 27.7134, 9.68531, 66.0472, -167.546
4.90414, 2, -46.6205, -11.1983, 27.7134, 9.68529, 66.0473, -167.546
4.91215, 2, -46.6205, -11.1983, 27.7134, 9.68529, 66.0473, -167.546
4.92009, 2, -46.6205, -11.1983, 27.7134, 9.68531, 66.0473, -167.546
4.92817, 2, -46.6205, -11.1982, 27.7134, 9.68529, 66.0473, -167.546
4.93609, 2, -46.6204, -11.1982, 27.7134, 9.68531, 66.0473, -167.546
4.94408, 2, -46.6203, -11.1982, 27.7134, 9.68532, 66.0473, -167.546
4.95217, 2, -46.6203, -11.1982, 27.7134, 9.68533, 66.0473, -167.546
4.95915, 2, -46.6201, -11.1982, 27.7134, 9.68532, 66.0473, -167.546
4.96714, 2, -46.62, -11.1982, 27.7134, 9.68535, 66.0473, -167.546
4.97509, 2, -46.62, -11.1982, 27.7134, 9.68532, 66.0473, -167.546
4.98309, 2, -46.62, -11.1982, 27.7134, 9.6853, 66.0473, -167.546
4.99209, 2, -46.6199, -11.1982, 27.7134, 9.68533, 66.0474, -167.546
5.00016, 2, -46.6199, -11.1982, 27.7134, 9.6853, 66.0473, -167.546
5.00712, 2, -46.6199, -11.1982, 27.7134, 9.68532, 66.0473, -167.546
5.01526, 2, -46.6198, -11.1982, 27.7134, 9.68533, 66.0474, -167.546
5.02328, 2, -46.6199, -11.1981, 27.7134, 9.68531, 66.0473, -167.546
5.03118, 2, -46.6198, -11.1981, 27.7134, 9.68529, 66.0474, -167.546
5.03937, 2, -46.6198, -11.1981, 27.7134, 9.6853, 66.0473, -167.546
5.04718, 2, -46.6197, -11.1981, 27.7134, 9.68532, 66.0473, -167.546
5.05514, 2, -46.6196, -11.1981, 27.7134, 9.68534, 66.0473, -167.546
5.06322, 2, -46.6195, -11.1981, 27.7134, 9.68535, 66.0473, -167.546
5.07111, 2, -46.6194, -11.1981, 27.7134, 9.68532, 66.0474, -167.546
5.07917, 2, -46.6193, -11.1981, 27.7134, 9.68534, 66.0473, -167.546
5.08725, 2, -46.6193, -11.1981, 27.7134, 9.68537, 66.0474, -167.546
5.0956, 2, -46.6192, -11.1981, 27.7134, 9.68538, 66.0473, -167.546
5.1033, 2, -46.6192, -11.1981, 27.7134, 9.68538, 66.0474, -167.546
5.11139, 2, -46.6191, -11.1981, 27.7134, 9.68538, 66.0474, -167.546
5.11993, 2, -46.6191, -11.198, 27.7134, 9.68538, 66.0474, -167.546
5.12813, 2, -46.6191, -11.198, 27.7134, 9.68538, 66.0474, -167.546
5.13561, 2, -46.6191, -11.1979, 27.7134, 9.68537, 66.0474, -167.546
5.14431, 2, -46.619, -11.1979, 27.7134, 9.68536, 66.0474, -167.546
5.1516, 2, -46.619, -11.1979, 27.7134, 9.68536, 66.0474, -167.546
5.16018, 2, -46.6189, -11.1979, 27.7134, 9.68532, 66.0474, -167.546
5.16795, 2, -46.6188, -11.1979, 27.7134, 9.68534, 66.0474, -167.546
5.17619, 2, -46.6188, -11.1979, 27.7134, 9.68535, 66.0474, -167.546
5.18373, 2, -46.6187, -11.1979, 27.7134, 9.68531, 66.0474, -167.545
5.19224, 2, -46.6186, -11.1979, 27.7134, 9.68534, 66.0474, -167.545
5.19913, 2, -46.6186, -11.1979, 27.7134, 9.68535, 66.0473, -167.546
5.20821, 2, -46.6185, -11.1979, 27.7134, 9.68536, 66.0473, -167.546
5.21512, 2, -46.6185, -11.1979, 27.7134, 9.68536, 66.0474, -167.546
5.22307, 2, -46.6185, -11.1979, 27.7134, 9.68536, 66.0474, -167.546
5.23231, 2, -46.6184, -11.1978, 27.7134, 9.68532, 66.0474, -167.545
5.23912, 2, -46.6184, -11.1978, 27.7134, 9.68533, 66.0474, -167.545
5.24707, 2, -46.6184, -11.1978, 27.7134, 9.68536, 66.0475, -167.545
5.2565, 2, -46.6183, -11.1978, 27.7134, 9.68533, 66.0474, -167.545
5.26529, 2, -46.6182, -11.1977, 27.7134, 9.68533, 66.0474, -167.545
5.27272, 2, -46.6182, -11.1977, 27.7134, 9.68533, 66.0474, -167.545
5.28066, 2, -46.6181, -11.1977, 27.7134, 9.68536, 66.0474, -167.545
5.28871, 2, -46.618, -11.1977, 27.7134, 9.68537, 66.0474, -167.545
5.29725, 2, -46.6179, -11.1977, 27.7134, 9.68533, 66.0474, -167.545
5.30307, 2, -46.6179, -11.1977, 27.7134, 9.68533, 66.0474, -167.545
5.31285, 2, -46.6179, -11.1978, 27.7133, 9.68534, 66.0474, -167.545
5.32009, 4, -46.6178, -11.1977, 27.7134, 9.68534, 66.0474, -167.545
5.32813, 4, -46.6178, -11.1977, 27.7134, 9.68535, 66.0474, -167.545
5.33609, 4, -46.6178, -11.1977, 27.7134, 9.68535, 66.0474, -167.545
5.34407, 4, -46.6178, -11.1977, 27.7134, 9.68536, 66.0474, -167.545
5.35212, 4, -46.6177, -11.1976, 27.7134, 9.68537, 66.0474, -167.545
5.36007, 4, -46.6177, -11.1976, 27.7134, 9.68533, 66.0475, -167.545
5.36712, 4, -46.6176, -11.1976, 27.7134, 9.6853, 66.0475, -167.545
5.37513, 4, -46.6175, -11.1976, 27.7134, 9.68534, 66.0474, -167.545
5.38307, 4, -46.6175, -11.1976, 27.7134, 9.68533, 66.0475, -167.545
5.39207, 4, -46.6174, -11.1976, 27.7134, 9.68536, 66.0474, -167.545
5.40015, 4, -46.6173, -11.1976, 27.7133, 9.68537, 66.0475, -167.545
5.40706, 4, -46.6173, -11.1976, 27.7133, 9.68538, 66.0475, -167.545
5.41607, 4, -46.6172, -11.1976, 27.7133, 9.68535, 66.0475, -167.545
5.42428, 4, -46.6172, -11.1975, 27.7133, 9.68537, 66.0475, -167.545
5.44754, 4, -46.6171, -11.1975, 27.7134, 9.68538, 66.0475, -167.545
5.45004, 4, -46.6171, -11.1975, 27.7133, 9.68538, 66.0475, -167.545
5.45192, 4, -46.6171, -11.1975, 27.7133, 9.68538, 66.0475, -167.545
5.45642, 4, -46.6171, -11.1974, 27.7133, 9.68538, 66.0475, -167.545
5.46636, 4, -46.6171, -11.1974, 27.7133, 9.68534, 66.0475, -167.545
5.47231, 4, -46.6171, -11.1974, 27.7134, 9.68535, 66.0475, -167.545
5.47911, 4, -46.6175, -11.1976, 27.7134, 9.68541, 66.0475, -167.545
5.4873, 4, -46.6189, -11.1985, 27.7141, 9.68623, 66.0479, -167.545
5.49521, 4, -46.622, -11.2014, 27.717, 9.69168, 66.0496, -167.544
5.50317, 4, -46.6269, -11.207, 27.7244, 9.70845, 66.0544, -167.541
5.51111, 4, -46.6342, -11.2161, 27.7388, 9.74315, 66.065, -167.534
5.52023, 5, -46.6446, -11.2297, 27.7632, 9.8042, 66.0836, -167.519
5.52718, 5, -46.6589, -11.2484, 27.7995, 9.8958, 66.1118, -167.496
5.53516, 5, -46.6775, -11.272, 27.8489, 10.0223, 66.1513, -167.465
5.54342, 5, -46.7003, -11.3005, 27.9115, 10.1833, 66.2023, -167.425
5.55227, 5, -46.727, -11.3338, 27.986, 10.3749, 66.2618, -167.376
5.56007, 5, -46.7573, -11.3719, 28.0705, 10.5905, 66.33, -167.321
5.56847, 5, -46.7905, -11.414, 28.1628, 10.8236, 66.4024, -167.262
5.57689, 5, -46.8259, -11.4593, 28.261, 11.0683, 66.4786, -167.2
5.58407, 5, -46.8632, -11.5071, 28.3629, 11.3199, 66.5563, -167.137
5.59119, 5, -46.9021, -11.5566, 28.467, 11.575, 66.635, -167.073
5.60029, 5, -46.9425, -11.6073, 28.5729, 11.8322, 66.7132, -167.008
5.6073, 5, -46.9837, -11.6587, 28.6802, 12.0903, 66.7914, -166.944
5.61545, 5, -47.0251, -11.7105, 28.7887, 12.3488, 66.8689, -166.881
5.62344, 5, -47.067, -11.7627, 28.8985, 12.6076, 66.9461, -166.816
5.63161, 5, -47.1091, -11.815, 29.0094, 12.8666, 67.0225, -166.753
5.64015, 5, -47.1513, -11.8675, 29.1209, 13.1256, 67.0984, -166.69
5.64807, 5, -47.1934, -11.92, 29.2333, 13.3845, 67.1737, -166.626
5.65561, 5, -47.2352, -11.9726, 29.3467, 13.6438, 67.2482, -166.563
5.66417, 5, -47.2773, -12.0255, 29.4613, 13.9032, 67.3223, -166.501
5.67169, 5, -47.3195, -12.0786, 29.577, 14.1626, 67.3958, -166.438
5.68034, 5, -47.362, -12.1319, 29.6936, 14.422, 67.4689, -166.377
5.68763, 5, -47.3836, -12.1587, 29.7522, 14.5517, 67.5052, -166.346
5.69635, 5, -47.4489, -12.2398, 29.9289, 14.9409, 67.6124, -166.253
5.70416, 5, -47.4929, -12.2942, 30.048, 15.2004, 67.6833, -166.193
5.71112, 5, -47.515, -12.3216, 30.1079, 15.3302, 67.7183, -166.163
5.72027, 5, -47.5814, -12.4045, 30.2894, 15.72, 67.8234, -166.072
5.7271, 5, -47.6037, -12.4323, 30.3504, 15.8498, 67.8578, -166.042
5.73641, 5, -47.6707, -12.5159, 30.5342, 16.2396, 67.9614, -165.953
5.74332, 5, -47.6932, -12.5438, 30.5958, 16.3695, 67.9952, -165.924
5.75397, 5, -47.7608, -12.6279, 30.7823, 16.759, 68.0971, -165.836
5.76062, 5, -47.806, -12.684, 30.9081, 17.019, 68.1635, -165.778
5.76941, 5, -47.8513, -12.7404, 31.0349, 17.279, 68.2303, -165.72
5.7776, 5, -47.8968, -12.7968, 31.1625, 17.539, 68.2957, -165.662
5.78467, 5, -47.9421, -12.8535, 31.2908, 17.799, 68.3614, -165.605
5.79264, 5, -47.9873, -12.9104, 31.4201, 18.0593, 68.4256, -165.548
5.80065, 5, -48.01, -12.9389, 31.485, 18.3194, 68.4898, -165.491
5.80869, 5, -48.0558, -12.9964, 31.6157, 18.5796, 68.5535, -165.435
5.81975, 5, -48.1251, -13.0832, 31.8134, 18.84, 68.6164, -165.379
5.82495, 5, -48.1483, -13.1124, 31.8798, 18.9702, 68.6482, -165.351
5.8314, 5, -48.1952, -13.1709, 32.0131, 19.2307, 68.7102, -165.295
5.8391, 5, -48.2422, -13.2297, 32.1472, 19.491, 68.772, -165.24
5.84705, 5, -48.2892, -13.2888, 32.2823, 19.7516, 68.8336, -165.185
5.85606, 5, -48.3363, -13.348, 32.4182, 20.0121, 68.8941, -165.131
5.86411, 5, -48.3836, -13.4074, 32.5551, 20.2725, 68.9549, -165.077
5.87212, 5, -48.4308, -13.4669, 32.6931, 20.5331, 69.0141, -165.024
5.87914, 5, -48.4781, -13.5266, 32.832, 20.794, 69.0738, -164.97
5.88711, 5, -48.5253, -13.5863, 32.9716, 21.0547, 69.1325, -164.917
5.8962, 5, -48.5719, -13.6459, 33.1119, 21.3153, 69.1908, -164.865
5.90695, 5, -48.6388, -13.7349, 33.3235, 21.7051, 69.2783, -164.784
5.91205, 5, -48.6602, -13.7643, 33.3941, 21.8339, 69.3071, -164.756
5.92192, 5, -48.7016, -13.8224, 33.5347, 22.0894, 69.3961, -164.663
5.92722, 6, -48.74, -13.8794, 33.6735, 22.3396, 69.426, -164.627
5.93511, 6, -48.7745, -13.9346, 33.8094, 22.5819, 69.4875, -164.546
5.9431, 6, -48.8047, -13.9879, 33.9417, 22.8139, 69.5521, -164.45
5.95211, 6, -48.8301, -14.0389, 34.0694, 23.0339, 69.6185, -164.335
5.96008, 6, -48.85, -14.0874, 34.1919, 23.2415, 69.6891, -164.202
5.96805, 6, -48.864, -14.1331, 34.3093, 23.4365, 69.7619, -164.049
5.9762, 7, -48.8721, -14.176, 34.4217, 23.62, 69.8383, -163.879
5.98409, 7, -48.8751, -14.2162, 34.5294, 23.7931, 69.9161, -163.694
5.99105, 7, -48.8733, -14.2538, 34.6329, 23.9577, 69.9969, -163.495
5.99918, 7, -48.8671, -14.289, 34.7328, 24.1153, 70.0795, -163.285
6.00708, 7, -48.857, -14.3223, 34.8298, 24.2667, 70.164, -163.064
6.01601, 8, -48.8438, -14.3538, 34.9241, 24.4132, 70.2498, -162.836
6.0243, 8, -48.8281, -14.3839, 35.016, 24.5558, 70.3371, -162.601
6.03447, 8, -48.8102, -14.4127, 35.1056, 24.764, 70.4703, -162.238
6.03928, 8, -48.7904, -14.4405, 35.1932, 24.8324, 70.5153, -162.115
6.04758, 8, -48.7692, -14.4675, 35.2794, 24.9681, 70.6059, -161.866
6.05605, 8, -48.747, -14.4936, 35.3644, 25.1027, 70.6973, -161.615
6.06321, 9, -48.724, -14.5191, 35.4486, 25.2366, 70.789, -161.362
6.07213, 9, -48.7002, -14.5441, 35.532, 25.3702, 70.8814, -161.107
6.08003, 9, -48.6758, -14.5685, 35.6146, 25.504, 70.9743, -160.853
6.08814, 9, -48.6506, -14.5926, 35.6963, 25.6381, 71.0668, -160.597
6.09643, 9, -48.6246, -14.616, 35.7774, 25.7729, 71.16, -160.342
6.10427, 10, -48.5981, -14.6391, 35.8582, 25.9086, 71.2535, -160.088
6.11205, 10, -48.5714, -14.662, 35.9388, 26.0451, 71.3467, -159.833
6.1219, 10, -48.5443, -14.6845, 36.0193, 26.1824, 71.4404, -159.58
6.12809, 10, -48.5171, -14.7071, 36.0995, 26.3205, 71.5342, -159.327
6.13552, 10, -48.4897, -14.7295, 36.1795, 26.4597, 71.6276, -159.075
6.14416, 10, -48.4623, -14.7518, 36.2592, 26.5998, 71.7208, -158.825
6.15408, 11, -48.4349, -14.7743, 36.3387, 26.741, 71.8141, -158.575
6.16021, 11, -48.4075, -14.7967, 36.4181, 26.8829, 71.9071, -158.326
6.16759, 11, -48.38, -14.8192, 36.4971, 27.0257, 71.9999, -158.078
6.17804, 11, -48.3525, -14.8418, 36.5761, 27.1692, 72.0928, -157.831
6.18412, 11, -48.3244, -14.864, 36.6549, 27.3134, 72.1854, -157.585
6.1916, 12, -48.3102, -14.8752, 36.6942, 27.3859, 72.2316, -157.462
6.20104, 12, -48.2673, -14.9087, 36.812, 27.6043, 72.37, -157.095
6.2081, 12, -48.2383, -14.9308, 36.8903, 27.7505, 72.4621, -156.852
6.21513, 12, -48.2235, -14.9419, 36.9294, 27.8237, 72.5079, -156.73
6.2246, 12, -48.1788, -14.9751, 37.046, 28.044, 72.6452, -156.366
6.23287, 13, -48.1483, -14.997, 37.1232, 28.191, 72.7368, -156.125
6.24029, 13, -48.1176, -15.0191, 37.2001, 28.3386, 72.8277, -155.884
6.2471, 13, -48.1021, -15.0301, 37.2384, 28.4125, 72.8731, -155.763
6.25651, 13, -48.0548, -15.063, 37.353, 28.634, 73.009, -155.403
6.26538, 13, -48.0228, -15.0851, 37.4291, 28.7817, 73.0991, -155.163
6.27122, 13, -48.0065, -15.0961, 37.4669, 28.8556, 73.1443, -155.043
6.28217, 14, -47.9569, -15.1289, 37.5798, 29.0769, 73.2793, -154.684
6.28953, 14, -47.9232, -15.1509, 37.6545, 29.2247, 73.3689, -154.446
6.29654, 14, -47.9061, -15.1618, 37.6917, 29.2986, 73.4581, -154.207
6.3047, 14, -47.8713, -15.1944, 37.8025, 29.5198, 73.5472, -153.97
6.31256, 14, -47.8357, -15.2053, 37.8392, 29.5934, 73.5919, -153.851
6.32101, 14, -47.7993, -15.2268, 37.9487, 29.8136, 73.7248, -153.495
6.32919, 15, -47.7438, -15.2592, 38.0213, 29.9604, 73.8131, -153.258
6.33505, 15, -47.7249, -15.27, 38.0574, 30.0337, 73.8573, -153.14
6.34566, 15, -47.6671, -15.3022, 38.1653, 30.2531, 73.9889, -152.785
6.35204, 15, -47.6475, -15.3131, 38.201, 30.326, 74.0328, -152.668
6.36011, 15, -47.608, -15.3348, 38.2721, 30.4718, 74.1201, -152.432
6.36803, 16, -47.5679, -15.3564, 38.3428, 30.6171, 74.2071, -152.198
6.3778, 16, -47.5271, -15.3782, 38.4129, 30.7622, 74.2934, -151.963
6.3841, 16, -47.4856, -15.4, 38.4827, 30.9072, 74.3795, -151.73
6.39209, 16, -47.4435, -15.4218, 38.5521, 31.0519, 74.4654, -151.497
6.4003, 16, -47.4007, -15.444, 38.6211, 31.1962, 74.5501, -151.265
6.40878, 17, -47.3571, -15.4661, 38.6898, 31.3405, 74.6349, -151.033
6.41504, 17, -47.3128, -15.4882, 38.7583, 31.4842, 74.7189, -150.802
6.42403, 17, -47.2679, -15.5107, 38.8264, 31.6278, 74.8028, -150.572
6.43204, 17, -47.2222, -15.5332, 38.8942, 31.7712, 74.8857, -150.343
6.44012, 17, -47.1758, -15.5559, 38.9617, 31.9145, 74.9684, -150.114
6.44993, 18, -47.1288, -15.5905, 39.0624, 32.1289, 75.0914, -149.773
6.45531, 18, -47.0812, -15.6021, 39.0958, 32.2001, 75.1318, -149.66
6.46413, 18, -47.033, -15.6255, 39.1623, 32.3425, 75.2124, -149.435
6.47213, 18, -46.9843, -15.6493, 39.2286, 32.4848, 75.2923, -149.21
6.47913, 18, -46.935, -15.6732, 39.2948, 32.6268, 75.3717, -148.987
6.4871, 18, -46.8849, -15.6978, 39.3606, 32.7689, 75.45, -148.764
6.49606, 19, -46.8342, -15.7225, 39.4264, 32.9106, 75.528, -148.542
6.50486, 19, -46.783, -15.7475, 39.492, 33.052, 75.6049, -148.322
6.51113, 19, -46.7309, -15.7729, 39.5572, 33.1931, 75.6813, -148.102
6.52107, 19, -46.6782, -15.7984, 39.6223, 33.334, 75.7566, -147.884
6.52809, 19, -46.6247, -15.8246, 39.6871, 33.4746, 75.8314, -147.667
6.53612, 19, -46.5705, -15.851, 39.7517, 33.6151, 75.9054, -147.451
6.54315, 20, -46.5158, -15.8777, 39.816, 33.7551, 75.9786, -147.236
6.5569, 20, -46.4323, -15.9186, 39.9121, 33.9647, 76.0868, -146.916
6.5601, 20, -46.4041, -15.9325, 39.9441, 34.0342, 76.1223, -146.81
6.57147, 20, -46.3188, -15.9746, 40.0395, 34.2426, 76.2283, -146.493
6.57618, 20, -46.29, -15.9888, 40.0713, 34.3119, 76.263, -146.388
6.58313, 21, -46.2318, -16.0175, 40.1346, 34.4504, 76.3317, -146.178
6.59192, 21, -46.1731, -16.0467, 40.1976, 34.5884, 76.4002, -145.97
6.60011, 21, -46.1135, -16.0763, 40.2603, 34.7259, 76.467, -145.763
6.60804, 21, -46.0532, -16.1061, 40.3228, 34.863, 76.5342, -145.556
6.61602, 21, -45.992, -16.1364, 40.3848, 34.9995, 76.5993, -145.351
6.62429, 22, -45.93, -16.1668, 40.4466, 35.1355, 76.6649, -145.146
6.63255, 22, -45.8672, -16.1978, 40.5079, 35.2711, 76.7288, -144.943
6.64008, 22, -45.8038, -16.229, 40.569, 35.4063, 76.7927, -144.74
6.64813, 22, -45.7395, -16.2606, 40.6297, 35.5408, 76.8552, -144.539
6.65643, 22, -45.6744, -16.2925, 40.69, 35.6746, 76.9168, -144.337
6.66359, 22, -45.6085, -16.3248, 40.7501, 35.8077, 76.9783, -144.137
6.6723, 23, -45.5418, -16.3572, 40.8096, 35.9402, 77.0382, -143.937
6.68082, 23, -45.4742, -16.3898, 40.8687, 36.072, 77.0985, -143.738
6.68813, 23, -45.4057, -16.4227, 40.9273, 36.2034, 77.157, -143.54
6.69676, 23, -45.3364, -16.4559, 40.9853, 36.3339, 77.2152, -143.342
6.70407, 23, -45.2662, -16.4893, 41.0428, 36.4636, 77.273, -143.145
6.71109, 23, -45.2308, -16.506, 41.0714, 36.5281, 77.3011, -143.047
6.72125, 24, -45.123, -16.5565, 41.1562, 36.7202, 77.3863, -142.752
6.72995, 24, -45.0501, -16.5904, 41.212, 36.8474, 77.4416, -142.557
6.73499, 24, -45.0132, -16.6074, 41.2397, 36.9106, 77.4688, -142.46
6.74859, 24, -44.8636, -16.6757, 41.3488, 37.1613, 77.578, -142.07
6.75264, 24, -44.8256, -16.6928, 41.3757, 37.2233, 77.6045, -141.973
6.76043, 25, -44.7489, -16.7271, 41.429, 37.3468, 77.658, -141.779
6.76935, 25, -44.6713, -16.7615, 41.4815, 37.4691, 77.7107, -141.586
6.77502, 25, -44.6322, -16.7787, 41.5075, 37.5297, 77.7364, -141.489
6.78456, 25, -44.5132, -16.8303, 41.5845, 37.7106, 77.814, -141.199
6.79275, 25, -44.4327, -16.8647, 41.6349, 37.83, 77.8648, -141.007
6.80089, 26, -44.3511, -16.899, 41.6844, 37.9485, 77.9148, -140.814
6.80708, 26, -44.3099, -16.9162, 41.7088, 38.0073, 77.9401, -140.718
6.81658, 26, -44.2268, -16.9504, 41.7572, 38.1239, 77.9901, -140.526
6.82485, 26, -44.1428, -16.9845, 41.8047, 38.297, 78.0625, -140.238
6.83208, 26, -44.0577, -17.0186, 41.8513, 38.3541, 78.087, -140.142
6.84001, 26, -43.9718, -17.0526, 41.8972, 38.4673, 78.1353, -139.95
6.84818, 27, -43.8848, -17.0865, 41.9422, 38.5795, 78.1821, -139.758
6.85584, 27, -43.797, -17.1201, 41.9863, 38.6906, 78.2292, -139.567
6.86304, 27, -43.7081, -17.1537, 42.0295, 38.8008, 78.2763, -139.375
6.87204, 27, -43.6182, -17.1871, 42.0719, 38.9097, 78.3218, -139.184
6.87907, 27, -43.5273, -17.2203, 42.1134, 39.0174, 78.3672, -138.993
6.887, 28, -43.4353, -17.2533, 42.1538, 39.124, 78.4129, -138.801
6.89602, 28, -43.3424, -17.286, 42.1935, 39.2294, 78.4574, -138.61
6.90542, 28, -43.2484, -17.3186, 42.2512, 39.3853, 78.5237, -138.324
6.91102, 28, -43.1535, -17.3508, 42.2699, 39.4366, 78.546, -138.228
6.92256, 28, -43.0092, -17.3987, 42.3248, 39.5892, 78.6108, -137.942
6.92824, 28, -42.9607, -17.4146, 42.3426, 39.6396, 78.6321, -137.847
6.93602, 29, -42.8627, -17.4462, 42.3774, 39.7393, 78.675, -137.656
6.94501, 29, -42.7637, -17.4774, 42.4114, 39.8379, 78.7176, -137.465
6.95212, 29, -42.6637, -17.5084, 42.4443, 39.9352, 78.759, -137.274
6.96006, 29, -42.5628, -17.5391, 42.4762, 40.0314, 78.8004, -137.083
6.96805, 29, -42.4608, -17.5696, 42.5072, 40.1262, 78.8421, -136.893
6.97617, 30, -42.3579, -17.5997, 42.5373, 40.2201, 78.8829, -136.702
6.98303, 30, -42.2542, -17.6294, 42.5662, 40.3127, 78.9227, -136.512
6.99205, 30, -42.1495, -17.6588, 42.5942, 40.4041, 78.9629, -136.321
6.99914, 30, -42.044, -17.688, 42.6213, 40.4946, 79.0029, -136.131
7.00713, 30, -41.9374, -17.7166, 42.6475, 40.584, 79.0419, -135.941
7.01504, 30, -41.8299, -17.7451, 42.6725, 40.672, 79.0805, -135.751
7.02418, 31, -41.7214, -17.773, 42.6966, 40.759, 79.1196, -135.561
7.03164, 31, -41.612, -17.8008, 42.7198, 40.8449, 79.1582, -135.371
7.03916, 31, -41.5016, -17.828, 42.7421, 40.9294, 79.1956, -135.18
7.04752, 31, -41.3903, -17.8549, 42.7634, 41.0129, 79.2328, -134.99
7.05514, 31, -41.2781, -17.8814, 42.7836, 41.0952, 79.2703, -134.801
7.06318, 32, -41.1652, -17.9075, 42.8031, 41.1767, 79.3073, -134.611
7.07207, 32, -41.0515, -17.9334, 42.8215, 41.2568, 79.3435, -134.421
7.08182, 32, -40.9368, -17.9588, 42.8387, 41.3361, 79.3794, -134.232
7.08801, 32, -40.8213, -17.9839, 42.8552, 41.4143, 79.4157, -134.042
7.09644, 32, -40.7051, -18.0085, 42.8707, 41.4914, 79.4515, -133.853
7.10419, 33, -40.5878, -18.0327, 42.885, 41.5673, 79.4863, -133.664
7.11202, 33, -40.4696, -18.0567, 42.8985, 41.6423, 79.5207, -133.476
7.12191, 33, -40.3505, -18.08, 42.9111, 41.7162, 79.5555, -133.287
7.12801, 33, -40.2308, -18.1031, 42.9227, 41.7887, 79.5899, -133.098
7.13627, 33, -40.1104, -18.1258, 42.9332, 41.8605, 79.6234, -132.909
7.14359, 33, -39.9891, -18.148, 42.9428, 41.9309, 79.6564, -132.721
7.15231, 34, -39.867, -18.1699, 42.9515, 42.0005, 79.6897, -132.533
7.16043, 34, -39.7441, -18.1912, 42.9594, 42.0689, 79.7232, -132.344
7.16756, 34, -39.6199, -18.212, 42.9663, 42.1363, 79.7556, -132.157
7.17701, 34, -39.4949, -18.2326, 42.9723, 42.2031, 79.7875, -131.969
7.18412, 34, -39.3691, -18.2525, 42.9773, 42.2684, 79.8189, -131.781
7.19192, 35, -39.2428, -18.2721, 42.9814, 42.3333, 79.8509, -131.594
7.2004, 35, -39.1157, -18.2914, 42.9845, 42.3963, 79.8825, -131.407
7.20804, 35, -38.9878, -18.3101, 42.9867, 42.4592, 79.9133, -131.22
7.21505, 35, -38.9236, -18.3193, 42.9875, 42.4898, 79.9285, -131.126
7.22494, 35, -38.7297, -18.3462, 42.9885, 42.5808, 79.9741, -130.846
7.23228, 35, -38.5993, -18.3637, 42.9884, 42.6398, 80.0048, -130.659
7.23902, 36, -38.5338, -18.3721, 42.988, 42.6688, 80.02, -130.566
7.2494, 36, -38.3364, -18.3969, 42.9856, 42.7557, 80.0642, -130.287
7.25637, 36, -38.2039, -18.4129, 42.9828, 42.8113, 80.093, -130.101
7.26302, 36, -38.1374, -18.4208, 42.981, 42.8392, 80.1074, -130.008
7.2729, 36, -37.9369, -18.4433, 42.9743, 42.9211, 80.1512, -129.729
7.27922, 37, -37.8697, -18.4505, 42.9716, 42.9475, 80.1656, -129.637
7.28941, 37, -37.6671, -18.4717, 42.9619, 43.0269, 80.2079, -129.359
7.29761, 37, -37.531, -18.4854, 42.9542, 43.0779, 80.2354, -129.175
7.30306, 37, -37.4627, -18.492, 42.95, 43.1031, 80.2491, -129.082
7.31269, 37, -37.3255, -18.5046, 42.936, 43.1783, 80.2908, -128.806
7.32001, 37, -37.1877, -18.5168, 42.9309, 43.2025, 80.3046, -128.713
7.33108, 38, -36.9798, -18.5346, 42.914, 43.2737, 80.3448, -128.437
7.33503, 38, -36.9101, -18.5403, 42.908, 43.2973, 80.3579, -128.345
7.344, 38, -36.7702, -18.5513, 42.8951, 43.3432, 80.3837, -128.161
7.352, 38, -36.6295, -18.5615, 42.8815, 43.3876, 80.4096, -127.978
7.35908, 38, -36.488, -18.5713, 42.867, 43.432, 80.4358, -127.795
7.36698, 39, -36.3459, -18.5806, 42.8514, 43.475, 80.4617, -127.612
7.37814, 39, -36.1313, -18.5936, 42.8262, 43.5367, 80.4994, -127.339
7.38296, 39, -36.0594, -18.5978, 42.8174, 43.5571, 80.5118, -127.247
7.39218, 39, -35.9153, -18.6058, 42.7991, 43.5976, 80.5363, -127.065
7.40001, 39, -35.7704, -18.6132, 42.7799, 43.6364, 80.5611, -126.884
7.40808, 39, -35.625, -18.62, 42.76, 43.6739, 80.5861, -126.702
7.41599, 40, -35.4788, -18.6261, 42.7391, 43.7112, 80.6105, -126.521
7.42434, 40, -35.3322, -18.6319, 42.7171, 43.7478, 80.6344, -126.34
7.43121, 40, -35.1847, -18.6373, 42.6944, 43.7827, 80.6577, -126.159
7.43904, 40, -35.0367, -18.6421, 42.6708, 43.8164, 80.6807, -125.979
7.44822, 40, -34.888, -18.6465, 42.6465, 43.8497, 80.7037, -125.798
7.45532, 41, -34.7387, -18.6504, 42.6211, 43.8826, 80.727, -125.619
7.46306, 41, -34.589, -18.6538, 42.595, 43.914, 80.7499, -125.439
7.47201, 41, -34.4386, -18.6567, 42.5682, 43.9441, 80.7723, -125.259
7.48008, 41, -34.2875, -18.6594, 42.5404, 43.9732, 80.7942, -125.08
7.48801, 41, -34.1359, -18.6615, 42.5118, 44.0021, 80.8156, -124.902
7.49625, 42, -33.9837, -18.6632, 42.4823, 44.03, 80.8372, -124.724
7.50316, 42, -33.8308, -18.6646, 42.4522, 44.0567, 80.8588, -124.546
7.512, 42, -33.6773, -18.6653, 42.4213, 44.0821, 80.8805, -124.368
7.52101, 42, -33.5231, -18.6657, 42.3894, 44.1064, 80.9018, -124.19
7.52801, 42, -33.3681, -18.6659, 42.3567, 44.1301, 80.9225, -124.013
7.53608, 42, -33.2126, -18.6658, 42.3234, 44.1532, 80.9427, -123.836
7.54499, 43, -33.0564, -18.6655, 42.2892, 44.1755, 80.9626, -123.66
7.55377, 43, -32.8996, -18.6646, 42.2542, 44.1965, 80.9823, -123.484
7.55916, 43, -32.7422, -18.6632, 42.2186, 44.2162, 81.0022, -123.308
7.567, 43, -32.5844, -18.6614, 42.1821, 44.2349, 81.022, -123.132
7.57699, 43, -32.4259, -18.6589, 42.1447, 44.2526, 81.0415, -122.957
7.58403, 44, -32.2667, -18.6559, 42.1066, 44.2694, 81.0605, -122.782
7.59199, 44, -32.1068, -18.6525, 42.0677, 44.2856, 81.0791, -122.608
7.60017, 44, -31.9466, -18.6485, 42.0279, 44.3011, 81.0973, -122.434
7.60715, 44, -31.7858, -18.6439, 41.9875, 44.3157, 81.1153, -122.26
7.61615, 44, -31.6247, -18.6389, 41.9463, 44.3292, 81.1333, -122.086
7.62414, 44, -31.4632, -18.6332, 41.9043, 44.3413, 81.1513, -121.913
7.63135, 45, -31.3009, -18.6269, 41.8614, 44.3524, 81.1694, -121.74
7.64028, 45, -31.1381, -18.6202, 41.8178, 44.3622, 81.1872, -121.567
7.64748, 45, -30.9744, -18.613, 41.7736, 44.371, 81.2044, -121.395
7.65558, 45, -30.8102, -18.6053, 41.7284, 44.3788, 81.2213, -121.223
7.66418, 45, -30.6452, -18.5969, 41.6825, 44.3855, 81.2378, -121.051
7.67192, 45, -30.4796, -18.5879, 41.636, 44.3912, 81.254, -120.88
7.67986, 46, -30.3134, -18.5784, 41.5885, 44.3959, 81.2701, -120.709
7.68819, 46, -30.1467, -18.5685, 41.5404, 44.3996, 81.2863, -120.539
7.69657, 46, -29.9795, -18.5581, 41.4913, 44.4023, 81.3026, -120.368
7.70299, 46, -29.8956, -18.5527, 41.4666, 44.4033, 81.3108, -120.283
7.71105, 46, -29.7275, -18.5415, 41.4164, 44.4045, 81.327, -120.113
7.72116, 47, -29.4737, -18.5232, 41.3396, 44.4051, 81.3506, -119.859
7.72906, 47, -29.3039, -18.5102, 41.2874, 44.405, 81.3659, -119.689
7.73616, 47, -29.1333, -18.4967, 41.2343, 44.404, 81.381, -119.52
7.74299, 47, -29.0479, -18.4898, 41.2075, 44.403, 81.3884, -119.435
7.75255, 47, -28.791, -18.4681, 41.1258, 44.3977, 81.4107, -119.182
7.76062, 48, -28.6189, -18.4526, 41.0704, 44.3927, 81.4257, -119.014
7.76935, 48, -28.4464, -18.4368, 41.014, 44.3864, 81.4408, -118.846
7.77499, 48, -28.3599, -18.4288, 40.9856, 44.3829, 81.4484, -118.762
7.78451, 48, -28.0996, -18.4036, 40.899, 44.3702, 81.4714, -118.51
7.79256, 48, -27.9254, -18.3857, 40.8402, 44.3602, 81.4863, -118.343
7.80095, 48, -27.7504, -18.3675, 40.7806, 44.349, 81.5011, -118.175
7.80703, 49, -27.6626, -18.3582, 40.7505, 44.3428, 81.5084, -118.092
7.81663, 49, -27.4863, -18.3388, 40.6894, 44.3293, 81.53, -117.841
7.824, 49, -27.3092, -18.3187, 40.6275, 44.3143, 81.5371, -117.758
7.83201, 49, -27.1317, -18.298, 40.5647, 44.2977, 81.5515, -117.591
7.84011, 49, -26.9535, -18.2765, 40.5009, 44.2797, 81.5659, -117.424
7.84813, 50, -26.7748, -18.2542, 40.4364, 44.2608, 81.5807, -117.257
7.8552, 50, -26.5953, -18.2313, 40.3709, 44.2408, 81.5957, -117.091
7.86404, 50, -26.4152, -18.2076, 40.3046, 44.2196, 81.611, -116.924
7.87202, 50, -26.2343, -18.1834, 40.2375, 44.1971, 81.6262, -116.758
7.88004, 50, -26.0528, -18.1583, 40.1694, 44.1729, 81.6413, -116.592
7.88821, 51, -25.8705, -18.1324, 40.1003, 44.147, 81.6563, -116.426
7.89628, 51, -25.6877, -18.1059, 40.0303, 44.1202, 81.6714, -116.26
7.90313, 51, -25.5044, -18.0784, 39.9594, 44.0924, 81.6866, -116.094
7.91105, 51, -25.3208, -18.0504, 39.8874, 44.0633, 81.7019, -115.928
7.92228, 51, -25.0445, -18.0067, 39.7778, 44.0163, 81.7256, -115.68
7.92698, 51, -24.9521, -17.9918, 39.7408, 43.9998, 81.7337, -115.597
7.93597, 52, -24.7664, -17.9614, 39.6662, 43.9661, 81.7503, -115.431
7.94649, 52, -24.5797, -17.9303, 39.5525, 43.9138, 81.7753, -115.183
7.95215, 52, -24.3921, -17.8982, 39.5142, 43.8954, 81.7835, -115.1
7.96097, 52, -24.2038, -17.8653, 39.4368, 43.8569, 81.8, -114.934
7.96698, 52, -24.0148, -17.8316, 39.3584, 43.8178, 81.8166, -114.768
7.97513, 52, -23.8251, -17.7972, 39.279, 43.7779, 81.8331, -114.603
7.98305, 53, -23.6348, -17.7618, 39.1986, 43.7356, 81.85, -114.437
7.99204, 53, -23.4438, -17.7257, 39.1172, 43.6917, 81.8673, -114.272
8.00006, 53, -23.2524, -17.6889, 39.035, 43.6475, 81.8852, -114.106
8.00707, 53, -23.0601, -17.6512, 38.952, 43.6012, 81.9035, -113.941
8.01501, 53, -22.8668, -17.6127, 38.868, 43.553, 81.9218, -113.776
8.02414, 54, -22.6728, -17.5735, 38.7831, 43.5047, 81.9401, -113.611
8.03129, 54, -22.4784, -17.5335, 38.6971, 43.4541, 81.9585, -113.446
8.03909, 54, -22.2836, -17.4926, 38.6101, 43.4015, 81.9771, -113.28
8.04708, 54, -22.0884, -17.4511, 38.5221, 43.3486, 81.9959, -113.115
8.05509, 54, -21.8926, -17.4087, 38.4334, 43.293, 82.0153, -112.949
8.06402, 55, -21.6959, -17.3654, 38.3438, 43.2366, 82.0354, -112.784
8.07223, 55, -21.4982, -17.3214, 38.2534, 43.179, 82.0558, -112.618
8.0809, 55, -21.2995, -17.2764, 38.1621, 43.1188, 82.076, -112.453
8.08797, 55, -21.0995, -17.2306, 38.0699, 43.0583, 82.0963, -112.288
8.09708, 55, -20.8987, -17.1842, 37.9766, 42.9949, 82.1165, -112.123
8.10343, 55, -20.6975, -17.1368, 37.8824, 42.9311, 82.137, -111.958
8.11121, 56, -20.4959, -17.0887, 37.7873, 42.865, 82.1581, -111.793
8.12193, 56, -20.2936, -17.04, 37.6915, 42.7976, 82.1796, -111.628
8.12798, 56, -20.0903, -16.9905, 37.5949, 42.7288, 82.2016, -111.463
8.13603, 56, -19.8858, -16.9404, 37.4974, 42.6582, 82.2234, -111.298
8.14401, 56, -19.6806, -16.8895, 37.399, 42.5866, 82.2452, -111.134
8.15188, 57, -19.475, -16.838, 37.2997, 42.5128, 82.2671, -110.969
8.16195, 57, -19.269, -16.7857, 37.1993, 42.4376, 82.2893, -110.804
8.16763, 57, -19.0624, -16.7328, 37.0982, 42.3608, 82.3123, -110.639
8.17552, 57, -18.8557, -16.6791, 36.9964, 42.2823, 82.3358, -110.474
8.18409, 57, -18.6482, -16.6248, 36.894, 42.2021, 82.3592, -110.31
8.19168, 57, -18.5441, -16.5973, 36.7908, 42.1202, 82.3826, -110.145
8.2004, 58, -18.2296, -16.5138, 36.6866, 42.037, 82.406, -109.981
8.20904, 58, -18.0181, -16.4573, 36.5814, 41.9516, 82.4296, -109.816
8.21601, 58, -17.8057, -16.3999, 36.4753, 41.8649, 82.4538, -109.652
8.22485, 58, -17.5929, -16.342, 36.3686, 41.7767, 82.4786, -109.488
8.23234, 58, -17.3793, -16.2833, 36.2613, 41.6866, 82.5035, -109.324
8.23893, 59, -17.2723, -16.2538, 36.2074, 41.6411, 82.516, -109.242
8.24927, 59, -16.9496, -16.1644, 36.0446, 41.5016, 82.5534, -108.996
8.25642, 59, -16.7335, -16.104, 35.9348, 41.4063, 82.5786, -108.832
8.26297, 59, -16.6251, -16.0735, 35.8795, 41.358, 82.5916, -108.75
8.27278, 59, -16.2982, -15.9811, 35.7126, 41.2105, 82.6314, -108.504
8.28045, 59, -16.189, -15.95, 35.6567, 41.1605, 82.6578, -108.34
8.28696, 60, -15.9704, -15.8872, 35.5444, 41.0589, 82.671, -108.258
8.29771, 60, -15.6429, -15.7917, 35.3747, 40.9035, 82.7106, -108.012
8.30454, 60, -15.4236, -15.7271, 35.2604, 40.7976, 82.7376, -107.848
8.31346, 60, -15.2024, -15.6616, 35.145, 40.69, 82.7655, -107.684
8.31897, 60, -15.0912, -15.6286, 35.0871, 40.6356, 82.7795, -107.602
8.33003, 61, -14.7555, -15.5284, 34.9125, 40.469, 82.8215, -107.356
8.33605, 61, -14.6431, -15.4947, 34.854, 40.4126, 82.8355, -107.274
8.34296, 61, -14.4174, -15.4267, 34.7367, 40.2985, 82.8638, -107.11
8.35199, 61, -14.1906, -15.3581, 34.6184, 40.1824, 82.893, -106.947
8.3601, 61, -13.9629, -15.2888, 34.4991, 40.0647, 82.9229, -106.783
8.3682, 62, -13.7343, -15.2187, 34.3789, 39.9451, 82.9528, -106.619
8.37617, 62, -13.5046, -15.148, 34.2582, 39.8234, 82.9827, -106.454
8.38397, 62, -13.274, -15.0765, 34.1369, 39.6999, 83.0128, -106.29
8.39199, 62, -13.0432, -15.0044, 34.015, 39.5742, 83.044, -106.125
8.40205, 62, -12.6973, -14.8947, 33.8303, 39.382, 83.0916, -105.879
8.40796, 62, -12.5818, -14.8577, 33.7682, 39.317, 83.1075, -105.796
8.41602, 63, -12.3498, -14.7831, 33.6436, 39.1856, 83.1395, -105.632
8.42412, 63, -12.1164, -14.7077, 33.5183, 39.0522, 83.1722, -105.467
8.43181, 63, -11.882, -14.6316, 33.3926, 38.9168, 83.2064, -105.302
8.44011, 63, -11.6461, -14.5546, 33.2661, 38.7792, 83.2405, -105.136
8.45285, 64, -11.2891, -14.4376, 33.0746, 38.5689, 83.2919, -104.888
8.45796, 64, -11.0494, -14.3586, 32.9459, 38.4263, 83.3273, -104.723
8.46402, 64, -10.9291, -14.3188, 32.8813, 38.3542, 83.3455, -104.64
8.47204, 64, -10.6871, -14.2385, 32.7516, 38.2086, 83.382, -104.474
8.48003, 64, -10.4434, -14.1573, 32.6212, 38.0609, 83.4186, -104.308
8.48712, 64, -10.1984, -14.0752, 32.4901, 37.9109, 83.4558, -104.142
8.496, 64, -9.95325, -13.9922, 32.3581, 37.7587, 83.4945, -103.975
8.50415, 65, -9.70855, -13.9083, 32.2254, 37.6044, 83.5335, -103.808
8.51197, 65, -9.46408, -13.8235, 32.092, 37.4481, 83.5726, -103.641
8.52094, 65, -9.21934, -13.7377, 31.9579, 37.2898, 83.6128, -103.474
8.52796, 65, -8.97369, -13.6509, 31.8231, 37.1294, 83.6545, -103.306
8.53596, 65, -8.72615, -13.5632, 31.6877, 36.9666, 83.6963, -103.137
8.54496, 66, -8.47647, -13.4746, 31.5515, 36.8019, 83.7386, -102.969
8.55214, 66, -8.22574, -13.385, 31.4146, 36.6351, 83.7826, -102.801
8.56076, 66, -7.9738, -13.2945, 31.2769, 36.4663, 83.8272, -102.632
8.56991, 66, -7.71988, -13.2031, 31.1386, 36.2955, 83.8716, -102.463
8.57597, 66, -7.46373, -13.1108, 30.9998, 36.1222, 83.9177, -102.294
8.58403, 66, -7.20593, -13.0174, 30.8604, 35.9469, 83.9648, -102.124
8.59196, 67, -6.94737, -12.923, 30.7202, 35.7696, 84.012, -101.953
8.60179, 67, -6.68862, -12.8277, 30.5792, 35.5902, 84.0608, -101.783
8.60802, 67, -6.42997, -12.7314, 30.4376, 35.4085, 84.1107, -101.612
8.61597, 67, -6.17148, -12.6341, 30.2957, 35.2248, 84.1603, -101.441
8.62412, 67, -5.9121, -12.5358, 30.1534, 35.039, 84.2118, -101.269
8.63181, 68, -5.65124, -12.4366, 30.0102, 34.8512, 84.2642, -101.098
8.64003, 68, -5.38935, -12.3364, 29.8665, 34.6613, 84.3167, -100.925
8.64743, 68, -5.12654, -12.2353, 29.7223, 34.4691, 84.3714, -100.753
8.65552, 68, -4.86211, -12.1331, 29.5776, 34.2749, 84.4262, -100.58
8.66412, 68, -4.5953, -12.0299, 29.4325, 34.0788, 84.4818, -100.407
8.6723, 69, -4.32657, -11.9258, 29.2868, 33.8806, 84.5391, -100.234
8.68023, 69, -4.05604, -11.8208, 29.1408, 33.6804, 84.5964, -100.06
8.68758, 69, -3.92028, -11.7679, 28.9945, 33.478, 84.6558, -99.8859
8.69603, 69, -3.51297, -11.6081, 28.8479, 33.2738, 84.7153, -99.7113
8.70468, 69, -3.24168, -11.5002, 28.7007, 33.0677, 84.7757, -99.5363
8.71205, 69, -2.96971, -11.3912, 28.553, 32.8598, 84.8378, -99.3612
8.71972, 70, -2.83325, -11.3364, 28.4791, 32.755, 84.8687, -99.2735
8.72926, 70, -2.55971, -11.1704, 28.2572, 32.4377, 84.9643, -99.0103
8.73499, 70, -2.28544, -11.1146, 28.183, 32.3311, 84.9963, -98.9222
8.74453, 70, -1.87247, -10.9462, 27.9601, 32.0082, 85.0941, -98.6577
8.75102, 70, -1.7343, -10.8895, 27.8856, 31.8997, 85.1273, -98.5693
8.7607, 71, -1.3174, -10.718, 27.6624, 31.5714, 85.228, -98.304
8.76944, 71, -1.03666, -10.6024, 27.5136, 31.3503, 85.2967, -98.1268
8.77893, 71, -0.754643, -10.4859, 27.3645, 31.1274, 85.3659, -97.9494
8.7829, 71, -0.613558, -10.4273, 27.2898, 31.0152, 85.4014, -97.8605
8.79101, 71, -0.331141, -10.3095, 27.1402, 30.7895, 85.4723, -97.6822
8.80097, 71, 0.0935802, -10.1312, 26.9162, 30.448, 85.5812, -97.4144
8.80699, 72, 0.235486, -10.0713, 26.8414, 30.3334, 85.6175, -97.3248
8.81738, 72, 0.662441, -9.88992, 26.6172, 29.987, 85.7292, -97.0559
8.82295, 72, 0.80509, -9.82902, 26.5424, 29.8708, 85.7667, -96.9662
8.83195, 72, 1.09054, -9.70651, 26.393, 29.6371, 85.8429, -96.7866
8.84003, 72, 1.37631, -9.58319, 26.2438, 29.402, 85.9195, -96.6064
8.8487, 73, 1.66351, -9.459, 26.0945, 29.1654, 85.9977, -96.426
8.85505, 73, 1.9525, -9.33386, 25.9452, 28.9274, 86.0766, -96.2454
8.86395, 73, 2.24246, -9.20755, 25.7961, 28.688, 86.1568, -96.0644
8.87195, 73, 2.53285, -9.08028, 25.6475, 28.447, 86.2377, -95.8834
8.88003, 73, 2.82385, -8.95206, 25.499, 28.2049, 86.32, -95.7021
8.88795, 73, 3.11529, -8.82294, 25.3504, 27.9616, 86.4035, -95.52
8.89615, 74, 3.40774, -8.69294, 25.202, 27.7171, 86.4878, -95.3377
8.9031, 74, 3.70123, -8.5618, 25.0542, 27.4712, 86.5733, -95.1547
8.91346, 74, 4.14125, -8.36304, 24.8332, 27.1001, 86.7038, -94.88
8.92245, 74, 4.43462, -8.2293, 24.6859, 26.8515, 86.7919, -94.6966
8.92696, 74, 4.58161, -8.1621, 24.6123, 26.7268, 86.8366, -94.6049
8.93591, 75, 4.87629, -8.02712, 24.4655, 26.4768, 86.9266, -94.4206
8.94656, 75, 5.17186, -7.82276, 24.2465, 26.1001, 87.0638, -94.1437
8.95212, 75, 5.46808, -7.754, 24.1737, 25.974, 87.1102, -94.0512
8.95999, 75, 5.76433, -7.61567, 24.0283, 25.7214, 87.204, -93.866
8.97146, 75, 6.2085, -7.40624, 23.8108, 25.3413, 87.3467, -93.5879
8.97609, 75, 6.35697, -7.33602, 23.7386, 25.2143, 87.3948, -93.4951
8.98393, 76, 6.6548, -7.19479, 23.5946, 24.9597, 87.4921, -93.3087
8.99202, 76, 6.95256, -7.05217, 23.4512, 24.7045, 87.5907, -93.122
9, 76, 7.24992, -6.90846, 23.3082, 24.449, 87.6904, -92.9349
9.00802, 76, 7.5471, -6.76363, 23.1655, 24.1929, 87.7916, -92.7471
9.01595, 76, 7.84454, -6.61784, 23.0236, 23.9362, 87.8941, -92.5592
9.02411, 77, 8.14285, -6.47121, 22.8823, 23.6794, 87.9979, -92.3709
9.03179, 77, 8.44197, -6.32327, 22.7416, 23.4222, 88.1031, -92.1819
9.04, 77, 8.74035, -6.17392, 22.6015, 23.1648, 88.2095, -91.9926
9.04803, 77, 9.038, -6.02351, 22.4619, 22.9076, 88.3172, -91.803
9.05595, 77, 9.33594, -5.87202, 22.3231, 22.6503, 88.4266, -91.6129
9.06417, 78, 9.63448, -5.71956, 22.185, 22.3931, 88.5368, -91.4227
9.07127, 78, 9.9329, -5.56557, 22.0475, 22.1359, 88.6487, -91.2317
9.0802, 78, 10.2308, -5.41019, 21.9107, 21.879, 88.7619, -91.0401
9.08706, 78, 10.5279, -5.25361, 21.7745, 21.6223, 88.8761, -90.848
9.09712, 78, 10.8245, -5.09624, 21.6391, 21.3658, 88.9922, -90.6554
9.10319, 78, 11.1218, -4.93788, 21.5044, 21.1099, 89.1092, -90.4623
9.1112, 79, 11.4193, -4.77799, 21.3705, 20.8545, 89.2276, -90.2689
9.12182, 79, 11.7158, -4.61676, 21.2373, 20.5992, 89.3477, -90.075
9.12794, 79, 12.0114, -4.45453, 21.1048, 20.3447, 89.4687, -89.8802
9.13602, 79, 12.3065, -4.29153, 20.9731, 20.0909, 89.5915, -89.685
9.14397, 79, 12.6012, -4.12706, 20.8422, 19.8379, 89.7156, -89.4893
9.15227, 80, 12.8955, -3.96067, 20.7121, 19.5857, 89.8411, -89.2933
9.16009, 80, 13.189, -3.7928, 20.5829, 19.3344, 89.9679, -89.0969
9.16759, 80, 13.481, -3.62411, 20.4543, 19.0842, 90.0961, -88.8996
9.17793, 80, 13.7724, -3.45444, 20.3266, 18.8349, 90.2259, -88.7017
9.18449, 80, 14.0642, -3.28286, 20.1996, 18.5867, 90.3569, -88.5029
9.19205, 80, 14.3557, -3.10948, 20.0737, 18.34, 90.4894, -88.3034
9.20034, 81, 14.6459, -2.93502, 19.9485, 18.0942, 90.6234, -88.1035
9.20902, 81, 14.9348, -2.75991, 19.824, 17.8497, 90.7588, -87.903
9.216, 81, 15.2226, -2.5832, 19.7003, 17.6069, 90.8954, -87.7016
9.22298, 81, 15.3661, -2.49408, 19.6387, 17.486, 90.9644, -87.6008
9.23217, 81, 15.7957, -2.22426, 19.4552, 17.1253, 91.1736, -87.2971
9.24002, 82, 15.9385, -2.13394, 19.3945, 17.0058, 91.244, -87.0938
9.24717, 82, 16.2225, -1.95286, 19.2736, 16.7681, 91.3862, -86.9921
9.25491, 82, 16.5047, -1.77006, 19.1533, 16.5321, 91.5298, -86.7877
9.26428, 82, 16.9269, -1.49176, 18.9744, 16.1814, 91.748, -86.4795
9.27095, 82, 17.0675, -1.39841, 18.9152, 16.0654, 91.8216, -86.3763
9.279, 82, 17.348, -1.21105, 18.7975, 15.8351, 91.9697, -86.1695
9.28854, 83, 17.7667, -0.926413, 18.6225, 15.4931, 92.1948, -85.8579
9.29785, 83, 18.0434, -0.733984, 18.5065, 15.2676, 92.3467, -85.6491
9.30597, 83, 18.1809, -0.540687, 18.3912, 15.0445, 92.5004, -85.4392
9.31091, 83, 18.4545, -0.443667, 18.3338, 14.9336, 92.5777, -85.3338
9.32146, 83, 18.8626, -0.149778, 18.1631, 14.6045, 92.812, -85.0169
9.32876, 84, 18.9977, -0.0508633, 18.0504, 14.3879, 92.97, -84.8046
9.33598, 84, 19.266, 0.147538, 17.9942, 14.2805, 93.0496, -84.6982
9.34294, 84, 19.5327, 0.347124, 17.8823, 14.0676, 93.2101, -84.4848
9.35194, 84, 19.7989, 0.548814, 17.7708, 13.8569, 93.3719, -84.27
9.35999, 84, 20.0645, 0.752548, 17.6603, 13.6488, 93.5351, -84.0545
9.36802, 84, 20.3292, 0.957149, 17.5507, 13.4432, 93.7, -83.8378
9.37608, 85, 20.5925, 1.163, 17.442, 13.2402, 93.866, -83.6206
9.383, 85, 20.8536, 1.37092, 17.3341, 13.0398, 94.0333, -83.4024
9.39198, 85, 21.1118, 1.58048, 17.2264, 12.8421, 94.2021, -83.1831
9.39999, 85, 21.3678, 1.7912, 17.1194, 12.6471, 94.372, -82.9629
9.40695, 85, 21.6222, 2.00376, 17.0133, 12.4551, 94.5434, -82.7418
9.4159, 86, 21.8743, 2.21831, 16.9084, 12.266, 94.7158, -82.5201
9.4241, 86, 22.1238, 2.43357, 16.8043, 12.0798, 94.8897, -82.2972
9.43333, 86, 22.3711, 2.64981, 16.7009, 11.8964, 95.0648, -82.0732
9.43894, 86, 22.6172, 2.86808, 16.598, 11.7161, 95.2412, -81.8481
9.44811, 86, 22.8623, 3.08772, 16.4957, 11.5387, 95.4189, -81.6223
9.45602, 86, 23.1064, 3.3085, 16.3945, 11.3645, 95.5973, -81.3958
9.46393, 87, 23.3491, 3.53118, 16.2945, 11.1932, 95.777, -81.1682
9.47292, 87, 23.59, 3.75533, 16.1954, 11.025, 95.9577, -80.9396
9.47998, 87, 23.8276, 3.97984, 16.0972, 10.8599, 96.1391, -80.7103
9.48794, 87, 24.0621, 4.20539, 15.9996, 10.6981, 96.3213, -80.4803
9.49696, 87, 24.2944, 4.43212, 15.9028, 10.5394, 96.504, -80.2497
9.50628, 88, 24.6387, 4.77296, 15.7594, 10.307, 96.7792, -79.902
9.51093, 88, 24.7522, 4.88711, 15.7123, 10.231, 96.8711, -79.7858
9.52246, 88, 25.0896, 5.23151, 15.5725, 10.0083, 97.1476, -79.4357
9.52801, 88, 25.2012, 5.34652, 15.5264, 9.93567, 97.24, -79.3187
9.53593, 88, 25.4234, 5.57695, 15.4348, 9.79288, 97.4249, -79.0843
9.54414, 89, 25.6436, 5.8086, 15.3441, 9.65326, 97.6101, -78.8492
9.55563, 89, 25.9708, 6.15696, 15.2101, 9.44989, 97.8879, -78.4951
9.55903, 89, 26.079, 6.27334, 15.1659, 9.3836, 97.9806, -78.3768
9.5671, 89, 26.2939, 6.50723, 15.0786, 9.2537, 98.1662, -78.1398
9.57555, 89, 26.5064, 6.74191, 14.9925, 9.127, 98.3518, -77.9023
9.58392, 89, 26.7165, 6.97646, 14.9075, 9.00366, 98.5378, -77.664
9.59199, 90, 26.9242, 7.21175, 14.8235, 8.8836, 98.7235, -77.4249
9.60019, 90, 27.1296, 7.44783, 14.7407, 8.76664, 98.9095, -77.1854
9.60794, 90, 27.3327, 7.68406, 14.659, 8.65315, 99.095, -76.9455
9.616, 90, 27.5331, 7.92123, 14.5783, 8.54261, 99.2805, -76.705
9.62408, 90, 27.7313, 8.1594, 14.4987, 8.43528, 99.4658, -76.4638
9.63255, 91, 27.9274, 8.39743, 14.4202, 8.33126, 99.6507, -76.2221
9.64005, 91, 28.1215, 8.63561, 14.3429, 8.2305, 99.8357, -75.9801
9.64865, 91, 28.3136, 8.8742, 14.2668, 8.13314, 100.02, -75.7376
9.65599, 91, 28.5041, 9.11264, 14.1916, 8.03888, 100.205, -75.4942
9.6643, 91, 28.6929, 9.35171, 14.1176, 7.94791, 100.389, -75.2504
9.6715, 91, 28.8798, 9.59196, 14.0444, 7.8602, 100.573, -75.0058
9.67976, 92, 29.0647, 9.83203, 13.9723, 7.77556, 100.757, -74.7609
9.68848, 92, 29.2475, 10.0721, 13.9011, 7.69419, 100.94, -74.5152
9.69769, 92, 29.3381, 10.1925, 13.8658, 7.61569, 101.124, -74.2687
9.70394, 92, 29.6068, 10.5539, 13.7616, 7.54101, 101.307, -74.0216
9.71201, 92, 29.7833, 10.7954, 13.6934, 7.46885, 101.491, -73.7739
9.72002, 93, 29.9574, 11.0379, 13.6261, 7.40057, 101.674, -73.5256
9.72796, 93, 30.1291, 11.2804, 13.5598, 7.33514, 101.856, -73.2762
9.73614, 93, 30.2983, 11.5228, 13.4943, 7.27335, 102.039, -73.0259
9.74295, 93, 30.3819, 11.6444, 13.4619, 7.24401, 102.13, -72.9004
9.75226, 93, 30.6295, 12.0098, 13.366, 7.15907, 102.404, -72.5231
9.75893, 93, 30.711, 12.1317, 13.3345, 7.13295, 102.495, -72.397
9.7683, 94, 30.9525, 12.4995, 13.2413, 7.05853, 102.768, -72.0173
9.77492, 94, 31.0321, 12.6226, 13.2107, 7.03495, 102.859, -71.8903
9.7844, 94, 31.2682, 12.9916, 13.1202, 6.97093, 103.131, -71.5081
9.79339, 94, 31.4231, 13.2381, 13.0609, 6.93203, 103.313, -71.2525
9.79894, 94, 31.5, 13.3613, 13.0317, 6.91342, 103.403, -71.1242
9.80852, 95, 31.7276, 13.7303, 12.9454, 6.86288, 103.674, -70.7383
9.81733, 95, 31.8025, 13.9773, 12.889, 6.8339, 103.854, -70.4802
9.82296, 95, 31.9512, 14.1008, 12.8612, 6.82061, 103.944, -70.3509
9.83292, 95, 32.1708, 14.4707, 12.7791, 6.78512, 104.212, -69.9617
9.83999, 95, 32.2431, 14.5942, 12.7521, 6.77465, 104.302, -69.8315
9.84885, 96, 32.3859, 14.8412, 12.699, 6.75599, 104.569, -69.4402
9.85595, 96, 32.5265, 15.0877, 12.647, 6.74032, 104.657, -69.3094
9.86394, 96, 32.6646, 15.3344, 12.596, 6.72792, 104.833, -69.0475
9.87191, 96, 32.8006, 15.5816, 12.546, 6.71874, 105.009, -68.7847
9.88001, 96, 32.9347, 15.828, 12.497, 6.71274, 105.183, -68.5211
9.88691, 96, 33.0667, 16.0743, 12.4492, 6.70957, 105.357, -68.2572
9.89588, 97, 33.1966, 16.3209, 12.4024, 6.70844, 105.53, -67.9928
9.90396, 97, 33.3243, 16.5667, 12.3569, 6.70935, 105.702, -67.7279
9.91093, 97, 33.4499, 16.8126, 12.3125, 6.71369, 105.873, -67.4625
9.91996, 97, 33.5737, 17.059, 12.2691, 6.7215, 106.043, -67.1966
9.92796, 97, 33.696, 17.3046, 12.2269, 6.73248, 106.212, -66.9305
9.93614, 98, 33.8171, 17.5497, 12.1856, 6.74688, 106.38, -66.6636
9.94392, 98, 33.9367, 17.7948, 12.1455, 6.76457, 106.546, -66.3962
9.95196, 98, 34.0547, 18.039, 12.1066, 6.78507, 106.712, -66.1284
9.96095, 98, 34.171, 18.283, 12.0686, 6.80805, 106.877, -65.8605
9.96791, 98, 34.2858, 18.5274, 12.0317, 6.83353, 107.04, -65.5918
9.97595, 98, 34.3991, 18.7709, 11.9959, 6.86174, 107.203, -65.3225
9.98394, 99, 34.5111, 19.0138, 11.961, 6.89339, 107.364, -65.0529
9.99192, 99, 34.6216, 19.2566, 11.9272, 6.92791, 107.524, -64.7829
10, 99, 34.7308, 19.4985, 11.8945, 6.9643, 107.683, -64.5123
10.0079, 99, 34.8382, 19.7399, 11.8628, 7.00303, 107.841, -64.241
10.0159, 99, 34.9435, 19.9814, 11.8322, 7.04495, 107.997, -63.9693
10.024, 100, 35.047, 20.2215, 11.8027, 7.08934, 108.152, -63.6974
10.0319, 100, 35.149, 20.4605, 11.7745, 7.13543, 108.305, -63.4257
10.04, 100, 35.2494, 20.6989, 11.7473, 7.18481, 108.457, -63.1537
10.048, 100, 35.3486, 20.9362, 11.7214, 7.23623, 108.608, -62.8816
10.056, 100, 35.4464, 21.1727, 11.6968, 7.28911, 108.756, -62.61
10.0639, 100, 35.5427, 21.4088, 11.6737, 7.34508, 108.903, -62.3387
10.072, 101, 35.6376, 21.6436, 11.6519, 7.4023, 109.047, -62.0677
10.08, 101, 35.7312, 21.8765, 11.6314, 7.46153, 109.188, -61.7976
10.087, 101, 35.8234, 22.1081, 11.6126, 7.52297, 109.327, -61.5285
10.096, 101, 35.9147, 22.3379, 11.5952, 7.58519, 109.464, -61.2606
10.1039, 101, 36.0051, 22.5654, 11.5791, 7.6503, 109.597, -60.9934
10.1119, 102, 36.0944, 22.7917, 11.5646, 7.71584, 109.728, -60.7275
10.1201, 102, 36.1828, 23.0166, 11.5515, 7.78389, 109.856, -60.4627
10.1272, 102, 36.27, 23.2396, 11.5397, 7.85255, 109.982, -60.1989
10.1352, 102, 36.356, 23.4616, 11.529, 7.92343, 110.105, -59.9357
10.1441, 102, 36.4409, 23.6833, 11.5193, 7.99534, 110.226, -59.6726
10.1514, 102, 36.5247, 23.9041, 11.5106, 8.06946, 110.346, -59.4095
10.1611, 103, 36.6075, 24.1245, 11.5027, 8.14513, 110.465, -59.1462
10.1683, 103, 36.6896, 24.3446, 11.4955, 8.22352, 110.584, -58.8819
10.1755, 103, 36.7708, 24.5628, 11.4891, 8.30384, 110.702, -58.6165
10.184, 103, 36.8513, 24.7778, 11.4835, 8.38678, 110.82, -58.3507
10.1923, 103, 36.8912, 24.9904, 11.4791, 8.47163, 110.935, -58.0854
10.1998, 104, 37.0096, 25.2004, 11.4761, 8.55859, 111.047, -57.8214
10.2079, 104, 37.0874, 25.407, 11.4748, 8.64729, 111.154, -57.5603
10.2167, 104, 37.1641, 25.6111, 11.4754, 8.73685, 111.254, -57.3034
10.224, 104, 37.2395, 25.8137, 11.4785, 8.8275, 111.348, -57.0512
10.231, 104, 37.2769, 25.9142, 11.4809, 8.87308, 111.392, -56.927
10.2409, 104, 37.3878, 26.2101, 11.491, 9.01039, 111.515, -56.5607
10.2483, 104, 37.4608, 26.4032, 11.4996, 9.10294, 111.591, -56.3211
10.2549, 104, 37.4971, 26.4988, 11.5044, 9.14947, 111.628, -56.2023
10.265, 104, 37.6055, 26.7815, 11.5195, 9.29009, 111.734, -55.8487
10.2723, 104, 37.6772, 26.9662, 11.5301, 9.38505, 111.803, -55.6142
10.2789, 104, 37.7128, 27.0581, 11.5355, 9.43276, 111.837, -55.4971
10.2892, 104, 37.8191, 27.3336, 11.5516, 9.5771, 111.94, -55.1467
10.295, 104, 37.8543, 27.4252, 11.5569, 9.62566, 111.973, -55.0303
10.3045, 104, 37.9593, 27.6991, 11.5728, 9.77261, 112.075, -54.6817
10.3133, 104, 38.029, 27.8821, 11.5833, 9.87148, 112.142, -54.4497
10.319, 104, 38.0638, 27.9739, 11.5885, 9.92123, 112.175, -54.3337
10.3285, 104, 38.1331, 28.1578, 11.599, 10.0719, 112.275, -53.9867
10.3359, 104, 38.2022, 28.3414, 11.6094, 10.1225, 112.309, -53.8712
10.343, 104, 38.271, 28.5255, 11.6199, 10.2245, 112.375, -53.6404
10.3531, 104, 38.3736, 28.8032, 11.6353, 10.3794, 112.474, -53.2949
10.3589, 104, 38.4076, 28.8959, 11.6405, 10.4312, 112.507, -53.1798
10.368, 104, 38.4753, 29.0807, 11.6508, 10.5356, 112.572, -52.95
10.376, 104, 38.5428, 29.2656, 11.661, 10.6411, 112.638, -52.7205
10.3839, 104, 38.6099, 29.4511, 11.6711, 10.747, 112.703, -52.4917
10.3909, 104, 38.6765, 29.6367, 11.681, 10.8539, 112.768, -52.2631
10.4, 104, 38.7427, 29.8216, 11.6909, 10.9616, 112.832, -52.0345
10.4079, 104, 38.8085, 30.0068, 11.7007, 11.0702, 112.897, -51.8065
10.4149, 104, 38.8739, 30.1927, 11.7104, 11.1797, 112.961, -51.5788
10.4229, 104, 38.9389, 30.3789, 11.72, 11.29, 113.025, -51.3517
10.4319, 104, 39.0036, 30.5647, 11.7296, 11.4009, 113.089, -51.1243
10.4389, 104, 39.0678, 30.7504, 11.7392, 11.5127, 113.152, -50.8974
10.4479, 104, 39.1319, 30.9369, 11.7487, 11.6253, 113.217, -50.6705
10.4559, 104, 39.1955, 31.1235, 11.7583, 11.7386, 113.279, -50.4443
10.4649, 104, 39.2589, 31.3095, 11.7678, 11.8527, 113.342, -50.2186
10.4719, 104, 39.322, 31.4954, 11.7772, 11.9678, 113.405, -49.9929
10.48, 104, 39.3849, 31.6821, 11.7866, 12.0838, 113.467, -49.7675
10.488, 104, 39.4477, 31.8692, 11.7958, 12.2003, 113.53, -49.5425
10.4959, 104, 39.5104, 32.0557, 11.8049, 12.3178, 113.591, -49.318
10.5039, 104, 39.5728, 32.242, 11.814, 12.4356, 113.653, -49.0939
10.5119, 104, 39.635, 32.4291, 11.823, 12.5544, 113.714, -48.8697
10.52, 104, 39.6969, 32.6166, 11.8318, 12.6738, 113.776, -48.6459
10.527, 104, 39.7584, 32.8035, 11.8407, 12.7941, 113.836, -48.4223
10.5359, 104, 39.8197, 32.9901, 11.8495, 12.9153, 113.897, -48.1993
10.5439, 104, 39.8806, 33.1774, 11.8582, 13.037, 113.958, -47.9767
10.5519, 104, 39.9409, 33.3648, 11.8669, 13.1595, 114.017, -47.7544
10.56, 104, 40, 33.5501, 11.8755, 13.2825, 114.078, -47.5326
10.5679, 104, 40.0576, 33.7326, 11.8838, 13.4056, 114.137, -47.3118
10.5759, 104, 40.1135, 33.9112, 11.8917, 13.5285, 114.196, -47.0931
10.584, 104, 40.167, 34.0835, 11.8989, 13.6499, 114.254, -46.8785
10.5919, 104, 40.2182, 34.2476, 11.9054, 13.7682, 114.31, -46.6701
10.5999, 104, 40.267, 34.4027, 11.9112, 13.8811, 114.364, -46.4721
10.6079, 104, 40.3124, 34.5472, 11.9165, 13.9868, 114.413, -46.2876
10.6159, 104, 40.3539, 34.6798, 11.9216, 14.0832, 114.457, -46.1202
10.6239, 104, 40.3914, 34.8002, 11.9266, 14.1683, 114.497, -45.9725
10.6319, 104, 40.425, 34.9077, 11.9315, 14.242, 114.531, -45.8462
10.64, 104, 40.4544, 35.0009, 11.9361, 14.3026, 114.558, -45.7411
10.6479, 104, 40.4788, 35.0793, 11.9403, 14.3519, 114.579, -45.6569
10.656, 104, 40.4988, 35.1439, 11.9441, 14.3905, 114.596, -45.5918
10.664, 104, 40.5149, 35.1958, 11.9474, 14.4188, 114.608, -45.5432
10.672, 104, 40.5271, 35.2362, 11.9502, 14.4387, 114.617, -45.5087
10.6801, 104, 40.5358, 35.2663, 11.9525, 14.4518, 114.622, -45.4856
10.6881, 104, 40.5418, 35.288, 11.9543, 14.46, 114.626, -45.4711
10.6955, 104, 40.546, 35.3034, 11.9558, 14.4649, 114.628, -45.4628
10.704, 104, 40.5491, 35.3138, 11.9569, 14.4674, 114.629, -45.4586
10.7119, 105, 40.551, 35.3203, 11.9577, 14.4687, 114.629, -45.4566
10.72, 105, 40.5515, 35.324, 11.9582, 14.4694, 114.63, -45.4558
10.7279, 105, 40.5514, 35.3252, 11.9586, 14.4697, 114.63, -45.4554
10.736, 105, 40.5507, 35.3277, 11.9591, 14.4699, 114.63, -45.4553
10.7429, 105, 40.5504, 35.3284, 11.9593, 14.4699, 114.63, -45.4553
10.7525, 105, 40.5499, 35.3299, 11.9598, 14.47, 114.63, -45.4554
10.7605, 105, 40.5498, 35.3309, 11.9601, 14.47, 114.63, -45.4556
10.7682, 105, 40.5498, 35.3319, 11.9604, 14.47, 114.63, -45.4557
10.7749, 105, 40.5498, 35.3323, 11.9606, 14.47, 114.63, -45.4558
10.7843, 105, 40.5501, 35.3333, 11.9611, 14.4701, 114.63, -45.4561
10.7924, 105, 40.5505, 35.3338, 11.9613, 14.4701, 114.63, -45.4562
10.8006, 105, 40.551, 35.3342, 11.9614, 14.4701, 114.63, -45.4563
10.8091, 105, 40.5516, 35.3344, 11.9614, 14.4701, 114.63, -45.4564
