rpiRobotics/ARM-21-02-F-19-Robot-Motion-Program/data_performance_abb/curve_2/baseline/100L/realrobot/v402.83203125_iteration2.csv
timestamp, cmd_num, J1, J2, J3, J4, J5, J6
0.000382, -1, 40.5512, 35.3349, 11.9626, 14.4703, 114.629, -45.4595
0.002883, -1, 40.5512, 35.3349, 11.9626, 14.4703, 114.629, -45.4595
0.008784, -1, 40.5511, 35.3349, 11.9626, 14.4703, 114.629, -45.4595
0.029175, -1, 40.5511, 35.3349, 11.9626, 14.4703, 114.629, -45.4595
0.031961, -1, 40.5512, 35.3349, 11.9627, 14.4703, 114.629, -45.4595
0.033205, -1, 40.5512, 35.3349, 11.9627, 14.4703, 114.629, -45.4595
0.039788, -1, 40.5512, 35.3349, 11.9627, 14.4703, 114.629, -45.4595
0.047681, -1, 40.5511, 35.3349, 11.9627, 14.4703, 114.629, -45.4596
0.05569, -1, 40.5506, 35.3348, 11.9626, 14.4703, 114.629, -45.4596
0.063239, -1, 40.5483, 35.3344, 11.9626, 14.4704, 114.629, -45.4595
0.072274, -1, 40.5432, 35.3328, 11.9626, 14.4703, 114.629, -45.4597
0.079803, -1, 40.5348, 35.3297, 11.9625, 14.4703, 114.629, -45.4607
0.087621, -1, 40.5223, 35.3244, 11.9625, 14.4703, 114.627, -45.4656
0.095687, -1, 40.5035, 35.316, 11.9625, 14.4702, 114.624, -45.4769
0.103677, -1, 40.4763, 35.3034, 11.9627, 14.4702, 114.617, -45.4975
0.111766, -1, 40.4401, 35.2856, 11.9642, 14.47, 114.604, -45.5316
0.11995, -1, 40.3932, 35.2619, 11.9681, 14.4692, 114.585, -45.5821
0.127882, -1, 40.3344, 35.2315, 11.9752, 14.4673, 114.558, -45.6525
0.135936, -1, 40.2628, 35.1936, 11.986, 14.4643, 114.522, -45.7463
0.144066, -1, 40.1778, 35.1479, 12.0011, 14.4604, 114.475, -45.8645
0.152079, -1, 40.079, 35.094, 12.0203, 14.4553, 114.418, -46.0085
0.160109, -1, 39.9666, 35.0323, 12.0434, 14.4493, 114.351, -46.1766
0.168276, -1, 39.8411, 34.9633, 12.0699, 14.4423, 114.275, -46.3679
0.176144, -1, 39.7035, 34.8876, 12.0995, 14.4346, 114.191, -46.5785
0.184189, -1, 39.5549, 34.806, 12.1313, 14.426, 114.1, -46.8056
0.19228, -1, 39.3966, 34.7193, 12.1644, 14.4169, 114.004, -47.045
0.200172, -1, 39.3144, 34.6745, 12.1812, 14.4121, 113.955, -47.1683
0.207623, -1, 39.1451, 34.5823, 12.2155, 14.4021, 113.855, -47.4197
0.21564, -1, 38.97, 34.4873, 12.2497, 14.3918, 113.753, -47.6758
0.223607, -1, 38.7901, 34.3903, 12.2835, 14.381, 113.65, -47.9343
0.231624, -1, 38.6064, 34.292, 12.3173, 14.37, 113.547, -48.1938
0.239577, -1, 38.4202, 34.1931, 12.3511, 14.3591, 113.443, -48.4539
0.247633, -1, 38.2327, 34.094, 12.3847, 14.3481, 113.339, -48.7146
0.255635, -1, 38.0449, 33.995, 12.4184, 14.3375, 113.235, -48.9755
0.263601, -1, 37.8575, 33.8959, 12.4521, 14.3271, 113.131, -49.2363
0.271599, -1, 37.6711, 33.7969, 12.4857, 14.3166, 113.027, -49.4972
0.279622, -1, 37.4851, 33.6979, 12.5194, 14.3065, 112.923, -49.7582
0.287577, -1, 37.2995, 33.5989, 12.5533, 14.2962, 112.819, -50.0193
0.295587, -1, 37.1145, 33.4999, 12.5871, 14.286, 112.716, -50.2801
0.30367, -1, 36.93, 33.4009, 12.6208, 14.2757, 112.612, -50.541
0.311587, -1, 36.7462, 33.3019, 12.6546, 14.2655, 112.508, -50.802
0.319585, -1, 36.5624, 33.2028, 12.6883, 14.255, 112.404, -51.0632
0.328578, -1, 36.3779, 33.1035, 12.722, 14.2444, 112.3, -51.3245
0.335573, -1, 36.1928, 33.0041, 12.7558, 14.2335, 112.195, -51.5854
0.344569, -1, 36.0069, 32.9046, 12.7896, 14.2227, 112.091, -51.8465
0.351648, -1, 35.8204, 32.805, 12.8232, 14.2119, 111.987, -52.1079
0.361752, -1, 35.5397, 32.6557, 12.8738, 14.1962, 111.831, -52.4997
0.367585, -1, 35.4459, 32.606, 12.8907, 14.1911, 111.779, -52.6301
0.375674, -1, 35.2578, 32.5066, 12.9244, 14.1809, 111.675, -52.8914
0.383571, -1, 35.0693, 32.4071, 12.9581, 14.1708, 111.571, -53.1528
0.391629, -1, 34.8809, 32.3077, 12.992, 14.1607, 111.467, -53.4144
0.399636, -1, 34.6931, 32.2082, 13.0256, 14.1507, 111.363, -53.6754
0.407581, -1, 34.5056, 32.1086, 13.0592, 14.1407, 111.259, -53.9366
0.41563, -1, 34.3186, 32.0091, 13.093, 14.1306, 111.154, -54.1978
0.423637, -1, 34.1322, 31.9097, 13.1269, 14.1204, 111.05, -54.4593
0.431569, -1, 33.9462, 31.8102, 13.1605, 14.1099, 110.946, -54.7204
0.439588, -1, 33.7607, 31.7107, 13.1941, 14.0993, 110.842, -54.9814
0.447648, -1, 33.5756, 31.6112, 13.2279, 14.0887, 110.738, -55.2425
0.455573, -1, 33.3906, 31.5116, 13.2616, 14.0779, 110.634, -55.5039
0.463581, -1, 33.2054, 31.4119, 13.2953, 14.0673, 110.53, -55.7652
0.471633, -1, 33.0198, 31.3123, 13.3292, 14.0569, 110.426, -56.0261
0.479573, -1, 32.8339, 31.2127, 13.3628, 14.0466, 110.322, -56.2873
0.622363, -1, 29.5667, 29.4709, 13.9525, 13.8672, 108.504, -60.8568
0.624463, -1, 29.4732, 29.4211, 13.9693, 13.8622, 108.452, -60.9874
0.62572, -1, 29.4732, 29.4211, 13.9693, 13.8622, 108.452, -60.9874
0.627623, -1, 29.4732, 29.4211, 13.9693, 13.8622, 108.452, -61.1179
0.628985, -1, 29.3797, 29.3714, 13.9862, 13.8572, 108.4, -61.1179
0.630276, -1, 29.3797, 29.3714, 13.9862, 13.8572, 108.4, -61.1179
0.632172, -1, 29.2862, 29.3216, 14.003, 13.8522, 108.348, -61.2485
0.636847, -1, 29.1927, 29.2718, 14.0197, 13.8472, 108.296, -61.379
0.797267, -1, 25.4649, 27.2834, 14.6916, 13.6405, 106.222, -66.5932
0.798619, -1, 25.4649, 27.2834, 14.6916, 13.6405, 106.222, -66.5932
0.799881, -1, 25.4649, 27.2834, 14.6916, 13.6405, 106.222, -66.5932
0.802694, -1, 25.3719, 27.2337, 14.7083, 13.6352, 106.17, -66.7234
0.803978, -1, 25.3719, 27.2337, 14.7083, 13.6352, 106.17, -66.7234
0.806666, -1, 25.2788, 27.1841, 14.7251, 13.63, 106.118, -66.8536
0.807853, -1, 25.2788, 27.1841, 14.7251, 13.63, 106.118, -66.8536
0.811685, -1, 25.1858, 27.1345, 14.7419, 13.6248, 106.066, -66.9837
0.813721, -1, 25.0927, 27.0848, 14.7588, 13.6196, 106.015, -67.1138
0.815064, -1, 25.0927, 27.0848, 14.7588, 13.6196, 106.015, -67.1138
0.816309, -1, 25.0927, 27.0848, 14.7588, 13.6196, 106.015, -67.1138
0.818364, -1, 24.9998, 27.0352, 14.7756, 13.6146, 105.963, -67.2439
0.819553, -1, 24.9998, 27.0352, 14.7756, 13.6146, 105.963, -67.2439
0.821442, -1, 24.907, 26.9855, 14.7924, 13.6095, 105.911, -67.3741
0.822767, -1, 24.907, 26.9855, 14.7924, 13.6095, 105.911, -67.3741
0.824415, -1, 24.907, 26.9855, 14.7924, 13.6095, 105.911, -67.3741
0.827216, -1, 24.8143, 26.9359, 14.8091, 13.6046, 105.859, -67.5043
0.828436, -1, 24.8143, 26.9359, 14.8091, 13.6046, 105.859, -67.5043
0.831274, -1, 24.7217, 26.8863, 14.8258, 13.5996, 105.807, -67.6345
0.832535, -1, 24.7217, 26.8863, 14.8258, 13.5996, 105.807, -67.6345
0.834527, -1, 24.6291, 26.8367, 14.8426, 13.5946, 105.755, -67.7647
0.835858, -1, 24.6291, 26.8367, 14.8426, 13.5946, 105.755, -67.7647
0.840534, -1, 24.5367, 26.7871, 14.8594, 13.5897, 105.704, -67.8948
0.842738, -1, 24.4443, 26.7376, 14.8763, 13.5848, 105.652, -68.0247
0.844012, -1, 24.4443, 26.7376, 14.8763, 13.5848, 105.652, -68.0247
0.846019, -1, 24.3519, 26.6881, 14.8931, 13.5799, 105.6, -68.1546
0.847205, -1, 24.3519, 26.6881, 14.8931, 13.5799, 105.6, -68.1546
0.848517, -1, 24.3519, 26.6881, 14.8931, 13.5799, 105.6, -68.1546
0.85128, -1, 24.2595, 26.6386, 14.9099, 13.575, 105.549, -68.2845
0.852479, -1, 24.2595, 26.6386, 14.9099, 13.575, 105.549, -68.2845
0.858072, -1, 24.0745, 26.5396, 14.9434, 13.5652, 105.445, -68.5445
0.859512, -1, 24.0745, 26.5396, 14.9434, 13.5652, 105.445, -68.5445
0.860687, -1, 24.0745, 26.5396, 14.9434, 13.5652, 105.445, -68.5445
0.862735, -1, 23.9819, 26.4901, 14.9601, 13.5603, 105.393, -68.6745
0.864016, -1, 23.9819, 26.4901, 14.9601, 13.5603, 105.393, -68.6745
0.865875, -1, 23.8893, 26.4406, 14.9769, 13.5553, 105.342, -68.8045
0.8672, -1, 23.8893, 26.4406, 14.9769, 13.5553, 105.342, -68.8045
0.8704, -1, 23.8893, 26.391, 14.9938, 13.5503, 105.29, -68.9346
0.87172, -1, 23.7966, 26.391, 14.9938, 13.5503, 105.29, -68.9346
0.872904, -1, 23.7966, 26.391, 14.9938, 13.5503, 105.29, -68.9346
0.875646, -1, 23.7039, 26.3415, 15.0105, 13.5453, 105.238, -69.0645
0.879605, -1, 23.6111, 26.2919, 15.0272, 13.5402, 105.186, -69.1943
0.887618, -1, 23.4251, 26.1926, 15.0606, 13.5299, 105.083, -69.454
0.895556, -1, 23.2388, 26.0934, 15.0942, 13.5195, 104.979, -69.7138
0.903627, -1, 23.0524, 25.9942, 15.1276, 13.5089, 104.876, -69.9738
0.911632, -1, 22.8658, 25.895, 15.1609, 13.4984, 104.772, -70.2335
0.919554, -1, 22.6795, 25.7959, 15.1944, 13.4879, 104.669, -70.493
0.92756, -1, 22.4935, 25.697, 15.2278, 13.4776, 104.565, -70.7525
0.935616, -1, 22.3077, 25.598, 15.2613, 13.4677, 104.462, -71.0125
0.943616, -1, 22.1223, 25.499, 15.2948, 13.4576, 104.359, -71.2722
0.951565, -1, 21.9371, 25.4, 15.3283, 13.4477, 104.255, -71.5316
0.959667, -1, 21.7525, 25.3012, 15.3617, 13.4379, 104.152, -71.7911
0.967562, -1, 21.5683, 25.2025, 15.3951, 13.428, 104.049, -72.0506
0.975629, -1, 21.3842, 25.104, 15.4287, 13.4181, 103.946, -72.3099
0.98366, -1, 21.2, 25.0053, 15.4623, 13.4079, 103.842, -72.5689
0.991563, -1, 21.0156, 24.9066, 15.4956, 13.3978, 103.739, -72.8278
0.999619, -1, 20.8311, 24.8079, 15.5291, 13.3875, 103.636, -73.0868
1.00755, -1, 20.6466, 24.7091, 15.5625, 13.377, 103.533, -73.346
1.01568, -1, 20.4616, 24.6103, 15.5958, 13.3663, 103.43, -73.6049
1.02365, -1, 20.2761, 24.5116, 15.6292, 13.3559, 103.328, -73.8636
1.03162, -1, 20.0902, 24.4128, 15.6627, 13.3454, 103.224, -74.1226
1.03994, -1, 19.9044, 24.314, 15.6959, 13.3352, 103.122, -74.3815
1.04769, -1, 19.7186, 24.2153, 15.7292, 13.3251, 103.019, -74.6402
1.05565, -1, 19.533, 24.1166, 15.7626, 13.3153, 102.916, -74.8986
1.06419, -1, 19.3478, 24.0179, 15.7959, 13.3055, 102.813, -75.1571
1.07166, -1, 19.1629, 23.9192, 15.8291, 13.2958, 102.71, -75.4157
1.07957, -1, 18.9783, 23.8207, 15.8624, 13.2862, 102.607, -75.6742
1.08834, -1, 18.7942, 23.7223, 15.8959, 13.2765, 102.505, -75.9324
1.09559, -1, 18.6105, 23.624, 15.9291, 13.2666, 102.402, -76.1907
1.10364, -1, 18.4271, 23.5257, 15.9623, 13.2567, 102.299, -76.4489
1.11248, -1, 18.2438, 23.4274, 15.9958, 13.2466, 102.197, -76.7072
1.11977, -1, 18.0605, 23.3292, 16.029, 13.2363, 102.094, -76.965
1.12779, -1, 17.8771, 23.2309, 16.0623, 13.2258, 101.991, -77.2227
1.13666, -1, 17.6933, 23.1326, 16.0957, 13.2153, 101.889, -77.4805
1.14397, -1, 17.5093, 23.0343, 16.129, 13.205, 101.786, -77.7385
1.15209, -1, 17.3248, 22.9361, 16.1621, 13.1947, 101.683, -77.9962
1.1609, -1, 17.14, 22.8379, 16.1954, 13.1846, 101.581, -78.2536
1.16808, -1, 16.9553, 22.7398, 16.2287, 13.1746, 101.478, -78.5112
1.17616, -1, 16.7704, 22.6415, 16.2619, 13.1647, 101.376, -78.7689
1.18496, -1, 16.5857, 22.5433, 16.2951, 13.1547, 101.274, -79.0264
1.19214, -1, 16.4934, 22.4451, 16.3284, 13.1449, 101.171, -79.2836
1.20026, -1, 16.3089, 22.396, 16.3615, 13.1351, 101.069, -79.5406
1.20754, -1, 16.125, 22.298, 16.378, 13.1301, 101.018, -79.6691
1.2156, -1, 15.9417, 22.2, 16.4112, 13.1202, 100.915, -79.9266
1.22443, -1, 15.7586, 22.102, 16.4444, 13.1051, 100.762, -80.3123
1.23153, -1, 15.5758, 22.004, 16.4775, 13.0999, 100.711, -80.4408
1.23955, -1, 15.3934, 21.906, 16.5105, 13.0896, 100.609, -80.6977
1.24759, -1, 15.211, 21.8081, 16.5437, 13.0791, 100.506, -80.9546
1.25555, -1, 15.0286, 21.7101, 16.5768, 13.0686, 100.404, -81.2114
1.2636, -1, 14.8462, 21.6122, 16.6099, 13.0583, 100.302, -81.4678
1.27154, -1, 14.6635, 21.5144, 16.643, 13.0482, 100.2, -81.7241
1.27961, -1, 14.4804, 21.4167, 16.676, 13.0383, 100.098, -81.9804
1.28755, -1, 14.297, 21.319, 16.709, 13.0285, 99.996, -82.2367
1.29559, -1, 14.1133, 21.2215, 16.7421, 13.0187, 99.8941, -82.493
1.30359, -1, 13.9295, 21.1239, 16.7753, 13.0091, 99.792, -82.7491
1.31156, -1, 13.7455, 21.0263, 16.8083, 12.9994, 99.6898, -83.0052
1.31961, -1, 13.5617, 20.9288, 16.8413, 12.9896, 99.5883, -83.2614
1.32754, -1, 13.3781, 20.8314, 16.8744, 12.9797, 99.4863, -83.5172
1.33654, -1, 13.1951, 20.7341, 16.9074, 12.9698, 99.3844, -83.7728
1.34365, -1, 13.0125, 20.6368, 16.9403, 12.9597, 99.2829, -84.0284
1.35261, -1, 12.8302, 20.5393, 16.9734, 12.9493, 99.1811, -84.2841
1.35954, -1, 12.6482, 20.442, 17.0064, 12.9389, 99.0794, -84.5397
1.3676, -1, 12.4667, 20.3445, 17.0391, 12.9284, 98.978, -84.795
1.37554, -1, 12.2856, 20.247, 17.0721, 12.918, 98.8763, -85.0503
1.38376, -1, 12.1045, 20.1496, 17.1051, 12.9078, 98.7749, -85.3054
1.39155, -1, 11.9232, 20.0523, 17.1379, 12.8976, 98.6737, -85.5607
1.39954, -1, 11.7418, 19.9551, 17.1707, 12.8877, 98.5723, -85.8156
1.40762, -1, 11.56, 19.8578, 17.2036, 12.8779, 98.4711, -86.0703
1.41554, -1, 11.3779, 19.7607, 17.2365, 12.8681, 98.3699, -86.325
1.42361, -1, 11.1955, 19.6636, 17.2693, 12.8583, 98.2685, -86.5797
1.43162, -1, 11.0129, 19.5665, 17.3021, 12.8485, 98.1674, -86.8342
1.43954, -1, 10.8301, 19.4693, 17.335, 12.8386, 98.0661, -87.0885
1.44755, -1, 10.6473, 19.3723, 17.3677, 12.8287, 97.9648, -87.3428
1.4556, -1, 10.4649, 19.2755, 17.4005, 12.8187, 97.8637, -87.597
1.46359, -1, 10.2828, 19.1787, 17.4335, 12.8085, 97.7623, -87.8513
1.47156, -1, 10.1011, 19.082, 17.4663, 12.7982, 97.661, -88.1052
1.47961, -1, 9.91995, 18.9853, 17.499, 12.7878, 97.5599, -88.359
1.48753, -1, 9.73903, 18.8886, 17.5317, 12.7775, 97.4587, -88.6129
1.49555, -1, 9.55861, 18.7919, 17.5645, 12.7673, 97.3576, -88.8669
1.5037, -1, 9.3787, 18.6951, 17.5972, 12.7573, 97.2567, -89.1207
1.51155, -1, 9.19881, 18.5986, 17.63, 12.7476, 97.1554, -89.3742
1.51982, -1, 9.01886, 18.5021, 17.6627, 12.7378, 97.0545, -89.6277
1.5284, -1, 8.83869, 18.4056, 17.6953, 12.7282, 96.9539, -89.8811
1.53561, -1, 8.65837, 18.3092, 17.7279, 12.7187, 96.8529, -90.1346
1.54397, -1, 8.47793, 18.2128, 17.7606, 12.7091, 96.7521, -90.3875
1.55253, -1, 8.29701, 18.1164, 17.7932, 12.6996, 96.6517, -90.6403
1.55963, -1, 8.11569, 18.0199, 17.8257, 12.6898, 96.5508, -90.8931
1.56821, -1, 7.93422, 17.9236, 17.8583, 12.68, 96.4503, -91.146
1.57645, -1, 7.75259, 17.8272, 17.8908, 12.67, 96.3498, -91.3985
1.5837, -1, 7.57121, 17.731, 17.9233, 12.6599, 96.2491, -91.651
1.59228, -1, 7.39004, 17.6348, 17.9559, 12.6495, 96.1488, -91.9036
1.60062, -1, 7.20925, 17.5386, 17.9885, 12.6392, 96.0488, -92.1562
1.6076, -1, 7.02894, 17.4424, 18.0209, 12.629, 95.9486, -92.4083
1.61659, -1, 6.84906, 17.3463, 18.0534, 12.6189, 95.8485, -92.6601
1.6246, -1, 6.66969, 17.2501, 18.086, 12.6092, 95.7485, -92.9119
1.63181, -1, 6.49087, 17.154, 18.1185, 12.5994, 95.6483, -93.1638
1.64072, -1, 6.3123, 17.058, 18.1509, 12.5898, 95.5483, -93.4158
1.64789, -1, 6.13381, 16.9621, 18.1833, 12.5802, 95.4484, -93.6673
1.656, -1, 5.95521, 16.8663, 18.2159, 12.5707, 95.3484, -93.9186
1.66507, -1, 5.77637, 16.7706, 18.2483, 12.5612, 95.2485, -94.17
1.67214, -1, 5.5973, 16.6748, 18.2807, 12.5516, 95.1487, -94.4216
1.68069, -1, 5.41798, 16.5791, 18.3132, 12.5419, 95.0487, -94.6727
1.68806, -1, 5.2383, 16.4835, 18.3456, 12.5321, 94.9489, -94.9235
1.69616, -1, 5.05821, 16.3879, 18.3778, 12.5222, 94.849, -95.1743
1.70408, -1, 4.96814, 16.3401, 18.394, 12.5171, 94.7991, -95.4252
1.71154, -1, 4.78801, 16.2447, 18.4265, 12.5069, 94.6991, -95.5506
1.7203, -1, 4.60797, 16.1492, 18.4588, 12.4967, 94.5492, -95.9264
1.72753, -1, 4.4281, 16.0538, 18.491, 12.4865, 94.4992, -96.0516
1.73553, -1, 4.24859, 15.9584, 18.5233, 12.4766, 94.3994, -96.3018
1.74353, -1, 4.06955, 15.863, 18.5556, 12.4669, 94.2997, -96.5522
1.75154, -1, 3.89121, 15.7675, 18.5879, 12.4573, 94.1998, -96.8023
1.75957, -1, 3.71335, 15.6721, 18.6201, 12.4479, 94.1002, -97.0522
1.76759, -1, 3.53591, 15.5769, 18.6524, 12.4384, 94.0006, -97.3019
1.77553, -1, 3.35874, 15.4817, 18.6846, 12.4291, 93.901, -97.5518
1.78364, -1, 3.18161, 15.3866, 18.7167, 12.4197, 93.8015, -97.8018
1.79153, -1, 3.00442, 15.2916, 18.7489, 12.4103, 93.7021, -98.0513
1.79952, -1, 2.82723, 15.1965, 18.7813, 12.4007, 93.6027, -98.3007
1.80769, -1, 2.64964, 15.1014, 18.8134, 12.391, 93.5036, -98.5499
1.81553, -1, 2.47173, 15.0065, 18.8454, 12.3811, 93.4044, -98.7994
1.82352, -1, 2.29357, 14.9116, 18.8777, 12.371, 93.3053, -99.0485
1.83158, -1, 2.11492, 14.8167, 18.9098, 12.3607, 93.2064, -99.2973
1.84057, -1, 1.93633, 14.722, 18.9419, 12.3506, 93.1073, -99.5461
1.84752, -1, 1.7575, 14.6273, 18.974, 12.3405, 93.0083, -99.7947
1.85559, -1, 1.57883, 14.5325, 19.0061, 12.3305, 92.9095, -100.043
1.86352, -1, 1.40036, 14.4379, 19.038, 12.3208, 92.8106, -100.292
1.87155, -1, 1.22228, 14.3431, 19.07, 12.3112, 92.7117, -100.54
1.8796, -1, 1.04478, 14.2484, 19.1021, 12.3018, 92.6134, -100.788
1.88761, -1, 0.868077, 14.1539, 19.1341, 12.2923, 92.5148, -101.037
1.89559, -1, 0.691617, 14.0594, 19.1659, 12.2829, 92.4162, -101.285
1.90352, -1, 0.515551, 13.965, 19.1978, 12.2735, 92.3178, -101.532
1.91153, -1, 0.339945, 13.8706, 19.2298, 12.264, 92.2194, -101.78
1.91959, -1, 0.164521, 13.7764, 19.2617, 12.2544, 92.1209, -102.027
1.92752, -1, -0.0108373, 13.6821, 19.2936, 12.2447, 92.0227, -102.275
1.93557, -1, -0.186511, 13.5878, 19.3257, 12.2349, 91.9241, -102.522
1.94359, -1, -0.362586, 13.4935, 19.3575, 12.2249, 91.8258, -102.769
1.95152, -1, -0.539233, 13.3993, 19.3893, 12.2147, 91.7276, -103.016
1.95953, -1, -0.716053, 13.3053, 19.4212, 12.2046, 91.6294, -103.263
1.96759, -1, -0.893019, 13.2113, 19.4531, 12.1946, 91.5312, -103.51
1.97553, -1, -1.07027, 13.1172, 19.4849, 12.1849, 91.4333, -103.757
1.98353, -1, -1.24776, 13.0232, 19.5167, 12.1752, 91.335, -104.003
1.99159, -1, -1.4249, 12.9291, 19.5485, 12.1657, 91.2368, -104.25
1.99952, -1, -1.60177, 12.835, 19.5803, 12.1563, 91.139, -104.496
2.00765, -1, -1.77827, 12.741, 19.612, 12.147, 91.0408, -104.742
2.01553, -1, -1.95414, 12.6472, 19.6438, 12.1377, 90.9427, -104.988
2.02359, -1, -2.12936, 12.5534, 19.6755, 12.1284, 90.845, -105.234
2.03156, -1, -2.30416, 12.4596, 19.7071, 12.1189, 90.747, -105.48
2.03961, -1, -2.47861, 12.3661, 19.7388, 12.1095, 90.6492, -105.726
2.04773, -1, -2.65254, 12.2725, 19.7706, 12.0999, 90.5516, -105.971
2.05598, -1, -2.82627, 12.179, 19.8022, 12.09, 90.4537, -106.216
2.06404, -1, -3.00023, 12.0855, 19.8337, 12.0801, 90.3561, -106.462
2.07163, -1, -3.17452, 11.9922, 19.8654, 12.07, 90.2586, -106.707
2.07958, -1, -3.34919, 11.8988, 19.897, 12.0601, 90.1608, -106.952
2.0883, -1, -3.52415, 11.8057, 19.9285, 12.0502, 90.0633, -107.197
2.09556, -1, -3.69931, 11.7125, 19.96, 12.0404, 89.966, -107.442
2.10355, -1, -3.87473, 11.6193, 19.9917, 12.0308, 89.8684, -107.687
2.11243, -1, -4.05043, 11.5261, 20.0231, 12.0213, 89.7711, -107.931
2.11967, -1, -4.2265, 11.433, 20.0545, 12.0119, 89.674, -108.176
2.12776, -1, -4.40235, 11.3397, 20.0861, 12.0025, 89.5766, -108.42
2.13659, -1, -4.57771, 11.2465, 20.1176, 11.9932, 89.4794, -108.664
2.14388, -1, -4.7527, 11.1534, 20.149, 11.9838, 89.3826, -108.908
2.15195, -1, -4.92719, 11.0604, 20.1803, 11.9745, 89.2853, -109.152
2.16088, -1, -5.10086, 10.9674, 20.2119, 11.965, 89.1883, -109.396
2.16811, -1, -5.27409, 10.8745, 20.2433, 11.9554, 89.0918, -109.639
2.17607, -1, -5.44703, 10.7816, 20.2746, 11.9456, 88.9948, -109.883
2.18491, -1, -5.61928, 10.6888, 20.306, 11.9356, 88.8979, -110.126
2.19211, -1, -5.79141, 10.596, 20.3374, 11.9258, 88.8013, -110.369
2.20012, -1, -5.96366, 10.5033, 20.3687, 11.9159, 88.7045, -110.612
2.20901, -1, -6.04989, 10.457, 20.4, 11.906, 88.6077, -110.855
2.2155, -1, -6.22266, 10.3644, 20.4157, 11.9012, 88.5594, -110.977
2.22426, -1, -6.39589, 10.272, 20.447, 11.8916, 88.4145, -111.341
2.23152, -1, -6.56929, 10.1795, 20.4783, 11.8821, 88.3663, -111.462
2.23951, -1, -6.74313, 10.0872, 20.5094, 11.8729, 88.27, -111.704
2.24763, -1, -6.91724, 9.99486, 20.5408, 11.8636, 88.1738, -111.947
2.25552, -1, -7.09163, 9.90252, 20.572, 11.8544, 88.0774, -112.189
2.26361, -1, -7.26607, 9.81019, 20.6032, 11.8452, 87.9811, -112.431
2.27151, -1, -7.44002, 9.71791, 20.6345, 11.836, 87.885, -112.673
2.27952, -1, -7.61366, 9.62572, 20.6657, 11.8267, 87.7887, -112.915
2.28763, -1, -7.78686, 9.53357, 20.6967, 11.8174, 87.6925, -113.157
2.29551, -1, -7.95943, 9.4415, 20.7279, 11.8079, 87.5964, -113.399
2.30351, -1, -8.13147, 9.34947, 20.7592, 11.7982, 87.5002, -113.64
2.31158, -1, -8.30294, 9.25743, 20.7903, 11.7884, 87.4042, -113.881
2.3195, -1, -8.47373, 9.16546, 20.8214, 11.7786, 87.3082, -114.123
2.32759, -1, -8.6443, 9.07349, 20.8525, 11.7689, 87.212, -114.364
2.33557, -1, -8.81491, 8.98165, 20.8837, 11.7594, 87.116, -114.605
2.34455, -1, -8.98575, 8.88986, 20.9147, 11.7499, 87.0201, -114.846
2.35151, -1, -9.15708, 8.79824, 20.9457, 11.7405, 86.924, -115.086
2.35957, -1, -9.32869, 8.70657, 20.9768, 11.7313, 86.828, -115.327
2.36758, -1, -9.50059, 8.61496, 21.0078, 11.7221, 86.7323, -115.567
2.37551, -1, -9.67278, 8.52343, 21.0387, 11.713, 86.6364, -115.808
2.38351, -1, -9.84523, 8.4319, 21.0697, 11.7039, 86.5407, -116.048
2.39159, -1, -10.018, 8.34025, 21.1008, 11.6947, 86.4452, -116.288
2.39956, -1, -10.191, 8.24877, 21.1318, 11.6854, 86.3495, -116.528
2.40757, -1, -10.3636, 8.1573, 21.1626, 11.676, 86.254, -116.768
2.4155, -1, -10.5359, 8.06582, 21.1935, 11.6665, 86.1588, -117.008
2.42357, -1, -10.7078, 7.97442, 21.2244, 11.6569, 86.0633, -117.248
2.43153, -1, -10.879, 7.88312, 21.2552, 11.6472, 85.968, -117.487
2.4395, -1, -11.0494, 7.79181, 21.286, 11.6375, 85.8728, -117.726
2.4478, -1, -11.2193, 7.70058, 21.317, 11.6278, 85.7774, -117.966
2.4555, -1, -11.3887, 7.60935, 21.3478, 11.6182, 85.6822, -118.205
2.4635, -1, -11.5578, 7.51831, 21.3785, 11.6088, 85.5877, -118.444
2.47271, -1, -11.7269, 7.42735, 21.4094, 11.5995, 85.4927, -118.683
2.4795, -1, -11.8961, 7.33652, 21.4403, 11.5906, 85.3979, -118.922
2.48763, -1, -12.0655, 7.24572, 21.4711, 11.5816, 85.3035, -119.16
2.49551, -1, -12.2352, 7.15503, 21.5018, 11.5726, 85.2086, -119.398
2.5035, -1, -12.4054, 7.06434, 21.5326, 11.5637, 85.114, -119.636
2.51157, -1, -12.5761, 6.97363, 21.5634, 11.5548, 85.0196, -119.875
2.51966, -1, -12.7471, 6.88288, 21.5941, 11.5458, 84.9249, -120.113
2.52762, -1, -12.9183, 6.79219, 21.6248, 11.5367, 84.8304, -120.351
2.53561, -1, -13.0896, 6.70153, 21.6556, 11.5273, 84.7361, -120.588
2.54375, -1, -13.2606, 6.61092, 21.6862, 11.5179, 84.6414, -120.826
2.55159, -1, -13.4314, 6.52025, 21.7167, 11.5083, 84.5469, -121.064
2.55975, -1, -13.6017, 6.4297, 21.7474, 11.4987, 84.4525, -121.301
2.56797, -1, -13.7715, 6.3392, 21.778, 11.4889, 84.3579, -121.538
2.57566, -1, -13.9407, 6.24862, 21.8086, 11.4793, 84.2634, -121.776
2.58369, -1, -14.1092, 6.15813, 21.8391, 11.4698, 84.1691, -122.013
2.59213, -1, -14.2772, 6.06784, 21.8697, 11.4605, 84.0746, -122.25
2.59961, -1, -14.4449, 5.97758, 21.9003, 11.4515, 83.9802, -122.487
2.60759, -1, -14.6123, 5.88749, 21.9308, 11.4424, 83.8859, -122.723
2.6163, -1, -14.7799, 5.7974, 21.9613, 11.4333, 83.7915, -122.96
2.62449, -1, -14.9477, 5.70744, 21.992, 11.4243, 83.6972, -123.196
2.63185, -1, -15.1159, 5.61744, 22.0224, 11.4153, 83.603, -123.433
2.64052, -1, -15.2846, 5.52757, 22.0528, 11.4062, 83.5087, -123.669
2.64794, -1, -15.4537, 5.43766, 22.0834, 11.3971, 83.4145, -123.904
2.65596, -1, -15.6231, 5.34769, 22.1139, 11.3878, 83.3203, -124.14
2.66483, -1, -15.7926, 5.25786, 22.1443, 11.3785, 83.2265, -124.376
2.67208, -1, -15.9621, 5.16808, 22.1747, 11.3689, 83.1323, -124.612
2.68026, -1, -16.1318, 5.07822, 22.2052, 11.3592, 83.0385, -124.848
2.68885, -1, -16.3011, 4.98848, 22.2356, 11.3494, 82.9449, -125.083
2.6961, -1, -16.4702, 4.89875, 22.2659, 11.3398, 82.851, -125.319
2.70406, -1, -16.5546, 4.85386, 22.281, 11.3303, 82.7574, -125.554
2.71281, -1, -16.723, 4.76406, 22.3115, 11.3257, 82.7108, -125.672
2.72013, -1, -16.8905, 4.6743, 22.3418, 11.3165, 82.6172, -126.024
2.72842, -1, -17.0573, 4.58468, 22.372, 11.3075, 82.5238, -126.259
2.73549, -1, -17.2238, 4.49515, 22.4023, 11.2986, 82.4305, -126.376
2.74354, -1, -17.3901, 4.40573, 22.4327, 11.2898, 82.3371, -126.611
2.75149, -1, -17.5563, 4.31641, 22.4629, 11.281, 82.2437, -126.846
2.7595, -1, -17.7224, 4.22708, 22.4931, 11.2721, 82.1507, -127.08
2.7676, -1, -17.8888, 4.13781, 22.5234, 11.2633, 82.0578, -127.315
2.77549, -1, -18.0554, 4.04861, 22.5537, 11.2542, 81.9646, -127.549
2.78349, -1, -18.2224, 3.95929, 22.5838, 11.2452, 81.8716, -127.783
2.7915, -1, -18.3898, 3.87006, 22.6139, 11.236, 81.7788, -128.017
2.79949, -1, -18.5576, 3.7809, 22.6442, 11.2266, 81.6858, -128.251
2.80761, -1, -18.7256, 3.69173, 22.6743, 11.217, 81.5928, -128.484
2.8155, -1, -18.8936, 3.60263, 22.7043, 11.2074, 81.5003, -128.718
2.82349, -1, -19.0616, 3.51359, 22.7344, 11.1978, 81.4072, -128.952
2.83318, -1, -19.3132, 3.38013, 22.7798, 11.1835, 81.2681, -129.302
2.83949, -1, -19.3969, 3.33566, 22.7948, 11.1789, 81.2219, -129.418
2.84851, -1, -19.5639, 3.24671, 22.8248, 11.1698, 81.1291, -129.651
2.85554, -1, -19.7302, 3.15777, 22.8549, 11.1607, 81.0363, -129.885
2.86349, -1, -19.8961, 3.06902, 22.8851, 11.1517, 80.9438, -130.118
2.87149, -1, -20.0616, 2.98035, 22.9151, 11.1428, 80.851, -130.35
2.87956, -1, -20.2265, 2.89183, 22.9451, 11.134, 80.7584, -130.583
2.88755, -1, -20.3913, 2.80334, 22.9752, 11.1251, 80.666, -130.815
2.89559, -1, -20.5561, 2.7149, 23.0053, 11.1162, 80.5734, -131.048
2.90349, -1, -20.7208, 2.62644, 23.0352, 11.1072, 80.4808, -131.28
2.91156, -1, -20.8859, 2.53805, 23.0652, 11.0982, 80.3883, -131.512
2.91949, -1, -21.0513, 2.44958, 23.0952, 11.0889, 80.2956, -131.744
2.92755, -1, -21.2171, 2.36112, 23.1251, 11.0795, 80.2033, -131.976
2.93556, -1, -21.3832, 2.27279, 23.1549, 11.07, 80.1109, -132.208
2.94348, -1, -21.5495, 2.18442, 23.1848, 11.0605, 80.0186, -132.44
2.95149, -1, -21.7158, 2.09603, 23.2147, 11.051, 79.9263, -132.672
2.95955, -1, -21.8821, 2.0078, 23.2445, 11.0417, 79.8341, -132.903
2.96754, -1, -22.0485, 1.91957, 23.2743, 11.0325, 79.7421, -133.134
2.9755, -1, -22.2146, 1.8313, 23.3042, 11.0235, 79.6498, -133.366
2.98355, -1, -22.3806, 1.74304, 23.3341, 11.0146, 79.5577, -133.597
2.99149, -1, -22.5461, 1.65483, 23.3639, 11.0059, 79.4659, -133.828
2.99949, -1, -22.7111, 1.5667, 23.3936, 10.9972, 79.3738, -134.059
3.00761, -1, -22.8754, 1.47864, 23.4235, 10.9885, 79.2818, -134.29
3.0155, -1, -23.0394, 1.39067, 23.4532, 10.9798, 79.1901, -134.521
3.02356, -1, -23.2031, 1.30272, 23.4829, 10.9711, 79.0981, -134.752
3.03152, -1, -23.3666, 1.21487, 23.5127, 10.9623, 79.0064, -134.982
3.03961, -1, -23.5301, 1.12712, 23.5425, 10.9533, 78.9149, -135.213
3.04769, -1, -23.6937, 1.03936, 23.5722, 10.9442, 78.8231, -135.443
3.0556, -1, -23.8575, 0.951634, 23.6019, 10.935, 78.7314, -135.673
3.06367, -1, -24.0214, 0.864005, 23.6316, 10.9255, 78.64, -135.903
3.07165, -1, -24.1855, 0.776445, 23.6614, 10.9162, 78.5486, -136.133
3.07959, -1, -24.35, 0.688953, 23.6909, 10.9068, 78.4572, -136.363
3.08765, -1, -24.5148, 0.601337, 23.7205, 10.8974, 78.3657, -136.593
3.09562, -1, -24.6797, 0.51388, 23.7502, 10.8883, 78.2745, -136.823
3.10352, -1, -24.8446, 0.426466, 23.7798, 10.8792, 78.183, -137.053
3.11158, -1, -25.0096, 0.338945, 23.8094, 10.8703, 78.0916, -137.282
3.11963, -1, -25.1743, 0.251424, 23.8389, 10.8616, 78.0007, -137.511
3.12772, -1, -25.3384, 0.163968, 23.8686, 10.8529, 77.9094, -137.741
3.13584, -1, -25.5022, 0.0764925, 23.8981, 10.8441, 77.8183, -137.97
3.14378, -1, -25.6657, -0.0109433, 23.9275, 10.8355, 77.7275, -138.199
3.15185, -1, -25.8288, -0.0981901, 23.957, 10.8268, 77.6364, -138.427
3.16003, -1, -25.9917, -0.185454, 23.9866, 10.818, 77.5454, -138.656
3.16802, -1, -26.1542, -0.272631, 24.0161, 10.8092, 77.4546, -138.886
3.17605, -1, -26.3165, -0.359659, 24.0455, 10.8002, 77.3635, -139.114
3.18412, -1, -26.4787, -0.44669, 24.075, 10.791, 77.2725, -139.342
3.19205, -1, -26.6411, -0.533719, 24.1047, 10.7818, 77.1816, -139.571
3.20006, -1, -26.7223, -0.620677, 24.1341, 10.7725, 77.0904, -139.799
3.20823, -1, -26.9663, -0.707629, 24.1636, 10.7633, 76.9996, -140.027
3.21547, -1, -27.0477, -0.751059, 24.1783, 10.7587, 76.954, -140.141
3.22349, -1, -27.2107, -0.837952, 24.2078, 10.7496, 76.8634, -140.369
3.23233, -1, -27.3738, -0.924904, 24.2371, 10.7407, 76.727, -140.711
3.23948, -1, -27.5372, -1.01169, 24.2664, 10.732, 76.6817, -140.825
3.24755, -1, -27.7007, -1.09852, 24.2958, 10.7234, 76.591, -141.053
3.25552, -1, -27.864, -1.18536, 24.3253, 10.7148, 76.5001, -141.281
3.26348, -1, -28.0272, -1.27213, 24.3546, 10.7063, 76.4095, -141.508
3.27167, -1, -28.1903, -1.35886, 24.3839, 10.6976, 76.3189, -141.735
3.27946, -1, -28.3532, -1.44552, 24.4133, 10.689, 76.2284, -141.962
3.28754, -1, -28.5157, -1.53206, 24.4426, 10.6804, 76.1378, -142.19
3.2969, -1, -28.6779, -1.6186, 24.4718, 10.6717, 76.0022, -142.531
3.30347, -1, -28.8397, -1.70509, 24.501, 10.6628, 75.9571, -142.644
3.31302, -1, -29.0816, -1.83472, 24.5449, 10.6493, 75.8214, -142.985
3.32026, -1, -29.1622, -1.87791, 24.5595, 10.6447, 75.7762, -143.098
3.32753, -1, -29.3232, -1.96426, 24.5887, 10.6354, 75.6861, -143.325
3.33718, -1, -29.5651, -2.09373, 24.6325, 10.6215, 75.5508, -143.665
3.34425, -1, -29.6457, -2.13681, 24.6472, 10.617, 75.5057, -143.778
3.35149, -1, -29.8071, -2.22302, 24.6764, 10.6079, 75.4157, -144.005
3.35954, -1, -29.9685, -2.30921, 24.7054, 10.5989, 75.3254, -144.231
3.36833, -1, -30.1299, -2.39541, 24.7346, 10.5902, 75.2353, -144.457
3.37648, -1, -30.2915, -2.48152, 24.7638, 10.5815, 75.1455, -144.684
3.38359, -1, -30.4533, -2.56771, 24.7929, 10.5729, 75.0556, -144.91
3.39222, -1, -30.6153, -2.65391, 24.822, 10.5643, 74.9659, -145.136
3.39962, -1, -30.7774, -2.74011, 24.8511, 10.5557, 74.8761, -145.362
3.40754, -1, -30.9394, -2.82625, 24.8803, 10.5471, 74.7867, -145.588
3.41691, -1, -31.1012, -2.91234, 24.9093, 10.5384, 74.697, -145.814
3.42354, -1, -31.2627, -2.99833, 24.9384, 10.5296, 74.6073, -146.039
3.43149, -1, -31.424, -3.0843, 24.9675, 10.5209, 74.518, -146.264
3.43948, -1, -31.5848, -3.17026, 24.9966, 10.512, 74.4281, -146.49
3.44759, -1, -31.7455, -3.25615, 25.0255, 10.5028, 74.3385, -146.715
3.45547, -1, -31.9059, -3.34197, 25.0545, 10.4936, 74.2491, -146.941
3.46348, -1, -32.0661, -3.42779, 25.0836, 10.4844, 74.1593, -147.165
3.47155, -1, -32.2262, -3.51362, 25.1127, 10.4752, 74.0698, -147.391
3.47955, -1, -32.3863, -3.59924, 25.1416, 10.4661, 73.9803, -147.616
3.48755, -1, -32.5464, -3.68489, 25.1705, 10.4573, 73.8907, -147.841
3.49553, -1, -32.7066, -3.77047, 25.1996, 10.4485, 73.8012, -148.065
3.50347, -1, -32.8667, -3.85606, 25.2285, 10.4398, 73.7118, -148.29
3.51151, -1, -33.0269, -3.94155, 25.2575, 10.4312, 73.6225, -148.514
3.51953, -1, -33.1874, -4.02708, 25.2864, 10.4226, 73.533, -148.739
3.52755, -1, -33.3481, -4.11268, 25.3154, 10.414, 73.4435, -148.963
3.53567, -1, -33.5088, -4.19827, 25.3444, 10.4055, 73.3543, -149.188
3.54357, -1, -33.6695, -4.28382, 25.3732, 10.3969, 73.2647, -149.412
3.55158, -1, -33.83, -4.36934, 25.4021, 10.3882, 73.1754, -149.636
3.55988, -1, -33.9903, -4.45477, 25.4312, 10.3795, 73.0862, -149.86
3.56853, -1, -34.1506, -4.54018, 25.4601, 10.3706, 72.9966, -150.085
3.57557, -1, -34.3108, -4.62559, 25.489, 10.3616, 72.9073, -150.309
3.58404, -1, -34.471, -4.71095, 25.5179, 10.3524, 72.8181, -150.532
3.59155, -1, -34.6308, -4.79628, 25.5469, 10.3432, 72.7289, -150.756
3.59952, -1, -34.7903, -4.88154, 25.5756, 10.3341, 72.6397, -150.98
3.60839, -1, -34.9494, -4.96686, 25.6045, 10.3251, 72.5507, -151.203
3.6155, -1, -35.1086, -5.05213, 25.6334, 10.3162, 72.4618, -151.427
3.62355, -1, -35.2677, -5.13726, 25.6623, 10.3074, 72.3727, -151.65
3.6325, -1, -35.4268, -5.22233, 25.691, 10.2987, 72.284, -151.873
3.63971, -1, -35.586, -5.30747, 25.7197, 10.2902, 72.1953, -152.097
3.64809, -1, -35.7451, -5.3925, 25.7485, 10.2817, 72.1064, -152.32
3.65652, -1, -35.9041, -5.47744, 25.7773, 10.2732, 72.0177, -152.543
3.66386, -1, -36.0632, -5.56249, 25.8061, 10.2648, 71.9292, -152.766
3.67201, -1, -36.2225, -5.64753, 25.8348, 10.2563, 71.8403, -152.989
3.68006, -1, -36.3818, -5.73254, 25.8636, 10.2477, 71.7517, -153.212
3.68804, -1, -36.5412, -5.81751, 25.8923, 10.239, 71.6632, -153.435
3.69622, -1, -36.7005, -5.90238, 25.921, 10.2302, 71.5749, -153.657
3.70407, -1, -36.7801, -5.98715, 25.9496, 10.2213, 71.4864, -153.88
3.71193, -1, -36.9394, -6.02952, 25.964, 10.2167, 71.4422, -153.991
3.72006, -1, -37.0987, -6.1143, 25.9929, 10.2076, 71.3539, -154.325
3.72805, -1, -37.2578, -6.19894, 26.0215, 10.1983, 71.2655, -154.437
3.73556, -1, -37.4167, -6.28353, 26.0501, 10.1892, 71.1771, -154.659
3.7435, -1, -37.5754, -6.36819, 26.0789, 10.1802, 71.0886, -154.881
3.75146, -1, -37.7338, -6.45285, 26.1077, 10.1713, 71.0004, -155.103
3.75946, -1, -37.8922, -6.53748, 26.1363, 10.1626, 70.9117, -155.325
3.76758, -1, -38.0506, -6.62212, 26.1649, 10.1541, 70.8234, -155.547
3.77547, -1, -38.2089, -6.70669, 26.1936, 10.1457, 70.7353, -155.769
3.78347, -1, -38.367, -6.7913, 26.2222, 10.1373, 70.6469, -155.991
3.79302, -1, -38.6039, -6.91808, 26.265, 10.1248, 70.5146, -156.324
3.79946, -1, -38.6829, -6.96031, 26.2794, 10.1206, 70.4707, -156.434
3.80752, -1, -38.8409, -7.04484, 26.308, 10.1123, 70.3823, -156.656
3.81552, -1, -38.9989, -7.12932, 26.3367, 10.1038, 70.294, -156.878
3.82348, -1, -39.1571, -7.21383, 26.3651, 10.0954, 70.2058, -157.099
3.83146, -1, -39.3153, -7.29825, 26.3937, 10.0867, 70.1176, -157.321
3.83952, -1, -39.4736, -7.38267, 26.4223, 10.0779, 70.0294, -157.542
3.84753, -1, -39.6318, -7.46701, 26.4509, 10.0691, 69.9413, -157.763
3.85546, -1, -39.79, -7.55134, 26.4793, 10.06, 69.8534, -157.985
3.86446, -1, -39.9482, -7.63566, 26.5078, 10.051, 69.7651, -158.206
3.87146, -1, -40.1065, -7.71995, 26.5364, 10.042, 69.6771, -158.427
3.87946, -1, -40.2646, -7.80417, 26.5649, 10.0331, 69.5894, -158.648
3.88758, -1, -40.4225, -7.8884, 26.5934, 10.0244, 69.5013, -158.869
3.89546, -1, -40.5803, -7.9727, 26.6219, 10.0159, 69.4135, -159.09
3.90361, -1, -40.738, -8.05688, 26.6505, 10.0074, 69.3257, -159.31
3.91145, -1, -40.8955, -8.14105, 26.6789, 9.99899, 69.2379, -159.531
3.91958, -1, -41.0528, -8.22519, 26.7072, 9.99062, 69.1501, -159.751
3.92757, -1, -41.21, -8.30928, 26.7357, 9.98227, 69.0624, -159.972
3.93545, -1, -41.367, -8.39326, 26.7643, 9.97387, 68.9748, -160.193
3.94346, -1, -41.524, -8.47718, 26.7927, 9.96544, 68.8869, -160.413
3.95152, -1, -41.6813, -8.56115, 26.8211, 9.95693, 68.7992, -160.633
3.95947, -1, -41.8385, -8.64512, 26.8496, 9.94825, 68.7117, -160.854
3.96751, -1, -41.9957, -8.72905, 26.8782, 9.93955, 68.6238, -161.074
3.97552, -1, -42.1529, -8.81297, 26.9065, 9.93066, 68.5362, -161.295
3.98345, -1, -42.31, -8.89686, 26.9349, 9.92163, 68.4487, -161.515
3.99156, -1, -42.4673, -8.98067, 26.9633, 9.91255, 68.361, -161.735
3.99953, -1, -42.6246, -9.06457, 26.9918, 9.9036, 68.2734, -161.955
4.00751, -1, -42.7818, -9.14841, 27.02, 9.89471, 68.1858, -162.175
4.01545, -1, -42.939, -9.23221, 27.0483, 9.88599, 68.0986, -162.395
4.02353, -1, -43.0962, -9.31594, 27.0767, 9.87741, 68.0109, -162.614
4.03146, -1, -43.2533, -9.39975, 27.1051, 9.86895, 67.9234, -162.834
4.0395, -1, -43.4102, -9.4835, 27.1334, 9.86063, 67.8361, -163.054
4.04765, -1, -43.5671, -9.56717, 27.1617, 9.85241, 67.7484, -163.273
4.05557, -1, -43.724, -9.65088, 27.19, 9.84416, 67.661, -163.493
4.06355, -1, -43.8807, -9.73458, 27.2183, 9.836, 67.5737, -163.713
4.07169, -1, -44.0373, -9.8182, 27.2465, 9.82786, 67.4865, -163.932
4.07957, -1, -44.1937, -9.9018, 27.2747, 9.8196, 67.3991, -164.151
4.08761, -1, -44.35, -9.98543, 27.303, 9.81124, 67.3119, -164.371
4.09562, -1, -44.5063, -10.069, 27.3313, 9.80277, 67.225, -164.59
4.10349, -1, -44.6625, -10.1526, 27.3594, 9.79403, 67.1376, -164.809
4.11148, -1, -44.8187, -10.2361, 27.3877, 9.7853, 67.0504, -165.028
4.11976, -1, -44.975, -10.3195, 27.416, 9.77637, 66.9634, -165.247
4.12763, -1, -45.131, -10.4029, 27.4443, 9.76729, 66.876, -165.466
4.13563, -1, -45.2862, -10.4857, 27.4726, 9.75848, 66.789, -165.685
4.1438, -1, -45.4402, -10.5678, 27.5009, 9.74965, 66.7022, -165.903
4.1518, -1, -45.5915, -10.6484, 27.5294, 9.74107, 66.6157, -166.12
4.16015, -1, -45.7386, -10.7258, 27.5579, 9.73284, 66.5305, -166.334
4.16801, -1, -45.879, -10.7988, 27.5859, 9.72491, 66.4474, -166.542
4.17668, -1, -46.0107, -10.8667, 27.6131, 9.7175, 66.369, -166.74
4.184, -1, -46.1316, -10.9287, 27.6383, 9.71083, 66.2961, -166.922
4.19218, -1, -46.239, -10.9833, 27.6605, 9.70487, 66.2322, -167.083
4.20006, -1, -46.3309, -11.0309, 27.6786, 9.69998, 66.1774, -167.219
4.20808, -1, -46.4075, -11.0722, 27.6925, 9.69593, 66.1342, -167.328
4.2161, -1, -46.4405, -11.0907, 27.702, 9.69281, 66.102, -167.41
4.22407, -1, -46.4959, -11.123, 27.7053, 9.6915, 66.0897, -167.441
4.23147, -1, -46.5382, -11.1482, 27.7094, 9.68958, 66.0717, -167.487
4.23958, -1, -46.5692, -11.1664, 27.7115, 9.68813, 66.0603, -167.515
4.2475, -1, -46.5907, -11.1789, 27.7124, 9.68715, 66.0538, -167.532
4.25544, -1, -46.6046, -11.187, 27.7128, 9.68647, 66.0504, -167.54
4.26346, 2, -46.6124, -11.1914, 27.713, 9.68614, 66.0487, -167.544
4.27143, 2, -46.6161, -11.1935, 27.7131, 9.68594, 66.0479, -167.546
4.27945, 2, -46.617, -11.1944, 27.7131, 9.68582, 66.0475, -167.547
4.28754, 2, -46.6167, -11.1947, 27.7132, 9.68573, 66.0473, -167.547
4.29543, 2, -46.6164, -11.1948, 27.7132, 9.68571, 66.0472, -167.548
4.30344, 2, -46.6164, -11.1948, 27.7132, 9.68565, 66.0472, -167.548
4.3115, 2, -46.6169, -11.1949, 27.7132, 9.68561, 66.0472, -167.548
4.31945, 2, -46.6178, -11.1953, 27.7132, 9.68561, 66.0471, -167.548
4.3275, 2, -46.6192, -11.1958, 27.7132, 9.68556, 66.0471, -167.548
4.33551, 2, -46.6209, -11.1965, 27.7132, 9.68551, 66.0471, -167.548
4.34523, 2, -46.6229, -11.1975, 27.7132, 9.68542, 66.0471, -167.548
4.35143, 2, -46.6235, -11.1978, 27.7132, 9.68539, 66.0471, -167.548
4.35952, 2, -46.6242, -11.1981, 27.7132, 9.68536, 66.0471, -167.548
4.36849, 2, -46.6246, -11.1984, 27.7132, 9.68532, 66.0471, -167.548
4.37544, 2, -46.6247, -11.1985, 27.7132, 9.68532, 66.0471, -167.548
4.38351, 2, -46.6248, -11.1985, 27.7132, 9.68531, 66.047, -167.548
4.39143, 2, -46.6248, -11.1984, 27.7132, 9.6853, 66.0471, -167.548
4.39945, 2, -46.6245, -11.1983, 27.7132, 9.6853, 66.0471, -167.548
4.40765, 2, -46.6241, -11.1982, 27.7132, 9.68529, 66.0471, -167.548
4.41543, 2, -46.6237, -11.1982, 27.7132, 9.68528, 66.0471, -167.548
4.42343, 2, -46.6234, -11.1982, 27.7132, 9.68525, 66.0471, -167.548
4.43151, 2, -46.6233, -11.1983, 27.7132, 9.68528, 66.0471, -167.548
4.43948, 2, -46.6234, -11.1984, 27.7132, 9.68529, 66.0471, -167.548
4.4475, 2, -46.6235, -11.1986, 27.7132, 9.68529, 66.0471, -167.547
4.4555, 2, -46.624, -11.1987, 27.7132, 9.68528, 66.0471, -167.547
4.46343, 2, -46.6247, -11.1988, 27.7132, 9.68528, 66.0471, -167.547
4.47143, 2, -46.625, -11.1989, 27.7132, 9.68528, 66.0471, -167.547
4.47952, 2, -46.6251, -11.1989, 27.7132, 9.68532, 66.0471, -167.547
4.4875, 2, -46.6251, -11.1989, 27.7132, 9.68531, 66.0471, -167.547
4.49545, 2, -46.6251, -11.1988, 27.7132, 9.68531, 66.0471, -167.547
4.50351, 2, -46.625, -11.1987, 27.7132, 9.6853, 66.0471, -167.547
4.51143, 2, -46.6249, -11.1987, 27.7132, 9.68532, 66.0471, -167.547
4.51946, 2, -46.6246, -11.1987, 27.7132, 9.6853, 66.0471, -167.547
4.52758, 2, -46.6245, -11.1987, 27.7132, 9.68529, 66.0471, -167.547
4.53543, 2, -46.6243, -11.1987, 27.7132, 9.68528, 66.0471, -167.547
4.54348, 2, -46.6241, -11.1987, 27.7132, 9.68528, 66.0471, -167.547
4.55159, 2, -46.624, -11.1987, 27.7132, 9.6853, 66.0471, -167.547
4.55954, 2, -46.624, -11.1988, 27.7132, 9.68532, 66.0471, -167.547
4.5676, 2, -46.6239, -11.1988, 27.7132, 9.68535, 66.0471, -167.547
4.57568, 2, -46.6239, -11.1988, 27.7132, 9.68534, 66.0471, -167.547
4.58354, 2, -46.6239, -11.1988, 27.7132, 9.68532, 66.0471, -167.547
4.5915, 2, -46.6239, -11.1988, 27.7132, 9.6853, 66.0471, -167.547
4.59957, 2, -46.6238, -11.1987, 27.7132, 9.6853, 66.0471, -167.547
4.60752, 2, -46.6238, -11.1986, 27.7132, 9.6853, 66.0472, -167.547
4.61558, 2, -46.6237, -11.1986, 27.7132, 9.68529, 66.0472, -167.547
4.62357, 2, -46.6236, -11.1986, 27.7132, 9.68528, 66.0472, -167.546
4.63159, 2, -46.6235, -11.1986, 27.7132, 9.68528, 66.0471, -167.546
4.63996, 2, -46.6234, -11.1986, 27.7132, 9.68532, 66.0471, -167.546
4.64781, 2, -46.6233, -11.1986, 27.7132, 9.68533, 66.0471, -167.546
4.65571, 2, -46.6232, -11.1986, 27.7132, 9.68533, 66.0471, -167.546
4.6643, 2, -46.6232, -11.1986, 27.7132, 9.68533, 66.0471, -167.546
4.67192, 2, -46.6231, -11.1987, 27.7132, 9.68531, 66.0472, -167.546
4.67993, 2, -46.623, -11.1987, 27.7132, 9.6853, 66.0472, -167.546
4.68838, 2, -46.6229, -11.1987, 27.7132, 9.68531, 66.0472, -167.546
4.69604, 2, -46.6228, -11.1986, 27.7132, 9.68534, 66.0472, -167.546
4.70399, 2, -46.6227, -11.1986, 27.7132, 9.68532, 66.0472, -167.546
4.71232, 2, -46.6226, -11.1985, 27.7132, 9.6853, 66.0472, -167.546
4.72005, 2, -46.6226, -11.1985, 27.7132, 9.68529, 66.0472, -167.546
4.72799, 2, -46.6224, -11.1985, 27.7132, 9.6853, 66.0472, -167.546
4.73626, 2, -46.6223, -11.1985, 27.7132, 9.68531, 66.0472, -167.546
4.74357, 2, -46.6223, -11.1984, 27.7132, 9.68532, 66.0472, -167.546
4.75142, 2, -46.6221, -11.1985, 27.7132, 9.68531, 66.0472, -167.546
4.75948, 2, -46.6221, -11.1985, 27.7132, 9.68529, 66.0472, -167.546
4.76754, 2, -46.622, -11.1985, 27.7132, 9.68531, 66.0472, -167.546
4.77541, 2, -46.6219, -11.1985, 27.7132, 9.68532, 66.0472, -167.546
4.78342, 2, -46.6218, -11.1985, 27.7132, 9.6853, 66.0473, -167.546
4.79148, 2, -46.6217, -11.1985, 27.7132, 9.68529, 66.0473, -167.546
4.80094, 2, -46.6216, -11.1985, 27.7132, 9.68528, 66.0473, -167.546
4.80951, 2, -46.6215, -11.1985, 27.7132, 9.68531, 66.0472, -167.546
4.81548, 2, -46.6215, -11.1984, 27.7132, 9.6853, 66.0472, -167.546
4.82506, 2, -46.6214, -11.1984, 27.7132, 9.68533, 66.0472, -167.546
4.83142, 2, -46.6213, -11.1983, 27.7132, 9.68533, 66.0473, -167.546
4.8395, 2, -46.6212, -11.1983, 27.7132, 9.6853, 66.0473, -167.546
4.8492, 2, -46.6211, -11.1983, 27.7132, 9.68529, 66.0472, -167.546
4.85541, 2, -46.6211, -11.1983, 27.7132, 9.68528, 66.0473, -167.546
4.86349, 2, -46.621, -11.1983, 27.7132, 9.68528, 66.0473, -167.546
4.87141, 2, -46.6209, -11.1983, 27.7132, 9.68528, 66.0473, -167.546
4.87943, 2, -46.6209, -11.1983, 27.7132, 9.68528, 66.0473, -167.546
4.88852, 2, -46.6209, -11.1983, 27.7132, 9.68525, 66.0473, -167.546
4.89541, 2, -46.6208, -11.1983, 27.7132, 9.68528, 66.0474, -167.546
4.90341, 2, -46.6208, -11.1983, 27.7132, 9.68531, 66.0473, -167.546
4.91158, 2, -46.6208, -11.1983, 27.7132, 9.6853, 66.0473, -167.546
4.91942, 2, -46.6208, -11.1983, 27.7132, 9.68529, 66.0473, -167.546
4.92748, 2, -46.6208, -11.1982, 27.7132, 9.68531, 66.0473, -167.546
4.93549, 2, -46.6208, -11.1982, 27.7132, 9.68529, 66.0473, -167.546
4.94341, 2, -46.6207, -11.1982, 27.7132, 9.6853, 66.0473, -167.546
4.95143, 2, -46.6206, -11.1982, 27.7132, 9.6853, 66.0473, -167.546
4.95942, 2, -46.6205, -11.1982, 27.7132, 9.68529, 66.0473, -167.546
4.96748, 2, -46.6203, -11.1982, 27.7132, 9.68531, 66.0473, -167.546
4.97548, 2, -46.6203, -11.1982, 27.7132, 9.68529, 66.0473, -167.546
4.98341, 2, -46.6202, -11.1982, 27.7132, 9.68529, 66.0474, -167.546
4.99141, 2, -46.6201, -11.1982, 27.7132, 9.68533, 66.0474, -167.546
4.99956, 2, -46.6201, -11.1982, 27.7132, 9.68531, 66.0474, -167.546
5.00747, 2, -46.6201, -11.1982, 27.7132, 9.68532, 66.0474, -167.546
5.01542, 2, -46.6201, -11.1982, 27.7132, 9.6853, 66.0474, -167.546
5.02349, 2, -46.62, -11.1981, 27.7132, 9.68532, 66.0474, -167.546
5.03141, 2, -46.62, -11.1981, 27.7132, 9.6853, 66.0474, -167.546
5.03943, 2, -46.62, -11.1981, 27.7132, 9.68532, 66.0473, -167.546
5.04759, 2, -46.6199, -11.1981, 27.7132, 9.6853, 66.0473, -167.546
5.0555, 2, -46.6198, -11.198, 27.7132, 9.68533, 66.0473, -167.546
5.06351, 2, -46.6197, -11.198, 27.7132, 9.68533, 66.0473, -167.546
5.07158, 2, -46.6196, -11.198, 27.7132, 9.68534, 66.0474, -167.546
5.07962, 2, -46.6195, -11.198, 27.7132, 9.68534, 66.0473, -167.546
5.08758, 2, -46.6194, -11.198, 27.7132, 9.6853, 66.0474, -167.546
5.09558, 2, -46.6193, -11.198, 27.7132, 9.68529, 66.0474, -167.546
5.10342, 2, -46.6193, -11.198, 27.7132, 9.6853, 66.0474, -167.546
5.11144, 2, -46.6193, -11.198, 27.7132, 9.6853, 66.0474, -167.546
5.11953, 2, -46.6193, -11.198, 27.7132, 9.68532, 66.0474, -167.546
5.12756, 2, -46.6193, -11.198, 27.7132, 9.6853, 66.0473, -167.546
5.13565, 2, -46.6192, -11.1979, 27.7132, 9.68533, 66.0474, -167.546
5.14372, 2, -46.6192, -11.1979, 27.7132, 9.68534, 66.0474, -167.546
5.15176, 2, -46.6191, -11.1979, 27.7132, 9.68533, 66.0474, -167.546
5.15974, 2, -46.6191, -11.1979, 27.7132, 9.68536, 66.0474, -167.546
5.16795, 2, -46.619, -11.1978, 27.7132, 9.68537, 66.0474, -167.546
5.17655, 2, -46.6189, -11.1978, 27.7132, 9.68536, 66.0474, -167.545
5.1839, 2, -46.6188, -11.1978, 27.7132, 9.68535, 66.0474, -167.546
5.19204, 2, -46.6187, -11.1978, 27.7132, 9.68534, 66.0474, -167.545
5.20006, 2, -46.6186, -11.1978, 27.7132, 9.68532, 66.0474, -167.545
5.20804, 2, -46.6185, -11.1978, 27.7132, 9.68536, 66.0474, -167.545
5.21605, 2, -46.6185, -11.1978, 27.7132, 9.68533, 66.0474, -167.545
5.22399, 2, -46.6185, -11.1978, 27.7132, 9.68531, 66.0474, -167.545
5.2314, 2, -46.6185, -11.1978, 27.7132, 9.68532, 66.0474, -167.545
5.23947, 2, -46.6184, -11.1978, 27.7132, 9.68534, 66.0474, -167.545
5.24756, 2, -46.6184, -11.1977, 27.7132, 9.68535, 66.0474, -167.545
5.25539, 2, -46.6184, -11.1977, 27.7132, 9.68531, 66.0474, -167.545
5.26494, 2, -46.6183, -11.1977, 27.7132, 9.68533, 66.0474, -167.545
5.27151, 2, -46.6183, -11.1977, 27.7132, 9.68533, 66.0474, -167.545
5.27941, 2, -46.6182, -11.1977, 27.7132, 9.68535, 66.0474, -167.545
5.28755, 2, -46.6181, -11.1977, 27.7132, 9.68532, 66.0474, -167.545
5.2954, 2, -46.618, -11.1977, 27.7132, 9.6853, 66.0474, -167.545
5.30337, 2, -46.6179, -11.1977, 27.7132, 9.6853, 66.0474, -167.545
5.31296, 2, -46.6178, -11.1976, 27.7132, 9.68536, 66.0474, -167.545
5.32095, 2, -46.6178, -11.1977, 27.7132, 9.68537, 66.0475, -167.545
5.32743, 4, -46.6177, -11.1977, 27.7132, 9.68538, 66.0475, -167.545
5.33701, 4, -46.6177, -11.1976, 27.7132, 9.68534, 66.0475, -167.545
5.3434, 4, -46.6177, -11.1976, 27.7132, 9.68532, 66.0474, -167.545
5.3514, 4, -46.6177, -11.1976, 27.7132, 9.68534, 66.0475, -167.545
5.3604, 4, -46.6177, -11.1975, 27.7132, 9.68536, 66.0475, -167.545
5.36746, 4, -46.6176, -11.1975, 27.7132, 9.68536, 66.0475, -167.545
5.37641, 4, -46.6176, -11.1975, 27.7132, 9.68533, 66.0475, -167.545
5.38347, 4, -46.6175, -11.1975, 27.7132, 9.68533, 66.0474, -167.545
5.3914, 4, -46.6174, -11.1975, 27.7132, 9.68534, 66.0474, -167.545
5.39941, 4, -46.6173, -11.1975, 27.7132, 9.68535, 66.0474, -167.545
5.40753, 4, -46.6173, -11.1975, 27.7132, 9.68532, 66.0475, -167.545
5.4155, 4, -46.6172, -11.1975, 27.7132, 9.68535, 66.0474, -167.545
5.42339, 4, -46.6172, -11.1975, 27.7132, 9.68537, 66.0474, -167.545
5.44889, 4, -46.6171, -11.1974, 27.7132, 9.68534, 66.0475, -167.545
5.4516, 4, -46.6171, -11.1974, 27.7132, 9.68536, 66.0474, -167.545
5.45396, 4, -46.6171, -11.1974, 27.7132, 9.68535, 66.0474, -167.545
5.45604, 4, -46.6171, -11.1974, 27.7132, 9.68535, 66.0474, -167.545
5.46817, 4, -46.617, -11.1973, 27.7132, 9.68535, 66.0475, -167.545
5.47552, 4, -46.617, -11.1974, 27.7132, 9.68534, 66.0475, -167.545
5.47963, 4, -46.6171, -11.1974, 27.7132, 9.68535, 66.0475, -167.545
5.48847, 4, -46.618, -11.1978, 27.7134, 9.6856, 66.0476, -167.545
5.49654, 4, -46.6202, -11.1996, 27.7149, 9.68792, 66.0484, -167.545
5.50337, 4, -46.6241, -11.2038, 27.7198, 9.69822, 66.0515, -167.543
5.51139, 4, -46.6302, -11.2111, 27.7304, 9.72295, 66.0588, -167.538
5.51971, 4, -46.6389, -11.2223, 27.7495, 9.76999, 66.0732, -167.527
5.52847, 5, -46.6511, -11.2384, 27.7797, 9.84578, 66.0964, -167.509
5.5354, 5, -46.6675, -11.2596, 27.8226, 9.95456, 66.1299, -167.482
5.54383, 5, -46.6883, -11.2856, 27.8788, 10.0986, 66.1755, -167.446
5.55597, 5, -46.7269, -11.3339, 27.9862, 10.3748, 66.2618, -167.376
5.5595, 5, -46.7417, -11.3523, 28.0274, 10.4801, 66.295, -167.349
5.56805, 5, -46.7735, -11.3926, 28.1162, 10.7052, 66.3657, -167.292
5.57566, 5, -46.8079, -11.4364, 28.2117, 10.9448, 66.44, -167.232
5.58365, 5, -46.8442, -11.4831, 28.312, 11.1935, 66.5173, -167.169
5.59649, 5, -46.9019, -11.5567, 28.4674, 11.5751, 66.635, -167.074
5.59969, 5, -46.922, -11.5819, 28.5201, 11.7035, 66.6741, -167.041
5.60839, 5, -46.9628, -11.633, 28.6268, 11.9612, 66.7523, -166.977
5.6162, 5, -47.0042, -11.6846, 28.7347, 12.2196, 66.8301, -166.913
5.62343, 5, -47.0458, -11.7366, 28.8439, 12.4781, 66.9077, -166.849
5.63175, 5, -47.0879, -11.7888, 28.9543, 12.737, 66.9843, -166.785
5.64038, 5, -47.13, -11.8412, 29.0655, 12.9961, 67.0606, -166.722
5.64806, 5, -47.1722, -11.8937, 29.1775, 13.2551, 67.136, -166.659
5.6557, 5, -47.2141, -11.9462, 29.2904, 13.5141, 67.2113, -166.595
5.66451, 5, -47.2561, -11.9989, 29.4044, 13.7735, 67.2852, -166.533
5.67221, 5, -47.2982, -12.0519, 29.5196, 14.0329, 67.3592, -166.47
5.68004, 5, -47.3406, -12.1051, 29.6358, 14.2923, 67.4323, -166.408
5.68894, 5, -47.3834, -12.1586, 29.7528, 14.5517, 67.5052, -166.346
5.69618, 5, -47.4269, -12.2126, 29.8704, 14.8112, 67.5766, -166.285
5.70402, 5, -47.4706, -12.2668, 29.9889, 15.0705, 67.6482, -166.223
5.71278, 5, -47.4926, -12.3215, 30.1085, 15.3303, 67.7183, -166.163
5.72002, 5, -47.5368, -12.349, 30.2292, 15.5901, 67.7889, -166.102
5.72821, 5, -47.5812, -12.4044, 30.29, 15.72, 67.8236, -166.042
5.73538, 5, -47.6257, -12.4599, 30.412, 15.9797, 67.8924, -166.012
5.74411, 5, -47.6705, -12.5157, 30.5347, 16.2395, 67.9613, -165.953
5.75421, 5, -47.738, -12.5996, 30.7203, 16.6291, 68.0632, -165.865
5.7594, 5, -47.7606, -12.6277, 30.7827, 16.759, 68.097, -165.836
5.76982, 5, -47.8284, -12.712, 30.9718, 17.1489, 68.1968, -165.749
5.7756, 5, -47.8512, -12.7403, 31.0353, 17.279, 68.2301, -165.719
5.78336, 5, -47.8966, -12.7967, 31.1628, 17.5391, 68.2956, -165.662
5.79143, 5, -47.9419, -12.8534, 31.2912, 17.7991, 68.3613, -165.605
5.80087, 5, -48.0099, -12.9388, 31.4854, 18.1894, 68.4575, -165.519
5.80744, 5, -48.0327, -12.9675, 31.5506, 18.3194, 68.4898, -165.491
5.81544, 5, -48.0786, -13.0251, 31.6817, 18.5796, 68.5534, -165.435
5.82353, 5, -48.125, -13.0831, 31.8138, 18.84, 68.6164, -165.379
5.83155, 5, -48.1716, -13.1415, 31.9467, 19.1005, 68.6794, -165.323
5.84098, 5, -48.2421, -13.2296, 32.1476, 19.4911, 68.772, -165.241
5.84901, 5, -48.2655, -13.2591, 32.2827, 19.7516, 68.8335, -165.186
5.85544, 5, -48.3125, -13.3182, 32.3505, 19.8819, 68.8638, -165.158
5.86338, 5, -48.3598, -13.3776, 32.4869, 20.1423, 68.9246, -165.104
5.87244, 5, -48.4071, -13.4371, 32.6244, 20.4028, 68.9847, -165.051
5.8794, 5, -48.4543, -13.4966, 32.7629, 20.6636, 69.0439, -164.997
5.88744, 5, -48.5016, -13.5563, 32.9021, 20.9243, 69.1034, -164.944
5.89552, 5, -48.5487, -13.616, 33.0421, 21.185, 69.1615, -164.892
5.90438, 5, -48.5946, -13.6756, 33.1829, 21.4455, 69.2203, -164.839
5.91244, 5, -48.6388, -13.7348, 33.324, 21.705, 69.2784, -164.784
5.92225, 5, -48.7014, -13.8223, 33.5353, 22.0894, 69.3661, -164.696
5.92754, 5, -48.721, -13.8509, 33.6049, 22.2154, 69.3962, -164.663
5.93637, 6, -48.7576, -13.907, 33.7424, 22.4619, 69.4563, -164.588
5.94692, 6, -48.8046, -13.9877, 33.9422, 22.8139, 69.5522, -164.45
5.95138, 6, -48.818, -14.0135, 34.0066, 22.9255, 69.5849, -164.395
5.95948, 6, -48.8407, -14.0633, 34.1318, 23.1393, 69.6535, -164.271
5.96745, 6, -48.8577, -14.1105, 34.2518, 23.3405, 69.7252, -164.127
5.97552, 7, -48.8687, -14.1548, 34.3667, 23.5296, 69.7997, -163.966
5.98337, 7, -48.8741, -14.1963, 34.4767, 23.7077, 69.8769, -163.788
5.99145, 7, -48.8747, -14.2352, 34.5823, 23.8763, 69.9563, -163.596
5.99943, 7, -48.8706, -14.2716, 34.6839, 24.0373, 70.038, -163.391
6.00741, 7, -48.8624, -14.3057, 34.7823, 24.1916, 70.1217, -163.176
6.01538, 7, -48.8507, -14.3381, 34.8779, 24.3404, 70.2067, -162.951
6.0236, 8, -48.8363, -14.3689, 34.9709, 24.4849, 70.2933, -162.719
6.03243, 8, -48.8194, -14.3983, 35.0617, 24.6258, 70.3814, -162.481
6.03939, 8, -48.8005, -14.4266, 35.1502, 24.764, 70.4703, -162.238
6.04749, 8, -48.7799, -14.4539, 35.237, 24.9003, 70.5605, -161.991
6.05544, 8, -48.7581, -14.4806, 35.3226, 25.0355, 70.6516, -161.741
6.06355, 9, -48.7356, -14.5064, 35.4073, 25.1697, 70.743, -161.489
6.07164, 9, -48.7122, -14.5316, 35.491, 25.3034, 70.8352, -161.235
6.08036, 9, -48.6881, -14.5563, 35.574, 25.4371, 70.9278, -160.98
6.08764, 9, -48.6633, -14.5806, 35.6561, 25.571, 71.0205, -160.725
6.09589, 9, -48.6377, -14.6043, 35.7375, 25.7054, 71.1134, -160.47
6.10338, 9, -48.6113, -14.6275, 35.8184, 25.8407, 71.2066, -160.215
6.11148, 10, -48.5848, -14.6506, 35.8991, 25.9768, 71.3001, -159.96
6.12046, 10, -48.5579, -14.6732, 35.9797, 26.1137, 71.3935, -159.706
6.12843, 10, -48.5307, -14.6957, 36.0601, 26.2512, 71.4872, -159.453
6.13641, 10, -48.5035, -14.7183, 36.1402, 26.3899, 71.581, -159.201
6.14477, 10, -48.476, -14.7406, 36.2201, 26.5295, 71.6742, -158.95
6.1526, 11, -48.4486, -14.7631, 36.2997, 26.6702, 71.7674, -158.699
6.16057, 11, -48.4213, -14.7856, 36.3791, 26.8119, 71.8607, -158.45
6.16773, 11, -48.3938, -14.808, 36.4584, 26.9541, 71.9534, -158.202
6.17588, 11, -48.3663, -14.8306, 36.5374, 27.0974, 72.0463, -157.955
6.18391, 11, -48.3385, -14.853, 36.6163, 27.2412, 72.1392, -157.708
6.19258, 11, -48.3101, -14.8753, 36.695, 27.3859, 72.2315, -157.462
6.20127, 12, -48.2816, -14.8977, 36.7736, 27.5314, 72.3239, -157.217
6.20937, 12, -48.2528, -14.9198, 36.8521, 27.6774, 72.4161, -156.973
6.21597, 12, -48.2382, -14.942, 36.9302, 27.8237, 72.5078, -156.73
6.22637, 12, -48.1938, -14.9642, 37.0081, 27.9706, 72.5995, -156.487
6.23239, 12, -48.1635, -14.9861, 37.0855, 28.1175, 72.6911, -156.245
6.23939, 13, -48.1483, -14.9971, 37.124, 28.191, 72.7368, -156.125
6.24949, 13, -48.102, -15.0302, 37.2393, 28.4125, 72.8732, -155.763
6.25548, 13, -48.0864, -15.0411, 37.2775, 28.4864, 72.9185, -155.643
6.26342, 13, -48.0548, -15.0631, 37.3538, 28.6341, 73.009, -155.403
6.27152, 13, -48.0227, -15.0852, 37.4298, 28.7818, 73.0991, -155.163
6.27958, 14, -47.99, -15.1071, 37.5054, 28.9294, 73.1893, -154.923
6.28873, 14, -47.9401, -15.14, 37.6179, 29.1508, 73.3242, -154.565
6.2954, 14, -47.9231, -15.151, 37.6552, 29.2248, 73.3688, -154.446
6.30484, 14, -47.8713, -15.1836, 37.7663, 29.4461, 73.5026, -154.089
6.31136, 14, -47.8536, -15.1945, 37.8031, 29.5198, 73.5472, -153.97
6.31961, 14, -47.8176, -15.2162, 37.8764, 29.6668, 73.6363, -153.732
6.32935, 15, -47.7624, -15.2484, 37.9856, 29.887, 73.769, -153.377
6.33538, 15, -47.7437, -15.2593, 38.0218, 29.9603, 73.8131, -153.258
6.34427, 15, -47.7058, -15.2808, 38.094, 30.1069, 73.9014, -153.022
6.35382, 15, -47.6671, -15.3023, 38.1657, 30.326, 74.0328, -152.668
6.35936, 15, -47.6279, -15.3241, 38.237, 30.3989, 74.0765, -152.55
6.36917, 16, -47.5881, -15.3457, 38.3079, 30.5445, 74.2071, -152.198
6.37619, 16, -47.5476, -15.3674, 38.3782, 30.6896, 74.2502, -152.08
6.38336, 16, -47.5065, -15.3892, 38.4481, 30.8347, 74.3366, -151.846
6.39396, 16, -47.4436, -15.4219, 38.5522, 31.0519, 74.4654, -151.497
6.39944, 16, -47.4223, -15.433, 38.5868, 31.1241, 74.5079, -151.381
6.40736, 16, -47.3791, -15.4552, 38.6557, 31.2684, 74.5926, -151.149
6.41538, 17, -47.3351, -15.4772, 38.7242, 31.4124, 74.6769, -150.918
6.42362, 17, -47.2906, -15.4995, 38.7925, 31.556, 74.7611, -150.687
6.43237, 17, -47.2453, -15.5221, 38.8604, 31.6995, 74.8443, -150.457
6.44043, 17, -47.1992, -15.5446, 38.9281, 31.8429, 74.9273, -150.228
6.44757, 17, -47.1525, -15.5675, 38.9954, 31.986, 75.0095, -150
6.45642, 18, -47.1052, -15.5906, 39.0625, 32.1289, 75.0914, -149.773
6.46437, 18, -47.0574, -15.6139, 39.1291, 32.2714, 75.1721, -149.548
6.47137, 18, -47.0089, -15.6375, 39.1955, 32.4137, 75.2525, -149.322
6.47943, 18, -46.9599, -15.6613, 39.2618, 32.5558, 75.3322, -149.098
6.48737, 18, -46.9102, -15.6855, 39.3277, 32.6979, 75.4109, -148.875
6.49555, 18, -46.8598, -15.7102, 39.3936, 32.8398, 75.4891, -148.653
6.50364, 19, -46.8089, -15.735, 39.4592, 32.9814, 75.5664, -148.432
6.51137, 19, -46.7572, -15.7602, 39.5246, 33.1226, 75.6433, -148.212
6.52051, 19, -46.7048, -15.7857, 39.5898, 33.2636, 75.7189, -147.993
6.52739, 19, -46.6517, -15.8115, 39.6547, 33.4043, 75.7942, -147.775
6.53545, 19, -46.5979, -15.8378, 39.7194, 33.5449, 75.8684, -147.559
6.54336, 20, -46.5434, -15.8643, 39.7838, 33.6852, 75.9423, -147.344
6.55344, 20, -46.4883, -15.8913, 39.848, 33.825, 76.0146, -147.129
6.55952, 20, -46.4324, -15.9186, 39.9121, 33.9647, 76.0867, -146.916
6.56745, 20, -46.3758, -15.9464, 39.9759, 34.1036, 76.1575, -146.704
6.57638, 20, -46.3188, -15.9746, 40.0394, 34.2425, 76.2283, -146.493
6.58347, 20, -46.261, -16.0031, 40.1029, 34.3811, 76.2972, -146.283
6.59158, 21, -46.2026, -16.032, 40.166, 34.5195, 76.3662, -146.074
6.59972, 21, -46.1435, -16.0614, 40.2289, 34.6571, 76.4336, -145.866
6.60849, 21, -46.0835, -16.0912, 40.2915, 34.7945, 76.5008, -145.659
6.61617, 21, -46.0227, -16.1212, 40.3537, 34.9313, 76.5668, -145.453
6.62378, 21, -45.9611, -16.1516, 40.4156, 35.0676, 76.6321, -145.249
6.63243, 22, -45.8986, -16.1823, 40.4772, 35.2034, 76.6971, -145.045
6.64021, 22, -45.8356, -16.2134, 40.5383, 35.3388, 76.7605, -144.841
6.6477, 22, -45.7717, -16.2448, 40.5992, 35.4736, 76.8242, -144.639
6.65638, 22, -45.707, -16.2765, 40.6598, 35.6078, 76.8858, -144.438
6.66377, 22, -45.6415, -16.3086, 40.72, 35.7413, 76.9477, -144.237
6.67226, 22, -45.5753, -16.3409, 40.7797, 35.8741, 77.0083, -144.037
6.68012, 23, -45.508, -16.3735, 40.839, 36.0062, 77.0683, -143.837
6.68851, 23, -45.44, -16.4062, 40.8978, 36.1379, 77.128, -143.639
6.69625, 23, -45.3711, -16.4393, 40.9561, 36.2688, 77.1859, -143.441
6.70476, 23, -45.3013, -16.4726, 41.0139, 36.3989, 77.2444, -143.243
6.71197, 23, -45.2307, -16.5061, 41.0711, 36.5281, 77.3011, -143.047
6.7201, 24, -45.1591, -16.5396, 41.1278, 36.6564, 77.3578, -142.85
6.72958, 24, -45.0866, -16.5735, 41.1839, 36.7839, 77.4142, -142.655
6.73536, 24, -45.05, -16.5904, 41.2117, 36.8474, 77.4416, -142.557
6.74511, 24, -44.9388, -16.6415, 41.2942, 37.0364, 77.524, -142.265
6.7524, 24, -44.8635, -16.6757, 41.3484, 37.1613, 77.578, -142.07
6.76033, 25, -44.8255, -16.6929, 41.402, 37.2851, 77.6311, -141.876
6.76734, 25, -44.7489, -16.7272, 41.4286, 37.3467, 77.658, -141.779
6.77552, 25, -44.6712, -16.7615, 41.4812, 37.4691, 77.7108, -141.585
6.78333, 25, -44.5928, -16.796, 41.533, 37.5901, 77.762, -141.392
6.79684, 25, -44.4327, -16.8647, 41.6345, 37.8299, 77.8649, -141.007
6.79949, 25, -44.4327, -16.8647, 41.6345, 37.8299, 77.8649, -141.007
6.80739, 26, -44.3512, -16.8991, 41.6841, 37.9484, 77.9148, -140.814
6.81771, 26, -44.2268, -16.9504, 41.7569, 38.1239, 77.9901, -140.526
6.82335, 26, -44.1849, -16.9675, 41.7807, 38.1818, 78.0144, -140.43
6.83379, 26, -44.0577, -17.0187, 41.851, 38.354, 78.087, -140.142
6.83942, 26, -44.0149, -17.0357, 41.874, 38.4108, 78.1114, -140.046
6.84754, 26, -43.9284, -17.0697, 41.9195, 38.5235, 78.1588, -139.854
6.85541, 27, -43.841, -17.1034, 41.9641, 38.6352, 78.2055, -139.662
6.86501, 27, -43.7526, -17.137, 42.0077, 38.7458, 78.2529, -139.375
6.87142, 27, -43.6633, -17.1705, 42.0505, 38.8554, 78.2992, -139.279
6.87935, 27, -43.573, -17.2038, 42.0925, 38.9637, 78.3444, -139.088
6.88736, 27, -43.4815, -17.2369, 42.1334, 39.0708, 78.3902, -138.897
6.89555, 28, -43.389, -17.2696, 42.1735, 39.1768, 78.4353, -138.706
6.90718, 28, -43.2485, -17.3186, 42.2319, 39.3336, 78.5014, -138.419
6.91141, 28, -43.2012, -17.3347, 42.2509, 39.3853, 78.5237, -138.324
6.92034, 28, -43.1058, -17.3669, 42.2882, 39.4877, 78.568, -138.133
6.92745, 28, -43.0094, -17.3988, 42.3246, 39.5892, 78.6108, -137.942
6.93539, 29, -42.9119, -17.4305, 42.3598, 39.6897, 78.6535, -137.751
6.94436, 29, -42.8134, -17.4619, 42.3943, 39.7887, 78.6964, -137.56
6.95371, 29, -42.7138, -17.493, 42.4278, 39.8867, 78.7384, -137.274
6.95941, 29, -42.6134, -17.5238, 42.4602, 39.9835, 78.7796, -137.179
6.97092, 29, -42.4609, -17.5696, 42.507, 40.1262, 78.8421, -136.893
6.97551, 29, -42.4096, -17.5847, 42.5222, 40.1733, 78.8626, -136.798
6.98435, 30, -42.3062, -17.6146, 42.5517, 40.2666, 78.9028, -136.607
6.99237, 30, -42.202, -17.6441, 42.5802, 40.3585, 78.9427, -136.417
6.99936, 30, -42.097, -17.6734, 42.6078, 40.4496, 78.9829, -136.226
7.00741, 30, -41.9909, -17.7023, 42.6345, 40.5395, 79.0225, -136.036
7.01535, 30, -41.8838, -17.7309, 42.6601, 40.6281, 79.0612, -135.846
7.02352, 31, -41.7758, -17.7591, 42.6846, 40.7157, 79.1001, -135.656
7.03259, 31, -41.6669, -17.7869, 42.7083, 40.802, 79.1391, -135.466
7.03934, 31, -41.557, -17.8145, 42.731, 40.8874, 79.1771, -135.276
7.04743, 31, -41.4461, -17.8415, 42.7529, 40.9713, 79.2142, -135.085
7.05538, 31, -41.3344, -17.8682, 42.7736, 41.0541, 79.2515, -134.896
7.06352, 31, -41.2218, -17.8945, 42.7935, 41.1362, 79.289, -134.706
7.07162, 32, -41.1084, -17.9206, 42.8124, 41.2167, 79.3255, -134.516
7.08033, 32, -40.9942, -17.9462, 42.8302, 41.2967, 79.3614, -134.326
7.08756, 32, -40.8792, -17.9714, 42.8471, 41.3752, 79.3975, -134.137
7.09597, 32, -40.7633, -17.9963, 42.8631, 41.4532, 79.4338, -133.948
7.10435, 32, -40.6466, -18.0206, 42.8781, 41.5293, 79.469, -133.759
7.11148, 33, -40.5288, -18.0448, 42.8919, 41.605, 79.5035, -133.57
7.12039, 33, -40.4102, -18.0685, 42.905, 41.6793, 79.538, -133.381
7.12837, 33, -40.2908, -18.0917, 42.9171, 41.7528, 79.5728, -133.192
7.13546, 33, -40.1707, -18.1146, 42.9281, 41.8246, 79.6067, -133.003
7.14477, 33, -40.0499, -18.1369, 42.9382, 41.896, 79.64, -132.815
7.15287, 34, -39.9282, -18.159, 42.9473, 41.9656, 79.673, -132.626
7.15969, 34, -39.8056, -18.1807, 42.9556, 42.0349, 79.7065, -132.438
7.16773, 34, -39.6821, -18.2017, 42.9631, 42.1024, 79.7395, -132.25
7.17639, 34, -39.5575, -18.2224, 42.9695, 42.17, 79.7716, -132.062
7.18465, 34, -39.4321, -18.2427, 42.975, 42.2357, 79.8032, -131.875
7.19187, 34, -39.3061, -18.2623, 42.9795, 42.301, 79.8349, -131.687
7.20073, 35, -39.1793, -18.2819, 42.9831, 42.3648, 79.8669, -131.5
7.20883, 35, -39.0519, -18.3009, 42.9858, 42.4279, 79.898, -131.313
7.21597, 35, -38.9236, -18.3194, 42.9876, 42.4897, 79.9285, -131.126
7.22635, 35, -38.7946, -18.3374, 42.9884, 42.5503, 79.9588, -130.939
7.23242, 35, -38.6647, -18.3551, 42.9886, 42.6105, 79.9895, -130.752
7.24019, 36, -38.5339, -18.3722, 42.9881, 42.6688, 80.02, -130.566
7.24824, 36, -38.4683, -18.3805, 42.9875, 42.698, 80.0349, -130.473
7.25532, 36, -38.3365, -18.3969, 42.9857, 42.7556, 80.0642, -130.287
7.26445, 36, -38.1376, -18.4208, 42.9812, 42.8393, 80.1074, -130.008
7.27147, 36, -38.0709, -18.4285, 42.9792, 42.8672, 80.1219, -129.915
7.28075, 36, -37.9369, -18.4505, 42.9717, 42.9475, 80.1656, -129.637
7.28873, 37, -37.7349, -18.4646, 42.9655, 43.0007, 80.1939, -129.452
7.29535, 37, -37.6671, -18.4717, 42.9621, 43.027, 80.2078, -129.359
7.30473, 37, -37.4628, -18.4919, 42.9502, 43.1031, 80.2491, -129.082
7.31132, 37, -37.3943, -18.4982, 42.9457, 43.1284, 80.2629, -128.99
7.31954, 37, -37.2568, -18.5106, 42.9362, 43.1783, 80.2907, -128.806
7.32749, 38, -37.1186, -18.5228, 42.9257, 43.2263, 80.3181, -128.621
7.33533, 38, -36.9799, -18.5345, 42.9142, 43.2736, 80.3448, -128.437
7.34482, 38, -36.8404, -18.5459, 42.9019, 43.3205, 80.3709, -128.253
7.35294, 38, -36.7001, -18.5564, 42.8817, 43.3876, 80.4097, -127.978
7.36035, 38, -36.5589, -18.5664, 42.8746, 43.4098, 80.4227, -127.887
7.36924, 38, -36.4172, -18.5805, 42.8516, 43.4751, 80.4616, -127.612
7.37739, 39, -36.2031, -18.5892, 42.835, 43.5164, 80.4869, -127.43
7.38335, 39, -36.1314, -18.5935, 42.8264, 43.5367, 80.4993, -127.338
7.39394, 39, -35.9154, -18.6057, 42.7993, 43.5976, 80.5363, -127.065
7.39942, 39, -35.843, -18.6095, 42.7898, 43.6172, 80.5486, -126.975
7.40733, 39, -35.6978, -18.6166, 42.7703, 43.6552, 80.5736, -126.793
7.4153, 40, -35.552, -18.623, 42.7499, 43.6926, 80.5984, -126.611
7.42351, 40, -35.4056, -18.6289, 42.7284, 43.7297, 80.6225, -126.43
7.43391, 40, -35.1847, -18.6372, 42.6946, 43.7827, 80.6577, -126.159
7.44034, 40, -35.1108, -18.6397, 42.6828, 43.7997, 80.6692, -126.069
7.45044, 40, -34.888, -18.6463, 42.6466, 43.8497, 80.7037, -125.798
7.45541, 40, -34.8134, -18.6483, 42.6341, 43.8663, 80.7153, -125.709
7.46334, 41, -34.6639, -18.652, 42.6083, 43.8985, 80.7385, -125.529
7.47152, 41, -34.514, -18.6552, 42.5819, 43.9292, 80.7611, -125.349
7.47938, 41, -34.3632, -18.658, 42.5546, 43.9587, 80.7833, -125.17
7.48733, 41, -34.2118, -18.6604, 42.5264, 43.9877, 80.8048, -124.991
7.49547, 41, -34.06, -18.6623, 42.4973, 44.0162, 80.8264, -124.813
7.50547, 42, -33.9074, -18.6638, 42.4675, 44.0436, 80.8479, -124.635
7.51235, 42, -33.7541, -18.6649, 42.4369, 44.0695, 80.8697, -124.457
7.52011, 42, -33.6002, -18.6655, 42.4055, 44.0944, 80.8912, -124.279
7.52847, 42, -33.4456, -18.6657, 42.3732, 44.1183, 80.9122, -124.102
7.53533, 42, -33.2904, -18.6658, 42.3402, 44.1417, 80.9326, -123.925
7.54439, 43, -33.1346, -18.6656, 42.3065, 44.1645, 80.9527, -123.748
7.5515, 43, -32.9781, -18.6651, 42.2718, 44.1861, 80.9725, -123.572
7.55937, 43, -32.821, -18.664, 42.2365, 44.2065, 80.9922, -123.396
7.56942, 43, -32.6634, -18.6624, 42.2004, 44.2258, 81.0121, -123.22
7.57634, 43, -32.5052, -18.6603, 42.1634, 44.2439, 81.0317, -123.045
7.58344, 43, -32.3463, -18.6576, 42.1257, 44.2611, 81.051, -122.87
7.59144, 44, -32.1868, -18.6544, 42.0873, 44.2776, 81.0698, -122.695
7.60028, 44, -32.0268, -18.6507, 42.0478, 44.2934, 81.0882, -122.521
7.61088, 44, -31.8663, -18.6464, 42.0077, 44.3085, 81.1063, -122.347
7.61535, 44, -31.7053, -18.6417, 41.9669, 44.3225, 81.1243, -122.173
7.62382, 44, -31.5441, -18.6363, 41.9253, 44.3353, 81.1423, -122
7.6326, 45, -31.3821, -18.6303, 41.8829, 44.347, 81.1604, -121.827
7.63939, 45, -31.2196, -18.6237, 41.8396, 44.3574, 81.1783, -121.654
7.64751, 45, -31.0563, -18.6168, 41.7957, 44.3667, 81.1958, -121.481
7.65553, 45, -30.8924, -18.6094, 41.751, 44.375, 81.2129, -121.309
7.66461, 45, -30.7279, -18.6014, 41.7055, 44.3823, 81.2295, -121.138
7.67205, 45, -30.5626, -18.5926, 41.6593, 44.3884, 81.2458, -120.966
7.68007, 46, -30.3967, -18.5834, 41.6122, 44.3937, 81.262, -120.795
7.68879, 46, -30.2302, -18.5737, 41.5644, 44.3979, 81.2782, -120.624
7.69586, 46, -30.0632, -18.5635, 41.5158, 44.401, 81.2944, -120.453
7.70452, 46, -29.8956, -18.5529, 41.4664, 44.4032, 81.3108, -120.283
7.71214, 46, -29.7274, -18.5417, 41.4163, 44.4044, 81.327, -120.114
7.72012, 47, -29.5585, -18.5297, 41.3652, 44.405, 81.3428, -119.944
7.72829, 47, -29.389, -18.517, 41.3134, 44.4051, 81.3582, -119.774
7.73586, 47, -29.3039, -18.5104, 41.2872, 44.405, 81.3658, -119.689
7.74492, 47, -29.048, -18.4901, 41.2073, 44.4028, 81.3884, -119.435
7.75241, 47, -28.8768, -18.4758, 41.153, 44.3997, 81.4033, -119.267
7.75938, 47, -28.791, -18.4683, 41.1256, 44.3976, 81.4107, -119.182
7.7674, 48, -28.619, -18.4528, 41.0702, 44.3926, 81.4257, -119.014
7.7755, 48, -28.4464, -18.437, 41.0139, 44.3863, 81.4408, -118.846
7.78461, 48, -28.1864, -18.4124, 40.9279, 44.3747, 81.4638, -118.594
7.79132, 48, -28.0995, -18.4037, 40.8989, 44.3702, 81.4714, -118.51
7.79946, 48, -27.9254, -18.3859, 40.8401, 44.3602, 81.4864, -118.343
7.80736, 49, -27.7505, -18.3677, 40.7805, 44.3489, 81.5011, -118.175
7.81542, 49, -27.5746, -18.3487, 40.7199, 44.3362, 81.5156, -118.008
7.82335, 49, -27.3978, -18.329, 40.6584, 44.322, 81.53, -117.841
7.8329, 49, -27.1316, -18.2981, 40.5645, 44.2978, 81.5515, -117.591
7.8409, 49, -26.9535, -18.2766, 40.5008, 44.2797, 81.566, -117.424
7.84933, 50, -26.7747, -18.2543, 40.4362, 44.2608, 81.5807, -117.257
7.85538, 50, -26.6851, -18.2429, 40.4036, 44.2509, 81.5882, -117.174
7.86434, 50, -26.5054, -18.2196, 40.3378, 44.2303, 81.6034, -117.007
7.87298, 50, -26.3249, -18.1957, 40.2711, 44.2086, 81.6186, -116.841
7.87938, 50, -26.1437, -18.171, 40.2034, 44.1853, 81.6338, -116.675
7.88843, 50, -25.9617, -18.1454, 40.1349, 44.1601, 81.6489, -116.509
7.89547, 51, -25.779, -18.1193, 40.0654, 44.1337, 81.6639, -116.343
7.90416, 51, -25.596, -18.0922, 39.9949, 44.1064, 81.679, -116.177
7.91132, 51, -25.4125, -18.0645, 39.9235, 44.078, 81.6942, -116.011
7.92024, 51, -25.2288, -18.036, 39.8511, 44.0483, 81.7097, -115.845
7.92839, 51, -25.0445, -18.0067, 39.7778, 44.0164, 81.7256, -115.68
7.9355, 51, -24.8594, -17.9767, 39.7036, 43.9831, 81.742, -115.514
7.94434, 52, -24.6732, -17.9459, 39.6285, 43.9491, 81.7586, -115.348
7.95147, 52, -24.4859, -17.9143, 39.5526, 43.9138, 81.7753, -115.182
7.96033, 52, -24.2979, -17.8818, 39.4757, 43.8764, 81.7918, -115.017
7.97082, 52, -24.0147, -17.8316, 39.3585, 43.8179, 81.8166, -114.768
7.97544, 52, -23.9199, -17.8145, 39.3189, 43.7981, 81.8249, -114.686
7.98331, 53, -23.73, -17.7795, 39.239, 43.7571, 81.8415, -114.52
7.9914, 53, -23.5394, -17.7438, 39.1581, 43.7137, 81.8586, -114.355
7.99933, 53, -23.3482, -17.7072, 39.0763, 43.6697, 81.8762, -114.189
8.00738, 53, -23.1564, -17.67, 38.9937, 43.6246, 81.8943, -114.024
8.01531, 53, -22.9634, -17.6319, 38.9102, 43.5771, 81.9127, -113.858
8.02352, 54, -22.7698, -17.5931, 38.8257, 43.529, 81.9309, -113.693
8.03139, 54, -22.5756, -17.5536, 38.7403, 43.4798, 81.9493, -113.528
8.03932, 54, -22.3809, -17.5131, 38.6538, 43.4278, 81.9678, -113.363
8.04739, 54, -22.1859, -17.4718, 38.5664, 43.3752, 81.9864, -113.197
8.05552, 54, -21.9905, -17.4298, 38.478, 43.3212, 82.0055, -113.032
8.06338, 54, -21.7944, -17.387, 38.3888, 43.2647, 82.0253, -112.866
8.07165, 55, -21.5971, -17.3433, 38.2988, 43.2082, 82.0456, -112.701
8.0804, 55, -21.3989, -17.2988, 38.208, 43.149, 82.0659, -112.536
8.08741, 55, -21.1994, -17.2534, 38.1162, 43.0887, 82.0862, -112.371
8.09543, 55, -20.9991, -17.2073, 38.0234, 43.0269, 82.1064, -112.206
8.10352, 55, -20.7981, -17.1604, 37.9297, 42.963, 82.1267, -112.04
8.11148, 56, -20.5967, -17.1126, 37.835, 42.8984, 82.1475, -111.875
8.11962, 56, -20.3949, -17.0643, 37.7394, 42.8312, 82.1688, -111.71
8.12846, 56, -20.1921, -17.0152, 37.6432, 42.7636, 82.1906, -111.545
8.13546, 56, -19.9882, -16.9653, 37.5461, 42.6936, 82.2125, -111.381
8.14547, 56, -19.7832, -16.9148, 37.4482, 42.6228, 82.2342, -111.216
8.15179, 56, -19.5777, -16.8637, 37.3494, 42.5498, 82.2561, -111.051
8.16033, 57, -19.372, -16.8118, 37.2495, 42.4755, 82.2781, -110.886
8.17036, 57, -19.1658, -16.7592, 37.1488, 42.3994, 82.3007, -110.721
8.17572, 57, -18.9593, -16.7059, 37.0473, 42.3219, 82.324, -110.556
8.18454, 57, -18.7522, -16.6519, 36.9451, 42.2423, 82.3475, -110.392
8.1921, 57, -18.5442, -16.5972, 36.8423, 42.1614, 82.3709, -110.227
8.2024, 58, -18.3349, -16.5416, 36.7386, 42.0788, 82.3943, -110.063
8.20887, 58, -18.124, -16.4854, 36.634, 41.9944, 82.4177, -109.899
8.21642, 58, -17.9119, -16.4284, 36.5284, 41.9085, 82.4417, -109.734
8.22449, 58, -17.6993, -16.3707, 36.4219, 41.821, 82.4662, -109.57
8.23191, 58, -17.5928, -16.3416, 36.3685, 41.7768, 82.4912, -109.406
8.23996, 58, -17.3794, -16.283, 36.2612, 41.6867, 82.5036, -109.242
8.24875, 59, -17.0575, -16.1939, 36.099, 41.5484, 82.5409, -109.078
8.25532, 59, -16.9497, -16.1639, 36.0445, 41.5016, 82.5534, -108.996
8.26336, 59, -16.7335, -16.1034, 35.9347, 41.4063, 82.5787, -108.832
8.27145, 59, -16.5163, -16.0423, 35.824, 41.3093, 82.6048, -108.668
8.2793, 59, -16.2982, -15.9805, 35.7126, 41.2105, 82.6314, -108.503
8.28864, 60, -15.9704, -15.8866, 35.5444, 41.0589, 82.671, -108.258
8.2955, 60, -15.8613, -15.8549, 35.4881, 41.0074, 82.6842, -108.176
8.30473, 60, -15.6431, -15.7589, 35.3177, 40.8508, 82.724, -107.93
8.3113, 60, -15.4237, -15.7264, 35.2604, 40.7976, 82.7376, -107.848
8.32114, 60, -15.0912, -15.6279, 35.0871, 40.6355, 82.7795, -107.602
8.32937, 61, -14.8676, -15.5613, 34.9708, 40.5251, 82.8075, -107.438
8.33531, 61, -14.7555, -15.5277, 34.9125, 40.469, 82.8215, -107.356
8.34588, 61, -14.4174, -15.426, 34.7367, 40.2985, 82.8639, -107.11
8.35136, 61, -14.3042, -15.3919, 34.6777, 40.2408, 82.8783, -107.029
8.36171, 61, -14.0769, -15.323, 34.4991, 40.0647, 82.923, -106.783
8.3673, 61, -13.8488, -15.2533, 34.4391, 40.0051, 82.9379, -106.701
8.3772, 62, -13.6197, -15.183, 34.2582, 39.8235, 82.9827, -106.454
8.3833, 62, -13.3896, -15.112, 34.1977, 39.762, 82.9976, -106.372
8.3913, 62, -13.1587, -15.0402, 34.0761, 39.6374, 83.0283, -106.208
8.3993, 62, -12.928, -14.9678, 33.9538, 39.5107, 83.0599, -106.043
8.40731, 62, -12.6973, -14.8945, 33.8303, 39.382, 83.0917, -105.879
8.41555, 63, -12.466, -14.8203, 33.7061, 39.2516, 83.1235, -105.714
8.42351, 63, -12.2334, -14.7454, 33.5811, 39.1192, 83.1557, -105.549
8.43377, 63, -11.8821, -14.6316, 33.3927, 38.9168, 83.2062, -105.302
8.44031, 63, -11.7644, -14.5932, 33.3296, 38.8483, 83.2234, -105.219
8.44837, 63, -11.5278, -14.5159, 33.2026, 38.7096, 83.2576, -105.054
8.45638, 63, -11.2893, -14.4377, 33.0747, 38.5689, 83.2919, -104.889
8.46436, 64, -11.0495, -14.3587, 32.946, 38.4263, 83.3273, -104.723
8.47246, 64, -10.8084, -14.2789, 32.8167, 38.2816, 83.3638, -104.558
8.47927, 64, -10.5656, -14.1982, 32.6866, 38.135, 83.4003, -104.391
8.4873, 64, -10.321, -14.1165, 32.5559, 37.9861, 83.437, -104.225
8.49567, 64, -10.0759, -14.034, 32.4244, 37.8351, 83.4749, -104.058
8.5045, 65, -9.83096, -13.9505, 32.292, 37.6818, 83.5141, -103.891
8.5123, 65, -9.5863, -13.8662, 32.1589, 37.5265, 83.553, -103.724
8.52134, 65, -9.3418, -13.7809, 32.0252, 37.3692, 83.5925, -103.557
8.52836, 65, -9.09677, -13.6947, 31.8907, 37.2099, 83.6335, -103.39
8.53552, 65, -8.85029, -13.6075, 31.7555, 37.0483, 83.6755, -103.221
8.5433, 65, -8.60169, -13.5193, 31.6198, 36.8845, 83.7174, -103.053
8.55151, 66, -8.35141, -13.4303, 31.4832, 36.7188, 83.7605, -102.885
8.56035, 66, -8.10004, -13.3402, 31.3458, 36.5509, 83.805, -102.716
8.56737, 66, -7.84716, -13.2493, 31.2078, 36.3812, 83.8494, -102.547
8.57632, 66, -7.59214, -13.1574, 31.0693, 36.2092, 83.8945, -102.378
8.58339, 66, -7.33498, -13.0646, 30.9302, 36.0348, 83.9413, -102.209
8.59146, 67, -7.07669, -12.9707, 30.7904, 35.8586, 83.9883, -102.038
8.59959, 67, -6.81798, -12.8759, 30.6498, 35.6802, 84.0361, -101.868
8.6075, 67, -6.55917, -12.7801, 30.5084, 35.4997, 84.0858, -101.697
8.61535, 67, -6.30065, -12.6832, 30.3667, 35.317, 84.1355, -101.526
8.62391, 67, -6.04183, -12.5854, 30.2246, 35.1321, 84.1859, -101.355
8.6323, 67, -5.78175, -12.4866, 30.0819, 34.9454, 84.2381, -101.183
8.63935, 68, -5.52036, -12.387, 29.9385, 34.7565, 84.2903, -101.011
8.64847, 68, -5.25809, -12.2863, 29.7944, 34.5654, 84.3439, -100.839
8.6563, 68, -4.9946, -12.1847, 29.65, 34.3722, 84.3989, -100.666
8.66437, 68, -4.72891, -12.082, 29.5051, 34.1771, 84.4537, -100.494
8.67193, 68, -4.46124, -11.9784, 29.3597, 33.9799, 84.5105, -100.32
8.6801, 69, -4.19167, -11.8738, 29.2139, 33.7808, 84.5677, -100.147
8.68859, 69, -3.92042, -11.7683, 29.0678, 33.5794, 84.6259, -99.973
8.69581, 69, -3.6487, -11.662, 28.9214, 33.3761, 84.6856, -99.7987
8.7044, 69, -3.37738, -11.5546, 28.7745, 33.1709, 84.7451, -99.6238
8.71186, 69, -3.10583, -11.4461, 28.627, 32.9639, 84.8068, -99.4488
8.72012, 69, -2.83324, -11.3367, 28.4792, 32.7549, 84.8687, -99.2734
8.72951, 70, -2.55966, -11.2262, 28.3313, 32.5438, 84.932, -99.0981
8.73525, 70, -2.42258, -11.1707, 28.2573, 32.4376, 84.9643, -99.0103
8.74483, 70, -2.01018, -11.0028, 28.0347, 32.1163, 85.0609, -98.7457
8.75129, 70, -1.87224, -10.9464, 27.9603, 32.0082, 85.0941, -98.6576
8.75933, 70, -1.59557, -10.8329, 27.8114, 31.7907, 85.1604, -98.4809
8.76729, 71, -1.31718, -10.7183, 27.6626, 31.5713, 85.2281, -98.304
8.77787, 71, -1.03636, -10.6026, 27.4392, 31.2391, 85.331, -98.0383
8.78335, 71, -0.754336, -10.4861, 27.3646, 31.1273, 85.366, -97.9496
8.79452, 71, -0.330935, -10.3098, 27.1405, 30.7894, 85.4723, -97.6824
8.79928, 71, -0.189645, -10.2506, 27.0658, 30.6761, 85.5083, -97.5931
8.80753, 72, 0.0935882, -10.1315, 26.9165, 30.448, 85.5812, -97.4143
8.81533, 72, 0.377667, -10.0113, 26.767, 30.2183, 85.6544, -97.2351
8.82535, 72, 0.80512, -9.82919, 26.5427, 29.8708, 85.7666, -96.9662
8.83124, 72, 0.947879, -9.76802, 26.4679, 29.7541, 85.8046, -96.8764
8.83935, 72, 1.23341, -9.64508, 26.3186, 29.5198, 85.8812, -96.6966
8.84745, 72, 1.5197, -9.52133, 26.1694, 29.2839, 85.9584, -96.5163
8.8555, 73, 1.80791, -9.39667, 26.0201, 29.0464, 86.037, -96.3358
8.86335, 73, 2.09765, -9.27094, 25.8708, 28.8078, 86.1166, -96.155
8.87231, 73, 2.38793, -9.1441, 25.722, 28.5676, 86.197, -95.9739
8.87934, 73, 2.67851, -9.01641, 25.5735, 28.3261, 86.2788, -95.7928
8.8884, 73, 2.96958, -8.88774, 25.4249, 28.0834, 86.3616, -95.6109
8.89544, 74, 3.26127, -8.75821, 25.2764, 27.8395, 86.4457, -95.4288
8.90352, 74, 3.5543, -8.62769, 25.1283, 27.5943, 86.5305, -95.2462
8.91235, 74, 3.84799, -8.49592, 24.9806, 27.3477, 86.6164, -95.0632
8.92031, 74, 4.14132, -8.3632, 24.8333, 27.1001, 86.7039, -94.88
8.92731, 74, 4.43455, -8.2295, 24.686, 26.8515, 86.792, -94.6966
8.93535, 74, 4.72875, -8.09487, 24.5389, 26.6018, 86.8815, -94.5126
8.94438, 75, 5.02392, -7.95945, 24.3925, 26.3515, 86.9721, -94.3282
8.95143, 75, 5.31991, -7.82295, 24.2466, 26.1001, 87.0638, -94.1434
8.95935, 75, 5.61629, -7.68512, 24.101, 25.8478, 87.157, -93.9585
8.97078, 75, 6.06028, -7.47645, 23.8832, 25.4682, 87.299, -93.6807
8.97528, 75, 6.20841, -7.4064, 23.8108, 25.3413, 87.3467, -93.5879
8.98335, 76, 6.50576, -7.26569, 23.6665, 25.0871, 87.4432, -93.402
8.99128, 76, 6.80377, -7.12382, 23.5229, 24.8322, 87.5413, -93.2153
9.00109, 76, 7.10138, -6.98065, 23.3796, 24.5768, 87.6404, -93.0283
9.00735, 76, 7.3986, -6.83639, 23.2368, 24.321, 87.7408, -92.8408
9.01528, 76, 7.69585, -6.69104, 23.0944, 24.0647, 87.8427, -92.6531
9.02444, 76, 7.9936, -6.54489, 22.9528, 23.8078, 87.9458, -92.465
9.0323, 77, 8.29244, -6.39767, 22.8118, 23.5508, 88.0503, -92.2764
9.0393, 77, 8.59121, -6.24899, 22.6715, 23.2936, 88.1562, -92.0873
9.04734, 77, 8.88904, -6.09908, 22.5316, 23.0362, 88.2632, -91.8977
9.05529, 77, 9.18672, -5.94805, 22.3923, 22.779, 88.3717, -91.7079
9.06334, 77, 9.48511, -5.79607, 22.2538, 22.5217, 88.4816, -91.5178
9.07158, 78, 9.78372, -5.64288, 22.1161, 22.2644, 88.5926, -91.3273
9.08031, 78, 10.0819, -5.48814, 21.979, 22.0074, 88.7053, -91.1359
9.08743, 78, 10.3795, -5.33208, 21.8424, 21.7506, 88.8188, -90.9442
9.09539, 78, 10.6763, -5.17505, 21.7066, 21.4939, 88.934, -90.7518
9.10339, 78, 10.973, -5.01724, 21.5716, 21.2377, 89.0506, -90.5589
9.11166, 78, 11.2705, -4.85815, 21.4373, 20.9821, 89.1681, -90.3657
9.12051, 79, 11.5675, -4.69751, 21.3038, 20.7267, 89.2876, -90.1721
9.12829, 79, 11.8635, -4.53575, 21.1709, 20.4718, 89.408, -89.9777
9.13538, 79, 12.1589, -4.37315, 21.0388, 20.2178, 89.5299, -89.7828
9.14543, 79, 12.4538, -4.20958, 20.9075, 19.9643, 89.6534, -89.5876
9.15167, 79, 12.7483, -4.04415, 20.777, 19.7117, 89.7781, -89.3917
9.16029, 80, 13.0423, -3.87689, 20.6473, 19.46, 89.9044, -89.1954
9.17021, 80, 13.3349, -3.70854, 20.5184, 19.2092, 90.0317, -88.9987
9.17628, 80, 13.6264, -3.53948, 20.3902, 18.9595, 90.1609, -88.8009
9.18371, 80, 13.918, -3.36889, 20.2628, 18.7107, 90.2913, -88.6025
9.19233, 80, 14.2099, -3.19629, 20.1363, 18.4633, 90.423, -88.4032
9.20046, 80, 14.5008, -3.02227, 20.0108, 18.217, 90.5563, -88.2037
9.20843, 81, 14.7904, -2.84749, 19.886, 17.9718, 90.691, -88.0035
9.2159, 81, 15.0787, -2.67173, 19.7618, 17.7282, 90.827, -87.8026
9.22445, 81, 15.3659, -2.49397, 19.6384, 17.486, 90.9645, -87.6009
9.2327, 81, 15.5093, -2.40435, 19.5159, 17.2452, 91.1035, -87.3986
9.24, 81, 15.7956, -2.13389, 19.3943, 17.0058, 91.244, -87.1955
9.24816, 82, 16.0806, -2.04347, 19.3337, 16.8868, 91.3862, -86.9921
9.25525, 82, 16.3637, -1.86171, 19.2132, 16.6499, 91.4578, -86.8902
9.26333, 82, 16.6454, -1.67771, 19.0932, 16.4148, 91.6022, -86.6853
9.27238, 82, 17.0675, -1.3984, 18.9149, 16.0654, 91.8216, -86.3765
9.27936, 82, 17.2079, -1.30483, 18.856, 15.95, 91.8956, -86.273
9.28747, 83, 17.488, -1.11664, 18.7387, 15.7207, 92.0442, -86.0657
9.29542, 83, 17.7667, -0.926344, 18.6223, 15.4932, 92.1948, -85.8577
9.30547, 83, 18.1807, -0.637331, 18.4485, 15.1558, 92.4233, -85.544
9.31132, 83, 18.3177, -0.540569, 18.3909, 15.0444, 92.5005, -85.439
9.32115, 83, 18.7269, -0.248123, 18.2195, 14.7137, 92.7335, -85.1226
9.32878, 83, 18.8625, -0.149688, 18.1629, 14.6045, 92.8908, -84.9108
9.33679, 84, 19.2658, 0.147583, 17.994, 14.2805, 93.0496, -84.6982
9.34596, 84, 19.5326, 0.347159, 17.8821, 14.0676, 93.2101, -84.4847
9.35288, 84, 19.6657, 0.548807, 17.7706, 13.8569, 93.3719, -84.27
9.3617, 84, 19.9316, 0.752556, 17.66, 13.6487, 93.5351, -84.0544
9.36727, 84, 20.1968, 0.854811, 17.6052, 13.5456, 93.6173, -83.9462
9.37794, 85, 20.5925, 1.16316, 17.4418, 13.2402, 93.8661, -83.6206
9.38576, 85, 20.7233, 1.26686, 17.3878, 13.1397, 93.9495, -83.5116
9.39126, 85, 20.9829, 1.47571, 17.28, 12.9407, 94.1176, -83.2927
9.39927, 85, 21.2399, 1.68582, 17.1726, 12.7442, 94.2869, -83.0729
9.4073, 85, 21.4952, 1.89737, 17.0661, 12.5508, 94.4575, -82.8524
9.41529, 85, 21.7487, 2.11102, 16.9606, 12.3603, 94.6294, -82.6309
9.42342, 86, 21.9994, 2.32597, 16.8561, 12.1726, 94.8026, -82.4087
9.43227, 86, 22.2477, 2.54154, 16.7524, 11.9878, 94.9771, -82.1852
9.43928, 86, 22.4943, 2.75884, 16.6493, 11.8058, 95.1528, -81.9607
9.44727, 86, 22.7399, 2.97793, 16.5467, 11.627, 95.3298, -81.7353
9.45527, 86, 22.9845, 3.19798, 16.4449, 11.4513, 95.5079, -81.509
9.46327, 87, 23.228, 3.41969, 16.3443, 11.2785, 95.6871, -81.2821
9.47151, 87, 23.47, 3.64331, 16.2448, 11.1087, 95.8672, -81.054
9.47924, 87, 23.7092, 3.86763, 16.1462, 10.942, 96.0483, -80.8252
9.48726, 87, 23.9452, 4.09259, 16.0483, 10.7786, 96.2301, -80.5955
9.49532, 87, 24.1786, 4.31887, 15.9511, 10.6183, 96.4125, -80.3652
9.50327, 87, 24.4098, 4.54582, 15.8547, 10.4611, 96.5956, -80.1341
9.51137, 88, 24.6388, 4.77318, 15.7594, 10.3069, 96.7791, -79.9021
9.51949, 88, 24.8652, 5.00187, 15.6654, 10.156, 96.9631, -79.6693
9.52837, 88, 25.0896, 5.23175, 15.5725, 10.0084, 97.1477, -79.4356
9.53529, 88, 25.3126, 5.46189, 15.4805, 9.86388, 97.3324, -79.2015
9.54369, 88, 25.5337, 5.69285, 15.3894, 9.72264, 97.5174, -78.9668
9.55251, 89, 25.753, 5.9249, 15.2992, 9.58467, 97.7027, -78.7311
9.55949, 89, 25.9708, 6.15722, 15.2101, 9.44988, 97.8878, -78.4951
9.56926, 89, 26.1868, 6.39037, 15.1221, 9.31821, 98.0734, -78.2584
9.57626, 89, 26.4004, 6.62481, 15.0354, 9.18992, 98.259, -78.0214
9.58343, 89, 26.6118, 6.85944, 14.9499, 9.06485, 98.4449, -77.7832
9.59159, 90, 26.8207, 7.0943, 14.8654, 8.94328, 98.6307, -77.5446
9.60139, 90, 27.0272, 7.33008, 14.782, 8.82473, 98.8165, -77.3052
9.60743, 90, 27.2316, 7.56609, 14.6997, 8.70952, 99.0023, -77.0654
9.61532, 90, 27.4334, 7.80262, 14.6185, 8.59755, 99.1879, -76.8254
9.62392, 90, 27.6326, 8.0405, 14.5383, 8.4885, 99.3732, -76.5845
9.63226, 90, 27.8297, 8.27874, 14.4593, 8.38289, 99.5583, -76.3431
9.63937, 91, 28.0249, 8.51662, 14.3815, 8.28048, 99.7433, -76.1012
9.64855, 91, 28.218, 8.75497, 14.3047, 8.18131, 99.9279, -75.8589
9.65626, 91, 28.4091, 8.9935, 14.2291, 8.08566, 100.113, -75.6161
9.66345, 91, 28.5987, 9.23214, 14.1545, 7.9931, 100.297, -75.3725
9.67156, 91, 28.7866, 9.47188, 14.0809, 7.9036, 100.481, -75.1283
9.67974, 91, 28.9725, 9.71215, 14.0082, 7.81763, 100.665, -74.8834
9.68842, 92, 29.1565, 9.95208, 13.9366, 7.73442, 100.849, -74.6382
9.6971, 92, 29.3381, 10.1926, 13.8659, 7.65455, 101.032, -74.392
9.70437, 92, 29.5177, 10.4336, 13.7961, 7.57786, 101.216, -74.1452
9.71257, 92, 29.6953, 10.6748, 13.7274, 7.50471, 101.399, -73.8979
9.71984, 92, 29.8706, 10.9168, 13.6597, 7.43415, 101.582, -73.6499
9.72842, 93, 30.0436, 11.1595, 13.593, 7.36765, 101.765, -73.4011
9.73664, 93, 30.1292, 11.2807, 13.527, 7.30365, 101.948, -73.1512
9.74595, 93, 30.2983, 11.5231, 13.4944, 7.27336, 102.039, -73.026
9.75298, 93, 30.5476, 11.8881, 13.3979, 7.18654, 102.313, -72.6491
9.76037, 93, 30.7111, 12.1318, 13.3347, 7.13288, 102.495, -72.3972
9.76722, 94, 30.792, 12.254, 13.3034, 7.10768, 102.586, -72.2707
9.77716, 94, 31.0322, 12.6228, 13.2109, 7.03499, 102.859, -71.8903
9.78332, 94, 31.1114, 12.7458, 13.1805, 7.01258, 102.95, -71.7631
9.79125, 94, 31.2682, 12.9917, 13.1204, 6.9709, 103.131, -71.5081
9.79925, 94, 31.4232, 13.2382, 13.0612, 6.93197, 103.313, -71.2525
9.80725, 94, 31.5764, 13.4844, 13.003, 6.89554, 103.493, -70.9958
9.8153, 95, 31.7276, 13.7304, 12.9456, 6.86285, 103.674, -70.7383
9.82485, 95, 31.9511, 14.1009, 12.8614, 6.82057, 103.944, -70.3508
9.83277, 95, 32.098, 14.3475, 12.8064, 6.7962, 104.123, -70.0915
9.84174, 95, 32.243, 14.5943, 12.7523, 6.77459, 104.302, -69.8314
9.84903, 95, 32.3859, 14.8412, 12.6992, 6.75601, 104.48, -69.5708
9.85529, 96, 32.4565, 14.9645, 12.6731, 6.74782, 104.569, -69.4402
9.86563, 96, 32.596, 15.2109, 12.5962, 6.72788, 104.833, -69.0474
9.87125, 96, 32.7329, 15.458, 12.5711, 6.72289, 104.921, -68.916
9.87931, 96, 32.868, 15.7049, 12.5216, 6.71532, 105.096, -68.6528
9.88725, 96, 33.0011, 15.9511, 12.4732, 6.71084, 105.27, -68.389
9.89627, 96, 33.1321, 16.1976, 12.4259, 6.70882, 105.444, -68.125
9.90333, 97, 33.2609, 16.4438, 12.3797, 6.70855, 105.616, -67.8605
9.91125, 97, 33.3876, 16.6895, 12.3348, 6.71103, 105.788, -67.5952
9.91929, 97, 33.5121, 16.9357, 12.2909, 6.71722, 105.958, -67.3296
9.92727, 97, 33.6351, 17.1818, 12.2481, 6.72655, 106.127, -67.0636
9.93524, 97, 33.7568, 17.427, 12.2063, 6.73919, 106.296, -66.7973
9.9433, 98, 33.8771, 17.6723, 12.1656, 6.75527, 106.463, -66.5301
9.95127, 98, 33.996, 17.9169, 12.1261, 6.77445, 106.629, -66.2624
9.95926, 98, 34.1131, 18.1608, 12.0876, 6.79626, 106.795, -65.9944
9.96729, 98, 34.2287, 18.4051, 12.0501, 6.8205, 106.959, -65.7261
9.97528, 98, 34.3426, 18.6491, 12.0138, 6.84724, 107.122, -65.4571
9.98346, 99, 34.4552, 18.8922, 11.9784, 6.87719, 107.283, -65.1877
9.99129, 99, 34.5664, 19.1351, 11.9441, 6.91046, 107.444, -64.9179
9.99929, 99, 34.6762, 19.3775, 11.9109, 6.94596, 107.604, -64.6477
10.0072, 99, 34.7845, 19.619, 11.8787, 6.98336, 107.762, -64.3766
10.0154, 99, 34.8909, 19.8605, 11.8475, 7.0235, 107.919, -64.1051
10.0233, 99, 34.9953, 20.1015, 11.8174, 7.06701, 108.075, -63.8335
10.0312, 100, 35.0981, 20.3409, 11.7886, 7.112, 108.229, -63.5617
10.0393, 100, 35.1994, 20.5797, 11.7609, 7.15974, 108.382, -63.2896
10.0473, 100, 35.2992, 20.8177, 11.7343, 7.21045, 108.533, -63.0176
10.0552, 100, 35.3977, 21.0543, 11.7091, 7.2624, 108.682, -62.7458
10.0633, 100, 35.4948, 21.2906, 11.6852, 7.31671, 108.83, -62.4744
10.0715, 101, 35.5904, 21.5263, 11.6627, 7.37368, 108.975, -62.2031
10.0793, 101, 35.6847, 21.7601, 11.6415, 7.43151, 109.118, -61.9327
10.0874, 101, 35.7776, 21.9923, 11.6219, 7.49226, 109.258, -61.6628
10.0953, 101, 35.8693, 22.2232, 11.6039, 7.5537, 109.396, -61.3944
10.1038, 101, 35.9601, 22.4517, 11.5871, 7.6176, 109.531, -61.1269
10.1114, 101, 36.0499, 22.6784, 11.5717, 7.68285, 109.663, -60.8603
10.1193, 102, 36.1388, 22.9042, 11.558, 7.74965, 109.792, -60.5949
10.1279, 102, 36.2266, 23.1283, 11.5455, 7.81816, 109.919, -60.3307
10.1363, 102, 36.3131, 23.3506, 11.5343, 7.8877, 110.044, -60.0672
10.1433, 102, 36.3986, 23.5724, 11.5241, 7.95928, 110.166, -59.804
10.1516, 102, 36.4829, 23.7937, 11.5149, 8.03203, 110.286, -59.5411
10.1617, 103, 36.5661, 24.0143, 11.5067, 8.10707, 110.405, -59.278
10.1675, 103, 36.6486, 24.2345, 11.4991, 8.184, 110.524, -59.0143
10.1756, 103, 36.7302, 24.454, 11.4922, 8.26342, 110.643, -58.7492
10.1837, 103, 36.8111, 24.6707, 11.4862, 8.34518, 110.761, -58.4837
10.1917, 103, 36.8913, 24.8844, 11.4812, 8.4289, 110.878, -58.2179
10.1998, 103, 36.9705, 25.0958, 11.4774, 8.51502, 110.992, -57.9532
10.2084, 104, 37.0487, 25.3041, 11.4752, 8.60279, 111.101, -57.6904
10.2158, 104, 37.1259, 25.5093, 11.4748, 8.69204, 111.205, -57.4312
10.2244, 104, 37.202, 25.7126, 11.4766, 8.78218, 111.302, -57.1765
10.2318, 104, 37.2396, 25.9143, 11.4809, 8.87315, 111.392, -56.9268
10.2403, 104, 37.351, 26.1125, 11.4872, 8.96464, 111.475, -56.6818
10.2472, 104, 37.3878, 26.2101, 11.4909, 9.01046, 111.515, -56.5606
10.2553, 104, 37.4609, 26.4031, 11.4995, 9.10298, 111.591, -56.321
10.2643, 104, 37.5696, 26.688, 11.5143, 9.24308, 111.699, -55.9659
10.2712, 104, 37.6056, 26.7814, 11.5194, 9.29008, 111.734, -55.8485
10.2792, 104, 37.6772, 26.9661, 11.53, 9.38504, 111.803, -55.614
10.2886, 104, 37.7839, 27.2418, 11.5461, 9.52887, 111.906, -55.2634
10.2952, 104, 37.8192, 27.3336, 11.5514, 9.57717, 111.94, -55.1468
10.3045, 104, 37.9245, 27.6077, 11.5674, 9.72341, 112.041, -54.7978
10.3113, 104, 37.9594, 27.699, 11.5727, 9.77268, 112.075, -54.6817
10.3208, 104, 38.0638, 27.9739, 11.5884, 9.92125, 112.175, -54.3337
10.3288, 104, 38.1331, 28.1578, 11.5988, 10.0214, 112.242, -54.1023
10.3353, 104, 38.1676, 28.2496, 11.604, 10.072, 112.275, -53.9866
10.3449, 104, 38.2711, 28.5255, 11.6197, 10.2245, 112.375, -53.6405
10.3528, 104, 38.3396, 28.7103, 11.63, 10.3276, 112.441, -53.4101
10.3593, 104, 38.3737, 28.803, 11.6351, 10.3794, 112.474, -53.2949
10.369, 104, 38.4754, 29.0806, 11.6506, 10.5357, 112.572, -52.95
10.3752, 104, 38.5092, 29.1729, 11.6557, 10.5883, 112.605, -52.8351
10.3833, 104, 38.5765, 29.3582, 11.6658, 10.694, 112.67, -52.606
10.3923, 104, 38.6433, 29.5439, 11.6759, 10.8005, 112.735, -52.3774
10.3992, 104, 38.7098, 29.7291, 11.6857, 10.9078, 112.8, -52.1488
10.4073, 104, 38.7758, 29.914, 11.6956, 11.0158, 112.865, -51.9205
10.4152, 104, 38.8413, 30.0994, 11.7054, 11.1249, 112.93, -51.6927
10.4232, 104, 38.9066, 30.2856, 11.715, 11.2347, 112.993, -51.4651
10.4313, 104, 38.9714, 30.4716, 11.7246, 11.3453, 113.058, -51.238
10.4392, 104, 39.0359, 30.6572, 11.7342, 11.4568, 113.121, -51.0109
10.4473, 104, 39.1, 30.8434, 11.7438, 11.5689, 113.185, -50.784
10.4552, 104, 39.1638, 31.0301, 11.7533, 11.6818, 113.248, -50.5575
10.4632, 104, 39.2273, 31.2164, 11.7629, 11.7956, 113.311, -50.3315
10.4713, 104, 39.2906, 31.4023, 11.7723, 11.9101, 113.374, -50.1058
10.4792, 104, 39.3536, 31.5887, 11.7817, 12.0256, 113.436, -49.8802
10.4872, 104, 39.4164, 31.7758, 11.791, 12.1419, 113.499, -49.6551
10.4953, 104, 39.4791, 31.9627, 11.8002, 12.259, 113.56, -49.4302
10.5032, 104, 39.5416, 32.1491, 11.8093, 12.3766, 113.622, -49.2059
10.5112, 104, 39.6038, 32.3357, 11.8184, 12.4949, 113.684, -48.9818
10.5194, 104, 39.6659, 32.5231, 11.8273, 12.614, 113.745, -48.7577
10.5273, 104, 39.7276, 32.7104, 11.8361, 12.7339, 113.806, -48.534
10.5352, 104, 39.789, 32.897, 11.845, 12.8546, 113.866, -48.3107
10.5433, 104, 39.8501, 33.0838, 11.8538, 12.9761, 113.927, -48.088
10.5514, 104, 39.9107, 33.2713, 11.8625, 13.0982, 113.987, -47.8655
10.5592, 104, 39.9705, 33.4578, 11.8712, 13.221, 114.048, -47.6434
10.5673, 104, 40.0289, 33.6417, 11.8796, 13.3441, 114.108, -47.422
10.5753, 104, 40.0857, 33.8225, 11.8877, 13.4672, 114.166, -47.2019
10.5833, 104, 40.1404, 33.9983, 11.8953, 13.5895, 114.226, -46.9851
10.5914, 104, 40.1928, 34.1666, 11.9021, 13.7097, 114.282, -46.7733
10.5994, 104, 40.243, 34.3263, 11.9083, 13.8255, 114.337, -46.5697
10.6073, 104, 40.2902, 34.4764, 11.9139, 13.9351, 114.389, -46.3779
10.6154, 104, 40.3337, 34.6151, 11.919, 14.0362, 114.436, -46.2016
10.6232, 104, 40.3733, 34.7416, 11.9241, 14.1272, 114.478, -46.0438
10.6312, 104, 40.4088, 34.8557, 11.9291, 14.2065, 114.515, -45.9065
10.6395, 104, 40.4404, 34.9562, 11.9339, 14.2739, 114.545, -45.7911
10.6473, 104, 40.4673, 35.042, 11.9382, 14.3285, 114.569, -45.6964
10.6554, 104, 40.4894, 35.1133, 11.9422, 14.3725, 114.588, -45.6221
10.6637, 104, 40.5073, 35.1714, 11.9457, 14.4056, 114.603, -45.5655
10.6715, 104, 40.5214, 35.2174, 11.9487, 14.4296, 114.613, -45.5242
10.6795, 104, 40.5318, 35.2526, 11.9513, 14.4459, 114.62, -45.4958
10.688, 104, 40.5391, 35.2782, 11.9534, 14.4564, 114.624, -45.4773
10.6963, 104, 40.544, 35.2965, 11.9551, 14.4628, 114.627, -45.4663
10.7037, 104, 40.5477, 35.3092, 11.9564, 14.4663, 114.628, -45.4602
10.7123, 105, 40.5502, 35.3176, 11.9573, 14.4681, 114.629, -45.4571
10.7198, 105, 40.5515, 35.3225, 11.9579, 14.4691, 114.629, -45.4558
10.7284, 105, 40.5515, 35.3253, 11.9584, 14.4695, 114.63, -45.4552
10.7359, 105, 40.551, 35.3271, 11.9589, 14.4697, 114.63, -45.455
10.7444, 105, 40.5506, 35.3284, 11.9593, 14.4698, 114.63, -45.4551
10.7512, 105, 40.5503, 35.3289, 11.9595, 14.4699, 114.63, -45.4551
10.7603, 105, 40.5499, 35.3305, 11.96, 14.47, 114.63, -45.4553
10.7672, 105, 40.5499, 35.331, 11.9601, 14.47, 114.63, -45.4554
10.7766, 105, 40.5499, 35.3323, 11.9606, 14.47, 114.63, -45.4558
10.7833, 105, 40.5499, 35.3327, 11.9608, 14.47, 114.63, -45.4559
10.7925, 105, 40.5503, 35.3336, 11.9612, 14.4701, 114.63, -45.4562
10.7992, 105, 40.5505, 35.3339, 11.9613, 14.4701, 114.63, -45.4563
10.8073, 105, 40.551, 35.3342, 11.9615, 14.4701, 114.63, -45.4564
10.8152, 105, 40.5515, 35.3344, 11.9615, 14.4701, 114.63, -45.4564
10.8247, 105, 40.5524, 35.3346, 11.9615, 14.4701, 114.63, -45.4565
10.8333, 105, 40.5529, 35.3346, 11.9616, 14.4701, 114.63, -45.4565
