rpiRobotics/ARM-21-02-F-19-Robot-Motion-Program/data_performance_abb/curve_2/dual_arm/diffevo_pose6/grad_result/real/run_5.csv
timestamp,cmd_num,J1,J2,J3,J4,J5,J6,J1_2,J2_2,J3_2,J4_2,J5_2,J6_2
1.510999980382621288e-03,-1.000000000000000000e+00,5.492905616760253906e+00,1.202481555938720703e+01,3.508060836791992188e+01,-1.087820434570312500e+02,9.036620330810546875e+01,-6.516045379638671875e+01,5.363646697998046875e+01,-1.548905372619628906e+01,-1.037324752807617188e+02,-1.146968383789062500e+02,6.423976135253906250e+01,-3.491080474853515625e+01
2.979000099003314972e-03,-1.000000000000000000e+00,5.492848396301269531e+00,1.202481555938720703e+01,3.508068847656250000e+01,-1.087820434570312500e+02,9.036620330810546875e+01,-6.516045379638671875e+01,5.363646697998046875e+01,-1.548905372619628906e+01,-1.037324752807617188e+02,-1.146968383789062500e+02,6.423976135253906250e+01,-3.491080474853515625e+01
5.543000064790248871e-03,-1.000000000000000000e+00,5.492848396301269531e+00,1.202486038208007812e+01,3.508060836791992188e+01,-1.087819824218750000e+02,9.036631011962890625e+01,-6.516045379638671875e+01,5.363646697998046875e+01,-1.548905372619628906e+01,-1.037324752807617188e+02,-1.146968383789062500e+02,6.423976135253906250e+01,-3.491080474853515625e+01
7.433000020682811737e-03,-1.000000000000000000e+00,5.492848396301269531e+00,1.202486038208007812e+01,3.508060836791992188e+01,-1.087819824218750000e+02,9.036631011962890625e+01,-6.516045379638671875e+01,5.363646697998046875e+01,-1.548905372619628906e+01,-1.037324752807617188e+02,-1.146968383789062500e+02,6.423976135253906250e+01,-3.491080474853515625e+01
1.142499968409538269e-02,-1.000000000000000000e+00,5.492704868316650391e+00,1.202486038208007812e+01,3.508064651489257812e+01,-1.087818832397460938e+02,9.036631011962890625e+01,-6.516045379638671875e+01,5.363646697998046875e+01,-1.548905372619628906e+01,-1.037324752807617188e+02,-1.146968383789062500e+02,6.423960876464843750e+01,-3.491069030761718750e+01
1.550600025802850723e-02,-1.000000000000000000e+00,5.492848396301269531e+00,1.202486038208007812e+01,3.508068847656250000e+01,-1.087819824218750000e+02,9.036620330810546875e+01,-6.516045379638671875e+01,5.363646697998046875e+01,-1.548905372619628906e+01,-1.037324752807617188e+02,-1.146968383789062500e+02,6.423976135253906250e+01,-3.491069030761718750e+01
1.944399997591972351e-02,-1.000000000000000000e+00,5.492762088775634766e+00,1.202486038208007812e+01,3.508064651489257812e+01,-1.087820434570312500e+02,9.036631011962890625e+01,-6.516045379638671875e+01,5.363646697998046875e+01,-1.548905372619628906e+01,-1.037324752807617188e+02,-1.146968383789062500e+02,6.423976135253906250e+01,-3.491069030761718750e+01
2.343899942934513092e-02,-1.000000000000000000e+00,5.492848396301269531e+00,1.202486038208007812e+01,3.508064651489257812e+01,-1.087818832397460938e+02,9.036631011962890625e+01,-6.516045379638671875e+01,5.363646697998046875e+01,-1.548909854888916016e+01,-1.037324752807617188e+02,-1.146968383789062500e+02,6.423976135253906250e+01,-3.491080474853515625e+01
2.751700021326541901e-02,-1.000000000000000000e+00,5.492848396301269531e+00,1.202486038208007812e+01,3.508064651489257812e+01,-1.087820434570312500e+02,9.036620330810546875e+01,-6.516045379638671875e+01,5.363646697998046875e+01,-1.548905372619628906e+01,-1.037324752807617188e+02,-1.146968383789062500e+02,6.423960876464843750e+01,-3.491080474853515625e+01
3.175200149416923523e-02,-1.000000000000000000e+00,5.492762088775634766e+00,1.202486038208007812e+01,3.508064651489257812e+01,-1.087818298339843750e+02,9.036620330810546875e+01,-6.516045379638671875e+01,5.363646697998046875e+01,-1.548905372619628906e+01,-1.037324752807617188e+02,-1.146968383789062500e+02,6.423960876464843750e+01,-3.491080474853515625e+01
3.825400024652481079e-02,2.000000000000000000e+00,5.492848396301269531e+00,1.202481555938720703e+01,3.508064651489257812e+01,-1.087820434570312500e+02,9.036620330810546875e+01,-6.516045379638671875e+01,5.363646697998046875e+01,-1.548896217346191406e+01,-1.037325286865234375e+02,-1.146968383789062500e+02,6.423960876464843750e+01,-3.491080474853515625e+01
4.758200049400329590e-02,2.000000000000000000e+00,5.492762088775634766e+00,1.202486038208007812e+01,3.508064651489257812e+01,-1.087818832397460938e+02,9.036631011962890625e+01,-6.516045379638671875e+01,5.363630294799804688e+01,-1.548905372619628906e+01,-1.037324752807617188e+02,-1.146968383789062500e+02,6.423976135253906250e+01,-3.491080474853515625e+01
5.421299859881401062e-02,2.000000000000000000e+00,5.492848396301269531e+00,1.202481555938720703e+01,3.508064651489257812e+01,-1.087819824218750000e+02,9.036631011962890625e+01,-6.516045379638671875e+01,5.363646697998046875e+01,-1.548905372619628906e+01,-1.037325286865234375e+02,-1.146968383789062500e+02,6.423960876464843750e+01,-3.491080474853515625e+01
5.888999998569488525e-02,2.000000000000000000e+00,5.492762088775634766e+00,1.202486038208007812e+01,3.508070755004882812e+01,-1.087819824218750000e+02,9.036631011962890625e+01,-6.516045379638671875e+01,5.363630294799804688e+01,-1.548905372619628906e+01,-1.037324752807617188e+02,-1.146968383789062500e+02,6.423976135253906250e+01,-3.491069030761718750e+01
9.873899817466735840e-02,2.000000000000000000e+00,5.492905616760253906e+00,1.202486038208007812e+01,3.508064651489257812e+01,-1.087818298339843750e+02,9.036631011962890625e+01,-6.516045379638671875e+01,5.363646697998046875e+01,-1.548905372619628906e+01,-1.037324752807617188e+02,-1.146968383789062500e+02,6.423976135253906250e+01,-3.491080474853515625e+01
1.000140011310577393e-01,2.000000000000000000e+00,5.492905616760253906e+00,1.202486038208007812e+01,3.508064651489257812e+01,-1.087818298339843750e+02,9.036631011962890625e+01,-6.516045379638671875e+01,5.363646697998046875e+01,-1.548905372619628906e+01,-1.037324752807617188e+02,-1.146968383789062500e+02,6.423976135253906250e+01,-3.491080474853515625e+01
1.036430001258850098e-01,2.000000000000000000e+00,5.492905616760253906e+00,1.202486038208007812e+01,3.508068847656250000e+01,-1.087819824218750000e+02,9.036620330810546875e+01,-6.516045379638671875e+01,5.363646697998046875e+01,-1.548905372619628906e+01,-1.037324752807617188e+02,-1.146968383789062500e+02,6.423960876464843750e+01,-3.491080474853515625e+01
1.059760004281997681e-01,2.000000000000000000e+00,5.492905616760253906e+00,1.202486038208007812e+01,3.508068847656250000e+01,-1.087819824218750000e+02,9.036620330810546875e+01,-6.516045379638671875e+01,5.363646697998046875e+01,-1.548905372619628906e+01,-1.037324752807617188e+02,-1.146968383789062500e+02,6.423960876464843750e+01,-3.491080474853515625e+01
1.103900000452995300e-01,2.000000000000000000e+00,5.492905616760253906e+00,1.202481555938720703e+01,3.508064651489257812e+01,-1.087819824218750000e+02,9.036641693115234375e+01,-6.516045379638671875e+01,5.363646697998046875e+01,-1.548905372619628906e+01,-1.037324752807617188e+02,-1.146968383789062500e+02,6.423960876464843750e+01,-3.491080474853515625e+01
1.119379997253417969e-01,2.000000000000000000e+00,5.493250370025634766e+00,1.202454376220703125e+01,3.508064651489257812e+01,-1.087820434570312500e+02,9.036631011962890625e+01,-6.516045379638671875e+01,5.363646697998046875e+01,-1.548905372619628906e+01,-1.037324752807617188e+02,-1.146968383789062500e+02,6.423960876464843750e+01,-3.491080474853515625e+01
1.145140007138252258e-01,2.000000000000000000e+00,5.493824481964111328e+00,1.202391052246093750e+01,3.508064651489257812e+01,-1.087819824218750000e+02,9.036620330810546875e+01,-6.516045379638671875e+01,5.363630294799804688e+01,-1.548905372619628906e+01,-1.037324752807617188e+02,-1.146968383789062500e+02,6.423976135253906250e+01,-3.491069030761718750e+01
1.158920004963874817e-01,2.000000000000000000e+00,5.493824481964111328e+00,1.202391052246093750e+01,3.508064651489257812e+01,-1.087819824218750000e+02,9.036620330810546875e+01,-6.516045379638671875e+01,5.363630294799804688e+01,-1.548905372619628906e+01,-1.037324752807617188e+02,-1.146968383789062500e+02,6.423976135253906250e+01,-3.491069030761718750e+01
1.197279989719390869e-01,2.000000000000000000e+00,5.493824481964111328e+00,1.202391052246093750e+01,3.508064651489257812e+01,-1.087819824218750000e+02,9.036620330810546875e+01,-6.516045379638671875e+01,5.363608551025390625e+01,-1.548919105529785156e+01,-1.037319793701171875e+02,-1.146968383789062500e+02,6.423976135253906250e+01,-3.491069030761718750e+01
1.313779950141906738e-01,2.000000000000000000e+00,5.503383636474609375e+00,1.201386260986328125e+01,3.508064651489257812e+01,-1.087825698852539062e+02,9.036641693115234375e+01,-6.516059112548828125e+01,5.362971496582031250e+01,-1.549106693267822266e+01,-1.037255706787109375e+02,-1.146988525390625000e+02,6.423713684082031250e+01,-3.491267013549804688e+01
1.327680051326751709e-01,2.000000000000000000e+00,5.503383636474609375e+00,1.201386260986328125e+01,3.508064651489257812e+01,-1.087825698852539062e+02,9.036641693115234375e+01,-6.516059112548828125e+01,5.362971496582031250e+01,-1.549106693267822266e+01,-1.037255706787109375e+02,-1.146988525390625000e+02,6.423713684082031250e+01,-3.491267013549804688e+01
1.353210061788558960e-01,2.000000000000000000e+00,5.507402896881103516e+00,1.200843143463134766e+01,3.508057022094726562e+01,-1.087840957641601562e+02,9.036652374267578125e+01,-6.516092681884765625e+01,5.362471389770507812e+01,-1.549147891998291016e+01,-1.037242660522460938e+02,-1.146997070312500000e+02,6.423407745361328125e+01,-3.491464996337890625e+01
1.366479992866516113e-01,2.000000000000000000e+00,5.507402896881103516e+00,1.200843143463134766e+01,3.508057022094726562e+01,-1.087840957641601562e+02,9.036652374267578125e+01,-6.516092681884765625e+01,5.362471389770507812e+01,-1.549147891998291016e+01,-1.037242660522460938e+02,-1.146997070312500000e+02,6.423407745361328125e+01,-3.491464996337890625e+01
1.421190053224563599e-01,2.000000000000000000e+00,5.512311458587646484e+00,1.200143814086914062e+01,3.508054733276367188e+01,-1.087870941162109375e+02,9.036652374267578125e+01,-6.516161346435546875e+01,5.361828613281250000e+01,-1.549152469635009766e+01,-1.037233352661132812e+02,-1.147015838623046875e+02,6.422911834716796875e+01,-3.491651535034179688e+01
1.447830051183700562e-01,2.000000000000000000e+00,5.518023967742919922e+00,1.199277114868164062e+01,3.508042526245117188e+01,-1.087917327880859375e+02,9.036668395996093750e+01,-6.516330718994140625e+01,5.360971832275390625e+01,-1.549065589904785156e+01,-1.037224655151367188e+02,-1.147040939331054688e+02,6.422445678710937500e+01,-3.491805648803710938e+01
1.474490016698837280e-01,2.000000000000000000e+00,5.525200843811035156e+00,1.198190879821777344e+01,3.508008193969726562e+01,-1.087978897094726562e+02,9.036689758300781250e+01,-6.516615295410156250e+01,5.359867858886718750e+01,-1.548932743072509766e+01,-1.037225799560546875e+02,-1.147083282470703125e+02,6.422270202636718750e+01,-3.491970062255859375e+01
1.487080007791519165e-01,2.000000000000000000e+00,5.525200843811035156e+00,1.198190879821777344e+01,3.508008193969726562e+01,-1.087978897094726562e+02,9.036689758300781250e+01,-6.516615295410156250e+01,5.359867858886718750e+01,-1.548932743072509766e+01,-1.037225799560546875e+02,-1.147083282470703125e+02,6.422270202636718750e+01,-3.491970062255859375e+01
1.550669968128204346e-01,2.000000000000000000e+00,5.543601989746093750e+00,1.195328235626220703e+01,3.507859420776367188e+01,-1.088169097900390625e+02,9.036732482910156250e+01,-6.517490386962890625e+01,5.356774902343750000e+01,-1.548763465881347656e+01,-1.037329101562500000e+02,-1.147229766845703125e+02,6.422037506103515625e+01,-3.492530441284179688e+01
1.563339978456497192e-01,2.000000000000000000e+00,5.543601989746093750e+00,1.195328235626220703e+01,3.507859420776367188e+01,-1.088169097900390625e+02,9.036732482910156250e+01,-6.517490386962890625e+01,5.356774902343750000e+01,-1.548763465881347656e+01,-1.037329101562500000e+02,-1.147229766845703125e+02,6.422037506103515625e+01,-3.492530441284179688e+01
1.588760018348693848e-01,2.000000000000000000e+00,5.554625511169433594e+00,1.193612861633300781e+01,3.507748031616210938e+01,-1.088305587768554688e+02,9.036774444580078125e+01,-6.518066406250000000e+01,5.354648971557617188e+01,-1.548589515686035156e+01,-1.037350845336914062e+02,-1.147342529296875000e+02,6.421936035156250000e+01,-3.493068695068359375e+01
1.601649969816207886e-01,2.000000000000000000e+00,5.554625511169433594e+00,1.193612861633300781e+01,3.507748031616210938e+01,-1.088305587768554688e+02,9.036774444580078125e+01,-6.518066406250000000e+01,5.354648971557617188e+01,-1.548589515686035156e+01,-1.037350845336914062e+02,-1.147342529296875000e+02,6.421936035156250000e+01,-3.493068695068359375e+01
1.644719988107681274e-01,2.000000000000000000e+00,5.554625511169433594e+00,1.193612861633300781e+01,3.507748031616210938e+01,-1.088305587768554688e+02,9.036774444580078125e+01,-6.518066406250000000e+01,5.354648971557617188e+01,-1.548589515686035156e+01,-1.037350845336914062e+02,-1.147342529296875000e+02,6.421936035156250000e+01,-3.493068695068359375e+01
1.672369986772537231e-01,2.000000000000000000e+00,5.579313278198242188e+00,1.189630031585693359e+01,3.507392120361328125e+01,-1.088681106567382812e+02,9.036898040771484375e+01,-6.519768524169921875e+01,5.349029541015625000e+01,-1.548237037658691406e+01,-1.037429199218750000e+02,-1.147672882080078125e+02,6.421688079833984375e+01,-3.494683837890625000e+01
1.710070073604583740e-01,2.000000000000000000e+00,5.593034744262695312e+00,1.187421321868896484e+01,3.507121658325195312e+01,-1.088929672241210938e+02,9.036982727050781250e+01,-6.520894622802734375e+01,5.345425796508789062e+01,-1.547930240631103516e+01,-1.037499313354492188e+02,-1.147904663085937500e+02,6.421542358398437500e+01,-3.495826339721679688e+01
1.723099946975708008e-01,2.000000000000000000e+00,5.593034744262695312e+00,1.187421321868896484e+01,3.507121658325195312e+01,-1.088929672241210938e+02,9.036982727050781250e+01,-6.520894622802734375e+01,5.345425796508789062e+01,-1.547930240631103516e+01,-1.037499313354492188e+02,-1.147904663085937500e+02,6.421542358398437500e+01,-3.495826339721679688e+01
1.749259978532791138e-01,2.000000000000000000e+00,5.593034744262695312e+00,1.187421321868896484e+01,3.507121658325195312e+01,-1.088929672241210938e+02,9.036982727050781250e+01,-6.520894622802734375e+01,5.341394042968750000e+01,-1.547504520416259766e+01,-1.037578201293945312e+02,-1.148179016113281250e+02,6.421389770507812500e+01,-3.497309494018554688e+01
1.786479949951171875e-01,2.000000000000000000e+00,5.607904911041259766e+00,1.185036087036132812e+01,3.506800079345703125e+01,-1.089228363037109375e+02,9.037074279785156250e+01,-6.522142028808593750e+01,5.341394042968750000e+01,-1.547504520416259766e+01,-1.037578201293945312e+02,-1.148179016113281250e+02,6.421389770507812500e+01,-3.497309494018554688e+01
1.800979971885681152e-01,2.000000000000000000e+00,5.623751640319824219e+00,1.182472133636474609e+01,3.506420135498046875e+01,-1.089559173583984375e+02,9.037148284912109375e+01,-6.523559570312500000e+01,5.337015914916992188e+01,-1.546987342834472656e+01,-1.037669067382812500e+02,-1.148511505126953125e+02,6.421192932128906250e+01,-3.499078369140625000e+01
1.813780069351196289e-01,2.000000000000000000e+00,5.623751640319824219e+00,1.182472133636474609e+01,3.506420135498046875e+01,-1.089559173583984375e+02,9.037148284912109375e+01,-6.523559570312500000e+01,5.337015914916992188e+01,-1.546987342834472656e+01,-1.037669067382812500e+02,-1.148511505126953125e+02,6.421192932128906250e+01,-3.499078369140625000e+01
1.848679929971694946e-01,2.000000000000000000e+00,5.640602588653564453e+00,1.179713535308837891e+01,3.505990982055664062e+01,-1.089909973144531250e+02,9.037249755859375000e+01,-6.525173187255859375e+01,5.332319641113281250e+01,-1.546373939514160156e+01,-1.037787094116210938e+02,-1.148884124755859375e+02,6.420980834960937500e+01,-3.500957107543945312e+01
1.883939951658248901e-01,2.000000000000000000e+00,5.658544063568115234e+00,1.176737689971923828e+01,3.505533599853515625e+01,-1.090293502807617188e+02,9.037355804443359375e+01,-6.526937103271484375e+01,5.327320480346679688e+01,-1.545687198638916016e+01,-1.037925186157226562e+02,-1.149303512573242188e+02,6.420732879638671875e+01,-3.503099060058593750e+01
1.908340007066726685e-01,2.000000000000000000e+00,5.658544063568115234e+00,1.176737689971923828e+01,3.505533599853515625e+01,-1.090293502807617188e+02,9.037355804443359375e+01,-6.526937103271484375e+01,5.322063827514648438e+01,-1.544909095764160156e+01,-1.038074798583984375e+02,-1.149763031005859375e+02,6.420434570312500000e+01,-3.505615234375000000e+01
1.921200007200241089e-01,2.000000000000000000e+00,5.677490711212158203e+00,1.173558235168457031e+01,3.505045318603515625e+01,-1.090729598999023438e+02,9.037473297119140625e+01,-6.528829193115234375e+01,5.322063827514648438e+01,-1.544909095764160156e+01,-1.038074798583984375e+02,-1.149763031005859375e+02,6.420434570312500000e+01,-3.505615234375000000e+01
1.934909969568252563e-01,2.000000000000000000e+00,5.677490711212158203e+00,1.173558235168457031e+01,3.505045318603515625e+01,-1.090729598999023438e+02,9.037473297119140625e+01,-6.528829193115234375e+01,5.322063827514648438e+01,-1.544909095764160156e+01,-1.038074798583984375e+02,-1.149763031005859375e+02,6.420434570312500000e+01,-3.505615234375000000e+01
2.009489983320236206e-01,2.000000000000000000e+00,5.718110561370849609e+00,1.166656112670898438e+01,3.503943634033203125e+01,-1.091671371459960938e+02,9.037724304199218750e+01,-6.533068084716796875e+01,5.310698318481445312e+01,-1.543210697174072266e+01,-1.038395080566406250e+02,-1.150766983032226562e+02,6.419771575927734375e+01,-3.511163330078125000e+01
2.034039944410324097e-01,2.000000000000000000e+00,5.739353656768798828e+00,1.162965106964111328e+01,3.503347778320312500e+01,-1.092162857055664062e+02,9.037889099121093750e+01,-6.535379791259765625e+01,5.304403305053710938e+01,-1.542313575744628906e+01,-1.038562622070312500e+02,-1.151294631958007812e+02,6.419494628906250000e+01,-3.514074707031250000e+01
2.047410011291503906e-01,2.000000000000000000e+00,5.739353656768798828e+00,1.162965106964111328e+01,3.503347778320312500e+01,-1.092162857055664062e+02,9.037889099121093750e+01,-6.535379791259765625e+01,5.304403305053710938e+01,-1.542313575744628906e+01,-1.038562622070312500e+02,-1.151294631958007812e+02,6.419494628906250000e+01,-3.514074707031250000e+01
2.082329988479614258e-01,2.000000000000000000e+00,5.761429309844970703e+00,1.159129428863525391e+01,3.502725982666015625e+01,-1.092680664062500000e+02,9.038049316406250000e+01,-6.537780761718750000e+01,5.297745513916015625e+01,-1.541398048400878906e+01,-1.038727416992187500e+02,-1.151837539672851562e+02,6.419196319580078125e+01,-3.517107009887695312e+01
2.116349935531616211e-01,2.000000000000000000e+00,5.761429309844970703e+00,1.159129428863525391e+01,3.502725982666015625e+01,-1.092680664062500000e+02,9.038049316406250000e+01,-6.537780761718750000e+01,5.290818786621093750e+01,-1.540487003326416016e+01,-1.038893814086914062e+02,-1.152385406494140625e+02,6.418853759765625000e+01,-3.520204925537109375e+01
2.129230052232742310e-01,2.000000000000000000e+00,5.784710407257080078e+00,1.155123901367187500e+01,3.502085113525390625e+01,-1.093207931518554688e+02,9.038220214843750000e+01,-6.540161132812500000e+01,5.290818786621093750e+01,-1.540487003326416016e+01,-1.038893814086914062e+02,-1.152385406494140625e+02,6.418853759765625000e+01,-3.520204925537109375e+01
2.157119959592819214e-01,2.000000000000000000e+00,5.809197425842285156e+00,1.150923728942871094e+01,3.501455307006835938e+01,-1.093740921020507812e+02,9.038379669189453125e+01,-6.542501068115234375e+01,5.283770751953125000e+01,-1.539585304260253906e+01,-1.039052658081054688e+02,-1.152932662963867188e+02,6.418489074707031250e+01,-3.523215484619140625e+01
2.171410024166107178e-01,2.000000000000000000e+00,5.809197425842285156e+00,1.150923728942871094e+01,3.501455307006835938e+01,-1.093740921020507812e+02,9.038379669189453125e+01,-6.542501068115234375e+01,5.283770751953125000e+01,-1.539585304260253906e+01,-1.039052658081054688e+02,-1.152932662963867188e+02,6.418489074707031250e+01,-3.523215484619140625e+01
2.209669947624206543e-01,2.000000000000000000e+00,5.834861278533935547e+00,1.146558475494384766e+01,3.500814437866210938e+01,-1.094280319213867188e+02,9.038561248779296875e+01,-6.544867706298828125e+01,5.276646423339843750e+01,-1.538669681549072266e+01,-1.039209289550781250e+02,-1.153477554321289062e+02,6.418109893798828125e+01,-3.526247406005859375e+01
2.243939936161041260e-01,2.000000000000000000e+00,5.861587524414062500e+00,1.142050552368164062e+01,3.500159835815429688e+01,-1.094819259643554688e+02,9.038752746582031250e+01,-6.547296142578125000e+01,5.269384002685546875e+01,-1.537735843658447266e+01,-1.039361572265625000e+02,-1.154031906127929688e+02,6.417709350585937500e+01,-3.529301834106445312e+01
2.274940013885498047e-01,2.000000000000000000e+00,5.861587524414062500e+00,1.142050552368164062e+01,3.500159835815429688e+01,-1.094819259643554688e+02,9.038752746582031250e+01,-6.547296142578125000e+01,5.269384002685546875e+01,-1.537735843658447266e+01,-1.039361572265625000e+02,-1.154031906127929688e+02,6.417709350585937500e+01,-3.529301834106445312e+01
2.320600003004074097e-01,2.000000000000000000e+00,5.889174938201904297e+00,1.137443065643310547e+01,3.499519348144531250e+01,-1.095367584228515625e+02,9.038955688476562500e+01,-6.549729919433593750e+01,5.262045288085937500e+01,-1.536788272857666016e+01,-1.039512786865234375e+02,-1.154587783813476562e+02,6.417353057861328125e+01,-3.532421875000000000e+01
2.355629950761795044e-01,2.000000000000000000e+00,5.917479515075683594e+00,1.132745170593261719e+01,3.498880767822265625e+01,-1.095909042358398438e+02,9.039153289794921875e+01,-6.552232360839843750e+01,5.254668045043945312e+01,-1.535826969146728516e+01,-1.039666137695312500e+02,-1.155142745971679688e+02,6.416944122314453125e+01,-3.535586166381835938e+01
2.394829988479614258e-01,2.000000000000000000e+00,5.946243762969970703e+00,1.128022289276123047e+01,3.498250961303710938e+01,-1.096452102661132812e+02,9.039355468750000000e+01,-6.554742431640625000e+01,5.247351455688476562e+01,-1.534902286529541016e+01,-1.039816284179687500e+02,-1.155695724487304688e+02,6.416580200195312500e+01,-3.538716888427734375e+01
2.434969991445541382e-01,2.000000000000000000e+00,5.975208759307861328e+00,1.123288154602050781e+01,3.497602462768554688e+01,-1.096998901367187500e+02,9.039542388916015625e+01,-6.557244110107421875e+01,5.240122222900390625e+01,-1.533973121643066406e+01,-1.039966964721679688e+02,-1.156247253417968750e+02,6.416172790527343750e+01,-3.541870117187500000e+01
2.485329955816268921e-01,2.000000000000000000e+00,6.004346370697021484e+00,1.118542575836181641e+01,3.496933364868164062e+01,-1.097541427612304688e+02,9.039760589599609375e+01,-6.559678649902343750e+01,5.232876586914062500e+01,-1.533048439025878906e+01,-1.040116958618164062e+02,-1.156801528930664062e+02,6.415785980224609375e+01,-3.545111083984375000e+01
2.515540122985839844e-01,2.000000000000000000e+00,6.033369064331054688e+00,1.113819789886474609e+01,3.496268463134765625e+01,-1.098091278076171875e+02,9.039958190917968750e+01,-6.562065887451171875e+01,5.225537872314453125e+01,-1.532128238677978516e+01,-1.040272598266601562e+02,-1.157347946166992188e+02,6.415392303466796875e+01,-3.548363113403320312e+01
2.563520073890686035e-01,2.000000000000000000e+00,6.062420368194580078e+00,1.109083271026611328e+01,3.495595550537109375e+01,-1.098639144897460938e+02,9.040145111083984375e+01,-6.564439392089843750e+01,5.218171310424804688e+01,-1.531198978424072266e+01,-1.040428695678710938e+02,-1.157892990112304688e+02,6.415006256103515625e+01,-3.551428222656250000e+01
2.596330046653747559e-01,2.000000000000000000e+00,6.091356754302978516e+00,1.104349136352539062e+01,3.494924545288085938e+01,-1.099179000854492188e+02,9.040352630615234375e+01,-6.566887664794921875e+01,5.210832595825195312e+01,-1.530269718170166016e+01,-1.040585784912109375e+02,-1.158444519042968750e+02,6.414634704589843750e+01,-3.554526519775390625e+01
2.636669874191284180e-01,2.000000000000000000e+00,6.120465755462646484e+00,1.099642086029052734e+01,3.494253540039062500e+01,-1.099727325439453125e+02,9.040555572509765625e+01,-6.569356536865234375e+01,5.203603744506835938e+01,-1.529368019104003906e+01,-1.040740890502929688e+02,-1.158999481201171875e+02,6.414256286621093750e+01,-3.557657241821289062e+01
2.677089869976043701e-01,2.000000000000000000e+00,6.149517059326171875e+00,1.094905757904052734e+01,3.493590545654296875e+01,-1.100269927978515625e+02,9.040763092041015625e+01,-6.571851348876953125e+01,5.196330642700195312e+01,-1.528448009490966797e+01,-1.040891571044921875e+02,-1.159551696777343750e+02,6.413870239257812500e+01,-3.560744476318359375e+01
2.718650102615356445e-01,2.000000000000000000e+00,6.178453445434570312e+00,1.090171527862548828e+01,3.492948150634765625e+01,-1.100816116333007812e+02,9.040975952148437500e+01,-6.574354553222656250e+01,5.188991928100585938e+01,-1.527504920959472656e+01,-1.041041030883789062e+02,-1.160102462768554688e+02,6.413468933105468750e+01,-3.563821029663085938e+01
2.755509912967681885e-01,2.000000000000000000e+00,6.207360744476318359e+00,1.085464477539062500e+01,3.492305755615234375e+01,-1.101361312866210938e+02,9.041168975830078125e+01,-6.576822662353515625e+01,5.181592559814453125e+01,-1.526557350158691406e+01,-1.041193389892578125e+02,-1.160652389526367188e+02,6.413076019287109375e+01,-3.566962814331054688e+01
2.806710004806518555e-01,2.000000000000000000e+00,6.236096382141113281e+00,1.080762004852294922e+01,3.491655349731445312e+01,-1.101900711059570312e+02,9.041371154785156250e+01,-6.579230499267578125e+01,5.174291992187500000e+01,-1.525618934631347656e+01,-1.041346130371093750e+02,-1.161205368041992188e+02,6.412711334228515625e+01,-3.570137786865234375e+01
2.837029993534088135e-01,2.000000000000000000e+00,6.264861106872558594e+00,1.076073074340820312e+01,3.490998458862304688e+01,-1.102445907592773438e+02,9.041579437255859375e+01,-6.581617736816406250e+01,5.167101669311523438e+01,-1.524685001373291016e+01,-1.041500091552734375e+02,-1.161756896972656250e+02,6.412332916259765625e+01,-3.573214340209960938e+01
2.875899970531463623e-01,2.000000000000000000e+00,6.293826103210449219e+00,1.071388721466064453e+01,3.490337753295898438e+01,-1.102989959716796875e+02,9.041770935058593750e+01,-6.584011840820312500e+01,5.159861755371093750e+01,-1.523760414123535156e+01,-1.041650238037109375e+02,-1.162296829223632812e+02,6.411917114257812500e+01,-3.576202392578125000e+01
2.916879951953887939e-01,2.000000000000000000e+00,6.322618484497070312e+00,1.066681671142578125e+01,3.489674758911132812e+01,-1.103528900146484375e+02,9.041989898681640625e+01,-6.586432647705078125e+01,5.152511596679687500e+01,-1.522835731506347656e+01,-1.041803588867187500e+02,-1.162848358154296875e+02,6.411545562744140625e+01,-3.579267501831054688e+01
2.968670129776000977e-01,2.000000000000000000e+00,6.351411819458007812e+00,1.062013053894042969e+01,3.489012145996093750e+01,-1.104077224731445312e+02,9.042197418212890625e+01,-6.588908386230468750e+01,5.145129013061523438e+01,-1.521910953521728516e+01,-1.041957015991210938e+02,-1.163407745361328125e+02,6.411137390136718750e+01,-3.582343673706054688e+01
2.996360063552856445e-01,2.000000000000000000e+00,6.380204677581787109e+00,1.057340049743652344e+01,3.488361358642578125e+01,-1.104617080688476562e+02,9.042395019531250000e+01,-6.591410827636718750e+01,5.137866592407226562e+01,-1.520963478088378906e+01,-1.042113571166992188e+02,-1.163956298828125000e+02,6.410729217529296875e+01,-3.585397720336914062e+01
3.045530021190643311e-01,2.000000000000000000e+00,6.408882617950439453e+00,1.052669239044189453e+01,3.487730789184570312e+01,-1.105161209106445312e+02,9.042591857910156250e+01,-6.593939971923828125e+01,5.130692672729492188e+01,-1.520015907287597656e+01,-1.042267532348632812e+02,-1.164508438110351562e+02,6.410298919677734375e+01,-3.588529205322265625e+01
3.079369962215423584e-01,2.000000000000000000e+00,6.437905311584472656e+00,1.048007392883300781e+01,3.487104797363281250e+01,-1.105710067749023438e+02,9.042805480957031250e+01,-6.596394348144531250e+01,5.123453140258789062e+01,-1.519077491760253906e+01,-1.042418136596679688e+02,-1.165066375732421875e+02,6.409861755371093750e+01,-3.591670989990234375e+01
3.119989931583404541e-01,2.000000000000000000e+00,6.466813564300537109e+00,1.043338871002197266e+01,3.486464309692382812e+01,-1.106251068115234375e+02,9.043013000488281250e+01,-6.598781585693359375e+01,5.116124725341796875e+01,-1.518161869049072266e+01,-1.042569885253906250e+02,-1.165615615844726562e+02,6.409446716308593750e+01,-3.594747543334960938e+01
3.158769905567169189e-01,2.000000000000000000e+00,6.495577335357666016e+00,1.038665771484375000e+01,3.485797500610351562e+01,-1.106797790527343750e+02,9.043215942382812500e+01,-6.601189422607421875e+01,5.108763885498046875e+01,-1.517218971252441406e+01,-1.042723236083984375e+02,-1.166163558959960938e+02,6.409031677246093750e+01,-3.597834777832031250e+01
3.199520111083984375e-01,2.000000000000000000e+00,6.524341583251953125e+00,1.034013175964355469e+01,3.485140991210937500e+01,-1.107343444824218750e+02,9.043428802490234375e+01,-6.603604125976562500e+01,5.101518630981445312e+01,-1.516271495819091797e+01,-1.042877731323242188e+02,-1.166715698242187500e+02,6.408602142333984375e+01,-3.600921630859375000e+01
3.244349956512451172e-01,2.000000000000000000e+00,6.553192138671875000e+00,1.029358100891113281e+01,3.484488296508789062e+01,-1.107880783081054688e+02,9.043620300292968750e+01,-6.606072235107421875e+01,5.094300842285156250e+01,-1.515351295471191406e+01,-1.043033828735351562e+02,-1.167260055541992188e+02,6.408208465576171875e+01,-3.604096603393554688e+01
3.289699852466583252e-01,2.000000000000000000e+00,6.582013607025146484e+00,1.024698638916015625e+01,3.483819198608398438e+01,-1.108429641723632812e+02,9.043839263916015625e+01,-6.608581542968750000e+01,5.087088012695312500e+01,-1.514444923400878906e+01,-1.043189392089843750e+02,-1.167812881469726562e+02,6.407785797119140625e+01,-3.607249832153320312e+01
3.324689865112304688e-01,2.000000000000000000e+00,6.611007690429687500e+00,1.020023250579833984e+01,3.483140182495117188e+01,-1.108972167968750000e+02,9.044047546386718750e+01,-6.611077117919921875e+01,5.079760360717773438e+01,-1.513538551330566406e+01,-1.043342208862304688e+02,-1.168367233276367188e+02,6.407377624511718750e+01,-3.610326004028320312e+01
3.358359932899475098e-01,2.000000000000000000e+00,6.639886379241943359e+00,1.015336704254150391e+01,3.482491683959960938e+01,-1.109516830444335938e+02,9.044281768798828125e+01,-6.613552856445312500e+01,5.072459793090820312e+01,-1.512632179260253906e+01,-1.043494491577148438e+02,-1.168912963867187500e+02,6.406962585449218750e+01,-3.613358306884765625e+01
3.400569856166839600e-01,2.000000000000000000e+00,6.668421268463134766e+00,1.010647773742675781e+01,3.481849288940429688e+01,-1.110060958862304688e+02,9.044490051269531250e+01,-6.616000366210937500e+01,5.065192413330078125e+01,-1.511702919006347656e+01,-1.043648376464843750e+02,-1.169469528198242188e+02,6.406554412841796875e+01,-3.616544342041015625e+01
3.443070054054260254e-01,2.000000000000000000e+00,6.697041988372802734e+00,1.005961036682128906e+01,3.481198501586914062e+01,-1.110597686767578125e+02,9.044686889648437500e+01,-6.618367004394531250e+01,5.057985305786132812e+01,-1.510791969299316406e+01,-1.043806686401367188e+02,-1.170023193359375000e+02,6.406153869628906250e+01,-3.619664382934570312e+01
3.484700024127960205e-01,2.000000000000000000e+00,6.725691318511962891e+00,1.001253986358642578e+01,3.480529403686523438e+01,-1.111140823364257812e+02,9.044911193847656250e+01,-6.620781707763671875e+01,5.050767135620117188e+01,-1.509871864318847656e+01,-1.043962783813476562e+02,-1.170568923950195312e+02,6.405760192871093750e+01,-3.622663879394531250e+01
3.531669974327087402e-01,2.000000000000000000e+00,6.754426479339599609e+00,9.965628623962402344e+00,3.479866790771484375e+01,-1.111685943603515625e+02,9.045124816894531250e+01,-6.623203277587890625e+01,5.043478012084960938e+01,-1.508969974517822266e+01,-1.044115600585937500e+02,-1.171121749877929688e+02,6.405344390869140625e+01,-3.625684738159179688e+01
3.563610017299652100e-01,2.000000000000000000e+00,6.783363342285156250e+00,9.918648719787597656e+00,3.479214096069335938e+01,-1.112229537963867188e+02,9.045353698730468750e+01,-6.625664520263671875e+01,5.036155319213867188e+01,-1.508027076721191406e+01,-1.044265747070312500e+02,-1.171673202514648438e+02,6.404951477050781250e+01,-3.628837966918945312e+01
3.604139983654022217e-01,2.000000000000000000e+00,6.812271118164062500e+00,9.871578216552734375e+00,3.478539276123046875e+01,-1.112773132324218750e+02,9.045593261718750000e+01,-6.628166961669921875e+01,5.028882598876953125e+01,-1.507056713104248047e+01,-1.044418029785156250e+02,-1.172217559814453125e+02,6.404557800292968750e+01,-3.631958007812500000e+01
3.642509877681732178e-01,2.000000000000000000e+00,6.841006755828857422e+00,9.824304580688476562e+00,3.477882385253906250e+01,-1.113308792114257812e+02,9.045801544189453125e+01,-6.630677032470703125e+01,5.021686553955078125e+01,-1.506081485748291016e+01,-1.044572448730468750e+02,-1.172770385742187500e+02,6.404150390625000000e+01,-3.634891510009765625e+01
3.684029877185821533e-01,2.000000000000000000e+00,6.869914531707763672e+00,9.777098655700683594e+00,3.477223587036132812e+01,-1.113853988647460938e+02,9.046019744873046875e+01,-6.633138275146484375e+01,5.014424514770507812e+01,-1.505124759674072266e+01,-1.044723663330078125e+02,-1.173322677612304688e+02,6.403705596923828125e+01,-3.637901687622070312e+01
3.727209866046905518e-01,2.000000000000000000e+00,6.898735523223876953e+00,9.729937553405761719e+00,3.476573181152343750e+01,-1.114401779174804688e+02,9.046228027343750000e+01,-6.635511779785156250e+01,5.007107543945312500e+01,-1.504200077056884766e+01,-1.044871597290039062e+02,-1.173874130249023438e+02,6.403268432617187500e+01,-3.640977859497070312e+01
3.773190081119537354e-01,2.000000000000000000e+00,6.927815914154052734e+00,9.682935714721679688e+00,3.475936508178710938e+01,-1.114945373535156250e+02,9.046456909179687500e+01,-6.637871551513671875e+01,4.999746704101562500e+01,-1.503261661529541016e+01,-1.045022811889648438e+02,-1.174425659179687500e+02,6.402852630615234375e+01,-3.644010162353515625e+01
3.805080056190490723e-01,2.000000000000000000e+00,6.957010746002197266e+00,9.636001586914062500e+00,3.475275802612304688e+01,-1.115490570068359375e+02,9.046681213378906250e+01,-6.640313720703125000e+01,4.992501068115234375e+01,-1.502305030822753906e+01,-1.045175628662109375e+02,-1.174969863891601562e+02,6.402429962158203125e+01,-3.646965026855468750e+01
3.842490017414093018e-01,2.000000000000000000e+00,6.985947608947753906e+00,9.588862419128417969e+00,3.474608612060546875e+01,-1.116030502319335938e+02,9.046920776367187500e+01,-6.642754364013671875e+01,4.985338211059570312e+01,-1.501366615295410156e+01,-1.045329513549804688e+02,-1.175519180297851562e+02,6.401992797851562500e+01,-3.650085449218750000e+01
3.885479867458343506e-01,2.000000000000000000e+00,7.014912605285644531e+00,9.542018890380859375e+00,3.473942184448242188e+01,-1.116571502685546875e+02,9.047139739990234375e+01,-6.645195770263671875e+01,4.978098297119140625e+01,-1.500419044494628906e+01,-1.045481872558593750e+02,-1.176070632934570312e+02,6.401555633544921875e+01,-3.653249740600585938e+01
3.925200104713439941e-01,2.000000000000000000e+00,7.043848991394042969e+00,9.495017051696777344e+00,3.473268890380859375e+01,-1.117119827270507812e+02,9.047352600097656250e+01,-6.647677612304687500e+01,4.970742797851562500e+01,-1.499503517150878906e+01,-1.045632476806640625e+02,-1.176612777709960938e+02,6.401133728027343750e+01,-3.656314849853515625e+01
3.975729942321777344e-01,2.000000000000000000e+00,7.072813987731933594e+00,9.448014259338378906e+00,3.472594070434570312e+01,-1.117656555175781250e+02,9.047603607177734375e+01,-6.650166320800781250e+01,4.963360214233398438e+01,-1.498551368713378906e+01,-1.045785293579101562e+02,-1.177155685424804688e+02,6.400776672363281250e+01,-3.659313964843750000e+01
4.015510082244873047e-01,2.000000000000000000e+00,7.101578235626220703e+00,9.401124954223632812e+00,3.471927261352539062e+01,-1.118204879760742188e+02,9.047817230224609375e+01,-6.652560424804687500e+01,4.956114578247070312e+01,-1.497585391998291016e+01,-1.045937652587890625e+02,-1.177710647583007812e+02,6.400331878662109375e+01,-3.662411880493164062e+01
4.046419858932495117e-01,2.000000000000000000e+00,7.130486011505126953e+00,9.354372024536132812e+00,3.471262359619140625e+01,-1.118743209838867188e+02,9.048062133789062500e+01,-6.654954528808593750e+01,4.948885726928710938e+01,-1.496633243560791016e+01,-1.046092071533203125e+02,-1.178259277343750000e+02,6.399865341186523438e+01,-3.665674972534179688e+01
4.088869988918304443e-01,2.000000000000000000e+00,7.159135341644287109e+00,9.307618141174316406e+00,3.470619964599609375e+01,-1.119281005859375000e+02,9.048275756835937500e+01,-6.657287597656250000e+01,4.941656494140625000e+01,-1.495699405670166016e+01,-1.046246566772460938e+02,-1.178810043334960938e+02,6.399472045898437500e+01,-3.668729400634765625e+01
4.126800000667572021e-01,2.000000000000000000e+00,7.187813758850097656e+00,9.260955810546875000e+00,3.469969558715820312e+01,-1.119825668334960938e+02,9.048504638671875000e+01,-6.659742736816406250e+01,4.934312057495117188e+01,-1.494788455963134766e+01,-1.046398773193359375e+02,-1.179359359741210938e+02,6.399093627929687500e+01,-3.671585464477539062e+01
4.165929853916168213e-01,2.000000000000000000e+00,7.216749668121337891e+00,9.214133262634277344e+00,3.469300460815429688e+01,-1.120364990234375000e+02,9.048712921142578125e+01,-6.662143707275390625e+01,4.927006149291992188e+01,-1.493882083892822266e+01,-1.046552200317382812e+02,-1.179908752441406250e+02,6.398670959472656250e+01,-3.674683761596679688e+01
4.206559956073760986e-01,2.000000000000000000e+00,7.245629310607910156e+00,9.167448043823242188e+00,3.468641662597656250e+01,-1.120904388427734375e+02,9.048963165283203125e+01,-6.664618682861328125e+01,4.919766235351562500e+01,-1.492980289459228516e+01,-1.046706085205078125e+02,-1.180460891723632812e+02,6.398218536376953125e+01,-3.677880859375000000e+01
4.256989955902099609e-01,2.000000000000000000e+00,7.274479389190673828e+00,9.120785713195800781e+00,3.467982864379882812e+01,-1.121450119018554688e+02,9.049197387695312500e+01,-6.667107391357421875e+01,4.912581253051757812e+01,-1.492028236389160156e+01,-1.046860046386718750e+02,-1.181002273559570312e+02,6.397789001464843750e+01,-3.680935287475585938e+01
4.288260042667388916e-01,2.000000000000000000e+00,7.303300857543945312e+00,9.074009895324707031e+00,3.467319869995117188e+01,-1.121987380981445312e+02,9.049421691894531250e+01,-6.669569396972656250e+01,4.905363464355468750e+01,-1.491108131408691406e+01,-1.047013397216796875e+02,-1.181541595458984375e+02,6.397395706176757812e+01,-3.683945083618164062e+01
4.325709939002990723e-01,2.000000000000000000e+00,7.332151889801025391e+00,9.027392387390136719e+00,3.466657257080078125e+01,-1.122528381347656250e+02,9.049639892578125000e+01,-6.671936035156250000e+01,4.898024368286132812e+01,-1.490192604064941406e+01,-1.047166213989257812e+02,-1.182092361450195312e+02,6.396958541870117188e+01,-3.687065505981445312e+01
4.368369877338409424e-01,2.000000000000000000e+00,7.361001491546630859e+00,8.980661392211914062e+00,3.466004562377929688e+01,-1.123073501586914062e+02,9.049864196777343750e+01,-6.674310302734375000e+01,4.890702056884765625e+01,-1.489286231994628906e+01,-1.047319564819335938e+02,-1.182642364501953125e+02,6.396543121337890625e+01,-3.690273284912109375e+01
4.394170045852661133e-01,2.000000000000000000e+00,7.390024185180664062e+00,8.933908462524414062e+00,3.465366363525390625e+01,-1.123612365722656250e+02,9.050114440917968750e+01,-6.676703643798828125e+01,4.883467483520507812e+01,-1.488361549377441406e+01,-1.047473526000976562e+02,-1.183195343017578125e+02,6.396142196655273438e+01,-3.693327331542968750e+01
4.434809982776641846e-01,2.000000000000000000e+00,7.418903827667236328e+00,8.887245178222656250e+00,3.464729690551757812e+01,-1.124159698486328125e+02,9.050322723388671875e+01,-6.679124450683593750e+01,4.876293563842773438e+01,-1.487409305572509766e+01,-1.047627944946289062e+02,-1.183748855590820312e+02,6.395727157592773438e+01,-3.696238708496093750e+01
4.499149918556213379e-01,2.000000000000000000e+00,7.447581291198730469e+00,8.840559005737304688e+00,3.464078903198242188e+01,-1.124699020385742188e+02,9.050551605224609375e+01,-6.681566619873046875e+01,4.869092178344726562e+01,-1.486475563049316406e+01,-1.047781906127929688e+02,-1.184294586181640625e+02,6.395289993286132812e+01,-3.699282455444335938e+01
4.528270065784454346e-01,2.000000000000000000e+00,7.476402759552001953e+00,8.793918609619140625e+00,3.463414001464843750e+01,-1.125237960815429688e+02,9.050754547119140625e+01,-6.683993530273437500e+01,4.861758422851562500e+01,-1.485555362701416016e+01,-1.047938537597656250e+02,-1.184840316772460938e+02,6.394845199584960938e+01,-3.702413177490234375e+01
4.554159939289093018e-01,2.000000000000000000e+00,7.505224704742431641e+00,8.747210502624511719e+00,3.462749481201171875e+01,-1.125782012939453125e+02,9.050956726074218750e+01,-6.686530303955078125e+01,4.854452514648437500e+01,-1.484658241271972656e+01,-1.048090286254882812e+02,-1.185388870239257812e+02,6.394415664672851562e+01,-3.705423736572265625e+01
4.595209956169128418e-01,2.000000000000000000e+00,7.533931732177734375e+00,8.700345039367675781e+00,3.462082672119140625e+01,-1.126320877075195312e+02,9.051207733154296875e+01,-6.688951110839843750e+01,4.847234725952148438e+01,-1.483728981018066406e+01,-1.048238754272460938e+02,-1.185933990478515625e+02,6.394014739990234375e+01,-3.708389663696289062e+01
4.634149968624114990e-01,2.000000000000000000e+00,7.562810897827148438e+00,8.653455734252929688e+00,3.461407470703125000e+01,-1.126861801147460938e+02,9.051425933837890625e+01,-6.691304779052734375e+01,4.840076828002929688e+01,-1.482818031311035156e+01,-1.048389892578125000e+02,-1.186479721069335938e+02,6.393577575683593750e+01,-3.711499023437500000e+01
4.674090147018432617e-01,2.000000000000000000e+00,7.591431617736816406e+00,8.606588363647460938e+00,3.460740661621093750e+01,-1.127402343750000000e+02,9.051618194580078125e+01,-6.693678283691406250e+01,4.832842636108398438e+01,-1.481884193420410156e+01,-1.048541717529296875e+02,-1.187027587890625000e+02,6.393111038208007812e+01,-3.714553451538085938e+01
4.737719893455505371e-01,2.000000000000000000e+00,7.620080947875976562e+00,8.559677124023437500e+00,3.460084152221679688e+01,-1.127939605712890625e+02,9.051821136474609375e+01,-6.696092224121093750e+01,4.825514602661132812e+01,-1.480963993072509766e+01,-1.048697738647460938e+02,-1.187571182250976562e+02,6.392645263671875000e+01,-3.717464828491210938e+01
4.754180014133453369e-01,2.000000000000000000e+00,7.648759365081787109e+00,8.512719154357910156e+00,3.459432983398437500e+01,-1.128480529785156250e+02,9.052050018310546875e+01,-6.698519897460937500e+01,4.818186569213867188e+01,-1.480034732818603516e+01,-1.048850631713867188e+02,-1.188122634887695312e+02,6.392208099365234375e+01,-3.720474624633789062e+01
4.794200062751770020e-01,2.000000000000000000e+00,7.677551746368408203e+00,8.465807914733886719e+00,3.458778381347656250e+01,-1.129021987915039062e+02,9.052258300781250000e+01,-6.700981903076171875e+01,4.811012649536132812e+01,-1.479123973846435547e+01,-1.049000778198242188e+02,-1.188677673339843750e+02,6.391807174682617188e+01,-3.723682785034179688e+01
4.834870100021362305e-01,2.000000000000000000e+00,7.706459999084472656e+00,8.419054031372070312e+00,3.458113861083984375e+01,-1.129562988281250000e+02,9.052449798583984375e+01,-6.703477478027343750e+01,4.803860473632812500e+01,-1.478199100494384766e+01,-1.049155731201171875e+02,-1.189216308593750000e+02,6.391362380981445312e+01,-3.726802825927734375e+01
4.874140024185180664e-01,2.000000000000000000e+00,7.735309600830078125e+00,8.372097969055175781e+00,3.457444763183593750e+01,-1.130102920532226562e+02,9.052663421630859375e+01,-6.705932617187500000e+01,4.796598815917968750e+01,-1.477251625061035156e+01,-1.049309616088867188e+02,-1.189758987426757812e+02,6.390947341918945312e+01,-3.729824447631835938e+01
4.914709925651550293e-01,2.000000000000000000e+00,7.764103412628173828e+00,8.325139999389648438e+00,3.456775665283203125e+01,-1.130638580322265625e+02,9.052871704101562500e+01,-6.708367156982421875e+01,4.789259719848632812e+01,-1.476304054260253906e+01,-1.049459762573242188e+02,-1.190306243896484375e+02,6.390575790405273438e+01,-3.732812500000000000e+01
4.954929947853088379e-01,2.000000000000000000e+00,7.792953014373779297e+00,8.278069496154785156e+00,3.456110763549804688e+01,-1.131183242797851562e+02,9.053063201904296875e+01,-6.710733795166015625e+01,4.781970214843750000e+01,-1.475370216369628906e+01,-1.049611511230468750e+02,-1.190846252441406250e+02,6.390160369873046875e+01,-3.735932540893554688e+01
4.994960129261016846e-01,2.000000000000000000e+00,7.821804046630859375e+00,8.231090545654296875e+00,3.455448532104492188e+01,-1.131725845336914062e+02,9.053260040283203125e+01,-6.713141632080078125e+01,4.774779891967773438e+01,-1.474450016021728516e+01,-1.049763717651367188e+02,-1.191393356323242188e+02,6.389759445190429688e+01,-3.738943099975585938e+01
5.034350156784057617e-01,2.000000000000000000e+00,7.850567340850830078e+00,8.184405326843261719e+00,3.454791641235351562e+01,-1.132263107299804688e+02,9.053468322753906250e+01,-6.715535736083984375e+01,4.767621994018554688e+01,-1.473534584045410156e+01,-1.049916076660156250e+02,-1.191943435668945312e+02,6.389308166503906250e+01,-3.741854476928710938e+01
5.075629949569702148e-01,2.000000000000000000e+00,7.879389286041259766e+00,8.137809753417968750e+00,3.454154968261718750e+01,-1.132808227539062500e+02,9.053655242919921875e+01,-6.718010711669921875e+01,4.760376739501953125e+01,-1.472582530975341797e+01,-1.050069503784179688e+02,-1.192486267089843750e+02,6.388885116577148438e+01,-3.744941711425781250e+01
5.134050250053405762e-01,2.000000000000000000e+00,7.908182621002197266e+00,8.090966224670410156e+00,3.453519058227539062e+01,-1.133348159790039062e+02,9.053857421875000000e+01,-6.720493316650390625e+01,4.753038024902343750e+01,-1.471644020080566406e+01,-1.050222778320312500e+02,-1.193039932250976562e+02,6.388477325439453125e+01,-3.748149490356445312e+01
5.154709815979003906e-01,2.000000000000000000e+00,7.936802864074707031e+00,8.044325828552246094e+00,3.452847671508789062e+01,-1.133886489868164062e+02,9.054049682617187500e+01,-6.722995758056640625e+01,4.745759201049804688e+01,-1.470710182189941406e+01,-1.050376739501953125e+02,-1.193587036132812500e+02,6.388047027587890625e+01,-3.751269531250000000e+01
5.194169878959655762e-01,2.000000000000000000e+00,7.965481281280517578e+00,7.997504234313964844e+00,3.452182769775390625e+01,-1.134431686401367188e+02,9.054247283935546875e+01,-6.725436401367187500e+01,4.738579559326171875e+01,-1.469789981842041016e+01,-1.050530090332031250e+02,-1.194125518798828125e+02,6.387646865844726562e+01,-3.754158782958984375e+01
5.239509940147399902e-01,2.000000000000000000e+00,7.994245529174804688e+00,7.950660228729248047e+00,3.451517868041992188e+01,-1.134968414306640625e+02,9.054438781738281250e+01,-6.727783203125000000e+01,4.731394577026367188e+01,-1.468860721588134766e+01,-1.050679168701171875e+02,-1.194676971435546875e+02,6.387231826782226562e+01,-3.757257080078125000e+01
5.274609923362731934e-01,2.000000000000000000e+00,8.023010253906250000e+00,7.904155254364013672e+00,3.450857543945312500e+01,-1.135512008666992188e+02,9.054625701904296875e+01,-6.730163574218750000e+01,4.724154663085937500e+01,-1.467927074432373047e+01,-1.050831451416015625e+02,-1.195224227905273438e+02,6.386838150024414062e+01,-3.760498046875000000e+01
5.315139889717102051e-01,2.000000000000000000e+00,8.051630020141601562e+00,7.857583522796630859e+00,3.450186538696289062e+01,-1.136049804687500000e+02,9.054827880859375000e+01,-6.732611846923828125e+01,4.716837692260742188e+01,-1.466983985900878906e+01,-1.050984802246093750e+02,-1.195762710571289062e+02,6.386386108398437500e+01,-3.763552474975585938e+01
5.354099869728088379e-01,2.000000000000000000e+00,8.080251693725585938e+00,7.810943126678466797e+00,3.449525451660156250e+01,-1.136582870483398438e+02,9.055030822753906250e+01,-6.735046386718750000e+01,4.709548187255859375e+01,-1.466031837463378906e+01,-1.051136550903320312e+02,-1.196309967041015625e+02,6.385934448242187500e+01,-3.766430664062500000e+01
5.394139885902404785e-01,2.000000000000000000e+00,8.108814239501953125e+00,7.764303207397460938e+00,3.448873138427734375e+01,-1.137127990722656250e+02,9.055233001708984375e+01,-6.737467193603515625e+01,4.702330398559570312e+01,-1.465111637115478516e+01,-1.051289901733398438e+02,-1.196854858398437500e+02,6.385497665405273438e+01,-3.769441223144531250e+01
5.434039831161499023e-01,2.000000000000000000e+00,8.137549400329589844e+00,7.717481136322021484e+00,3.448230743408203125e+01,-1.137665863037109375e+02,9.055403137207031250e+01,-6.739949798583984375e+01,4.695151138305664062e+01,-1.464219093322753906e+01,-1.051444396972656250e+02,-1.197403488159179688e+02,6.385089111328125000e+01,-3.772616195678710938e+01
5.476610064506530762e-01,2.000000000000000000e+00,8.166543960571289062e+00,7.671022415161132812e+00,3.447569656372070312e+01,-1.138203659057617188e+02,9.055579376220703125e+01,-6.742452239990234375e+01,4.687932968139648438e+01,-1.463326358795166016e+01,-1.051597213745117188e+02,-1.197950744628906250e+02,6.384659576416015625e+01,-3.775714111328125000e+01
5.514240264892578125e-01,2.000000000000000000e+00,8.195163726806640625e+00,7.624427795410156250e+00,3.446913146972656250e+01,-1.138746185302734375e+02,9.055787658691406250e+01,-6.744886779785156250e+01,4.680621337890625000e+01,-1.462388038635253906e+01,-1.051747283935546875e+02,-1.198491363525390625e+02,6.384207916259765625e+01,-3.778658294677734375e+01
5.577459931373596191e-01,2.000000000000000000e+00,8.223814010620117188e+00,7.577628612518310547e+00,3.446256256103515625e+01,-1.139281387329101562e+02,9.055995941162109375e+01,-6.747219848632812500e+01,4.673326492309570312e+01,-1.461449623107910156e+01,-1.051899108886718750e+02,-1.199042892456054688e+02,6.383770751953125000e+01,-3.781767654418945312e+01
5.594999790191650391e-01,2.000000000000000000e+00,8.252550125122070312e+00,7.530920505523681641e+00,3.445597457885742188e+01,-1.139826583862304688e+02,9.056182098388671875e+01,-6.749586486816406250e+01,4.666108322143554688e+01,-1.460556888580322266e+01,-1.052056808471679688e+02,-1.199594345092773438e+02,6.383384323120117188e+01,-3.785008621215820312e+01
5.634170174598693848e-01,2.000000000000000000e+00,8.281112670898437500e+00,7.484212398529052734e+00,3.444930648803710938e+01,-1.140368499755859375e+02,9.056358337402343750e+01,-6.752007293701171875e+01,4.658917999267578125e+01,-1.459655189514160156e+01,-1.052210693359375000e+02,-1.200127105712890625e+02,6.382998275756835938e+01,-3.788051605224609375e+01
5.685139894485473633e-01,2.000000000000000000e+00,8.281112670898437500e+00,7.484212398529052734e+00,3.444930648803710938e+01,-1.140368499755859375e+02,9.056358337402343750e+01,-6.752007293701171875e+01,4.651672363281250000e+01,-1.458730506896972656e+01,-1.052359695434570312e+02,-1.200669250488281250e+02,6.382589721679687500e+01,-3.790908432006835938e+01
5.746420025825500488e-01,2.000000000000000000e+00,8.338726997375488281e+00,7.390909194946289062e+00,3.443627548217773438e+01,-1.141446762084960938e+02,9.056752777099609375e+01,-6.756903839111328125e+01,4.644377517700195312e+01,-1.457810306549072266e+01,-1.052511444091796875e+02,-1.201223602294921875e+02,6.382174682617187500e+01,-3.793907546997070312e+01
5.762109756469726562e-01,2.000000000000000000e+00,8.367434501647949219e+00,7.344268798828125000e+00,3.442990875244140625e+01,-1.141987228393554688e+02,9.056939697265625000e+01,-6.759386444091796875e+01,4.637088394165039062e+01,-1.456890296936035156e+01,-1.052668075561523438e+02,-1.201771545410156250e+02,6.381752395629882812e+01,-3.796906661987304688e+01
5.794280171394348145e-01,2.000000000000000000e+00,8.396054267883300781e+00,7.297628402709960938e+00,3.442350387573242188e+01,-1.142523422241210938e+02,9.057152557373046875e+01,-6.761854553222656250e+01,4.629897308349609375e+01,-1.455965614318847656e+01,-1.052824707031250000e+02,-1.202317962646484375e+02,6.381351470947265625e+01,-3.799884033203125000e+01
5.845280289649963379e-01,2.000000000000000000e+00,8.396054267883300781e+00,7.297628402709960938e+00,3.442350387573242188e+01,-1.142523422241210938e+02,9.057152557373046875e+01,-6.761854553222656250e+01,4.629897308349609375e+01,-1.455965614318847656e+01,-1.052824707031250000e+02,-1.202317962646484375e+02,6.381351470947265625e+01,-3.799884033203125000e+01
5.874890089035034180e-01,2.000000000000000000e+00,8.453325271606445312e+00,7.204235076904296875e+00,3.441028976440429688e+01,-1.143605346679687500e+02,9.057520294189453125e+01,-6.766547393798828125e+01,4.615538406372070312e+01,-1.454175853729248047e+01,-1.053126602172851562e+02,-1.203406524658203125e+02,6.380527877807617188e+01,-3.806025314331054688e+01
5.914630293846130371e-01,2.000000000000000000e+00,8.453325271606445312e+00,7.204235076904296875e+00,3.441028976440429688e+01,-1.143605346679687500e+02,9.057520294189453125e+01,-6.766547393798828125e+01,4.615538406372070312e+01,-1.454175853729248047e+01,-1.053126602172851562e+02,-1.203406524658203125e+02,6.380527877807617188e+01,-3.806025314331054688e+01
5.954639911651611328e-01,2.000000000000000000e+00,8.482117652893066406e+00,7.157413959503173828e+00,3.440365982055664062e+01,-1.144147415161132812e+02,9.057728576660156250e+01,-6.768941497802734375e+01,4.608221435546875000e+01,-1.453283119201660156e+01,-1.053278808593750000e+02,-1.203957290649414062e+02,6.380134582519531250e+01,-3.809145736694335938e+01
6.027690172195434570e-01,2.000000000000000000e+00,8.568065643310546875e+00,7.017356872558593750e+00,3.438359451293945312e+01,-1.145760726928710938e+02,9.058309936523437500e+01,-6.776238250732421875e+01,4.586589431762695312e+01,-1.450531864166259766e+01,-1.053741149902343750e+02,-1.205590820312500000e+02,6.378918075561523438e+01,-3.818186950683593750e+01
6.042180061340332031e-01,2.000000000000000000e+00,8.568065643310546875e+00,7.017356872558593750e+00,3.438359451293945312e+01,-1.145760726928710938e+02,9.058309936523437500e+01,-6.776238250732421875e+01,4.586589431762695312e+01,-1.450531864166259766e+01,-1.053741149902343750e+02,-1.205590820312500000e+02,6.378918075561523438e+01,-3.818186950683593750e+01
6.074209809303283691e-01,2.000000000000000000e+00,8.596744537353515625e+00,6.970694541931152344e+00,3.437712860107421875e+01,-1.146301803588867188e+02,9.058522796630859375e+01,-6.778740692138671875e+01,4.579344177246093750e+01,-1.449630165100097656e+01,-1.053892364501953125e+02,-1.206140899658203125e+02,6.378451538085937500e+01,-3.821362304687500000e+01
6.114649772644042969e-01,2.000000000000000000e+00,8.596744537353515625e+00,6.970694541931152344e+00,3.437712860107421875e+01,-1.146301803588867188e+02,9.058522796630859375e+01,-6.778740692138671875e+01,4.579344177246093750e+01,-1.449630165100097656e+01,-1.053892364501953125e+02,-1.206140899658203125e+02,6.378451538085937500e+01,-3.821362304687500000e+01
6.155930161476135254e-01,2.000000000000000000e+00,8.625451087951660156e+00,6.924008846282958984e+00,3.437058258056640625e+01,-1.146843261718750000e+02,9.058725738525390625e+01,-6.781155395507812500e+01,4.572048950195312500e+01,-1.448723793029785156e+01,-1.054044647216796875e+02,-1.206688003540039062e+02,6.378014373779296875e+01,-3.824361801147460938e+01
6.194580197334289551e-01,2.000000000000000000e+00,8.654244422912597656e+00,6.877210140228271484e+00,3.436401367187500000e+01,-1.147379989624023438e+02,9.058917236328125000e+01,-6.783515167236328125e+01,4.564803695678710938e+01,-1.447780704498291016e+01,-1.054196929931640625e+02,-1.207235946655273438e+02,6.377591705322265625e+01,-3.827383041381835938e+01
6.234639883041381836e-01,2.000000000000000000e+00,8.683123588562011719e+00,6.830501556396484375e+00,3.435730361938476562e+01,-1.147913055419921875e+02,9.059109497070312500e+01,-6.785848236083984375e+01,4.557629394531250000e+01,-1.446805667877197266e+01,-1.054349746704101562e+02,-1.207783050537109375e+02,6.377183914184570312e+01,-3.830546951293945312e+01
6.283379793167114258e-01,2.000000000000000000e+00,8.740364074707031250e+00,6.737153530120849609e+00,3.434411239624023438e+01,-1.148999176025390625e+02,9.059519958496093750e+01,-6.790696716308593750e+01,4.543265151977539062e+01,-1.444961071014404297e+01,-1.054649963378906250e+02,-1.208875350952148438e+02,6.376345825195312500e+01,-3.836600112915039062e+01
6.314089894294738770e-01,2.000000000000000000e+00,8.769042968750000000e+00,6.690603733062744141e+00,3.433750152587890625e+01,-1.149539184570312500e+02,9.059727478027343750e+01,-6.793131256103515625e+01,4.535969924926757812e+01,-1.444045448303222656e+01,-1.054797973632812500e+02,-1.209414520263671875e+02,6.375901031494140625e+01,-3.839588546752929688e+01
6.354529857635498047e-01,2.000000000000000000e+00,8.769042968750000000e+00,6.690603733062744141e+00,3.433750152587890625e+01,-1.149539184570312500e+02,9.059727478027343750e+01,-6.793131256103515625e+01,4.535969924926757812e+01,-1.444045448303222656e+01,-1.054797973632812500e+02,-1.209414520263671875e+02,6.375901031494140625e+01,-3.839588546752929688e+01
6.395360231399536133e-01,2.000000000000000000e+00,8.797778129577636719e+00,6.643940448760986328e+00,3.433087539672851562e+01,-1.150080108642578125e+02,9.059925079345703125e+01,-6.795573425292968750e+01,4.528669738769531250e+01,-1.443139076232910156e+01,-1.054947433471679688e+02,-1.209958877563476562e+02,6.375479125976562500e+01,-3.842752456665039062e+01
6.434569954872131348e-01,2.000000000000000000e+00,8.826427459716796875e+00,6.597368717193603516e+00,3.432450866699218750e+01,-1.150615158081054688e+02,9.060132598876953125e+01,-6.798048400878906250e+01,4.521517181396484375e+01,-1.442195987701416016e+01,-1.055101394653320312e+02,-1.210511016845703125e+02,6.375085449218750000e+01,-3.845850753784179688e+01
6.474810242652893066e-01,2.000000000000000000e+00,8.855076789855957031e+00,6.550909042358398438e+00,3.431814575195312500e+01,-1.151152420043945312e+02,9.060340881347656250e+01,-6.800435638427734375e+01,4.514354324340820312e+01,-1.441262149810791016e+01,-1.055255279541015625e+02,-1.211056747436523438e+02,6.374684524536132812e+01,-3.848861312866210938e+01
6.527090072631835938e-01,2.000000000000000000e+00,8.883697509765625000e+00,6.504246234893798828e+00,3.431174087524414062e+01,-1.151698150634765625e+02,9.060548400878906250e+01,-6.802795410156250000e+01,4.507108688354492188e+01,-1.440342140197753906e+01,-1.055405960083007812e+02,-1.211603164672851562e+02,6.374298858642578125e+01,-3.851860427856445312e+01
6.554840207099914551e-01,2.000000000000000000e+00,8.941111564636230469e+00,6.411147117614746094e+00,3.429856872558593750e+01,-1.152777481079101562e+02,9.060970306396484375e+01,-6.807542419433593750e+01,4.492540740966796875e+01,-1.438501930236816406e+01,-1.055707778930664062e+02,-1.212693939208984375e+02,6.373467636108398438e+01,-3.857957839965820312e+01
6.595339775085449219e-01,2.000000000000000000e+00,8.941111564636230469e+00,6.411147117614746094e+00,3.429856872558593750e+01,-1.152777481079101562e+02,9.060970306396484375e+01,-6.807542419433593750e+01,4.492540740966796875e+01,-1.438501930236816406e+01,-1.055707778930664062e+02,-1.212693939208984375e+02,6.373467636108398438e+01,-3.857957839965820312e+01
6.635360121726989746e-01,2.000000000000000000e+00,8.969760894775390625e+00,6.364506721496582031e+00,3.429201889038085938e+01,-1.153311614990234375e+02,9.061193847656250000e+01,-6.809977722167968750e+01,4.485361480712890625e+01,-1.437549781799316406e+01,-1.055860671997070312e+02,-1.213240356445312500e+02,6.373067092895507812e+01,-3.860913085937500000e+01
6.674669981002807617e-01,2.000000000000000000e+00,8.998380661010742188e+00,6.318024635314941406e+00,3.428536987304687500e+01,-1.153844070434570312e+02,9.061412811279296875e+01,-6.812466430664062500e+01,4.478225708007812500e+01,-1.436588382720947266e+01,-1.056011352539062500e+02,-1.213785400390625000e+02,6.372666168212890625e+01,-3.863857650756835938e+01
6.715350151062011719e-01,2.000000000000000000e+00,9.026944160461425781e+00,6.271543025970458984e+00,3.427865982055664062e+01,-1.154388351440429688e+02,9.061625671386718750e+01,-6.814941406250000000e+01,4.470969390869140625e+01,-1.435663795471191406e+01,-1.056164093017578125e+02,-1.214324569702148438e+02,6.372236633300781250e+01,-3.866955566406250000e+01
6.756979823112487793e-01,2.000000000000000000e+00,9.055421829223632812e+00,6.224653720855712891e+00,3.427203369140625000e+01,-1.154923934936523438e+02,9.061844635009765625e+01,-6.817389678955078125e+01,4.463669204711914062e+01,-1.434771060943603516e+01,-1.056317520141601562e+02,-1.214871826171875000e+02,6.371762466430664062e+01,-3.870108413696289062e+01
6.796200275421142578e-01,2.000000000000000000e+00,9.113064765930175781e+00,6.131554603576660156e+00,3.425918579101562500e+01,-1.156003799438476562e+02,9.062275695800781250e+01,-6.822123718261718750e+01,4.449227142333984375e+01,-1.432958316802978516e+01,-1.056619873046875000e+02,-1.215966873168945312e+02,6.370997619628906250e+01,-3.876140213012695312e+01
6.834530234336853027e-01,2.000000000000000000e+00,9.113064765930175781e+00,6.131554603576660156e+00,3.425918579101562500e+01,-1.156003799438476562e+02,9.062275695800781250e+01,-6.822123718261718750e+01,4.449227142333984375e+01,-1.432958316802978516e+01,-1.056619873046875000e+02,-1.215966873168945312e+02,6.370997619628906250e+01,-3.876140213012695312e+01
6.875420212745666504e-01,2.000000000000000000e+00,9.141742706298828125e+00,6.084800720214843750e+00,3.425263595581054688e+01,-1.156534805297851562e+02,9.062500000000000000e+01,-6.824536895751953125e+01,4.442070007324218750e+01,-1.432056617736816406e+01,-1.056775512695312500e+02,-1.216515426635742188e+02,6.370574951171875000e+01,-3.879216384887695312e+01
6.914849877357482910e-01,2.000000000000000000e+00,9.170392036437988281e+00,6.038228511810302734e+00,3.424592590332031250e+01,-1.157075729370117188e+02,9.062729644775390625e+01,-6.826951599121093750e+01,4.434818649291992188e+01,-1.431136512756347656e+01,-1.056930465698242188e+02,-1.217060470581054688e+02,6.370093917846679688e+01,-3.882259368896484375e+01
6.956570148468017578e-01,2.000000000000000000e+00,9.199070930480957031e+00,5.991565227508544922e+00,3.423942184448242188e+01,-1.157615051269531250e+02,9.062953186035156250e+01,-6.829373168945312500e+01,4.427501678466796875e+01,-1.430225467681884766e+01,-1.057082214355468750e+02,-1.217600479125976562e+02,6.369656753540039062e+01,-3.885247802734375000e+01
6.997010111808776855e-01,2.000000000000000000e+00,9.227719306945800781e+00,5.944834709167480469e+00,3.423281478881835938e+01,-1.158150787353515625e+02,9.063166809082031250e+01,-6.831841278076171875e+01,4.420273208618164062e+01,-1.429319095611572266e+01,-1.057234497070312500e+02,-1.218146209716796875e+02,6.369256591796875000e+01,-3.888203048706054688e+01
7.041820287704467773e-01,2.000000000000000000e+00,9.256340980529785156e+00,5.898262500762939453e+00,3.422614288330078125e+01,-1.158696517944335938e+02,9.063396453857421875e+01,-6.834323883056640625e+01,4.413126373291015625e+01,-1.428403663635253906e+01,-1.057385711669921875e+02,-1.218690414428710938e+02,6.368826293945312500e+01,-3.891246414184570312e+01
7.074639797210693359e-01,2.000000000000000000e+00,9.284990310668945312e+00,5.851712703704833984e+00,3.421961593627929688e+01,-1.159234313964843750e+02,9.063614654541015625e+01,-6.836771392822265625e+01,4.405957794189453125e+01,-1.427474403381347656e+01,-1.057541198730468750e+02,-1.219229736328125000e+02,6.368389129638671875e+01,-3.894344329833984375e+01
7.114850282669067383e-01,2.000000000000000000e+00,9.313552856445312500e+00,5.805207729339599609e+00,3.421308898925781250e+01,-1.159767913818359375e+02,9.063848876953125000e+01,-6.839104461669921875e+01,4.398712158203125000e+01,-1.426545143127441406e+01,-1.057694625854492188e+02,-1.219779052734375000e+02,6.367974090576171875e+01,-3.897354888916015625e+01
7.155380249023437500e-01,2.000000000000000000e+00,9.342059135437011719e+00,5.758658409118652344e+00,3.420689010620117188e+01,-1.160308837890625000e+02,9.064046478271484375e+01,-6.841450500488281250e+01,4.391406250000000000e+01,-1.425629520416259766e+01,-1.057845230102539062e+02,-1.220324096679687500e+02,6.367580413818359375e+01,-3.900321197509765625e+01
7.199209928512573242e-01,2.000000000000000000e+00,9.370795249938964844e+00,5.711905002593994141e+00,3.420036315917968750e+01,-1.160845565795898438e+02,9.064276123046875000e+01,-6.843913269042968750e+01,4.384199523925781250e+01,-1.424732398986816406e+01,-1.057999725341796875e+02,-1.220871200561523438e+02,6.367157745361328125e+01,-3.903507232666015625e+01
7.236279845237731934e-01,2.000000000000000000e+00,9.399444580078125000e+00,5.665309906005859375e+00,3.419381713867187500e+01,-1.161384887695312500e+02,9.064488983154296875e+01,-6.846300506591796875e+01,4.377047348022460938e+01,-1.423839664459228516e+01,-1.058153076171875000e+02,-1.221420440673828125e+02,6.366749954223632812e+01,-3.906649398803710938e+01
7.286549806594848633e-01,2.000000000000000000e+00,9.428179740905761719e+00,5.618782520294189453e+00,3.418716812133789062e+01,-1.161921768188476562e+02,9.064717864990234375e+01,-6.848734283447265625e+01,4.369884109497070312e+01,-1.422928810119628906e+01,-1.058302612304687500e+02,-1.221961975097656250e+02,6.366305160522460938e+01,-3.909670257568359375e+01
7.324560284614562988e-01,2.000000000000000000e+00,9.485391616821289062e+00,5.525660514831542969e+00,3.417389297485351562e+01,-1.162993698120117188e+02,9.065133666992187500e+01,-6.853712463378906250e+01,4.355382156372070312e+01,-1.421083927154541016e+01,-1.058606643676757812e+02,-1.223054122924804688e+02,6.365489196777343750e+01,-3.915745925903320312e+01
7.354930043220520020e-01,2.000000000000000000e+00,9.485391616821289062e+00,5.525660514831542969e+00,3.417389297485351562e+01,-1.162993698120117188e+02,9.065133666992187500e+01,-6.853712463378906250e+01,4.355382156372070312e+01,-1.421083927154541016e+01,-1.058606643676757812e+02,-1.223054122924804688e+02,6.365489196777343750e+01,-3.915745925903320312e+01
7.394580245018005371e-01,2.000000000000000000e+00,9.514013290405273438e+00,5.479156017303466797e+00,3.416730499267578125e+01,-1.163530960083007812e+02,9.065336608886718750e+01,-6.856113433837890625e+01,4.348153305053710938e+01,-1.420177555084228516e+01,-1.058757858276367188e+02,-1.223592605590820312e+02,6.365059661865234375e+01,-3.918733978271484375e+01
7.442409992218017578e-01,2.000000000000000000e+00,9.542719841003417969e+00,5.432697296142578125e+00,3.416061401367187500e+01,-1.164068756103515625e+02,9.065570831298828125e+01,-6.858425903320312500e+01,4.340973663330078125e+01,-1.419266700744628906e+01,-1.058911285400390625e+02,-1.224136123657226562e+02,6.364658737182617188e+01,-3.921667480468750000e+01
7.476580142974853516e-01,2.000000000000000000e+00,9.571426391601562500e+00,5.386011600494384766e+00,3.415425109863281250e+01,-1.164606933593750000e+02,9.065768432617187500e+01,-6.860820007324218750e+01,4.333837890625000000e+01,-1.418355751037597656e+01,-1.059060821533203125e+02,-1.224685592651367188e+02,6.364250946044921875e+01,-3.924743652343750000e+01
7.514889836311340332e-01,2.000000000000000000e+00,9.600219726562500000e+00,5.339506626129150391e+00,3.414784622192382812e+01,-1.165139617919921875e+02,9.065981292724609375e+01,-6.863213348388671875e+01,4.326620101928710938e+01,-1.417426490783691406e+01,-1.059212036132812500e+02,-1.225226974487304688e+02,6.363827896118164062e+01,-3.927896881103515625e+01
7.554429769515991211e-01,2.000000000000000000e+00,9.628869056701660156e+00,5.292844295501708984e+00,3.414122009277343750e+01,-1.165679473876953125e+02,9.066184234619140625e+01,-6.865607452392578125e+01,4.319330215454101562e+01,-1.416478919982910156e+01,-1.059363250732421875e+02,-1.225771331787109375e+02,6.363412857055664062e+01,-3.930994796752929688e+01
7.595319747924804688e-01,2.000000000000000000e+00,9.657317161560058594e+00,5.246339797973632812e+00,3.413463211059570312e+01,-1.166218872070312500e+02,9.066381835937500000e+01,-6.868035125732421875e+01,4.312073898315429688e+01,-1.415554237365722656e+01,-1.059512786865234375e+02,-1.226316223144531250e+02,6.362989807128906250e+01,-3.933939361572265625e+01
7.635269761085510254e-01,2.000000000000000000e+00,9.685966491699218750e+00,5.199948310852050781e+00,3.412806701660156250e+01,-1.166756668090820312e+02,9.066578674316406250e+01,-6.870571136474609375e+01,4.304899978637695312e+01,-1.414647769927978516e+01,-1.059664535522460938e+02,-1.226857681274414062e+02,6.362567901611328125e+01,-3.936949539184570312e+01
7.682290077209472656e-01,2.000000000000000000e+00,9.714644432067871094e+00,5.153376102447509766e+00,3.412149810791015625e+01,-1.167298202514648438e+02,9.066797637939453125e+01,-6.872992706298828125e+01,4.297758865356445312e+01,-1.413746070861816406e+01,-1.059814682006835938e+02,-1.227404785156250000e+02,6.362159347534179688e+01,-3.940058517456054688e+01
7.717469930648803711e-01,2.000000000000000000e+00,9.743236541748046875e+00,5.107007026672363281e+00,3.411495208740234375e+01,-1.167832717895507812e+02,9.067010498046875000e+01,-6.875359344482421875e+01,4.290530014038085938e+01,-1.412816810607910156e+01,-1.059964752197265625e+02,-1.227947006225585938e+02,6.361678695678710938e+01,-3.943046569824218750e+01
7.755920290946960449e-01,2.000000000000000000e+00,9.771800041198730469e+00,5.060615539550781250e+00,3.410838317871093750e+01,-1.168369064331054688e+02,9.067208099365234375e+01,-6.877706146240234375e+01,4.283240509033203125e+01,-1.411887550354003906e+01,-1.060118103027343750e+02,-1.228481216430664062e+02,6.361227035522460938e+01,-3.946068191528320312e+01
7.796959877014160156e-01,2.000000000000000000e+00,9.800420761108398438e+00,5.013862133026123047e+00,3.410199737548828125e+01,-1.168915710449218750e+02,9.067394256591796875e+01,-6.880072784423828125e+01,4.275983810424804688e+01,-1.410953712463378906e+01,-1.060274276733398438e+02,-1.229029006958007812e+02,6.360811996459960938e+01,-3.949078369140625000e+01
7.836449742317199707e-01,2.000000000000000000e+00,9.828840255737304688e+00,4.967289924621582031e+00,3.409563446044921875e+01,-1.169449310302734375e+02,9.067601776123046875e+01,-6.882480621337890625e+01,4.268837356567382812e+01,-1.410047340393066406e+01,-1.060427017211914062e+02,-1.229575576782226562e+02,6.360388946533203125e+01,-3.952198410034179688e+01
7.876430153846740723e-01,2.000000000000000000e+00,9.857575416564941406e+00,4.921011924743652344e+00,3.408929061889648438e+01,-1.169986572265625000e+02,9.067810821533203125e+01,-6.884887695312500000e+01,4.261696243286132812e+01,-1.409136390686035156e+01,-1.060577697753906250e+02,-1.230116271972656250e+02,6.359966278076171875e+01,-3.955274963378906250e+01
7.925369739532470703e-01,2.000000000000000000e+00,9.886254310607910156e+00,4.874507427215576172e+00,3.408276367187500000e+01,-1.170522308349609375e+02,9.067991638183593750e+01,-6.887363433837890625e+01,4.254483795166015625e+01,-1.408216190338134766e+01,-1.060725097656250000e+02,-1.230664062500000000e+02,6.359522247314453125e+01,-3.958108901977539062e+01
7.960249781608581543e-01,2.000000000000000000e+00,9.914903640747070312e+00,4.827957630157470703e+00,3.407613372802734375e+01,-1.171056442260742188e+02,9.068189239501953125e+01,-6.889824676513671875e+01,4.247194290161132812e+01,-1.407277870178222656e+01,-1.060875167846679688e+02,-1.231211242675781250e+02,6.359106826782226562e+01,-3.961031723022460938e+01
7.997499704360961914e-01,2.000000000000000000e+00,9.943324089050292969e+00,4.781520843505859375e+00,3.406952667236328125e+01,-1.171600494384765625e+02,9.068386077880859375e+01,-6.892211914062500000e+01,4.239943313598632812e+01,-1.406339359283447266e+01,-1.061028594970703125e+02,-1.231751251220703125e+02,6.358676528930664062e+01,-3.964173507690429688e+01
8.047919869422912598e-01,2.000000000000000000e+00,9.971943855285644531e+00,4.734812736511230469e+00,3.406294250488281250e+01,-1.172133178710937500e+02,9.068593597412109375e+01,-6.894585418701171875e+01,4.232785797119140625e+01,-1.405419349670410156e+01,-1.061183013916015625e+02,-1.232293319702148438e+02,6.358283233642578125e+01,-3.967359542846679688e+01
8.077340126037597656e-01,2.000000000000000000e+00,1.000027847290039062e+01,4.688376426696777344e+00,3.405625152587890625e+01,-1.172667694091796875e+02,9.068781280517578125e+01,-6.896958923339843750e+01,4.225627899169921875e+01,-1.404522132873535156e+01,-1.061335296630859375e+02,-1.232834167480468750e+02,6.357889938354492188e+01,-3.970325851440429688e+01
8.118500113487243652e-01,2.000000000000000000e+00,1.002901363372802734e+01,4.641758441925048828e+00,3.404962539672851562e+01,-1.173208618164062500e+02,9.068951416015625000e+01,-6.899332427978515625e+01,4.218404769897460938e+01,-1.403629493713378906e+01,-1.061486511230468750e+02,-1.233373336791992188e+02,6.357489013671875000e+01,-3.973281097412109375e+01
8.168600201606750488e-01,2.000000000000000000e+00,1.005772018432617188e+01,4.595231533050537109e+00,3.404322052001953125e+01,-1.173742370605468750e+02,9.069159698486328125e+01,-6.901767730712890625e+01,4.211115264892578125e+01,-1.402732276916503906e+01,-1.061642074584960938e+02,-1.233917694091796875e+02,6.357081222534179688e+01,-3.976445388793945312e+01
8.197320103645324707e-01,2.000000000000000000e+00,1.008636951446533203e+01,4.548749923706054688e+00,3.403671264648437500e+01,-1.174283676147460938e+02,9.069361877441406250e+01,-6.904188537597656250e+01,4.203886032104492188e+01,-1.401825904846191406e+01,-1.061797027587890625e+02,-1.234463424682617188e+02,6.356665802001953125e+01,-3.979532623291015625e+01
8.244180083274841309e-01,2.000000000000000000e+00,1.011476039886474609e+01,4.502200126647949219e+00,3.403018569946289062e+01,-1.174822616577148438e+02,9.069543457031250000e+01,-6.906663513183593750e+01,4.196750640869140625e+01,-1.400910282135009766e+01,-1.061952056884765625e+02,-1.235009841918945312e+02,6.356243133544921875e+01,-3.982399749755859375e+01
8.278390169143676758e-01,2.000000000000000000e+00,1.014317989349365234e+01,4.455649852752685547e+00,3.402363967895507812e+01,-1.175354156494140625e+02,9.069745635986328125e+01,-6.909118652343750000e+01,4.189625930786132812e+01,-1.400003910064697266e+01,-1.062102737426757812e+02,-1.235557708740234375e+02,6.355820465087890625e+01,-3.985355377197265625e+01
8.320080041885375977e-01,2.000000000000000000e+00,1.017168617248535156e+01,4.409191131591796875e+00,3.401699447631835938e+01,-1.175899887084960938e+02,9.069937133789062500e+01,-6.911499023437500000e+01,4.182418823242187500e+01,-1.399111366271972656e+01,-1.062253341674804688e+02,-1.236094055175781250e+02,6.355398178100585938e+01,-3.988552093505859375e+01
8.360260128974914551e-01,2.000000000000000000e+00,1.020042133331298828e+01,4.362776756286621094e+00,3.401040649414062500e+01,-1.176435470581054688e+02,9.070118713378906250e+01,-6.913865661621093750e+01,4.175129318237304688e+01,-1.398214149475097656e+01,-1.062405700683593750e+02,-1.236636199951171875e+02,6.354961013793945312e+01,-3.991661453247070312e+01
8.408330082893371582e-01,2.000000000000000000e+00,1.022904300689697266e+01,4.316317558288574219e+00,3.400379562377929688e+01,-1.176970138549804688e+02,9.070316314697265625e+01,-6.916225433349609375e+01,4.167894744873046875e+01,-1.397275733947753906e+01,-1.062556381225585938e+02,-1.237183303833007812e+02,6.354530715942382812e+01,-3.994572830200195312e+01
8.446900248527526855e-01,2.000000000000000000e+00,1.025757694244384766e+01,4.269881248474121094e+00,3.399724960327148438e+01,-1.177509994506835938e+02,9.070508575439453125e+01,-6.918626403808593750e+01,4.160759353637695312e+01,-1.396350955963134766e+01,-1.062711868286132812e+02,-1.237718429565429688e+02,6.354115676879882812e+01,-3.997594070434570312e+01
8.483800292015075684e-01,2.000000000000000000e+00,1.028599739074707031e+01,4.223286151885986328e+00,3.399086380004882812e+01,-1.178047256469726562e+02,9.070705413818359375e+01,-6.921061706542968750e+01,4.153607177734375000e+01,-1.395453739166259766e+01,-1.062866821289062500e+02,-1.238257598876953125e+02,6.353664016723632812e+01,-4.000703048706054688e+01
8.520330190658569336e-01,2.000000000000000000e+00,1.031464576721191406e+01,4.176691055297851562e+00,3.398451995849609375e+01,-1.178586196899414062e+02,9.070892333984375000e+01,-6.923502349853515625e+01,4.146378326416015625e+01,-1.394588661193847656e+01,-1.063017501831054688e+02,-1.238804016113281250e+02,6.353241348266601562e+01,-4.003702545166015625e+01
8.564530014991760254e-01,2.000000000000000000e+00,1.034332466125488281e+01,4.130277156829833984e+00,3.397809982299804688e+01,-1.179124526977539062e+02,9.071089935302734375e+01,-6.925991821289062500e+01,4.139099884033203125e+01,-1.393696022033691406e+01,-1.063167648315429688e+02,-1.239344024658203125e+02,6.352774810791015625e+01,-4.006591796875000000e+01
8.601970076560974121e-01,2.000000000000000000e+00,1.037211704254150391e+01,4.083817958831787109e+00,3.397153091430664062e+01,-1.179655532836914062e+02,9.071281433105468750e+01,-6.928439331054687500e+01,4.131865310668945312e+01,-1.392785072326660156e+01,-1.063317794799804688e+02,-1.239893417358398438e+02,6.352367019653320312e+01,-4.009601974487304688e+01
8.641719818115234375e-01,2.000000000000000000e+00,1.040070915222167969e+01,4.037381172180175781e+00,3.396490097045898438e+01,-1.180193328857421875e+02,9.071478271484375000e+01,-6.930826568603515625e+01,4.124751663208007812e+01,-1.391855812072753906e+01,-1.063469467163085938e+02,-1.240442657470703125e+02,6.351951599121093750e+01,-4.012733078002929688e+01
8.682119846343994141e-01,2.000000000000000000e+00,1.042927169799804688e+01,3.990967512130737305e+00,3.395837402343750000e+01,-1.180732650756835938e+02,9.071665191650390625e+01,-6.933200836181640625e+01,4.117621612548828125e+01,-1.390944862365722656e+01,-1.063623962402343750e+02,-1.240977630615234375e+02,6.351565933227539062e+01,-4.015798568725585938e+01
8.733869791030883789e-01,2.000000000000000000e+00,1.045769214630126953e+01,3.944304466247558594e+00,3.395176696777343750e+01,-1.181270446777343750e+02,9.071878814697265625e+01,-6.935581207275390625e+01,4.110387039184570312e+01,-1.390043067932128906e+01,-1.063775100708007812e+02,-1.241522674560546875e+02,6.351186752319335938e+01,-4.018753433227539062e+01
8.762230277061462402e-01,2.000000000000000000e+00,1.048622608184814453e+01,3.897777318954467773e+00,3.394517898559570312e+01,-1.181806182861328125e+02,9.072070312500000000e+01,-6.937975311279296875e+01,4.103097534179687500e+01,-1.389136695861816406e+01,-1.063927459716796875e+02,-1.242072677612304688e+02,6.350720214843750000e+01,-4.021730804443359375e+01
8.808169960975646973e-01,2.000000000000000000e+00,1.051479053497314453e+01,3.851295709609985352e+00,3.393859100341796875e+01,-1.182335510253906250e+02,9.072241210937500000e+01,-6.940450286865234375e+01,4.095846557617187500e+01,-1.388216590881347656e+01,-1.064079742431640625e+02,-1.242607574462890625e+02,6.350283050537109375e+01,-4.024927902221679688e+01
8.844910264015197754e-01,2.000000000000000000e+00,1.054349708557128906e+01,3.804655313491821289e+00,3.393210601806640625e+01,-1.182877044677734375e+02,9.072433471679687500e+01,-6.942972564697265625e+01,4.088722229003906250e+01,-1.387273597717285156e+01,-1.064232025146484375e+02,-1.243147583007812500e+02,6.349903869628906250e+01,-4.027993011474609375e+01
8.884009718894958496e-01,2.000000000000000000e+00,1.057208919525146484e+01,3.758309125900268555e+00,3.392572021484375000e+01,-1.183417434692382812e+02,9.072646331787109375e+01,-6.945401000976562500e+01,4.081586456298828125e+01,-1.386335086822509766e+01,-1.064384841918945312e+02,-1.243698348999023438e+02,6.349510574340820312e+01,-4.030849456787109375e+01
8.927839994430541992e-01,2.000000000000000000e+00,1.060045146942138672e+01,3.711918115615844727e+00,3.391917419433593750e+01,-1.183953628540039062e+02,9.072837829589843750e+01,-6.947828674316406250e+01,4.074351882934570312e+01,-1.385419654846191406e+01,-1.064535980224609375e+02,-1.244241943359375000e+02,6.349117279052734375e+01,-4.033903884887695312e+01
8.975200057029724121e-01,2.000000000000000000e+00,1.062895679473876953e+01,3.665368080139160156e+00,3.391270828247070312e+01,-1.184494171142578125e+02,9.073024749755859375e+01,-6.950195312500000000e+01,4.067073440551757812e+01,-1.384504127502441406e+01,-1.064686126708984375e+02,-1.244784774780273438e+02,6.348672485351562500e+01,-4.037056732177734375e+01
9.004529714584350586e-01,2.000000000000000000e+00,1.065749168395996094e+01,3.618931293487548828e+00,3.390610122680664062e+01,-1.185028686523437500e+02,9.073216247558593750e+01,-6.952562713623046875e+01,4.059855270385742188e+01,-1.383606910705566406e+01,-1.064835205078125000e+02,-1.245325469970703125e+02,6.348257064819335938e+01,-4.040155029296875000e+01
9.057300090789794922e-01,2.000000000000000000e+00,1.068596839904785156e+01,3.572698593139648438e+00,3.389953231811523438e+01,-1.185562820434570312e+02,9.073435211181640625e+01,-6.954956054687500000e+01,4.052753067016601562e+01,-1.382700538635253906e+01,-1.064984741210937500e+02,-1.245869827270507812e+02,6.347879028320312500e+01,-4.043066406250000000e+01
9.086030125617980957e-01,2.000000000000000000e+00,1.071450328826904297e+01,3.526103496551513672e+00,3.389288330078125000e+01,-1.186104812622070312e+02,9.073632812500000000e+01,-6.957390594482421875e+01,4.045595169067382812e+01,-1.381775760650634766e+01,-1.065138092041015625e+02,-1.246418457031250000e+02,6.347455978393554688e+01,-4.046120834350585938e+01
9.126229882240295410e-01,2.000000000000000000e+00,1.074289512634277344e+01,3.479621887207031250e+00,3.388633728027343750e+01,-1.186637878417968750e+02,9.073829650878906250e+01,-6.959825897216796875e+01,4.038376998901367188e+01,-1.380860328674316406e+01,-1.065292053222656250e+02,-1.246954727172851562e+02,6.346989440917968750e+01,-4.049361801147460938e+01
9.166060090065002441e-01,2.000000000000000000e+00,1.077131462097167969e+01,3.433298349380493164e+00,3.387987136840820312e+01,-1.187177352905273438e+02,9.074027252197265625e+01,-6.962321472167968750e+01,4.031093215942382812e+01,-1.379958534240722656e+01,-1.065444869995117188e+02,-1.247489013671875000e+02,6.346552276611328125e+01,-4.052492523193359375e+01
9.216539859771728516e-01,2.000000000000000000e+00,1.079990673065185547e+01,3.386861562728881836e+00,3.387367248535156250e+01,-1.187714614868164062e+02,9.074234771728515625e+01,-6.964775848388671875e+01,4.023908233642578125e+01,-1.379042911529541016e+01,-1.065597152709960938e+02,-1.248034057617187500e+02,6.346158981323242188e+01,-4.055371093750000000e+01
9.245799779891967773e-01,2.000000000000000000e+00,1.082849884033203125e+01,3.340492963790893555e+00,3.386714553833007812e+01,-1.188243942260742188e+02,9.074437713623046875e+01,-6.967210388183593750e+01,4.016772460937500000e+01,-1.378141212463378906e+01,-1.065749435424804688e+02,-1.248579788208007812e+02,6.345736312866210938e+01,-4.058403396606445312e+01
9.286190271377563477e-01,2.000000000000000000e+00,1.085697555541992188e+01,3.294147014617919922e+00,3.386057662963867188e+01,-1.188784484863281250e+02,9.074634552001953125e+01,-6.969515991210937500e+01,4.009642410278320312e+01,-1.377198219299316406e+01,-1.065900650024414062e+02,-1.249123992919921875e+02,6.345277404785156250e+01,-4.061589431762695312e+01
9.313970208168029785e-01,2.000000000000000000e+00,1.088545322418212891e+01,3.247642517089843750e+00,3.385411453247070312e+01,-1.189319534301757812e+02,9.074848175048828125e+01,-6.971882629394531250e+01,4.002418899536132812e+01,-1.376268959045410156e+01,-1.066051864624023438e+02,-1.249669723510742188e+02,6.344847488403320312e+01,-4.064577484130859375e+01
9.353929758071899414e-01,2.000000000000000000e+00,1.091384315490722656e+01,3.201251029968261719e+00,3.384750366210937500e+01,-1.189854202270507812e+02,9.075045776367187500e+01,-6.974276733398437500e+01,3.995156860351562500e+01,-1.375371742248535156e+01,-1.066204071044921875e+02,-1.250210418701171875e+02,6.344468688964843750e+01,-4.067456054687500000e+01
9.408929944038391113e-01,2.000000000000000000e+00,1.094211959838867188e+01,3.154723882675170898e+00,3.384091567993164062e+01,-1.190391998291015625e+02,9.075258636474609375e+01,-6.976705169677734375e+01,3.987949752807617188e+01,-1.374497413635253906e+01,-1.066355285644531250e+02,-1.250756835937500000e+02,6.344053268432617188e+01,-4.070499420166015625e+01
9.434090256690979004e-01,2.000000000000000000e+00,1.097065448760986328e+01,3.108264923095703125e+00,3.383432769775390625e+01,-1.190925064086914062e+02,9.075460815429687500e+01,-6.979159545898437500e+01,3.980819702148437500e+01,-1.373600196838378906e+01,-1.066509246826171875e+02,-1.251302566528320312e+02,6.343586730957031250e+01,-4.073575592041015625e+01
9.474020004272460938e-01,2.000000000000000000e+00,1.099913120269775391e+01,3.061941385269165039e+00,3.382767868041992188e+01,-1.191461334228515625e+02,9.075679779052734375e+01,-6.981608581542968750e+01,3.973689651489257812e+01,-1.372698402404785156e+01,-1.066658782958984375e+02,-1.251836166381835938e+02,6.343149566650390625e+01,-4.076486968994140625e+01
9.515309929847717285e-01,2.000000000000000000e+00,1.102749347686767578e+01,3.015549898147583008e+00,3.382131958007812500e+01,-1.191999588012695312e+02,9.075893402099609375e+01,-6.984049224853515625e+01,3.966488265991210938e+01,-1.371792030334472656e+01,-1.066812744140625000e+02,-1.252378311157226562e+02,6.342763900756835938e+01,-4.079420471191406250e+01
9.568390250205993652e-01,2.000000000000000000e+00,1.105597114562988281e+01,2.969135999679565430e+00,3.381487274169921875e+01,-1.192532730102539062e+02,9.076111602783203125e+01,-6.986436462402343750e+01,3.959215164184570312e+01,-1.370894813537597656e+01,-1.066968231201171875e+02,-1.252923202514648438e+02,6.342362976074218750e+01,-4.082583999633789062e+01
9.594190120697021484e-01,2.000000000000000000e+00,1.108453369140625000e+01,2.922790050506591797e+00,3.380832672119140625e+01,-1.193073120117187500e+02,9.076313781738281250e+01,-6.988783264160156250e+01,3.951975250244140625e+01,-1.369992923736572266e+01,-1.067119979858398438e+02,-1.253463897705078125e+02,6.341955184936523438e+01,-4.085737228393554688e+01
9.634720087051391602e-01,2.000000000000000000e+00,1.111286830902099609e+01,2.876421213150024414e+00,3.380179977416992188e+01,-1.193614654541015625e+02,9.076522064208984375e+01,-6.991136169433593750e+01,3.944839477539062500e+01,-1.369077491760253906e+01,-1.067270126342773438e+02,-1.254008255004882812e+02,6.341510391235351562e+01,-4.088714599609375000e+01
9.674550294876098633e-01,2.000000000000000000e+00,1.114157485961914062e+01,2.830097675323486328e+00,3.379525375366210938e+01,-1.194142303466796875e+02,9.076750946044921875e+01,-6.993544006347656250e+01,3.937715148925781250e+01,-1.368161964416503906e+01,-1.067423477172851562e+02,-1.254553298950195312e+02,6.341051483154296875e+01,-4.091714096069335938e+01
9.713969826698303223e-01,2.000000000000000000e+00,1.117013740539550781e+01,2.783706426620483398e+00,3.378874588012695312e+01,-1.194681243896484375e+02,9.076991271972656250e+01,-6.995964813232421875e+01,3.930491638183593750e+01,-1.367241859436035156e+01,-1.067577438354492188e+02,-1.255093307495117188e+02,6.340694046020507812e+01,-4.094789886474609375e+01
9.754059910774230957e-01,2.000000000000000000e+00,1.119870185852050781e+01,2.737292528152465820e+00,3.378218078613281250e+01,-1.195219573974609375e+02,9.077188873291015625e+01,-6.998419952392578125e+01,3.923218536376953125e+01,-1.366298866271972656e+01,-1.067729644775390625e+02,-1.255638885498046875e+02,6.340286254882812500e+01,-4.097822189331054688e+01
9.817810058593750000e-01,2.000000000000000000e+00,1.122723579406738281e+01,2.690968990325927734e+00,3.377559280395507812e+01,-1.195752639770507812e+02,9.077423095703125000e+01,-7.000854492187500000e+01,3.915983963012695312e+01,-1.365410709381103516e+01,-1.067884750366210938e+02,-1.256176834106445312e+02,6.339871215820312500e+01,-4.100722503662109375e+01
9.833899736404418945e-01,2.000000000000000000e+00,1.125582790374755859e+01,2.644623041152954102e+00,3.376928710937500000e+01,-1.196291503906250000e+02,9.077630615234375000e+01,-7.003302764892578125e+01,3.908864593505859375e+01,-1.364499855041503906e+01,-1.068036422729492188e+02,-1.256713180541992188e+02,6.339477539062500000e+01,-4.103678131103515625e+01
9.874539971351623535e-01,2.000000000000000000e+00,1.128424739837646484e+01,2.598276853561401367e+00,3.376298522949218750e+01,-1.196823043823242188e+02,9.077865600585937500e+01,-7.005649566650390625e+01,3.901740264892578125e+01,-1.363607120513916016e+01,-1.068186035156250000e+02,-1.257261047363281250e+02,6.339025497436523438e+01,-4.106853103637695312e+01
9.914090037345886230e-01,2.000000000000000000e+00,1.131298351287841797e+01,2.551862955093383789e+00,3.375662231445312500e+01,-1.197356643676757812e+02,9.078089904785156250e+01,-7.007995605468750000e+01,3.894538879394531250e+01,-1.362687015533447266e+01,-1.068338317871093750e+02,-1.257807464599609375e+02,6.338574218750000000e+01,-4.109994888305664062e+01
9.954959750175476074e-01,2.000000000000000000e+00,1.134154605865478516e+01,2.505471467971801758e+00,3.375011825561523438e+01,-1.197892761230468750e+02,9.078287506103515625e+01,-7.010342407226562500e+01,3.887271118164062500e+01,-1.361762428283691406e+01,-1.068487243652343750e+02,-1.258343963623046875e+02,6.338158798217773438e+01,-4.112939453125000000e+01
9.994559884071350098e-01,2.000000000000000000e+00,1.136993789672851562e+01,2.459057569503784180e+00,3.374350738525390625e+01,-1.198428573608398438e+02,9.078500366210937500e+01,-7.012756347656250000e+01,3.880042266845703125e+01,-1.360851478576660156e+01,-1.068639602661132812e+02,-1.258892517089843750e+02,6.337721633911132812e+01,-4.115895080566406250e+01
1.003399014472961426e+00,2.000000000000000000e+00,1.139841461181640625e+01,2.412643432617187500e+00,3.373704528808593750e+01,-1.198967285156250000e+02,9.078734588623046875e+01,-7.015225219726562500e+01,3.872911834716796875e+01,-1.359931278228759766e+01,-1.068794631958007812e+02,-1.259436798095703125e+02,6.337298965454101562e+01,-4.119080734252929688e+01
1.007987976074218750e+00,2.000000000000000000e+00,1.142689132690429688e+01,2.366229534149169922e+00,3.373039627075195312e+01,-1.199497756958007812e+02,9.078958892822265625e+01,-7.017680358886718750e+01,3.865771102905273438e+01,-1.359015846252441406e+01,-1.068945236206054688e+02,-1.259977416992187500e+02,6.336876678466796875e+01,-4.122179031372070312e+01
1.011389017105102539e+00,2.000000000000000000e+00,1.145548343658447266e+01,2.319612026214599609e+00,3.372374343872070312e+01,-1.200035018920898438e+02,9.079177093505859375e+01,-7.020087432861328125e+01,3.858569717407226562e+01,-1.358095741271972656e+01,-1.069092636108398438e+02,-1.260519638061523438e+02,6.336424636840820312e+01,-4.125090408325195312e+01
1.015463948249816895e+00,2.000000000000000000e+00,1.148407554626464844e+01,2.273243188858032227e+00,3.371711730957031250e+01,-1.200573883056640625e+02,9.079380035400390625e+01,-7.022467803955078125e+01,3.851290893554687500e+01,-1.357166481018066406e+01,-1.069245529174804688e+02,-1.261061019897460938e+02,6.335995101928710938e+01,-4.127990722656250000e+01
1.019461035728454590e+00,2.000000000000000000e+00,1.151258087158203125e+01,2.227032899856567383e+00,3.371075439453125000e+01,-1.201105422973632812e+02,9.079582214355468750e+01,-7.024848175048828125e+01,3.844100570678710938e+01,-1.356228065490722656e+01,-1.069399948120117188e+02,-1.261599578857421875e+02,6.335623550415039062e+01,-4.131055831909179688e+01
1.023447990417480469e+00,2.000000000000000000e+00,1.154088592529296875e+01,2.180641651153564453e+00,3.370426940917968750e+01,-1.201645812988281250e+02,9.079806518554687500e+01,-7.027187347412109375e+01,3.836975860595703125e+01,-1.355303382873535156e+01,-1.069551696777343750e+02,-1.262142486572265625e+02,6.335236740112304688e+01,-4.134164810180664062e+01
1.027492046356201172e+00,2.000000000000000000e+00,1.156936359405517578e+01,2.134295701980590820e+00,3.369778060913085938e+01,-1.202183074951171875e+02,9.080014801025390625e+01,-7.029554748535156250e+01,3.829867935180664062e+01,-1.354397010803222656e+01,-1.069698028564453125e+02,-1.262687530517578125e+02,6.334828948974609375e+01,-4.137087249755859375e+01
1.031625032424926758e+00,2.000000000000000000e+00,1.159781169891357422e+01,2.087949514389038086e+00,3.369117736816406250e+01,-1.202714080810546875e+02,9.080233001708984375e+01,-7.031982421875000000e+01,3.822682571411132812e+01,-1.353490638732910156e+01,-1.069847564697265625e+02,-1.263230285644531250e+02,6.334384536743164062e+01,-4.140075683593750000e+01
1.035418987274169922e+00,2.000000000000000000e+00,1.162643241882324219e+01,2.041422367095947266e+00,3.368456649780273438e+01,-1.203258743286132812e+02,9.080425262451171875e+01,-7.034443664550781250e+01,3.815409469604492188e+01,-1.352570533752441406e+01,-1.070000915527343750e+02,-1.263776779174804688e+02,6.333976745605468750e+01,-4.143251037597656250e+01
1.042634963989257812e+00,2.000000000000000000e+00,1.165488147735595703e+01,1.995008468627929688e+00,3.367803955078125000e+01,-1.203791732788085938e+02,9.080643463134765625e+01,-7.036919403076171875e+01,3.808180618286132812e+01,-1.351632118225097656e+01,-1.070154342651367188e+02,-1.264315948486328125e+02,6.333583450317382812e+01,-4.146348953247070312e+01
1.044056057929992676e+00,2.000000000000000000e+00,1.168321418762207031e+01,1.948843359947204590e+00,3.367147445678710938e+01,-1.204326400756835938e+02,9.080825042724609375e+01,-7.039360809326171875e+01,3.801050567626953125e+01,-1.350721168518066406e+01,-1.070308227539062500e+02,-1.264854583740234375e+02,6.333168029785156250e+01,-4.149271392822265625e+01
1.047389030456542969e+00,2.000000000000000000e+00,1.171154880523681641e+01,1.902565240859985352e+00,3.366494750976562500e+01,-1.204862594604492188e+02,9.081033325195312500e+01,-7.041761779785156250e+01,3.793958663940429688e+01,-1.349837684631347656e+01,-1.070461044311523438e+02,-1.265401000976562500e+02,6.332752609252929688e+01,-4.152083587646484375e+01
1.051385998725891113e+00,2.000000000000000000e+00,1.174002552032470703e+01,1.856173992156982422e+00,3.365860366821289062e+01,-1.205392456054687500e+02,9.081240844726562500e+01,-7.044100952148437500e+01,3.786746215820312500e+01,-1.348940467834472656e+01,-1.070611114501953125e+02,-1.265936660766601562e+02,6.332373809814453125e+01,-4.155039215087890625e+01
1.057649016380310059e+00,2.000000000000000000e+00,1.176856040954589844e+01,1.809759974479675293e+00,3.365228271484375000e+01,-1.205931396484375000e+02,9.081432342529296875e+01,-7.046461486816406250e+01,3.779467773437500000e+01,-1.348015689849853516e+01,-1.070759582519531250e+02,-1.266477355957031250e+02,6.331943893432617188e+01,-4.158027267456054688e+01
1.059401035308837891e+00,2.000000000000000000e+00,1.179689407348632812e+01,1.763255357742309570e+00,3.364595794677734375e+01,-1.206471786499023438e+02,9.081619262695312500e+01,-7.048902893066406250e+01,3.772249984741210938e+01,-1.347068214416503906e+01,-1.070910873413085938e+02,-1.267021713256835938e+02,6.331528091430664062e+01,-4.161015319824218750e+01
1.063488006591796875e+00,2.000000000000000000e+00,1.182528495788574219e+01,1.716841459274291992e+00,3.363936996459960938e+01,-1.206999588012695312e+02,9.081827545166015625e+01,-7.051344299316406250e+01,3.765152740478515625e+01,-1.346134376525878906e+01,-1.071062622070312500e+02,-1.267562332153320312e+02,6.331149673461914062e+01,-4.164070129394531250e+01
1.069784998893737793e+00,2.000000000000000000e+00,1.185381889343261719e+01,1.670404791831970215e+00,3.363284301757812500e+01,-1.207536849975585938e+02,9.082025146484375000e+01,-7.053771972656250000e+01,3.758050155639648438e+01,-1.345246219635009766e+01,-1.071214828491210938e+02,-1.268104553222656250e+02,6.330748748779296875e+01,-4.167102050781250000e+01
1.071406960487365723e+00,2.000000000000000000e+00,1.188200950622558594e+01,1.624081492424011230e+00,3.362639617919921875e+01,-1.208071517944335938e+02,9.082238006591796875e+01,-7.056240844726562500e+01,3.750837326049804688e+01,-1.344353580474853516e+01,-1.071365509033203125e+02,-1.268648071289062500e+02,6.330333328247070312e+01,-4.170123291015625000e+01
1.076426029205322266e+00,2.000000000000000000e+00,1.191051578521728516e+01,1.577690005302429199e+00,3.361981201171875000e+01,-1.208605651855468750e+02,9.082408905029296875e+01,-7.058715820312500000e+01,3.743564605712890625e+01,-1.343456363677978516e+01,-1.071515655517578125e+02,-1.269186553955078125e+02,6.329882049560546875e+01,-4.173199462890625000e+01
1.079470038414001465e+00,2.000000000000000000e+00,1.193904972076416016e+01,1.531434535980224609e+00,3.361320114135742188e+01,-1.209147720336914062e+02,9.082604980468750000e+01,-7.061028289794921875e+01,3.736324691772460938e+01,-1.342559242248535156e+01,-1.071668472290039062e+02,-1.269734497070312500e+02,6.329459381103515625e+01,-4.176209640502929688e+01
1.083397030830383301e+00,2.000000000000000000e+00,1.196761322021484375e+01,1.484907507896423340e+00,3.360659408569335938e+01,-1.209679641723632812e+02,9.082792663574218750e+01,-7.063394927978515625e+01,3.729211044311523438e+01,-1.341657447814941406e+01,-1.071824569702148438e+02,-1.270278701782226562e+02,6.329006958007812500e+01,-4.179319000244140625e+01
1.091055035591125488e+00,2.000000000000000000e+00,1.196761322021484375e+01,1.484907507896423340e+00,3.360659408569335938e+01,-1.209679641723632812e+02,9.082792663574218750e+01,-7.063394927978515625e+01,3.729211044311523438e+01,-1.341657447814941406e+01,-1.071824569702148438e+02,-1.270278701782226562e+02,6.329006958007812500e+01,-4.179319000244140625e+01
1.092475056648254395e+00,2.000000000000000000e+00,1.202450942993164062e+01,1.392124772071838379e+00,3.359382629394531250e+01,-1.210757293701171875e+02,9.083180999755859375e+01,-7.068196868896484375e+01,3.714896011352539062e+01,-1.339849281311035156e+01,-1.072128601074218750e+02,-1.271355819702148438e+02,6.328184127807617188e+01,-4.185482406616210938e+01
1.095389962196350098e+00,2.000000000000000000e+00,1.205292987823486328e+01,1.345959782600402832e+00,3.358734130859375000e+01,-1.211288833618164062e+02,9.083367919921875000e+01,-7.070618438720703125e+01,3.707611846923828125e+01,-1.338961219787597656e+01,-1.072279205322265625e+02,-1.271901550292968750e+02,6.327724838256835938e+01,-4.188525390625000000e+01
1.099437952041625977e+00,2.000000000000000000e+00,1.205292987823486328e+01,1.345959782600402832e+00,3.358734130859375000e+01,-1.211288833618164062e+02,9.083367919921875000e+01,-7.070618438720703125e+01,3.707611846923828125e+01,-1.338961219787597656e+01,-1.072279205322265625e+02,-1.271901550292968750e+02,6.327724838256835938e+01,-4.188525390625000000e+01
1.104401946067810059e+00,2.000000000000000000e+00,1.208166599273681641e+01,1.299681544303894043e+00,3.358073043823242188e+01,-1.211825561523437500e+02,9.083554840087890625e+01,-7.073079681396484375e+01,3.700404739379882812e+01,-1.338059425354003906e+01,-1.072428741455078125e+02,-1.272443771362304688e+02,6.327323913574218750e+01,-4.191568756103515625e+01
1.108222007751464844e+00,2.000000000000000000e+00,1.213890647888183594e+01,1.206876158714294434e+00,3.356765747070312500e+01,-1.212900085449218750e+02,9.083922576904296875e+01,-7.078009796142578125e+01,3.686194229125976562e+01,-1.336200809478759766e+01,-1.072732772827148438e+02,-1.273529510498046875e+02,6.326493453979492188e+01,-4.197556304931640625e+01
1.111399054527282715e+00,2.000000000000000000e+00,1.216732597351074219e+01,1.160643339157104492e+00,3.356115341186523438e+01,-1.213436431884765625e+02,9.084124755859375000e+01,-7.080342864990234375e+01,3.678992462158203125e+01,-1.335317325592041016e+01,-1.072887802124023438e+02,-1.274068679809570312e+02,6.326070785522460938e+01,-4.200588226318359375e+01
