rpiRobotics/ARM-21-02-F-19-Robot-Motion-Program/data_performance_abb/curve_2/dual_arm/diffevo_pose6/grad_result/real/run_8.csv
timestamp,cmd_num,J1,J2,J3,J4,J5,J6,J1_2,J2_2,J3_2,J4_2,J5_2,J6_2
2.749999985098838806e-04,-1.000000000000000000e+00,5.492905616760253906e+00,1.202481555938720703e+01,3.508054733276367188e+01,-1.087818832397460938e+02,9.036631011962890625e+01,-6.516045379638671875e+01,5.363630294799804688e+01,-1.548909854888916016e+01,-1.037325286865234375e+02,-1.146968383789062500e+02,6.423976135253906250e+01,-3.491080474853515625e+01
1.746000023558735847e-03,-1.000000000000000000e+00,5.492762088775634766e+00,1.202476978302001953e+01,3.508054733276367188e+01,-1.087818832397460938e+02,9.036620330810546875e+01,-6.516045379638671875e+01,5.363630294799804688e+01,-1.548905372619628906e+01,-1.037324752807617188e+02,-1.146968383789062500e+02,6.423960876464843750e+01,-3.491091537475585938e+01
4.342999774962663651e-03,-1.000000000000000000e+00,5.492848396301269531e+00,1.202481555938720703e+01,3.508057022094726562e+01,-1.087818832397460938e+02,9.036620330810546875e+01,-6.516045379638671875e+01,5.363630294799804688e+01,-1.548909854888916016e+01,-1.037323684692382812e+02,-1.146968383789062500e+02,6.423976135253906250e+01,-3.491080474853515625e+01
7.170000113546848297e-03,-1.000000000000000000e+00,5.492848396301269531e+00,1.202481555938720703e+01,3.508057022094726562e+01,-1.087818832397460938e+02,9.036620330810546875e+01,-6.516045379638671875e+01,5.363630294799804688e+01,-1.548909854888916016e+01,-1.037323684692382812e+02,-1.146968383789062500e+02,6.423976135253906250e+01,-3.491080474853515625e+01
1.228999998420476913e-02,-1.000000000000000000e+00,5.492905616760253906e+00,1.202476978302001953e+01,3.508057022094726562e+01,-1.087819824218750000e+02,9.036620330810546875e+01,-6.516059112548828125e+01,5.363630294799804688e+01,-1.548909854888916016e+01,-1.037324752807617188e+02,-1.146968383789062500e+02,6.423960876464843750e+01,-3.491080474853515625e+01
1.521399989724159241e-02,-1.000000000000000000e+00,5.492905616760253906e+00,1.202476978302001953e+01,3.508057022094726562e+01,-1.087819824218750000e+02,9.036620330810546875e+01,-6.516059112548828125e+01,5.363630294799804688e+01,-1.548909854888916016e+01,-1.037324752807617188e+02,-1.146968383789062500e+02,6.423960876464843750e+01,-3.491080474853515625e+01
1.948699913918972015e-02,-1.000000000000000000e+00,5.492848396301269531e+00,1.202476978302001953e+01,3.508054733276367188e+01,-1.087819824218750000e+02,9.036631011962890625e+01,-6.516045379638671875e+01,5.363630294799804688e+01,-1.548905372619628906e+01,-1.037324752807617188e+02,-1.146968383789062500e+02,6.423960876464843750e+01,-3.491080474853515625e+01
2.408500015735626221e-02,-1.000000000000000000e+00,5.492848396301269531e+00,1.202481555938720703e+01,3.508054733276367188e+01,-1.087820434570312500e+02,9.036620330810546875e+01,-6.516045379638671875e+01,5.363630294799804688e+01,-1.548896217346191406e+01,-1.037324752807617188e+02,-1.146968383789062500e+02,6.423960876464843750e+01,-3.491080474853515625e+01
2.741499990224838257e-02,-1.000000000000000000e+00,5.492848396301269531e+00,1.202476978302001953e+01,3.508050918579101562e+01,-1.087819824218750000e+02,9.036620330810546875e+01,-6.516045379638671875e+01,5.363619613647460938e+01,-1.548905372619628906e+01,-1.037324752807617188e+02,-1.146968383789062500e+02,6.423960876464843750e+01,-3.491080474853515625e+01
3.287500143051147461e-02,-1.000000000000000000e+00,5.492848396301269531e+00,1.202476978302001953e+01,3.508054733276367188e+01,-1.087818832397460938e+02,9.036620330810546875e+01,-6.516024780273437500e+01,5.363630294799804688e+01,-1.548909854888916016e+01,-1.037324752807617188e+02,-1.146968383789062500e+02,6.423960876464843750e+01,-3.491091537475585938e+01
4.329200088977813721e-02,2.000000000000000000e+00,5.492848396301269531e+00,1.202481555938720703e+01,3.508057022094726562e+01,-1.087819824218750000e+02,9.036631011962890625e+01,-6.516045379638671875e+01,5.363630294799804688e+01,-1.548909854888916016e+01,-1.037323684692382812e+02,-1.146968383789062500e+02,6.423960876464843750e+01,-3.491080474853515625e+01
4.825299978256225586e-02,2.000000000000000000e+00,5.492848396301269531e+00,1.202476978302001953e+01,3.508057022094726562e+01,-1.087819824218750000e+02,9.036631011962890625e+01,-6.516045379638671875e+01,5.363630294799804688e+01,-1.548905372619628906e+01,-1.037324752807617188e+02,-1.146968383789062500e+02,6.423960876464843750e+01,-3.491080474853515625e+01
5.426099896430969238e-02,2.000000000000000000e+00,5.492905616760253906e+00,1.202476978302001953e+01,3.508050918579101562e+01,-1.087818298339843750e+02,9.036620330810546875e+01,-6.516045379638671875e+01,5.363619613647460938e+01,-1.548905372619628906e+01,-1.037324752807617188e+02,-1.146968383789062500e+02,6.423960876464843750e+01,-3.491080474853515625e+01
9.659299999475479126e-02,2.000000000000000000e+00,5.492848396301269531e+00,1.202476978302001953e+01,3.508054733276367188e+01,-1.087820434570312500e+02,9.036620330810546875e+01,-6.516024780273437500e+01,5.363630294799804688e+01,-1.548909854888916016e+01,-1.037323684692382812e+02,-1.146968383789062500e+02,6.423976135253906250e+01,-3.491080474853515625e+01
9.798800200223922729e-02,2.000000000000000000e+00,5.492905616760253906e+00,1.202481555938720703e+01,3.508057022094726562e+01,-1.087819824218750000e+02,9.036620330810546875e+01,-6.516045379638671875e+01,5.363630294799804688e+01,-1.548909854888916016e+01,-1.037323684692382812e+02,-1.146968383789062500e+02,6.423976135253906250e+01,-3.491080474853515625e+01
1.015639975666999817e-01,2.000000000000000000e+00,5.492848396301269531e+00,1.202481555938720703e+01,3.508057022094726562e+01,-1.087819824218750000e+02,9.036631011962890625e+01,-6.516045379638671875e+01,5.363630294799804688e+01,-1.548905372619628906e+01,-1.037324752807617188e+02,-1.146968383789062500e+02,6.423960876464843750e+01,-3.491080474853515625e+01
1.038369983434677124e-01,2.000000000000000000e+00,5.492848396301269531e+00,1.202481555938720703e+01,3.508057022094726562e+01,-1.087819824218750000e+02,9.036631011962890625e+01,-6.516045379638671875e+01,5.363630294799804688e+01,-1.548905372619628906e+01,-1.037324752807617188e+02,-1.146968383789062500e+02,6.423960876464843750e+01,-3.491080474853515625e+01
1.067550033330917358e-01,2.000000000000000000e+00,5.492991924285888672e+00,1.202472496032714844e+01,3.508054733276367188e+01,-1.087819824218750000e+02,9.036631011962890625e+01,-6.516024780273437500e+01,5.363630294799804688e+01,-1.548905372619628906e+01,-1.037324752807617188e+02,-1.146968383789062500e+02,6.423976135253906250e+01,-3.491080474853515625e+01
1.094919964671134949e-01,2.000000000000000000e+00,5.493250370025634766e+00,1.202445316314697266e+01,3.508057022094726562e+01,-1.087819824218750000e+02,9.036631011962890625e+01,-6.516045379638671875e+01,5.363630294799804688e+01,-1.548905372619628906e+01,-1.037323684692382812e+02,-1.146968383789062500e+02,6.423976135253906250e+01,-3.491080474853515625e+01
1.107899993658065796e-01,2.000000000000000000e+00,5.493250370025634766e+00,1.202445316314697266e+01,3.508057022094726562e+01,-1.087819824218750000e+02,9.036631011962890625e+01,-6.516045379638671875e+01,5.363630294799804688e+01,-1.548905372619628906e+01,-1.037323684692382812e+02,-1.146968383789062500e+02,6.423976135253906250e+01,-3.491080474853515625e+01
1.134150028228759766e-01,2.000000000000000000e+00,5.493967533111572266e+00,1.202386474609375000e+01,3.508054733276367188e+01,-1.087819824218750000e+02,9.036631011962890625e+01,-6.516045379638671875e+01,5.363630294799804688e+01,-1.548909854888916016e+01,-1.037323684692382812e+02,-1.146968383789062500e+02,6.423960876464843750e+01,-3.491080474853515625e+01
1.255609989166259766e-01,2.000000000000000000e+00,5.495202064514160156e+00,1.202264213562011719e+01,3.508057022094726562e+01,-1.087818832397460938e+02,9.036631011962890625e+01,-6.516045379638671875e+01,5.363504028320312500e+01,-1.548946571350097656e+01,-1.037298660278320312e+02,-1.146973495483398438e+02,6.423946380615234375e+01,-3.491080474853515625e+01
1.269479990005493164e-01,2.000000000000000000e+00,5.499967575073242188e+00,1.201780033111572266e+01,3.508050918579101562e+01,-1.087821960449218750e+02,9.036641693115234375e+01,-6.516059112548828125e+01,5.363295364379882812e+01,-1.549024391174316406e+01,-1.037273635864257812e+02,-1.146980590820312500e+02,6.423873901367187500e+01,-3.491124343872070312e+01
1.294279992580413818e-01,2.000000000000000000e+00,5.503326416015625000e+00,1.201368141174316406e+01,3.508054733276367188e+01,-1.087825698852539062e+02,9.036641693115234375e+01,-6.516059112548828125e+01,5.362932586669921875e+01,-1.549106693267822266e+01,-1.037261123657226562e+02,-1.146988525390625000e+02,6.423691558837890625e+01,-3.491234207153320312e+01
1.307139992713928223e-01,2.000000000000000000e+00,5.503326416015625000e+00,1.201368141174316406e+01,3.508054733276367188e+01,-1.087825698852539062e+02,9.036641693115234375e+01,-6.516059112548828125e+01,5.362932586669921875e+01,-1.549106693267822266e+01,-1.037261123657226562e+02,-1.146988525390625000e+02,6.423691558837890625e+01,-3.491234207153320312e+01
1.334049999713897705e-01,2.000000000000000000e+00,5.507402896881103516e+00,1.200820541381835938e+01,3.508050918579101562e+01,-1.087839889526367188e+02,9.036652374267578125e+01,-6.516092681884765625e+01,5.362449645996093750e+01,-1.549152469635009766e+01,-1.037250213623046875e+02,-1.146997070312500000e+02,6.423371124267578125e+01,-3.491464996337890625e+01
1.374830007553100586e-01,2.000000000000000000e+00,5.512397766113281250e+00,1.200132560729980469e+01,3.508042526245117188e+01,-1.087870941162109375e+02,9.036652374267578125e+01,-6.516161346435546875e+01,5.361790466308593750e+01,-1.549138832092285156e+01,-1.037240447998046875e+02,-1.147015838623046875e+02,6.422911834716796875e+01,-3.491629791259765625e+01
1.388189941644668579e-01,2.000000000000000000e+00,5.512397766113281250e+00,1.200132560729980469e+01,3.508042526245117188e+01,-1.087870941162109375e+02,9.036652374267578125e+01,-6.516161346435546875e+01,5.361790466308593750e+01,-1.549138832092285156e+01,-1.037240447998046875e+02,-1.147015838623046875e+02,6.422911834716796875e+01,-3.491629791259765625e+01
1.412760019302368164e-01,2.000000000000000000e+00,5.518023967742919922e+00,1.199263572692871094e+01,3.508028411865234375e+01,-1.087918930053710938e+02,9.036652374267578125e+01,-6.516330718994140625e+01,5.360943984985351562e+01,-1.549070167541503906e+01,-1.037230682373046875e+02,-1.147039413452148438e+02,6.422445678710937500e+01,-3.491772460937500000e+01
1.425479948520660400e-01,2.000000000000000000e+00,5.518023967742919922e+00,1.199263572692871094e+01,3.508028411865234375e+01,-1.087918930053710938e+02,9.036652374267578125e+01,-6.516330718994140625e+01,5.360943984985351562e+01,-1.549070167541503906e+01,-1.037230682373046875e+02,-1.147039413452148438e+02,6.422445678710937500e+01,-3.491772460937500000e+01
1.467159986495971680e-01,2.000000000000000000e+00,5.525200843811035156e+00,1.198181819915771484e+01,3.508002090454101562e+01,-1.087978439331054688e+02,9.036689758300781250e+01,-6.516649627685546875e+01,5.359840011596679688e+01,-1.548932743072509766e+01,-1.037234420776367188e+02,-1.147081756591796875e+02,6.422307586669921875e+01,-3.491926574707031250e+01
1.503050029277801514e-01,2.000000000000000000e+00,5.533726692199707031e+00,1.196848964691162109e+01,3.507934570312500000e+01,-1.088060607910156250e+02,9.036700439453125000e+01,-6.517055511474609375e+01,5.358472442626953125e+01,-1.548855018615722656e+01,-1.037297592163085938e+02,-1.147145690917968750e+02,6.422198486328125000e+01,-3.492179107666015625e+01
1.529140025377273560e-01,2.000000000000000000e+00,5.543688297271728516e+00,1.195312404632568359e+01,3.507849121093750000e+01,-1.088168640136718750e+02,9.036743164062500000e+01,-6.517490386962890625e+01,5.356736373901367188e+01,-1.548772525787353516e+01,-1.037333526611328125e+02,-1.147229766845703125e+02,6.422059631347656250e+01,-3.492486572265625000e+01
1.541720032691955566e-01,2.000000000000000000e+00,5.543688297271728516e+00,1.195312404632568359e+01,3.507849121093750000e+01,-1.088168640136718750e+02,9.036743164062500000e+01,-6.517490386962890625e+01,5.356736373901367188e+01,-1.548772525787353516e+01,-1.037333526611328125e+02,-1.147229766845703125e+02,6.422059631347656250e+01,-3.492486572265625000e+01
1.570959985256195068e-01,2.000000000000000000e+00,5.554568290710449219e+00,1.193601512908935547e+01,3.507737731933593750e+01,-1.088304443359375000e+02,9.036764526367187500e+01,-6.518080139160156250e+01,5.354605102539062500e+01,-1.548612403869628906e+01,-1.037355728149414062e+02,-1.147338867187500000e+02,6.421936035156250000e+01,-3.492980957031250000e+01
1.584309935569763184e-01,2.000000000000000000e+00,5.554568290710449219e+00,1.193601512908935547e+01,3.507737731933593750e+01,-1.088304443359375000e+02,9.036764526367187500e+01,-6.518080139160156250e+01,5.354605102539062500e+01,-1.548612403869628906e+01,-1.037355728149414062e+02,-1.147338867187500000e+02,6.421936035156250000e+01,-3.492980957031250000e+01
1.610150039196014404e-01,2.000000000000000000e+00,5.566481113433837891e+00,1.191702938079833984e+01,3.507587051391601562e+01,-1.088473052978515625e+02,9.036817932128906250e+01,-6.518819427490234375e+01,5.352056503295898438e+01,-1.548443031311035156e+01,-1.037389526367187500e+02,-1.147485427856445312e+02,6.421826934814453125e+01,-3.493673324584960938e+01
1.624159961938858032e-01,2.000000000000000000e+00,5.566481113433837891e+00,1.191702938079833984e+01,3.507587051391601562e+01,-1.088473052978515625e+02,9.036817932128906250e+01,-6.518819427490234375e+01,5.352056503295898438e+01,-1.548443031311035156e+01,-1.037389526367187500e+02,-1.147485427856445312e+02,6.421826934814453125e+01,-3.493673324584960938e+01
1.652500033378601074e-01,2.000000000000000000e+00,5.579399108886718750e+00,1.189618682861328125e+01,3.507383728027343750e+01,-1.088680038452148438e+02,9.036886596679687500e+01,-6.519768524169921875e+01,5.348991394042968750e+01,-1.548246097564697266e+01,-1.037435760498046875e+02,-1.147669219970703125e+02,6.421688079833984375e+01,-3.494651031494140625e+01
1.665699928998947144e-01,2.000000000000000000e+00,5.579399108886718750e+00,1.189618682861328125e+01,3.507383728027343750e+01,-1.088680038452148438e+02,9.036886596679687500e+01,-6.519768524169921875e+01,5.348991394042968750e+01,-1.548246097564697266e+01,-1.037435760498046875e+02,-1.147669219970703125e+02,6.421688079833984375e+01,-3.494651031494140625e+01
1.703989952802658081e-01,2.000000000000000000e+00,5.593178749084472656e+00,1.187405490875244141e+01,3.507113265991210938e+01,-1.088930206298828125e+02,9.036962127685546875e+01,-6.520894622802734375e+01,5.345382308959960938e+01,-1.547930240631103516e+01,-1.037506942749023438e+02,-1.147902679443359375e+02,6.421542358398437500e+01,-3.495804595947265625e+01
1.731580048799514771e-01,2.000000000000000000e+00,5.608048915863037109e+00,1.185031604766845703e+01,3.506786346435546875e+01,-1.089227371215820312e+02,9.037052154541015625e+01,-6.522142028808593750e+01,5.341366958618164062e+01,-1.547509193420410156e+01,-1.037585220336914062e+02,-1.148177642822265625e+02,6.421367645263671875e+01,-3.497298812866210938e+01
1.744450032711029053e-01,2.000000000000000000e+00,5.608048915863037109e+00,1.185031604766845703e+01,3.506786346435546875e+01,-1.089227371215820312e+02,9.037052154541015625e+01,-6.522142028808593750e+01,5.341366958618164062e+01,-1.547509193420410156e+01,-1.037585220336914062e+02,-1.148177642822265625e+02,6.421367645263671875e+01,-3.497298812866210938e+01
1.778209954500198364e-01,2.000000000000000000e+00,5.623895168304443359e+00,1.182467651367187500e+01,3.506405639648437500e+01,-1.089556045532226562e+02,9.037126922607421875e+01,-6.523559570312500000e+01,5.336988830566406250e+01,-1.547010231018066406e+01,-1.037674484252929688e+02,-1.148504409790039062e+02,6.421177673339843750e+01,-3.498968505859375000e+01
1.791560053825378418e-01,2.000000000000000000e+00,5.623895168304443359e+00,1.182467651367187500e+01,3.506405639648437500e+01,-1.089556045532226562e+02,9.037126922607421875e+01,-6.523559570312500000e+01,5.336988830566406250e+01,-1.547010231018066406e+01,-1.037674484252929688e+02,-1.148504409790039062e+02,6.421177673339843750e+01,-3.498968505859375000e+01
1.827789992094039917e-01,2.000000000000000000e+00,5.640746116638183594e+00,1.179706764221191406e+01,3.505984878540039062e+01,-1.089909973144531250e+02,9.037239074707031250e+01,-6.525153350830078125e+01,5.332308578491210938e+01,-1.546419715881347656e+01,-1.037792510986328125e+02,-1.148882751464843750e+02,6.420966339111328125e+01,-3.500913238525390625e+01
1.854690015316009521e-01,2.000000000000000000e+00,5.658658981323242188e+00,1.176730918884277344e+01,3.505525588989257812e+01,-1.090293502807617188e+02,9.037345886230468750e+01,-6.526950836181640625e+01,5.327304077148437500e+01,-1.545732975006103516e+01,-1.037931747436523438e+02,-1.149301300048828125e+02,6.420718383789062500e+01,-3.503022384643554688e+01
1.908659934997558594e-01,2.000000000000000000e+00,5.677662849426269531e+00,1.173565006256103516e+01,3.505031585693359375e+01,-1.090726928710937500e+02,9.037452697753906250e+01,-6.528863525390625000e+01,5.322063827514648438e+01,-1.544945621490478516e+01,-1.038082351684570312e+02,-1.149759521484375000e+02,6.420456695556640625e+01,-3.505505371093750000e+01
1.938129961490631104e-01,2.000000000000000000e+00,5.697614192962646484e+00,1.170181846618652344e+01,3.504502868652343750e+01,-1.091196289062500000e+02,9.037596130371093750e+01,-6.530890655517578125e+01,5.316570663452148438e+01,-1.544108009338378906e+01,-1.038237915039062500e+02,-1.150250625610351562e+02,6.420172119140625000e+01,-3.508263015747070312e+01
1.977279931306838989e-01,2.000000000000000000e+00,5.718283176422119141e+00,1.166649341583251953e+01,3.503933715820312500e+01,-1.091669845581054688e+02,9.037724304199218750e+01,-6.533068084716796875e+01,5.310709381103515625e+01,-1.543261146545410156e+01,-1.038402175903320312e+02,-1.150762557983398438e+02,6.419858551025390625e+01,-3.511108398437500000e+01
1.991180032491683960e-01,2.000000000000000000e+00,5.718283176422119141e+00,1.166649341583251953e+01,3.503933715820312500e+01,-1.091669845581054688e+02,9.037724304199218750e+01,-6.533068084716796875e+01,5.310709381103515625e+01,-1.543261146545410156e+01,-1.038402175903320312e+02,-1.150762557983398438e+02,6.419858551025390625e+01,-3.511108398437500000e+01
2.025520056486129761e-01,2.000000000000000000e+00,5.739554882049560547e+00,1.162974166870117188e+01,3.503337860107421875e+01,-1.092161788940429688e+02,9.037878417968750000e+01,-6.535379791259765625e+01,5.304419708251953125e+01,-1.542372989654541016e+01,-1.038571853637695312e+02,-1.151292572021484375e+02,6.419531250000000000e+01,-3.513975906372070312e+01
2.061540037393569946e-01,2.000000000000000000e+00,5.761659145355224609e+00,1.159133911132812500e+01,3.502713775634765625e+01,-1.092679061889648438e+02,9.038027954101562500e+01,-6.537767028808593750e+01,5.297750854492187500e+01,-1.541448402404785156e+01,-1.038737258911132812e+02,-1.151836166381835938e+02,6.419196319580078125e+01,-3.517029953002929688e+01
2.075230032205581665e-01,2.000000000000000000e+00,5.761659145355224609e+00,1.159133911132812500e+01,3.502713775634765625e+01,-1.092679061889648438e+02,9.038027954101562500e+01,-6.537767028808593750e+01,5.297750854492187500e+01,-1.541448402404785156e+01,-1.038737258911132812e+02,-1.151836166381835938e+02,6.419196319580078125e+01,-3.517029953002929688e+01
2.128710001707077026e-01,2.000000000000000000e+00,5.784883022308349609e+00,1.155119419097900391e+01,3.502077102661132812e+01,-1.093206329345703125e+02,9.038208770751953125e+01,-6.540161132812500000e+01,5.290862655639648438e+01,-1.540532779693603516e+01,-1.038899841308593750e+02,-1.152383270263671875e+02,6.418868255615234375e+01,-3.520238113403320312e+01
2.170830070972442627e-01,2.000000000000000000e+00,5.809398174285888672e+00,1.150923728942871094e+01,3.501436614990234375e+01,-1.093742523193359375e+02,9.038368988037109375e+01,-6.542514801025390625e+01,5.283809661865234375e+01,-1.539626407623291016e+01,-1.039060287475585938e+02,-1.152929687500000000e+02,6.418525695800781250e+01,-3.523314285278320312e+01
2.214999943971633911e-01,2.000000000000000000e+00,5.835033893585205078e+00,1.146569824218750000e+01,3.500790405273437500e+01,-1.094279327392578125e+02,9.038539886474609375e+01,-6.544867706298828125e+01,5.276662826538085938e+01,-1.538733863830566406e+01,-1.039216918945312500e+02,-1.153474731445312500e+02,6.418146514892578125e+01,-3.526225662231445312e+01
2.230450063943862915e-01,2.000000000000000000e+00,5.861759662628173828e+00,1.142066478729248047e+01,3.500143814086914062e+01,-1.094819259643554688e+02,9.038752746582031250e+01,-6.547296142578125000e+01,5.269400787353515625e+01,-1.537786197662353516e+01,-1.039367599487304688e+02,-1.154029769897460938e+02,6.417745971679687500e+01,-3.529301834106445312e+01
2.271189987659454346e-01,2.000000000000000000e+00,5.889289855957031250e+00,1.137454509735107422e+01,3.499501037597656250e+01,-1.095366439819335938e+02,9.038955688476562500e+01,-6.549729919433593750e+01,5.262045288085937500e+01,-1.536834049224853516e+01,-1.039518203735351562e+02,-1.154584884643554688e+02,6.417366790771484375e+01,-3.532553863525390625e+01
2.310380041599273682e-01,2.000000000000000000e+00,5.917623043060302734e+00,1.132754230499267578e+01,3.498864746093750000e+01,-1.095909042358398438e+02,9.039147949218750000e+01,-6.552218627929687500e+01,5.254668045043945312e+01,-1.535886573791503906e+01,-1.039673233032226562e+02,-1.155139923095703125e+02,6.417009735107421875e+01,-3.535728836059570312e+01
2.350589931011199951e-01,2.000000000000000000e+00,5.946444511413574219e+00,1.128031349182128906e+01,3.498226165771484375e+01,-1.096452102661132812e+02,9.039312744140625000e+01,-6.554735565185546875e+01,5.247340393066406250e+01,-1.534961891174316406e+01,-1.039824371337890625e+02,-1.155692901611328125e+02,6.416631317138671875e+01,-3.538650894165039062e+01
2.391079962253570557e-01,2.000000000000000000e+00,5.975553512573242188e+00,1.123301696777343750e+01,3.497581863403320312e+01,-1.096998901367187500e+02,9.039520263671875000e+01,-6.557231140136718750e+01,5.240105819702148438e+01,-1.534032630920410156e+01,-1.039974517822265625e+02,-1.156243515014648438e+02,6.416194152832031250e+01,-3.541771316528320312e+01
2.430409938097000122e-01,2.000000000000000000e+00,6.004489898681640625e+00,1.118567562103271484e+01,3.496912765502929688e+01,-1.097540283203125000e+02,9.039749908447265625e+01,-6.559664916992187500e+01,5.232854461669921875e+01,-1.533098793029785156e+01,-1.040126266479492188e+02,-1.156797866821289062e+02,6.415800476074218750e+01,-3.545133209228515625e+01
2.491700053215026855e-01,2.000000000000000000e+00,6.033512592315673828e+00,1.113842391967773438e+01,3.496244049072265625e+01,-1.098091278076171875e+02,9.039947509765625000e+01,-6.562065887451171875e+01,5.225488662719726562e+01,-1.532160377502441406e+01,-1.040279083251953125e+02,-1.157347946166992188e+02,6.415414428710937500e+01,-3.548286056518554688e+01
2.511599957942962646e-01,2.000000000000000000e+00,6.062650203704833984e+00,1.109103679656982422e+01,3.495577239990234375e+01,-1.098639144897460938e+02,9.040123748779296875e+01,-6.564459991455078125e+01,5.218088912963867188e+01,-1.531231117248535156e+01,-1.040436859130859375e+02,-1.157889328002929688e+02,6.415028381347656250e+01,-3.551307296752929688e+01
2.550759911537170410e-01,2.000000000000000000e+00,6.091500282287597656e+00,1.104371738433837891e+01,3.494902038574218750e+01,-1.099179000854492188e+02,9.040341949462890625e+01,-6.566867828369140625e+01,5.210750198364257812e+01,-1.530310916900634766e+01,-1.040594024658203125e+02,-1.158442306518554688e+02,6.414656829833984375e+01,-3.554339599609375000e+01
2.590740025043487549e-01,2.000000000000000000e+00,6.120580196380615234e+00,1.099664783477783203e+01,3.494224929809570312e+01,-1.099728393554687500e+02,9.040538787841796875e+01,-6.569342803955078125e+01,5.203510284423828125e+01,-1.529390907287597656e+01,-1.040747375488281250e+02,-1.158995971679687500e+02,6.414270019531250000e+01,-3.557547760009765625e+01
2.631010115146636963e-01,2.000000000000000000e+00,6.149631977081298828e+00,1.094919300079345703e+01,3.493570327758789062e+01,-1.100270919799804688e+02,9.040741729736328125e+01,-6.571851348876953125e+01,5.196248245239257812e+01,-1.528456974029541016e+01,-1.040899658203125000e+02,-1.159549484252929688e+02,6.413884735107421875e+01,-3.560645675659179688e+01
2.670490145683288574e-01,2.000000000000000000e+00,6.178568363189697266e+00,1.090198707580566406e+01,3.492924118041992188e+01,-1.100816116333007812e+02,9.040966033935546875e+01,-6.574361419677734375e+01,5.188893127441406250e+01,-1.527518558502197266e+01,-1.041050872802734375e+02,-1.160100936889648438e+02,6.413520050048828125e+01,-3.563623046875000000e+01
2.731460034847259521e-01,2.000000000000000000e+00,6.178568363189697266e+00,1.090198707580566406e+01,3.492924118041992188e+01,-1.100816116333007812e+02,9.040966033935546875e+01,-6.574361419677734375e+01,5.181488037109375000e+01,-1.526557350158691406e+01,-1.041203155517578125e+02,-1.160650405883789062e+02,6.413089752197265625e+01,-3.566831207275390625e+01
2.751199901103973389e-01,2.000000000000000000e+00,6.236096382141113281e+00,1.080793666839599609e+01,3.491618728637695312e+01,-1.101898040771484375e+02,9.041360473632812500e+01,-6.579216766357421875e+01,5.174193191528320312e+01,-1.525618934631347656e+01,-1.041357650756835938e+02,-1.161203918457031250e+02,6.412725830078125000e+01,-3.570082855224609375e+01
2.816059887409210205e-01,2.000000000000000000e+00,6.264889717102050781e+00,1.076100254058837891e+01,3.490959930419921875e+01,-1.102446899414062500e+02,9.041573333740234375e+01,-6.581604003906250000e+01,5.167029953002929688e+01,-1.524676036834716797e+01,-1.041511001586914062e+02,-1.161753997802734375e+02,6.412346649169921875e+01,-3.573214340209960938e+01
2.830519974231719971e-01,2.000000000000000000e+00,6.293826103210449219e+00,1.071420383453369141e+01,3.490307235717773438e+01,-1.102991104125976562e+02,9.041760253906250000e+01,-6.584011840820312500e+01,5.159778976440429688e+01,-1.523760414123535156e+01,-1.041661071777343750e+02,-1.162295379638671875e+02,6.411953735351562500e+01,-3.576224136352539062e+01
2.880469858646392822e-01,2.000000000000000000e+00,6.293826103210449219e+00,1.071420383453369141e+01,3.490307235717773438e+01,-1.102991104125976562e+02,9.041760253906250000e+01,-6.584011840820312500e+01,5.159778976440429688e+01,-1.523760414123535156e+01,-1.041661071777343750e+02,-1.162295379638671875e+02,6.411953735351562500e+01,-3.576224136352539062e+01
2.921069860458374023e-01,2.000000000000000000e+00,6.351354598999023438e+00,1.062040233612060547e+01,3.488981628417968750e+01,-1.104075088500976562e+02,9.042185974121093750e+01,-6.588908386230468750e+01,5.145079421997070312e+01,-1.521910953521728516e+01,-1.041968917846679688e+02,-1.163404846191406250e+02,6.411122894287109375e+01,-3.582486343383789062e+01
2.973090112209320068e-01,2.000000000000000000e+00,6.380147457122802734e+00,1.057364940643310547e+01,3.488330841064453125e+01,-1.104617080688476562e+02,9.042373657226562500e+01,-6.591410827636718750e+01,5.137806701660156250e+01,-1.520963478088378906e+01,-1.042125549316406250e+02,-1.163956298828125000e+02,6.410751342773437500e+01,-3.585485839843750000e+01
2.992460131645202637e-01,2.000000000000000000e+00,6.408882617950439453e+00,1.052685070037841797e+01,3.487690353393554688e+01,-1.105161743164062500e+02,9.042570495605468750e+01,-6.593919372558593750e+01,5.130638122558593750e+01,-1.520015907287597656e+01,-1.042277832031250000e+02,-1.164506301879882812e+02,6.410343170166015625e+01,-3.588584136962890625e+01
3.057920038700103760e-01,2.000000000000000000e+00,6.408882617950439453e+00,1.052685070037841797e+01,3.487690353393554688e+01,-1.105161743164062500e+02,9.042570495605468750e+01,-6.593919372558593750e+01,5.123408889770507812e+01,-1.519100379943847656e+01,-1.042429580688476562e+02,-1.165064163208007812e+02,6.409913635253906250e+01,-3.591748046875000000e+01
3.081490099430084229e-01,2.000000000000000000e+00,6.466727256774902344e+00,1.043363761901855469e+01,3.486417388916015625e+01,-1.106251068115234375e+02,9.043002319335937500e+01,-6.598795318603515625e+01,5.116108703613281250e+01,-1.518171119689941406e+01,-1.042582931518554688e+02,-1.165613632202148438e+02,6.409461975097656250e+01,-3.594879150390625000e+01
3.111299872398376465e-01,2.000000000000000000e+00,6.495577335357666016e+00,1.038704299926757812e+01,3.485757064819335938e+01,-1.106797790527343750e+02,9.043194580078125000e+01,-6.601175689697265625e+01,5.108775329589843750e+01,-1.517228031158447266e+01,-1.042737426757812500e+02,-1.166161346435546875e+02,6.409031677246093750e+01,-3.597779464721679688e+01
3.161320090293884277e-01,2.000000000000000000e+00,6.495577335357666016e+00,1.038704299926757812e+01,3.485757064819335938e+01,-1.106797790527343750e+02,9.043194580078125000e+01,-6.601175689697265625e+01,5.108775329589843750e+01,-1.517228031158447266e+01,-1.042737426757812500e+02,-1.166161346435546875e+02,6.409031677246093750e+01,-3.597779464721679688e+01
3.190310001373291016e-01,2.000000000000000000e+00,6.553277969360351562e+00,1.029374027252197266e+01,3.484441375732421875e+01,-1.107883377075195312e+02,9.043610382080078125e+01,-6.606085968017578125e+01,5.094317245483398438e+01,-1.515365123748779297e+01,-1.043047409057617188e+02,-1.167261428833007812e+02,6.408193206787109375e+01,-3.604118728637695312e+01
3.230459988117218018e-01,2.000000000000000000e+00,6.582157135009765625e+00,1.024716758728027344e+01,3.483774566650390625e+01,-1.108431243896484375e+02,9.043817901611328125e+01,-6.608560943603515625e+01,5.087077331542968750e+01,-1.514467811584472656e+01,-1.043199768066406250e+02,-1.167811584472656250e+02,6.407771301269531250e+01,-3.607249832153320312e+01
3.270899951457977295e-01,2.000000000000000000e+00,6.582157135009765625e+00,1.024716758728027344e+01,3.483774566650390625e+01,-1.108431243896484375e+02,9.043817901611328125e+01,-6.608560943603515625e+01,5.087077331542968750e+01,-1.514467811584472656e+01,-1.043199768066406250e+02,-1.167811584472656250e+02,6.407771301269531250e+01,-3.607249832153320312e+01
3.311269879341125488e-01,2.000000000000000000e+00,6.611064910888671875e+00,1.020043659210205078e+01,3.483109664916992188e+01,-1.108973770141601562e+02,9.044031524658203125e+01,-6.611077117919921875e+01,5.079760360717773438e+01,-1.513561439514160156e+01,-1.043352508544921875e+02,-1.168365859985351562e+02,6.407334136962890625e+01,-3.610194015502929688e+01
3.351460099220275879e-01,2.000000000000000000e+00,6.639886379241943359e+00,1.015352439880371094e+01,3.482452774047851562e+01,-1.109516830444335938e+02,9.044245147705078125e+01,-6.613566589355468750e+01,5.072459793090820312e+01,-1.512641334533691406e+01,-1.043507003784179688e+02,-1.168911590576171875e+02,6.406977081298828125e+01,-3.613226318359375000e+01
3.390850126743316650e-01,2.000000000000000000e+00,6.668536186218261719e+00,1.010672569274902344e+01,3.481806564331054688e+01,-1.110059356689453125e+02,9.044441986083984375e+01,-6.615980529785156250e+01,5.065175628662109375e+01,-1.511716556549072266e+01,-1.043661422729492188e+02,-1.169467315673828125e+02,6.406569671630859375e+01,-3.616544342041015625e+01
3.430809974670410156e-01,2.000000000000000000e+00,6.697041988372802734e+00,1.005988216400146484e+01,3.481159973144531250e+01,-1.110600280761718750e+02,9.044686889648437500e+01,-6.618367004394531250e+01,5.057963562011718750e+01,-1.510791969299316406e+01,-1.043820266723632812e+02,-1.170021667480468750e+02,6.406139373779296875e+01,-3.619664382934570312e+01
3.472720086574554443e-01,2.000000000000000000e+00,6.725547790527343750e+00,1.001288032531738281e+01,3.480488967895507812e+01,-1.111142349243164062e+02,9.044895172119140625e+01,-6.620816040039062500e+01,5.050745391845703125e+01,-1.509885597229003906e+01,-1.043973083496093750e+02,-1.170568923950195312e+02,6.405738067626953125e+01,-3.622564697265625000e+01
3.511720001697540283e-01,2.000000000000000000e+00,6.754340648651123047e+00,9.965854644775390625e+00,3.479825973510742188e+01,-1.111685943603515625e+02,9.045097351074218750e+01,-6.623217010498046875e+01,5.043444824218750000e+01,-1.508969974517822266e+01,-1.044126968383789062e+02,-1.171121749877929688e+02,6.405330657958984375e+01,-3.625618743896484375e+01
3.550809919834136963e-01,2.000000000000000000e+00,6.783363342285156250e+00,9.918942451477050781e+00,3.479165267944335938e+01,-1.112230606079101562e+02,9.045326995849609375e+01,-6.625664520263671875e+01,5.036117172241210938e+01,-1.508027076721191406e+01,-1.044279861450195312e+02,-1.171671142578125000e+02,6.404936981201171875e+01,-3.628881835937500000e+01
3.590849936008453369e-01,2.000000000000000000e+00,6.812328338623046875e+00,9.871805191040039062e+00,3.478504562377929688e+01,-1.112773132324218750e+02,9.045556640625000000e+01,-6.628166961669921875e+01,5.028827667236328125e+01,-1.507065677642822266e+01,-1.044432754516601562e+02,-1.172216033935546875e+02,6.404543304443359375e+01,-3.632046127319335938e+01
3.631460070610046387e-01,2.000000000000000000e+00,6.841121196746826172e+00,9.824666023254394531e+00,3.477835845947265625e+01,-1.113309936523437500e+02,9.045758819580078125e+01,-6.630696868896484375e+01,5.021620559692382812e+01,-1.506090736389160156e+01,-1.044583892822265625e+02,-1.172770385742187500e+02,6.404135894775390625e+01,-3.634913253784179688e+01
3.671169877052307129e-01,2.000000000000000000e+00,6.869914531707763672e+00,9.777460098266601562e+00,3.477170944213867188e+01,-1.113853988647460938e+02,9.046004486083984375e+01,-6.633152008056640625e+01,5.014347457885742188e+01,-1.505138587951660156e+01,-1.044735641479492188e+02,-1.173322677612304688e+02,6.403683471679687500e+01,-3.637923812866210938e+01
3.722560107707977295e-01,2.000000000000000000e+00,6.898936748504638672e+00,9.730299949645996094e+00,3.476538467407226562e+01,-1.114403457641601562e+02,9.046233367919921875e+01,-6.635525512695312500e+01,5.007036209106445312e+01,-1.504213905334472656e+01,-1.044884643554687500e+02,-1.173874130249023438e+02,6.403238677978515625e+01,-3.641087722778320312e+01
3.761439919471740723e-01,2.000000000000000000e+00,6.957154273986816406e+00,9.636227607727050781e+00,3.475231170654296875e+01,-1.115493698120117188e+02,9.046681213378906250e+01,-6.640326690673828125e+01,4.992435455322265625e+01,-1.502314090728759766e+01,-1.045187072753906250e+02,-1.174966278076171875e+02,6.402357482910156250e+01,-3.647053146362304688e+01
3.790329992771148682e-01,2.000000000000000000e+00,6.986090660095214844e+00,9.589292526245117188e+00,3.474566268920898438e+01,-1.116031570434570312e+02,9.046905517578125000e+01,-6.642774963378906250e+01,4.985255813598632812e+01,-1.501366615295410156e+01,-1.045341033935546875e+02,-1.175517120361328125e+02,6.401964569091796875e+01,-3.650096511840820312e+01
3.841460049152374268e-01,2.000000000000000000e+00,6.986090660095214844e+00,9.589292526245117188e+00,3.474566268920898438e+01,-1.116031570434570312e+02,9.046905517578125000e+01,-6.642774963378906250e+01,4.985255813598632812e+01,-1.501366615295410156e+01,-1.045341033935546875e+02,-1.175517120361328125e+02,6.401964569091796875e+01,-3.650096511840820312e+01
3.880639970302581787e-01,2.000000000000000000e+00,7.043848991394042969e+00,9.495469093322753906e+00,3.473224258422851562e+01,-1.117119827270507812e+02,9.047379302978515625e+01,-6.647691345214843750e+01,4.970693588256835938e+01,-1.499485206604003906e+01,-1.045645523071289062e+02,-1.176613464355468750e+02,6.401118469238281250e+01,-3.656314849853515625e+01
3.910329937934875488e-01,2.000000000000000000e+00,7.072813987731933594e+00,9.448353767395019531e+00,3.472545242309570312e+01,-1.117658157348632812e+02,9.047587585449218750e+01,-6.650180053710937500e+01,4.963327026367187500e+01,-1.498551368713378906e+01,-1.045797271728515625e+02,-1.177157135009765625e+02,6.400688934326171875e+01,-3.659236907958984375e+01
3.950810134410858154e-01,2.000000000000000000e+00,7.072813987731933594e+00,9.448353767395019531e+00,3.472545242309570312e+01,-1.117658157348632812e+02,9.047587585449218750e+01,-6.650180053710937500e+01,4.963327026367187500e+01,-1.498551368713378906e+01,-1.045797271728515625e+02,-1.177157135009765625e+02,6.400688934326171875e+01,-3.659236907958984375e+01
4.000009894371032715e-01,2.000000000000000000e+00,7.130428791046142578e+00,9.354688644409179688e+00,3.471221542358398438e+01,-1.118745880126953125e+02,9.048040771484375000e+01,-6.654940795898437500e+01,4.948863601684570312e+01,-1.496633243560791016e+01,-1.046102447509765625e+02,-1.178257904052734375e+02,6.399851226806640625e+01,-3.665554428100585938e+01
4.041329920291900635e-01,2.000000000000000000e+00,7.130428791046142578e+00,9.354688644409179688e+00,3.471221542358398438e+01,-1.118745880126953125e+02,9.048040771484375000e+01,-6.654940795898437500e+01,4.941629409790039062e+01,-1.495685768127441406e+01,-1.046256332397460938e+02,-1.178808670043945312e+02,6.399414062500000000e+01,-3.668553543090820312e+01
4.070810079574584961e-01,2.000000000000000000e+00,7.187784671783447266e+00,9.261363029479980469e+00,3.469920730590820312e+01,-1.119824600219726562e+02,9.048509979248046875e+01,-6.659735870361328125e+01,4.934300994873046875e+01,-1.494788455963134766e+01,-1.046409149169921875e+02,-1.179359359741210938e+02,6.398991394042968750e+01,-3.671487045288085938e+01
4.112089872360229492e-01,2.000000000000000000e+00,7.187784671783447266e+00,9.261363029479980469e+00,3.469920730590820312e+01,-1.119824600219726562e+02,9.048509979248046875e+01,-6.659735870361328125e+01,4.934300994873046875e+01,-1.494788455963134766e+01,-1.046409149169921875e+02,-1.179359359741210938e+02,6.398991394042968750e+01,-3.671487045288085938e+01
4.150849878787994385e-01,2.000000000000000000e+00,7.216663360595703125e+00,9.214587211608886719e+00,3.469255447387695312e+01,-1.120367126464843750e+02,9.048712921142578125e+01,-6.662150573730468750e+01,4.926984405517578125e+01,-1.493891334533691406e+01,-1.046559753417968750e+02,-1.179908752441406250e+02,6.398590087890625000e+01,-3.674639892578125000e+01
4.190810024738311768e-01,2.000000000000000000e+00,7.245571613311767578e+00,9.167855262756347656e+00,3.468592834472656250e+01,-1.120906524658203125e+02,9.048963165283203125e+01,-6.664618682861328125e+01,4.919766235351562500e+01,-1.492980289459228516e+01,-1.046712112426757812e+02,-1.180460891723632812e+02,6.398175048828125000e+01,-3.677792739868164062e+01
4.267239868640899658e-01,2.000000000000000000e+00,7.274422168731689453e+00,9.121125221252441406e+00,3.467940139770507812e+01,-1.121451721191406250e+02,9.049197387695312500e+01,-6.667107391357421875e+01,4.912581253051757812e+01,-1.492037391662597656e+01,-1.046867599487304688e+02,-1.181000900268554688e+02,6.397832870483398438e+01,-3.680781173706054688e+01
4.282039999961853027e-01,2.000000000000000000e+00,7.332151889801025391e+00,9.027709007263183594e+00,3.466612243652343750e+01,-1.122528381347656250e+02,9.049639892578125000e+01,-6.671969604492187500e+01,4.898024368286132812e+01,-1.490197181701660156e+01,-1.047172698974609375e+02,-1.182095947265625000e+02,6.396944046020507812e+01,-3.687153244018554688e+01
4.320690035820007324e-01,2.000000000000000000e+00,7.332151889801025391e+00,9.027709007263183594e+00,3.466612243652343750e+01,-1.122528381347656250e+02,9.049639892578125000e+01,-6.671969604492187500e+01,4.898024368286132812e+01,-1.490197181701660156e+01,-1.047172698974609375e+02,-1.182095947265625000e+02,6.396944046020507812e+01,-3.687153244018554688e+01
4.351170063018798828e-01,2.000000000000000000e+00,7.360944271087646484e+00,8.981000900268554688e+00,3.465963745117187500e+01,-1.123073501586914062e+02,9.049869537353515625e+01,-6.674310302734375000e+01,4.890718460083007812e+01,-1.489286231994628906e+01,-1.047325592041015625e+02,-1.182644500732421875e+02,6.396529006958007812e+01,-3.690295410156250000e+01
4.390900135040283203e-01,2.000000000000000000e+00,7.389938831329345703e+00,8.934247016906738281e+00,3.465327453613281250e+01,-1.123612365722656250e+02,9.050103759765625000e+01,-6.676703643798828125e+01,4.883456420898437500e+01,-1.488361549377441406e+01,-1.047479476928710938e+02,-1.183193130493164062e+02,6.396128082275390625e+01,-3.693250656127929688e+01
4.431270062923431396e-01,2.000000000000000000e+00,7.418760299682617188e+00,8.887538909912109375e+00,3.464685058593750000e+01,-1.124159698486328125e+02,9.050306701660156250e+01,-6.679103851318359375e+01,4.876282501220703125e+01,-1.487427711486816406e+01,-1.047633438110351562e+02,-1.183747482299804688e+02,6.395690917968750000e+01,-3.696238708496093750e+01
4.478459954261779785e-01,2.000000000000000000e+00,7.447437763214111328e+00,8.840898513793945312e+00,3.464028167724609375e+01,-1.124701156616210938e+02,9.050531005859375000e+01,-6.681552886962890625e+01,4.869075393676757812e+01,-1.486484622955322266e+01,-1.047787857055664062e+02,-1.184291687011718750e+02,6.395268249511718750e+01,-3.699446868896484375e+01
4.548580050468444824e-01,2.000000000000000000e+00,7.504994869232177734e+00,8.747505187988281250e+00,3.462700653076171875e+01,-1.125781021118164062e+02,9.050956726074218750e+01,-6.686537170410156250e+01,4.854419708251953125e+01,-1.484667301177978516e+01,-1.048094100952148438e+02,-1.185390396118164062e+02,6.394393920898437500e+01,-3.705379867553710938e+01
4.563170075416564941e-01,2.000000000000000000e+00,7.533788204193115234e+00,8.700683593750000000e+00,3.462037658691406250e+01,-1.126320877075195312e+02,9.051186370849609375e+01,-6.688951110839843750e+01,4.847174072265625000e+01,-1.483751869201660156e+01,-1.048242568969726562e+02,-1.185932464599609375e+02,6.393949127197265625e+01,-3.708346176147460938e+01
4.601289927959442139e-01,2.000000000000000000e+00,7.533788204193115234e+00,8.700683593750000000e+00,3.462037658691406250e+01,-1.126320877075195312e+02,9.051186370849609375e+01,-6.688951110839843750e+01,4.847174072265625000e+01,-1.483751869201660156e+01,-1.048242568969726562e+02,-1.185932464599609375e+02,6.393949127197265625e+01,-3.708346176147460938e+01
4.631640017032623291e-01,2.000000000000000000e+00,7.562724590301513672e+00,8.653658866882324219e+00,3.461366653442382812e+01,-1.126864471435546875e+02,9.051405334472656250e+01,-6.691304779052734375e+01,4.840000152587890625e+01,-1.482831668853759766e+01,-1.048394851684570312e+02,-1.186478195190429688e+02,6.393526458740234375e+01,-3.711476898193359375e+01
4.670929908752441406e-01,2.000000000000000000e+00,7.591316699981689453e+00,8.606860160827636719e+00,3.460694122314453125e+01,-1.127404937744140625e+02,9.051602172851562500e+01,-6.693664550781250000e+01,4.832760238647460938e+01,-1.481911659240722656e+01,-1.048548202514648438e+02,-1.187027587890625000e+02,6.393082427978515625e+01,-3.714509201049804688e+01
4.710910022258758545e-01,2.000000000000000000e+00,7.619908332824707031e+00,8.560015678405761719e+00,3.460031127929687500e+01,-1.127939605712890625e+02,9.051821136474609375e+01,-6.696079254150390625e+01,4.825437927246093750e+01,-1.480982398986816406e+01,-1.048699417114257812e+02,-1.187570495605468750e+02,6.392681503295898438e+01,-3.717354583740234375e+01
4.762159883975982666e-01,2.000000000000000000e+00,7.648673057556152344e+00,8.513081550598144531e+00,3.459384536743164062e+01,-1.128480529785156250e+02,9.052023315429687500e+01,-6.698519897460937500e+01,4.818120574951171875e+01,-1.480066871643066406e+01,-1.048850631713867188e+02,-1.188121948242187500e+02,6.392251968383789062e+01,-3.720376205444335938e+01
4.791769981384277344e-01,2.000000000000000000e+00,7.677408695220947266e+00,8.466259956359863281e+00,3.458733749389648438e+01,-1.129021987915039062e+02,9.052231597900390625e+01,-6.700995635986328125e+01,4.810930252075195312e+01,-1.479146766662597656e+01,-1.049004516601562500e+02,-1.188677673339843750e+02,6.391807174682617188e+01,-3.723606109619140625e+01
4.835749864578247070e-01,2.000000000000000000e+00,7.706402778625488281e+00,8.419348716735839844e+00,3.458063125610351562e+01,-1.129565124511718750e+02,9.052449798583984375e+01,-6.703463745117187500e+01,4.803794860839843750e+01,-1.478221988677978516e+01,-1.049160079956054688e+02,-1.189216308593750000e+02,6.391391754150390625e+01,-3.726726150512695312e+01
4.872710108757019043e-01,2.000000000000000000e+00,7.735309600830078125e+00,8.372368812561035156e+00,3.457395935058593750e+01,-1.130102920532226562e+02,9.052657318115234375e+01,-6.705966186523437500e+01,4.796543884277343750e+01,-1.477269840240478516e+01,-1.049310684204101562e+02,-1.189758987426757812e+02,6.391020202636718750e+01,-3.729725265502929688e+01
4.911519885063171387e-01,2.000000000000000000e+00,7.764103412628173828e+00,8.325366020202636719e+00,3.456731033325195312e+01,-1.130640716552734375e+02,9.052849578857421875e+01,-6.708367156982421875e+01,4.789221191406250000e+01,-1.476326942443847656e+01,-1.049459762573242188e+02,-1.190304718017578125e+02,6.390619277954101562e+01,-3.732812500000000000e+01
4.951980113983154297e-01,2.000000000000000000e+00,7.792809486389160156e+00,8.278409957885742188e+00,3.456066131591796875e+01,-1.131183776855468750e+02,9.053052520751953125e+01,-6.710733795166015625e+01,4.781937408447265625e+01,-1.475402164459228516e+01,-1.049613113403320312e+02,-1.190844726562500000e+02,6.390174865722656250e+01,-3.735844802856445312e+01
5.031359791755676270e-01,2.000000000000000000e+00,7.821746826171875000e+00,8.231407165527343750e+00,3.455397415161132812e+01,-1.131724700927734375e+02,9.053260040283203125e+01,-6.713141632080078125e+01,4.774774169921875000e+01,-1.474482154846191406e+01,-1.049766464233398438e+02,-1.191393356323242188e+02,6.389759445190429688e+01,-3.738811111450195312e+01
5.045059919357299805e-01,2.000000000000000000e+00,7.879389286041259766e+00,8.138127326965332031e+00,3.454108428955078125e+01,-1.132808227539062500e+02,9.053649139404296875e+01,-6.717990112304687500e+01,4.760376739501953125e+01,-1.472632694244384766e+01,-1.050068359375000000e+02,-1.192484817504882812e+02,6.388907241821289062e+01,-3.744996643066406250e+01
5.074980258941650391e-01,2.000000000000000000e+00,7.879389286041259766e+00,8.138127326965332031e+00,3.454108428955078125e+01,-1.132808227539062500e+02,9.053649139404296875e+01,-6.717990112304687500e+01,4.760376739501953125e+01,-1.472632694244384766e+01,-1.050068359375000000e+02,-1.192484817504882812e+02,6.388907241821289062e+01,-3.744996643066406250e+01
5.114160180091857910e-01,2.000000000000000000e+00,7.908124446868896484e+00,8.091373443603515625e+00,3.453472137451171875e+01,-1.133346023559570312e+02,9.053841400146484375e+01,-6.720493316650390625e+01,4.753065109252929688e+01,-1.471698951721191406e+01,-1.050220108032226562e+02,-1.193037796020507812e+02,6.388477325439453125e+01,-3.748127365112304688e+01
5.152710080146789551e-01,2.000000000000000000e+00,7.936659336090087891e+00,8.044619560241699219e+00,3.452804946899414062e+01,-1.133887481689453125e+02,9.054049682617187500e+01,-6.722995758056640625e+01,4.745781326293945312e+01,-1.470751285552978516e+01,-1.050376739501953125e+02,-1.193585510253906250e+02,6.388025283813476562e+01,-3.751214599609375000e+01
5.194510221481323242e-01,2.000000000000000000e+00,7.965394973754882812e+00,7.997707843780517578e+00,3.452136230468750000e+01,-1.134432678222656250e+02,9.054247283935546875e+01,-6.725416564941406250e+01,4.738590621948242188e+01,-1.469826698303222656e+01,-1.050530090332031250e+02,-1.194125518798828125e+02,6.387625122070312500e+01,-3.754246902465820312e+01
5.243999958038330078e-01,2.000000000000000000e+00,7.994159221649169922e+00,7.950886726379394531e+00,3.451471710205078125e+01,-1.134968414306640625e+02,9.054444122314453125e+01,-6.727783203125000000e+01,4.731410980224609375e+01,-1.468906688690185547e+01,-1.050678024291992188e+02,-1.194676971435546875e+02,6.387231826782226562e+01,-3.757399749755859375e+01
5.281959772109985352e-01,2.000000000000000000e+00,8.051572799682617188e+00,7.857855319976806641e+00,3.450141525268554688e+01,-1.136049804687500000e+02,9.054811859130859375e+01,-6.732611846923828125e+01,4.716848754882812500e+01,-1.467034339904785156e+01,-1.050982055664062500e+02,-1.195761337280273438e+02,6.386379241943359375e+01,-3.763519287109375000e+01
5.318239927291870117e-01,2.000000000000000000e+00,8.051572799682617188e+00,7.857855319976806641e+00,3.450141525268554688e+01,-1.136049804687500000e+02,9.054811859130859375e+01,-6.732611846923828125e+01,4.716848754882812500e+01,-1.467034339904785156e+01,-1.050982055664062500e+02,-1.195761337280273438e+02,6.386379241943359375e+01,-3.763519287109375000e+01
5.361430048942565918e-01,2.000000000000000000e+00,8.080251693725585938e+00,7.811305046081542969e+00,3.449480819702148438e+01,-1.136582870483398438e+02,9.055019378662109375e+01,-6.735012817382812500e+01,4.709559249877929688e+01,-1.466086769104003906e+01,-1.051137619018554688e+02,-1.196308441162109375e+02,6.385948944091796875e+01,-3.766485595703125000e+01
5.394729971885681152e-01,2.000000000000000000e+00,8.108671188354492188e+00,7.764506340026855469e+00,3.448828125000000000e+01,-1.137127990722656250e+02,9.055211639404296875e+01,-6.737467193603515625e+01,4.702330398559570312e+01,-1.465166568756103516e+01,-1.051288833618164062e+02,-1.196854858398437500e+02,6.385541152954101562e+01,-3.769441223144531250e+01
5.435839891433715820e-01,2.000000000000000000e+00,8.137434959411621094e+00,7.717708110809326172e+00,3.448181915283203125e+01,-1.137665863037109375e+02,9.055409240722656250e+01,-6.739949798583984375e+01,4.695151138305664062e+01,-1.464274024963378906e+01,-1.051440582275390625e+02,-1.197401428222656250e+02,6.385132598876953125e+01,-3.772505950927734375e+01
5.486320257186889648e-01,2.000000000000000000e+00,8.166256904602050781e+00,7.671203136444091797e+00,3.447523117065429688e+01,-1.138205718994140625e+02,9.055590820312500000e+01,-6.742438507080078125e+01,4.687910842895507812e+01,-1.463372135162353516e+01,-1.051591796875000000e+02,-1.197950744628906250e+02,6.384710693359375000e+01,-3.775549316406250000e+01
5.540729761123657227e-01,2.000000000000000000e+00,8.195077896118164062e+00,7.624653816223144531e+00,3.446866226196289062e+01,-1.138747253417968750e+02,9.055798339843750000e+01,-6.744886779785156250e+01,4.680566406250000000e+01,-1.462442874908447266e+01,-1.051743469238281250e+02,-1.198491363525390625e+02,6.384288024902343750e+01,-3.778548431396484375e+01
5.567790269851684570e-01,2.000000000000000000e+00,8.252377510070800781e+00,7.531169891357421875e+00,3.445548629760742188e+01,-1.139824447631835938e+02,9.056166076660156250e+01,-6.749600219726562500e+01,4.666036987304687500e+01,-1.460602664947509766e+01,-1.052051849365234375e+02,-1.199594345092773438e+02,6.383442306518554688e+01,-3.784843826293945312e+01
5.600879788398742676e-01,2.000000000000000000e+00,8.252377510070800781e+00,7.531169891357421875e+00,3.445548629760742188e+01,-1.139824447631835938e+02,9.056166076660156250e+01,-6.749600219726562500e+01,4.666036987304687500e+01,-1.460602664947509766e+01,-1.052051849365234375e+02,-1.199594345092773438e+02,6.383442306518554688e+01,-3.784843826293945312e+01
5.637019872665405273e-01,2.000000000000000000e+00,8.281026840209960938e+00,7.484393119812011719e+00,3.444887924194335938e+01,-1.140369110107421875e+02,9.056368255615234375e+01,-6.751993560791015625e+01,4.658868789672851562e+01,-1.459696292877197266e+01,-1.052204742431640625e+02,-1.200127944946289062e+02,6.383020019531250000e+01,-3.787942123413085938e+01
5.680909752845764160e-01,2.000000000000000000e+00,8.309790611267089844e+00,7.437730312347412109e+00,3.444227218627929688e+01,-1.140903167724609375e+02,9.056539154052734375e+01,-6.754441833496093750e+01,4.651622772216796875e+01,-1.458789920806884766e+01,-1.052353744506835938e+02,-1.200669250488281250e+02,6.382582855224609375e+01,-3.790831375122070312e+01
5.727530121803283691e-01,2.000000000000000000e+00,8.338669776916503906e+00,7.391067504882812500e+00,3.443584823608398438e+01,-1.141448898315429688e+02,9.056758117675781250e+01,-6.756890106201171875e+01,4.644338989257812500e+01,-1.457883548736572266e+01,-1.052507095336914062e+02,-1.201224288940429688e+02,6.382189559936523438e+01,-3.793819808959960938e+01
5.773249864578247070e-01,2.000000000000000000e+00,8.367347717285156250e+00,7.344382286071777344e+00,3.442948150634765625e+01,-1.141987228393554688e+02,9.056939697265625000e+01,-6.759358978271484375e+01,4.637022399902343750e+01,-1.456954288482666016e+01,-1.052664794921875000e+02,-1.201771545410156250e+02,6.381774520874023438e+01,-3.796852111816406250e+01
5.810499787330627441e-01,2.000000000000000000e+00,8.395911216735839844e+00,7.297809600830078125e+00,3.442307662963867188e+01,-1.142522354125976562e+02,9.057104492187500000e+01,-6.761840820312500000e+01,4.629825973510742188e+01,-1.456029701232910156e+01,-1.052818756103515625e+02,-1.202316589355468750e+02,6.381359100341796875e+01,-3.799884033203125000e+01
5.840479731559753418e-01,2.000000000000000000e+00,8.424618721008300781e+00,7.251101493835449219e+00,3.441648864746093750e+01,-1.143066558837890625e+02,9.057312774658203125e+01,-6.764228057861328125e+01,4.622706985473632812e+01,-1.455127906799316406e+01,-1.052970428466796875e+02,-1.202863693237304688e+02,6.380928802490234375e+01,-3.802916336059570312e+01
5.877720117568969727e-01,2.000000000000000000e+00,8.453181266784667969e+00,7.204416275024414062e+00,3.440983963012695312e+01,-1.143606414794921875e+02,9.057525634765625000e+01,-6.766561126708984375e+01,4.615499877929687500e+01,-1.454239845275878906e+01,-1.053123855590820312e+02,-1.203408737182617188e+02,6.380499267578125000e+01,-3.806003570556640625e+01
5.921540260314941406e-01,2.000000000000000000e+00,8.481916427612304688e+00,7.157504081726074219e+00,3.440323257446289062e+01,-1.144147415161132812e+02,9.057728576660156250e+01,-6.768941497802734375e+01,4.608210372924804688e+01,-1.453360939025878906e+01,-1.053276138305664062e+02,-1.203957290649414062e+02,6.380112457275390625e+01,-3.809145736694335938e+01
5.971159934997558594e-01,2.000000000000000000e+00,8.510767936706542969e+00,7.110773563385009766e+00,3.439656829833984375e+01,-1.144686813354492188e+02,9.057914733886718750e+01,-6.771341705322265625e+01,4.600915527343750000e+01,-1.452440738677978516e+01,-1.053428421020507812e+02,-1.204500198364257812e+02,6.379690551757812500e+01,-3.812210845947265625e+01
6.000159978866577148e-01,2.000000000000000000e+00,8.539416313171386719e+00,7.064200878143310547e+00,3.438981628417968750e+01,-1.145219268798828125e+02,9.058117675781250000e+01,-6.773777008056640625e+01,4.593758010864257812e+01,-1.451511478424072266e+01,-1.053582382202148438e+02,-1.205041580200195312e+02,6.379267501831054688e+01,-3.815177154541015625e+01
6.040999889373779297e-01,2.000000000000000000e+00,8.568008422851562500e+00,7.017515659332275391e+00,3.438320541381835938e+01,-1.145760726928710938e+02,9.058319854736328125e+01,-6.776238250732421875e+01,4.586589431762695312e+01,-1.450595951080322266e+01,-1.053735198974609375e+02,-1.205590820312500000e+02,6.378866577148437500e+01,-3.818231201171875000e+01
6.082069873809814453e-01,2.000000000000000000e+00,8.596657752990722656e+00,6.970875263214111328e+00,3.437670135498046875e+01,-1.146301803588867188e+02,9.058506011962890625e+01,-6.778720092773437500e+01,4.579365921020507812e+01,-1.449721622467041016e+01,-1.053889694213867188e+02,-1.206140899658203125e+02,6.378458786010742188e+01,-3.821362304687500000e+01
6.120859980583190918e-01,2.000000000000000000e+00,8.625393867492675781e+00,6.924121856689453125e+00,3.437015533447265625e+01,-1.146843261718750000e+02,9.058693695068359375e+01,-6.781169128417968750e+01,4.572060012817382812e+01,-1.448806095123291016e+01,-1.054041900634765625e+02,-1.206690216064453125e+02,6.378022003173828125e+01,-3.824460220336914062e+01
6.163100004196166992e-01,2.000000000000000000e+00,8.654244422912597656e+00,6.877368450164794922e+00,3.436358642578125000e+01,-1.147381057739257812e+02,9.058901214599609375e+01,-6.783528900146484375e+01,4.564814758300781250e+01,-1.447872352600097656e+01,-1.054192581176757812e+02,-1.207238159179687500e+02,6.377613449096679688e+01,-3.827449035644531250e+01
6.212720274925231934e-01,2.000000000000000000e+00,8.683036804199218750e+00,6.830682754516601562e+00,3.435689544677734375e+01,-1.147913055419921875e+02,9.059125518798828125e+01,-6.785874938964843750e+01,4.557656860351562500e+01,-1.446911048889160156e+01,-1.054345474243164062e+02,-1.207783050537109375e+02,6.377220153808593750e+01,-3.830480957031250000e+01
6.241670250892639160e-01,2.000000000000000000e+00,8.711743354797363281e+00,6.783861637115478516e+00,3.435033035278320312e+01,-1.148456726074218750e+02,9.059306335449218750e+01,-6.788262176513671875e+01,4.550537872314453125e+01,-1.445977210998535156e+01,-1.054497680664062500e+02,-1.208328781127929688e+02,6.376797866821289062e+01,-3.833546066284179688e+01
6.298040151596069336e-01,2.000000000000000000e+00,8.740364074707031250e+00,6.737221240997314453e+00,3.434378433227539062e+01,-1.148999176025390625e+02,9.059509277343750000e+01,-6.790696716308593750e+01,4.543292236328125000e+01,-1.445061588287353516e+01,-1.054647827148437500e+02,-1.208876724243164062e+02,6.376389312744140625e+01,-3.836622619628906250e+01
6.326199769973754883e-01,2.000000000000000000e+00,8.797635078430175781e+00,6.644212722778320312e+00,3.433052825927734375e+01,-1.150080108642578125e+02,9.059925079345703125e+01,-6.795573425292968750e+01,4.528713607788085938e+01,-1.443239784240722656e+01,-1.054944229125976562e+02,-1.209958877563476562e+02,6.375479125976562500e+01,-3.842719650268554688e+01
6.362959742546081543e-01,2.000000000000000000e+00,8.797635078430175781e+00,6.644212722778320312e+00,3.433052825927734375e+01,-1.150080108642578125e+02,9.059925079345703125e+01,-6.795573425292968750e+01,4.528713607788085938e+01,-1.443239784240722656e+01,-1.054944229125976562e+02,-1.209958877563476562e+02,6.375479125976562500e+01,-3.842719650268554688e+01
6.402469873428344727e-01,2.000000000000000000e+00,8.826340675354003906e+00,6.597527027130126953e+00,3.432416152954101562e+01,-1.150614242553710938e+02,9.060149383544921875e+01,-6.798048400878906250e+01,4.521517181396484375e+01,-1.442296695709228516e+01,-1.055098114013671875e+02,-1.210510330200195312e+02,6.375063705444335938e+01,-3.845883941650390625e+01
6.430150270462036133e-01,2.000000000000000000e+00,8.855076789855957031e+00,6.551135540008544922e+00,3.431780242919921875e+01,-1.151155166625976562e+02,9.060346221923828125e+01,-6.800463104248046875e+01,4.514365386962890625e+01,-1.441376686096191406e+01,-1.055251541137695312e+02,-1.211056747436523438e+02,6.374670410156250000e+01,-3.848992919921875000e+01
6.470199823379516602e-01,2.000000000000000000e+00,8.883640289306640625e+00,6.504291534423828125e+00,3.431141281127929688e+01,-1.151698150634765625e+02,9.060553741455078125e+01,-6.802809143066406250e+01,4.507097625732421875e+01,-1.440456485748291016e+01,-1.055402145385742188e+02,-1.211604690551757812e+02,6.374247360229492188e+01,-3.852025222778320312e+01
6.511160135269165039e-01,2.000000000000000000e+00,8.912146568298339844e+00,6.457651615142822266e+00,3.430484771728515625e+01,-1.152233963012695312e+02,9.060772705078125000e+01,-6.805182647705078125e+01,4.499791717529296875e+01,-1.439513587951660156e+01,-1.055550079345703125e+02,-1.212154617309570312e+02,6.373846435546875000e+01,-3.855079269409179688e+01
6.551319956779479980e-01,2.000000000000000000e+00,8.940909385681152344e+00,6.411214828491210938e+00,3.429822158813476562e+01,-1.152774887084960938e+02,9.060985565185546875e+01,-6.807569885253906250e+01,4.492496871948242188e+01,-1.438593387603759766e+01,-1.055702972412109375e+02,-1.212694625854492188e+02,6.373431396484375000e+01,-3.858100509643554688e+01
6.604509949684143066e-01,2.000000000000000000e+00,8.969616889953613281e+00,6.364665031433105469e+00,3.429161453247070312e+01,-1.153309936523437500e+02,9.061188507080078125e+01,-6.810004425048828125e+01,4.485334014892578125e+01,-1.437655162811279297e+01,-1.055856246948242188e+02,-1.213237533569335938e+02,6.373030471801757812e+01,-3.861100006103515625e+01
6.630859971046447754e-01,2.000000000000000000e+00,8.998380661010742188e+00,6.318160533905029297e+00,3.428504562377929688e+01,-1.153845748901367188e+02,9.061401367187500000e+01,-6.812480163574218750e+01,4.478176498413085938e+01,-1.436693763732910156e+01,-1.056008071899414062e+02,-1.213785400390625000e+02,6.372615051269531250e+01,-3.864011383056640625e+01
6.670219898223876953e-01,2.000000000000000000e+00,9.026944160461425781e+00,6.271588325500488281e+00,3.427823257446289062e+01,-1.154388351440429688e+02,9.061609649658203125e+01,-6.814927673339843750e+01,4.470930862426757812e+01,-1.435769176483154297e+01,-1.056158142089843750e+02,-1.214324569702148438e+02,6.372221755981445312e+01,-3.867065429687500000e+01
6.710330247879028320e-01,2.000000000000000000e+00,9.055564880371093750e+00,6.224812030792236328e+00,3.427164459228515625e+01,-1.154922409057617188e+02,9.061833190917968750e+01,-6.817356109619140625e+01,4.463608551025390625e+01,-1.434848976135253906e+01,-1.056309356689453125e+02,-1.214873199462890625e+02,6.371806335449218750e+01,-3.870207595825195312e+01
6.750800013542175293e-01,2.000000000000000000e+00,9.084156990051269531e+00,6.178262233734130859e+00,3.426522064208984375e+01,-1.155460662841796875e+02,9.062057495117187500e+01,-6.819763183593750000e+01,4.456324386596679688e+01,-1.433956241607666016e+01,-1.056463851928710938e+02,-1.215422592163085938e+02,6.371390914916992188e+01,-3.873228836059570312e+01
6.810860037803649902e-01,2.000000000000000000e+00,9.113036155700683594e+00,6.131485939025878906e+00,3.425877761840820312e+01,-1.156003799438476562e+02,9.062260437011718750e+01,-6.822170257568359375e+01,4.449200057983398438e+01,-1.433059120178222656e+01,-1.056616592407226562e+02,-1.215966873168945312e+02,6.370946502685546875e+01,-3.876195144653320312e+01
6.830149888992309570e-01,2.000000000000000000e+00,9.141656875610351562e+00,6.084800720214843750e+00,3.425229263305664062e+01,-1.156535720825195312e+02,9.062490081787109375e+01,-6.824517822265625000e+01,4.442042160034179688e+01,-1.432134437561035156e+01,-1.056770553588867188e+02,-1.216515426635742188e+02,6.370502471923828125e+01,-3.879260253906250000e+01
6.870129704475402832e-01,2.000000000000000000e+00,9.170364379882812500e+00,6.038296222686767578e+00,3.424566268920898438e+01,-1.157074050903320312e+02,9.062729644775390625e+01,-6.826951599121093750e+01,4.434791183471679688e+01,-1.431227970123291016e+01,-1.056925582885742188e+02,-1.217058334350585938e+02,6.370087051391601562e+01,-3.882369232177734375e+01
6.911020278930664062e-01,2.000000000000000000e+00,9.198898315429687500e+00,5.991655826568603516e+00,3.423907470703125000e+01,-1.157616119384765625e+02,9.062937164306640625e+01,-6.829373168945312500e+01,4.427490997314453125e+01,-1.430326271057128906e+01,-1.057078399658203125e+02,-1.217601852416992188e+02,6.369650268554687500e+01,-3.885269927978515625e+01
6.950200200080871582e-01,2.000000000000000000e+00,9.227519035339355469e+00,5.945015907287597656e+00,3.423250961303710938e+01,-1.158150787353515625e+02,9.063150024414062500e+01,-6.831841278076171875e+01,4.420273208618164062e+01,-1.429410743713378906e+01,-1.057230682373046875e+02,-1.218148269653320312e+02,6.369197845458984375e+01,-3.888137054443359375e+01
6.990659832954406738e-01,2.000000000000000000e+00,9.256196975708007812e+00,5.898420810699462891e+00,3.422590255737304688e+01,-1.158696517944335938e+02,9.063385009765625000e+01,-6.834310150146484375e+01,4.413126373291015625e+01,-1.428504371643066406e+01,-1.057382965087890625e+02,-1.218690414428710938e+02,6.368775177001953125e+01,-3.891246414184570312e+01
7.055109739303588867e-01,2.000000000000000000e+00,9.284846305847167969e+00,5.851758003234863281e+00,3.421929168701171875e+01,-1.159234313964843750e+02,9.063603973388671875e+01,-6.836737823486328125e+01,4.405968475341796875e+01,-1.427561378479003906e+01,-1.057536849975585938e+02,-1.219229736328125000e+02,6.368375015258789062e+01,-3.894410324096679688e+01
7.070130109786987305e-01,2.000000000000000000e+00,9.313409805297851562e+00,5.805321216583251953e+00,3.421284866333007812e+01,-1.159767913818359375e+02,9.063822174072265625e+01,-6.839118194580078125e+01,4.398745346069335938e+01,-1.426632022857666016e+01,-1.057689132690429688e+02,-1.219779052734375000e+02,6.367966461181640625e+01,-3.897420883178710938e+01
7.111639976501464844e-01,2.000000000000000000e+00,9.341829299926757812e+00,5.758749008178710938e+00,3.420652389526367188e+01,-1.160308837890625000e+02,9.064046478271484375e+01,-6.841450500488281250e+01,4.391455841064453125e+01,-1.425712013244628906e+01,-1.057843627929687500e+02,-1.220324096679687500e+02,6.367522430419921875e+01,-3.900321197509765625e+01
7.151389718055725098e-01,2.000000000000000000e+00,9.370795249938964844e+00,5.712040901184082031e+00,3.420009994506835938e+01,-1.160846633911132812e+02,9.064276123046875000e+01,-6.843878936767578125e+01,4.384243011474609375e+01,-1.424814796447753906e+01,-1.057998657226562500e+02,-1.220871200561523438e+02,6.367085266113281250e+01,-3.903528976440429688e+01
7.191280126571655273e-01,2.000000000000000000e+00,9.399357795715332031e+00,5.665422916412353516e+00,3.419345092773437500e+01,-1.161384887695312500e+02,9.064483642578125000e+01,-6.846279907226562500e+01,4.377107620239257812e+01,-1.423931312561035156e+01,-1.058151473999023438e+02,-1.221421966552734375e+02,6.366670227050781250e+01,-3.906803131103515625e+01
7.231029868125915527e-01,2.000000000000000000e+00,9.428236961364746094e+00,5.618896007537841797e+00,3.418682098388671875e+01,-1.161922683715820312e+02,9.064691162109375000e+01,-6.848748016357421875e+01,4.369933700561523438e+01,-1.423006534576416016e+01,-1.058301544189453125e+02,-1.221963348388671875e+02,6.366283416748046875e+01,-3.909846115112304688e+01
7.303029894828796387e-01,2.000000000000000000e+00,9.456914901733398438e+00,5.572300910949707031e+00,3.418031692504882812e+01,-1.162453689575195312e+02,9.064904785156250000e+01,-6.851210021972656250e+01,4.362699127197265625e+01,-1.422086429595947266e+01,-1.058451690673828125e+02,-1.222505493164062500e+02,6.365897750854492188e+01,-3.912735748291015625e+01
7.317050099372863770e-01,2.000000000000000000e+00,9.485363960266113281e+00,5.525818824768066406e+00,3.417368698120117188e+01,-1.162992553710937500e+02,9.065123748779296875e+01,-6.853678131103515625e+01,4.355437088012695312e+01,-1.421170997619628906e+01,-1.058606643676757812e+02,-1.223054122924804688e+02,6.365460586547851562e+01,-3.915822601318359375e+01
7.372440099716186523e-01,2.000000000000000000e+00,9.513956069946289062e+00,5.479269027709960938e+00,3.416695785522460938e+01,-1.163531875610351562e+02,9.065336608886718750e+01,-6.856127166748046875e+01,4.348197174072265625e+01,-1.420273780822753906e+01,-1.058760604858398438e+02,-1.223596267700195312e+02,6.365059661865234375e+01,-3.918920898437500000e+01
7.390130162239074707e-01,2.000000000000000000e+00,9.542605400085449219e+00,5.432855606079101562e+00,3.416041183471679688e+01,-1.164070816040039062e+02,9.065554809570312500e+01,-6.858459472656250000e+01,4.341028594970703125e+01,-1.419353580474853516e+01,-1.058911285400390625e+02,-1.224139862060546875e+02,6.364658737182617188e+01,-3.921832275390625000e+01
7.430189847946166992e-01,2.000000000000000000e+00,9.571426391601562500e+00,5.386124610900878906e+00,3.415400695800781250e+01,-1.164606933593750000e+02,9.065757751464843750e+01,-6.860806274414062500e+01,4.333860015869140625e+01,-1.418428993225097656e+01,-1.059061889648437500e+02,-1.224686965942382812e+02,6.364250946044921875e+01,-3.924798583984375000e+01
7.470239996910095215e-01,2.000000000000000000e+00,9.600219726562500000e+00,5.339597225189208984e+00,3.414756011962890625e+01,-1.165139617919921875e+02,9.065971374511718750e+01,-6.863200378417968750e+01,4.326630783081054688e+01,-1.417504310607910156e+01,-1.059214782714843750e+02,-1.225226974487304688e+02,6.363791656494140625e+01,-3.927951812744140625e+01
7.510129809379577637e-01,2.000000000000000000e+00,9.628926277160644531e+00,5.292866706848144531e+00,3.414103698730468750e+01,-1.165682601928710938e+02,9.066168212890625000e+01,-6.865628051757812500e+01,4.319341659545898438e+01,-1.416556739807128906e+01,-1.059365997314453125e+02,-1.225769805908203125e+02,6.363376617431640625e+01,-3.930994796752929688e+01
7.552390098571777344e-01,2.000000000000000000e+00,9.657374382019042969e+00,5.246385097503662109e+00,3.413440704345703125e+01,-1.166219406127929688e+02,9.066391754150390625e+01,-6.868089294433593750e+01,4.312052154541015625e+01,-1.415632057189941406e+01,-1.059515457153320312e+02,-1.226317749023437500e+02,6.362989807128906250e+01,-3.933939361572265625e+01
7.590579986572265625e-01,2.000000000000000000e+00,9.685794830322265625e+00,5.199993610382080078e+00,3.412792205810546875e+01,-1.166755599975585938e+02,9.066600036621093750e+01,-6.870537567138671875e+01,4.304899978637695312e+01,-1.414707279205322266e+01,-1.059667282104492188e+02,-1.226857681274414062e+02,6.362552642822265625e+01,-3.936927413940429688e+01
7.630760073661804199e-01,2.000000000000000000e+00,9.714501380920410156e+00,5.153534412384033203e+00,3.412133407592773438e+01,-1.167297134399414062e+02,9.066807556152343750e+01,-6.872992706298828125e+01,4.297748184204101562e+01,-1.413796424865722656e+01,-1.059818496704101562e+02,-1.227404785156250000e+02,6.362130737304687500e+01,-3.940025711059570312e+01
7.670900225639343262e-01,2.000000000000000000e+00,9.743179321289062500e+00,5.107075214385986328e+00,3.411470413208007812e+01,-1.167832717895507812e+02,9.066978454589843750e+01,-6.875359344482421875e+01,4.290507888793945312e+01,-1.412867164611816406e+01,-1.059971237182617188e+02,-1.227947006225585938e+02,6.361671829223632812e+01,-3.943024826049804688e+01
7.710239887237548828e-01,2.000000000000000000e+00,9.771800041198730469e+00,5.060615539550781250e+00,3.410817718505859375e+01,-1.168370132446289062e+02,9.067191314697265625e+01,-6.877706146240234375e+01,4.283218383789062500e+01,-1.411919593811035156e+01,-1.060123062133789062e+02,-1.228481216430664062e+02,6.361227035522460938e+01,-3.945958328247070312e+01
7.760679721832275391e-01,2.000000000000000000e+00,9.800334930419921875e+00,5.013907909393310547e+00,3.410175704956054688e+01,-1.168915710449218750e+02,9.067394256591796875e+01,-6.880072784423828125e+01,4.275939941406250000e+01,-1.410994815826416016e+01,-1.060279617309570312e+02,-1.229029006958007812e+02,6.360818481445312500e+01,-3.949001693725585938e+01
7.812200188636779785e-01,2.000000000000000000e+00,9.828840255737304688e+00,4.967335224151611328e+00,3.409549331665039062e+01,-1.169447784423828125e+02,9.067597198486328125e+01,-6.882466888427734375e+01,4.268809890747070312e+01,-1.410070228576660156e+01,-1.060432510375976562e+02,-1.229576950073242188e+02,6.360388946533203125e+01,-3.952220535278320312e+01
7.830470204353332520e-01,2.000000000000000000e+00,9.857575416564941406e+00,4.921011924743652344e+00,3.408910751342773438e+01,-1.169986572265625000e+02,9.067810821533203125e+01,-6.884887695312500000e+01,4.261679840087890625e+01,-1.409159183502197266e+01,-1.060582580566406250e+02,-1.230119781494140625e+02,6.359966278076171875e+01,-3.955241775512695312e+01
7.880899906158447266e-01,2.000000000000000000e+00,9.857575416564941406e+00,4.921011924743652344e+00,3.408910751342773438e+01,-1.169986572265625000e+02,9.067810821533203125e+01,-6.884887695312500000e+01,4.254472732543945312e+01,-1.408230018615722656e+01,-1.060731582641601562e+02,-1.230664062500000000e+02,6.359522247314453125e+01,-3.958108901977539062e+01
7.917259931564331055e-01,2.000000000000000000e+00,9.914846420288085938e+00,4.828048229217529297e+00,3.407593536376953125e+01,-1.171055374145507812e+02,9.068177795410156250e+01,-6.889817810058593750e+01,4.247183609008789062e+01,-1.407287025451660156e+01,-1.060879516601562500e+02,-1.231211242675781250e+02,6.359121322631835938e+01,-3.961053466796875000e+01
7.962189912796020508e-01,2.000000000000000000e+00,9.943324089050292969e+00,4.781633853912353516e+00,3.406936645507812500e+01,-1.171599044799804688e+02,9.068375396728515625e+01,-6.892238616943359375e+01,4.239943313598632812e+01,-1.406330204010009766e+01,-1.061034622192382812e+02,-1.231749114990234375e+02,6.358734893798828125e+01,-3.964250564575195312e+01
7.990869879722595215e-01,2.000000000000000000e+00,9.971886634826660156e+00,4.734858036041259766e+00,3.406275939941406250e+01,-1.172133178710937500e+02,9.068572998046875000e+01,-6.894606018066406250e+01,4.232796859741210938e+01,-1.405419349670410156e+01,-1.061189041137695312e+02,-1.232293319702148438e+02,6.358283233642578125e+01,-3.967392730712890625e+01
8.030980229377746582e-01,2.000000000000000000e+00,9.971886634826660156e+00,4.734858036041259766e+00,3.406275939941406250e+01,-1.172133178710937500e+02,9.068572998046875000e+01,-6.894606018066406250e+01,4.232796859741210938e+01,-1.405419349670410156e+01,-1.061189041137695312e+02,-1.232293319702148438e+02,6.358283233642578125e+01,-3.967392730712890625e+01
8.070279955863952637e-01,2.000000000000000000e+00,1.002895545959472656e+01,4.641871929168701172e+00,3.404952239990234375e+01,-1.173208618164062500e+02,9.068967437744140625e+01,-6.899339294433593750e+01,4.218448638916015625e+01,-1.403615760803222656e+01,-1.061491928100585938e+02,-1.233371963500976562e+02,6.357482147216796875e+01,-3.973303222656250000e+01
8.121240139007568359e-01,2.000000000000000000e+00,1.002895545959472656e+01,4.641871929168701172e+00,3.404952239990234375e+01,-1.173208618164062500e+02,9.068967437744140625e+01,-6.899339294433593750e+01,4.218448638916015625e+01,-1.403615760803222656e+01,-1.061491928100585938e+02,-1.233371963500976562e+02,6.357482147216796875e+01,-3.973303222656250000e+01
8.160520195960998535e-01,2.000000000000000000e+00,1.008628273010253906e+01,4.548840522766113281e+00,3.403659057617187500e+01,-1.174281616210937500e+02,9.069340515136718750e+01,-6.904222106933593750e+01,4.203941345214843750e+01,-1.401812171936035156e+01,-1.061801986694335938e+02,-1.234464797973632812e+02,6.356665802001953125e+01,-3.979510498046875000e+01
8.190119862556457520e-01,2.000000000000000000e+00,1.011470317840576172e+01,4.502313137054443359e+00,3.403008651733398438e+01,-1.174823150634765625e+02,9.069543457031250000e+01,-6.906684112548828125e+01,4.196811294555664062e+01,-1.400905799865722656e+01,-1.061954803466796875e+02,-1.235009155273437500e+02,6.356243133544921875e+01,-3.982399749755859375e+01
8.240659832954406738e-01,2.000000000000000000e+00,1.011470317840576172e+01,4.502313137054443359e+00,3.403008651733398438e+01,-1.174823150634765625e+02,9.069543457031250000e+01,-6.906684112548828125e+01,4.196811294555664062e+01,-1.400905799865722656e+01,-1.061954803466796875e+02,-1.235009155273437500e+02,6.356243133544921875e+01,-3.982399749755859375e+01
8.270260095596313477e-01,2.000000000000000000e+00,1.017168617248535156e+01,4.409236431121826172e+00,3.401686859130859375e+01,-1.175897674560546875e+02,9.069937133789062500e+01,-6.911519622802734375e+01,4.182490158081054688e+01,-1.399093055725097656e+01,-1.062258834838867188e+02,-1.236096267700195312e+02,6.355412673950195312e+01,-3.988629150390625000e+01
8.313000202178955078e-01,2.000000000000000000e+00,1.017168617248535156e+01,4.409236431121826172e+00,3.401686859130859375e+01,-1.175897674560546875e+02,9.069937133789062500e+01,-6.911519622802734375e+01,4.182490158081054688e+01,-1.399093055725097656e+01,-1.062258834838867188e+02,-1.236096267700195312e+02,6.355412673950195312e+01,-3.988629150390625000e+01
8.350510001182556152e-01,2.000000000000000000e+00,1.020047855377197266e+01,4.362776756286621094e+00,3.401032257080078125e+01,-1.176435470581054688e+02,9.070118713378906250e+01,-6.913865661621093750e+01,4.175217437744140625e+01,-1.398172950744628906e+01,-1.062411117553710938e+02,-1.236636886596679688e+02,6.355004882812500000e+01,-3.991661453247070312e+01
8.390750288963317871e-01,2.000000000000000000e+00,1.022904300689697266e+01,4.316317558288574219e+00,3.400369262695312500e+01,-1.176969070434570312e+02,9.070316314697265625e+01,-6.916239166259765625e+01,4.167949676513671875e+01,-1.397252845764160156e+01,-1.062562866210937500e+02,-1.237181930541992188e+02,6.354560089111328125e+01,-3.994484710693359375e+01
8.430709838867187500e-01,2.000000000000000000e+00,1.025751972198486328e+01,4.269813537597656250e+00,3.399706649780273438e+01,-1.177509994506835938e+02,9.070518493652343750e+01,-6.918626403808593750e+01,4.160808944702148438e+01,-1.396323585510253906e+01,-1.062718429565429688e+02,-1.237716903686523438e+02,6.354115676879882812e+01,-3.997484207153320312e+01
8.471710085868835449e-01,2.000000000000000000e+00,1.028605365753173828e+01,4.223286151885986328e+00,3.399070358276367188e+01,-1.178048934936523438e+02,9.070684051513671875e+01,-6.921061706542968750e+01,4.153651046752929688e+01,-1.395430850982666016e+01,-1.062873992919921875e+02,-1.238257598876953125e+02,6.353664016723632812e+01,-4.000659179687500000e+01
8.510810136795043945e-01,2.000000000000000000e+00,1.031464576721191406e+01,4.176758766174316406e+00,3.398442077636718750e+01,-1.178587265014648438e+02,9.070881652832031250e+01,-6.923516082763671875e+01,4.146427536010742188e+01,-1.394533634185791016e+01,-1.063023529052734375e+02,-1.238806152343750000e+02,6.353255462646484375e+01,-4.003680419921875000e+01
8.562880158424377441e-01,2.000000000000000000e+00,1.034323787689208984e+01,4.130322456359863281e+00,3.397805786132812500e+01,-1.179121932983398438e+02,9.071078491210937500e+01,-6.926005554199218750e+01,4.139126968383789062e+01,-1.393654823303222656e+01,-1.063173065185546875e+02,-1.239346160888671875e+02,6.352833557128906250e+01,-4.006570053100585938e+01
8.590940237045288086e-01,2.000000000000000000e+00,1.040076637268066406e+01,4.037381172180175781e+00,3.396479797363281250e+01,-1.180194244384765625e+02,9.071456909179687500e+01,-6.930860900878906250e+01,4.124762725830078125e+01,-1.391814517974853516e+01,-1.063476562500000000e+02,-1.240438995361328125e+02,6.351951599121093750e+01,-4.012733078002929688e+01
8.630759716033935547e-01,2.000000000000000000e+00,1.040076637268066406e+01,4.037381172180175781e+00,3.396479797363281250e+01,-1.180194244384765625e+02,9.071456909179687500e+01,-6.930860900878906250e+01,4.124762725830078125e+01,-1.391814517974853516e+01,-1.063476562500000000e+02,-1.240438995361328125e+02,6.351951599121093750e+01,-4.012733078002929688e+01
8.670650124549865723e-01,2.000000000000000000e+00,1.042912864685058594e+01,3.990899562835693359e+00,3.395827484130859375e+01,-1.180732650756835938e+02,9.071654510498046875e+01,-6.933213806152343750e+01,4.117621612548828125e+01,-1.390894412994384766e+01,-1.063630981445312500e+02,-1.240979843139648438e+02,6.351507186889648438e+01,-4.015765380859375000e+01
8.715360164642333984e-01,2.000000000000000000e+00,1.045763492584228516e+01,3.944304466247558594e+00,3.395170593261718750e+01,-1.181268920898437500e+02,9.071867370605468750e+01,-6.935614776611328125e+01,4.110375976562500000e+01,-1.389978981018066406e+01,-1.063781127929687500e+02,-1.241524047851562500e+02,6.351121139526367188e+01,-4.018753433227539062e+01
8.750640153884887695e-01,2.000000000000000000e+00,1.048619842529296875e+01,3.897732019424438477e+00,3.394503784179687500e+01,-1.181806182861328125e+02,9.072027587890625000e+01,-6.938008880615234375e+01,4.103086471557617188e+01,-1.389072608947753906e+01,-1.063932876586914062e+02,-1.242074127197265625e+02,6.350734710693359375e+01,-4.021818923950195312e+01
8.790799975395202637e-01,2.000000000000000000e+00,1.051479053497314453e+01,3.851273059844970703e+00,3.393848800659179688e+01,-1.182334976196289062e+02,9.072251129150390625e+01,-6.940470123291015625e+01,4.095846557617187500e+01,-1.388157081604003906e+01,-1.064088439941406250e+02,-1.242609786987304688e+02,6.350326919555664062e+01,-4.024927902221679688e+01
8.830239772796630859e-01,2.000000000000000000e+00,1.057188796997070312e+01,3.758309125900268555e+00,3.392565917968750000e+01,-1.183419113159179688e+02,9.072635650634765625e+01,-6.945421600341796875e+01,4.081597518920898438e+01,-1.386257362365722656e+01,-1.064390792846679688e+02,-1.243694839477539062e+02,6.349481964111328125e+01,-4.030948638916015625e+01
8.881409764289855957e-01,2.000000000000000000e+00,1.057188796997070312e+01,3.758309125900268555e+00,3.392565917968750000e+01,-1.183419113159179688e+02,9.072635650634765625e+01,-6.945421600341796875e+01,4.081597518920898438e+01,-1.386257362365722656e+01,-1.064390792846679688e+02,-1.243694839477539062e+02,6.349481964111328125e+01,-4.030948638916015625e+01
8.910980224609375000e-01,2.000000000000000000e+00,1.062889957427978516e+01,3.665368080139160156e+00,3.391264724731445312e+01,-1.184495086669921875e+02,9.073035430908203125e+01,-6.950195312500000000e+01,4.067095184326171875e+01,-1.384435367584228516e+01,-1.064692153930664062e+02,-1.244786148071289062e+02,6.348643875122070312e+01,-4.037089920043945312e+01
8.954780101776123047e-01,2.000000000000000000e+00,1.062889957427978516e+01,3.665368080139160156e+00,3.391264724731445312e+01,-1.184495086669921875e+02,9.073035430908203125e+01,-6.950195312500000000e+01,4.067095184326171875e+01,-1.384435367584228516e+01,-1.064692153930664062e+02,-1.244786148071289062e+02,6.348643875122070312e+01,-4.037089920043945312e+01
8.990610241889953613e-01,2.000000000000000000e+00,1.065729045867919922e+01,3.618931293487548828e+00,3.390604019165039062e+01,-1.185027694702148438e+02,9.073227691650390625e+01,-6.952562713623046875e+01,4.059899139404296875e+01,-1.383538246154785156e+01,-1.064841766357421875e+02,-1.245326995849609375e+02,6.348257064819335938e+01,-4.040056228637695312e+01
9.030590057373046875e-01,2.000000000000000000e+00,1.068582534790039062e+01,3.572653532028198242e+00,3.389943313598632812e+01,-1.185563888549804688e+02,9.073403167724609375e+01,-6.954976654052734375e+01,4.052796554565429688e+01,-1.382618141174316406e+01,-1.064990158081054688e+02,-1.245868301391601562e+02,6.347813415527343750e+01,-4.043099594116210938e+01
9.076669812202453613e-01,2.000000000000000000e+00,1.071436023712158203e+01,3.526058197021484375e+00,3.389278411865234375e+01,-1.186105957031250000e+02,9.073600769042968750e+01,-6.957390594482421875e+01,4.045672225952148438e+01,-1.381693458557128906e+01,-1.065143585205078125e+02,-1.246416244506835938e+02,6.347360992431640625e+01,-4.046252441406250000e+01
9.120600223541259766e-01,2.000000000000000000e+00,1.074275016784667969e+01,3.479576587677001953e+00,3.388633728027343750e+01,-1.186639480590820312e+02,9.073809051513671875e+01,-6.959825897216796875e+01,4.038465118408203125e+01,-1.380787086486816406e+01,-1.065299072265625000e+02,-1.246954727172851562e+02,6.346923828125000000e+01,-4.049383544921875000e+01
9.161520004272460938e-01,2.000000000000000000e+00,1.077122783660888672e+01,3.433320999145507812e+00,3.387993621826171875e+01,-1.187177352905273438e+02,9.074037933349609375e+01,-6.962307739257812500e+01,4.024001693725585938e+01,-1.378969669342041016e+01,-1.065602035522460938e+02,-1.248036117553710938e+02,6.346129608154296875e+01,-4.055327224731445312e+01
9.226170182228088379e-01,2.000000000000000000e+00,1.079970455169677734e+01,3.386861562728881836e+00,3.387367248535156250e+01,-1.187713470458984375e+02,9.074202728271484375e+01,-6.964775848388671875e+01,4.016871643066406250e+01,-1.378045082092285156e+01,-1.065755386352539062e+02,-1.248579788208007812e+02,6.345642089843750000e+01,-4.058469390869140625e+01
9.240199923515319824e-01,2.000000000000000000e+00,1.085691833496093750e+01,3.294101715087890625e+00,3.386057662963867188e+01,-1.188785400390625000e+02,9.074613189697265625e+01,-6.969536590576171875e+01,4.009735870361328125e+01,-1.377111244201660156e+01,-1.065905532836914062e+02,-1.249122619628906250e+02,6.345197296142578125e+01,-4.061611175537109375e+01
9.281250238418579102e-01,2.000000000000000000e+00,1.085691833496093750e+01,3.294101715087890625e+00,3.386057662963867188e+01,-1.188785400390625000e+02,9.074613189697265625e+01,-6.969536590576171875e+01,4.002528762817382812e+01,-1.376177310943603516e+01,-1.066056747436523438e+02,-1.249668350219726562e+02,6.344796371459960938e+01,-4.064489746093750000e+01
9.324190020561218262e-01,2.000000000000000000e+00,1.088539505004882812e+01,3.247529268264770508e+00,3.385404968261718750e+01,-1.189319534301757812e+02,9.074848175048828125e+01,-6.971903228759765625e+01,4.002528762817382812e+01,-1.376177310943603516e+01,-1.066056747436523438e+02,-1.249668350219726562e+02,6.344796371459960938e+01,-4.064489746093750000e+01
9.351360201835632324e-01,2.000000000000000000e+00,1.094200515747070312e+01,3.154723882675170898e+00,3.384091567993164062e+01,-1.190391998291015625e+02,9.075258636474609375e+01,-6.976691436767578125e+01,3.988059616088867188e+01,-1.374392127990722656e+01,-1.066358032226562500e+02,-1.250758972167968750e+02,6.343936538696289062e+01,-4.070477294921875000e+01
9.396160244941711426e-01,2.000000000000000000e+00,1.097062492370605469e+01,3.108174324035644531e+00,3.383428955078125000e+01,-1.190926132202148438e+02,9.075477600097656250e+01,-6.979145812988281250e+01,3.980924224853515625e+01,-1.373508644104003906e+01,-1.066511917114257812e+02,-1.251304702758789062e+02,6.343499374389648438e+01,-4.073509597778320312e+01
9.437010288238525391e-01,2.000000000000000000e+00,1.097062492370605469e+01,3.108174324035644531e+00,3.383428955078125000e+01,-1.190926132202148438e+02,9.075477600097656250e+01,-6.979145812988281250e+01,3.980924224853515625e+01,-1.373508644104003906e+01,-1.066511917114257812e+02,-1.251304702758789062e+02,6.343499374389648438e+01,-4.073509597778320312e+01
9.480530023574829102e-01,2.000000000000000000e+00,1.099918937683105469e+01,3.061850786209106445e+00,3.382767868041992188e+01,-1.191460800170898438e+02,9.075669097900390625e+01,-6.981622314453125000e+01,3.973783111572265625e+01,-1.372606754302978516e+01,-1.066663131713867188e+02,-1.251834640502929688e+02,6.343099212646484375e+01,-4.076376724243164062e+01
9.510779976844787598e-01,2.000000000000000000e+00,1.102760887145996094e+01,3.015481948852539062e+00,3.382127761840820312e+01,-1.191999588012695312e+02,9.075882720947265625e+01,-6.984049224853515625e+01,3.966548538208007812e+01,-1.371700382232666016e+01,-1.066817092895507812e+02,-1.252372589111328125e+02,6.342712402343750000e+01,-4.079354476928710938e+01
9.550769925117492676e-01,2.000000000000000000e+00,1.105597114562988281e+01,2.969090700149536133e+00,3.381491470336914062e+01,-1.192531127929687500e+02,9.076095581054687500e+01,-6.986422729492187500e+01,3.959270095825195312e+01,-1.370794010162353516e+01,-1.066970977783203125e+02,-1.252923202514648438e+02,6.342261123657226562e+01,-4.082540512084960938e+01
9.601070284843444824e-01,2.000000000000000000e+00,1.108433341979980469e+01,2.922722101211547852e+00,3.380838775634765625e+01,-1.193074264526367188e+02,9.076313781738281250e+01,-6.988756561279296875e+01,3.952035522460937500e+01,-1.369892311096191406e+01,-1.067122726440429688e+02,-1.253466110229492188e+02,6.341867446899414062e+01,-4.085616302490234375e+01
9.631320238113403320e-01,2.000000000000000000e+00,1.111275291442871094e+01,2.876353502273559570e+00,3.380179977416992188e+01,-1.193615722656250000e+02,9.076532745361328125e+01,-6.991123199462890625e+01,3.944894790649414062e+01,-1.368972206115722656e+01,-1.067272796630859375e+02,-1.254009628295898438e+02,6.341459274291992188e+01,-4.088637542724609375e+01
9.682689905166625977e-01,2.000000000000000000e+00,1.114143085479736328e+01,2.830097675323486328e+00,3.379525375366210938e+01,-1.194143447875976562e+02,9.076741027832031250e+01,-6.993530273437500000e+01,3.937736892700195312e+01,-1.368056678771972656e+01,-1.067423477172851562e+02,-1.254553298950195312e+02,6.341073226928710938e+01,-4.091691970825195312e+01
9.711419939994812012e-01,2.000000000000000000e+00,1.117019557952880859e+01,2.783661127090454102e+00,3.378874588012695312e+01,-1.194681243896484375e+02,9.076970672607421875e+01,-6.995938110351562500e+01,3.930518722534179688e+01,-1.367122840881347656e+01,-1.067575759887695312e+02,-1.255091781616210938e+02,6.340643692016601562e+01,-4.094713211059570312e+01
9.750840067863464355e-01,2.000000000000000000e+00,1.119870185852050781e+01,2.737292528152465820e+00,3.378221893310546875e+01,-1.195216979980468750e+02,9.077188873291015625e+01,-6.998400115966796875e+01,3.923257064819335938e+01,-1.366193580627441406e+01,-1.067730789184570312e+02,-1.255638885498046875e+02,6.340228271484375000e+01,-4.097734451293945312e+01
9.791380167007446289e-01,2.000000000000000000e+00,1.122723579406738281e+01,2.690901279449462891e+00,3.377571105957031250e+01,-1.195753707885742188e+02,9.077407836914062500e+01,-7.000868225097656250e+01,3.916022491455078125e+01,-1.365282630920410156e+01,-1.067885818481445312e+02,-1.256178894042968750e+02,6.339820098876953125e+01,-4.100777816772460938e+01
9.831929802894592285e-01,2.000000000000000000e+00,1.125582790374755859e+01,2.644555091857910156e+00,3.376932907104492188e+01,-1.196291503906250000e+02,9.077630615234375000e+01,-7.003276062011718750e+01,3.908892440795898438e+01,-1.364385414123535156e+01,-1.068036422729492188e+02,-1.256714630126953125e+02,6.339368438720703125e+01,-4.103733062744140625e+01
9.871479868888854980e-01,2.000000000000000000e+00,1.128433322906494141e+01,2.598186254501342773e+00,3.376306533813476562e+01,-1.196821441650390625e+02,9.077828216552734375e+01,-7.005615234375000000e+01,3.901778793334960938e+01,-1.363479042053222656e+01,-1.068186035156250000e+02,-1.257261047363281250e+02,6.338923645019531250e+01,-4.106830978393554688e+01
9.921519756317138672e-01,2.000000000000000000e+00,1.131298351287841797e+01,2.551795005798339844e+00,3.375662231445312500e+01,-1.197358093261718750e+02,9.078063201904296875e+01,-7.007962036132812500e+01,3.894593811035156250e+01,-1.362558937072753906e+01,-1.068338317871093750e+02,-1.257806091308593750e+02,6.338486480712890625e+01,-4.109918212890625000e+01
9.953309893608093262e-01,2.000000000000000000e+00,1.134154605865478516e+01,2.505426406860351562e+00,3.375011825561523438e+01,-1.197893905639648438e+02,9.078297424316406250e+01,-7.010342407226562500e+01,3.887331390380859375e+01,-1.361634254455566406e+01,-1.068487243652343750e+02,-1.258343963623046875e+02,6.338122558593750000e+01,-4.113027191162109375e+01
9.993389844894409180e-01,2.000000000000000000e+00,1.136987972259521484e+01,2.459057569503784180e+00,3.374356842041015625e+01,-1.198427429199218750e+02,9.078510284423828125e+01,-7.012756347656250000e+01,3.880096817016601562e+01,-1.360714149475097656e+01,-1.068641204833984375e+02,-1.258893203735351562e+02,6.337721633911132812e+01,-4.116004562377929688e+01
1.003224015235900879e+00,2.000000000000000000e+00,1.139835739135742188e+01,2.412643432617187500e+00,3.373704528808593750e+01,-1.198967285156250000e+02,9.078734588623046875e+01,-7.015204620361328125e+01,3.872994613647460938e+01,-1.359803199768066406e+01,-1.068793563842773438e+02,-1.259436798095703125e+02,6.337262725830078125e+01,-4.119080734252929688e+01
1.009024024009704590e+00,2.000000000000000000e+00,1.142689132690429688e+01,2.366139173507690430e+00,3.373039627075195312e+01,-1.199499969482421875e+02,9.078910827636718750e+01,-7.017673492431640625e+01,3.865864181518554688e+01,-1.358892154693603516e+01,-1.068943634033203125e+02,-1.259979629516601562e+02,6.336811065673828125e+01,-4.122157287597656250e+01
1.011688947677612305e+00,2.000000000000000000e+00,1.148407554626464844e+01,2.273220539093017578e+00,3.371717834472656250e+01,-1.200572280883789062e+02,9.079390716552734375e+01,-7.022494506835937500e+01,3.851395416259765625e+01,-1.357056617736816406e+01,-1.069242782592773438e+02,-1.261059646606445312e+02,6.336053085327148438e+01,-4.128023529052734375e+01
1.016633033752441406e+00,2.000000000000000000e+00,1.148407554626464844e+01,2.273220539093017578e+00,3.371717834472656250e+01,-1.200572280883789062e+02,9.079390716552734375e+01,-7.022494506835937500e+01,3.851395416259765625e+01,-1.357056617736816406e+01,-1.069242782592773438e+02,-1.261059646606445312e+02,6.336053085327148438e+01,-4.128023529052734375e+01
1.021026968955993652e+00,2.000000000000000000e+00,1.151255321502685547e+01,2.226987600326538086e+00,3.371075439453125000e+01,-1.201106414794921875e+02,9.079566955566406250e+01,-7.024820709228515625e+01,3.844210052490234375e+01,-1.356113624572753906e+01,-1.069398803710937500e+02,-1.261600952148437500e+02,6.335623550415039062e+01,-4.131000900268554688e+01
1.024019002914428711e+00,2.000000000000000000e+00,1.156922054290771484e+01,2.134182453155517578e+00,3.369774246215820312e+01,-1.202184219360351562e+02,9.080003356933593750e+01,-7.029567718505859375e+01,3.829988479614257812e+01,-1.354300880432128906e+01,-1.069696884155273438e+02,-1.262683868408203125e+02,6.334828948974609375e+01,-4.137065505981445312e+01
1.028061985969543457e+00,2.000000000000000000e+00,1.156922054290771484e+01,2.134182453155517578e+00,3.369774246215820312e+01,-1.202184219360351562e+02,9.080003356933593750e+01,-7.029567718505859375e+01,3.829988479614257812e+01,-1.354300880432128906e+01,-1.069696884155273438e+02,-1.262683868408203125e+02,6.334828948974609375e+01,-4.137065505981445312e+01
1.031268954277038574e+00,2.000000000000000000e+00,1.159775447845458984e+01,2.087836503982543945e+00,3.369117736816406250e+01,-1.202713012695312500e+02,9.080216979980468750e+01,-7.031968688964843750e+01,3.822797775268554688e+01,-1.353394508361816406e+01,-1.069846496582031250e+02,-1.263228912353515625e+02,6.334435653686523438e+01,-4.140053558349609375e+01
1.035473942756652832e+00,2.000000000000000000e+00,1.162634658813476562e+01,2.041309118270874023e+00,3.368460845947265625e+01,-1.203256149291992188e+02,9.080425262451171875e+01,-7.034403991699218750e+01,3.815552520751953125e+01,-1.352474403381347656e+01,-1.069998703002929688e+02,-1.263775329589843750e+02,6.333990859985351562e+01,-4.143173980712890625e+01
1.040635943412780762e+00,2.000000000000000000e+00,1.165488147735595703e+01,1.994963169097900391e+00,3.367803955078125000e+01,-1.203793411254882812e+02,9.080616760253906250e+01,-7.036919403076171875e+01,3.808317947387695312e+01,-1.351558876037597656e+01,-1.070151062011718750e+02,-1.264313964843750000e+02,6.333597564697265625e+01,-4.146271896362304688e+01
1.044054985046386719e+00,2.000000000000000000e+00,1.168321418762207031e+01,1.948752880096435547e+00,3.367151641845703125e+01,-1.204326400756835938e+02,9.080825042724609375e+01,-7.039374542236328125e+01,3.801165771484375000e+01,-1.350647926330566406e+01,-1.070303802490234375e+02,-1.264854583740234375e+02,6.333204269409179688e+01,-4.149249267578125000e+01
1.047554016113281250e+00,2.000000000000000000e+00,1.171146297454833984e+01,1.902361631393432617e+00,3.366496658325195312e+01,-1.204862594604492188e+02,9.081033325195312500e+01,-7.041748046875000000e+01,3.794035720825195312e+01,-1.349755287170410156e+01,-1.070456695556640625e+02,-1.265401000976562500e+02,6.332810592651367188e+01,-4.152061843872070312e+01
1.051612019538879395e+00,2.000000000000000000e+00,1.173996829986572266e+01,1.855970263481140137e+00,3.365860366821289062e+01,-1.205392456054687500e+02,9.081214141845703125e+01,-7.044114685058593750e+01,3.786817932128906250e+01,-1.348848915100097656e+01,-1.070605163574218750e+02,-1.265936660766601562e+02,6.332359313964843750e+01,-4.155017089843750000e+01
1.056056022644042969e+00,2.000000000000000000e+00,1.176856040954589844e+01,1.809669256210327148e+00,3.365228271484375000e+01,-1.205931396484375000e+02,9.081432342529296875e+01,-7.046495056152343750e+01,3.779539108276367188e+01,-1.347937965393066406e+01,-1.070756301879882812e+02,-1.266474456787109375e+02,6.331907272338867188e+01,-4.158103942871093750e+01
1.060067057609558105e+00,2.000000000000000000e+00,1.182534217834472656e+01,1.716728329658508301e+00,3.363936996459960938e+01,-1.206996994018554688e+02,9.081827545166015625e+01,-7.051310729980468750e+01,3.765196609497070312e+01,-1.346065711975097656e+01,-1.071058807373046875e+02,-1.267563858032226562e+02,6.331134796142578125e+01,-4.164070129394531250e+01
1.065145015716552734e+00,2.000000000000000000e+00,1.182534217834472656e+01,1.716728329658508301e+00,3.363936996459960938e+01,-1.206996994018554688e+02,9.081827545166015625e+01,-7.051310729980468750e+01,3.765196609497070312e+01,-1.346065711975097656e+01,-1.071058807373046875e+02,-1.267563858032226562e+02,6.331134796142578125e+01,-4.164070129394531250e+01
1.068112015724182129e+00,2.000000000000000000e+00,1.185367584228515625e+01,1.670336961746215820e+00,3.363284301757812500e+01,-1.207536849975585938e+02,9.082013702392578125e+01,-7.053771972656250000e+01,3.758082962036132812e+01,-1.345168495178222656e+01,-1.071211547851562500e+02,-1.268105926513671875e+02,6.330712509155273438e+01,-4.167134857177734375e+01
1.071835994720458984e+00,2.000000000000000000e+00,1.188200950622558594e+01,1.623945713043212891e+00,3.362639617919921875e+01,-1.208072662353515625e+02,9.082211303710937500e+01,-7.056253814697265625e+01,3.750859451293945312e+01,-1.344285011291503906e+01,-1.071362762451171875e+02,-1.268649444580078125e+02,6.330282211303710938e+01,-4.170244216918945312e+01
1.076056957244873047e+00,2.000000000000000000e+00,1.191040039062500000e+01,1.577554345130920410e+00,3.361981201171875000e+01,-1.208606185913085938e+02,9.082408905029296875e+01,-7.058702087402343750e+01,3.743581008911132812e+01,-1.343392372131347656e+01,-1.071511840820312500e+02,-1.269188079833984375e+02,6.329882049560546875e+01,-4.173243713378906250e+01
1.079782962799072266e+00,2.000000000000000000e+00,1.193913555145263672e+01,1.531185626983642578e+00,3.361315917968750000e+01,-1.209147186279296875e+02,9.082595062255859375e+01,-7.061028289794921875e+01,3.736324691772460938e+01,-1.342486000061035156e+01,-1.071666259765625000e+02,-1.269732284545898438e+02,6.329495239257812500e+01,-4.176165771484375000e+01
1.084442973136901855e+00,2.000000000000000000e+00,1.196755599975585938e+01,1.484681129455566406e+00,3.360655212402343750e+01,-1.209680709838867188e+02,9.082781219482421875e+01,-7.063394927978515625e+01,3.729243850708007812e+01,-1.341593360900878906e+01,-1.071821289062500000e+02,-1.270277404785156250e+02,6.329043960571289062e+01,-4.179275131225585938e+01
1.088937044143676758e+00,2.000000000000000000e+00,1.199603271484375000e+01,1.438289880752563477e+00,3.360015106201171875e+01,-1.210219116210937500e+02,9.082978820800781250e+01,-7.065809631347656250e+01,3.722113800048828125e+01,-1.340691566467285156e+01,-1.071974105834960938e+02,-1.270815887451171875e+02,6.328606796264648438e+01,-4.182471847534179688e+01
1.092069029808044434e+00,2.000000000000000000e+00,1.202450942993164062e+01,1.392079591751098633e+00,3.359382629394531250e+01,-1.210757293701171875e+02,9.083171081542968750e+01,-7.068196868896484375e+01,3.714912414550781250e+01,-1.339789772033691406e+01,-1.072126388549804688e+02,-1.271358718872070312e+02,6.328184127807617188e+01,-4.185526275634765625e+01
1.095957040786743164e+00,2.000000000000000000e+00,1.205292987823486328e+01,1.345801234245300293e+00,3.358734130859375000e+01,-1.211288833618164062e+02,9.083357238769531250e+01,-7.070631408691406250e+01,3.707639312744140625e+01,-1.338901710510253906e+01,-1.072275466918945312e+02,-1.271901550292968750e+02,6.327783203125000000e+01,-4.188393783569335938e+01
1.100198030471801758e+00,2.000000000000000000e+00,1.208160781860351562e+01,1.299477815628051758e+00,3.358073043823242188e+01,-1.211825561523437500e+02,9.083554840087890625e+01,-7.073079681396484375e+01,3.700448608398437500e+01,-1.337995338439941406e+01,-1.072427673339843750e+02,-1.272443771362304688e+02,6.327360916137695312e+01,-4.191436767578125000e+01
1.103971958160400391e+00,2.000000000000000000e+00,1.211028575897216797e+01,1.253063797950744629e+00,3.357420349121093750e+01,-1.212364501953125000e+02,9.083746337890625000e+01,-7.075540924072265625e+01,3.693346023559570312e+01,-1.337061500549316406e+01,-1.072578887939453125e+02,-1.272990188598632812e+02,6.326938247680664062e+01,-4.194556808471679688e+01
1.109297037124633789e+00,2.000000000000000000e+00,1.213884925842285156e+01,1.206717848777770996e+00,3.356769943237304688e+01,-1.212900085449218750e+02,9.083922576904296875e+01,-7.077962493896484375e+01,3.686243057250976562e+01,-1.336136817932128906e+01,-1.072730636596679688e+02,-1.273533020019531250e+02,6.326515197753906250e+01,-4.197523117065429688e+01
1.113469004631042480e+00,2.000000000000000000e+00,1.216724014282226562e+01,1.160439610481262207e+00,3.356109237670898438e+01,-1.213437881469726562e+02,9.084124755859375000e+01,-7.080294799804687500e+01,3.679052734375000000e+01,-1.335262489318847656e+01,-1.072883453369140625e+02,-1.274070205688476562e+02,6.326107788085937500e+01,-4.200434494018554688e+01
