rpiRobotics/ARM-21-02-F-19-Robot-Motion-Program/data_performance_abb/curve_2/dual_arm/diffevo_pose6/grad_result/real/run_7.csv
timestamp,cmd_num,J1,J2,J3,J4,J5,J6,J1_2,J2_2,J3_2,J4_2,J5_2,J6_2
2.739999908953905106e-04,-1.000000000000000000e+00,5.492848396301269531e+00,1.202481555938720703e+01,3.508050918579101562e+01,-1.087819824218750000e+02,9.036631011962890625e+01,-6.516045379638671875e+01,5.363646697998046875e+01,-1.548896217346191406e+01,-1.037324752807617188e+02,-1.146968383789062500e+02,6.423960876464843750e+01,-3.491069030761718750e+01
3.117999993264675140e-03,-1.000000000000000000e+00,5.492848396301269531e+00,1.202486038208007812e+01,3.508046722412109375e+01,-1.087819824218750000e+02,9.036620330810546875e+01,-6.516045379638671875e+01,5.363646697998046875e+01,-1.548905372619628906e+01,-1.037324752807617188e+02,-1.146968383789062500e+02,6.423976135253906250e+01,-3.491069030761718750e+01
4.445999860763549805e-03,-1.000000000000000000e+00,5.492848396301269531e+00,1.202486038208007812e+01,3.508046722412109375e+01,-1.087819824218750000e+02,9.036620330810546875e+01,-6.516045379638671875e+01,5.363646697998046875e+01,-1.548905372619628906e+01,-1.037324752807617188e+02,-1.146968383789062500e+02,6.423976135253906250e+01,-3.491069030761718750e+01
8.089999668300151825e-03,-1.000000000000000000e+00,5.492848396301269531e+00,1.202486038208007812e+01,3.508050918579101562e+01,-1.087820434570312500e+02,9.036620330810546875e+01,-6.516045379638671875e+01,5.363646697998046875e+01,-1.548905372619628906e+01,-1.037324752807617188e+02,-1.146968383789062500e+02,6.423976135253906250e+01,-3.491069030761718750e+01
1.080300007015466690e-02,-1.000000000000000000e+00,5.492762088775634766e+00,1.202486038208007812e+01,3.508050918579101562e+01,-1.087818298339843750e+02,9.036631011962890625e+01,-6.516045379638671875e+01,5.363630294799804688e+01,-1.548905372619628906e+01,-1.037324752807617188e+02,-1.146968383789062500e+02,6.423976135253906250e+01,-3.491069030761718750e+01
1.592200063169002533e-02,-1.000000000000000000e+00,5.492762088775634766e+00,1.202486038208007812e+01,3.508050918579101562e+01,-1.087818298339843750e+02,9.036631011962890625e+01,-6.516045379638671875e+01,5.363630294799804688e+01,-1.548905372619628906e+01,-1.037324752807617188e+02,-1.146968383789062500e+02,6.423976135253906250e+01,-3.491069030761718750e+01
2.087599970400333405e-02,-1.000000000000000000e+00,5.492762088775634766e+00,1.202486038208007812e+01,3.508050918579101562e+01,-1.087819824218750000e+02,9.036620330810546875e+01,-6.516045379638671875e+01,5.363646697998046875e+01,-1.548905372619628906e+01,-1.037324752807617188e+02,-1.146968383789062500e+02,6.423976135253906250e+01,-3.491069030761718750e+01
2.418199926614761353e-02,-1.000000000000000000e+00,5.492848396301269531e+00,1.202481555938720703e+01,3.508050918579101562e+01,-1.087819824218750000e+02,9.036620330810546875e+01,-6.516045379638671875e+01,5.363646697998046875e+01,-1.548905372619628906e+01,-1.037324752807617188e+02,-1.146968383789062500e+02,6.423976135253906250e+01,-3.491069030761718750e+01
2.680600062012672424e-02,-1.000000000000000000e+00,5.492848396301269531e+00,1.202486038208007812e+01,3.508050918579101562e+01,-1.087819824218750000e+02,9.036620330810546875e+01,-6.516045379638671875e+01,5.363646697998046875e+01,-1.548905372619628906e+01,-1.037324752807617188e+02,-1.146968383789062500e+02,6.423976135253906250e+01,-3.491080474853515625e+01
3.982900083065032959e-02,2.000000000000000000e+00,5.492848396301269531e+00,1.202486038208007812e+01,3.508050918579101562e+01,-1.087819824218750000e+02,9.036620330810546875e+01,-6.516045379638671875e+01,5.363646697998046875e+01,-1.548905372619628906e+01,-1.037323684692382812e+02,-1.146968383789062500e+02,6.423976135253906250e+01,-3.491069030761718750e+01
4.439600184559822083e-02,2.000000000000000000e+00,5.492848396301269531e+00,1.202486038208007812e+01,3.508050918579101562e+01,-1.087818832397460938e+02,9.036620330810546875e+01,-6.516045379638671875e+01,5.363630294799804688e+01,-1.548896217346191406e+01,-1.037323684692382812e+02,-1.146968383789062500e+02,6.423976135253906250e+01,-3.491080474853515625e+01
5.198799818754196167e-02,2.000000000000000000e+00,5.492762088775634766e+00,1.202481555938720703e+01,3.508050918579101562e+01,-1.087819824218750000e+02,9.036620330810546875e+01,-6.516045379638671875e+01,5.363646697998046875e+01,-1.548905372619628906e+01,-1.037323684692382812e+02,-1.146968383789062500e+02,6.423976135253906250e+01,-3.491080474853515625e+01
5.732899904251098633e-02,2.000000000000000000e+00,5.492848396301269531e+00,1.202481555938720703e+01,3.508050918579101562e+01,-1.087819824218750000e+02,9.036631011962890625e+01,-6.516024780273437500e+01,5.363646697998046875e+01,-1.548896217346191406e+01,-1.037323684692382812e+02,-1.146968383789062500e+02,6.423960876464843750e+01,-3.491069030761718750e+01
9.687399864196777344e-02,2.000000000000000000e+00,5.492848396301269531e+00,1.202481555938720703e+01,3.508050918579101562e+01,-1.087818832397460938e+02,9.036631011962890625e+01,-6.516045379638671875e+01,5.363630294799804688e+01,-1.548905372619628906e+01,-1.037324752807617188e+02,-1.146968383789062500e+02,6.423976135253906250e+01,-3.491069030761718750e+01
9.947799891233444214e-02,2.000000000000000000e+00,5.492848396301269531e+00,1.202486038208007812e+01,3.508050918579101562e+01,-1.087819824218750000e+02,9.036631011962890625e+01,-6.516045379638671875e+01,5.363646697998046875e+01,-1.548896217346191406e+01,-1.037323684692382812e+02,-1.146968383789062500e+02,6.423976135253906250e+01,-3.491069030761718750e+01
1.041669994592666626e-01,2.000000000000000000e+00,5.492905616760253906e+00,1.202486038208007812e+01,3.508050918579101562e+01,-1.087818832397460938e+02,9.036631011962890625e+01,-6.516045379638671875e+01,5.363646697998046875e+01,-1.548905372619628906e+01,-1.037324752807617188e+02,-1.146968383789062500e+02,6.423976135253906250e+01,-3.491069030761718750e+01
1.055380031466484070e-01,2.000000000000000000e+00,5.492905616760253906e+00,1.202486038208007812e+01,3.508050918579101562e+01,-1.087818832397460938e+02,9.036631011962890625e+01,-6.516045379638671875e+01,5.363646697998046875e+01,-1.548905372619628906e+01,-1.037324752807617188e+02,-1.146968383789062500e+02,6.423976135253906250e+01,-3.491069030761718750e+01
1.081900000572204590e-01,2.000000000000000000e+00,5.492848396301269531e+00,1.202481555938720703e+01,3.508054733276367188e+01,-1.087819824218750000e+02,9.036631011962890625e+01,-6.516045379638671875e+01,5.363646697998046875e+01,-1.548896217346191406e+01,-1.037324752807617188e+02,-1.146968383789062500e+02,6.423960876464843750e+01,-3.491069030761718750e+01
1.097190007567405701e-01,2.000000000000000000e+00,5.492848396301269531e+00,1.202481555938720703e+01,3.508054733276367188e+01,-1.087819824218750000e+02,9.036631011962890625e+01,-6.516045379638671875e+01,5.363646697998046875e+01,-1.548896217346191406e+01,-1.037324752807617188e+02,-1.146968383789062500e+02,6.423960876464843750e+01,-3.491069030761718750e+01
1.123230010271072388e-01,2.000000000000000000e+00,5.493135452270507812e+00,1.202449893951416016e+01,3.508046722412109375e+01,-1.087819824218750000e+02,9.036631011962890625e+01,-6.516024780273437500e+01,5.363646697998046875e+01,-1.548896217346191406e+01,-1.037324752807617188e+02,-1.146968383789062500e+02,6.423976135253906250e+01,-3.491069030761718750e+01
1.195719987154006958e-01,2.000000000000000000e+00,5.493824481964111328e+00,1.202391052246093750e+01,3.508050918579101562e+01,-1.087819824218750000e+02,9.036620330810546875e+01,-6.516059112548828125e+01,5.363591766357421875e+01,-1.548905372619628906e+01,-1.037319335937500000e+02,-1.146969757080078125e+02,6.423960876464843750e+01,-3.491080474853515625e+01
1.234219968318939209e-01,2.000000000000000000e+00,5.495145320892333984e+00,1.202268791198730469e+01,3.508050918579101562e+01,-1.087818832397460938e+02,9.036631011962890625e+01,-6.516045379638671875e+01,5.363515090942382812e+01,-1.548937320709228516e+01,-1.037297592163085938e+02,-1.146973495483398438e+02,6.423946380615234375e+01,-3.491091537475585938e+01
1.249039992690086365e-01,2.000000000000000000e+00,5.497097015380859375e+00,1.202076435089111328e+01,3.508054733276367188e+01,-1.087820434570312500e+02,9.036641693115234375e+01,-6.516045379638671875e+01,5.363515090942382812e+01,-1.548937320709228516e+01,-1.037297592163085938e+02,-1.146973495483398438e+02,6.423946380615234375e+01,-3.491091537475585938e+01
1.284729987382888794e-01,2.000000000000000000e+00,5.497097015380859375e+00,1.202076435089111328e+01,3.508054733276367188e+01,-1.087820434570312500e+02,9.036641693115234375e+01,-6.516045379638671875e+01,5.363306427001953125e+01,-1.549010562896728516e+01,-1.037271499633789062e+02,-1.146980590820312500e+02,6.423888397216796875e+01,-3.491124343872070312e+01
1.322129964828491211e-01,2.000000000000000000e+00,5.503326416015625000e+00,1.201368141174316406e+01,3.508054733276367188e+01,-1.087827224731445312e+02,9.036631011962890625e+01,-6.516059112548828125e+01,5.362955093383789062e+01,-1.549093055725097656e+01,-1.037258453369140625e+02,-1.146988525390625000e+02,6.423713684082031250e+01,-3.491278076171875000e+01
1.335040032863616943e-01,2.000000000000000000e+00,5.503326416015625000e+00,1.201368141174316406e+01,3.508054733276367188e+01,-1.087827224731445312e+02,9.036631011962890625e+01,-6.516059112548828125e+01,5.362955093383789062e+01,-1.549093055725097656e+01,-1.037258453369140625e+02,-1.146988525390625000e+02,6.423713684082031250e+01,-3.491278076171875000e+01
1.361600011587142944e-01,2.000000000000000000e+00,5.507345676422119141e+00,1.200825023651123047e+01,3.508046722412109375e+01,-1.087843551635742188e+02,9.036641693115234375e+01,-6.516092681884765625e+01,5.362487792968750000e+01,-1.549134254455566406e+01,-1.037245941162109375e+02,-1.146997070312500000e+02,6.423407745361328125e+01,-3.491486740112304688e+01
1.374910026788711548e-01,2.000000000000000000e+00,5.507345676422119141e+00,1.200825023651123047e+01,3.508046722412109375e+01,-1.087843551635742188e+02,9.036641693115234375e+01,-6.516092681884765625e+01,5.362487792968750000e+01,-1.549134254455566406e+01,-1.037245941162109375e+02,-1.146997070312500000e+02,6.423407745361328125e+01,-3.491486740112304688e+01
1.413740068674087524e-01,2.000000000000000000e+00,5.512254238128662109e+00,1.200123500823974609e+01,3.508042526245117188e+01,-1.087874603271484375e+02,9.036668395996093750e+01,-6.516147613525390625e+01,5.361817932128906250e+01,-1.549134254455566406e+01,-1.037235565185546875e+02,-1.147015838623046875e+02,6.423013305664062500e+01,-3.491629791259765625e+01
1.440089941024780273e-01,2.000000000000000000e+00,5.518081665039062500e+00,1.199259090423583984e+01,3.508026123046875000e+01,-1.087920989990234375e+02,9.036679077148437500e+01,-6.516296386718750000e+01,5.360971832275390625e+01,-1.549051761627197266e+01,-1.037225799560546875e+02,-1.147039413452148438e+02,6.422641754150390625e+01,-3.491783142089843750e+01
1.478510051965713501e-01,2.000000000000000000e+00,5.525143623352050781e+00,1.198170471191406250e+01,3.507997894287109375e+01,-1.087983169555664062e+02,9.036689758300781250e+01,-6.516580963134765625e+01,5.359867858886718750e+01,-1.548919105529785156e+01,-1.037229080200195312e+02,-1.147083282470703125e+02,6.422445678710937500e+01,-3.491981506347656250e+01
1.492500007152557373e-01,2.000000000000000000e+00,5.525143623352050781e+00,1.198170471191406250e+01,3.507997894287109375e+01,-1.087983169555664062e+02,9.036689758300781250e+01,-6.516580963134765625e+01,5.359867858886718750e+01,-1.548919105529785156e+01,-1.037229080200195312e+02,-1.147083282470703125e+02,6.422445678710937500e+01,-3.491981506347656250e+01
1.540330052375793457e-01,2.000000000000000000e+00,5.533726692199707031e+00,1.196835327148437500e+01,3.507934570312500000e+01,-1.088064346313476562e+02,9.036711120605468750e+01,-6.516974639892578125e+01,5.358483123779296875e+01,-1.548827552795410156e+01,-1.037291564941406250e+02,-1.147147216796875000e+02,6.422322082519531250e+01,-3.492211914062500000e+01
1.567479968070983887e-01,2.000000000000000000e+00,5.543601989746093750e+00,1.195301055908203125e+01,3.507849121093750000e+01,-1.088171768188476562e+02,9.036743164062500000e+01,-6.517462921142578125e+01,5.356785964965820312e+01,-1.548745059967041016e+01,-1.037330245971679688e+02,-1.147229766845703125e+02,6.422198486328125000e+01,-3.492519760131835938e+01
1.580879986286163330e-01,2.000000000000000000e+00,5.543601989746093750e+00,1.195301055908203125e+01,3.507849121093750000e+01,-1.088171768188476562e+02,9.036743164062500000e+01,-6.517462921142578125e+01,5.356785964965820312e+01,-1.548745059967041016e+01,-1.037330245971679688e+02,-1.147229766845703125e+02,6.422198486328125000e+01,-3.492519760131835938e+01
1.606269925832748413e-01,2.000000000000000000e+00,5.554481983184814453e+00,1.193587970733642578e+01,3.507735443115234375e+01,-1.088307647705078125e+02,9.036764526367187500e+01,-6.518045806884765625e+01,5.354660034179687500e+01,-1.548598575592041016e+01,-1.037350845336914062e+02,-1.147338867187500000e+02,6.422095489501953125e+01,-3.493025207519531250e+01
1.619819998741149902e-01,2.000000000000000000e+00,5.554481983184814453e+00,1.193587970733642578e+01,3.507735443115234375e+01,-1.088307647705078125e+02,9.036764526367187500e+01,-6.518045806884765625e+01,5.354660034179687500e+01,-1.548598575592041016e+01,-1.037350845336914062e+02,-1.147338867187500000e+02,6.422095489501953125e+01,-3.493025207519531250e+01
1.651059985160827637e-01,2.000000000000000000e+00,5.566251754760742188e+00,1.191687011718750000e+01,3.507582855224609375e+01,-1.088476715087890625e+02,9.036833190917968750e+01,-6.518798828125000000e+01,5.352089309692382812e+01,-1.548420143127441406e+01,-1.037385635375976562e+02,-1.147489013671875000e+02,6.421971893310546875e+01,-3.493739318847656250e+01
1.679729968309402466e-01,2.000000000000000000e+00,5.566251754760742188e+00,1.191687011718750000e+01,3.507582855224609375e+01,-1.088476715087890625e+02,9.036833190917968750e+01,-6.518798828125000000e+01,5.352089309692382812e+01,-1.548420143127441406e+01,-1.037385635375976562e+02,-1.147489013671875000e+02,6.421971893310546875e+01,-3.493739318847656250e+01
1.693039983510971069e-01,2.000000000000000000e+00,5.579169750213623047e+00,1.189605140686035156e+01,3.507377624511718750e+01,-1.088683776855468750e+02,9.036898040771484375e+01,-6.519734954833984375e+01,5.349029541015625000e+01,-1.548214149475097656e+01,-1.037433013916015625e+02,-1.147672882080078125e+02,6.421811676025390625e+01,-3.494651031494140625e+01
1.731670051813125610e-01,2.000000000000000000e+00,5.593034744262695312e+00,1.187387371063232422e+01,3.507109069824218750e+01,-1.088934478759765625e+02,9.036972045898437500e+01,-6.520826721191406250e+01,5.345425796508789062e+01,-1.547916603088378906e+01,-1.037502059936523438e+02,-1.147904663085937500e+02,6.421665954589843750e+01,-3.495804595947265625e+01
1.765619963407516479e-01,2.000000000000000000e+00,5.607847690582275391e+00,1.185015678405761719e+01,3.506779861450195312e+01,-1.089231033325195312e+02,9.037062835693359375e+01,-6.522108459472656250e+01,5.341405105590820312e+01,-1.547486305236816406e+01,-1.037579345703125000e+02,-1.148177642822265625e+02,6.421513366699218750e+01,-3.497265625000000000e+01
1.778970062732696533e-01,2.000000000000000000e+00,5.607847690582275391e+00,1.185015678405761719e+01,3.506779861450195312e+01,-1.089231033325195312e+02,9.037062835693359375e+01,-6.522108459472656250e+01,5.341405105590820312e+01,-1.547486305236816406e+01,-1.037579345703125000e+02,-1.148177642822265625e+02,6.421513366699218750e+01,-3.497265625000000000e+01
1.804129928350448608e-01,2.000000000000000000e+00,5.623665332794189453e+00,1.182445049285888672e+01,3.506399917602539062e+01,-1.089561843872070312e+02,9.037137603759765625e+01,-6.523545837402343750e+01,5.337043762207031250e+01,-1.546987342834472656e+01,-1.037669601440429688e+02,-1.148507919311523438e+02,6.421302032470703125e+01,-3.499012374877929688e+01
1.818020045757293701e-01,2.000000000000000000e+00,5.623665332794189453e+00,1.182445049285888672e+01,3.506399917602539062e+01,-1.089561843872070312e+02,9.037137603759765625e+01,-6.523545837402343750e+01,5.337043762207031250e+01,-1.546987342834472656e+01,-1.037669601440429688e+02,-1.148507919311523438e+02,6.421302032470703125e+01,-3.499012374877929688e+01
1.855159997940063477e-01,2.000000000000000000e+00,5.640602588653564453e+00,1.179690933227539062e+01,3.505976867675781250e+01,-1.089912109375000000e+02,9.037239074707031250e+01,-6.525126647949218750e+01,5.332346725463867188e+01,-1.546387672424316406e+01,-1.037788085937500000e+02,-1.148884124755859375e+02,6.421054077148437500e+01,-3.500924301147460938e+01
1.881400048732757568e-01,2.000000000000000000e+00,5.658486366271972656e+00,1.176708316802978516e+01,3.505517578125000000e+01,-1.090298156738281250e+02,9.037355804443359375e+01,-6.526902770996093750e+01,5.327331924438476562e+01,-1.545705604553222656e+01,-1.037927398681640625e+02,-1.149303512573242188e+02,6.420806121826171875e+01,-3.503088378906250000e+01
1.894170045852661133e-01,2.000000000000000000e+00,5.658486366271972656e+00,1.176708316802978516e+01,3.505517578125000000e+01,-1.090298156738281250e+02,9.037355804443359375e+01,-6.526902770996093750e+01,5.327331924438476562e+01,-1.545705604553222656e+01,-1.037927398681640625e+02,-1.149303512573242188e+02,6.420806121826171875e+01,-3.503088378906250000e+01
1.919700056314468384e-01,2.000000000000000000e+00,5.677433013916015625e+00,1.173535633087158203e+01,3.505025482177734375e+01,-1.090732269287109375e+02,9.037462615966796875e+01,-6.528801727294921875e+01,5.322085571289062500e+01,-1.544931983947753906e+01,-1.038075866699218750e+02,-1.149760894775390625e+02,6.420543670654296875e+01,-3.505527496337890625e+01
2.000309973955154419e-01,2.000000000000000000e+00,5.718110561370849609e+00,1.166626739501953125e+01,3.503931427001953125e+01,-1.091674041748046875e+02,9.037713623046875000e+01,-6.533040618896484375e+01,5.310742187500000000e+01,-1.543242835998535156e+01,-1.038397293090820312e+02,-1.150764083862304688e+02,6.419946289062500000e+01,-3.511196517944335938e+01
2.014759927988052368e-01,2.000000000000000000e+00,5.718110561370849609e+00,1.166626739501953125e+01,3.503931427001953125e+01,-1.091674041748046875e+02,9.037713623046875000e+01,-6.533040618896484375e+01,5.310742187500000000e+01,-1.543242835998535156e+01,-1.038397293090820312e+02,-1.150764083862304688e+02,6.419946289062500000e+01,-3.511196517944335938e+01
2.040870040655136108e-01,2.000000000000000000e+00,5.718110561370849609e+00,1.166626739501953125e+01,3.503931427001953125e+01,-1.091674041748046875e+02,9.037713623046875000e+01,-6.533040618896484375e+01,5.304441833496093750e+01,-1.542350101470947266e+01,-1.038564758300781250e+02,-1.151293258666992188e+02,6.419655609130859375e+01,-3.514151382446289062e+01
2.053759992122650146e-01,2.000000000000000000e+00,5.739439964294433594e+00,1.162942504882812500e+01,3.503331756591796875e+01,-1.092167053222656250e+02,9.037889099121093750e+01,-6.535339355468750000e+01,5.304441833496093750e+01,-1.542350101470947266e+01,-1.038564758300781250e+02,-1.151293258666992188e+02,6.419655609130859375e+01,-3.514151382446289062e+01
2.097530066967010498e-01,2.000000000000000000e+00,5.739439964294433594e+00,1.162942504882812500e+01,3.503331756591796875e+01,-1.092167053222656250e+02,9.037889099121093750e+01,-6.535339355468750000e+01,5.304441833496093750e+01,-1.542350101470947266e+01,-1.038564758300781250e+02,-1.151293258666992188e+02,6.419655609130859375e+01,-3.514151382446289062e+01
2.123440057039260864e-01,2.000000000000000000e+00,5.784710407257080078e+00,1.155094432830810547e+01,3.502065277099609375e+01,-1.093211593627929688e+02,9.038198852539062500e+01,-6.540120697021484375e+01,5.290862655639648438e+01,-1.540523719787597656e+01,-1.038893814086914062e+02,-1.152384719848632812e+02,6.418977355957031250e+01,-3.520347976684570312e+01
2.163600027561187744e-01,2.000000000000000000e+00,5.784710407257080078e+00,1.155094432830810547e+01,3.502065277099609375e+01,-1.093211593627929688e+02,9.038198852539062500e+01,-6.540120697021484375e+01,5.290862655639648438e+01,-1.540523719787597656e+01,-1.038893814086914062e+02,-1.152384719848632812e+02,6.418977355957031250e+01,-3.520347976684570312e+01
2.200880050659179688e-01,2.000000000000000000e+00,5.809197425842285156e+00,1.150896644592285156e+01,3.501428604125976562e+01,-1.093745193481445312e+02,9.038391113281250000e+01,-6.542473602294921875e+01,5.283820343017578125e+01,-1.539608192443847656e+01,-1.039055404663085938e+02,-1.152929687500000000e+02,6.418591308593750000e+01,-3.523402023315429688e+01
2.239679992198944092e-01,2.000000000000000000e+00,5.834861278533935547e+00,1.146531295776367188e+01,3.500786209106445312e+01,-1.094285125732421875e+02,9.038571929931640625e+01,-6.544826507568359375e+01,5.276673507690429688e+01,-1.538697147369384766e+01,-1.039211959838867188e+02,-1.153476867675781250e+02,6.418227386474609375e+01,-3.526379394531250000e+01
2.280060052871704102e-01,2.000000000000000000e+00,5.861587524414062500e+00,1.142039299011230469e+01,3.500139617919921875e+01,-1.094824523925781250e+02,9.038742828369140625e+01,-6.547248077392578125e+01,5.269428253173828125e+01,-1.537745094299316406e+01,-1.039361572265625000e+02,-1.154029769897460938e+02,6.417869567871093750e+01,-3.529499435424804688e+01
2.330060005187988281e-01,2.000000000000000000e+00,5.889117240905761719e+00,1.137425041198730469e+01,3.499493026733398438e+01,-1.095371704101562500e+02,9.038945007324218750e+01,-6.549709320068359375e+01,5.262072753906250000e+01,-1.536788272857666016e+01,-1.039512786865234375e+02,-1.154586257934570312e+02,6.417454528808593750e+01,-3.532652664184570312e+01
2.347989976406097412e-01,2.000000000000000000e+00,5.917364597320556641e+00,1.132729339599609375e+01,3.498858642578125000e+01,-1.095913238525390625e+02,9.039153289794921875e+01,-6.552205657958984375e+01,5.254668045043945312e+01,-1.535849857330322266e+01,-1.039667739868164062e+02,-1.155141448974609375e+02,6.417047119140625000e+01,-3.535728836059570312e+01
2.402099967002868652e-01,2.000000000000000000e+00,5.946243762969970703e+00,1.128013229370117188e+01,3.498222351074218750e+01,-1.096457366943359375e+02,9.039355468750000000e+01,-6.554694366455078125e+01,5.247340393066406250e+01,-1.534911537170410156e+01,-1.039817886352539062e+02,-1.155692901611328125e+02,6.416667938232421875e+01,-3.538673400878906250e+01
2.428140044212341309e-01,2.000000000000000000e+00,5.975266456604003906e+00,1.123270034790039062e+01,3.497565841674804688e+01,-1.097003631591796875e+02,9.039542388916015625e+01,-6.557203674316406250e+01,5.240105819702148438e+01,-1.533982276916503906e+01,-1.039969635009765625e+02,-1.156243515014648438e+02,6.416274261474609375e+01,-3.541870117187500000e+01
2.480459958314895630e-01,2.000000000000000000e+00,6.004432678222656250e+00,1.118531322479248047e+01,3.496904754638671875e+01,-1.097545623779296875e+02,9.039771270751953125e+01,-6.559631347656250000e+01,5.232854461669921875e+01,-1.533057498931884766e+01,-1.040118103027343750e+02,-1.156797866821289062e+02,6.415887451171875000e+01,-3.545154953002929688e+01
2.508490085601806641e-01,2.000000000000000000e+00,6.033369064331054688e+00,1.113810729980468750e+01,3.496233749389648438e+01,-1.098095016479492188e+02,9.039958190917968750e+01,-6.562038421630859375e+01,5.225505065917968750e+01,-1.532119178771972656e+01,-1.040272598266601562e+02,-1.157347946166992188e+02,6.415494537353515625e+01,-3.548231124877929688e+01
2.547940015792846680e-01,2.000000000000000000e+00,6.062362670898437500e+00,1.109067535400390625e+01,3.495566940307617188e+01,-1.098642272949218750e+02,9.040155029296875000e+01,-6.564405059814453125e+01,5.218116760253906250e+01,-1.531189918518066406e+01,-1.040430297851562500e+02,-1.157890853881835938e+02,6.415108489990234375e+01,-3.551307296752929688e+01
2.588030099868774414e-01,2.000000000000000000e+00,6.091356754302978516e+00,1.104344654083251953e+01,3.494892120361328125e+01,-1.099182662963867188e+02,9.040352630615234375e+01,-6.566847229003906250e+01,5.210788726806640625e+01,-1.530269718170166016e+01,-1.040585784912109375e+02,-1.158442306518554688e+02,6.414736938476562500e+01,-3.554449462890625000e+01
2.628729939460754395e-01,2.000000000000000000e+00,6.120379447937011719e+00,1.099626350402832031e+01,3.494221115112304688e+01,-1.099729995727539062e+02,9.040555572509765625e+01,-6.569322204589843750e+01,5.203548431396484375e+01,-1.529335880279541016e+01,-1.040740890502929688e+02,-1.158995971679687500e+02,6.414350891113281250e+01,-3.557580566406250000e+01
2.684490084648132324e-01,2.000000000000000000e+00,6.149517059326171875e+00,1.094889831542968750e+01,3.493556213378906250e+01,-1.100273590087890625e+02,9.040773773193359375e+01,-6.571804809570312500e+01,5.196292114257812500e+01,-1.528424930572509766e+01,-1.040890426635742188e+02,-1.159551696777343750e+02,6.413935852050781250e+01,-3.560612869262695312e+01
2.732320129871368408e-01,2.000000000000000000e+00,6.178453445434570312e+00,1.090160179138183594e+01,3.492913818359375000e+01,-1.100818786621093750e+02,9.040975952148437500e+01,-6.574307250976562500e+01,5.188942337036132812e+01,-1.527495670318603516e+01,-1.041039962768554688e+02,-1.160100936889648438e+02,6.413571166992187500e+01,-3.563677978515625000e+01
2.748230099678039551e-01,2.000000000000000000e+00,6.207303524017333984e+00,1.085462188720703125e+01,3.492267227172851562e+01,-1.101362915039062500e+02,9.041178894042968750e+01,-6.576775360107421875e+01,5.181554031372070312e+01,-1.526520633697509766e+01,-1.041193389892578125e+02,-1.160652389526367188e+02,6.413169860839843750e+01,-3.566852951049804688e+01
2.788619995117187500e-01,2.000000000000000000e+00,6.235952854156494141e+00,1.080752944946289062e+01,3.491614532470703125e+01,-1.101900711059570312e+02,9.041381835937500000e+01,-6.579203796386718750e+01,5.174248123168945312e+01,-1.525573158264160156e+01,-1.041346130371093750e+02,-1.161205368041992188e+02,6.412776947021484375e+01,-3.570137786865234375e+01
2.827889919281005859e-01,2.000000000000000000e+00,6.264803409576416016e+00,1.076064014434814453e+01,3.490949630737304688e+01,-1.102449569702148438e+02,9.041573333740234375e+01,-6.581591033935546875e+01,5.167074203491210938e+01,-1.524652957916259766e+01,-1.041500091552734375e+02,-1.161753997802734375e+02,6.412383270263671875e+01,-3.573214340209960938e+01
2.867850065231323242e-01,2.000000000000000000e+00,6.293653488159179688e+00,1.071377372741699219e+01,3.490296936035156250e+01,-1.102993698120117188e+02,9.041781616210937500e+01,-6.583984375000000000e+01,5.159833908081054688e+01,-1.523737525939941406e+01,-1.041650238037109375e+02,-1.162294006347656250e+02,6.412004852294921875e+01,-3.576279067993164062e+01
2.908889949321746826e-01,2.000000000000000000e+00,6.322475433349609375e+00,1.066674804687500000e+01,3.489634323120117188e+01,-1.103530960083007812e+02,9.041989898681640625e+01,-6.586405181884765625e+01,5.152511596679687500e+01,-1.522803688049316406e+01,-1.041801910400390625e+02,-1.162846145629882812e+02,6.411596679687500000e+01,-3.579443359375000000e+01
2.947889864444732666e-01,2.000000000000000000e+00,6.351210594177246094e+00,1.062006282806396484e+01,3.488971328735351562e+01,-1.104077224731445312e+02,9.042197418212890625e+01,-6.588894653320312500e+01,5.145112609863281250e+01,-1.521874427795410156e+01,-1.041958084106445312e+02,-1.163406219482421875e+02,6.411188507080078125e+01,-3.582464599609375000e+01
2.988039851188659668e-01,2.000000000000000000e+00,6.380032539367675781e+00,1.057324123382568359e+01,3.488316726684570312e+01,-1.104618682861328125e+02,9.042383575439453125e+01,-6.591383361816406250e+01,5.137861251831054688e+01,-1.520940589904785156e+01,-1.042113571166992188e+02,-1.163956298828125000e+02,6.410765838623046875e+01,-3.585562896728515625e+01
3.029170036315917969e-01,2.000000000000000000e+00,6.408681869506835938e+00,1.052648830413818359e+01,3.487680435180664062e+01,-1.105163803100585938e+02,9.042591857910156250e+01,-6.593919372558593750e+01,5.130681610107421875e+01,-1.519993019104003906e+01,-1.042266464233398438e+02,-1.164507751464843750e+02,6.410364532470703125e+01,-3.588638687133789062e+01
3.068290054798126221e-01,2.000000000000000000e+00,6.437675952911376953e+00,1.047991657257080078e+01,3.487054061889648438e+01,-1.105712203979492188e+02,9.042799377441406250e+01,-6.596381378173828125e+01,5.123474884033203125e+01,-1.519068241119384766e+01,-1.042416534423828125e+02,-1.165064163208007812e+02,6.409942626953125000e+01,-3.591693115234375000e+01
3.108739852905273438e-01,2.000000000000000000e+00,6.466583728790283203e+00,1.043327522277832031e+01,3.486411666870117188e+01,-1.106252059936523438e+02,9.043013000488281250e+01,-6.598781585693359375e+01,5.116141128540039062e+01,-1.518138980865478516e+01,-1.042569885253906250e+02,-1.165612106323242188e+02,6.409512329101562500e+01,-3.594769287109375000e+01
3.148159980773925781e-01,2.000000000000000000e+00,6.495433807373046875e+00,1.038661289215087891e+01,3.485746765136718750e+01,-1.106798858642578125e+02,9.043215942382812500e+01,-6.601175689697265625e+01,5.108775329589843750e+01,-1.517205142974853516e+01,-1.042723236083984375e+02,-1.166163558959960938e+02,6.409068298339843750e+01,-3.597801589965820312e+01
3.187850117683410645e-01,2.000000000000000000e+00,6.524284362792968750e+00,1.034001731872558594e+01,3.485083770751953125e+01,-1.107345581054687500e+02,9.043407440185546875e+01,-6.603590393066406250e+01,5.101546096801757812e+01,-1.516248607635498047e+01,-1.042879409790039062e+02,-1.166715698242187500e+02,6.408653259277343750e+01,-3.600921630859375000e+01
3.248670101165771484e-01,2.000000000000000000e+00,6.552990913391113281e+00,1.029339981079101562e+01,3.484427261352539062e+01,-1.107884521484375000e+02,9.043620300292968750e+01,-6.606051635742187500e+01,5.094327926635742188e+01,-1.515328407287597656e+01,-1.043035430908203125e+02,-1.167260055541992188e+02,6.408274078369140625e+01,-3.604096603393554688e+01
3.299160003662109375e-01,2.000000000000000000e+00,6.581956386566162109e+00,1.024682712554931641e+01,3.483764266967773438e+01,-1.108432312011718750e+02,9.043829345703125000e+01,-6.608547210693359375e+01,5.087088012695312500e+01,-1.514422035217285156e+01,-1.043188323974609375e+02,-1.167811584472656250e+02,6.407865905761718750e+01,-3.607151031494140625e+01
3.328709900379180908e-01,2.000000000000000000e+00,6.610864162445068359e+00,1.020018768310546875e+01,3.483085250854492188e+01,-1.108974761962890625e+02,9.044031524658203125e+01,-6.611043548583984375e+01,5.079771041870117188e+01,-1.513538551330566406e+01,-1.043342208862304688e+02,-1.168365859985351562e+02,6.407428741455078125e+01,-3.610171890258789062e+01
3.370060026645660400e-01,2.000000000000000000e+00,6.639714717864990234e+00,1.015332126617431641e+01,3.482438659667968750e+01,-1.109516830444335938e+02,9.044245147705078125e+01,-6.613518524169921875e+01,5.072470855712890625e+01,-1.512609291076660156e+01,-1.043494491577148438e+02,-1.168912963867187500e+02,6.407020568847656250e+01,-3.613336181640625000e+01
3.387910127639770508e-01,2.000000000000000000e+00,6.668220043182373047e+00,1.010643196105957031e+01,3.481785964965820312e+01,-1.110063629150390625e+02,9.044490051269531250e+01,-6.615967559814453125e+01,5.065192413330078125e+01,-1.511680030822753906e+01,-1.043648376464843750e+02,-1.169469528198242188e+02,6.406634521484375000e+01,-3.616522216796875000e+01
3.428339958190917969e-01,2.000000000000000000e+00,6.696812152862548828e+00,1.005949783325195312e+01,3.481135559082031250e+01,-1.110598754882812500e+02,9.044697570800781250e+01,-6.618334197998046875e+01,5.057974243164062500e+01,-1.510759830474853516e+01,-1.043806686401367188e+02,-1.170021667480468750e+02,6.406233978271484375e+01,-3.619532394409179688e+01
3.491829931735992432e-01,2.000000000000000000e+00,6.725432872772216797e+00,1.001249504089355469e+01,3.480474472045898438e+01,-1.111142349243164062e+02,9.044911193847656250e+01,-6.620781707763671875e+01,5.050745391845703125e+01,-1.509848976135253906e+01,-1.043962783813476562e+02,-1.170568923950195312e+02,6.405847167968750000e+01,-3.622542953491210938e+01
3.508050143718719482e-01,2.000000000000000000e+00,6.754226207733154297e+00,9.965515136718750000e+00,3.479808044433593750e+01,-1.111687011718750000e+02,9.045124816894531250e+01,-6.623182678222656250e+01,5.043433761596679688e+01,-1.508938026428222656e+01,-1.044116134643554688e+02,-1.171121749877929688e+02,6.405403137207031250e+01,-3.625640869140625000e+01
3.570150136947631836e-01,2.000000000000000000e+00,6.783219814300537109e+00,9.918535232543945312e+00,3.479143142700195312e+01,-1.112233734130859375e+02,9.045353698730468750e+01,-6.625624084472656250e+01,5.036117172241210938e+01,-1.507990360260009766e+01,-1.044266281127929688e+02,-1.171671142578125000e+02,6.404965972900390625e+01,-3.628859710693359375e+01
3.588359951972961426e-01,2.000000000000000000e+00,6.812127590179443359e+00,9.871578216552734375e+00,3.478482055664062500e+01,-1.112774200439453125e+02,9.045566558837890625e+01,-6.628119659423828125e+01,5.028844070434570312e+01,-1.507033634185791016e+01,-1.044418563842773438e+02,-1.172217559814453125e+02,6.404557800292968750e+01,-3.631935882568359375e+01
3.628120124340057373e-01,2.000000000000000000e+00,6.840891838073730469e+00,9.824462890625000000e+00,3.477811050415039062e+01,-1.113309936523437500e+02,9.045790863037109375e+01,-6.630642700195312500e+01,5.021626281738281250e+01,-1.506058597564697266e+01,-1.044572448730468750e+02,-1.172770385742187500e+02,6.404179382324218750e+01,-3.634891510009765625e+01
3.668720126152038574e-01,2.000000000000000000e+00,6.869713306427001953e+00,9.777278900146484375e+00,3.477162551879882812e+01,-1.113855590820312500e+02,9.046019744873046875e+01,-6.633124542236328125e+01,5.014391708374023438e+01,-1.505101871490478516e+01,-1.044723663330078125e+02,-1.173322677612304688e+02,6.403778839111328125e+01,-3.637901687622070312e+01
3.743819892406463623e-01,2.000000000000000000e+00,6.898678779602050781e+00,9.729937553405761719e+00,3.476514053344726562e+01,-1.114405517578125000e+02,9.046233367919921875e+01,-6.635511779785156250e+01,5.007074737548828125e+01,-1.504168224334716797e+01,-1.044874267578125000e+02,-1.173875503540039062e+02,6.403311920166015625e+01,-3.641087722778320312e+01
3.758000135421752930e-01,2.000000000000000000e+00,6.927815914154052734e+00,9.682845115661621094e+00,3.475869750976562500e+01,-1.114946975708007812e+02,9.046483612060546875e+01,-6.637844085693359375e+01,4.999719238281250000e+01,-1.503243350982666016e+01,-1.045023880004882812e+02,-1.174424133300781250e+02,6.402852630615234375e+01,-3.644131088256835938e+01
3.795570135116577148e-01,2.000000000000000000e+00,6.956953525543212891e+00,9.635887145996093750e+00,3.475210952758789062e+01,-1.115493698120117188e+02,9.046691894531250000e+01,-6.640279388427734375e+01,4.992462921142578125e+01,-1.502282238006591797e+01,-1.045176162719726562e+02,-1.174966964721679688e+02,6.402445220947265625e+01,-3.647053146362304688e+01
3.838520050048828125e-01,2.000000000000000000e+00,6.985861301422119141e+00,9.588953018188476562e+00,3.474541854858398438e+01,-1.116032638549804688e+02,9.046905517578125000e+01,-6.642713165283203125e+01,4.985310745239257812e+01,-1.501325416564941406e+01,-1.045328979492187500e+02,-1.175519180297851562e+02,6.402051544189453125e+01,-3.650096511840820312e+01
3.868579864501953125e-01,2.000000000000000000e+00,7.014768600463867188e+00,9.542063713073730469e+00,3.473876953125000000e+01,-1.116573562622070312e+02,9.047139739990234375e+01,-6.645182800292968750e+01,4.978070831298828125e+01,-1.500400638580322266e+01,-1.045481872558593750e+02,-1.176072769165039062e+02,6.401599884033203125e+01,-3.653227615356445312e+01
3.933179974555969238e-01,2.000000000000000000e+00,7.014768600463867188e+00,9.542063713073730469e+00,3.473876953125000000e+01,-1.116573562622070312e+02,9.047139739990234375e+01,-6.645182800292968750e+01,4.978070831298828125e+01,-1.500400638580322266e+01,-1.045481872558593750e+02,-1.176072769165039062e+02,6.401599884033203125e+01,-3.653227615356445312e+01
3.947800099849700928e-01,2.000000000000000000e+00,7.072670459747314453e+00,9.448014259338378906e+00,3.472525024414062500e+01,-1.117659149169921875e+02,9.047619628906250000e+01,-6.650139617919921875e+01,4.963371276855468750e+01,-1.498523902893066406e+01,-1.045783691406250000e+02,-1.177154998779296875e+02,6.400761413574218750e+01,-3.659302902221679688e+01
3.998470008373260498e-01,2.000000000000000000e+00,7.072670459747314453e+00,9.448014259338378906e+00,3.472525024414062500e+01,-1.117659149169921875e+02,9.047619628906250000e+01,-6.650139617919921875e+01,4.963371276855468750e+01,-1.498523902893066406e+01,-1.045783691406250000e+02,-1.177154998779296875e+02,6.400761413574218750e+01,-3.659302902221679688e+01
4.035179913043975830e-01,2.000000000000000000e+00,7.130256652832031250e+00,9.354372024536132812e+00,3.471193313598632812e+01,-1.118745880126953125e+02,9.048062133789062500e+01,-6.654940795898437500e+01,4.948912811279296875e+01,-1.496592140197753906e+01,-1.046092071533203125e+02,-1.178259277343750000e+02,6.399865341186523438e+01,-3.665510177612304688e+01
4.078640043735504150e-01,2.000000000000000000e+00,7.158963203430175781e+00,9.307663917541503906e+00,3.470546722412109375e+01,-1.119280014038085938e+02,9.048291015625000000e+01,-6.657287597656250000e+01,4.941662216186523438e+01,-1.495658302307128906e+01,-1.046246566772460938e+02,-1.178808670043945312e+02,6.399428176879882812e+01,-3.668641662597656250e+01
4.108609855175018311e-01,2.000000000000000000e+00,7.187613010406494141e+00,9.260955810546875000e+00,3.469894027709960938e+01,-1.119827194213867188e+02,9.048509979248046875e+01,-6.659688568115234375e+01,4.934350585937500000e+01,-1.494761180877685547e+01,-1.046398773193359375e+02,-1.179360885620117188e+02,6.399006271362304688e+01,-3.671585464477539062e+01
4.158599972724914551e-01,2.000000000000000000e+00,7.187613010406494141e+00,9.260955810546875000e+00,3.469894027709960938e+01,-1.119827194213867188e+02,9.048509979248046875e+01,-6.659688568115234375e+01,4.934350585937500000e+01,-1.494761180877685547e+01,-1.046398773193359375e+02,-1.179360885620117188e+02,6.399006271362304688e+01,-3.671585464477539062e+01
4.187979996204376221e-01,2.000000000000000000e+00,7.245428085327148438e+00,9.167561531066894531e+00,3.468574142456054688e+01,-1.120906524658203125e+02,9.048979187011718750e+01,-6.664618682861328125e+01,4.919788360595703125e+01,-1.492943763732910156e+01,-1.046703872680664062e+02,-1.180458755493164062e+02,6.398204421997070312e+01,-3.677727127075195312e+01
4.241189956665039062e-01,2.000000000000000000e+00,7.245428085327148438e+00,9.167561531066894531e+00,3.468574142456054688e+01,-1.120906524658203125e+02,9.048979187011718750e+01,-6.664618682861328125e+01,4.919788360595703125e+01,-1.492943763732910156e+01,-1.046703872680664062e+02,-1.180458755493164062e+02,6.398204421997070312e+01,-3.677727127075195312e+01
4.279409945011138916e-01,2.000000000000000000e+00,7.303244113922119141e+00,9.074009895324707031e+00,3.467248916625976562e+01,-1.121987915039062500e+02,9.049437713623046875e+01,-6.669535827636718750e+01,4.905379867553710938e+01,-1.491080665588378906e+01,-1.047012252807617188e+02,-1.181541595458984375e+02,6.397381210327148438e+01,-3.683956527709960938e+01
4.308049976825714111e-01,2.000000000000000000e+00,7.332093715667724609e+00,9.027368545532226562e+00,3.466584014892578125e+01,-1.122531051635742188e+02,9.049651336669921875e+01,-6.671923065185546875e+01,4.898051834106445312e+01,-1.490165138244628906e+01,-1.047164077758789062e+02,-1.182092361450195312e+02,6.396973037719726562e+01,-3.687098312377929688e+01
4.358609914779663086e-01,2.000000000000000000e+00,7.360801219940185547e+00,8.980707168579101562e+00,3.465933609008789062e+01,-1.123074645996093750e+02,9.049880218505859375e+01,-6.674289703369140625e+01,4.890718460083007812e+01,-1.489245033264160156e+01,-1.047316360473632812e+02,-1.182644500732421875e+02,6.396543121337890625e+01,-3.690240478515625000e+01
4.388610124588012695e-01,2.000000000000000000e+00,7.389880657196044922e+00,8.934043884277343750e+00,3.465296936035156250e+01,-1.123612365722656250e+02,9.050103759765625000e+01,-6.676676940917968750e+01,4.883467483520507812e+01,-1.488329505920410156e+01,-1.047472457885742188e+02,-1.183193130493164062e+02,6.396112823486328125e+01,-3.693349838256835938e+01
4.438529908657073975e-01,2.000000000000000000e+00,7.389880657196044922e+00,8.934043884277343750e+00,3.465296936035156250e+01,-1.123612365722656250e+02,9.050103759765625000e+01,-6.676676940917968750e+01,4.883467483520507812e+01,-1.488329505920410156e+01,-1.047472457885742188e+02,-1.183193130493164062e+02,6.396112823486328125e+01,-3.693349838256835938e+01
4.467830061912536621e-01,2.000000000000000000e+00,7.447351455688476562e+00,8.840559005737304688e+00,3.463999938964843750e+01,-1.124703292846679688e+02,9.050536346435546875e+01,-6.681525421142578125e+01,4.869075393676757812e+01,-1.486452674865722656e+01,-1.047780227661132812e+02,-1.184293212890625000e+02,6.395268249511718750e+01,-3.699359130859375000e+01
4.523940086364746094e-01,2.000000000000000000e+00,7.476317405700683594e+00,8.793918609619140625e+00,3.463338851928710938e+01,-1.125237960815429688e+02,9.050754547119140625e+01,-6.684007263183593750e+01,4.861747360229492188e+01,-1.485532569885253906e+01,-1.047935256958007812e+02,-1.184841842651367188e+02,6.394860458374023438e+01,-3.702424240112304688e+01
4.557900130748748779e-01,2.000000000000000000e+00,7.504937648773193359e+00,8.747210502624511719e+00,3.462673950195312500e+01,-1.125781021118164062e+02,9.050973510742187500e+01,-6.686503601074218750e+01,4.854419708251953125e+01,-1.484630775451660156e+01,-1.048087539672851562e+02,-1.185390396118164062e+02,6.394401168823242188e+01,-3.705423736572265625e+01
4.587830007076263428e-01,2.000000000000000000e+00,7.533788204193115234e+00,8.700345039367675781e+00,3.462005233764648438e+01,-1.126323547363281250e+02,9.051218414306640625e+01,-6.688937377929687500e+01,4.847179794311523438e+01,-1.483724403381347656e+01,-1.048238754272460938e+02,-1.185932464599609375e+02,6.393978500366210938e+01,-3.708367919921875000e+01
4.638360142707824707e-01,2.000000000000000000e+00,7.533788204193115234e+00,8.700345039367675781e+00,3.462005233764648438e+01,-1.126323547363281250e+02,9.051218414306640625e+01,-6.688937377929687500e+01,4.847179794311523438e+01,-1.483724403381347656e+01,-1.048238754272460938e+02,-1.185932464599609375e+02,6.393978500366210938e+01,-3.708367919921875000e+01
4.669399857521057129e-01,2.000000000000000000e+00,7.591316699981689453e+00,8.606588363647460938e+00,3.460661315917968750e+01,-1.127404937744140625e+02,9.051612854003906250e+01,-6.693637084960937500e+01,4.832793045043945312e+01,-1.481856727600097656e+01,-1.048542785644531250e+02,-1.187027587890625000e+02,6.393132781982421875e+01,-3.714531326293945312e+01
4.718480110168457031e-01,2.000000000000000000e+00,7.591316699981689453e+00,8.606588363647460938e+00,3.460661315917968750e+01,-1.127404937744140625e+02,9.051612854003906250e+01,-6.693637084960937500e+01,4.832793045043945312e+01,-1.481856727600097656e+01,-1.048542785644531250e+02,-1.187027587890625000e+02,6.393132781982421875e+01,-3.714531326293945312e+01
4.748130142688751221e-01,2.000000000000000000e+00,7.648586750030517578e+00,8.512832641601562500e+00,3.459355926513671875e+01,-1.128482055664062500e+02,9.052039337158203125e+01,-6.698506927490234375e+01,4.818175506591796875e+01,-1.480030250549316406e+01,-1.048847885131835938e+02,-1.188122634887695312e+02,6.392266082763671875e+01,-3.720441818237304688e+01
4.798640012741088867e-01,2.000000000000000000e+00,7.648586750030517578e+00,8.512832641601562500e+00,3.459355926513671875e+01,-1.128482055664062500e+02,9.052039337158203125e+01,-6.698506927490234375e+01,4.818175506591796875e+01,-1.480030250549316406e+01,-1.048847885131835938e+02,-1.188122634887695312e+02,6.392266082763671875e+01,-3.720441818237304688e+01
4.838269948959350586e-01,2.000000000000000000e+00,7.706316471099853516e+00,8.419235229492187500e+00,3.458034133911132812e+01,-1.129564056396484375e+02,9.052449798583984375e+01,-6.703430175781250000e+01,4.803849792480468750e+01,-1.478180885314941406e+01,-1.049154663085937500e+02,-1.189214782714843750e+02,6.391399383544921875e+01,-3.726747894287109375e+01
4.867919981479644775e-01,2.000000000000000000e+00,7.735281467437744141e+00,8.372210502624511719e+00,3.457369613647460938e+01,-1.130104446411132812e+02,9.052652740478515625e+01,-6.705919647216796875e+01,4.796598815917968750e+01,-1.477246952056884766e+01,-1.049306411743164062e+02,-1.189760513305664062e+02,6.390969085693359375e+01,-3.729824447631835938e+01
4.918679893016815186e-01,2.000000000000000000e+00,7.735281467437744141e+00,8.372210502624511719e+00,3.457369613647460938e+01,-1.130104446411132812e+02,9.052652740478515625e+01,-6.705919647216796875e+01,4.796598815917968750e+01,-1.477246952056884766e+01,-1.049306411743164062e+02,-1.189760513305664062e+02,6.390969085693359375e+01,-3.729824447631835938e+01
4.968749880790710449e-01,2.000000000000000000e+00,7.792809486389160156e+00,8.278228759765625000e+00,3.456033706665039062e+01,-1.131183242797851562e+02,9.053079223632812500e+01,-6.710700225830078125e+01,4.781981277465820312e+01,-1.475374794006347656e+01,-1.049609832763671875e+02,-1.190846252441406250e+02,6.390153121948242188e+01,-3.735877990722656250e+01
4.995810091495513916e-01,2.000000000000000000e+00,7.821660518646240234e+00,8.231248855590820312e+00,3.455370712280273438e+01,-1.131725845336914062e+02,9.053270721435546875e+01,-6.713107299804687500e+01,4.774801635742187500e+01,-1.474450016021728516e+01,-1.049763717651367188e+02,-1.191393356323242188e+02,6.389781188964843750e+01,-3.738943099975585938e+01
5.065190196037292480e-01,2.000000000000000000e+00,7.821660518646240234e+00,8.231248855590820312e+00,3.455370712280273438e+01,-1.131725845336914062e+02,9.053270721435546875e+01,-6.713107299804687500e+01,4.774801635742187500e+01,-1.474450016021728516e+01,-1.049763717651367188e+02,-1.191393356323242188e+02,6.389781188964843750e+01,-3.738943099975585938e+01
5.081999897956848145e-01,2.000000000000000000e+00,7.879303932189941406e+00,8.137899398803710938e+00,3.454088211059570312e+01,-1.132810287475585938e+02,9.053660583496093750e+01,-6.717976379394531250e+01,4.760415267944335938e+01,-1.472596168518066406e+01,-1.050068359375000000e+02,-1.192486267089843750e+02,6.388907241821289062e+01,-3.744908523559570312e+01
5.118399858474731445e-01,2.000000000000000000e+00,7.908039093017578125e+00,8.091078758239746094e+00,3.453441238403320312e+01,-1.133346023559570312e+02,9.053862762451171875e+01,-6.720439147949218750e+01,4.753076171875000000e+01,-1.471662330627441406e+01,-1.050222778320312500e+02,-1.193037796020507812e+02,6.388484191894531250e+01,-3.748127365112304688e+01
5.168160200119018555e-01,2.000000000000000000e+00,7.908039093017578125e+00,8.091078758239746094e+00,3.453441238403320312e+01,-1.133346023559570312e+02,9.053862762451171875e+01,-6.720439147949218750e+01,4.753076171875000000e+01,-1.471662330627441406e+01,-1.050222778320312500e+02,-1.193037796020507812e+02,6.388484191894531250e+01,-3.748127365112304688e+01
5.195500254631042480e-01,2.000000000000000000e+00,7.965251445770263672e+00,7.997549533843994141e+00,3.452101516723632812e+01,-1.134432678222656250e+02,9.054247283935546875e+01,-6.725403594970703125e+01,4.738602066040039062e+01,-1.469799137115478516e+01,-1.050530090332031250e+02,-1.194125518798828125e+02,6.387719345092773438e+01,-3.754356765747070312e+01
5.288890004158020020e-01,2.000000000000000000e+00,7.965251445770263672e+00,7.997549533843994141e+00,3.452101516723632812e+01,-1.134432678222656250e+02,9.054247283935546875e+01,-6.725403594970703125e+01,4.738602066040039062e+01,-1.469799137115478516e+01,-1.050530090332031250e+02,-1.194125518798828125e+02,6.387719345092773438e+01,-3.754356765747070312e+01
5.314570069313049316e-01,2.000000000000000000e+00,8.051515579223632812e+00,7.857583522796630859e+00,3.450111389160156250e+01,-1.136048736572265625e+02,9.054827880859375000e+01,-6.732564544677734375e+01,4.716837692260742188e+01,-1.466993141174316406e+01,-1.050984802246093750e+02,-1.195761337280273438e+02,6.386423110961914062e+01,-3.763574218750000000e+01
5.328289866447448730e-01,2.000000000000000000e+00,8.051515579223632812e+00,7.857583522796630859e+00,3.450111389160156250e+01,-1.136048736572265625e+02,9.054827880859375000e+01,-6.732564544677734375e+01,4.716837692260742188e+01,-1.466993141174316406e+01,-1.050984802246093750e+02,-1.195761337280273438e+02,6.386423110961914062e+01,-3.763574218750000000e+01
5.355790257453918457e-01,2.000000000000000000e+00,8.080164909362792969e+00,7.810988426208496094e+00,3.449446487426757812e+01,-1.136582870483398438e+02,9.055030822753906250e+01,-6.734978485107421875e+01,4.709548187255859375e+01,-1.466059303283691406e+01,-1.051137619018554688e+02,-1.196308441162109375e+02,6.386014556884765625e+01,-3.766518402099609375e+01
5.398340225219726562e-01,2.000000000000000000e+00,8.080164909362792969e+00,7.810988426208496094e+00,3.449446487426757812e+01,-1.136582870483398438e+02,9.055030822753906250e+01,-6.734978485107421875e+01,4.709548187255859375e+01,-1.466059303283691406e+01,-1.051137619018554688e+02,-1.196308441162109375e+02,6.386014556884765625e+01,-3.766518402099609375e+01
5.439149737358093262e-01,2.000000000000000000e+00,8.108641624450683594e+00,7.764393329620361328e+00,3.448795700073242188e+01,-1.137130661010742188e+02,9.055207061767578125e+01,-6.737453460693359375e+01,4.702330398559570312e+01,-1.465139102935791016e+01,-1.051288833618164062e+02,-1.196854858398437500e+02,6.385555648803710938e+01,-3.769418716430664062e+01
5.478370189666748047e-01,2.000000000000000000e+00,8.137377738952636719e+00,7.717594623565673828e+00,3.448149108886718750e+01,-1.137666931152343750e+02,9.055419921875000000e+01,-6.739916229248046875e+01,4.695139694213867188e+01,-1.464246559143066406e+01,-1.051442718505859375e+02,-1.197401428222656250e+02,6.385096740722656250e+01,-3.772505950927734375e+01
5.529469847679138184e-01,2.000000000000000000e+00,8.166198730468750000e+00,7.671090602874755859e+00,3.447494125366210938e+01,-1.138205718994140625e+02,9.055590820312500000e+01,-6.742384338378906250e+01,4.687899780273437500e+01,-1.463335609436035156e+01,-1.051597213745117188e+02,-1.197947845458984375e+02,6.384681320190429688e+01,-3.775604248046875000e+01
5.561370253562927246e-01,2.000000000000000000e+00,8.223698616027832031e+00,7.577628612518310547e+00,3.446179199218750000e+01,-1.139280242919921875e+02,9.055979156494140625e+01,-6.747199249267578125e+01,4.673260498046875000e+01,-1.461490726470947266e+01,-1.051897964477539062e+02,-1.199042892456054688e+02,6.383843231201171875e+01,-3.781712722778320312e+01
5.589200258255004883e-01,2.000000000000000000e+00,8.223698616027832031e+00,7.577628612518310547e+00,3.446179199218750000e+01,-1.139280242919921875e+02,9.055979156494140625e+01,-6.747199249267578125e+01,4.673260498046875000e+01,-1.461490726470947266e+01,-1.051897964477539062e+02,-1.199042892456054688e+02,6.383843231201171875e+01,-3.781712722778320312e+01
5.639330148696899414e-01,2.000000000000000000e+00,8.252491950988769531e+00,7.530988216400146484e+00,3.445522308349609375e+01,-1.139826583862304688e+02,9.056182098388671875e+01,-6.749586486816406250e+01,4.666036987304687500e+01,-1.460575199127197266e+01,-1.052054595947265625e+02,-1.199594345092773438e+02,6.383384323120117188e+01,-3.784876632690429688e+01
5.678610205650329590e-01,2.000000000000000000e+00,8.281112670898437500e+00,7.484280586242675781e+00,3.444857406616210938e+01,-1.140370101928710938e+02,9.056352996826171875e+01,-6.751966857910156250e+01,4.658874130249023438e+01,-1.459682655334472656e+01,-1.052209548950195312e+02,-1.200127105712890625e+02,6.382983398437500000e+01,-3.787997055053710938e+01
5.718349814414978027e-01,2.000000000000000000e+00,8.309733390808105469e+00,7.437594413757324219e+00,3.444202804565429688e+01,-1.140903167724609375e+02,9.056539154052734375e+01,-6.754408264160156250e+01,4.651661300659179688e+01,-1.458789920806884766e+01,-1.052360763549804688e+02,-1.200669250488281250e+02,6.382567977905273438e+01,-3.790875244140625000e+01
5.758579969406127930e-01,2.000000000000000000e+00,8.338583946228027344e+00,7.391022205352783203e+00,3.443556213378906250e+01,-1.141449966430664062e+02,9.056752777099609375e+01,-6.756876373291015625e+01,4.644366455078125000e+01,-1.457842445373535156e+01,-1.052510375976562500e+02,-1.201224288940429688e+02,6.382189559936523438e+01,-3.793852615356445312e+01
5.798879861831665039e-01,2.000000000000000000e+00,8.395853996276855469e+00,7.297742366790771484e+00,3.442283630371093750e+01,-1.142523422241210938e+02,9.057141876220703125e+01,-6.761827087402343750e+01,4.629886627197265625e+01,-1.456020450592041016e+01,-1.052822570800781250e+02,-1.202317962646484375e+02,6.381329727172851562e+01,-3.799917221069335938e+01
5.838350057601928711e-01,2.000000000000000000e+00,8.395853996276855469e+00,7.297742366790771484e+00,3.442283630371093750e+01,-1.142523422241210938e+02,9.057141876220703125e+01,-6.761827087402343750e+01,4.629886627197265625e+01,-1.456020450592041016e+01,-1.052822570800781250e+02,-1.202317962646484375e+02,6.381329727172851562e+01,-3.799917221069335938e+01
5.878639817237854004e-01,2.000000000000000000e+00,8.424618721008300781e+00,7.251010894775390625e+00,3.441622924804687500e+01,-1.143069152832031250e+02,9.057312774658203125e+01,-6.764200592041015625e+01,4.622750854492187500e+01,-1.455109500885009766e+01,-1.052976455688476562e+02,-1.202863693237304688e+02,6.380986785888671875e+01,-3.802916336059570312e+01
5.919010043144226074e-01,2.000000000000000000e+00,8.453181266784667969e+00,7.204189777374267578e+00,3.440955734252929688e+01,-1.143608016967773438e+02,9.057525634765625000e+01,-6.766547393798828125e+01,4.615538406372070312e+01,-1.454216957092285156e+01,-1.053127670288085938e+02,-1.203406524658203125e+02,6.380571365356445312e+01,-3.806025314331054688e+01
5.958470106124877930e-01,2.000000000000000000e+00,8.481973648071289062e+00,7.157436370849609375e+00,3.440301132202148438e+01,-1.144150009155273438e+02,9.057728576660156250e+01,-6.768914031982421875e+01,4.608232498168945312e+01,-1.453328895568847656e+01,-1.053277206420898438e+02,-1.203955841064453125e+02,6.380163955688476562e+01,-3.809211730957031250e+01
5.999029874801635742e-01,2.000000000000000000e+00,8.510825157165527344e+00,7.110705375671386719e+00,3.439627838134765625e+01,-1.144686813354492188e+02,9.057936096191406250e+01,-6.771321868896484375e+01,4.600948715209960938e+01,-1.452417850494384766e+01,-1.053431701660156250e+02,-1.204502258300781250e+02,6.379734039306640625e+01,-3.812210845947265625e+01
6.045569777488708496e-01,2.000000000000000000e+00,8.539416313171386719e+00,7.064020156860351562e+00,3.438961410522460938e+01,-1.145220870971679688e+02,9.058139038085937500e+01,-6.773763275146484375e+01,4.593780136108398438e+01,-1.451488685607910156e+01,-1.053588333129882812e+02,-1.205041580200195312e+02,6.379333114624023438e+01,-3.815089416503906250e+01
6.088269948959350586e-01,2.000000000000000000e+00,8.567951202392578125e+00,7.017356872558593750e+00,3.438292312622070312e+01,-1.145760726928710938e+02,9.058325195312500000e+01,-6.776231384277343750e+01,4.586605834960937500e+01,-1.450586891174316406e+01,-1.053741149902343750e+02,-1.205590820312500000e+02,6.378903579711914062e+01,-3.818186950683593750e+01
6.118220090866088867e-01,2.000000000000000000e+00,8.625393867492675781e+00,6.924054145812988281e+00,3.436995315551757812e+01,-1.146844253540039062e+02,9.058703613281250000e+01,-6.781148529052734375e+01,4.572071075439453125e+01,-1.448783206939697266e+01,-1.054044113159179688e+02,-1.206688003540039062e+02,6.378050613403320312e+01,-3.824460220336914062e+01
6.159120202064514160e-01,2.000000000000000000e+00,8.625393867492675781e+00,6.924054145812988281e+00,3.436995315551757812e+01,-1.146844253540039062e+02,9.058703613281250000e+01,-6.781148529052734375e+01,4.572071075439453125e+01,-1.448783206939697266e+01,-1.054044113159179688e+02,-1.206688003540039062e+02,6.378050613403320312e+01,-3.824460220336914062e+01
6.198840141296386719e-01,2.000000000000000000e+00,8.654244422912597656e+00,6.877323150634765625e+00,3.436334609985351562e+01,-1.147382583618164062e+02,9.058906555175781250e+01,-6.783515167236328125e+01,4.564825439453125000e+01,-1.447849559783935547e+01,-1.054197463989257812e+02,-1.207238159179687500e+02,6.377650451660156250e+01,-3.827328109741210938e+01
6.239929795265197754e-01,2.000000000000000000e+00,8.683066368103027344e+00,6.830546855926513672e+00,3.435671615600585938e+01,-1.147913589477539062e+02,9.059114074707031250e+01,-6.785841369628906250e+01,4.557656860351562500e+01,-1.446888160705566406e+01,-1.054350814819335938e+02,-1.207783050537109375e+02,6.377191162109375000e+01,-3.830426025390625000e+01
6.271219849586486816e-01,2.000000000000000000e+00,8.711686134338378906e+00,6.783793926239013672e+00,3.435010910034179688e+01,-1.148456726074218750e+02,9.059322357177734375e+01,-6.788269042968750000e+01,4.550510406494140625e+01,-1.445940494537353516e+01,-1.054501495361328125e+02,-1.208330307006835938e+02,6.376739120483398438e+01,-3.833579254150390625e+01
6.321899890899658203e-01,2.000000000000000000e+00,8.768840789794921875e+00,6.690649032592773438e+00,3.433691024780273438e+01,-1.149540100097656250e+02,9.059738922119140625e+01,-6.793111419677734375e+01,4.535980987548828125e+01,-1.444123268127441406e+01,-1.054797973632812500e+02,-1.209414520263671875e+02,6.375930404663085938e+01,-3.839533996582031250e+01
6.351670026779174805e-01,2.000000000000000000e+00,8.768840789794921875e+00,6.690649032592773438e+00,3.433691024780273438e+01,-1.149540100097656250e+02,9.059738922119140625e+01,-6.793111419677734375e+01,4.535980987548828125e+01,-1.444123268127441406e+01,-1.054797973632812500e+02,-1.209414520263671875e+02,6.375930404663085938e+01,-3.839533996582031250e+01
6.393809914588928223e-01,2.000000000000000000e+00,8.797692298889160156e+00,6.644008636474609375e+00,3.433036422729492188e+01,-1.150081100463867188e+02,9.059919738769531250e+01,-6.795566558837890625e+01,4.528696823120117188e+01,-1.443207740783691406e+01,-1.054950180053710938e+02,-1.209957351684570312e+02,6.375514984130859375e+01,-3.842654037475585938e+01
6.438459753990173340e-01,2.000000000000000000e+00,8.826283454895019531e+00,6.597414016723632812e+00,3.432390213012695312e+01,-1.150616302490234375e+02,9.060137939453125000e+01,-6.798048400878906250e+01,4.521517181396484375e+01,-1.442264652252197266e+01,-1.055104141235351562e+02,-1.210511016845703125e+02,6.375099945068359375e+01,-3.845883941650390625e+01
6.482620239257812500e-01,2.000000000000000000e+00,8.854932785034179688e+00,6.551022529602050781e+00,3.431757736206054688e+01,-1.151156158447265625e+02,9.060362243652343750e+01,-6.800449371337890625e+01,4.514343261718750000e+01,-1.441344642639160156e+01,-1.055256347656250000e+02,-1.211056747436523438e+02,6.374648284912109375e+01,-3.848949050903320312e+01
6.515989899635314941e-01,2.000000000000000000e+00,8.883554458618164062e+00,6.504200935363769531e+00,3.431117248535156250e+01,-1.151696701049804688e+02,9.060565185546875000e+01,-6.802781677246093750e+01,4.507097625732421875e+01,-1.440424633026123047e+01,-1.055407028198242188e+02,-1.211603851318359375e+02,6.374254989624023438e+01,-3.851871109008789062e+01
6.567280292510986328e-01,2.000000000000000000e+00,8.912203788757324219e+00,6.457560539245605469e+00,3.430464553833007812e+01,-1.152232818603515625e+02,9.060772705078125000e+01,-6.805155181884765625e+01,4.499781036376953125e+01,-1.439476871490478516e+01,-1.055556106567382812e+02,-1.212152481079101562e+02,6.373905181884765625e+01,-3.854947662353515625e+01
6.598770022392272949e-01,2.000000000000000000e+00,8.940909385681152344e+00,6.411147117614746094e+00,3.429805755615234375e+01,-1.152777481079101562e+02,9.060975646972656250e+01,-6.807556152343750000e+01,4.492485809326171875e+01,-1.438570499420166016e+01,-1.055709991455078125e+02,-1.212694625854492188e+02,6.373482513427734375e+01,-3.858067703247070312e+01
6.638560295104980469e-01,2.000000000000000000e+00,8.969559669494628906e+00,6.364483833312988281e+00,3.429143142700195312e+01,-1.153314208984375000e+02,9.061188507080078125e+01,-6.809963989257812500e+01,4.485317230224609375e+01,-1.437632083892822266e+01,-1.055862808227539062e+02,-1.213237533569335938e+02,6.373045349121093750e+01,-3.860968017578125000e+01
6.679199934005737305e-01,2.000000000000000000e+00,8.998093605041503906e+00,6.317979335784912109e+00,3.428477859497070312e+01,-1.153845748901367188e+02,9.061390686035156250e+01,-6.812445831298828125e+01,4.478176498413085938e+01,-1.436657047271728516e+01,-1.056013488769531250e+02,-1.213785400390625000e+02,6.372636795043945312e+01,-3.863890457153320312e+01
6.725019812583923340e-01,2.000000000000000000e+00,9.026886940002441406e+00,6.271430015563964844e+00,3.427811431884765625e+01,-1.154387207031250000e+02,9.061641693115234375e+01,-6.814927673339843750e+01,4.470958328247070312e+01,-1.435737037658691406e+01,-1.056164093017578125e+02,-1.214326095581054688e+02,6.372258377075195312e+01,-3.866988372802734375e+01
6.759930253028869629e-01,2.000000000000000000e+00,9.055479049682617188e+00,6.224586009979248047e+00,3.427150726318359375e+01,-1.154923934936523438e+02,9.061849975585937500e+01,-6.817356109619140625e+01,4.463646697998046875e+01,-1.434848976135253906e+01,-1.056316452026367188e+02,-1.214873199462890625e+02,6.371821212768554688e+01,-3.870152664184570312e+01
6.811329722404479980e-01,2.000000000000000000e+00,9.084156990051269531e+00,6.178149223327636719e+00,3.426507949829101562e+01,-1.155462875366210938e+02,9.062078857421875000e+01,-6.819750213623046875e+01,4.456363296508789062e+01,-1.433956241607666016e+01,-1.056468658447265625e+02,-1.215422592163085938e+02,6.371376800537109375e+01,-3.873118972778320312e+01
6.838809847831726074e-01,2.000000000000000000e+00,9.112950325012207031e+00,6.131440639495849609e+00,3.425869750976562500e+01,-1.156006393432617188e+02,9.062260437011718750e+01,-6.822123718261718750e+01,4.449210739135742188e+01,-1.433036231994628906e+01,-1.056619873046875000e+02,-1.215966873168945312e+02,6.370968246459960938e+01,-3.876096343994140625e+01
6.878510117530822754e-01,2.000000000000000000e+00,9.141542434692382812e+00,6.084687709808349609e+00,3.425208663940429688e+01,-1.156536254882812500e+02,9.062490081787109375e+01,-6.824517822265625000e+01,4.442058563232421875e+01,-1.432111454010009766e+01,-1.056774368286132812e+02,-1.216513977050781250e+02,6.370546340942382812e+01,-3.879260253906250000e+01
6.918500065803527832e-01,2.000000000000000000e+00,9.170191764831542969e+00,6.038115024566650391e+00,3.424546051025390625e+01,-1.157076263427734375e+02,9.062718200683593750e+01,-6.826930999755859375e+01,4.434818649291992188e+01,-1.431214332580566406e+01,-1.056930465698242188e+02,-1.217060470581054688e+02,6.370116043090820312e+01,-3.882259368896484375e+01
6.967480182647705078e-01,2.000000000000000000e+00,9.198841094970703125e+00,5.991497516632080078e+00,3.423891067504882812e+01,-1.157616653442382812e+02,9.062942504882812500e+01,-6.829359436035156250e+01,4.427518463134765625e+01,-1.430312538146972656e+01,-1.057083282470703125e+02,-1.217604064941406250e+02,6.369708251953125000e+01,-3.885137939453125000e+01
7.002850174903869629e-01,2.000000000000000000e+00,9.227519035339355469e+00,5.944879531860351562e+00,3.423240661621093750e+01,-1.158150787353515625e+02,9.063150024414062500e+01,-6.831827545166015625e+01,4.420283889770507812e+01,-1.429397010803222656e+01,-1.057233352661132812e+02,-1.218148269653320312e+02,6.369256591796875000e+01,-3.888137054443359375e+01
7.040749788284301758e-01,2.000000000000000000e+00,9.256196975708007812e+00,5.898307800292968750e+00,3.422573852539062500e+01,-1.158697509765625000e+02,9.063374328613281250e+01,-6.834323883056640625e+01,4.413137435913085938e+01,-1.428481483459472656e+01,-1.057385711669921875e+02,-1.218690414428710938e+02,6.368812179565429688e+01,-3.891268539428710938e+01
7.078859806060791016e-01,2.000000000000000000e+00,9.284760475158691406e+00,5.851712703704833984e+00,3.421915054321289062e+01,-1.159235305786132812e+02,9.063614654541015625e+01,-6.836757659912109375e+01,4.405968475341796875e+01,-1.427552127838134766e+01,-1.057538452148437500e+02,-1.219229736328125000e+02,6.368389129638671875e+01,-3.894344329833984375e+01
7.119190096855163574e-01,2.000000000000000000e+00,9.313265800476074219e+00,5.805162906646728516e+00,3.421268463134765625e+01,-1.159766845703125000e+02,9.063833618164062500e+01,-6.839104461669921875e+01,4.398745346069335938e+01,-1.426632022857666016e+01,-1.057693023681640625e+02,-1.219779052734375000e+02,6.367974090576171875e+01,-3.897277832031250000e+01
7.160069942474365234e-01,2.000000000000000000e+00,9.341973304748535156e+00,5.758590698242187500e+00,3.420642089843750000e+01,-1.160310363769531250e+02,9.064046478271484375e+01,-6.841450500488281250e+01,4.391455841064453125e+01,-1.425712013244628906e+01,-1.057845230102539062e+02,-1.220325469970703125e+02,6.367558670043945312e+01,-3.900222015380859375e+01
7.208660244941711426e-01,2.000000000000000000e+00,9.370651245117187500e+00,5.711859703063964844e+00,3.419999694824218750e+01,-1.160846633911132812e+02,9.064259338378906250e+01,-6.843878936767578125e+01,4.384221267700195312e+01,-1.424805641174316406e+01,-1.057998657226562500e+02,-1.220868988037109375e+02,6.367113876342773438e+01,-3.903507232666015625e+01
7.241439819335937500e-01,2.000000000000000000e+00,9.399300575256347656e+00,5.665355205535888672e+00,3.419334793090820312e+01,-1.161385955810546875e+02,9.064498901367187500e+01,-6.846300506591796875e+01,4.377085876464843750e+01,-1.423922157287597656e+01,-1.058151473999023438e+02,-1.221420440673828125e+02,6.366684341430664062e+01,-3.906671142578125000e+01
7.281559705734252930e-01,2.000000000000000000e+00,9.428179740905761719e+00,5.618827819824218750e+00,3.418671798706054688e+01,-1.161922683715820312e+02,9.064691162109375000e+01,-6.848714447021484375e+01,4.369906234741210938e+01,-1.423006534576416016e+01,-1.058301544189453125e+02,-1.221963348388671875e+02,6.366269302368164062e+01,-3.909670257568359375e+01
7.320460081100463867e-01,2.000000000000000000e+00,9.456914901733398438e+00,5.572255611419677734e+00,3.418011474609375000e+01,-1.162455291748046875e+02,9.064931488037109375e+01,-6.851210021972656250e+01,4.362682723999023438e+01,-1.422095680236816406e+01,-1.058451690673828125e+02,-1.222506179809570312e+02,6.365860748291015625e+01,-3.912659072875976562e+01
7.360820174217224121e-01,2.000000000000000000e+00,9.485391616821289062e+00,5.525705814361572266e+00,3.417352676391601562e+01,-1.162995147705078125e+02,9.065123748779296875e+01,-6.853678131103515625e+01,4.355409622192382812e+01,-1.421161842346191406e+01,-1.058603973388671875e+02,-1.223054122924804688e+02,6.365474700927734375e+01,-3.915822601318359375e+01
7.400829792022705078e-01,2.000000000000000000e+00,9.513956069946289062e+00,5.479088306427001953e+00,3.416689682006835938e+01,-1.163531875610351562e+02,9.065336608886718750e+01,-6.856079101562500000e+01,4.348153305053710938e+01,-1.420255470275878906e+01,-1.058756256103515625e+02,-1.223595504760742188e+02,6.365059661865234375e+01,-3.918811035156250000e+01
7.427719831466674805e-01,2.000000000000000000e+00,9.542662620544433594e+00,5.432583808898925781e+00,3.416037368774414062e+01,-1.164070816040039062e+02,9.065554809570312500e+01,-6.858438873291015625e+01,4.341001129150390625e+01,-1.419353580474853516e+01,-1.058907470703125000e+02,-1.224138336181640625e+02,6.364673614501953125e+01,-3.921700286865234375e+01
7.484850287437438965e-01,2.000000000000000000e+00,9.571369171142578125e+00,5.386079311370849609e+00,3.415386581420898438e+01,-1.164608078002929688e+02,9.065779113769531250e+01,-6.860792541503906250e+01,4.333837890625000000e+01,-1.418428993225097656e+01,-1.059059219360351562e+02,-1.224685592651367188e+02,6.364214706420898438e+01,-3.924721527099609375e+01
7.522559762001037598e-01,2.000000000000000000e+00,9.600219726562500000e+00,5.339551925659179688e+00,3.414746093750000000e+01,-1.165139617919921875e+02,9.065971374511718750e+01,-6.863166046142578125e+01,4.326592636108398438e+01,-1.417495155334472656e+01,-1.059209289550781250e+02,-1.225225601196289062e+02,6.363791656494140625e+01,-3.927896881103515625e+01
7.547760009765625000e-01,2.000000000000000000e+00,9.628869056701660156e+00,5.292957305908203125e+00,3.414093399047851562e+01,-1.165681610107421875e+02,9.066184234619140625e+01,-6.865594482421875000e+01,4.319308471679687500e+01,-1.416556739807128906e+01,-1.059360504150390625e+02,-1.225771331787109375e+02,6.363412857055664062e+01,-3.930973052978515625e+01
7.588080167770385742e-01,2.000000000000000000e+00,9.657374382019042969e+00,5.246407508850097656e+00,3.413430404663085938e+01,-1.166220932006835938e+02,9.066376495361328125e+01,-6.868062591552734375e+01,4.312035751342773438e+01,-1.415613746643066406e+01,-1.059508972167968750e+02,-1.226317749023437500e+02,6.362997436523437500e+01,-3.933829498291015625e+01
7.628300189971923828e-01,2.000000000000000000e+00,9.685909271240234375e+00,5.200038433074951172e+00,3.412777709960937500e+01,-1.166756668090820312e+02,9.066589355468750000e+01,-6.870524597167968750e+01,4.304867172241210938e+01,-1.414707279205322266e+01,-1.059659118652343750e+02,-1.226857681274414062e+02,6.362567901611328125e+01,-3.936872482299804688e+01
7.667850255966186523e-01,2.000000000000000000e+00,9.714501380920410156e+00,5.153534412384033203e+00,3.412123107910156250e+01,-1.167299118041992188e+02,9.066807556152343750e+01,-6.872992706298828125e+01,4.297725677490234375e+01,-1.413796424865722656e+01,-1.059813003540039062e+02,-1.227403411865234375e+02,6.362123107910156250e+01,-3.940003585815429688e+01
7.723720073699951172e-01,2.000000000000000000e+00,9.743179321289062500e+00,5.107075214385986328e+00,3.411460113525390625e+01,-1.167833786010742188e+02,9.067010498046875000e+01,-6.875359344482421875e+01,4.290491104125976562e+01,-1.412871646881103516e+01,-1.059963150024414062e+02,-1.227944793701171875e+02,6.361671829223632812e+01,-3.942958831787109375e+01
7.764629721641540527e-01,2.000000000000000000e+00,9.771800041198730469e+00,5.060683727264404297e+00,3.410809707641601562e+01,-1.168371658325195312e+02,9.067208099365234375e+01,-6.877671813964843750e+01,4.283218383789062500e+01,-1.411928653717041016e+01,-1.060116500854492188e+02,-1.228482589721679688e+02,6.361255645751953125e+01,-3.945980453491210938e+01
7.803779840469360352e-01,2.000000000000000000e+00,9.800477981567382812e+00,5.013975620269775391e+00,3.410169219970703125e+01,-1.168915710449218750e+02,9.067410278320312500e+01,-6.880072784423828125e+01,4.275967407226562500e+01,-1.410999488830566406e+01,-1.060272064208984375e+02,-1.229029006958007812e+02,6.360833740234375000e+01,-3.949056243896484375e+01
7.844470143318176270e-01,2.000000000000000000e+00,9.828927040100097656e+00,4.967403411865234375e+00,3.409540939331054688e+01,-1.169449310302734375e+02,9.067586517333984375e+01,-6.882453155517578125e+01,4.268820953369140625e+01,-1.410083961486816406e+01,-1.060424880981445312e+02,-1.229575576782226562e+02,6.360359573364257812e+01,-3.952165603637695312e+01
7.885959744453430176e-01,2.000000000000000000e+00,9.857662200927734375e+00,4.921079635620117188e+00,3.408904647827148438e+01,-1.169988174438476562e+02,9.067799377441406250e+01,-6.884874725341796875e+01,4.261696243286132812e+01,-1.409177589416503906e+01,-1.060574951171875000e+02,-1.230118331909179688e+02,6.359937667846679688e+01,-3.955186843872070312e+01
7.933589816093444824e-01,2.000000000000000000e+00,9.886254310607910156e+00,4.874643325805664062e+00,3.408248138427734375e+01,-1.170523986816406250e+02,9.068002319335937500e+01,-6.887342834472656250e+01,4.254500198364257812e+01,-1.408252906799316406e+01,-1.060724029541015625e+02,-1.230662689208984375e+02,6.359536743164062500e+01,-3.958163833618164062e+01
7.970029711723327637e-01,2.000000000000000000e+00,9.914846420288085938e+00,4.828138828277587891e+00,3.407593536376953125e+01,-1.171056442260742188e+02,9.068199920654296875e+01,-6.889804840087890625e+01,4.247210693359375000e+01,-1.407300758361816406e+01,-1.060872497558593750e+02,-1.231209793090820312e+02,6.359135818481445312e+01,-3.961108398437500000e+01
7.987800240516662598e-01,2.000000000000000000e+00,9.943324089050292969e+00,4.781679153442382812e+00,3.406932449340820312e+01,-1.171600494384765625e+02,9.068397521972656250e+01,-6.892245483398437500e+01,4.239943313598632812e+01,-1.406362342834472656e+01,-1.061028594970703125e+02,-1.231751251220703125e+02,6.358734893798828125e+01,-3.964195632934570312e+01
8.028410077095031738e-01,2.000000000000000000e+00,9.971829414367675781e+00,4.734925746917724609e+00,3.406263351440429688e+01,-1.172134094238281250e+02,9.068583679199218750e+01,-6.894578552246093750e+01,4.232796859741210938e+01,-1.405446720123291016e+01,-1.061183013916015625e+02,-1.232294845581054688e+02,6.358312606811523438e+01,-3.967282485961914062e+01
8.086969852447509766e-01,2.000000000000000000e+00,1.000033569335937500e+01,4.688489437103271484e+00,3.405602645874023438e+01,-1.172667694091796875e+02,9.068781280517578125e+01,-6.896958923339843750e+01,4.225633621215820312e+01,-1.404540348052978516e+01,-1.061334228515625000e+02,-1.232834167480468750e+02,6.357919311523437500e+01,-3.970304107666015625e+01
8.127909898757934570e-01,2.000000000000000000e+00,1.002907085418701172e+01,4.641917228698730469e+00,3.404948043823242188e+01,-1.173210830688476562e+02,9.068967437744140625e+01,-6.899311828613281250e+01,4.218415832519531250e+01,-1.403652381896972656e+01,-1.061485443115234375e+02,-1.233370437622070312e+02,6.357489013671875000e+01,-3.973380279541015625e+01
8.178340196609497070e-01,2.000000000000000000e+00,1.005777740478515625e+01,4.595321655273437500e+00,3.404295349121093750e+01,-1.173743286132812500e+02,9.069138336181640625e+01,-6.901760864257812500e+01,4.211153411865234375e+01,-1.402759647369384766e+01,-1.061641006469726562e+02,-1.233916168212890625e+02,6.357081222534179688e+01,-3.976500320434570312e+01
8.208950161933898926e-01,2.000000000000000000e+00,1.008642673492431641e+01,4.548908233642578125e+00,3.403651046752929688e+01,-1.174284210205078125e+02,9.069351196289062500e+01,-6.904188537597656250e+01,4.203930282592773438e+01,-1.401857948303222656e+01,-1.061796035766601562e+02,-1.234463424682617188e+02,6.356687927246093750e+01,-3.979488372802734375e+01
8.248569965362548828e-01,2.000000000000000000e+00,1.011470317840576172e+01,4.502358436584472656e+00,3.403004455566406250e+01,-1.174823150634765625e+02,9.069553375244140625e+01,-6.906663513183593750e+01,4.196783447265625000e+01,-1.400928688049316406e+01,-1.061949920654296875e+02,-1.235009155273437500e+02,6.356272506713867188e+01,-3.982444000244140625e+01
8.288289904594421387e-01,2.000000000000000000e+00,1.014317989349365234e+01,4.455831050872802734e+00,3.402339553833007812e+01,-1.175356750488281250e+02,9.069745635986328125e+01,-6.909098052978515625e+01,4.189653396606445312e+01,-1.400031471252441406e+01,-1.062100601196289062e+02,-1.235556945800781250e+02,6.355863952636718750e+01,-3.985476303100585938e+01
8.331580162048339844e-01,2.000000000000000000e+00,1.017159938812255859e+01,4.409236431121826172e+00,3.401680755615234375e+01,-1.175900802612304688e+02,9.069937133789062500e+01,-6.911471557617187500e+01,4.182435226440429688e+01,-1.399134254455566406e+01,-1.062252273559570312e+02,-1.236094055175781250e+02,6.355398178100585938e+01,-3.988574218750000000e+01
8.347709774971008301e-01,2.000000000000000000e+00,1.020047855377197266e+01,4.362709045410156250e+00,3.401026153564453125e+01,-1.176438064575195312e+02,9.070118713378906250e+01,-6.913838958740234375e+01,4.175146102905273438e+01,-1.398227882385253906e+01,-1.062402954101562500e+02,-1.236634750366210938e+02,6.354961013793945312e+01,-3.991639328002929688e+01
8.418980240821838379e-01,2.000000000000000000e+00,1.022904300689697266e+01,4.316385269165039062e+00,3.400361251831054688e+01,-1.176970138549804688e+02,9.070326995849609375e+01,-6.916225433349609375e+01,4.167911529541015625e+01,-1.397298622131347656e+01,-1.062556381225585938e+02,-1.237183303833007812e+02,6.354545974731445312e+01,-3.994550704956054688e+01
8.453770279884338379e-01,2.000000000000000000e+00,1.025766277313232422e+01,4.269971847534179688e+00,3.399710464477539062e+01,-1.177512741088867188e+02,9.070508575439453125e+01,-6.918592834472656250e+01,4.160759353637695312e+01,-1.396373844146728516e+01,-1.062711334228515625e+02,-1.237718429565429688e+02,6.354130554199218750e+01,-3.997549819946289062e+01
8.492730259895324707e-01,2.000000000000000000e+00,1.028614044189453125e+01,4.223331451416015625e+00,3.399070358276367188e+01,-1.178047256469726562e+02,9.070705413818359375e+01,-6.921034240722656250e+01,4.153618240356445312e+01,-1.395472145080566406e+01,-1.062866821289062500e+02,-1.238259048461914062e+02,6.353664016723632812e+01,-4.000681304931640625e+01
8.507649898529052734e-01,2.000000000000000000e+00,1.031478977203369141e+01,4.176872253417968750e+00,3.398437881469726562e+01,-1.178588790893554688e+02,9.070892333984375000e+01,-6.923516082763671875e+01,4.146367263793945312e+01,-1.394588661193847656e+01,-1.063016433715820312e+02,-1.238806152343750000e+02,6.353226852416992188e+01,-4.003724288940429688e+01
8.582239747047424316e-01,2.000000000000000000e+00,1.034338188171386719e+01,4.130367755889892578e+00,3.397793579101562500e+01,-1.179124526977539062e+02,9.071099853515625000e+01,-6.925991821289062500e+01,4.139078140258789062e+01,-1.393696022033691406e+01,-1.063164901733398438e+02,-1.239346160888671875e+02,6.352804183959960938e+01,-4.006613922119140625e+01
8.596339821815490723e-01,2.000000000000000000e+00,1.037211704254150391e+01,4.083817958831787109e+00,3.397140884399414062e+01,-1.179656448364257812e+02,9.071281433105468750e+01,-6.928439331054687500e+01,4.131821060180664062e+01,-1.392785072326660156e+01,-1.063316116333007812e+02,-1.239891891479492188e+02,6.352396392822265625e+01,-4.009558105468750000e+01
8.648279905319213867e-01,2.000000000000000000e+00,1.040076637268066406e+01,4.037494182586669922e+00,3.396479797363281250e+01,-1.180194244384765625e+02,9.071478271484375000e+01,-6.930813598632812500e+01,4.124696731567382812e+01,-1.391864967346191406e+01,-1.063468933105468750e+02,-1.240441207885742188e+02,6.351951599121093750e+01,-4.012689208984375000e+01
8.677989840507507324e-01,2.000000000000000000e+00,1.042918586730957031e+01,3.991080760955810547e+00,3.395823287963867188e+01,-1.180732650756835938e+02,9.071675872802734375e+01,-6.933166503906250000e+01,4.117577362060546875e+01,-1.390926551818847656e+01,-1.063622360229492188e+02,-1.240979843139648438e+02,6.351550674438476562e+01,-4.015743637084960938e+01
8.707659840583801270e-01,2.000000000000000000e+00,1.045760631561279297e+01,3.944530725479125977e+00,3.395170593261718750e+01,-1.181271514892578125e+02,9.071857452392578125e+01,-6.935546875000000000e+01,4.110348510742187500e+01,-1.390024662017822266e+01,-1.063773040771484375e+02,-1.241524047851562500e+02,6.351186752319335938e+01,-4.018698501586914062e+01
8.778240084648132324e-01,2.000000000000000000e+00,1.045760631561279297e+01,3.944530725479125977e+00,3.395170593261718750e+01,-1.181271514892578125e+02,9.071857452392578125e+01,-6.935546875000000000e+01,4.110348510742187500e+01,-1.390024662017822266e+01,-1.063773040771484375e+02,-1.241524047851562500e+02,6.351186752319335938e+01,-4.018698501586914062e+01
8.798320293426513672e-01,2.000000000000000000e+00,1.051473236083984375e+01,3.851386308670043945e+00,3.393844985961914062e+01,-1.182338104248046875e+02,9.072241210937500000e+01,-6.940450286865234375e+01,4.095819473266601562e+01,-1.388207340240478516e+01,-1.064079742431640625e+02,-1.242606201171875000e+02,6.350341033935546875e+01,-4.024862289428710938e+01
8.838149905204772949e-01,2.000000000000000000e+00,1.054346752166748047e+01,3.804768562316894531e+00,3.393206787109375000e+01,-1.182877044677734375e+02,9.072433471679687500e+01,-6.942898559570312500e+01,4.088711166381835938e+01,-1.387255191802978516e+01,-1.064232025146484375e+02,-1.243151168823242188e+02,6.349919128417968750e+01,-4.027982330322265625e+01
8.867679834365844727e-01,2.000000000000000000e+00,1.057197475433349609e+01,3.758422136306762695e+00,3.392572021484375000e+01,-1.183417968750000000e+02,9.072635650634765625e+01,-6.945387268066406250e+01,4.081586456298828125e+01,-1.386307716369628906e+01,-1.064382705688476562e+02,-1.243699722290039062e+02,6.349547576904296875e+01,-4.030970382690429688e+01
8.918679952621459961e-01,2.000000000000000000e+00,1.057197475433349609e+01,3.758422136306762695e+00,3.392572021484375000e+01,-1.183417968750000000e+02,9.072635650634765625e+01,-6.945387268066406250e+01,4.081586456298828125e+01,-1.386307716369628906e+01,-1.064382705688476562e+02,-1.243699722290039062e+02,6.349547576904296875e+01,-4.030970382690429688e+01
8.957920074462890625e-01,2.000000000000000000e+00,1.062889957427978516e+01,3.665526390075683594e+00,3.391254425048828125e+01,-1.184496231079101562e+02,9.073046112060546875e+01,-6.950182342529296875e+01,4.067073440551757812e+01,-1.384485721588134766e+01,-1.064687271118164062e+02,-1.244786148071289062e+02,6.348709487915039062e+01,-4.037013244628906250e+01
8.994669914245605469e-01,2.000000000000000000e+00,1.065740585327148438e+01,3.619157552719116211e+00,3.390599822998046875e+01,-1.185029754638671875e+02,9.073237609863281250e+01,-6.952528381347656250e+01,4.059866714477539062e+01,-1.383565616607666016e+01,-1.064834060668945312e+02,-1.245325469970703125e+02,6.348242950439453125e+01,-4.040155029296875000e+01
9.038460254669189453e-01,2.000000000000000000e+00,1.068582534790039062e+01,3.572811841964721680e+00,3.389943313598632812e+01,-1.185563888549804688e+02,9.073424530029296875e+01,-6.954935455322265625e+01,4.052758407592773438e+01,-1.382659244537353516e+01,-1.064985885620117188e+02,-1.245869827270507812e+02,6.347827529907226562e+01,-4.043143463134765625e+01
9.079949855804443359e-01,2.000000000000000000e+00,1.071436023712158203e+01,3.526216745376586914e+00,3.389282608032226562e+01,-1.186105957031250000e+02,9.073632812500000000e+01,-6.957357025146484375e+01,4.045627975463867188e+01,-1.381743812561035156e+01,-1.065138092041015625e+02,-1.246418457031250000e+02,6.347455978393554688e+01,-4.046186828613281250e+01
9.108380079269409180e-01,2.000000000000000000e+00,1.074283695220947266e+01,3.479780197143554688e+00,3.388633728027343750e+01,-1.186639480590820312e+02,9.073851013183593750e+01,-6.959791564941406250e+01,4.038410186767578125e+01,-1.380828285217285156e+01,-1.065293121337890625e+02,-1.246955413818359375e+02,6.347040939331054688e+01,-4.049328613281250000e+01
9.158800244331359863e-01,2.000000000000000000e+00,1.074283695220947266e+01,3.479780197143554688e+00,3.388633728027343750e+01,-1.186639480590820312e+02,9.073851013183593750e+01,-6.959791564941406250e+01,4.038410186767578125e+01,-1.380828285217285156e+01,-1.065293121337890625e+02,-1.246955413818359375e+02,6.347040939331054688e+01,-4.049328613281250000e+01
9.187780022621154785e-01,2.000000000000000000e+00,1.079979133605957031e+01,3.386997461318969727e+00,3.387367248535156250e+01,-1.187714614868164062e+02,9.074224090576171875e+01,-6.964775848388671875e+01,4.023941040039062500e+01,-1.379001808166503906e+01,-1.065597152709960938e+02,-1.248034744262695312e+02,6.346115112304687500e+01,-4.055469894409179688e+01
9.238680005073547363e-01,2.000000000000000000e+00,1.079979133605957031e+01,3.386997461318969727e+00,3.387367248535156250e+01,-1.187714614868164062e+02,9.074224090576171875e+01,-6.964775848388671875e+01,4.023941040039062500e+01,-1.379001808166503906e+01,-1.065597152709960938e+02,-1.248034744262695312e+02,6.346115112304687500e+01,-4.055469894409179688e+01
9.268419742584228516e-01,2.000000000000000000e+00,1.085686111450195312e+01,3.294327974319458008e+00,3.386053848266601562e+01,-1.188783340454101562e+02,9.074645233154296875e+01,-6.969489288330078125e+01,4.009669876098632812e+01,-1.377152442932128906e+01,-1.065900650024414062e+02,-1.249122619628906250e+02,6.345262908935546875e+01,-4.061567306518554688e+01
9.342340230941772461e-01,2.000000000000000000e+00,1.085686111450195312e+01,3.294327974319458008e+00,3.386053848266601562e+01,-1.188783340454101562e+02,9.074645233154296875e+01,-6.969489288330078125e+01,4.009669876098632812e+01,-1.377152442932128906e+01,-1.065900650024414062e+02,-1.249122619628906250e+02,6.345262908935546875e+01,-4.061567306518554688e+01
9.356529712677001953e-01,2.000000000000000000e+00,1.091384315490722656e+01,3.201251029968261719e+00,3.384750366210937500e+01,-1.189854202270507812e+02,9.075072479248046875e+01,-6.974276733398437500e+01,3.995173263549804688e+01,-1.375316715240478516e+01,-1.066202545166015625e+02,-1.250210418701171875e+02,6.344366836547851562e+01,-4.067456054687500000e+01
9.398289918899536133e-01,2.000000000000000000e+00,1.094203281402587891e+01,3.154723882675170898e+00,3.384097671508789062e+01,-1.190394058227539062e+02,9.075247955322265625e+01,-6.976691436767578125e+01,3.987977600097656250e+01,-1.374428749084472656e+01,-1.066355285644531250e+02,-1.250756835937500000e+02,6.343987655639648438e+01,-4.070433425903320312e+01
9.428439736366271973e-01,2.000000000000000000e+00,1.097053909301757812e+01,3.108309984207153320e+00,3.383428955078125000e+01,-1.190926132202148438e+02,9.075460815429687500e+01,-6.979125976562500000e+01,3.980836105346679688e+01,-1.373545265197753906e+01,-1.066509246826171875e+02,-1.251302566528320312e+02,6.343550491333007812e+01,-4.073487472534179688e+01
9.478629827499389648e-01,2.000000000000000000e+00,1.097053909301757812e+01,3.108309984207153320e+00,3.383428955078125000e+01,-1.190926132202148438e+02,9.075460815429687500e+01,-6.979125976562500000e+01,3.980836105346679688e+01,-1.373545265197753906e+01,-1.066509246826171875e+02,-1.251302566528320312e+02,6.343550491333007812e+01,-4.073487472534179688e+01
9.507640004158020020e-01,2.000000000000000000e+00,1.102760887145996094e+01,3.015662908554077148e+00,3.382131958007812500e+01,-1.191999588012695312e+02,9.075903320312500000e+01,-6.984035491943359375e+01,3.966460800170898438e+01,-1.371723270416259766e+01,-1.066812744140625000e+02,-1.252376098632812500e+02,6.342683792114257812e+01,-4.079321289062500000e+01
9.558500051498413086e-01,2.000000000000000000e+00,1.102760887145996094e+01,3.015662908554077148e+00,3.382131958007812500e+01,-1.191999588012695312e+02,9.075903320312500000e+01,-6.984035491943359375e+01,3.966460800170898438e+01,-1.371723270416259766e+01,-1.066812744140625000e+02,-1.252376098632812500e+02,6.342683792114257812e+01,-4.079321289062500000e+01
9.597169756889343262e-01,2.000000000000000000e+00,1.108459091186523438e+01,2.922722101211547852e+00,3.380838775634765625e+01,-1.193076248168945312e+02,9.076335906982421875e+01,-6.988729095458984375e+01,3.951936721801757812e+01,-1.369924354553222656e+01,-1.067119979858398438e+02,-1.253463897705078125e+02,6.341918945312500000e+01,-4.085693359375000000e+01
9.637809991836547852e-01,2.000000000000000000e+00,1.111292552947998047e+01,2.876421213150024414e+00,3.380184173583984375e+01,-1.193614654541015625e+02,9.076522064208984375e+01,-6.991109466552734375e+01,3.944806671142578125e+01,-1.369022560119628906e+01,-1.067271804809570312e+02,-1.254009628295898438e+02,6.341459274291992188e+01,-4.088637542724609375e+01
9.677690267562866211e-01,2.000000000000000000e+00,1.114148807525634766e+01,2.830097675323486328e+00,3.379533386230468750e+01,-1.194146041870117188e+02,9.076762390136718750e+01,-6.993523406982421875e+01,3.937670898437500000e+01,-1.368102455139160156e+01,-1.067423477172851562e+02,-1.254553298950195312e+02,6.341036987304687500e+01,-4.091593170166015625e+01
9.714879989624023438e-01,2.000000000000000000e+00,1.117013740539550781e+01,2.783751726150512695e+00,3.378878402709960938e+01,-1.194682846069335938e+02,9.076980590820312500e+01,-6.995938110351562500e+01,3.930469131469726562e+01,-1.367159461975097656e+01,-1.067575759887695312e+02,-1.255093307495117188e+02,6.340657806396484375e+01,-4.094680404663085938e+01
9.779890179634094238e-01,2.000000000000000000e+00,1.117013740539550781e+01,2.783751726150512695e+00,3.378878402709960938e+01,-1.194682846069335938e+02,9.076980590820312500e+01,-6.995938110351562500e+01,3.930469131469726562e+01,-1.367159461975097656e+01,-1.067575759887695312e+02,-1.255093307495117188e+02,6.340657806396484375e+01,-4.094680404663085938e+01
9.797649979591369629e-01,2.000000000000000000e+00,1.122732162475585938e+01,2.691014289855957031e+00,3.377571105957031250e+01,-1.195753707885742188e+02,9.077407836914062500e+01,-7.000847625732421875e+01,3.915967559814453125e+01,-1.365351200103759766e+01,-1.067884750366210938e+02,-1.256178894042968750e+02,6.339797973632812500e+01,-4.100722503662109375e+01
9.839990139007568359e-01,2.000000000000000000e+00,1.125582790374755859e+01,2.644736051559448242e+00,3.376937103271484375e+01,-1.196291503906250000e+02,9.077620697021484375e+01,-7.003269195556640625e+01,3.908848190307617188e+01,-1.364444923400878906e+01,-1.068036422729492188e+02,-1.256713180541992188e+02,6.339368438720703125e+01,-4.103656005859375000e+01
9.868699908256530762e-01,2.000000000000000000e+00,1.128439140319824219e+01,2.598276853561401367e+00,3.376310729980468750e+01,-1.196824035644531250e+02,9.077854919433593750e+01,-7.005601501464843750e+01,3.901740264892578125e+01,-1.363524723052978516e+01,-1.068188705444335938e+02,-1.257262420654296875e+02,6.338953018188476562e+01,-4.106743240356445312e+01
9.918360114097595215e-01,2.000000000000000000e+00,1.128439140319824219e+01,2.598276853561401367e+00,3.376310729980468750e+01,-1.196824035644531250e+02,9.077854919433593750e+01,-7.005601501464843750e+01,3.901740264892578125e+01,-1.363524723052978516e+01,-1.068188705444335938e+02,-1.257262420654296875e+02,6.338953018188476562e+01,-4.106743240356445312e+01
9.954439997673034668e-01,2.000000000000000000e+00,1.134154605865478516e+01,2.505539417266845703e+00,3.375011825561523438e+01,-1.197895355224609375e+02,9.078287506103515625e+01,-7.010342407226562500e+01,3.887271118164062500e+01,-1.361693763732910156e+01,-1.068488922119140625e+02,-1.258346099853515625e+02,6.338137054443359375e+01,-4.112972259521484375e+01
9.998509883880615234e-01,2.000000000000000000e+00,1.134154605865478516e+01,2.505539417266845703e+00,3.375011825561523438e+01,-1.197895355224609375e+02,9.078287506103515625e+01,-7.010342407226562500e+01,3.887271118164062500e+01,-1.361693763732910156e+01,-1.068488922119140625e+02,-1.258346099853515625e+02,6.338137054443359375e+01,-4.112972259521484375e+01
1.004878044128417969e+00,2.000000000000000000e+00,1.139841461181640625e+01,2.412643432617187500e+00,3.373704528808593750e+01,-1.198969497680664062e+02,9.078724670410156250e+01,-7.015204620361328125e+01,3.872928619384765625e+01,-1.359862709045410156e+01,-1.068796234130859375e+02,-1.259438247680664062e+02,6.337284469604492188e+01,-4.118992996215820312e+01
1.007498025894165039e+00,2.000000000000000000e+00,1.142694950103759766e+01,2.366229534149169922e+00,3.373049545288085938e+01,-1.199499969482421875e+02,9.078937530517578125e+01,-7.017639160156250000e+01,3.865798187255859375e+01,-1.358947181701660156e+01,-1.068946304321289062e+02,-1.259978942871093750e+02,6.336861801147460938e+01,-4.122179031372070312e+01
1.012011051177978516e+00,2.000000000000000000e+00,1.145539760589599609e+01,2.319634675979614258e+00,3.372376632690429688e+01,-1.200036087036132812e+02,9.079161834716796875e+01,-7.020087432861328125e+01,3.858596801757812500e+01,-1.358027076721191406e+01,-1.069096450805664062e+02,-1.260519638061523438e+02,6.336475753784179688e+01,-4.125090408325195312e+01
1.014768958091735840e+00,2.000000000000000000e+00,1.148413372039794922e+01,2.273243188858032227e+00,3.371722030639648438e+01,-1.200573883056640625e+02,9.079390716552734375e+01,-7.022467803955078125e+01,3.851329421997070312e+01,-1.357102298736572266e+01,-1.069245529174804688e+02,-1.261061019897460938e+02,6.336031341552734375e+01,-4.127914047241210938e+01
1.019829034805297852e+00,2.000000000000000000e+00,1.148413372039794922e+01,2.273243188858032227e+00,3.371722030639648438e+01,-1.200573883056640625e+02,9.079390716552734375e+01,-7.022467803955078125e+01,3.851329421997070312e+01,-1.357102298736572266e+01,-1.069245529174804688e+02,-1.261061019897460938e+02,6.336031341552734375e+01,-4.127914047241210938e+01
1.024826049804687500e+00,2.000000000000000000e+00,1.151258087158203125e+01,2.227032899856567383e+00,3.371079635620117188e+01,-1.201108016967773438e+02,9.079566955566406250e+01,-7.024834442138671875e+01,3.844122314453125000e+01,-1.356159305572509766e+01,-1.069399948120117188e+02,-1.261602478027343750e+02,6.335623550415039062e+01,-4.130924224853515625e+01
1.027431011199951172e+00,2.000000000000000000e+00,1.156922054290771484e+01,2.134250402450561523e+00,3.369779968261718750e+01,-1.202184219360351562e+02,9.080003356933593750e+01,-7.029541015625000000e+01,3.829895019531250000e+01,-1.354341983795166016e+01,-1.069699630737304688e+02,-1.262683868408203125e+02,6.334828948974609375e+01,-4.137010574340820312e+01
1.031838059425354004e+00,2.000000000000000000e+00,1.156922054290771484e+01,2.134250402450561523e+00,3.369779968261718750e+01,-1.202184219360351562e+02,9.080003356933593750e+01,-7.029541015625000000e+01,3.829895019531250000e+01,-1.354341983795166016e+01,-1.069699630737304688e+02,-1.262683868408203125e+02,6.334828948974609375e+01,-4.137010574340820312e+01
1.035840034484863281e+00,2.000000000000000000e+00,1.159775447845458984e+01,2.087949514389038086e+00,3.369123458862304688e+01,-1.202714080810546875e+02,9.080233001708984375e+01,-7.031982421875000000e+01,3.822710037231445312e+01,-1.353435611724853516e+01,-1.069849166870117188e+02,-1.263230285644531250e+02,6.334399414062500000e+01,-4.140020751953125000e+01
1.039821028709411621e+00,2.000000000000000000e+00,1.162628936767578125e+01,2.041377067565917969e+00,3.368462753295898438e+01,-1.203258743286132812e+02,9.080425262451171875e+01,-7.034417724609375000e+01,3.815453720092773438e+01,-1.352520179748535156e+01,-1.069999847412109375e+02,-1.263775329589843750e+02,6.333990859985351562e+01,-4.143119049072265625e+01
1.043843984603881836e+00,2.000000000000000000e+00,1.165473747253417969e+01,1.994963169097900391e+00,3.367810058593750000e+01,-1.203793411254882812e+02,9.080616760253906250e+01,-7.036906433105468750e+01,3.808224487304687500e+01,-1.351590919494628906e+01,-1.070153198242187500e+02,-1.264313964843750000e+02,6.333612060546875000e+01,-4.146239089965820312e+01
1.047814965248107910e+00,2.000000000000000000e+00,1.168307113647460938e+01,1.948730230331420898e+00,3.367151641845703125e+01,-1.204327926635742188e+02,9.080825042724609375e+01,-7.039347076416015625e+01,3.801066970825195312e+01,-1.350670814514160156e+01,-1.070308227539062500e+02,-1.264856643676757812e+02,6.333204269409179688e+01,-4.149216461181640625e+01
1.051862955093383789e+00,2.000000000000000000e+00,1.171154880523681641e+01,1.902406811714172363e+00,3.366500473022460938e+01,-1.204862594604492188e+02,9.081043243408203125e+01,-7.041748046875000000e+01,3.793958663940429688e+01,-1.349773502349853516e+01,-1.070461044311523438e+02,-1.265401000976562500e+02,6.332810592651367188e+01,-4.152083587646484375e+01
1.055845975875854492e+00,2.000000000000000000e+00,1.173988246917724609e+01,1.856015563011169434e+00,3.365856170654296875e+01,-1.205394134521484375e+02,9.081240844726562500e+01,-7.044114685058593750e+01,3.786735534667968750e+01,-1.348880958557128906e+01,-1.070609588623046875e+02,-1.265936660766601562e+02,6.332373809814453125e+01,-4.154984283447265625e+01
1.059970974922180176e+00,2.000000000000000000e+00,1.176850318908691406e+01,1.809669256210327148e+00,3.365229797363281250e+01,-1.205931396484375000e+02,9.081421661376953125e+01,-7.046461486816406250e+01,3.779462432861328125e+01,-1.347956180572509766e+01,-1.070758514404296875e+02,-1.266474456787109375e+02,6.331980133056640625e+01,-4.158071517944335938e+01
1.062883973121643066e+00,2.000000000000000000e+00,1.179697990417480469e+01,1.763142228126525879e+00,3.364595794677734375e+01,-1.206470718383789062e+02,9.081619262695312500e+01,-7.048868560791015625e+01,3.772227859497070312e+01,-1.346999549865722656e+01,-1.070909729003906250e+02,-1.267021713256835938e+02,6.331601333618164062e+01,-4.161059570312500000e+01
1.067935943603515625e+00,2.000000000000000000e+00,1.182528495788574219e+01,1.716796278953552246e+00,3.363945007324218750e+01,-1.206998519897460938e+02,9.081816101074218750e+01,-7.051324462890625000e+01,3.765125274658203125e+01,-1.346074867248535156e+01,-1.071061477661132812e+02,-1.267562332153320312e+02,6.331185913085937500e+01,-4.164036941528320312e+01
1.071813941001892090e+00,2.000000000000000000e+00,1.185361862182617188e+01,1.670291781425476074e+00,3.363292312622070312e+01,-1.207536849975585938e+02,9.082025146484375000e+01,-7.053758239746093750e+01,3.758016967773437500e+01,-1.345177555084228516e+01,-1.071214294433593750e+02,-1.268105926513671875e+02,6.330748748779296875e+01,-4.167179107666015625e+01
1.075819015502929688e+00,2.000000000000000000e+00,1.188200950622558594e+01,1.623877763748168945e+00,3.362643814086914062e+01,-1.208073043823242188e+02,9.082211303710937500e+01,-7.056240844726562500e+01,3.750815582275390625e+01,-1.344285011291503906e+01,-1.071365509033203125e+02,-1.268649444580078125e+02,6.330319213867187500e+01,-4.170178222656250000e+01
1.079813003540039062e+00,2.000000000000000000e+00,1.191037178039550781e+01,1.577554345130920410e+00,3.361985015869140625e+01,-1.208606185913085938e+02,9.082408905029296875e+01,-7.058682250976562500e+01,3.743542861938476562e+01,-1.343401527404785156e+01,-1.071513977050781250e+02,-1.269185867309570312e+02,6.329882049560546875e+01,-4.173100662231445312e+01
1.085090994834899902e+00,2.000000000000000000e+00,1.193904972076416016e+01,1.531185626983642578e+00,3.361315917968750000e+01,-1.209148712158203125e+02,9.082604980468750000e+01,-7.061028289794921875e+01,3.736297225952148438e+01,-1.342495155334472656e+01,-1.071669540405273438e+02,-1.269735183715820312e+02,6.329459381103515625e+01,-4.176121902465820312e+01
1.088096022605895996e+00,2.000000000000000000e+00,1.199591732025146484e+01,1.438403010368347168e+00,3.360018920898437500e+01,-1.210220031738281250e+02,9.082978820800781250e+01,-7.065775299072265625e+01,3.722113800048828125e+01,-1.340700626373291016e+01,-1.071977386474609375e+02,-1.270815200805664062e+02,6.328585052490234375e+01,-4.182416915893554688e+01
1.092057943344116211e+00,2.000000000000000000e+00,1.199591732025146484e+01,1.438403010368347168e+00,3.360018920898437500e+01,-1.210220031738281250e+02,9.082978820800781250e+01,-7.065775299072265625e+01,3.722113800048828125e+01,-1.340700626373291016e+01,-1.071977386474609375e+02,-1.270815200805664062e+02,6.328585052490234375e+01,-4.182416915893554688e+01
1.094980955123901367e+00,2.000000000000000000e+00,1.202433776855468750e+01,1.392011523246765137e+00,3.359386444091796875e+01,-1.210758438110351562e+02,9.083180999755859375e+01,-7.068196868896484375e+01,3.714884567260742188e+01,-1.339798927307128906e+01,-1.072128601074218750e+02,-1.271355133056640625e+02,6.328198242187500000e+01,-4.185361480712890625e+01
1.099823951721191406e+00,2.000000000000000000e+00,1.205292987823486328e+01,1.345801234245300293e+00,3.358734130859375000e+01,-1.211288833618164062e+02,9.083378601074218750e+01,-7.070597839355468750e+01,3.707628250122070312e+01,-1.338901710510253906e+01,-1.072278137207031250e+02,-1.271901550292968750e+02,6.327783203125000000e+01,-4.188327789306640625e+01
1.103826999664306641e+00,2.000000000000000000e+00,1.208175182342529297e+01,1.299477815628051758e+00,3.358073043823242188e+01,-1.211827239990234375e+02,9.083554840087890625e+01,-7.073065948486328125e+01,3.700426864624023438e+01,-1.337995338439941406e+01,-1.072430419921875000e+02,-1.272443771362304688e+02,6.327360916137695312e+01,-4.191535568237304688e+01
1.107877016067504883e+00,2.000000000000000000e+00,1.211022853851318359e+01,1.253018617630004883e+00,3.357414245605468750e+01,-1.212365570068359375e+02,9.083746337890625000e+01,-7.075540924072265625e+01,3.693346023559570312e+01,-1.337070560455322266e+01,-1.072583312988281250e+02,-1.272990188598632812e+02,6.326952362060546875e+01,-4.194513320922851562e+01
1.111747980117797852e+00,2.000000000000000000e+00,1.216732597351074219e+01,1.160371780395507812e+00,3.356119537353515625e+01,-1.213437881469726562e+02,9.084124755859375000e+01,-7.080342864990234375e+01,3.679025268554687500e+01,-1.335262489318847656e+01,-1.072888412475585938e+02,-1.274068679809570312e+02,6.326143646240234375e+01,-4.200467681884765625e+01
