rpiRobotics/ARM-21-02-F-19-Robot-Motion-Program/data_performance_abb/curve_2/dual_arm/diffevo_pose6/grad_result/real/run_1.csv
timestamp,cmd_num,J1,J2,J3,J4,J5,J6,J1_2,J2_2,J3_2,J4_2,J5_2,J6_2
2.579999854788184166e-04,-1.000000000000000000e+00,5.492905616760253906e+00,1.202486038208007812e+01,3.508054733276367188e+01,-1.087819824218750000e+02,9.036631011962890625e+01,-6.516045379638671875e+01,5.363669204711914062e+01,-1.548919105529785156e+01,-1.037324752807617188e+02,-1.146968383789062500e+02,6.423976135253906250e+01,-3.491069030761718750e+01
1.724999980069696903e-03,-1.000000000000000000e+00,5.492848396301269531e+00,1.202486038208007812e+01,3.508057022094726562e+01,-1.087818832397460938e+02,9.036620330810546875e+01,-6.516045379638671875e+01,5.363657760620117188e+01,-1.548905372619628906e+01,-1.037325286865234375e+02,-1.146968383789062500e+02,6.423960876464843750e+01,-3.491080474853515625e+01
4.308999981731176376e-03,-1.000000000000000000e+00,5.492762088775634766e+00,1.202486038208007812e+01,3.508050918579101562e+01,-1.087820434570312500e+02,9.036620330810546875e+01,-6.516045379638671875e+01,5.363657760620117188e+01,-1.548909854888916016e+01,-1.037324752807617188e+02,-1.146968383789062500e+02,6.423960876464843750e+01,-3.491080474853515625e+01
7.288999855518341064e-03,-1.000000000000000000e+00,5.492762088775634766e+00,1.202486038208007812e+01,3.508050918579101562e+01,-1.087820434570312500e+02,9.036620330810546875e+01,-6.516045379638671875e+01,5.363657760620117188e+01,-1.548909854888916016e+01,-1.037324752807617188e+02,-1.146968383789062500e+02,6.423960876464843750e+01,-3.491080474853515625e+01
1.151499990373849869e-02,-1.000000000000000000e+00,5.492848396301269531e+00,1.202486038208007812e+01,3.508057022094726562e+01,-1.087819824218750000e+02,9.036620330810546875e+01,-6.516045379638671875e+01,5.363657760620117188e+01,-1.548919105529785156e+01,-1.037324752807617188e+02,-1.146968383789062500e+02,6.423960876464843750e+01,-3.491080474853515625e+01
1.580700092017650604e-02,-1.000000000000000000e+00,5.492905616760253906e+00,1.202486038208007812e+01,3.508050918579101562e+01,-1.087818832397460938e+02,9.036620330810546875e+01,-6.516045379638671875e+01,5.363657760620117188e+01,-1.548919105529785156e+01,-1.037325286865234375e+02,-1.146968383789062500e+02,6.423976135253906250e+01,-3.491080474853515625e+01
2.006099931895732880e-02,-1.000000000000000000e+00,5.492848396301269531e+00,1.202486038208007812e+01,3.508054733276367188e+01,-1.087819824218750000e+02,9.036631011962890625e+01,-6.516045379638671875e+01,5.363657760620117188e+01,-1.548919105529785156e+01,-1.037325286865234375e+02,-1.146968383789062500e+02,6.423976135253906250e+01,-3.491080474853515625e+01
2.397999912500381470e-02,-1.000000000000000000e+00,5.492848396301269531e+00,1.202486038208007812e+01,3.508054733276367188e+01,-1.087819824218750000e+02,9.036620330810546875e+01,-6.516045379638671875e+01,5.363657760620117188e+01,-1.548919105529785156e+01,-1.037324752807617188e+02,-1.146968383789062500e+02,6.423976135253906250e+01,-3.491069030761718750e+01
2.784099988639354706e-02,-1.000000000000000000e+00,5.492848396301269531e+00,1.202486038208007812e+01,3.508054733276367188e+01,-1.087819824218750000e+02,9.036609649658203125e+01,-6.516059112548828125e+01,5.363657760620117188e+01,-1.548919105529785156e+01,-1.037324752807617188e+02,-1.146968383789062500e+02,6.423976135253906250e+01,-3.491069030761718750e+01
3.307100012898445129e-02,-1.000000000000000000e+00,5.492905616760253906e+00,1.202486038208007812e+01,3.508054733276367188e+01,-1.087820434570312500e+02,9.036620330810546875e+01,-6.516045379638671875e+01,5.363657760620117188e+01,-1.548919105529785156e+01,-1.037325286865234375e+02,-1.146968383789062500e+02,6.423976135253906250e+01,-3.491080474853515625e+01
4.120500013232231140e-02,2.000000000000000000e+00,5.492848396301269531e+00,1.202486038208007812e+01,3.508050918579101562e+01,-1.087819824218750000e+02,9.036609649658203125e+01,-6.516045379638671875e+01,5.363657760620117188e+01,-1.548909854888916016e+01,-1.037324752807617188e+02,-1.146968383789062500e+02,6.423976135253906250e+01,-3.491080474853515625e+01
4.558499902486801147e-02,2.000000000000000000e+00,5.492905616760253906e+00,1.202490615844726562e+01,3.508054733276367188e+01,-1.087819824218750000e+02,9.036620330810546875e+01,-6.516045379638671875e+01,5.363657760620117188e+01,-1.548919105529785156e+01,-1.037324752807617188e+02,-1.146968383789062500e+02,6.423960876464843750e+01,-3.491080474853515625e+01
5.444199964404106140e-02,2.000000000000000000e+00,5.492848396301269531e+00,1.202486038208007812e+01,3.508054733276367188e+01,-1.087819824218750000e+02,9.036609649658203125e+01,-6.516045379638671875e+01,5.363657760620117188e+01,-1.548919105529785156e+01,-1.037325286865234375e+02,-1.146968383789062500e+02,6.423960876464843750e+01,-3.491080474853515625e+01
9.454499930143356323e-02,2.000000000000000000e+00,5.492905616760253906e+00,1.202486038208007812e+01,3.508054733276367188e+01,-1.087819824218750000e+02,9.036620330810546875e+01,-6.516045379638671875e+01,5.363657760620117188e+01,-1.548919105529785156e+01,-1.037325286865234375e+02,-1.146968383789062500e+02,6.423960876464843750e+01,-3.491080474853515625e+01
9.721399843692779541e-02,2.000000000000000000e+00,5.492905616760253906e+00,1.202486038208007812e+01,3.508054733276367188e+01,-1.087819824218750000e+02,9.036631011962890625e+01,-6.516045379638671875e+01,5.363657760620117188e+01,-1.548909854888916016e+01,-1.037324752807617188e+02,-1.146968383789062500e+02,6.423960876464843750e+01,-3.491080474853515625e+01
9.847199916839599609e-02,2.000000000000000000e+00,5.492905616760253906e+00,1.202486038208007812e+01,3.508054733276367188e+01,-1.087819824218750000e+02,9.036631011962890625e+01,-6.516045379638671875e+01,5.363657760620117188e+01,-1.548909854888916016e+01,-1.037324752807617188e+02,-1.146968383789062500e+02,6.423960876464843750e+01,-3.491080474853515625e+01
1.020720005035400391e-01,2.000000000000000000e+00,5.492905616760253906e+00,1.202486038208007812e+01,3.508054733276367188e+01,-1.087819824218750000e+02,9.036609649658203125e+01,-6.516045379638671875e+01,5.363657760620117188e+01,-1.548919105529785156e+01,-1.037325286865234375e+02,-1.146968383789062500e+02,6.423976135253906250e+01,-3.491069030761718750e+01
1.083490028977394104e-01,2.000000000000000000e+00,5.492991924285888672e+00,1.202476978302001953e+01,3.508057022094726562e+01,-1.087818832397460938e+02,9.036620330810546875e+01,-6.516045379638671875e+01,5.363657760620117188e+01,-1.548905372619628906e+01,-1.037324752807617188e+02,-1.146968383789062500e+02,6.423976135253906250e+01,-3.491080474853515625e+01
1.097529977560043335e-01,2.000000000000000000e+00,5.493135452270507812e+00,1.202458953857421875e+01,3.508054733276367188e+01,-1.087818832397460938e+02,9.036641693115234375e+01,-6.516045379638671875e+01,5.363657760620117188e+01,-1.548909854888916016e+01,-1.037325286865234375e+02,-1.146968383789062500e+02,6.423960876464843750e+01,-3.491080474853515625e+01
1.122199967503547668e-01,2.000000000000000000e+00,5.493135452270507812e+00,1.202458953857421875e+01,3.508054733276367188e+01,-1.087818832397460938e+02,9.036641693115234375e+01,-6.516045379638671875e+01,5.363657760620117188e+01,-1.548909854888916016e+01,-1.037325286865234375e+02,-1.146968383789062500e+02,6.423960876464843750e+01,-3.491080474853515625e+01
1.136120036244392395e-01,2.000000000000000000e+00,5.493881702423095703e+00,1.202386474609375000e+01,3.508050918579101562e+01,-1.087819824218750000e+02,9.036620330810546875e+01,-6.516045379638671875e+01,5.363646697998046875e+01,-1.548919105529785156e+01,-1.037324752807617188e+02,-1.146968383789062500e+02,6.423976135253906250e+01,-3.491080474853515625e+01
1.148959994316101074e-01,2.000000000000000000e+00,5.493881702423095703e+00,1.202386474609375000e+01,3.508050918579101562e+01,-1.087819824218750000e+02,9.036620330810546875e+01,-6.516045379638671875e+01,5.363646697998046875e+01,-1.548919105529785156e+01,-1.037324752807617188e+02,-1.146968383789062500e+02,6.423976135253906250e+01,-3.491080474853515625e+01
1.212520003318786621e-01,2.000000000000000000e+00,5.497240543365478516e+00,1.202071857452392578e+01,3.508054733276367188e+01,-1.087821426391601562e+02,9.036620330810546875e+01,-6.516045379638671875e+01,5.363504028320312500e+01,-1.548955821990966797e+01,-1.037300262451171875e+02,-1.146973495483398438e+02,6.423946380615234375e+01,-3.491113281250000000e+01
1.225939989089965820e-01,2.000000000000000000e+00,5.497240543365478516e+00,1.202071857452392578e+01,3.508054733276367188e+01,-1.087821426391601562e+02,9.036620330810546875e+01,-6.516045379638671875e+01,5.363504028320312500e+01,-1.548955821990966797e+01,-1.037300262451171875e+02,-1.146973495483398438e+02,6.423946380615234375e+01,-3.491113281250000000e+01
1.263590008020401001e-01,2.000000000000000000e+00,5.499967575073242188e+00,1.201777744293212891e+01,3.508050918579101562e+01,-1.087821960449218750e+02,9.036631011962890625e+01,-6.516045379638671875e+01,5.363256835937500000e+01,-1.549028873443603516e+01,-1.037275314331054688e+02,-1.146980590820312500e+02,6.423888397216796875e+01,-3.491135025024414062e+01
1.291970014572143555e-01,2.000000000000000000e+00,5.503383636474609375e+00,1.201368141174316406e+01,3.508054733276367188e+01,-1.087827758789062500e+02,9.036631011962890625e+01,-6.516059112548828125e+01,5.362894439697265625e+01,-1.549120521545410156e+01,-1.037262725830078125e+02,-1.146988525390625000e+02,6.423728179931640625e+01,-3.491267013549804688e+01
1.328849941492080688e-01,2.000000000000000000e+00,5.507402896881103516e+00,1.200818252563476562e+01,3.508046722412109375e+01,-1.087844085693359375e+02,9.036631011962890625e+01,-6.516092681884765625e+01,5.362421798706054688e+01,-1.549180030822753906e+01,-1.037251358032226562e+02,-1.146999282836914062e+02,6.423392486572265625e+01,-3.491476058959960938e+01
1.342319995164871216e-01,2.000000000000000000e+00,5.507402896881103516e+00,1.200818252563476562e+01,3.508046722412109375e+01,-1.087844085693359375e+02,9.036631011962890625e+01,-6.516092681884765625e+01,5.362421798706054688e+01,-1.549180030822753906e+01,-1.037251358032226562e+02,-1.146999282836914062e+02,6.423392486572265625e+01,-3.491476058959960938e+01
1.368409991264343262e-01,2.000000000000000000e+00,5.512311458587646484e+00,1.200127983093261719e+01,3.508040618896484375e+01,-1.087874603271484375e+02,9.036652374267578125e+01,-6.516147613525390625e+01,5.361779022216796875e+01,-1.549180030822753906e+01,-1.037239913940429688e+02,-1.147015838623046875e+02,6.422977447509765625e+01,-3.491607666015625000e+01
1.381919980049133301e-01,2.000000000000000000e+00,5.512311458587646484e+00,1.200127983093261719e+01,3.508040618896484375e+01,-1.087874603271484375e+02,9.036652374267578125e+01,-6.516147613525390625e+01,5.361779022216796875e+01,-1.549180030822753906e+01,-1.037239913940429688e+02,-1.147015838623046875e+02,6.422977447509765625e+01,-3.491607666015625000e+01
1.414549946784973145e-01,2.000000000000000000e+00,5.518167972564697266e+00,1.199263572692871094e+01,3.508028411865234375e+01,-1.087920989990234375e+02,9.036668395996093750e+01,-6.516316986083984375e+01,5.360922241210937500e+01,-1.549097633361816406e+01,-1.037230682373046875e+02,-1.147043151855468750e+02,6.422591400146484375e+01,-3.491761398315429688e+01
1.451420038938522339e-01,2.000000000000000000e+00,5.518167972564697266e+00,1.199263572692871094e+01,3.508028411865234375e+01,-1.087920989990234375e+02,9.036668395996093750e+01,-6.516316986083984375e+01,5.360922241210937500e+01,-1.549097633361816406e+01,-1.037230682373046875e+02,-1.147043151855468750e+02,6.422591400146484375e+01,-3.491761398315429688e+01
1.464859992265701294e-01,2.000000000000000000e+00,5.525287151336669922e+00,1.198170471191406250e+01,3.507997894287109375e+01,-1.087981033325195312e+02,9.036679077148437500e+01,-6.516635894775390625e+01,5.359828948974609375e+01,-1.548974037170410156e+01,-1.037233352661132812e+02,-1.147083282470703125e+02,6.422394561767578125e+01,-3.491904067993164062e+01
1.500429958105087280e-01,2.000000000000000000e+00,5.533669471740722656e+00,1.196842193603515625e+01,3.507936859130859375e+01,-1.088064804077148438e+02,9.036700439453125000e+01,-6.517022705078125000e+01,5.358444976806640625e+01,-1.548891544342041016e+01,-1.037296447753906250e+02,-1.147149429321289062e+02,6.422285461425781250e+01,-3.492124176025390625e+01
1.529320031404495239e-01,2.000000000000000000e+00,5.533669471740722656e+00,1.196842193603515625e+01,3.507936859130859375e+01,-1.088064804077148438e+02,9.036700439453125000e+01,-6.517022705078125000e+01,5.356719970703125000e+01,-1.548809242248535156e+01,-1.037335586547851562e+02,-1.147229766845703125e+02,6.422183227539062500e+01,-3.492431640625000000e+01
1.542360037565231323e-01,2.000000000000000000e+00,5.543601989746093750e+00,1.195310115814208984e+01,3.507849121093750000e+01,-1.088172302246093750e+02,9.036732482910156250e+01,-6.517490386962890625e+01,5.356719970703125000e+01,-1.548809242248535156e+01,-1.037335586547851562e+02,-1.147229766845703125e+02,6.422183227539062500e+01,-3.492431640625000000e+01
1.568610072135925293e-01,2.000000000000000000e+00,5.554568290710449219e+00,1.193594741821289062e+01,3.507735443115234375e+01,-1.088307647705078125e+02,9.036774444580078125e+01,-6.518066406250000000e+01,5.354594039916992188e+01,-1.548653507232666016e+01,-1.037356338500976562e+02,-1.147341079711914062e+02,6.422059631347656250e+01,-3.492969894409179688e+01
1.582330018281936646e-01,2.000000000000000000e+00,5.554568290710449219e+00,1.193594741821289062e+01,3.507735443115234375e+01,-1.088307647705078125e+02,9.036774444580078125e+01,-6.518066406250000000e+01,5.354594039916992188e+01,-1.548653507232666016e+01,-1.037356338500976562e+02,-1.147341079711914062e+02,6.422059631347656250e+01,-3.492969894409179688e+01
1.608410030603408813e-01,2.000000000000000000e+00,5.554568290710449219e+00,1.193594741821289062e+01,3.507735443115234375e+01,-1.088307647705078125e+02,9.036774444580078125e+01,-6.518066406250000000e+01,5.352029037475585938e+01,-1.548493385314941406e+01,-1.037392196655273438e+02,-1.147489013671875000e+02,6.421936035156250000e+01,-3.493695068359375000e+01
1.651449948549270630e-01,2.000000000000000000e+00,5.579256057739257812e+00,1.189609622955322266e+01,3.507377624511718750e+01,-1.088682632446289062e+02,9.036876678466796875e+01,-6.519768524169921875e+01,5.348991394042968750e+01,-1.548301124572753906e+01,-1.037439498901367188e+02,-1.147672882080078125e+02,6.421789550781250000e+01,-3.494585037231445312e+01
1.664219945669174194e-01,2.000000000000000000e+00,5.579256057739257812e+00,1.189609622955322266e+01,3.507377624511718750e+01,-1.088682632446289062e+02,9.036876678466796875e+01,-6.519768524169921875e+01,5.348991394042968750e+01,-1.548301124572753906e+01,-1.037439498901367188e+02,-1.147672882080078125e+02,6.421789550781250000e+01,-3.494585037231445312e+01
1.702249944210052490e-01,2.000000000000000000e+00,5.593121051788330078e+00,1.187391853332519531e+01,3.507105255126953125e+01,-1.088934478759765625e+02,9.036950683593750000e+01,-6.520860290527343750e+01,5.345365905761718750e+01,-1.547994422912597656e+01,-1.037509689331054688e+02,-1.147904663085937500e+02,6.421651458740234375e+01,-3.495749664306640625e+01
1.728190034627914429e-01,2.000000000000000000e+00,5.593121051788330078e+00,1.187391853332519531e+01,3.507105255126953125e+01,-1.088934478759765625e+02,9.036950683593750000e+01,-6.520860290527343750e+01,5.345365905761718750e+01,-1.547994422912597656e+01,-1.037509689331054688e+02,-1.147904663085937500e+02,6.421651458740234375e+01,-3.495749664306640625e+01
1.778790056705474854e-01,2.000000000000000000e+00,5.623808860778808594e+00,1.182449531555175781e+01,3.506401443481445312e+01,-1.089560241699218750e+02,9.037126922607421875e+01,-6.523573303222656250e+01,5.336988830566406250e+01,-1.547083473205566406e+01,-1.037676620483398438e+02,-1.148509292602539062e+02,6.421302032470703125e+01,-3.498935699462890625e+01
1.791339963674545288e-01,2.000000000000000000e+00,5.623808860778808594e+00,1.182449531555175781e+01,3.506401443481445312e+01,-1.089560241699218750e+02,9.037126922607421875e+01,-6.523573303222656250e+01,5.336988830566406250e+01,-1.547083473205566406e+01,-1.037676620483398438e+02,-1.148509292602539062e+02,6.421302032470703125e+01,-3.498935699462890625e+01
1.827919930219650269e-01,2.000000000000000000e+00,5.640659809112548828e+00,1.179702281951904297e+01,3.505982971191406250e+01,-1.089914169311523438e+02,9.037249755859375000e+01,-6.525173187255859375e+01,5.332291793823242188e+01,-1.546497440338134766e+01,-1.037795181274414062e+02,-1.148885650634765625e+02,6.421054077148437500e+01,-3.500858306884765625e+01
1.853920072317123413e-01,2.000000000000000000e+00,5.658544063568115234e+00,1.176726436614990234e+01,3.505523681640625000e+01,-1.090296096801757812e+02,9.037335205078125000e+01,-6.526937103271484375e+01,5.327282333374023438e+01,-1.545797157287597656e+01,-1.037935485839843750e+02,-1.149303512573242188e+02,6.420806121826171875e+01,-3.503055572509765625e+01
1.892720013856887817e-01,2.000000000000000000e+00,5.677490711212158203e+00,1.173542404174804688e+01,3.505025482177734375e+01,-1.090732269287109375e+02,9.037452697753906250e+01,-6.528863525390625000e+01,5.322041702270507812e+01,-1.545018863677978516e+01,-1.038083419799804688e+02,-1.149760894775390625e+02,6.420543670654296875e+01,-3.505527496337890625e+01
1.905879974365234375e-01,2.000000000000000000e+00,5.677490711212158203e+00,1.173542404174804688e+01,3.505025482177734375e+01,-1.090732269287109375e+02,9.037452697753906250e+01,-6.528863525390625000e+01,5.322041702270507812e+01,-1.545018863677978516e+01,-1.038083419799804688e+02,-1.149760894775390625e+02,6.420543670654296875e+01,-3.505527496337890625e+01
1.930889934301376343e-01,2.000000000000000000e+00,5.697556495666503906e+00,1.170166015625000000e+01,3.504500961303710938e+01,-1.091199951171875000e+02,9.037574768066406250e+01,-6.530904388427734375e+01,5.316537857055664062e+01,-1.544181156158447266e+01,-1.038242263793945312e+02,-1.150252075195312500e+02,6.420245361328125000e+01,-3.508306884765625000e+01
1.970209926366806030e-01,2.000000000000000000e+00,5.697556495666503906e+00,1.170166015625000000e+01,3.504500961303710938e+01,-1.091199951171875000e+02,9.037574768066406250e+01,-6.530904388427734375e+01,5.316537857055664062e+01,-1.544181156158447266e+01,-1.038242263793945312e+02,-1.150252075195312500e+02,6.420245361328125000e+01,-3.508306884765625000e+01
2.011100053787231445e-01,2.000000000000000000e+00,5.739554882049560547e+00,1.162953853607177734e+01,3.503340148925781250e+01,-1.092165527343750000e+02,9.037857055664062500e+01,-6.535379791259765625e+01,5.304408645629882812e+01,-1.542450904846191406e+01,-1.038575668334960938e+02,-1.151293258666992188e+02,6.419618225097656250e+01,-3.514096832275390625e+01
2.028139978647232056e-01,2.000000000000000000e+00,5.739554882049560547e+00,1.162953853607177734e+01,3.503340148925781250e+01,-1.092165527343750000e+02,9.037857055664062500e+01,-6.535379791259765625e+01,5.304408645629882812e+01,-1.542450904846191406e+01,-1.038575668334960938e+02,-1.151293258666992188e+02,6.419618225097656250e+01,-3.514096832275390625e+01
2.067839950323104858e-01,2.000000000000000000e+00,5.761630535125732422e+00,1.159122657775878906e+01,3.502709579467773438e+01,-1.092684326171875000e+02,9.038017272949218750e+01,-6.537780761718750000e+01,5.297745513916015625e+01,-1.541526222229003906e+01,-1.038739395141601562e+02,-1.151839675903320312e+02,6.419305419921875000e+01,-3.517205810546875000e+01
2.107660025358200073e-01,2.000000000000000000e+00,5.784825325012207031e+00,1.155108070373535156e+01,3.502071380615234375e+01,-1.093213195800781250e+02,9.038188171386718750e+01,-6.540188598632812500e+01,5.290829467773437500e+01,-1.540619850158691406e+01,-1.038902511596679688e+02,-1.152385406494140625e+02,6.418940734863281250e+01,-3.520347976684570312e+01
2.169760018587112427e-01,2.000000000000000000e+00,5.809312343597412109e+00,1.150910186767578125e+01,3.501436614990234375e+01,-1.093745193481445312e+02,9.038359069824218750e+01,-6.542514801025390625e+01,5.283798217773437500e+01,-1.539717960357666016e+01,-1.039064025878906250e+02,-1.152929687500000000e+02,6.418554687500000000e+01,-3.523380279541015625e+01
2.211100012063980103e-01,2.000000000000000000e+00,5.834976196289062500e+00,1.146547126770019531e+01,3.500794219970703125e+01,-1.094283981323242188e+02,9.038539886474609375e+01,-6.544881439208984375e+01,5.276673507690429688e+01,-1.538807106018066406e+01,-1.039220733642578125e+02,-1.153476867675781250e+02,6.418197631835937500e+01,-3.526335525512695312e+01
2.227690070867538452e-01,2.000000000000000000e+00,5.861701965332031250e+00,1.142050552368164062e+01,3.500139617919921875e+01,-1.094822387695312500e+02,9.038731384277343750e+01,-6.547296142578125000e+01,5.269411849975585938e+01,-1.537877941131591797e+01,-1.039371337890625000e+02,-1.154031906127929688e+02,6.417818450927734375e+01,-3.529455566406250000e+01
2.268700003623962402e-01,2.000000000000000000e+00,5.889232158660888672e+00,1.137436389923095703e+01,3.499493026733398438e+01,-1.095370712280273438e+02,9.038912963867187500e+01,-6.549757385253906250e+01,5.262072753906250000e+01,-1.536911964416503906e+01,-1.039524765014648438e+02,-1.154586257934570312e+02,6.417418670654296875e+01,-3.532630538940429688e+01
2.307839989662170410e-01,2.000000000000000000e+00,5.917536735534667969e+00,1.132738399505615234e+01,3.498858642578125000e+01,-1.095913238525390625e+02,9.039115142822265625e+01,-6.552239227294921875e+01,5.254684448242187500e+01,-1.535964393615722656e+01,-1.039678115844726562e+02,-1.155142745971679688e+02,6.416995239257812500e+01,-3.535641098022460938e+01
2.371149957180023193e-01,2.000000000000000000e+00,5.917536735534667969e+00,1.132738399505615234e+01,3.498858642578125000e+01,-1.095913238525390625e+02,9.039115142822265625e+01,-6.552239227294921875e+01,5.247351455688476562e+01,-1.535030555725097656e+01,-1.039829864501953125e+02,-1.155694274902343750e+02,6.416631317138671875e+01,-3.538695144653320312e+01
2.388409972190856934e-01,2.000000000000000000e+00,5.975409984588623047e+00,1.123283576965332031e+01,3.497577667236328125e+01,-1.097003021240234375e+02,9.039542388916015625e+01,-6.557250976562500000e+01,5.240133285522460938e+01,-1.534101295471191406e+01,-1.039980010986328125e+02,-1.156243515014648438e+02,6.416259765625000000e+01,-3.541870117187500000e+01
2.463749945163726807e-01,2.000000000000000000e+00,5.975409984588623047e+00,1.123283576965332031e+01,3.497577667236328125e+01,-1.097003021240234375e+02,9.039542388916015625e+01,-6.557250976562500000e+01,5.232887649536132812e+01,-1.533181095123291016e+01,-1.040130615234375000e+02,-1.156800079345703125e+02,6.415837097167968750e+01,-3.545133209228515625e+01
2.478020042181015015e-01,2.000000000000000000e+00,6.033454895019531250e+00,1.113815307617187500e+01,3.496248245239257812e+01,-1.098095016479492188e+02,9.039931488037109375e+01,-6.562072753906250000e+01,5.225559997558593750e+01,-1.532242774963378906e+01,-1.040283432006835938e+02,-1.157350158691406250e+02,6.415465545654296875e+01,-3.548231124877929688e+01
2.518410086631774902e-01,2.000000000000000000e+00,6.062362670898437500e+00,1.109083271026611328e+01,3.495566940307617188e+01,-1.098642272949218750e+02,9.040123748779296875e+01,-6.564459991455078125e+01,5.218154907226562500e+01,-1.531304359436035156e+01,-1.040441131591796875e+02,-1.157890853881835938e+02,6.415071868896484375e+01,-3.551274490356445312e+01
2.554819881916046143e-01,2.000000000000000000e+00,6.091500282287597656e+00,1.104356002807617188e+01,3.494902038574218750e+01,-1.099181137084960938e+02,9.040331268310546875e+01,-6.566901397705078125e+01,5.210805130004882812e+01,-1.530384159088134766e+01,-1.040598373413085938e+02,-1.158444519042968750e+02,6.414707183837890625e+01,-3.554416656494140625e+01
2.597649991512298584e-01,2.000000000000000000e+00,6.120580196380615234e+00,1.099642086029052734e+01,3.494224929809570312e+01,-1.099730987548828125e+02,9.040538787841796875e+01,-6.569376373291015625e+01,5.203548431396484375e+01,-1.529454898834228516e+01,-1.040753402709960938e+02,-1.158999481201171875e+02,6.414321899414062500e+01,-3.557580566406250000e+01
2.638610005378723145e-01,2.000000000000000000e+00,6.149688720703125000e+00,1.094898891448974609e+01,3.493566513061523438e+01,-1.100273590087890625e+02,9.040741729736328125e+01,-6.571851348876953125e+01,5.196303176879882812e+01,-1.528543949127197266e+01,-1.040901336669921875e+02,-1.159551696777343750e+02,6.413920593261718750e+01,-3.560612869262695312e+01
2.669039964675903320e-01,2.000000000000000000e+00,6.178510665893554688e+00,1.090176105499267578e+01,3.492924118041992188e+01,-1.100818786621093750e+02,9.040954589843750000e+01,-6.574361419677734375e+01,5.188931274414062500e+01,-1.527605628967285156e+01,-1.041052551269531250e+02,-1.160102462768554688e+02,6.413534545898437500e+01,-3.563677978515625000e+01
2.718310058116912842e-01,2.000000000000000000e+00,6.178510665893554688e+00,1.090176105499267578e+01,3.492924118041992188e+01,-1.100818786621093750e+02,9.040954589843750000e+01,-6.574361419677734375e+01,5.188931274414062500e+01,-1.527605628967285156e+01,-1.041052551269531250e+02,-1.160102462768554688e+02,6.413534545898437500e+01,-3.563677978515625000e+01
2.747820019721984863e-01,2.000000000000000000e+00,6.236096382141113281e+00,1.080775547027587891e+01,3.491624450683593750e+01,-1.101900711059570312e+02,9.041349792480468750e+01,-6.579230499267578125e+01,5.174264526367187500e+01,-1.525687503814697266e+01,-1.041360321044921875e+02,-1.161205368041992188e+02,6.412754821777343750e+01,-3.570170974731445312e+01
2.798230051994323730e-01,2.000000000000000000e+00,6.236096382141113281e+00,1.080775547027587891e+01,3.491624450683593750e+01,-1.101900711059570312e+02,9.041349792480468750e+01,-6.579230499267578125e+01,5.174264526367187500e+01,-1.525687503814697266e+01,-1.041360321044921875e+02,-1.161205368041992188e+02,6.412754821777343750e+01,-3.570170974731445312e+01
2.827810049057006836e-01,2.000000000000000000e+00,6.293768405914306641e+00,1.071397781372070312e+01,3.490307235717773438e+01,-1.102992095947265625e+02,9.041770935058593750e+01,-6.584038543701171875e+01,5.159833908081054688e+01,-1.523838233947753906e+01,-1.041661071777343750e+02,-1.162296829223632812e+02,6.411982727050781250e+01,-3.576312255859375000e+01
2.878699898719787598e-01,2.000000000000000000e+00,6.293768405914306641e+00,1.071397781372070312e+01,3.490307235717773438e+01,-1.102992095947265625e+02,9.041770935058593750e+01,-6.584038543701171875e+01,5.159833908081054688e+01,-1.523838233947753906e+01,-1.041661071777343750e+02,-1.162296829223632812e+02,6.411982727050781250e+01,-3.576312255859375000e+01
2.907699942588806152e-01,2.000000000000000000e+00,6.351526737213134766e+00,1.062022113800048828e+01,3.488985824584960938e+01,-1.104077224731445312e+02,9.042170715332031250e+01,-6.588921356201171875e+01,5.145112609863281250e+01,-1.521979618072509766e+01,-1.041968917846679688e+02,-1.163407745361328125e+02,6.411137390136718750e+01,-3.582431411743164062e+01
2.960149943828582764e-01,2.000000000000000000e+00,6.351526737213134766e+00,1.062022113800048828e+01,3.488985824584960938e+01,-1.104077224731445312e+02,9.042170715332031250e+01,-6.588921356201171875e+01,5.145112609863281250e+01,-1.521979618072509766e+01,-1.041968917846679688e+02,-1.163407745361328125e+02,6.411137390136718750e+01,-3.582431411743164062e+01
2.988390028476715088e-01,2.000000000000000000e+00,6.408882617950439453e+00,1.052678203582763672e+01,3.487700653076171875e+01,-1.105164947509765625e+02,9.042591857910156250e+01,-6.593967437744140625e+01,5.130681610107421875e+01,-1.520089149475097656e+01,-1.042277832031250000e+02,-1.164510650634765625e+02,6.410343170166015625e+01,-3.588693618774414062e+01
3.038150072097778320e-01,2.000000000000000000e+00,6.408882617950439453e+00,1.052678203582763672e+01,3.487700653076171875e+01,-1.105164947509765625e+02,9.042591857910156250e+01,-6.593967437744140625e+01,5.130681610107421875e+01,-1.520089149475097656e+01,-1.042277832031250000e+02,-1.164510650634765625e+02,6.410343170166015625e+01,-3.588693618774414062e+01
3.067800104618072510e-01,2.000000000000000000e+00,6.466813564300537109e+00,1.043350124359130859e+01,3.486421585083007812e+01,-1.106253662109375000e+02,9.042981719970703125e+01,-6.598795318603515625e+01,5.116135787963867188e+01,-1.518230533599853516e+01,-1.042582931518554688e+02,-1.165613632202148438e+02,6.409476470947265625e+01,-3.594769287109375000e+01
3.118369877338409424e-01,2.000000000000000000e+00,6.466813564300537109e+00,1.043350124359130859e+01,3.486421585083007812e+01,-1.106253662109375000e+02,9.042981719970703125e+01,-6.598795318603515625e+01,5.116135787963867188e+01,-1.518230533599853516e+01,-1.042582931518554688e+02,-1.165613632202148438e+02,6.409476470947265625e+01,-3.594769287109375000e+01
3.147960007190704346e-01,2.000000000000000000e+00,6.524485111236572266e+00,1.034022140502929688e+01,3.485110092163085938e+01,-1.107343444824218750e+02,9.043407440185546875e+01,-6.603624725341796875e+01,5.101518630981445312e+01,-1.516330909729003906e+01,-1.042889175415039062e+02,-1.166717224121093750e+02,6.408653259277343750e+01,-3.600888824462890625e+01
3.223139941692352295e-01,2.000000000000000000e+00,6.524485111236572266e+00,1.034022140502929688e+01,3.485110092163085938e+01,-1.107343444824218750e+02,9.043407440185546875e+01,-6.603624725341796875e+01,5.101518630981445312e+01,-1.516330909729003906e+01,-1.042889175415039062e+02,-1.166717224121093750e+02,6.408653259277343750e+01,-3.600888824462890625e+01
3.237349987030029297e-01,2.000000000000000000e+00,6.581956386566162109e+00,1.024698638916015625e+01,3.483774566650390625e+01,-1.108431243896484375e+02,9.043817901611328125e+01,-6.608560943603515625e+01,5.087099075317382812e+01,-1.514513492584228516e+01,-1.043198623657226562e+02,-1.167812881469726562e+02,6.407836914062500000e+01,-3.607172775268554688e+01
3.277969956398010254e-01,2.000000000000000000e+00,6.610921382904052734e+00,1.020034503936767578e+01,3.483109664916992188e+01,-1.108974761962890625e+02,9.044031524658203125e+01,-6.611057281494140625e+01,5.079787445068359375e+01,-1.513607120513916016e+01,-1.043351440429687500e+02,-1.168367233276367188e+02,6.407414245605468750e+01,-3.610249328613281250e+01
3.307679891586303711e-01,2.000000000000000000e+00,6.639771461486816406e+00,1.015350246429443359e+01,3.482448959350585938e+01,-1.109518432617187500e+02,9.044245147705078125e+01,-6.613566589355468750e+01,5.072470855712890625e+01,-1.512687110900878906e+01,-1.043502120971679688e+02,-1.168916702270507812e+02,6.407035064697265625e+01,-3.613358306884765625e+01
3.358649909496307373e-01,2.000000000000000000e+00,6.639771461486816406e+00,1.015350246429443359e+01,3.482448959350585938e+01,-1.109518432617187500e+02,9.044245147705078125e+01,-6.613566589355468750e+01,5.072470855712890625e+01,-1.512687110900878906e+01,-1.043502120971679688e+02,-1.168916702270507812e+02,6.407035064697265625e+01,-3.613358306884765625e+01
3.388409912586212158e-01,2.000000000000000000e+00,6.696927070617675781e+00,1.005970096588134766e+01,3.481159973144531250e+01,-1.110598754882812500e+02,9.044670867919921875e+01,-6.618367004394531250e+01,5.058012771606445312e+01,-1.510851478576660156e+01,-1.043814849853515625e+02,-1.170025329589843750e+02,6.406190490722656250e+01,-3.619631576538085938e+01
3.438119888305664062e-01,2.000000000000000000e+00,6.696927070617675781e+00,1.005970096588134766e+01,3.481159973144531250e+01,-1.110598754882812500e+02,9.044670867919921875e+01,-6.618367004394531250e+01,5.058012771606445312e+01,-1.510851478576660156e+01,-1.043814849853515625e+02,-1.170025329589843750e+02,6.406190490722656250e+01,-3.619631576538085938e+01
3.477590084075927734e-01,2.000000000000000000e+00,6.754254817962646484e+00,9.965696334838867188e+00,3.479825973510742188e+01,-1.111689682006835938e+02,9.045114135742187500e+01,-6.623217010498046875e+01,5.043478012084960938e+01,-1.509002113342285156e+01,-1.044123229980468750e+02,-1.171121749877929688e+02,6.405359649658203125e+01,-3.625684738159179688e+01
3.542500138282775879e-01,2.000000000000000000e+00,6.783277034759521484e+00,9.918648719787597656e+00,3.479165267944335938e+01,-1.112232742309570312e+02,9.045326995849609375e+01,-6.625678253173828125e+01,5.036144256591796875e+01,-1.508072853088378906e+01,-1.044273376464843750e+02,-1.171676864624023438e+02,6.404965972900390625e+01,-3.628936767578125000e+01
3.556799888610839844e-01,2.000000000000000000e+00,6.812127590179443359e+00,9.871623992919921875e+00,3.478500366210937500e+01,-1.112774200439453125e+02,9.045529937744140625e+01,-6.628133392333984375e+01,5.028855133056640625e+01,-1.507120704650878906e+01,-1.044423446655273438e+02,-1.172217559814453125e+02,6.404557800292968750e+01,-3.632001876831054688e+01
3.607789874076843262e-01,2.000000000000000000e+00,6.812127590179443359e+00,9.871623992919921875e+00,3.478500366210937500e+01,-1.112774200439453125e+02,9.045529937744140625e+01,-6.628133392333984375e+01,5.028855133056640625e+01,-1.507120704650878906e+01,-1.044423446655273438e+02,-1.172217559814453125e+02,6.404557800292968750e+01,-3.632001876831054688e+01
3.634450137615203857e-01,2.000000000000000000e+00,6.869856834411621094e+00,9.777302742004394531e+00,3.477178955078125000e+01,-1.113856658935546875e+02,9.046004486083984375e+01,-6.633152008056640625e+01,5.014380645751953125e+01,-1.505179691314697266e+01,-1.044728546142578125e+02,-1.173324050903320312e+02,6.403749084472656250e+01,-3.637967300415039062e+01
3.678309917449951172e-01,2.000000000000000000e+00,6.869856834411621094e+00,9.777302742004394531e+00,3.477178955078125000e+01,-1.113856658935546875e+02,9.046004486083984375e+01,-6.633152008056640625e+01,5.014380645751953125e+01,-1.505179691314697266e+01,-1.044728546142578125e+02,-1.173324050903320312e+02,6.403749084472656250e+01,-3.637967300415039062e+01
3.728240132331848145e-01,2.000000000000000000e+00,6.927730083465576172e+00,9.683048248291015625e+00,3.475891876220703125e+01,-1.114948043823242188e+02,9.046430969238281250e+01,-6.637892150878906250e+01,4.999735641479492188e+01,-1.503316593170166016e+01,-1.045029373168945312e+02,-1.174427032470703125e+02,6.402838897705078125e+01,-3.644119644165039062e+01
3.763679862022399902e-01,2.000000000000000000e+00,6.957010746002197266e+00,9.636181831359863281e+00,3.475234985351562500e+01,-1.115493698120117188e+02,9.046681213378906250e+01,-6.640265655517578125e+01,4.992473983764648438e+01,-1.502355289459228516e+01,-1.045179977416992188e+02,-1.174969863891601562e+02,6.402416229248046875e+01,-3.646987533569335938e+01
3.798649907112121582e-01,2.000000000000000000e+00,6.985861301422119141e+00,9.589134216308593750e+00,3.474566268920898438e+01,-1.116032638549804688e+02,9.046883392333984375e+01,-6.642740631103515625e+01,4.985310745239257812e+01,-1.501407718658447266e+01,-1.045336074829101562e+02,-1.175521316528320312e+02,6.402051544189453125e+01,-3.650063323974609375e+01
3.848179876804351807e-01,2.000000000000000000e+00,6.985861301422119141e+00,9.589134216308593750e+00,3.474566268920898438e+01,-1.116032638549804688e+02,9.046883392333984375e+01,-6.642740631103515625e+01,4.978070831298828125e+01,-1.500460243225097656e+01,-1.045487823486328125e+02,-1.176074981689453125e+02,6.401614379882812500e+01,-3.653194808959960938e+01
3.875179886817932129e-01,2.000000000000000000e+00,7.043848991394042969e+00,9.495243072509765625e+00,3.473226547241210938e+01,-1.117121353149414062e+02,9.047352600097656250e+01,-6.647691345214843750e+01,4.970742797851562500e+01,-1.499535560607910156e+01,-1.045639572143554688e+02,-1.176613464355468750e+02,6.401118469238281250e+01,-3.656248855590820312e+01
3.918099999427795410e-01,2.000000000000000000e+00,7.043848991394042969e+00,9.495243072509765625e+00,3.473226547241210938e+01,-1.117121353149414062e+02,9.047352600097656250e+01,-6.647691345214843750e+01,4.970742797851562500e+01,-1.499535560607910156e+01,-1.045639572143554688e+02,-1.176613464355468750e+02,6.401118469238281250e+01,-3.656248855590820312e+01
3.970099985599517822e-01,2.000000000000000000e+00,7.072756767272949219e+00,9.448217391967773438e+00,3.472555160522460938e+01,-1.117660751342773438e+02,9.047587585449218750e+01,-6.650166320800781250e+01,4.963360214233398438e+01,-1.498606204986572266e+01,-1.045786972045898438e+02,-1.177155685424804688e+02,6.400703430175781250e+01,-3.659215164184570312e+01
4.006580114364624023e-01,2.000000000000000000e+00,7.130371570587158203e+00,9.354598045349121094e+00,3.471217727661132812e+01,-1.118745880126953125e+02,9.048024749755859375e+01,-6.654940795898437500e+01,4.948923873901367188e+01,-1.496660804748535156e+01,-1.046094207763671875e+02,-1.178262176513671875e+02,6.399865341186523438e+01,-3.665510177612304688e+01
4.037750065326690674e-01,2.000000000000000000e+00,7.159106731414794922e+00,9.307911872863769531e+00,3.470575332641601562e+01,-1.119280014038085938e+02,9.048275756835937500e+01,-6.657315063476562500e+01,4.941672897338867188e+01,-1.495736122131347656e+01,-1.046249771118164062e+02,-1.178811569213867188e+02,6.399414062500000000e+01,-3.668597412109375000e+01
4.078100025653839111e-01,2.000000000000000000e+00,7.159106731414794922e+00,9.307911872863769531e+00,3.470575332641601562e+01,-1.119280014038085938e+02,9.048275756835937500e+01,-6.657315063476562500e+01,4.941672897338867188e+01,-1.495736122131347656e+01,-1.046249771118164062e+02,-1.178811569213867188e+02,6.399414062500000000e+01,-3.668597412109375000e+01
4.118820130825042725e-01,2.000000000000000000e+00,7.187554836273193359e+00,9.261158943176269531e+00,3.469928359985351562e+01,-1.119828338623046875e+02,9.048467254638671875e+01,-6.659708404541015625e+01,4.934328842163085938e+01,-1.494825172424316406e+01,-1.046401519775390625e+02,-1.179360885620117188e+02,6.399020385742187500e+01,-3.671563720703125000e+01
4.158119857311248779e-01,2.000000000000000000e+00,7.216692447662353516e+00,9.214360237121582031e+00,3.469261932373046875e+01,-1.120367126464843750e+02,9.048712921142578125e+01,-6.662150573730468750e+01,4.927017593383789062e+01,-1.493923377990722656e+01,-1.046553268432617188e+02,-1.179910125732421875e+02,6.398634719848632812e+01,-3.674673080444335938e+01
4.198119938373565674e-01,2.000000000000000000e+00,7.245485305786132812e+00,9.167788505554199219e+00,3.468598937988281250e+01,-1.120908660888671875e+02,9.048957824707031250e+01,-6.664618682861328125e+01,4.919799423217773438e+01,-1.493007850646972656e+01,-1.046707153320312500e+02,-1.180462265014648438e+02,6.398218536376953125e+01,-3.677770996093750000e+01
4.270119965076446533e-01,2.000000000000000000e+00,7.303358078002929688e+00,9.074235916137695312e+00,3.467275238037109375e+01,-1.121985855102539062e+02,9.049421691894531250e+01,-6.669583129882812500e+01,4.898051834106445312e+01,-1.490233707427978516e+01,-1.047167358398437500e+02,-1.182095947265625000e+02,6.396987915039062500e+01,-3.687164306640625000e+01
4.283959865570068359e-01,2.000000000000000000e+00,7.332093715667724609e+00,9.027640342712402344e+00,3.466622543334960938e+01,-1.122531051635742188e+02,9.049634552001953125e+01,-6.671929931640625000e+01,4.898051834106445312e+01,-1.490233707427978516e+01,-1.047167358398437500e+02,-1.182095947265625000e+02,6.396987915039062500e+01,-3.687164306640625000e+01
4.327709972858428955e-01,2.000000000000000000e+00,7.360801219940185547e+00,8.980910301208496094e+00,3.465963745117187500e+01,-1.123075103759765625e+02,9.049848175048828125e+01,-6.674296569824218750e+01,4.890729522705078125e+01,-1.489327335357666016e+01,-1.047320632934570312e+02,-1.182645874023437500e+02,6.396543121337890625e+01,-3.690273284912109375e+01
4.354529976844787598e-01,2.000000000000000000e+00,7.389880657196044922e+00,8.934156417846679688e+00,3.465327453613281250e+01,-1.123612899780273438e+02,9.050082397460937500e+01,-6.676690673828125000e+01,4.883467483520507812e+01,-1.488407325744628906e+01,-1.047474594116210938e+02,-1.183193130493164062e+02,6.396112823486328125e+01,-3.693360519409179688e+01
4.398840069770812988e-01,2.000000000000000000e+00,7.389880657196044922e+00,8.934156417846679688e+00,3.465327453613281250e+01,-1.123612899780273438e+02,9.050082397460937500e+01,-6.676690673828125000e+01,4.883467483520507812e+01,-1.488407325744628906e+01,-1.047474594116210938e+02,-1.183193130493164062e+02,6.396112823486328125e+01,-3.693360519409179688e+01
4.438790082931518555e-01,2.000000000000000000e+00,7.418673992156982422e+00,8.887448310852050781e+00,3.464685058593750000e+01,-1.124159698486328125e+02,9.050312042236328125e+01,-6.679103851318359375e+01,4.876293563842773438e+01,-1.487464237213134766e+01,-1.047629013061523438e+02,-1.183745269775390625e+02,6.395705032348632812e+01,-3.696316146850585938e+01
4.479509890079498291e-01,2.000000000000000000e+00,7.447351455688476562e+00,8.840740203857421875e+00,3.464038467407226562e+01,-1.124701156616210938e+02,9.050514221191406250e+01,-6.681552886962890625e+01,4.869075393676757812e+01,-1.486525821685791016e+01,-1.047782974243164062e+02,-1.184294586181640625e+02,6.395304107666015625e+01,-3.699381256103515625e+01
4.518220126628875732e-01,2.000000000000000000e+00,7.504937648773193359e+00,8.747279167175292969e+00,3.462700653076171875e+01,-1.125783081054687500e+02,9.050956726074218750e+01,-6.686550140380859375e+01,4.854441452026367188e+01,-1.484704017639160156e+01,-1.048092498779296875e+02,-1.185391769409179688e+02,6.394393920898437500e+01,-3.705379867553710938e+01
4.558590054512023926e-01,2.000000000000000000e+00,7.504937648773193359e+00,8.747279167175292969e+00,3.462700653076171875e+01,-1.125783081054687500e+02,9.050956726074218750e+01,-6.686550140380859375e+01,4.854441452026367188e+01,-1.484704017639160156e+01,-1.048092498779296875e+02,-1.185391769409179688e+02,6.394393920898437500e+01,-3.705379867553710938e+01
4.598079919815063477e-01,2.000000000000000000e+00,7.533788204193115234e+00,8.700502395629882812e+00,3.462037658691406250e+01,-1.126322479248046875e+02,9.051186370849609375e+01,-6.688957977294921875e+01,4.847174072265625000e+01,-1.483788394927978516e+01,-1.048242568969726562e+02,-1.185933990478515625e+02,6.393964004516601562e+01,-3.708367919921875000e+01
4.638090133666992188e-01,2.000000000000000000e+00,7.562667369842529297e+00,8.653500556945800781e+00,3.461366653442382812e+01,-1.126864471435546875e+02,9.051393890380859375e+01,-6.691331481933593750e+01,4.840000152587890625e+01,-1.482859230041503906e+01,-1.048393783569335938e+02,-1.186479721069335938e+02,6.393569946289062500e+01,-3.711433029174804688e+01
4.678870141506195068e-01,2.000000000000000000e+00,7.591259479522705078e+00,8.606678962707519531e+00,3.460697937011718750e+01,-1.127404937744140625e+02,9.051602172851562500e+01,-6.693678283691406250e+01,4.832770919799804688e+01,-1.481939125061035156e+01,-1.048544387817382812e+02,-1.187030487060546875e+02,6.393162155151367188e+01,-3.714410781860351562e+01
4.718280136585235596e-01,2.000000000000000000e+00,7.619822502136230469e+00,8.559903144836425781e+00,3.460041427612304688e+01,-1.127939605712890625e+02,9.051809692382812500e+01,-6.696079254150390625e+01,4.825465011596679688e+01,-1.481028175354003906e+01,-1.048699417114257812e+02,-1.187572555541992188e+02,6.392695999145507812e+01,-3.717299652099609375e+01
4.761790037155151367e-01,2.000000000000000000e+00,7.648614883422851562e+00,8.512878417968750000e+00,3.459390640258789062e+01,-1.128482055664062500e+02,9.052033996582031250e+01,-6.698561096191406250e+01,4.818148422241210938e+01,-1.480112552642822266e+01,-1.048851699829101562e+02,-1.188122634887695312e+02,6.392244338989257812e+01,-3.720376205444335938e+01
4.790369868278503418e-01,2.000000000000000000e+00,7.677293300628662109e+00,8.465966224670410156e+00,3.458737945556640625e+01,-1.129021987915039062e+02,9.052236938476562500e+01,-6.700995635986328125e+01,4.810957717895507812e+01,-1.479187965393066406e+01,-1.049004516601562500e+02,-1.188676986694335938e+02,6.391807174682617188e+01,-3.723583984375000000e+01
4.832060039043426514e-01,2.000000000000000000e+00,7.706287384033203125e+00,8.419235229492187500e+00,3.458073425292968750e+01,-1.129564056396484375e+02,9.052455902099609375e+01,-6.703491210937500000e+01,4.803821945190429688e+01,-1.478263282775878906e+01,-1.049157333374023438e+02,-1.189216308593750000e+02,6.391435623168945312e+01,-3.726726150512695312e+01
4.870220124721527100e-01,2.000000000000000000e+00,7.735281467437744141e+00,8.372210502624511719e+00,3.457406234741210938e+01,-1.130105590820312500e+02,9.052642059326171875e+01,-6.705966186523437500e+01,4.796570968627929688e+01,-1.477329444885253906e+01,-1.049310684204101562e+02,-1.189761886596679688e+02,6.391049194335937500e+01,-3.729769134521484375e+01
4.912549853324890137e-01,2.000000000000000000e+00,7.764045238494873047e+00,8.325321197509765625e+00,3.456741333007812500e+01,-1.130642242431640625e+02,9.052866363525390625e+01,-6.708367156982421875e+01,4.789248657226562500e+01,-1.476377296447753906e+01,-1.049460830688476562e+02,-1.190309066772460938e+02,6.390605163574218750e+01,-3.732790756225585938e+01
4.954000115394592285e-01,2.000000000000000000e+00,7.792809486389160156e+00,8.278296470642089844e+00,3.456070327758789062e+01,-1.131184310913085938e+02,9.053057861328125000e+01,-6.710768127441406250e+01,4.781959152221679688e+01,-1.475438880920410156e+01,-1.049614257812500000e+02,-1.190846252441406250e+02,6.390160369873046875e+01,-3.735899734497070312e+01
5.029659867286682129e-01,2.000000000000000000e+00,7.821660518646240234e+00,8.231316566467285156e+00,3.455407714843750000e+01,-1.131726303100585938e+02,9.053250122070312500e+01,-6.713141632080078125e+01,4.774801635742187500e+01,-1.474537086486816406e+01,-1.049766464233398438e+02,-1.191394805908203125e+02,6.389745330810546875e+01,-3.738943099975585938e+01
5.045819878578186035e-01,2.000000000000000000e+00,7.879303932189941406e+00,8.137968063354492188e+00,3.454114532470703125e+01,-1.132810287475585938e+02,9.053639221191406250e+01,-6.718024444580078125e+01,4.760387802124023438e+01,-1.472678661346435547e+01,-1.050068359375000000e+02,-1.192488327026367188e+02,6.388928985595703125e+01,-3.744941711425781250e+01
5.078970193862915039e-01,2.000000000000000000e+00,7.879303932189941406e+00,8.137968063354492188e+00,3.454114532470703125e+01,-1.132810287475585938e+02,9.053639221191406250e+01,-6.718024444580078125e+01,4.760387802124023438e+01,-1.472678661346435547e+01,-1.050068359375000000e+02,-1.192488327026367188e+02,6.388928985595703125e+01,-3.744941711425781250e+01
5.118150115013122559e-01,2.000000000000000000e+00,7.908124446868896484e+00,8.091192245483398438e+00,3.453472137451171875e+01,-1.133347091674804688e+02,9.053846740722656250e+01,-6.720526885986328125e+01,4.753065109252929688e+01,-1.471735572814941406e+01,-1.050222778320312500e+02,-1.193039932250976562e+02,6.388521194458007812e+01,-3.748127365112304688e+01
5.158640146255493164e-01,2.000000000000000000e+00,7.936659336090087891e+00,8.044506072998046875e+00,3.452811431884765625e+01,-1.133887481689453125e+02,9.054049682617187500e+01,-6.722995758056640625e+01,4.745792388916015625e+01,-1.470797061920166016e+01,-1.050376739501953125e+02,-1.193587036132812500e+02,6.388098526000976562e+01,-3.751357650756835938e+01
5.199289917945861816e-01,2.000000000000000000e+00,7.965394973754882812e+00,7.997617244720458984e+00,3.452142333984375000e+01,-1.134433746337890625e+02,9.054230499267578125e+01,-6.725416564941406250e+01,4.738612747192382812e+01,-1.469886112213134766e+01,-1.050530090332031250e+02,-1.194125518798828125e+02,6.387719345092773438e+01,-3.754356765747070312e+01
5.243679881095886230e-01,2.000000000000000000e+00,7.994159221649169922e+00,7.950796127319335938e+00,3.451475143432617188e+01,-1.134969940185546875e+02,9.054438781738281250e+01,-6.727803039550781250e+01,4.731410980224609375e+01,-1.468956851959228516e+01,-1.050679168701171875e+02,-1.194676971435546875e+02,6.387282180786132812e+01,-3.757366943359375000e+01
5.298659801483154297e-01,2.000000000000000000e+00,8.023010253906250000e+00,7.904359340667724609e+00,3.450816345214843750e+01,-1.135512008666992188e+02,9.054620361328125000e+01,-6.730163574218750000e+01,4.724165725708007812e+01,-1.468013954162597656e+01,-1.050830383300781250e+02,-1.195222091674804688e+02,6.386845016479492188e+01,-3.760498046875000000e+01
5.325099825859069824e-01,2.000000000000000000e+00,8.080049514770507812e+00,7.811259746551513672e+00,3.449480819702148438e+01,-1.136583938598632812e+02,9.055019378662109375e+01,-6.735033416748046875e+01,4.709559249877929688e+01,-1.466137218475341797e+01,-1.051137619018554688e+02,-1.196308441162109375e+02,6.386014556884765625e+01,-3.766518402099609375e+01
5.358210206031799316e-01,2.000000000000000000e+00,8.080049514770507812e+00,7.811259746551513672e+00,3.449480819702148438e+01,-1.136583938598632812e+02,9.055019378662109375e+01,-6.735033416748046875e+01,4.709559249877929688e+01,-1.466137218475341797e+01,-1.051137619018554688e+02,-1.196308441162109375e+02,6.386014556884765625e+01,-3.766518402099609375e+01
5.399739742279052734e-01,2.000000000000000000e+00,8.108814239501953125e+00,7.764506340026855469e+00,3.448834228515625000e+01,-1.137130661010742188e+02,9.055207061767578125e+01,-6.737487792968750000e+01,4.702330398559570312e+01,-1.465212345123291016e+01,-1.051287689208984375e+02,-1.196854858398437500e+02,6.385577392578125000e+01,-3.769441223144531250e+01
5.438159704208374023e-01,2.000000000000000000e+00,8.137377738952636719e+00,7.717594623565673828e+00,3.448185729980468750e+01,-1.137666931152343750e+02,9.055403137207031250e+01,-6.739949798583984375e+01,4.695161819458007812e+01,-1.464310646057128906e+01,-1.051441650390625000e+02,-1.197403488159179688e+02,6.385132598876953125e+01,-3.772505950927734375e+01
5.484899878501892090e-01,2.000000000000000000e+00,8.166171073913574219e+00,7.671203136444091797e+00,3.447531127929687500e+01,-1.138204650878906250e+02,9.055590820312500000e+01,-6.742472839355468750e+01,4.687910842895507812e+01,-1.463417911529541016e+01,-1.051594467163085938e+02,-1.197950744628906250e+02,6.384703063964843750e+01,-3.775659179687500000e+01
5.531560182571411133e-01,2.000000000000000000e+00,8.194963455200195312e+00,7.624540328979492188e+00,3.446870422363281250e+01,-1.138747711181640625e+02,9.055771636962890625e+01,-6.744886779785156250e+01,4.680572128295898438e+01,-1.462493228912353516e+01,-1.051745681762695312e+02,-1.198490066528320312e+02,6.384317398071289062e+01,-3.778680419921875000e+01
5.558810234069824219e-01,2.000000000000000000e+00,8.223698616027832031e+00,7.577764511108398438e+00,3.446215820312500000e+01,-1.139281845092773438e+02,9.055974578857421875e+01,-6.747232818603515625e+01,4.673276901245117188e+01,-1.461554813385009766e+01,-1.051897964477539062e+02,-1.199041519165039062e+02,6.383887100219726562e+01,-3.781712722778320312e+01
5.598779916763305664e-01,2.000000000000000000e+00,8.252434730529785156e+00,7.531101703643798828e+00,3.445554733276367188e+01,-1.139827041625976562e+02,9.056160736083984375e+01,-6.749613189697265625e+01,4.666048049926757812e+01,-1.460653018951416016e+01,-1.052052993774414062e+02,-1.199594345092773438e+02,6.383442306518554688e+01,-3.784898757934570312e+01
5.640630125999450684e-01,2.000000000000000000e+00,8.280969619750976562e+00,7.484393119812011719e+00,3.444892120361328125e+01,-1.140369110107421875e+02,9.056352996826171875e+01,-6.751993560791015625e+01,4.658885192871093750e+01,-1.459742069244384766e+01,-1.052208023071289062e+02,-1.200127105712890625e+02,6.383042144775390625e+01,-3.788051605224609375e+01
5.679559707641601562e-01,2.000000000000000000e+00,8.309733390808105469e+00,7.437685012817382812e+00,3.444231033325195312e+01,-1.140903167724609375e+02,9.056550598144531250e+01,-6.754455566406250000e+01,4.651639556884765625e+01,-1.458849525451660156e+01,-1.052360763549804688e+02,-1.200667877197265625e+02,6.382655334472656250e+01,-3.790930175781250000e+01
5.727880001068115234e-01,2.000000000000000000e+00,8.338583946228027344e+00,7.391022205352783203e+00,3.443588638305664062e+01,-1.141448898315429688e+02,9.056747436523437500e+01,-6.756903839111328125e+01,4.644338989257812500e+01,-1.457933902740478516e+01,-1.052510375976562500e+02,-1.201223602294921875e+02,6.382225799560546875e+01,-3.793874359130859375e+01
5.760470032691955566e-01,2.000000000000000000e+00,8.367290496826171875e+00,7.344313621520996094e+00,3.442952346801757812e+01,-1.141987228393554688e+02,9.056944274902343750e+01,-6.759386444091796875e+01,4.637049484252929688e+01,-1.456995487213134766e+01,-1.052667007446289062e+02,-1.201770019531250000e+02,6.381788635253906250e+01,-3.796928787231445312e+01
5.800160169601440430e-01,2.000000000000000000e+00,8.395853996276855469e+00,7.297697067260742188e+00,3.442311859130859375e+01,-1.142525024414062500e+02,9.057131195068359375e+01,-6.761854553222656250e+01,4.629853820800781250e+01,-1.456084632873535156e+01,-1.052821502685546875e+02,-1.202317962646484375e+02,6.381387710571289062e+01,-3.799961090087890625e+01
5.838819742202758789e-01,2.000000000000000000e+00,8.424618721008300781e+00,7.251010894775390625e+00,3.441653060913085938e+01,-1.143069152832031250e+02,9.057323455810546875e+01,-6.764248657226562500e+01,4.622723770141601562e+01,-1.455182743072509766e+01,-1.052976455688476562e+02,-1.202863693237304688e+02,6.380972671508789062e+01,-3.802916336059570312e+01
5.880029797554016113e-01,2.000000000000000000e+00,8.453181266784667969e+00,7.204189777374267578e+00,3.440980148315429688e+01,-1.143606414794921875e+02,9.057525634765625000e+01,-6.766574096679687500e+01,4.615510940551757812e+01,-1.454294776916503906e+01,-1.053127670288085938e+02,-1.203406524658203125e+02,6.380527877807617188e+01,-3.806047439575195312e+01
5.920820236206054688e-01,2.000000000000000000e+00,8.481973648071289062e+00,7.157345771789550781e+00,3.440323257446289062e+01,-1.144150009155273438e+02,9.057717132568359375e+01,-6.768927764892578125e+01,4.608221435546875000e+01,-1.453402137756347656e+01,-1.053277740478515625e+02,-1.203957290649414062e+02,6.380083847045898438e+01,-3.809233474731445312e+01
5.969169735908508301e-01,2.000000000000000000e+00,8.510767936706542969e+00,7.110705375671386719e+00,3.439656829833984375e+01,-1.144687805175781250e+02,9.057914733886718750e+01,-6.771369171142578125e+01,4.600948715209960938e+01,-1.452486515045166016e+01,-1.053431701660156250e+02,-1.204498672485351562e+02,6.379704666137695312e+01,-3.812210845947265625e+01
6.000679731369018555e-01,2.000000000000000000e+00,8.539360046386718750e+00,7.064064979553222656e+00,3.438987731933593750e+01,-1.145220870971679688e+02,9.058106994628906250e+01,-6.773803710937500000e+01,4.593780136108398438e+01,-1.451566505432128906e+01,-1.053588333129882812e+02,-1.205043716430664062e+02,6.379347610473632812e+01,-3.815132904052734375e+01
6.042150259017944336e-01,2.000000000000000000e+00,8.567951202392578125e+00,7.017356872558593750e+00,3.438320541381835938e+01,-1.145760726928710938e+02,9.058309936523437500e+01,-6.776251983642578125e+01,4.586605834960937500e+01,-1.450641822814941406e+01,-1.053742828369140625e+02,-1.205590820312500000e+02,6.378888702392578125e+01,-3.818231201171875000e+01
6.078490018844604492e-01,2.000000000000000000e+00,8.596514701843261719e+00,6.970649242401123047e+00,3.437668228149414062e+01,-1.146303863525390625e+02,9.058496093750000000e+01,-6.778740692138671875e+01,4.579360580444335938e+01,-1.449744510650634766e+01,-1.053895034790039062e+02,-1.206140899658203125e+02,6.378429794311523438e+01,-3.821472167968750000e+01
6.125329732894897461e-01,2.000000000000000000e+00,8.625336647033691406e+00,6.923940658569335938e+00,3.437021636962890625e+01,-1.146843261718750000e+02,9.058688354492187500e+01,-6.781175994873046875e+01,4.572060012817382812e+01,-1.448838138580322266e+01,-1.054046249389648438e+02,-1.206688003540039062e+02,6.377978134155273438e+01,-3.824504470825195312e+01
6.167709827423095703e-01,2.000000000000000000e+00,8.654214859008789062e+00,6.877323150634765625e+00,3.436358642578125000e+01,-1.147381057739257812e+02,9.058901214599609375e+01,-6.783549499511718750e+01,4.564825439453125000e+01,-1.447918128967285156e+01,-1.054198608398437500e+02,-1.207238159179687500e+02,6.377584838867187500e+01,-3.827426528930664062e+01
6.211090087890625000e-01,2.000000000000000000e+00,8.683036804199218750e+00,6.830546855926513672e+00,3.435689544677734375e+01,-1.147913589477539062e+02,9.059109497070312500e+01,-6.785881805419921875e+01,4.557667922973632812e+01,-1.446942996978759766e+01,-1.054351959228515625e+02,-1.207783050537109375e+02,6.377183914184570312e+01,-3.830503082275390625e+01
6.227669715881347656e-01,2.000000000000000000e+00,8.711571693420410156e+00,6.783793926239013672e+00,3.435033035278320312e+01,-1.148458786010742188e+02,9.059301757812500000e+01,-6.788275909423828125e+01,4.550521469116210938e+01,-1.446009254455566406e+01,-1.054502639770507812e+02,-1.208328781127929688e+02,6.376768493652343750e+01,-3.833656311035156250e+01
6.267549991607666016e-01,2.000000000000000000e+00,8.740306854248046875e+00,6.737175941467285156e+00,3.434374237060546875e+01,-1.149000244140625000e+02,9.059509277343750000e+01,-6.790710449218750000e+01,4.543308639526367188e+01,-1.445098304748535156e+01,-1.054651107788085938e+02,-1.208876724243164062e+02,6.376360702514648438e+01,-3.836677169799804688e+01
6.325460076332092285e-01,2.000000000000000000e+00,8.797635078430175781e+00,6.644053936004638672e+00,3.433052825927734375e+01,-1.150083236694335938e+02,9.059934997558593750e+01,-6.795587158203125000e+01,4.528696823120117188e+01,-1.443267154693603516e+01,-1.054948577880859375e+02,-1.209957351684570312e+02,6.375479125976562500e+01,-3.842719650268554688e+01
6.364039778709411621e-01,2.000000000000000000e+00,8.797635078430175781e+00,6.644053936004638672e+00,3.433052825927734375e+01,-1.150083236694335938e+02,9.059934997558593750e+01,-6.795587158203125000e+01,4.528696823120117188e+01,-1.443267154693603516e+01,-1.054948577880859375e+02,-1.209957351684570312e+02,6.375479125976562500e+01,-3.842719650268554688e+01
6.404600143432617188e-01,2.000000000000000000e+00,8.826340675354003906e+00,6.597414016723632812e+00,3.432408142089843750e+01,-1.150616302490234375e+02,9.060132598876953125e+01,-6.798069000244140625e+01,4.521517181396484375e+01,-1.442333412170410156e+01,-1.055104141235351562e+02,-1.210510330200195312e+02,6.375063705444335938e+01,-3.845927429199218750e+01
6.453909873962402344e-01,2.000000000000000000e+00,8.855076789855957031e+00,6.551022529602050781e+00,3.431780242919921875e+01,-1.151155166625976562e+02,9.060340881347656250e+01,-6.800476074218750000e+01,4.514365386962890625e+01,-1.441399574279785156e+01,-1.055256347656250000e+02,-1.211055221557617188e+02,6.374641036987304688e+01,-3.848959732055664062e+01
6.483970284461975098e-01,2.000000000000000000e+00,8.883640289306640625e+00,6.504246234893798828e+00,3.431133651733398438e+01,-1.151698150634765625e+02,9.060548400878906250e+01,-6.802809143066406250e+01,4.507120132446289062e+01,-1.440479373931884766e+01,-1.055405960083007812e+02,-1.211604690551757812e+02,6.374217987060546875e+01,-3.851860427856445312e+01
6.525380015373229980e-01,2.000000000000000000e+00,8.912146568298339844e+00,6.457606315612792969e+00,3.430476760864257812e+01,-1.152233963012695312e+02,9.060767364501953125e+01,-6.805182647705078125e+01,4.499797439575195312e+01,-1.439550113677978516e+01,-1.055556640625000000e+02,-1.212153244018554688e+02,6.373810195922851562e+01,-3.854947662353515625e+01
6.568080186843872070e-01,2.000000000000000000e+00,8.940967559814453125e+00,6.411147117614746094e+00,3.429817962646484375e+01,-1.152777481079101562e+02,9.060970306396484375e+01,-6.807583618164062500e+01,4.492496871948242188e+01,-1.438616275787353516e+01,-1.055709991455078125e+02,-1.212693939208984375e+02,6.373387527465820312e+01,-3.858067703247070312e+01
6.609690189361572266e-01,2.000000000000000000e+00,8.969674110412597656e+00,6.364506721496582031e+00,3.429157257080078125e+01,-1.153311614990234375e+02,9.061193847656250000e+01,-6.809990692138671875e+01,4.485334014892578125e+01,-1.437677955627441406e+01,-1.055861740112304688e+02,-1.213236007690429688e+02,6.373015975952148438e+01,-3.861022949218750000e+01
6.647229790687561035e-01,2.000000000000000000e+00,8.998323440551757812e+00,6.318024635314941406e+00,3.428492355346679688e+01,-1.153845748901367188e+02,9.061418151855468750e+01,-6.812445831298828125e+01,4.478187179565429688e+01,-1.436716651916503906e+01,-1.056011352539062500e+02,-1.213785400390625000e+02,6.372615051269531250e+01,-3.863912582397460938e+01
6.694970130920410156e-01,2.000000000000000000e+00,9.027001380920410156e+00,6.271430015563964844e+00,3.427819442749023438e+01,-1.154387207031250000e+02,9.061614990234375000e+01,-6.814941406250000000e+01,4.470930862426757812e+01,-1.435782814025878906e+01,-1.056161956787109375e+02,-1.214327468872070312e+02,6.372221755981445312e+01,-3.866988372802734375e+01
6.728950142860412598e-01,2.000000000000000000e+00,9.055564880371093750e+00,6.224699020385742188e+00,3.427160644531250000e+01,-1.154923934936523438e+02,9.061833190917968750e+01,-6.817423248291015625e+01,4.463630294799804688e+01,-1.434885692596435547e+01,-1.056315307617187500e+02,-1.214873199462890625e+02,6.371784591674804688e+01,-3.870152664184570312e+01
6.767709851264953613e-01,2.000000000000000000e+00,9.084215164184570312e+00,6.178081035614013672e+00,3.426518249511718750e+01,-1.155462875366210938e+02,9.062041473388671875e+01,-6.819783782958984375e+01,4.456335449218750000e+01,-1.433979320526123047e+01,-1.056469802856445312e+02,-1.215421142578125000e+02,6.371347427368164062e+01,-3.873140716552734375e+01
6.812090277671813965e-01,2.000000000000000000e+00,9.113036155700683594e+00,6.131395339965820312e+00,3.425877761840820312e+01,-1.156005325317382812e+02,9.062270355224609375e+01,-6.822137451171875000e+01,4.449183654785156250e+01,-1.433059120178222656e+01,-1.056622619628906250e+02,-1.215966873168945312e+02,6.370954132080078125e+01,-3.876151275634765625e+01
6.827499866485595703e-01,2.000000000000000000e+00,9.141656875610351562e+00,6.084687709808349609e+00,3.425218963623046875e+01,-1.156535720825195312e+02,9.062500000000000000e+01,-6.824536895751953125e+01,4.442058563232421875e+01,-1.432143592834472656e+01,-1.056777038574218750e+02,-1.216513977050781250e+02,6.370546340942382812e+01,-3.879238510131835938e+01
6.888840198516845703e-01,2.000000000000000000e+00,9.170191764831542969e+00,6.038160324096679688e+00,3.424555969238281250e+01,-1.157076263427734375e+02,9.062702941894531250e+01,-6.826965332031250000e+01,4.434802246093750000e+01,-1.431227970123291016e+01,-1.056930465698242188e+02,-1.217061843872070312e+02,6.370093917846679688e+01,-3.882281494140625000e+01
6.937429904937744141e-01,2.000000000000000000e+00,9.199070930480957031e+00,5.991429805755615234e+00,3.423901367187500000e+01,-1.157616119384765625e+02,9.062942504882812500e+01,-6.829406738281250000e+01,4.427501678466796875e+01,-1.430335330963134766e+01,-1.057083282470703125e+02,-1.217604064941406250e+02,6.369635009765625000e+01,-3.885225677490234375e+01
6.969490051269531250e-01,2.000000000000000000e+00,9.227576255798339844e+00,5.944789409637451172e+00,3.423240661621093750e+01,-1.158150787353515625e+02,9.063145446777343750e+01,-6.831861877441406250e+01,4.420273208618164062e+01,-1.429419898986816406e+01,-1.057234497070312500e+02,-1.218148269653320312e+02,6.369234848022460938e+01,-3.888181304931640625e+01
7.009289860725402832e-01,2.000000000000000000e+00,9.256340980529785156e+00,5.898194789886474609e+00,3.422573852539062500e+01,-1.158696517944335938e+02,9.063369750976562500e+01,-6.834364318847656250e+01,4.413148117065429688e+01,-1.428490638732910156e+01,-1.057385711669921875e+02,-1.218688964843750000e+02,6.368826293945312500e+01,-3.891312026977539062e+01
7.060379981994628906e-01,2.000000000000000000e+00,9.284990310668945312e+00,5.851644515991210938e+00,3.421924972534179688e+01,-1.159235305786132812e+02,9.063592529296875000e+01,-6.836757659912109375e+01,4.405985260009765625e+01,-1.427570533752441406e+01,-1.057539596557617188e+02,-1.219229736328125000e+02,6.368375015258789062e+01,-3.894443511962890625e+01
7.074490189552307129e-01,2.000000000000000000e+00,9.313409805297851562e+00,5.805049419403076172e+00,3.421278762817382812e+01,-1.159766845703125000e+02,9.063833618164062500e+01,-6.839118194580078125e+01,4.398745346069335938e+01,-1.426641273498535156e+01,-1.057694625854492188e+02,-1.219779052734375000e+02,6.367915725708007812e+01,-3.897321701049804688e+01
7.107660174369812012e-01,2.000000000000000000e+00,9.341915130615234375e+00,5.758432388305664062e+00,3.420642089843750000e+01,-1.160310363769531250e+02,9.064035797119140625e+01,-6.841484832763671875e+01,4.391455841064453125e+01,-1.425721168518066406e+01,-1.057847976684570312e+02,-1.220324096679687500e+02,6.367493057250976562e+01,-3.900299072265625000e+01
7.147669792175292969e-01,2.000000000000000000e+00,9.370708465576171875e+00,5.711791992187500000e+00,3.419999694824218750e+01,-1.160845565795898438e+02,9.064276123046875000e+01,-6.843878936767578125e+01,4.384232330322265625e+01,-1.424814796447753906e+01,-1.058001403808593750e+02,-1.220868988037109375e+02,6.367085266113281250e+01,-3.903528976440429688e+01
7.207360267639160156e-01,2.000000000000000000e+00,9.399357795715332031e+00,5.665242195129394531e+00,3.419334793090820312e+01,-1.161384887695312500e+02,9.064488983154296875e+01,-6.846313476562500000e+01,4.377096557617187500e+01,-1.423922157287597656e+01,-1.058154144287109375e+02,-1.221419143676757812e+02,6.366670227050781250e+01,-3.906671142578125000e+01
7.227550148963928223e-01,2.000000000000000000e+00,9.428179740905761719e+00,5.618714809417724609e+00,3.418675994873046875e+01,-1.161921768188476562e+02,9.064696502685546875e+01,-6.848748016357421875e+01,4.369950103759765625e+01,-1.423006534576416016e+01,-1.058302612304687500e+02,-1.221963348388671875e+02,6.366269302368164062e+01,-3.909692382812500000e+01
7.289879918098449707e-01,2.000000000000000000e+00,9.456771850585937500e+00,5.572120189666748047e+00,3.418017196655273438e+01,-1.162456436157226562e+02,9.064915466308593750e+01,-6.851210021972656250e+01,4.362682723999023438e+01,-1.422086429595947266e+01,-1.058454437255859375e+02,-1.222505493164062500e+02,6.365875625610351562e+01,-3.912636566162109375e+01
7.331060171127319336e-01,2.000000000000000000e+00,9.485305786132812500e+00,5.525547504425048828e+00,3.417352676391601562e+01,-1.162995147705078125e+02,9.065123748779296875e+01,-6.853678131103515625e+01,4.355437088012695312e+01,-1.421161842346191406e+01,-1.058608322143554688e+02,-1.223054122924804688e+02,6.365489196777343750e+01,-3.915822601318359375e+01
7.347490191459655762e-01,2.000000000000000000e+00,9.513956069946289062e+00,5.478974819183349609e+00,3.416689682006835938e+01,-1.163533020019531250e+02,9.065341949462890625e+01,-6.856113433837890625e+01,4.348180770874023438e+01,-1.420246219635009766e+01,-1.058760604858398438e+02,-1.223597640991210938e+02,6.365089035034179688e+01,-3.918833160400390625e+01
7.421789765357971191e-01,2.000000000000000000e+00,9.513956069946289062e+00,5.478974819183349609e+00,3.416689682006835938e+01,-1.163533020019531250e+02,9.065341949462890625e+01,-6.856113433837890625e+01,4.348180770874023438e+01,-1.420246219635009766e+01,-1.058760604858398438e+02,-1.223597640991210938e+02,6.365089035034179688e+01,-3.918833160400390625e+01
7.436850070953369141e-01,2.000000000000000000e+00,9.571369171142578125e+00,5.385966300964355469e+00,3.415386581420898438e+01,-1.164606933593750000e+02,9.065779113769531250e+01,-6.860806274414062500e+01,4.333848953247070312e+01,-1.418428993225097656e+01,-1.059063568115234375e+02,-1.224684753417968750e+02,6.364250946044921875e+01,-3.924721527099609375e+01
7.477549910545349121e-01,2.000000000000000000e+00,9.600132942199707031e+00,5.339371204376220703e+00,3.414749908447265625e+01,-1.165142211914062500e+02,9.065971374511718750e+01,-6.863200378417968750e+01,4.326620101928710938e+01,-1.417486000061035156e+01,-1.059214782714843750e+02,-1.225226974487304688e+02,6.363827896118164062e+01,-3.927951812744140625e+01
7.518659830093383789e-01,2.000000000000000000e+00,9.628754615783691406e+00,5.292776107788085938e+00,3.414093399047851562e+01,-1.165682067871093750e+02,9.066178894042968750e+01,-6.865628051757812500e+01,4.319314193725585938e+01,-1.416547489166259766e+01,-1.059366989135742188e+02,-1.225771331787109375e+02,6.363426971435546875e+01,-3.930994796752929688e+01
7.576180100440979004e-01,2.000000000000000000e+00,9.657317161560058594e+00,5.246271610260009766e+00,3.413430404663085938e+01,-1.166220397949218750e+02,9.066391754150390625e+01,-6.868062591552734375e+01,4.312046813964843750e+01,-1.415604496002197266e+01,-1.059515457153320312e+02,-1.226317749023437500e+02,6.363026809692382812e+01,-3.933917236328125000e+01
7.597910165786743164e-01,2.000000000000000000e+00,9.685794830322265625e+00,5.199903011322021484e+00,3.412773895263671875e+01,-1.166755599975585938e+02,9.066589355468750000e+01,-6.870551300048828125e+01,4.304883575439453125e+01,-1.414679908752441406e+01,-1.059665603637695312e+02,-1.226857681274414062e+02,6.362596511840820312e+01,-3.936927413940429688e+01
7.627490162849426270e-01,2.000000000000000000e+00,9.714501380920410156e+00,5.153330326080322266e+00,3.412118911743164062e+01,-1.167300262451171875e+02,9.066780853271484375e+01,-6.872992706298828125e+01,4.297714996337890625e+01,-1.413778018951416016e+01,-1.059818496704101562e+02,-1.227404785156250000e+02,6.362130737304687500e+01,-3.940058517456054688e+01
7.678400278091430664e-01,2.000000000000000000e+00,9.714501380920410156e+00,5.153330326080322266e+00,3.412118911743164062e+01,-1.167300262451171875e+02,9.066780853271484375e+01,-6.872992706298828125e+01,4.297714996337890625e+01,-1.413778018951416016e+01,-1.059818496704101562e+02,-1.227404785156250000e+02,6.362130737304687500e+01,-3.940058517456054688e+01
7.707509994506835938e-01,2.000000000000000000e+00,9.771885871887207031e+00,5.060457229614257812e+00,3.410805511474609375e+01,-1.168372726440429688e+02,9.067197418212890625e+01,-6.877699279785156250e+01,4.283201980590820312e+01,-1.411914920806884766e+01,-1.060119171142578125e+02,-1.228481216430664062e+02,6.361241531372070312e+01,-3.946013259887695312e+01
7.758030295372009277e-01,2.000000000000000000e+00,9.771885871887207031e+00,5.060457229614257812e+00,3.410805511474609375e+01,-1.168372726440429688e+02,9.067197418212890625e+01,-6.877699279785156250e+01,4.283201980590820312e+01,-1.411914920806884766e+01,-1.060119171142578125e+02,-1.228481216430664062e+02,6.361241531372070312e+01,-3.946013259887695312e+01
7.787610292434692383e-01,2.000000000000000000e+00,9.828927040100097656e+00,4.967245101928710938e+00,3.409532928466796875e+01,-1.169449310302734375e+02,9.067597198486328125e+01,-6.882480621337890625e+01,4.268809890747070312e+01,-1.410061073303222656e+01,-1.060432510375976562e+02,-1.229575576782226562e+02,6.360374832153320312e+01,-3.952220535278320312e+01
7.827540040016174316e-01,2.000000000000000000e+00,9.857518196105957031e+00,4.920876026153564453e+00,3.408892440795898438e+01,-1.169988174438476562e+02,9.067778015136718750e+01,-6.884908294677734375e+01,4.261679840087890625e+01,-1.409150123596191406e+01,-1.060579910278320312e+02,-1.230116271972656250e+02,6.359995651245117188e+01,-3.955186843872070312e+01
7.878479957580566406e-01,2.000000000000000000e+00,9.857518196105957031e+00,4.920876026153564453e+00,3.408892440795898438e+01,-1.169988174438476562e+02,9.067778015136718750e+01,-6.884908294677734375e+01,4.261679840087890625e+01,-1.409150123596191406e+01,-1.060579910278320312e+02,-1.230116271972656250e+02,6.359995651245117188e+01,-3.955186843872070312e+01
7.915030121803283691e-01,2.000000000000000000e+00,9.914903640747070312e+00,4.827912330627441406e+00,3.407585144042968750e+01,-1.171056442260742188e+02,9.068177795410156250e+01,-6.889804840087890625e+01,4.247183609008789062e+01,-1.407277870178222656e+01,-1.060876235961914062e+02,-1.231211242675781250e+02,6.359179306030273438e+01,-3.961141204833984375e+01
7.957509756088256836e-01,2.000000000000000000e+00,9.943381309509277344e+00,4.781407833099365234e+00,3.406924438476562500e+01,-1.171600494384765625e+02,9.068386077880859375e+01,-6.892245483398437500e+01,4.239943313598632812e+01,-1.406344032287597656e+01,-1.061032409667968750e+02,-1.231751251220703125e+02,6.358720397949218750e+01,-3.964228439331054688e+01
7.998189926147460938e-01,2.000000000000000000e+00,9.971743583679199219e+00,4.734745025634765625e+00,3.406263351440429688e+01,-1.172135162353515625e+02,9.068583679199218750e+01,-6.894599151611328125e+01,4.232807540893554688e+01,-1.405423927307128906e+01,-1.061186828613281250e+02,-1.232294845581054688e+02,6.358312606811523438e+01,-3.967249679565429688e+01
8.028230071067810059e-01,2.000000000000000000e+00,1.000027847290039062e+01,4.688218116760253906e+00,3.405588531494140625e+01,-1.172667694091796875e+02,9.068759155273437500e+01,-6.896958923339843750e+01,4.225650405883789062e+01,-1.404526615142822266e+01,-1.061337509155273438e+02,-1.232834167480468750e+02,6.357933425903320312e+01,-3.970304107666015625e+01
8.078060150146484375e-01,2.000000000000000000e+00,1.000027847290039062e+01,4.688218116760253906e+00,3.405588531494140625e+01,-1.172667694091796875e+02,9.068759155273437500e+01,-6.896958923339843750e+01,4.225650405883789062e+01,-1.404526615142822266e+01,-1.061337509155273438e+02,-1.232834167480468750e+02,6.357933425903320312e+01,-3.970304107666015625e+01
8.107600212097167969e-01,2.000000000000000000e+00,1.005772018432617188e+01,4.595163345336914062e+00,3.404287338256835938e+01,-1.173743286132812500e+02,9.069148254394531250e+01,-6.901747131347656250e+01,4.211153411865234375e+01,-1.402723026275634766e+01,-1.061643142700195312e+02,-1.233919067382812500e+02,6.357095336914062500e+01,-3.976544189453125000e+01
8.158119916915893555e-01,2.000000000000000000e+00,1.005772018432617188e+01,4.595163345336914062e+00,3.404287338256835938e+01,-1.173743286132812500e+02,9.069148254394531250e+01,-6.901747131347656250e+01,4.211153411865234375e+01,-1.402723026275634766e+01,-1.061643142700195312e+02,-1.233919067382812500e+02,6.357095336914062500e+01,-3.976544189453125000e+01
8.187490105628967285e-01,2.000000000000000000e+00,1.011476039886474609e+01,4.502109527587890625e+00,3.402992248535156250e+01,-1.174824218750000000e+02,9.069543457031250000e+01,-6.906663513183593750e+01,4.196799850463867188e+01,-1.400905799865722656e+01,-1.061952056884765625e+02,-1.235009155273437500e+02,6.356301116943359375e+01,-3.982465744018554688e+01
8.238440155982971191e-01,2.000000000000000000e+00,1.011476039886474609e+01,4.502109527587890625e+00,3.402992248535156250e+01,-1.174824218750000000e+02,9.069543457031250000e+01,-6.906663513183593750e+01,4.196799850463867188e+01,-1.400905799865722656e+01,-1.061952056884765625e+02,-1.235009155273437500e+02,6.356301116943359375e+01,-3.982465744018554688e+01
8.268470168113708496e-01,2.000000000000000000e+00,1.017174339294433594e+01,4.408964633941650391e+00,3.401670455932617188e+01,-1.175899887084960938e+02,9.069927215576171875e+01,-6.911505889892578125e+01,4.182463073730468750e+01,-1.399106693267822266e+01,-1.062254486083984375e+02,-1.236095581054687500e+02,6.355426788330078125e+01,-3.988629150390625000e+01
8.320199847221374512e-01,2.000000000000000000e+00,1.017174339294433594e+01,4.408964633941650391e+00,3.401670455932617188e+01,-1.175899887084960938e+02,9.069927215576171875e+01,-6.911505889892578125e+01,4.182463073730468750e+01,-1.399106693267822266e+01,-1.062254486083984375e+02,-1.236095581054687500e+02,6.355426788330078125e+01,-3.988629150390625000e+01
8.347650170326232910e-01,2.000000000000000000e+00,1.022904300689697266e+01,4.316159248352050781e+00,3.400349044799804688e+01,-1.176971206665039062e+02,9.070316314697265625e+01,-6.916211700439453125e+01,4.167922592163085938e+01,-1.397266578674316406e+01,-1.062559051513671875e+02,-1.237184829711914062e+02,6.354545974731445312e+01,-3.994594955444335938e+01
8.398330211639404297e-01,2.000000000000000000e+00,1.022904300689697266e+01,4.316159248352050781e+00,3.400349044799804688e+01,-1.176971206665039062e+02,9.070316314697265625e+01,-6.916211700439453125e+01,4.167922592163085938e+01,-1.397266578674316406e+01,-1.062559051513671875e+02,-1.237184829711914062e+02,6.354545974731445312e+01,-3.994594955444335938e+01
8.427950143814086914e-01,2.000000000000000000e+00,1.028591060638427734e+01,4.223127841949462891e+00,3.399060058593750000e+01,-1.178048934936523438e+02,9.070694732666015625e+01,-6.921047973632812500e+01,4.153640365600585938e+01,-1.395449256896972656e+01,-1.062867965698242188e+02,-1.238257598876953125e+02,6.353678512573242188e+01,-4.000724792480468750e+01
8.479779958724975586e-01,2.000000000000000000e+00,1.028591060638427734e+01,4.223127841949462891e+00,3.399060058593750000e+01,-1.178048934936523438e+02,9.070694732666015625e+01,-6.921047973632812500e+01,4.153640365600585938e+01,-1.395449256896972656e+01,-1.062867965698242188e+02,-1.238257598876953125e+02,6.353678512573242188e+01,-4.000724792480468750e+01
8.508039712905883789e-01,2.000000000000000000e+00,1.034323787689208984e+01,4.130209445953369141e+00,3.397785186767578125e+01,-1.179124526977539062e+02,9.071067810058593750e+01,-6.925991821289062500e+01,4.139110565185546875e+01,-1.393663883209228516e+01,-1.063166580200195312e+02,-1.239347686767578125e+02,6.352789688110351562e+01,-4.006668472290039062e+01
8.580920100212097168e-01,2.000000000000000000e+00,1.034323787689208984e+01,4.130209445953369141e+00,3.397785186767578125e+01,-1.179124526977539062e+02,9.071067810058593750e+01,-6.925991821289062500e+01,4.139110565185546875e+01,-1.393663883209228516e+01,-1.063166580200195312e+02,-1.239347686767578125e+02,6.352789688110351562e+01,-4.006668472290039062e+01
8.595089912414550781e-01,2.000000000000000000e+00,1.040070915222167969e+01,4.037222862243652344e+00,3.396471786499023438e+01,-1.180196990966796875e+02,9.071468353271484375e+01,-6.930813598632812500e+01,4.124707412719726562e+01,-1.391828346252441406e+01,-1.063471145629882812e+02,-1.240441207885742188e+02,6.351980972290039062e+01,-4.012766265869140625e+01
8.647819757461547852e-01,2.000000000000000000e+00,1.040070915222167969e+01,4.037222862243652344e+00,3.396471786499023438e+01,-1.180196990966796875e+02,9.071468353271484375e+01,-6.930813598632812500e+01,4.117577362060546875e+01,-1.390908145904541016e+01,-1.063622894287109375e+02,-1.240981903076171875e+02,6.351565933227539062e+01,-4.015853118896484375e+01
8.675240278244018555e-01,2.000000000000000000e+00,1.045749092102050781e+01,3.944304466247558594e+00,3.395158386230468750e+01,-1.181270446777343750e+02,9.071857452392578125e+01,-6.935560607910156250e+01,4.110365295410156250e+01,-1.390006446838378906e+01,-1.063774566650390625e+02,-1.241526260375976562e+02,6.351165008544921875e+01,-4.018841552734375000e+01
8.718010187149047852e-01,2.000000000000000000e+00,1.045749092102050781e+01,3.944304466247558594e+00,3.395158386230468750e+01,-1.181270446777343750e+02,9.071857452392578125e+01,-6.935560607910156250e+01,4.110365295410156250e+01,-1.390006446838378906e+01,-1.063774566650390625e+02,-1.241526260375976562e+02,6.351165008544921875e+01,-4.018841552734375000e+01
8.758000135421752930e-01,2.000000000000000000e+00,1.051467514038085938e+01,3.851227760314941406e+00,3.393834686279296875e+01,-1.182339248657226562e+02,9.072241210937500000e+01,-6.940450286865234375e+01,4.095819473266601562e+01,-1.388166236877441406e+01,-1.064081878662109375e+02,-1.242609786987304688e+02,6.350326919555664062e+01,-4.024927902221679688e+01
8.831419944763183594e-01,2.000000000000000000e+00,1.051467514038085938e+01,3.851227760314941406e+00,3.393834686279296875e+01,-1.182339248657226562e+02,9.072241210937500000e+01,-6.940450286865234375e+01,4.088711166381835938e+01,-1.387227821350097656e+01,-1.064233627319335938e+02,-1.243147583007812500e+02,6.349919128417968750e+01,-4.028059005737304688e+01
8.844609856605529785e-01,2.000000000000000000e+00,1.057197475433349609e+01,3.758195877075195312e+00,3.392557907104492188e+01,-1.183419113159179688e+02,9.072624969482421875e+01,-6.945421600341796875e+01,4.081569671630859375e+01,-1.386275577545166016e+01,-1.064382705688476562e+02,-1.243696212768554688e+02,6.349547576904296875e+01,-4.031036376953125000e+01
8.877440094947814941e-01,2.000000000000000000e+00,1.060039424896240234e+01,3.711827516555786133e+00,3.391907119750976562e+01,-1.183953628540039062e+02,9.072827148437500000e+01,-6.947815704345703125e+01,4.074341201782226562e+01,-1.385369205474853516e+01,-1.064535980224609375e+02,-1.244241943359375000e+02,6.349117279052734375e+01,-4.034035873413085938e+01
8.918579816818237305e-01,2.000000000000000000e+00,1.060039424896240234e+01,3.711827516555786133e+00,3.391907119750976562e+01,-1.183953628540039062e+02,9.072827148437500000e+01,-6.947815704345703125e+01,4.074341201782226562e+01,-1.385369205474853516e+01,-1.064535980224609375e+02,-1.244241943359375000e+02,6.349117279052734375e+01,-4.034035873413085938e+01
8.983759880065917969e-01,2.000000000000000000e+00,1.062889957427978516e+01,3.665255069732666016e+00,3.391244506835937500e+01,-1.184497299194335938e+02,9.073035430908203125e+01,-6.950182342529296875e+01,4.067073440551757812e+01,-1.384453773498535156e+01,-1.064686126708984375e+02,-1.244786148071289062e+02,6.348709487915039062e+01,-4.037100982666015625e+01
9.000340104103088379e-01,2.000000000000000000e+00,1.068591117858886719e+01,3.572653532028198242e+00,3.389939117431640625e+01,-1.185563888549804688e+02,9.073424530029296875e+01,-6.954956054687500000e+01,4.052780151367187500e+01,-1.382627296447753906e+01,-1.064984741210937500e+02,-1.245868301391601562e+02,6.347842025756835938e+01,-4.043209457397460938e+01
9.048140048980712891e-01,2.000000000000000000e+00,1.068591117858886719e+01,3.572653532028198242e+00,3.389939117431640625e+01,-1.185563888549804688e+02,9.073424530029296875e+01,-6.954956054687500000e+01,4.045616912841796875e+01,-1.381702518463134766e+01,-1.065139160156250000e+02,-1.246418457031250000e+02,6.347455978393554688e+01,-4.046241378784179688e+01
9.084939956665039062e-01,2.000000000000000000e+00,1.074289512634277344e+01,3.479576587677001953e+00,3.388617706298828125e+01,-1.186639480590820312e+02,9.073797607421875000e+01,-6.959812164306640625e+01,4.038415527343750000e+01,-1.380800819396972656e+01,-1.065294265747070312e+02,-1.246956939697265625e+02,6.347026443481445312e+01,-4.049361801147460938e+01
9.117799997329711914e-01,2.000000000000000000e+00,1.077137184143066406e+01,3.433162689208984375e+00,3.387983322143554688e+01,-1.187179946899414062e+02,9.074027252197265625e+01,-6.962307739257812500e+01,4.031142425537109375e+01,-1.379894447326660156e+01,-1.065445938110351562e+02,-1.247488327026367188e+02,6.346581649780273438e+01,-4.052470779418945312e+01
9.158409833908081055e-01,2.000000000000000000e+00,1.077137184143066406e+01,3.433162689208984375e+00,3.387983322143554688e+01,-1.187179946899414062e+02,9.074027252197265625e+01,-6.962307739257812500e+01,4.031142425537109375e+01,-1.379894447326660156e+01,-1.065445938110351562e+02,-1.247488327026367188e+02,6.346581649780273438e+01,-4.052470779418945312e+01
9.199079871177673340e-01,2.000000000000000000e+00,1.079979133605957031e+01,3.386748552322387695e+00,3.387357330322265625e+01,-1.187714614868164062e+02,9.074224090576171875e+01,-6.964775848388671875e+01,4.023941040039062500e+01,-1.378969669342041016e+01,-1.065596084594726562e+02,-1.248034057617187500e+02,6.346144485473632812e+01,-4.055469894409179688e+01
9.237959980964660645e-01,2.000000000000000000e+00,1.082838344573974609e+01,3.340425014495849609e+00,3.386710357666015625e+01,-1.188245010375976562e+02,9.074421691894531250e+01,-6.967176818847656250e+01,4.016810989379882812e+01,-1.378063297271728516e+01,-1.065748367309570312e+02,-1.248581161499023438e+02,6.345707702636718750e+01,-4.058469390869140625e+01
9.277930259704589844e-01,2.000000000000000000e+00,1.085686111450195312e+01,3.294056415557861328e+00,3.386043930053710938e+01,-1.188785400390625000e+02,9.074624633789062500e+01,-6.969502258300781250e+01,4.009680938720703125e+01,-1.377129554748535156e+01,-1.065900650024414062e+02,-1.249123992919921875e+02,6.345292282104492188e+01,-4.061589431762695312e+01
9.329779744148254395e-01,2.000000000000000000e+00,1.088533782958984375e+01,3.247483968734741211e+00,3.385395050048828125e+01,-1.189320602416992188e+02,9.074826812744140625e+01,-6.971882629394531250e+01,4.002462768554687500e+01,-1.376191139221191406e+01,-1.066051864624023438e+02,-1.249668350219726562e+02,6.344847488403320312e+01,-4.064555740356445312e+01
9.356889724731445312e-01,2.000000000000000000e+00,1.094211959838867188e+01,3.154678821563720703e+00,3.384081649780273438e+01,-1.190393142700195312e+02,9.075247955322265625e+01,-6.976691436767578125e+01,3.987994003295898438e+01,-1.374405860900878906e+01,-1.066354217529296875e+02,-1.250758972167968750e+02,6.343987655639648438e+01,-4.070455551147460938e+01
9.397950172424316406e-01,2.000000000000000000e+00,1.094211959838867188e+01,3.154678821563720703e+00,3.384081649780273438e+01,-1.190393142700195312e+02,9.075247955322265625e+01,-6.976691436767578125e+01,3.987994003295898438e+01,-1.374405860900878906e+01,-1.066354217529296875e+02,-1.250758972167968750e+02,6.343987655639648438e+01,-4.070455551147460938e+01
9.438009858131408691e-01,2.000000000000000000e+00,1.097056770324707031e+01,3.108219623565673828e+00,3.383419036865234375e+01,-1.190926132202148438e+02,9.075460815429687500e+01,-6.979145812988281250e+01,3.980858230590820312e+01,-1.373531532287597656e+01,-1.066504898071289062e+02,-1.251302566528320312e+02,6.343586730957031250e+01,-4.073509597778320312e+01
9.478189945220947266e-01,2.000000000000000000e+00,1.099918937683105469e+01,3.061828136444091797e+00,3.382760238647460938e+01,-1.191461334228515625e+02,9.075669097900390625e+01,-6.981608581542968750e+01,3.973711395263671875e+01,-1.372620487213134766e+01,-1.066660385131835938e+02,-1.251836166381835938e+02,6.343149566650390625e+01,-4.076420974731445312e+01
9.518709778785705566e-01,2.000000000000000000e+00,1.102755165100097656e+01,3.015481948852539062e+00,3.382117462158203125e+01,-1.192000656127929688e+02,9.075882720947265625e+01,-6.984062957763671875e+01,3.966477203369140625e+01,-1.371700382232666016e+01,-1.066812744140625000e+02,-1.252376098632812500e+02,6.342727661132812500e+01,-4.079397964477539062e+01
9.558010101318359375e-01,2.000000000000000000e+00,1.105602836608886719e+01,2.969090700149536133e+00,3.381476974487304688e+01,-1.192531661987304688e+02,9.076095581054687500e+01,-6.986422729492187500e+01,3.959215164184570312e+01,-1.370803165435791016e+01,-1.066965484619140625e+02,-1.252923202514648438e+02,6.342312240600585938e+01,-4.082540512084960938e+01
9.596319794654846191e-01,2.000000000000000000e+00,1.111292552947998047e+01,2.876240015029907227e+00,3.380169677734375000e+01,-1.193616714477539062e+02,9.076522064208984375e+01,-6.991149902343750000e+01,3.944823074340820312e+01,-1.368995094299316406e+01,-1.067267379760742188e+02,-1.254008255004882812e+02,6.341495895385742188e+01,-4.088692855834960938e+01
9.637960195541381836e-01,2.000000000000000000e+00,1.111292552947998047e+01,2.876240015029907227e+00,3.380169677734375000e+01,-1.193616714477539062e+02,9.076522064208984375e+01,-6.991149902343750000e+01,3.944823074340820312e+01,-1.368995094299316406e+01,-1.067267379760742188e+02,-1.254008255004882812e+02,6.341495895385742188e+01,-4.088692855834960938e+01
9.678909778594970703e-01,2.000000000000000000e+00,1.114143085479736328e+01,2.830052375793457031e+00,3.379521179199218750e+01,-1.194145050048828125e+02,9.076762390136718750e+01,-6.993530273437500000e+01,3.937681961059570312e+01,-1.368079566955566406e+01,-1.067420730590820312e+02,-1.254551162719726562e+02,6.341051483154296875e+01,-4.091669845581054688e+01
9.720140099525451660e-01,2.000000000000000000e+00,1.117013740539550781e+01,2.783661127090454102e+00,3.378874588012695312e+01,-1.194683837890625000e+02,9.076970672607421875e+01,-6.995951080322265625e+01,3.930458450317382812e+01,-1.367136573791503906e+01,-1.067574691772460938e+02,-1.255091781616210938e+02,6.340657806396484375e+01,-4.094734954833984375e+01
9.758070111274719238e-01,2.000000000000000000e+00,1.119870185852050781e+01,2.737292528152465820e+00,3.378213882446289062e+01,-1.195217971801757812e+02,9.077199554443359375e+01,-6.998419952392578125e+01,3.923202133178710938e+01,-1.366216468811035156e+01,-1.067726974487304688e+02,-1.255638885498046875e+02,6.340286254882812500e+01,-4.097767257690429688e+01
9.798039793968200684e-01,2.000000000000000000e+00,1.122714996337890625e+01,2.690923690795898438e+00,3.377559280395507812e+01,-1.195753707885742188e+02,9.077407836914062500e+01,-7.000895690917968750e+01,3.915956497192382812e+01,-1.365305519104003906e+01,-1.067882003784179688e+02,-1.256175384521484375e+02,6.339856719970703125e+01,-4.100744628906250000e+01
9.843680262565612793e-01,2.000000000000000000e+00,1.125574111938476562e+01,2.644668340682983398e+00,3.376924896240234375e+01,-1.196291503906250000e+02,9.077620697021484375e+01,-7.003296661376953125e+01,3.908821105957031250e+01,-1.364408206939697266e+01,-1.068033676147460938e+02,-1.256710281372070312e+02,6.339404678344726562e+01,-4.103710937500000000e+01
9.877889752388000488e-01,2.000000000000000000e+00,1.128419017791748047e+01,2.598186254501342773e+00,3.376298522949218750e+01,-1.196823043823242188e+02,9.077838897705078125e+01,-7.005656433105468750e+01,3.901712799072265625e+01,-1.363501930236816406e+01,-1.068184890747070312e+02,-1.257260360717773438e+02,6.338989257812500000e+01,-4.106798171997070312e+01
9.920809864997863770e-01,2.000000000000000000e+00,1.131292533874511719e+01,2.551908016204833984e+00,3.375660324096679688e+01,-1.197358093261718750e+02,9.078073883056640625e+01,-7.007988739013671875e+01,3.894549560546875000e+01,-1.362595558166503906e+01,-1.068335571289062500e+02,-1.257807464599609375e+02,6.338574218750000000e+01,-4.109994888305664062e+01
9.951099753379821777e-01,2.000000000000000000e+00,1.134148883819580078e+01,2.505426406860351562e+00,3.375007629394531250e+01,-1.197895355224609375e+02,9.078287506103515625e+01,-7.010363006591796875e+01,3.887271118164062500e+01,-1.361670875549316406e+01,-1.068484649658203125e+02,-1.258343963623046875e+02,6.338173294067382812e+01,-4.113027191162109375e+01
9.998360276222229004e-01,2.000000000000000000e+00,1.136999511718750000e+01,2.458989858627319336e+00,3.374350738525390625e+01,-1.198430633544921875e+02,9.078500366210937500e+01,-7.012789916992187500e+01,3.880042266845703125e+01,-1.360746192932128906e+01,-1.068635787963867188e+02,-1.258892517089843750e+02,6.337721633911132812e+01,-4.115895080566406250e+01
1.003837943077087402e+00,2.000000000000000000e+00,1.139835739135742188e+01,2.412643432617187500e+00,3.373694229125976562e+01,-1.198970489501953125e+02,9.078734588623046875e+01,-7.015225219726562500e+01,3.872917556762695312e+01,-1.359839820861816406e+01,-1.068791885375976562e+02,-1.259436798095703125e+02,6.337284469604492188e+01,-4.119015121459960938e+01
1.009677052497863770e+00,2.000000000000000000e+00,1.142689132690429688e+01,2.366229534149169922e+00,3.373033142089843750e+01,-1.199498825073242188e+02,9.078948211669921875e+01,-7.017659759521484375e+01,3.865803909301757812e+01,-1.358924293518066406e+01,-1.068941421508789062e+02,-1.259975357055664062e+02,6.336876678466796875e+01,-4.122157287597656250e+01
1.012397050857543945e+00,2.000000000000000000e+00,1.148413372039794922e+01,2.273243188858032227e+00,3.371711730957031250e+01,-1.200575027465820312e+02,9.079364013671875000e+01,-7.022508239746093750e+01,3.851340484619140625e+01,-1.357079505920410156e+01,-1.069240570068359375e+02,-1.261059646606445312e+02,6.336053085327148438e+01,-4.127914047241210938e+01
1.016298055648803711e+00,2.000000000000000000e+00,1.148413372039794922e+01,2.273243188858032227e+00,3.371711730957031250e+01,-1.200575027465820312e+02,9.079364013671875000e+01,-7.022508239746093750e+01,3.851340484619140625e+01,-1.357079505920410156e+01,-1.069240570068359375e+02,-1.261059646606445312e+02,6.336053085327148438e+01,-4.127914047241210938e+01
1.019338965415954590e+00,2.000000000000000000e+00,1.151258087158203125e+01,2.226987600326538086e+00,3.371075439453125000e+01,-1.201108016967773438e+02,9.079582214355468750e+01,-7.024834442138671875e+01,3.844144058227539062e+01,-1.356145572662353516e+01,-1.069396133422851562e+02,-1.261599578857421875e+02,6.335645294189453125e+01,-4.130924224853515625e+01
1.023797988891601562e+00,2.000000000000000000e+00,1.154094314575195312e+01,2.180483341217041016e+00,3.370422744750976562e+01,-1.201645812988281250e+02,9.079785156250000000e+01,-7.027201080322265625e+01,3.837008666992187500e+01,-1.355225467681884766e+01,-1.069546813964843750e+02,-1.262142486572265625e+02,6.335273742675781250e+01,-4.134055328369140625e+01
1.027863025665283203e+00,2.000000000000000000e+00,1.156936359405517578e+01,2.134137153625488281e+00,3.369778060913085938e+01,-1.202184219360351562e+02,9.080003356933593750e+01,-7.029581451416015625e+01,3.829906082153320312e+01,-1.354319095611572266e+01,-1.069694747924804688e+02,-1.262683868408203125e+02,6.334865188598632812e+01,-4.137065505981445312e+01
1.031818985939025879e+00,2.000000000000000000e+00,1.159786987304687500e+01,2.087836503982543945e+00,3.369115447998046875e+01,-1.202714080810546875e+02,9.080206298828125000e+01,-7.031996154785156250e+01,3.822726440429687500e+01,-1.353417396545410156e+01,-1.069844284057617188e+02,-1.263228912353515625e+02,6.334421157836914062e+01,-4.139998626708984375e+01
1.035755038261413574e+00,2.000000000000000000e+00,1.162634658813476562e+01,2.041309118270874023e+00,3.368460845947265625e+01,-1.203258743286132812e+02,9.080414581298828125e+01,-7.034417724609375000e+01,3.815464782714843750e+01,-1.352506351470947266e+01,-1.069996566772460938e+02,-1.263775329589843750e+02,6.334027099609375000e+01,-4.143151855468750000e+01
1.040446996688842773e+00,2.000000000000000000e+00,1.165479469299316406e+01,1.994963169097900391e+00,3.367803955078125000e+01,-1.203793411254882812e+02,9.080616760253906250e+01,-7.036933135986328125e+01,3.808235549926757812e+01,-1.351577186584472656e+01,-1.070149917602539062e+02,-1.264315948486328125e+02,6.333633804321289062e+01,-4.146294021606445312e+01
1.043956995010375977e+00,2.000000000000000000e+00,1.168312835693359375e+01,1.948752880096435547e+00,3.367147445678710938e+01,-1.204327926635742188e+02,9.080825042724609375e+01,-7.039395141601562500e+01,3.801105499267578125e+01,-1.350661659240722656e+01,-1.070303802490234375e+02,-1.264856643676757812e+02,6.333277130126953125e+01,-4.149194335937500000e+01
1.047958970069885254e+00,2.000000000000000000e+00,1.171154880523681641e+01,1.902293682098388672e+00,3.366490554809570312e+01,-1.204863662719726562e+02,9.081043243408203125e+01,-7.041761779785156250e+01,3.793980789184570312e+01,-1.349773502349853516e+01,-1.070458908081054688e+02,-1.265401000976562500e+02,6.332846832275390625e+01,-4.152061843872070312e+01
1.051565051078796387e+00,2.000000000000000000e+00,1.173996829986572266e+01,1.855970263481140137e+00,3.365854263305664062e+01,-1.205394134521484375e+02,9.081224822998046875e+01,-7.044114685058593750e+01,3.786746215820312500e+01,-1.348880958557128906e+01,-1.070607376098632812e+02,-1.265933761596679688e+02,6.332409667968750000e+01,-4.155039215087890625e+01
1.055796980857849121e+00,2.000000000000000000e+00,1.176850318908691406e+01,1.809669256210327148e+00,3.365228271484375000e+01,-1.205931396484375000e+02,9.081421661376953125e+01,-7.046495056152343750e+01,3.779489898681640625e+01,-1.347979164123535156e+01,-1.070756301879882812e+02,-1.266474456787109375e+02,6.332016372680664062e+01,-4.158103942871093750e+01
1.060181975364685059e+00,2.000000000000000000e+00,1.179689407348632812e+01,1.763187527656555176e+00,3.364591598510742188e+01,-1.206470718383789062e+02,9.081619262695312500e+01,-7.048902893066406250e+01,3.772244262695312500e+01,-1.347026920318603516e+01,-1.070908660888671875e+02,-1.267020187377929688e+02,6.331637954711914062e+01,-4.161037826538085938e+01
1.064743041992187500e+00,2.000000000000000000e+00,1.182528495788574219e+01,1.716728329658508301e+00,3.363936996459960938e+01,-1.206999588012695312e+02,9.081806182861328125e+01,-7.051324462890625000e+01,3.765125274658203125e+01,-1.346093177795410156e+01,-1.071061477661132812e+02,-1.267561035156250000e+02,6.331200027465820312e+01,-4.164036941528320312e+01
1.068019986152648926e+00,2.000000000000000000e+00,1.185367584228515625e+01,1.670336961746215820e+00,3.363284301757812500e+01,-1.207537994384765625e+02,9.082013702392578125e+01,-7.053771972656250000e+01,3.758016967773437500e+01,-1.345195960998535156e+01,-1.071213226318359375e+02,-1.268104553222656250e+02,6.330734252929687500e+01,-4.167200851440429688e+01
1.071846008300781250e+00,2.000000000000000000e+00,1.188195133209228516e+01,1.623900413513183594e+00,3.362635803222656250e+01,-1.208072662353515625e+02,9.082211303710937500e+01,-7.056274414062500000e+01,3.750815582275390625e+01,-1.344303226470947266e+01,-1.071364440917968750e+02,-1.268648071289062500e+02,6.330319213867187500e+01,-4.170222091674804688e+01
1.075929045677185059e+00,2.000000000000000000e+00,1.191040039062500000e+01,1.577554345130920410e+00,3.361977005004882812e+01,-1.208606185913085938e+02,9.082382202148437500e+01,-7.058715820312500000e+01,3.743526077270507812e+01,-1.343419742584228516e+01,-1.071515121459960938e+02,-1.269184570312500000e+02,6.329918289184570312e+01,-4.173122787475585938e+01
1.079944014549255371e+00,2.000000000000000000e+00,1.193902111053466797e+01,1.531185626983642578e+00,3.361315917968750000e+01,-1.209148712158203125e+02,9.082595062255859375e+01,-7.061082458496093750e+01,3.736280441284179688e+01,-1.342504215240478516e+01,-1.071669540405273438e+02,-1.269734497070312500e+02,6.329495239257812500e+01,-4.176209640502929688e+01
1.085190057754516602e+00,2.000000000000000000e+00,1.196747016906738281e+01,1.484816908836364746e+00,3.360655212402343750e+01,-1.209680709838867188e+02,9.082781219482421875e+01,-7.063394927978515625e+01,3.729183197021484375e+01,-1.341611671447753906e+01,-1.071825027465820312e+02,-1.270278701782226562e+02,6.329058074951171875e+01,-4.179373550415039062e+01
1.088930964469909668e+00,2.000000000000000000e+00,1.199597549438476562e+01,1.438335061073303223e+00,3.360015106201171875e+01,-1.210218048095703125e+02,9.082968139648437500e+01,-7.065843963623046875e+01,3.722097396850585938e+01,-1.340709877014160156e+01,-1.071977920532226562e+02,-1.270815200805664062e+02,6.328621292114257812e+01,-4.182471847534179688e+01
1.092097997665405273e+00,2.000000000000000000e+00,1.202445220947265625e+01,1.392011523246765137e+00,3.359382629394531250e+01,-1.210758438110351562e+02,9.083180999755859375e+01,-7.068244171142578125e+01,3.714868164062500000e+01,-1.339817142486572266e+01,-1.072129669189453125e+02,-1.271355133056640625e+02,6.328220367431640625e+01,-4.185416412353515625e+01
1.096349000930786133e+00,2.000000000000000000e+00,1.205287170410156250e+01,1.345801234245300293e+00,3.358734130859375000e+01,-1.211289978027343750e+02,9.083357238769531250e+01,-7.070651245117187500e+01,3.707611846923828125e+01,-1.338929176330566406e+01,-1.072280273437500000e+02,-1.271900253295898438e+02,6.327819824218750000e+01,-4.188426589965820312e+01
1.100000977516174316e+00,2.000000000000000000e+00,1.208160781860351562e+01,1.299568414688110352e+00,3.358073043823242188e+01,-1.211825561523437500e+02,9.083544158935546875e+01,-7.073100280761718750e+01,3.700426864624023438e+01,-1.338009071350097656e+01,-1.072433166503906250e+02,-1.272442245483398438e+02,6.327411651611328125e+01,-4.191568756103515625e+01
1.102751016616821289e+00,2.000000000000000000e+00,1.211022853851318359e+01,1.253109216690063477e+00,3.357420349121093750e+01,-1.212365570068359375e+02,9.083730316162109375e+01,-7.075588989257812500e+01,3.693334960937500000e+01,-1.337079811096191406e+01,-1.072582168579101562e+02,-1.272990188598632812e+02,6.326974487304687500e+01,-4.194567871093750000e+01
1.107921957969665527e+00,2.000000000000000000e+00,1.213870620727539062e+01,1.206672549247741699e+00,3.356769943237304688e+01,-1.212900085449218750e+02,9.083906555175781250e+01,-7.078009796142578125e+01,3.686226654052734375e+01,-1.336168861389160156e+01,-1.072734451293945312e+02,-1.273531570434570312e+02,6.326551437377929688e+01,-4.197501373291015625e+01
1.110736966133117676e+00,2.000000000000000000e+00,1.216724014282226562e+01,1.160371780395507812e+00,3.356115341186523438e+01,-1.213439025878906250e+02,9.084124755859375000e+01,-7.080356597900390625e+01,3.679008865356445312e+01,-1.335285377502441406e+01,-1.072888412475585938e+02,-1.274068679809570312e+02,6.326143646240234375e+01,-4.200467681884765625e+01
