rpiRobotics/ARM-21-02-F-19-Robot-Motion-Program/data_performance_abb/curve_2/dual_arm/diffevo_pose6/grad_result/real/run_0.csv
timestamp,cmd_num,J1,J2,J3,J4,J5,J6,J1_2,J2_2,J3_2,J4_2,J5_2,J6_2
3.710000019054859877e-04,-1.000000000000000000e+00,5.492991924285888672e+00,1.202368450164794922e+01,3.508117675781250000e+01,-1.087817230224609375e+02,9.036631011962890625e+01,-6.516024780273437500e+01,5.363696289062500000e+01,-1.548919105529785156e+01,-1.037325286865234375e+02,-1.146962661743164062e+02,6.423976135253906250e+01,-3.491069030761718750e+01
1.949000055901706219e-03,-1.000000000000000000e+00,5.492991924285888672e+00,1.202368450164794922e+01,3.508117675781250000e+01,-1.087816696166992188e+02,9.036620330810546875e+01,-6.516011810302734375e+01,5.363707351684570312e+01,-1.548909854888916016e+01,-1.037325286865234375e+02,-1.146960449218750000e+02,6.423976135253906250e+01,-3.491047286987304688e+01
4.588000010699033737e-03,-1.000000000000000000e+00,5.492991924285888672e+00,1.202368450164794922e+01,3.508117675781250000e+01,-1.087816696166992188e+02,9.036620330810546875e+01,-6.516011810302734375e+01,5.363723754882812500e+01,-1.548909854888916016e+01,-1.037326354980468750e+02,-1.146962661743164062e+02,6.423998260498046875e+01,-3.491069030761718750e+01
8.851000107824802399e-03,-1.000000000000000000e+00,5.492905616760253906e+00,1.202368450164794922e+01,3.508113479614257812e+01,-1.087817230224609375e+02,9.036620330810546875e+01,-6.516024780273437500e+01,5.363723754882812500e+01,-1.548909854888916016e+01,-1.037326354980468750e+02,-1.146962661743164062e+02,6.423998260498046875e+01,-3.491069030761718750e+01
1.259300019592046738e-02,-1.000000000000000000e+00,5.492991924285888672e+00,1.202363872528076172e+01,3.508117675781250000e+01,-1.087817230224609375e+02,9.036631011962890625e+01,-6.516045379638671875e+01,5.363696289062500000e+01,-1.548909854888916016e+01,-1.037325286865234375e+02,-1.146960449218750000e+02,6.423976135253906250e+01,-3.491069030761718750e+01
1.652700081467628479e-02,-1.000000000000000000e+00,5.493049621582031250e+00,1.202363872528076172e+01,3.508113479614257812e+01,-1.087817230224609375e+02,9.036631011962890625e+01,-6.516024780273437500e+01,5.363696289062500000e+01,-1.548909854888916016e+01,-1.037325286865234375e+02,-1.146962661743164062e+02,6.423998260498046875e+01,-3.491069030761718750e+01
2.069899998605251312e-02,-1.000000000000000000e+00,5.492991924285888672e+00,1.202368450164794922e+01,3.508117675781250000e+01,-1.087818298339843750e+02,9.036631011962890625e+01,-6.516024780273437500e+01,5.363707351684570312e+01,-1.548909854888916016e+01,-1.037325286865234375e+02,-1.146962661743164062e+02,6.423976135253906250e+01,-3.491069030761718750e+01
2.479000017046928406e-02,-1.000000000000000000e+00,5.492991924285888672e+00,1.202363872528076172e+01,3.508117675781250000e+01,-1.087817230224609375e+02,9.036620330810546875e+01,-6.516024780273437500e+01,5.363707351684570312e+01,-1.548919105529785156e+01,-1.037325286865234375e+02,-1.146960449218750000e+02,6.423976135253906250e+01,-3.491069030761718750e+01
2.868399955332279205e-02,-1.000000000000000000e+00,5.493049621582031250e+00,1.202363872528076172e+01,3.508113479614257812e+01,-1.087817230224609375e+02,9.036620330810546875e+01,-6.516045379638671875e+01,5.363707351684570312e+01,-1.548909854888916016e+01,-1.037326354980468750e+02,-1.146962661743164062e+02,6.423976135253906250e+01,-3.491069030761718750e+01
3.372799977660179138e-02,-1.000000000000000000e+00,5.492991924285888672e+00,1.202363872528076172e+01,3.508113479614257812e+01,-1.087817230224609375e+02,9.036631011962890625e+01,-6.516045379638671875e+01,5.363707351684570312e+01,-1.548909854888916016e+01,-1.037325286865234375e+02,-1.146960449218750000e+02,6.423998260498046875e+01,-3.491069030761718750e+01
3.836400061845779419e-02,2.000000000000000000e+00,5.492991924285888672e+00,1.202363872528076172e+01,3.508113479614257812e+01,-1.087817230224609375e+02,9.036620330810546875e+01,-6.516024780273437500e+01,5.363696289062500000e+01,-1.548909854888916016e+01,-1.037325286865234375e+02,-1.146960449218750000e+02,6.423998260498046875e+01,-3.491047286987304688e+01
4.682600125670433044e-02,2.000000000000000000e+00,5.492991924285888672e+00,1.202363872528076172e+01,3.508113479614257812e+01,-1.087815170288085938e+02,9.036631011962890625e+01,-6.516045379638671875e+01,5.363707351684570312e+01,-1.548919105529785156e+01,-1.037325286865234375e+02,-1.146960449218750000e+02,6.423960876464843750e+01,-3.491069030761718750e+01
5.343300104141235352e-02,2.000000000000000000e+00,5.492991924285888672e+00,1.202368450164794922e+01,3.508113479614257812e+01,-1.087817230224609375e+02,9.036620330810546875e+01,-6.516024780273437500e+01,5.363696289062500000e+01,-1.548909854888916016e+01,-1.037325286865234375e+02,-1.146960449218750000e+02,6.423998260498046875e+01,-3.491080474853515625e+01
5.819299817085266113e-02,2.000000000000000000e+00,5.492991924285888672e+00,1.202368450164794922e+01,3.508113479614257812e+01,-1.087817230224609375e+02,9.036620330810546875e+01,-6.516011810302734375e+01,5.363696289062500000e+01,-1.548909854888916016e+01,-1.037326354980468750e+02,-1.146960449218750000e+02,6.423976135253906250e+01,-3.491069030761718750e+01
9.761600196361541748e-02,2.000000000000000000e+00,5.492991924285888672e+00,1.202368450164794922e+01,3.508113479614257812e+01,-1.087818832397460938e+02,9.036620330810546875e+01,-6.516024780273437500e+01,5.363696289062500000e+01,-1.548905372619628906e+01,-1.037325286865234375e+02,-1.146962661743164062e+02,6.423976135253906250e+01,-3.491069030761718750e+01
9.888300299644470215e-02,2.000000000000000000e+00,5.492991924285888672e+00,1.202368450164794922e+01,3.508113479614257812e+01,-1.087818832397460938e+02,9.036620330810546875e+01,-6.516024780273437500e+01,5.363696289062500000e+01,-1.548905372619628906e+01,-1.037325286865234375e+02,-1.146962661743164062e+02,6.423976135253906250e+01,-3.491069030761718750e+01
1.023570001125335693e-01,2.000000000000000000e+00,5.492848396301269531e+00,1.202368450164794922e+01,3.508117675781250000e+01,-1.087818832397460938e+02,9.036631011962890625e+01,-6.516045379638671875e+01,5.363707351684570312e+01,-1.548905372619628906e+01,-1.037325286865234375e+02,-1.146960449218750000e+02,6.423976135253906250e+01,-3.491069030761718750e+01
1.037440001964569092e-01,2.000000000000000000e+00,5.492848396301269531e+00,1.202368450164794922e+01,3.508117675781250000e+01,-1.087818832397460938e+02,9.036631011962890625e+01,-6.516045379638671875e+01,5.363707351684570312e+01,-1.548905372619628906e+01,-1.037325286865234375e+02,-1.146960449218750000e+02,6.423976135253906250e+01,-3.491069030761718750e+01
1.095770001411437988e-01,2.000000000000000000e+00,5.493393898010253906e+00,1.202341270446777344e+01,3.508113479614257812e+01,-1.087818298339843750e+02,9.036631011962890625e+01,-6.516024780273437500e+01,5.363707351684570312e+01,-1.548909854888916016e+01,-1.037325286865234375e+02,-1.146960449218750000e+02,6.423976135253906250e+01,-3.491047286987304688e+01
1.108700037002563477e-01,2.000000000000000000e+00,5.493393898010253906e+00,1.202341270446777344e+01,3.508113479614257812e+01,-1.087818298339843750e+02,9.036631011962890625e+01,-6.516024780273437500e+01,5.363707351684570312e+01,-1.548909854888916016e+01,-1.037325286865234375e+02,-1.146960449218750000e+02,6.423976135253906250e+01,-3.491047286987304688e+01
1.133090034127235413e-01,2.000000000000000000e+00,5.493967533111572266e+00,1.202286911010742188e+01,3.508117675781250000e+01,-1.087817230224609375e+02,9.036631011962890625e+01,-6.516045379638671875e+01,5.363696289062500000e+01,-1.548919105529785156e+01,-1.037325286865234375e+02,-1.146962661743164062e+02,6.423976135253906250e+01,-3.491069030761718750e+01
1.147029995918273926e-01,2.000000000000000000e+00,5.493967533111572266e+00,1.202286911010742188e+01,3.508117675781250000e+01,-1.087817230224609375e+02,9.036631011962890625e+01,-6.516045379638671875e+01,5.363696289062500000e+01,-1.548919105529785156e+01,-1.037325286865234375e+02,-1.146962661743164062e+02,6.423976135253906250e+01,-3.491069030761718750e+01
1.237490028142929077e-01,2.000000000000000000e+00,5.495001316070556641e+00,1.202180576324462891e+01,3.508113479614257812e+01,-1.087818298339843750e+02,9.036631011962890625e+01,-6.516024780273437500e+01,5.363619613647460938e+01,-1.548955821990966797e+01,-1.037304153442382812e+02,-1.146966247558593750e+02,6.423946380615234375e+01,-3.491047286987304688e+01
1.273840069770812988e-01,2.000000000000000000e+00,5.499680995941162109e+00,1.201737022399902344e+01,3.508113479614257812e+01,-1.087818832397460938e+02,9.036631011962890625e+01,-6.516059112548828125e+01,5.363542556762695312e+01,-1.549010562896728516e+01,-1.037285079956054688e+02,-1.146973495483398438e+02,6.423910522460937500e+01,-3.491091537475585938e+01
1.299850046634674072e-01,2.000000000000000000e+00,5.503038883209228516e+00,1.201352310180664062e+01,3.508113479614257812e+01,-1.087820434570312500e+02,9.036641693115234375e+01,-6.516045379638671875e+01,5.363333892822265625e+01,-1.549070167541503906e+01,-1.037269821166992188e+02,-1.146977005004882812e+02,6.423764038085937500e+01,-3.491212463378906250e+01
1.312569975852966309e-01,2.000000000000000000e+00,5.503038883209228516e+00,1.201352310180664062e+01,3.508113479614257812e+01,-1.087820434570312500e+02,9.036641693115234375e+01,-6.516045379638671875e+01,5.363333892822265625e+01,-1.549070167541503906e+01,-1.037269821166992188e+02,-1.146977005004882812e+02,6.423764038085937500e+01,-3.491212463378906250e+01
1.340270042419433594e-01,2.000000000000000000e+00,5.507144451141357422e+00,1.200820541381835938e+01,3.508107376098632812e+01,-1.087831497192382812e+02,9.036652374267578125e+01,-6.516045379638671875e+01,5.362850570678710938e+01,-1.549097633361816406e+01,-1.037258453369140625e+02,-1.146980590820312500e+02,6.423458099365234375e+01,-3.491355133056640625e+01
1.378069967031478882e-01,2.000000000000000000e+00,5.511967182159423828e+00,1.200143814086914062e+01,3.508089447021484375e+01,-1.087857284545898438e+02,9.036652374267578125e+01,-6.516092681884765625e+01,5.362186050415039062e+01,-1.549106693267822266e+01,-1.037244796752929688e+02,-1.146984939575195312e+02,6.423101043701171875e+01,-3.491431808471679688e+01
1.390659958124160767e-01,2.000000000000000000e+00,5.511967182159423828e+00,1.200143814086914062e+01,3.508089447021484375e+01,-1.087857284545898438e+02,9.036652374267578125e+01,-6.516092681884765625e+01,5.362186050415039062e+01,-1.549106693267822266e+01,-1.037244796752929688e+02,-1.146984939575195312e+02,6.423101043701171875e+01,-3.491431808471679688e+01
1.416620016098022461e-01,2.000000000000000000e+00,5.511967182159423828e+00,1.200143814086914062e+01,3.508089447021484375e+01,-1.087857284545898438e+02,9.036652374267578125e+01,-6.516092681884765625e+01,5.361317825317382812e+01,-1.549015235900878906e+01,-1.037236099243164062e+02,-1.146993560791015625e+02,6.422889709472656250e+01,-3.491552734375000000e+01
1.454270035028457642e-01,2.000000000000000000e+00,5.517651081085205078e+00,1.199281692504882812e+01,3.508074951171875000e+01,-1.087907257080078125e+02,9.036668395996093750e+01,-6.516181182861328125e+01,5.361317825317382812e+01,-1.549015235900878906e+01,-1.037236099243164062e+02,-1.146993560791015625e+02,6.422889709472656250e+01,-3.491552734375000000e+01
1.504029929637908936e-01,2.000000000000000000e+00,5.524626731872558594e+00,1.198208999633789062e+01,3.508032226562500000e+01,-1.087972106933593750e+02,9.036679077148437500e+01,-6.516397857666015625e+01,5.360213851928710938e+01,-1.548891544342041016e+01,-1.037239913940429688e+02,-1.147019348144531250e+02,6.422679138183593750e+01,-3.491684722900390625e+01
1.517329961061477661e-01,2.000000000000000000e+00,5.533152580261230469e+00,1.196887397766113281e+01,3.507965469360351562e+01,-1.088049011230468750e+02,9.036711120605468750e+01,-6.516839599609375000e+01,5.358862304687500000e+01,-1.548822975158691406e+01,-1.037301406860351562e+02,-1.147085494995117188e+02,6.422482299804687500e+01,-3.491871261596679688e+01
1.546940058469772339e-01,2.000000000000000000e+00,5.543027877807617188e+00,1.195359897613525391e+01,3.507878112792968750e+01,-1.088155899047851562e+02,9.036721801757812500e+01,-6.517361450195312500e+01,5.357154083251953125e+01,-1.548731422424316406e+01,-1.037338333129882812e+02,-1.147186050415039062e+02,6.422322082519531250e+01,-3.492135238647460938e+01
1.559479981660842896e-01,2.000000000000000000e+00,5.543027877807617188e+00,1.195359897613525391e+01,3.507878112792968750e+01,-1.088155899047851562e+02,9.036721801757812500e+01,-6.517361450195312500e+01,5.357154083251953125e+01,-1.548731422424316406e+01,-1.037338333129882812e+02,-1.147186050415039062e+02,6.422322082519531250e+01,-3.492135238647460938e+01
1.600649952888488770e-01,2.000000000000000000e+00,5.554051399230957031e+00,1.193653583526611328e+01,3.507765960693359375e+01,-1.088289718627929688e+02,9.036753845214843750e+01,-6.517944335937500000e+01,5.355049896240234375e+01,-1.548598575592041016e+01,-1.037358474731445312e+02,-1.147295150756835938e+02,6.422198486328125000e+01,-3.492618179321289062e+01
1.626259982585906982e-01,2.000000000000000000e+00,5.565734863281250000e+00,1.191757202148437500e+01,3.507609558105468750e+01,-1.088457260131835938e+02,9.036807250976562500e+01,-6.518683624267578125e+01,5.352517700195312500e+01,-1.548420143127441406e+01,-1.037393264770507812e+02,-1.147434387207031250e+02,6.422074127197265625e+01,-3.493288803100585938e+01
1.639540046453475952e-01,2.000000000000000000e+00,5.565734863281250000e+00,1.191757202148437500e+01,3.507609558105468750e+01,-1.088457260131835938e+02,9.036807250976562500e+01,-6.518683624267578125e+01,5.352517700195312500e+01,-1.548420143127441406e+01,-1.037393264770507812e+02,-1.147434387207031250e+02,6.422074127197265625e+01,-3.493288803100585938e+01
1.665409952402114868e-01,2.000000000000000000e+00,5.578509807586669922e+00,1.189677524566650391e+01,3.507404327392578125e+01,-1.088667907714843750e+02,9.036865997314453125e+01,-6.519618988037109375e+01,5.349491119384765625e+01,-1.548214149475097656e+01,-1.037440032958984375e+02,-1.147619705200195312e+02,6.421936035156250000e+01,-3.494222259521484375e+01
1.717340052127838135e-01,2.000000000000000000e+00,5.592374801635742188e+00,1.187462043762207031e+01,3.507131576538085938e+01,-1.088917083740234375e+02,9.036950683593750000e+01,-6.520725250244140625e+01,5.345914840698242188e+01,-1.547907352447509766e+01,-1.037509689331054688e+02,-1.147850189208984375e+02,6.421789550781250000e+01,-3.495475006103515625e+01
1.741659939289093018e-01,2.000000000000000000e+00,5.607130527496337891e+00,1.185081386566162109e+01,3.506800079345703125e+01,-1.089214172363281250e+02,9.037030792236328125e+01,-6.521979522705078125e+01,5.341860961914062500e+01,-1.547495460510253906e+01,-1.037585830688476562e+02,-1.148123779296875000e+02,6.421636962890625000e+01,-3.496914291381835938e+01
1.755580008029937744e-01,2.000000000000000000e+00,5.607130527496337891e+00,1.185081386566162109e+01,3.506800079345703125e+01,-1.089214172363281250e+02,9.037030792236328125e+01,-6.521979522705078125e+01,5.341860961914062500e+01,-1.547495460510253906e+01,-1.037585830688476562e+02,-1.148123779296875000e+02,6.421636962890625000e+01,-3.496914291381835938e+01
1.780699938535690308e-01,2.000000000000000000e+00,5.622976303100585938e+00,1.182521915435791016e+01,3.506417846679687500e+01,-1.089542846679687500e+02,9.037137603759765625e+01,-6.523410797119140625e+01,5.337477874755859375e+01,-1.546982669830322266e+01,-1.037676620483398438e+02,-1.148453292846679688e+02,6.421403503417968750e+01,-3.498595046997070312e+01
1.794770061969757080e-01,2.000000000000000000e+00,5.622976303100585938e+00,1.182521915435791016e+01,3.506417846679687500e+01,-1.089542846679687500e+02,9.037137603759765625e+01,-6.523410797119140625e+01,5.337477874755859375e+01,-1.546982669830322266e+01,-1.037676620483398438e+02,-1.148453292846679688e+02,6.421403503417968750e+01,-3.498595046997070312e+01
1.840229928493499756e-01,2.000000000000000000e+00,5.639798641204833984e+00,1.179770183563232422e+01,3.505997085571289062e+01,-1.089894714355468750e+02,9.037223052978515625e+01,-6.525024414062500000e+01,5.332764434814453125e+01,-1.546387672424316406e+01,-1.037793045043945312e+02,-1.148833847045898438e+02,6.421177673339843750e+01,-3.500583648681640625e+01
1.866129934787750244e-01,2.000000000000000000e+00,5.657682895660400391e+00,1.176782989501953125e+01,3.505533599853515625e+01,-1.090278701782226562e+02,9.037335205078125000e+01,-6.526794433593750000e+01,5.327738189697265625e+01,-1.545696449279785156e+01,-1.037934494018554688e+02,-1.149251022338867188e+02,6.420930480957031250e+01,-3.502769851684570312e+01
1.879280060529708862e-01,2.000000000000000000e+00,5.657682895660400391e+00,1.176782989501953125e+01,3.505533599853515625e+01,-1.090278701782226562e+02,9.037335205078125000e+01,-6.526794433593750000e+01,5.327738189697265625e+01,-1.545696449279785156e+01,-1.037934494018554688e+02,-1.149251022338867188e+02,6.420930480957031250e+01,-3.502769851684570312e+01
1.905059963464736938e-01,2.000000000000000000e+00,5.676658153533935547e+00,1.173610210418701172e+01,3.505043792724609375e+01,-1.090712738037109375e+02,9.037452697753906250e+01,-6.528707122802734375e+01,5.322508621215820312e+01,-1.544922733306884766e+01,-1.038084564208984375e+02,-1.149709930419921875e+02,6.420667266845703125e+01,-3.505230712890625000e+01
1.985689997673034668e-01,2.000000000000000000e+00,5.717192173004150391e+00,1.166687774658203125e+01,3.503941726684570312e+01,-1.091658248901367188e+02,9.037724304199218750e+01,-6.532932281494140625e+01,5.311148834228515625e+01,-1.543229007720947266e+01,-1.038407592773437500e+02,-1.150714492797851562e+02,6.420055389404296875e+01,-3.510866928100585938e+01
1.998730003833770752e-01,2.000000000000000000e+00,5.717192173004150391e+00,1.166687774658203125e+01,3.503941726684570312e+01,-1.091658248901367188e+02,9.037724304199218750e+01,-6.532932281494140625e+01,5.311148834228515625e+01,-1.543229007720947266e+01,-1.038407592773437500e+02,-1.150714492797851562e+02,6.420055389404296875e+01,-3.510866928100585938e+01
2.030519992113113403e-01,2.000000000000000000e+00,5.738435268402099609e+00,1.162999153137207031e+01,3.503340148925781250e+01,-1.092148056030273438e+02,9.037878417968750000e+01,-6.535224151611328125e+01,5.304848098754882812e+01,-1.542331886291503906e+01,-1.038572998046875000e+02,-1.151246566772460938e+02,6.419720458984375000e+01,-3.513821792602539062e+01
2.043049931526184082e-01,2.000000000000000000e+00,5.738435268402099609e+00,1.162999153137207031e+01,3.503340148925781250e+01,-1.092148056030273438e+02,9.037878417968750000e+01,-6.535224151611328125e+01,5.304848098754882812e+01,-1.542331886291503906e+01,-1.038572998046875000e+02,-1.151246566772460938e+02,6.419720458984375000e+01,-3.513821792602539062e+01
2.101369947195053101e-01,2.000000000000000000e+00,5.783705711364746094e+00,1.155123901367187500e+01,3.502071380615234375e+01,-1.093195800781250000e+02,9.038188171386718750e+01,-6.540039062500000000e+01,5.291279983520507812e+01,-1.540496253967285156e+01,-1.038901443481445312e+02,-1.152338027954101562e+02,6.419057464599609375e+01,-3.520095062255859375e+01
2.117889970541000366e-01,2.000000000000000000e+00,5.783705711364746094e+00,1.155123901367187500e+01,3.502071380615234375e+01,-1.093195800781250000e+02,9.038188171386718750e+01,-6.540039062500000000e+01,5.291279983520507812e+01,-1.540496253967285156e+01,-1.038901443481445312e+02,-1.152338027954101562e+02,6.419057464599609375e+01,-3.520095062255859375e+01
2.143249958753585815e-01,2.000000000000000000e+00,5.808077812194824219e+00,1.150923728942871094e+01,3.501428604125976562e+01,-1.093729858398437500e+02,9.038368988037109375e+01,-6.542372131347656250e+01,5.284221267700195312e+01,-1.539594459533691406e+01,-1.039062423706054688e+02,-1.152885971069335938e+02,6.418693542480468750e+01,-3.523083496093750000e+01
2.157270014286041260e-01,2.000000000000000000e+00,5.808077812194824219e+00,1.150923728942871094e+01,3.501428604125976562e+01,-1.093729858398437500e+02,9.038368988037109375e+01,-6.542372131347656250e+01,5.284221267700195312e+01,-1.539594459533691406e+01,-1.039062423706054688e+02,-1.152885971069335938e+02,6.418693542480468750e+01,-3.523083496093750000e+01
2.200890034437179565e-01,2.000000000000000000e+00,5.833742141723632812e+00,1.146542644500732422e+01,3.500784301757812500e+01,-1.094269790649414062e+02,9.038561248779296875e+01,-6.544752502441406250e+01,5.277047348022460938e+01,-1.538669681549072266e+01,-1.039218521118164062e+02,-1.153433837890625000e+02,6.418299102783203125e+01,-3.526027679443359375e+01
2.235240042209625244e-01,2.000000000000000000e+00,5.860496520996093750e+00,1.142027950286865234e+01,3.500129318237304688e+01,-1.094809188842773438e+02,9.038752746582031250e+01,-6.547173309326171875e+01,5.269801712036132812e+01,-1.537735843658447266e+01,-1.039370269775390625e+02,-1.153990249633789062e+02,6.417957305908203125e+01,-3.529104232788085938e+01
2.275850027799606323e-01,2.000000000000000000e+00,5.860496520996093750e+00,1.142027950286865234e+01,3.500129318237304688e+01,-1.094809188842773438e+02,9.038752746582031250e+01,-6.547173309326171875e+01,5.269801712036132812e+01,-1.537735843658447266e+01,-1.039370269775390625e+02,-1.153990249633789062e+02,6.417957305908203125e+01,-3.529104232788085938e+01
2.339670062065124512e-01,2.000000000000000000e+00,5.888083934783935547e+00,1.137397861480712891e+01,3.499480819702148438e+01,-1.095357513427734375e+02,9.038945007324218750e+01,-6.549614715576171875e+01,5.262446212768554688e+01,-1.536779308319091797e+01,-1.039523086547851562e+02,-1.154544601440429688e+02,6.417593383789062500e+01,-3.532234954833984375e+01
2.356960028409957886e-01,2.000000000000000000e+00,5.945209980010986328e+00,1.127958965301513672e+01,3.498212051391601562e+01,-1.096442642211914062e+02,9.039344787597656250e+01,-6.554605865478515625e+01,5.247735977172851562e+01,-1.534893321990966797e+01,-1.039827117919921875e+02,-1.155653305053710938e+02,6.416784667968750000e+01,-3.538409423828125000e+01
2.406010031700134277e-01,2.000000000000000000e+00,5.945209980010986328e+00,1.127958965301513672e+01,3.498212051391601562e+01,-1.096442642211914062e+02,9.039344787597656250e+01,-6.554605865478515625e+01,5.247735977172851562e+01,-1.534893321990966797e+01,-1.039827117919921875e+02,-1.155653305053710938e+02,6.416784667968750000e+01,-3.538409423828125000e+01
2.447739988565444946e-01,2.000000000000000000e+00,6.003341674804687500e+00,1.118449783325195312e+01,3.496882247924804688e+01,-1.097533493041992188e+02,9.039760589599609375e+01,-6.559577178955078125e+01,5.233222579956054688e+01,-1.533025550842285156e+01,-1.040126266479492188e+02,-1.156762771606445312e+02,6.415990447998046875e+01,-3.544913482666015625e+01
2.476110011339187622e-01,2.000000000000000000e+00,6.032479286193847656e+00,1.113706588745117188e+01,3.496213531494140625e+01,-1.098083343505859375e+02,9.039947509765625000e+01,-6.561950683593750000e+01,5.225867080688476562e+01,-1.532109928131103516e+01,-1.040281829833984375e+02,-1.157314910888671875e+02,6.415581512451171875e+01,-3.548077392578125000e+01
2.515769898891448975e-01,2.000000000000000000e+00,6.032479286193847656e+00,1.113706588745117188e+01,3.496213531494140625e+01,-1.098083343505859375e+02,9.039947509765625000e+01,-6.561950683593750000e+01,5.225867080688476562e+01,-1.532109928131103516e+01,-1.040281829833984375e+02,-1.157314910888671875e+02,6.415581512451171875e+01,-3.548077392578125000e+01
2.555769979953765869e-01,2.000000000000000000e+00,6.061415672302246094e+00,1.108970165252685547e+01,3.495544815063476562e+01,-1.098629074096679688e+02,9.040133666992187500e+01,-6.564344787597656250e+01,5.218489837646484375e+01,-1.531180763244628906e+01,-1.040438461303710938e+02,-1.157854919433593750e+02,6.415209960937500000e+01,-3.551197433471679688e+01
2.596209943294525146e-01,2.000000000000000000e+00,6.090352058410644531e+00,1.104236030578613281e+01,3.494869613647460938e+01,-1.099170608520507812e+02,9.040341949462890625e+01,-6.566786193847656250e+01,5.211128997802734375e+01,-1.530256080627441406e+01,-1.040595626831054688e+02,-1.158407745361328125e+02,6.414853668212890625e+01,-3.554339599609375000e+01
2.636840045452117920e-01,2.000000000000000000e+00,6.119460582733154297e+00,1.099513149261474609e+01,3.494188690185546875e+01,-1.099719924926757812e+02,9.040555572509765625e+01,-6.569268798828125000e+01,5.203867340087890625e+01,-1.529326820373535156e+01,-1.040748977661132812e+02,-1.158965072631835938e+02,6.414452362060546875e+01,-3.557470703125000000e+01
2.675899863243103027e-01,2.000000000000000000e+00,6.148454666137695312e+00,1.094760799407958984e+01,3.493533706665039062e+01,-1.100264663696289062e+02,9.040752410888671875e+01,-6.571750640869140625e+01,5.196621704101562500e+01,-1.528415870666503906e+01,-1.040901336669921875e+02,-1.159518585205078125e+02,6.414037322998046875e+01,-3.560503005981445312e+01
2.715210020542144775e-01,2.000000000000000000e+00,6.206298828125000000e+00,1.085330963134765625e+01,3.492246627807617188e+01,-1.101354522705078125e+02,9.041157531738281250e+01,-6.576747894287109375e+01,5.181872558593750000e+01,-1.526502418518066406e+01,-1.041203155517578125e+02,-1.160624389648437500e+02,6.413286590576171875e+01,-3.566775894165039062e+01
2.755750119686126709e-01,2.000000000000000000e+00,6.206298828125000000e+00,1.085330963134765625e+01,3.492246627807617188e+01,-1.101354522705078125e+02,9.041157531738281250e+01,-6.576747894287109375e+01,5.181872558593750000e+01,-1.526502418518066406e+01,-1.041203155517578125e+02,-1.160624389648437500e+02,6.413286590576171875e+01,-3.566775894165039062e+01
2.796640098094940186e-01,2.000000000000000000e+00,6.234977245330810547e+00,1.080624008178710938e+01,3.491584014892578125e+01,-1.101892776489257812e+02,9.041360473632812500e+01,-6.579135131835937500e+01,5.174550247192382812e+01,-1.525554847717285156e+01,-1.041355972290039062e+02,-1.161175918579101562e+02,6.412871551513671875e+01,-3.570028305053710938e+01
2.836129963397979736e-01,2.000000000000000000e+00,6.263712406158447266e+00,1.075921440124511719e+01,3.490929031372070312e+01,-1.102439498901367188e+02,9.041573333740234375e+01,-6.581536102294921875e+01,5.167365264892578125e+01,-1.524643898010253906e+01,-1.041508255004882812e+02,-1.161723785400390625e+02,6.412477874755859375e+01,-3.573137283325195312e+01
2.875730097293853760e-01,2.000000000000000000e+00,6.292649269104003906e+00,1.071237087249755859e+01,3.490270233154296875e+01,-1.102984161376953125e+02,9.041781616210937500e+01,-6.583930206298828125e+01,5.160108566284179688e+01,-1.523723697662353516e+01,-1.041660003662109375e+02,-1.162269515991210938e+02,6.412084960937500000e+01,-3.576169586181640625e+01
2.916060090065002441e-01,2.000000000000000000e+00,6.321470737457275391e+00,1.066536808013916016e+01,3.489607620239257812e+01,-1.103522567749023438e+02,9.041978454589843750e+01,-6.586351776123046875e+01,5.152786254882812500e+01,-1.522803688049316406e+01,-1.041811752319335938e+02,-1.162818832397460938e+02,6.411640167236328125e+01,-3.579267501831054688e+01
2.958509922027587891e-01,2.000000000000000000e+00,6.350206375122070312e+00,1.061865997314453125e+01,3.488951110839843750e+01,-1.104068298339843750e+02,9.042185974121093750e+01,-6.588819885253906250e+01,5.145387268066406250e+01,-1.521860599517822266e+01,-1.041967315673828125e+02,-1.163380432128906250e+02,6.411231994628906250e+01,-3.582321929931640625e+01
2.995809912681579590e-01,2.000000000000000000e+00,6.379056453704833984e+00,1.057188415527343750e+01,3.488300323486328125e+01,-1.104611358642578125e+02,9.042383575439453125e+01,-6.591349029541015625e+01,5.138114166259765625e+01,-1.520917701721191406e+01,-1.042124481201171875e+02,-1.163931884765625000e+02,6.410860443115234375e+01,-3.585342788696289062e+01
3.037599921226501465e-01,2.000000000000000000e+00,6.407763481140136719e+00,1.052513027191162109e+01,3.487664031982421875e+01,-1.105155944824218750e+02,9.042581176757812500e+01,-6.593858337402343750e+01,5.130929183959960938e+01,-1.519983863830566406e+01,-1.042275161743164062e+02,-1.164484024047851562e+02,6.410445404052734375e+01,-3.588529205322265625e+01
3.077470064163208008e-01,2.000000000000000000e+00,6.436555862426757812e+00,1.047844505310058594e+01,3.487037658691406250e+01,-1.105705337524414062e+02,9.042805480957031250e+01,-6.596334075927734375e+01,5.123699951171875000e+01,-1.519054603576660156e+01,-1.042428512573242188e+02,-1.165041198730468750e+02,6.409979248046875000e+01,-3.591638183593750000e+01
3.116289973258972168e-01,2.000000000000000000e+00,6.465579032897949219e+00,1.043180465698242188e+01,3.486391067504882812e+01,-1.106244735717773438e+02,9.043002319335937500e+01,-6.598734283447265625e+01,5.116382980346679688e+01,-1.518125343322753906e+01,-1.042581329345703125e+02,-1.165589828491210938e+02,6.409512329101562500e+01,-3.594659805297851562e+01
3.156299889087677002e-01,2.000000000000000000e+00,6.494342803955078125e+00,1.038509654998779297e+01,3.485726165771484375e+01,-1.106793060302734375e+02,9.043204498291015625e+01,-6.601142120361328125e+01,5.109027481079101562e+01,-1.517182254791259766e+01,-1.042735824584960938e+02,-1.166141967773437500e+02,6.409112548828125000e+01,-3.597669601440429688e+01
3.207170069217681885e-01,2.000000000000000000e+00,6.523107528686523438e+00,1.033854675292968750e+01,3.485069656372070312e+01,-1.107337722778320312e+02,9.043434143066406250e+01,-6.603556060791015625e+01,5.101776885986328125e+01,-1.516239356994628906e+01,-1.042890243530273438e+02,-1.166696472167968750e+02,6.408696746826171875e+01,-3.600811767578125000e+01
3.235589861869812012e-01,2.000000000000000000e+00,6.580779552459716797e+00,1.024524402618408203e+01,3.483740234375000000e+01,-1.108424911499023438e+02,9.043839263916015625e+01,-6.608493804931640625e+01,5.087318801879882812e+01,-1.514422035217285156e+01,-1.043198623657226562e+02,-1.167793502807617188e+02,6.407800292968750000e+01,-3.607096099853515625e+01
3.278990089893341064e-01,2.000000000000000000e+00,6.580779552459716797e+00,1.024524402618408203e+01,3.483740234375000000e+01,-1.108424911499023438e+02,9.043839263916015625e+01,-6.608493804931640625e+01,5.087318801879882812e+01,-1.514422035217285156e+01,-1.043198623657226562e+02,-1.167793502807617188e+02,6.407800292968750000e+01,-3.607096099853515625e+01
3.317469954490661621e-01,2.000000000000000000e+00,6.609715938568115234e+00,1.019846725463867188e+01,3.483068847656250000e+01,-1.108968505859375000e+02,9.044057464599609375e+01,-6.611022949218750000e+01,5.079979705810546875e+01,-1.513510990142822266e+01,-1.043352508544921875e+02,-1.168347167968750000e+02,6.407414245605468750e+01,-3.610194015502929688e+01
3.355830013751983643e-01,2.000000000000000000e+00,6.638594627380371094e+00,1.015151023864746094e+01,3.482418441772460938e+01,-1.109513168334960938e+02,9.044281768798828125e+01,-6.613497924804687500e+01,5.072668457031250000e+01,-1.512595653533935547e+01,-1.043503723144531250e+02,-1.168897933959960938e+02,6.407035064697265625e+01,-3.613358306884765625e+01
3.396359980106353760e-01,2.000000000000000000e+00,6.667215347290039062e+00,1.010457611083984375e+01,3.481777954101562500e+01,-1.110056762695312500e+02,9.044484710693359375e+01,-6.615912628173828125e+01,5.065390396118164062e+01,-1.511657142639160156e+01,-1.043658218383789062e+02,-1.169452972412109375e+02,6.406634521484375000e+01,-3.616544342041015625e+01
3.436810076236724854e-01,2.000000000000000000e+00,6.695778846740722656e+00,1.005766487121582031e+01,3.481127166748046875e+01,-1.110595092773437500e+02,9.044709014892578125e+01,-6.618313598632812500e+01,5.058172225952148438e+01,-1.510746192932128906e+01,-1.043815917968750000e+02,-1.170008850097656250e+02,6.406190490722656250e+01,-3.619587326049804688e+01
3.479210138320922852e-01,2.000000000000000000e+00,6.753249645233154297e+00,9.963545799255371094e+00,3.479789352416992188e+01,-1.111683883666992188e+02,9.045134735107421875e+01,-6.623182678222656250e+01,5.043642425537109375e+01,-1.508915138244628906e+01,-1.044124374389648438e+02,-1.171105346679687500e+02,6.405374145507812500e+01,-3.625684738159179688e+01
3.519990146160125732e-01,2.000000000000000000e+00,6.753249645233154297e+00,9.963545799255371094e+00,3.479789352416992188e+01,-1.111683883666992188e+02,9.045134735107421875e+01,-6.623182678222656250e+01,5.043642425537109375e+01,-1.508915138244628906e+01,-1.044124374389648438e+02,-1.171105346679687500e+02,6.405374145507812500e+01,-3.625684738159179688e+01
3.557420074939727783e-01,2.000000000000000000e+00,6.782214641571044922e+00,9.916589736938476562e+00,3.479130554199218750e+01,-1.112227935791015625e+02,9.045353698730468750e+01,-6.625611114501953125e+01,5.036304092407226562e+01,-1.507958412170410156e+01,-1.044277114868164062e+02,-1.171656799316406250e+02,6.404965972900390625e+01,-3.628881835937500000e+01
3.595770001411437988e-01,2.000000000000000000e+00,6.811209201812744141e+00,9.869405746459960938e+00,3.478465652465820312e+01,-1.112770004272460938e+02,9.045583343505859375e+01,-6.628119659423828125e+01,5.029030609130859375e+01,-1.507010746002197266e+01,-1.044427261352539062e+02,-1.172203903198242188e+02,6.404557800292968750e+01,-3.631980133056640625e+01
3.637009859085083008e-01,2.000000000000000000e+00,6.840001583099365234e+00,9.822177886962890625e+00,3.477797317504882812e+01,-1.113308258056640625e+02,9.045801544189453125e+01,-6.630628967285156250e+01,5.021818542480468750e+01,-1.506026649475097656e+01,-1.044580688476562500e+02,-1.172755355834960938e+02,6.404164123535156250e+01,-3.634891510009765625e+01
3.676179945468902588e-01,2.000000000000000000e+00,6.868794918060302734e+00,9.774971961975097656e+00,3.477142333984375000e+01,-1.113851928710937500e+02,9.046009063720703125e+01,-6.633090209960937500e+01,5.014567565917968750e+01,-1.505069923400878906e+01,-1.044732894897460938e+02,-1.173309707641601562e+02,6.403734588623046875e+01,-3.637923812866210938e+01
3.719579875469207764e-01,2.000000000000000000e+00,6.897759914398193359e+00,9.727651596069335938e+00,3.476501846313476562e+01,-1.114400253295898438e+02,9.046244049072265625e+01,-6.635443878173828125e+01,5.007233810424804688e+01,-1.504136085510253906e+01,-1.044880828857421875e+02,-1.173861846923828125e+02,6.403268432617187500e+01,-3.641021728515625000e+01
3.761999905109405518e-01,2.000000000000000000e+00,6.926811218261718750e+00,9.680649757385253906e+00,3.475857543945312500e+01,-1.114943313598632812e+02,9.046456909179687500e+01,-6.637857818603515625e+01,4.999895095825195312e+01,-1.503211402893066406e+01,-1.045033721923828125e+02,-1.174414825439453125e+02,6.402794647216796875e+01,-3.644031906127929688e+01
3.797479867935180664e-01,2.000000000000000000e+00,6.956063747406005859e+00,9.633669853210449219e+00,3.475198745727539062e+01,-1.115490570068359375e+02,9.046707916259765625e+01,-6.640279388427734375e+01,4.992644500732421875e+01,-1.502250099182128906e+01,-1.045184860229492188e+02,-1.174958419799804688e+02,6.402416229248046875e+01,-3.646943283081054688e+01
3.836219906806945801e-01,2.000000000000000000e+00,6.985057353973388672e+00,9.586509704589843750e+00,3.474533843994140625e+01,-1.116029434204101562e+02,9.046910858154296875e+01,-6.642694091796875000e+01,4.985481262207031250e+01,-1.501302623748779297e+01,-1.045339889526367188e+02,-1.175509872436523438e+02,6.402037048339843750e+01,-3.650063323974609375e+01
3.876650035381317139e-01,2.000000000000000000e+00,7.013907909393310547e+00,9.539710998535156250e+00,3.473864746093750000e+01,-1.116571502685546875e+02,9.047166442871093750e+01,-6.645182800292968750e+01,4.978235626220703125e+01,-1.500368690490722656e+01,-1.045494918823242188e+02,-1.176062011718750000e+02,6.401585388183593750e+01,-3.653216552734375000e+01
3.915759921073913574e-01,2.000000000000000000e+00,7.042872905731201172e+00,9.492753028869628906e+00,3.473191833496093750e+01,-1.117117233276367188e+02,9.047357940673828125e+01,-6.647637176513671875e+01,4.970896530151367188e+01,-1.499453163146972656e+01,-1.045645523071289062e+02,-1.176603469848632812e+02,6.401090240478515625e+01,-3.656282043457031250e+01
3.969449996948242188e-01,2.000000000000000000e+00,7.071637153625488281e+00,9.445637702941894531e+00,3.472518920898437500e+01,-1.117658157348632812e+02,9.047592926025390625e+01,-6.650112915039062500e+01,4.963502883911132812e+01,-1.498501014709472656e+01,-1.045795669555664062e+02,-1.177147064208984375e+02,6.400688934326171875e+01,-3.659281158447265625e+01
4.015420079231262207e-01,2.000000000000000000e+00,7.100544929504394531e+00,9.398794174194335938e+00,3.471846008300781250e+01,-1.118203353881835938e+02,9.047843933105468750e+01,-6.652560424804687500e+01,4.956235122680664062e+01,-1.497544288635253906e+01,-1.045948486328125000e+02,-1.177701416015625000e+02,6.400288391113281250e+01,-3.662379074096679688e+01
4.044089913368225098e-01,2.000000000000000000e+00,7.158188343048095703e+00,9.305333137512207031e+00,3.470542526245117188e+01,-1.119278411865234375e+02,9.048281097412109375e+01,-6.657266998291015625e+01,4.941793823242187500e+01,-1.495639991760253906e+01,-1.046257934570312500e+02,-1.178801498413085938e+02,6.399428176879882812e+01,-3.668718338012695312e+01
4.076299965381622314e-01,2.000000000000000000e+00,7.158188343048095703e+00,9.305333137512207031e+00,3.470542526245117188e+01,-1.119278411865234375e+02,9.048281097412109375e+01,-6.657266998291015625e+01,4.941793823242187500e+01,-1.495639991760253906e+01,-1.046257934570312500e+02,-1.178801498413085938e+02,6.399428176879882812e+01,-3.668718338012695312e+01
4.116750061511993408e-01,2.000000000000000000e+00,7.186779975891113281e+00,9.258625030517578125e+00,3.469891738891601562e+01,-1.119823532104492188e+02,9.048526000976562500e+01,-6.659688568115234375e+01,4.934466171264648438e+01,-1.494747257232666016e+01,-1.046411285400390625e+02,-1.179351425170898438e+02,6.399020385742187500e+01,-3.671629714965820312e+01
4.156439900398254395e-01,2.000000000000000000e+00,7.215744972229003906e+00,9.211780548095703125e+00,3.469225311279296875e+01,-1.120364990234375000e+02,9.048738861083984375e+01,-6.662109375000000000e+01,4.927132415771484375e+01,-1.493854808807373047e+01,-1.046561965942382812e+02,-1.179900054931640625e+02,6.398605346679687500e+01,-3.674673080444335938e+01
4.196789860725402832e-01,2.000000000000000000e+00,7.244538307189941406e+00,9.165184974670410156e+00,3.468568420410156250e+01,-1.120907592773437500e+02,9.048979187011718750e+01,-6.664591217041015625e+01,4.919909286499023438e+01,-1.492943763732910156e+01,-1.046717529296875000e+02,-1.180453720092773438e+02,6.398175048828125000e+01,-3.677803802490234375e+01
4.247780144214630127e-01,2.000000000000000000e+00,7.273417472839355469e+00,9.118477821350097656e+00,3.467907714843750000e+01,-1.121450119018554688e+02,9.049214172363281250e+01,-6.667079925537109375e+01,4.912724304199218750e+01,-1.492000675201416016e+01,-1.046871414184570312e+02,-1.180997238159179688e+02,6.397759628295898438e+01,-3.680968093872070312e+01
4.277800023555755615e-01,2.000000000000000000e+00,7.302325248718261719e+00,9.071701049804687500e+00,3.467250823974609375e+01,-1.121985855102539062e+02,9.049421691894531250e+01,-6.669535827636718750e+01,4.905489730834960938e+01,-1.491080665588378906e+01,-1.047025375366210938e+02,-1.181534347534179688e+02,6.397351837158203125e+01,-3.684022521972656250e+01
4.317960143089294434e-01,2.000000000000000000e+00,7.331146717071533203e+00,9.025106430053710938e+00,3.466590118408203125e+01,-1.122528381347656250e+02,9.049651336669921875e+01,-6.671902465820312500e+01,4.898134231567382812e+01,-1.490165138244628906e+01,-1.047175979614257812e+02,-1.182086639404296875e+02,6.396936798095703125e+01,-3.687153244018554688e+01
4.356569945812225342e-01,2.000000000000000000e+00,7.359939575195312500e+00,8.978375434875488281e+00,3.465937423706054688e+01,-1.123073501586914062e+02,9.049869537353515625e+01,-6.674282836914062500e+01,4.890828323364257812e+01,-1.489245033264160156e+01,-1.047329940795898438e+02,-1.182638778686523438e+02,6.396513748168945312e+01,-3.690273284912109375e+01
4.397290050983428955e-01,2.000000000000000000e+00,7.388961791992187500e+00,8.931622505187988281e+00,3.465304946899414062e+01,-1.123610305786132812e+02,9.050114440917968750e+01,-6.676683807373046875e+01,4.883549880981445312e+01,-1.488329505920410156e+01,-1.047485504150390625e+02,-1.183187408447265625e+02,6.396098709106445312e+01,-3.693404769897460938e+01
4.442540109157562256e-01,2.000000000000000000e+00,7.417755603790283203e+00,8.884914398193359375e+00,3.464664840698242188e+01,-1.124156570434570312e+02,9.050328063964843750e+01,-6.679096984863281250e+01,4.876403427124023438e+01,-1.487395668029785156e+01,-1.047637252807617188e+02,-1.183740234375000000e+02,6.395661544799804688e+01,-3.696348953247070312e+01
4.505439996719360352e-01,2.000000000000000000e+00,7.475456237792968750e+00,8.791498184204101562e+00,3.463343048095703125e+01,-1.125237960815429688e+02,9.050770568847656250e+01,-6.684007263183593750e+01,4.861841201782226562e+01,-1.485532569885253906e+01,-1.047947235107421875e+02,-1.184835281372070312e+02,6.394831085205078125e+01,-3.702413177490234375e+01
4.531770050525665283e-01,2.000000000000000000e+00,7.504162311553955078e+00,8.744766235351562500e+00,3.462680053710937500e+01,-1.125782012939453125e+02,9.050978088378906250e+01,-6.686503601074218750e+01,4.854529571533203125e+01,-1.484635353088378906e+01,-1.048102798461914062e+02,-1.185382461547851562e+02,6.394393920898437500e+01,-3.705379867553710938e+01
4.558849930763244629e-01,2.000000000000000000e+00,7.504162311553955078e+00,8.744766235351562500e+00,3.462680053710937500e+01,-1.125782012939453125e+02,9.050978088378906250e+01,-6.686503601074218750e+01,4.854529571533203125e+01,-1.484635353088378906e+01,-1.048102798461914062e+02,-1.185382461547851562e+02,6.394393920898437500e+01,-3.705379867553710938e+01
4.597699940204620361e-01,2.000000000000000000e+00,7.532840728759765625e+00,8.697877883911132812e+00,3.462011718750000000e+01,-1.126319885253906250e+02,9.051207733154296875e+01,-6.688937377929687500e+01,4.847283935546875000e+01,-1.483715152740478516e+01,-1.048250198364257812e+02,-1.185926742553710938e+02,6.393964004516601562e+01,-3.708411788940429688e+01
4.640539884567260742e-01,2.000000000000000000e+00,7.561805725097656250e+00,8.650988578796386719e+00,3.461338424682617188e+01,-1.126862945556640625e+02,9.051425933837890625e+01,-6.691317749023437500e+01,4.840137481689453125e+01,-1.482790565490722656e+01,-1.048400344848632812e+02,-1.186473236083984375e+02,6.393526458740234375e+01,-3.711476898193359375e+01
4.680060148239135742e-01,2.000000000000000000e+00,7.590484142303466797e+00,8.604122161865234375e+00,3.460675430297851562e+01,-1.127402343750000000e+02,9.051628875732421875e+01,-6.693637084960937500e+01,4.832908248901367188e+01,-1.481865882873535156e+01,-1.048553619384765625e+02,-1.187023239135742188e+02,6.393096923828125000e+01,-3.714487457275390625e+01
4.728569984436035156e-01,2.000000000000000000e+00,7.619019031524658203e+00,8.557323455810546875e+00,3.460016632080078125e+01,-1.127939605712890625e+02,9.051842498779296875e+01,-6.696079254150390625e+01,4.825591659545898438e+01,-1.480945682525634766e+01,-1.048707046508789062e+02,-1.187566070556640625e+02,6.392652130126953125e+01,-3.717398834228515625e+01
4.770829975605010986e-01,2.000000000000000000e+00,7.647754192352294922e+00,8.510275840759277344e+00,3.459366226196289062e+01,-1.128482055664062500e+02,9.052055358886718750e+01,-6.698533630371093750e+01,4.818269348144531250e+01,-1.480034732818603516e+01,-1.048859863281250000e+02,-1.188119049072265625e+02,6.392229843139648438e+01,-3.720441818237304688e+01
4.785169959068298340e-01,2.000000000000000000e+00,7.676576137542724609e+00,8.463317871093750000e+00,3.458703231811523438e+01,-1.129021987915039062e+02,9.052258300781250000e+01,-6.700961303710937500e+01,4.811100769042968750e+01,-1.479119300842285156e+01,-1.049012680053710938e+02,-1.188671875000000000e+02,6.391793060302734375e+01,-3.723627853393554688e+01
4.840860068798065186e-01,2.000000000000000000e+00,7.705627441406250000e+00,8.416474342346191406e+00,3.458038330078125000e+01,-1.129562988281250000e+02,9.052476501464843750e+01,-6.703463745117187500e+01,4.803942871093750000e+01,-1.478180885314941406e+01,-1.049165496826171875e+02,-1.189209060668945312e+02,6.391391754150390625e+01,-3.726802825927734375e+01
4.881460070610046387e-01,2.000000000000000000e+00,7.734506130218505859e+00,8.369607925415039062e+00,3.457379531860351562e+01,-1.130102920532226562e+02,9.052663421630859375e+01,-6.705953216552734375e+01,4.796691894531250000e+01,-1.477246952056884766e+01,-1.049318923950195312e+02,-1.189752578735351562e+02,6.390998458862304688e+01,-3.729824447631835938e+01
4.926089942455291748e-01,2.000000000000000000e+00,7.763328075408935547e+00,8.322673797607421875e+00,3.456715011596679688e+01,-1.130639648437500000e+02,9.052881622314453125e+01,-6.708353424072265625e+01,4.789358901977539062e+01,-1.476294898986816406e+01,-1.049468994140625000e+02,-1.190303344726562500e+02,6.390575790405273438e+01,-3.732845687866210938e+01
4.961940050125122070e-01,2.000000000000000000e+00,7.792149543762207031e+00,8.275603294372558594e+00,3.456044006347656250e+01,-1.131183776855468750e+02,9.053073883056640625e+01,-6.710733795166015625e+01,4.782063674926757812e+01,-1.475360965728759766e+01,-1.049621276855468750e+02,-1.190843353271484375e+02,6.390153121948242188e+01,-3.735899734497070312e+01
5.012279748916625977e-01,2.000000000000000000e+00,7.820942401885986328e+00,8.228692054748535156e+00,3.455381011962890625e+01,-1.131724700927734375e+02,9.053255462646484375e+01,-6.713127899169921875e+01,4.774889755249023438e+01,-1.474440956115722656e+01,-1.049774703979492188e+02,-1.191388397216796875e+02,6.389759445190429688e+01,-3.738975524902343750e+01
5.044929981231689453e-01,2.000000000000000000e+00,7.849792957305908203e+00,8.182028770446777344e+00,3.454734802246093750e+01,-1.132263107299804688e+02,9.053479003906250000e+01,-6.715556335449218750e+01,4.767710113525390625e+01,-1.473539066314697266e+01,-1.049925842285156250e+02,-1.191938400268554688e+02,6.389329910278320312e+01,-3.741964340209960938e+01
5.082250237464904785e-01,2.000000000000000000e+00,7.878585815429687500e+00,8.135320663452148438e+00,3.454098129272460938e+01,-1.132808227539062500e+02,9.053660583496093750e+01,-6.718010711669921875e+01,4.760480880737304688e+01,-1.472605323791503906e+01,-1.050078125000000000e+02,-1.192482604980468750e+02,6.388922119140625000e+01,-3.744963455200195312e+01
5.123379826545715332e-01,2.000000000000000000e+00,7.907464504241943359e+00,8.088521957397460938e+00,3.453457641601562500e+01,-1.133346023559570312e+02,9.053868103027343750e+01,-6.720493316650390625e+01,4.753158569335937500e+01,-1.471653079986572266e+01,-1.050231018066406250e+02,-1.193034057617187500e+02,6.388477325439453125e+01,-3.748127365112304688e+01
5.164920091629028320e-01,2.000000000000000000e+00,7.936085700988769531e+00,8.041858673095703125e+00,3.452784729003906250e+01,-1.133887481689453125e+02,9.054049682617187500e+01,-6.722975158691406250e+01,4.745869064331054688e+01,-1.470728397369384766e+01,-1.050384902954101562e+02,-1.193582000732421875e+02,6.388105773925781250e+01,-3.751324462890625000e+01
5.222650170326232910e-01,2.000000000000000000e+00,7.964849472045898438e+00,7.994924545288085938e+00,3.452116012573242188e+01,-1.134433746337890625e+02,9.054251861572265625e+01,-6.725416564941406250e+01,4.738673400878906250e+01,-1.469799137115478516e+01,-1.050536651611328125e+02,-1.194120635986328125e+02,6.387697601318359375e+01,-3.754301452636718750e+01
5.259349942207336426e-01,2.000000000000000000e+00,8.022320747375488281e+00,7.901757240295410156e+00,3.450796508789062500e+01,-1.135512008666992188e+02,9.054635620117187500e+01,-6.730149841308593750e+01,4.724220657348632812e+01,-1.467936038970947266e+01,-1.050835723876953125e+02,-1.195216979980468750e+02,6.386779403686523438e+01,-3.760420989990234375e+01
5.286120176315307617e-01,2.000000000000000000e+00,8.022320747375488281e+00,7.901757240295410156e+00,3.450796508789062500e+01,-1.135512008666992188e+02,9.054635620117187500e+01,-6.730149841308593750e+01,4.724220657348632812e+01,-1.467936038970947266e+01,-1.050835723876953125e+02,-1.195216979980468750e+02,6.386779403686523438e+01,-3.760420989990234375e+01
5.324789881706237793e-01,2.000000000000000000e+00,8.051056861877441406e+00,7.855162620544433594e+00,3.450127410888671875e+01,-1.136049804687500000e+02,9.054822540283203125e+01,-6.732577514648437500e+01,4.716903686523437500e+01,-1.467002201080322266e+01,-1.050992965698242188e+02,-1.195754165649414062e+02,6.386400985717773438e+01,-3.763519287109375000e+01
5.366129875183105469e-01,2.000000000000000000e+00,8.079476356506347656e+00,7.808544635772705078e+00,3.449470520019531250e+01,-1.136582870483398438e+02,9.055036163330078125e+01,-6.734999084472656250e+01,4.709614181518554688e+01,-1.466059303283691406e+01,-1.051144104003906250e+02,-1.196302032470703125e+02,6.386014556884765625e+01,-3.766485595703125000e+01
5.410040020942687988e-01,2.000000000000000000e+00,8.108068466186523438e+00,7.761903762817382812e+00,3.448809814453125000e+01,-1.137130661010742188e+02,9.055222320556640625e+01,-6.737433624267578125e+01,4.702368927001953125e+01,-1.465139102935791016e+01,-1.051296463012695312e+02,-1.196849136352539062e+02,6.385577392578125000e+01,-3.769418716430664062e+01
5.447139739990234375e-01,2.000000000000000000e+00,8.136832237243652344e+00,7.715150356292724609e+00,3.448167419433593750e+01,-1.137664794921875000e+02,9.055403137207031250e+01,-6.739916229248046875e+01,4.695199966430664062e+01,-1.464237403869628906e+01,-1.051449203491210938e+02,-1.197395706176757812e+02,6.385110855102539062e+01,-3.772528076171875000e+01
5.496469736099243164e-01,2.000000000000000000e+00,8.165682792663574219e+00,7.668691635131835938e+00,3.447512817382812500e+01,-1.138204650878906250e+02,9.055600738525390625e+01,-6.742438507080078125e+01,4.687954711914062500e+01,-1.463344669342041016e+01,-1.051602096557617188e+02,-1.197944946289062500e+02,6.384688949584960938e+01,-3.775659179687500000e+01
5.527889728546142578e-01,2.000000000000000000e+00,8.194503784179687500e+00,7.622096538543701172e+00,3.446858215332031250e+01,-1.138746185302734375e+02,9.055782318115234375e+01,-6.744853210449218750e+01,4.680637741088867188e+01,-1.462424659729003906e+01,-1.051753311157226562e+02,-1.198484954833984375e+02,6.384295272827148438e+01,-3.778713226318359375e+01
5.566740036010742188e-01,2.000000000000000000e+00,8.223010063171386719e+00,7.575320243835449219e+00,3.446203231811523438e+01,-1.139281387329101562e+02,9.055995941162109375e+01,-6.747199249267578125e+01,4.673331832885742188e+01,-1.461490726470947266e+01,-1.051903915405273438e+02,-1.199038467407226562e+02,6.383864974975585938e+01,-3.781767654418945312e+01
5.607060194015502930e-01,2.000000000000000000e+00,8.251832008361816406e+00,7.528702259063720703e+00,3.445548629760742188e+01,-1.139825439453125000e+02,9.056198120117187500e+01,-6.749566650390625000e+01,4.666108322143554688e+01,-1.460575199127197266e+01,-1.052057876586914062e+02,-1.199585723876953125e+02,6.383413696289062500e+01,-3.784953308105468750e+01
5.648310184478759766e-01,2.000000000000000000e+00,8.280337333679199219e+00,7.482017040252685547e+00,3.444875717163085938e+01,-1.140368499755859375e+02,9.056362915039062500e+01,-6.751993560791015625e+01,4.658945465087890625e+01,-1.459682655334472656e+01,-1.052213973999023438e+02,-1.200120697021484375e+02,6.383034515380859375e+01,-3.788029861450195312e+01
5.686280131340026855e-01,2.000000000000000000e+00,8.309102058410644531e+00,7.435241699218750000e+00,3.444214630126953125e+01,-1.140902633666992188e+02,9.056555175781250000e+01,-6.754408264160156250e+01,4.651716613769531250e+01,-1.458780860900878906e+01,-1.052365188598632812e+02,-1.200662841796875000e+02,6.382655334472656250e+01,-3.790951919555664062e+01
5.749989748001098633e-01,2.000000000000000000e+00,8.338009834289550781e+00,7.388669013977050781e+00,3.443572235107421875e+01,-1.141447830200195312e+02,9.056752777099609375e+01,-6.756876373291015625e+01,4.644416046142578125e+01,-1.457860660552978516e+01,-1.052515792846679688e+02,-1.201220092773437500e+02,6.382255172729492188e+01,-3.793874359130859375e+01
5.777509808540344238e-01,2.000000000000000000e+00,8.395394325256347656e+00,7.295456409454345703e+00,3.442301559448242188e+01,-1.142523422241210938e+02,9.057163238525390625e+01,-6.761813354492187500e+01,4.629952239990234375e+01,-1.456020450592041016e+01,-1.052825775146484375e+02,-1.202309341430664062e+02,6.381365966796875000e+01,-3.799961090087890625e+01
5.795459747314453125e-01,2.000000000000000000e+00,8.395394325256347656e+00,7.295456409454345703e+00,3.442301559448242188e+01,-1.142523422241210938e+02,9.057163238525390625e+01,-6.761813354492187500e+01,4.629952239990234375e+01,-1.456020450592041016e+01,-1.052825775146484375e+02,-1.202309341430664062e+02,6.381365966796875000e+01,-3.799961090087890625e+01
5.848919749259948730e-01,2.000000000000000000e+00,8.424043655395507812e+00,7.248770713806152344e+00,3.441640853881835938e+01,-1.143066558837890625e+02,9.057333374023437500e+01,-6.764200592041015625e+01,4.622816848754882812e+01,-1.455118751525878906e+01,-1.052978668212890625e+02,-1.202859268188476562e+02,6.380958175659179688e+01,-3.802916336059570312e+01
5.875139832496643066e-01,2.000000000000000000e+00,8.452635765075683594e+00,7.201926708221435547e+00,3.440975952148437500e+01,-1.143606414794921875e+02,9.057530975341796875e+01,-6.766533660888671875e+01,4.615604019165039062e+01,-1.454226016998291016e+01,-1.053129348754882812e+02,-1.203400115966796875e+02,6.380513381958007812e+01,-3.806003570556640625e+01
5.915610194206237793e-01,2.000000000000000000e+00,8.481457710266113281e+00,7.155241489410400391e+00,3.440321350097656250e+01,-1.144147415161132812e+02,9.057738494873046875e+01,-6.768914031982421875e+01,4.608282089233398438e+01,-1.453328895568847656e+01,-1.053278808593750000e+02,-1.203950729370117188e+02,6.380083847045898438e+01,-3.809211730957031250e+01
5.956199765205383301e-01,2.000000000000000000e+00,8.510222434997558594e+00,7.108397483825683594e+00,3.439650344848632812e+01,-1.144686813354492188e+02,9.057920074462890625e+01,-6.771335601806640625e+01,4.600992202758789062e+01,-1.452417850494384766e+01,-1.053431701660156250e+02,-1.204496459960937500e+02,6.379690551757812500e+01,-3.812166595458984375e+01
6.015700101852416992e-01,2.000000000000000000e+00,8.567462921142578125e+00,7.015093803405761719e+00,3.438314437866210938e+01,-1.145760726928710938e+02,9.058330535888671875e+01,-6.776197814941406250e+01,4.586666488647460938e+01,-1.450586891174316406e+01,-1.053740081787109375e+02,-1.205585098266601562e+02,6.378918075561523438e+01,-3.818143463134765625e+01
6.035040020942687988e-01,2.000000000000000000e+00,8.567462921142578125e+00,7.015093803405761719e+00,3.438314437866210938e+01,-1.145760726928710938e+02,9.058330535888671875e+01,-6.776197814941406250e+01,4.586666488647460938e+01,-1.450586891174316406e+01,-1.053740081787109375e+02,-1.205585098266601562e+02,6.378918075561523438e+01,-3.818143463134765625e+01
6.075099706649780273e-01,2.000000000000000000e+00,8.596112251281738281e+00,6.968408584594726562e+00,3.437665939331054688e+01,-1.146302719116210938e+02,9.058512115478515625e+01,-6.778706359863281250e+01,4.579431915283203125e+01,-1.449685096740722656e+01,-1.053892364501953125e+02,-1.206133728027343750e+02,6.378451538085937500e+01,-3.821428298950195312e+01
6.115670204162597656e-01,2.000000000000000000e+00,8.624905586242675781e+00,6.921723365783691406e+00,3.437013244628906250e+01,-1.146843261718750000e+02,9.058708953857421875e+01,-6.781134796142578125e+01,4.572114944458007812e+01,-1.448769569396972656e+01,-1.054044113159179688e+02,-1.206682968139648438e+02,6.378014373779296875e+01,-3.824438476562500000e+01
6.155310273170471191e-01,2.000000000000000000e+00,8.653756141662597656e+00,6.874969482421875000e+00,3.436354446411132812e+01,-1.147381057739257812e+02,9.058933258056640625e+01,-6.783501434326171875e+01,4.564880371093750000e+01,-1.447835731506347656e+01,-1.054194793701171875e+02,-1.207230911254882812e+02,6.377635192871093750e+01,-3.827360916137695312e+01
6.195350289344787598e-01,2.000000000000000000e+00,8.682663917541503906e+00,6.828193664550781250e+00,3.435687637329101562e+01,-1.147913589477539062e+02,9.059125518798828125e+01,-6.785855102539062500e+01,4.557717514038085938e+01,-1.446874332427978516e+01,-1.054347000122070312e+02,-1.207776641845703125e+02,6.377249526977539062e+01,-3.830469894409179688e+01
6.270549893379211426e-01,2.000000000000000000e+00,8.711283683776855469e+00,6.781462669372558594e+00,3.435033035278320312e+01,-1.148455047607421875e+02,9.059322357177734375e+01,-6.788248443603515625e+01,4.550559616088867188e+01,-1.445931434631347656e+01,-1.054496612548828125e+02,-1.208323898315429688e+02,6.376797866821289062e+01,-3.833656311035156250e+01
6.295459866523742676e-01,2.000000000000000000e+00,8.768640518188476562e+00,6.688385963439941406e+00,3.433715820312500000e+01,-1.149540100097656250e+02,9.059727478027343750e+01,-6.793111419677734375e+01,4.536024856567382812e+01,-1.444100379943847656e+01,-1.054792480468750000e+02,-1.209407424926757812e+02,6.375922775268554688e+01,-3.839555740356445312e+01
6.315609812736511230e-01,2.000000000000000000e+00,8.768640518188476562e+00,6.688385963439941406e+00,3.433715820312500000e+01,-1.149540100097656250e+02,9.059727478027343750e+01,-6.793111419677734375e+01,4.536024856567382812e+01,-1.444100379943847656e+01,-1.054792480468750000e+02,-1.209407424926757812e+02,6.375922775268554688e+01,-3.839555740356445312e+01
6.356359720230102539e-01,2.000000000000000000e+00,8.797261238098144531e+00,6.641768455505371094e+00,3.433052825927734375e+01,-1.150081100463867188e+02,9.059925079345703125e+01,-6.795573425292968750e+01,4.528724670410156250e+01,-1.443171024322509766e+01,-1.054943161010742188e+02,-1.209950256347656250e+02,6.375507736206054688e+01,-3.842654037475585938e+01
6.395429968833923340e-01,2.000000000000000000e+00,8.825997352600097656e+00,6.595241546630859375e+00,3.432412338256835938e+01,-1.150613098144531250e+02,9.060149383544921875e+01,-6.798034667968750000e+01,4.521556091308593750e+01,-1.442251014709472656e+01,-1.055098648071289062e+02,-1.210503768920898438e+02,6.375063705444335938e+01,-3.845829010009765625e+01
6.435130238533020020e-01,2.000000000000000000e+00,8.854703903198242188e+00,6.548804759979248047e+00,3.431784057617187500e+01,-1.151153564453125000e+02,9.060340881347656250e+01,-6.800435638427734375e+01,4.514403533935546875e+01,-1.441321754455566406e+01,-1.055251007080078125e+02,-1.211050338745117188e+02,6.374618911743164062e+01,-3.848871994018554688e+01
6.475290060043334961e-01,2.000000000000000000e+00,8.883180618286132812e+00,6.502051353454589844e+00,3.431141281127929688e+01,-1.151698150634765625e+02,9.060565185546875000e+01,-6.802795410156250000e+01,4.507136535644531250e+01,-1.440397071838378906e+01,-1.055402145385742188e+02,-1.211597442626953125e+02,6.374240112304687500e+01,-3.851816558837890625e+01
6.516910195350646973e-01,2.000000000000000000e+00,8.911944389343261719e+00,6.455456256866455078e+00,3.430484771728515625e+01,-1.152233963012695312e+02,9.060772705078125000e+01,-6.805155181884765625e+01,4.499819564819335938e+01,-1.439476871490478516e+01,-1.055550613403320312e+02,-1.212146072387695312e+02,6.373861694335937500e+01,-3.854903411865234375e+01
6.555979847908020020e-01,2.000000000000000000e+00,8.940651893615722656e+00,6.409019947052001953e+00,3.429822158813476562e+01,-1.152774887084960938e+02,9.060985565185546875e+01,-6.807556152343750000e+01,4.492540740966796875e+01,-1.438561439514160156e+01,-1.055703506469726562e+02,-1.212688217163085938e+02,6.373438644409179688e+01,-3.858001708984375000e+01
6.595150232315063477e-01,2.000000000000000000e+00,8.969301223754882812e+00,6.362424373626708984e+00,3.429165649414062500e+01,-1.153312683105468750e+02,9.061204528808593750e+01,-6.809977722167968750e+01,4.485377883911132812e+01,-1.437609195709228516e+01,-1.055856246948242188e+02,-1.213230285644531250e+02,6.373045349121093750e+01,-3.860913085937500000e+01
6.635040044784545898e-01,2.000000000000000000e+00,8.998093605041503906e+00,6.315965175628662109e+00,3.428504562377929688e+01,-1.153845748901367188e+02,9.061418151855468750e+01,-6.812418365478515625e+01,4.478225708007812500e+01,-1.436647987365722656e+01,-1.056006927490234375e+02,-1.213780364990234375e+02,6.372622680664062500e+01,-3.863846588134765625e+01
6.675890088081359863e-01,2.000000000000000000e+00,9.026658058166503906e+00,6.269392967224121094e+00,3.427833557128906250e+01,-1.154387207031250000e+02,9.061625671386718750e+01,-6.814913940429687500e+01,4.471002197265625000e+01,-1.435723209381103516e+01,-1.056157073974609375e+02,-1.214320373535156250e+02,6.372214889526367188e+01,-3.866889953613281250e+01
6.715109944343566895e-01,2.000000000000000000e+00,9.055077552795410156e+00,6.222639560699462891e+00,3.427178955078125000e+01,-1.154922409057617188e+02,9.061844635009765625e+01,-6.817356109619140625e+01,4.463696289062500000e+01,-1.434839725494384766e+01,-1.056311492919921875e+02,-1.214866790771484375e+02,6.371762466430664062e+01,-3.870075607299804688e+01
6.777859926223754883e-01,2.000000000000000000e+00,9.083898544311523438e+00,6.176044464111328125e+00,3.426532363891601562e+01,-1.155460662841796875e+02,9.062057495117187500e+01,-6.819750213623046875e+01,4.456406784057617188e+01,-1.433947181701660156e+01,-1.056465454101562500e+02,-1.215416030883789062e+02,6.371355056762695312e+01,-3.873064041137695312e+01
6.795430183410644531e-01,2.000000000000000000e+00,9.112749099731445312e+00,6.129426956176757812e+00,3.425887680053710938e+01,-1.156003799438476562e+02,9.062297821044921875e+01,-6.822123718261718750e+01,4.449271392822265625e+01,-1.433026981353759766e+01,-1.056616592407226562e+02,-1.215961761474609375e+02,6.370968246459960938e+01,-3.876041030883789062e+01
6.835139989852905273e-01,2.000000000000000000e+00,9.141399383544921875e+00,6.082628250122070312e+00,3.425234985351562500e+01,-1.156535720825195312e+02,9.062500000000000000e+01,-6.824517822265625000e+01,4.442124557495117188e+01,-1.432102298736572266e+01,-1.056772232055664062e+02,-1.216510391235351562e+02,6.370546340942382812e+01,-3.879216384887695312e+01
6.875590085983276367e-01,2.000000000000000000e+00,9.170019149780273438e+00,6.036146640777587891e+00,3.424572372436523438e+01,-1.157074050903320312e+02,9.062718200683593750e+01,-6.826918029785156250e+01,4.434857177734375000e+01,-1.431205081939697266e+01,-1.056926651000976562e+02,-1.217056808471679688e+02,6.370116043090820312e+01,-3.882259368896484375e+01
6.915439963340759277e-01,2.000000000000000000e+00,9.198581695556640625e+00,5.989596366882324219e+00,3.423915863037109375e+01,-1.157615051269531250e+02,9.062942504882812500e+01,-6.829359436035156250e+01,4.427551269531250000e+01,-1.430289649963378906e+01,-1.057079467773437500e+02,-1.217596817016601562e+02,6.369672012329101562e+01,-3.885137939453125000e+01
6.955189704895019531e-01,2.000000000000000000e+00,9.227173805236816406e+00,5.942842960357666016e+00,3.423255157470703125e+01,-1.158150787353515625e+02,9.063166809082031250e+01,-6.831841278076171875e+01,4.420306015014648438e+01,-1.429387855529785156e+01,-1.057229537963867188e+02,-1.218142547607421875e+02,6.369241714477539062e+01,-3.888137054443359375e+01
7.028459906578063965e-01,2.000000000000000000e+00,9.255909919738769531e+00,5.896203041076660156e+00,3.422590255737304688e+01,-1.158696517944335938e+02,9.063385009765625000e+01,-6.834323883056640625e+01,4.413186645507812500e+01,-1.428467750549316406e+01,-1.057381896972656250e+02,-1.218683242797851562e+02,6.368833923339843750e+01,-3.891268539428710938e+01
7.043979763984680176e-01,2.000000000000000000e+00,9.284473419189453125e+00,5.849630832672119141e+00,3.421939468383789062e+01,-1.159232711791992188e+02,9.063614654541015625e+01,-6.836737823486328125e+01,4.406023788452148438e+01,-1.427552127838134766e+01,-1.057535858154296875e+02,-1.219224014282226562e+02,6.368389129638671875e+01,-3.894344329833984375e+01
7.075150012969970703e-01,2.000000000000000000e+00,9.312979698181152344e+00,5.803171157836914062e+00,3.421295166015625000e+01,-1.159765701293945312e+02,9.063848876953125000e+01,-6.839083862304687500e+01,4.398794555664062500e+01,-1.426622867584228516e+01,-1.057690277099609375e+02,-1.219774017333984375e+02,6.367951965332031250e+01,-3.897255706787109375e+01
7.125750184059143066e-01,2.000000000000000000e+00,9.312979698181152344e+00,5.803171157836914062e+00,3.421295166015625000e+01,-1.159765701293945312e+02,9.063848876953125000e+01,-6.839083862304687500e+01,4.391493988037109375e+01,-1.425702762603759766e+01,-1.057843627929687500e+02,-1.220319061279296875e+02,6.367522430419921875e+01,-3.900255203247070312e+01
7.156410217285156250e-01,2.000000000000000000e+00,9.370220184326171875e+00,5.709936141967773438e+00,3.420022201538085938e+01,-1.160846633911132812e+02,9.064276123046875000e+01,-6.843878936767578125e+01,4.384270858764648438e+01,-1.424796390533447266e+01,-1.057998657226562500e+02,-1.220864791870117188e+02,6.367113876342773438e+01,-3.903507232666015625e+01
7.221480011940002441e-01,2.000000000000000000e+00,9.398956298828125000e+00,5.663318634033203125e+00,3.419359207153320312e+01,-1.161385955810546875e+02,9.064510345458984375e+01,-6.846300506591796875e+01,4.377096557617187500e+01,-1.423899173736572266e+01,-1.058150405883789062e+02,-1.221417617797851562e+02,6.366662597656250000e+01,-3.906671142578125000e+01
7.235910296440124512e-01,2.000000000000000000e+00,9.427864074707031250e+00,5.616745948791503906e+00,3.418692398071289062e+01,-1.161922683715820312e+02,9.064696502685546875e+01,-6.848714447021484375e+01,4.369950103759765625e+01,-1.422997474670410156e+01,-1.058298797607421875e+02,-1.221956939697265625e+02,6.366269302368164062e+01,-3.909670257568359375e+01
7.285689711570739746e-01,2.000000000000000000e+00,9.427864074707031250e+00,5.616745948791503906e+00,3.418692398071289062e+01,-1.161922683715820312e+02,9.064696502685546875e+01,-6.848714447021484375e+01,4.362726593017578125e+01,-1.422068214416503906e+01,-1.058451690673828125e+02,-1.222500457763671875e+02,6.365882492065429688e+01,-3.912680816650390625e+01
7.315089702606201172e-01,2.000000000000000000e+00,9.485075950622558594e+00,5.523601531982421875e+00,3.417378997802734375e+01,-1.162993698120117188e+02,9.065133666992187500e+01,-6.853698730468750000e+01,4.355453491210937500e+01,-1.421152687072753906e+01,-1.058603973388671875e+02,-1.223049087524414062e+02,6.365489196777343750e+01,-3.915789794921875000e+01
7.355570197105407715e-01,2.000000000000000000e+00,9.485075950622558594e+00,5.523601531982421875e+00,3.417378997802734375e+01,-1.162993698120117188e+02,9.065133666992187500e+01,-6.853698730468750000e+01,4.355453491210937500e+01,-1.421152687072753906e+01,-1.058603973388671875e+02,-1.223049087524414062e+02,6.365489196777343750e+01,-3.915789794921875000e+01
7.405390143394470215e-01,2.000000000000000000e+00,9.513783454895019531e+00,5.477141857147216797e+00,3.416716003417968750e+01,-1.163531875610351562e+02,9.065352630615234375e+01,-6.856079101562500000e+01,4.348180770874023438e+01,-1.420246219635009766e+01,-1.058756256103515625e+02,-1.223591232299804688e+02,6.365103149414062500e+01,-3.918811035156250000e+01
7.441679835319519043e-01,2.000000000000000000e+00,9.571053504943847656e+00,5.384065151214599609e+00,3.415410995483398438e+01,-1.164608078002929688e+02,9.065768432617187500e+01,-6.860771942138671875e+01,4.333860015869140625e+01,-1.418401527404785156e+01,-1.059059219360351562e+02,-1.224678344726562500e+02,6.364280319213867188e+01,-3.924721527099609375e+01
7.475069761276245117e-01,2.000000000000000000e+00,9.599845886230468750e+00,5.337492942810058594e+00,3.414770507812500000e+01,-1.165139617919921875e+02,9.065991973876953125e+01,-6.863166046142578125e+01,4.326630783081054688e+01,-1.417472267150878906e+01,-1.059212036132812500e+02,-1.225221176147460938e+02,6.363857269287109375e+01,-3.927896881103515625e+01
7.527520060539245605e-01,2.000000000000000000e+00,9.599845886230468750e+00,5.337492942810058594e+00,3.414770507812500000e+01,-1.165139617919921875e+02,9.065991973876953125e+01,-6.863166046142578125e+01,4.326630783081054688e+01,-1.417472267150878906e+01,-1.059212036132812500e+02,-1.225221176147460938e+02,6.363857269287109375e+01,-3.927896881103515625e+01
7.555800080299377441e-01,2.000000000000000000e+00,9.657202720642089844e+00,5.244348049163818359e+00,3.413455200195312500e+01,-1.166220397949218750e+02,9.066391754150390625e+01,-6.868076324462890625e+01,4.312079620361328125e+01,-1.415586280822753906e+01,-1.059512786865234375e+02,-1.226313323974609375e+02,6.363041305541992188e+01,-3.933917236328125000e+01
7.596030235290527344e-01,2.000000000000000000e+00,9.657202720642089844e+00,5.244348049163818359e+00,3.413455200195312500e+01,-1.166220397949218750e+02,9.066391754150390625e+01,-6.868076324462890625e+01,4.312079620361328125e+01,-1.415586280822753906e+01,-1.059512786865234375e+02,-1.226313323974609375e+02,6.363041305541992188e+01,-3.933917236328125000e+01
7.635970115661621094e-01,2.000000000000000000e+00,9.685736656188964844e+00,5.197979450225830078e+00,3.412800216674804688e+01,-1.166756668090820312e+02,9.066600036621093750e+01,-6.870537567138671875e+01,4.304922103881835938e+01,-1.414670753479003906e+01,-1.059664535522460938e+02,-1.226853332519531250e+02,6.362618255615234375e+01,-3.936949539184570312e+01
7.676360011100769043e-01,2.000000000000000000e+00,9.714358329772949219e+00,5.151474952697753906e+00,3.412141418457031250e+01,-1.167300262451171875e+02,9.066797637939453125e+01,-6.872992706298828125e+01,4.297758865356445312e+01,-1.413768959045410156e+01,-1.059817352294921875e+02,-1.227399749755859375e+02,6.362196350097656250e+01,-3.940058517456054688e+01
7.715510129928588867e-01,2.000000000000000000e+00,9.743036270141601562e+00,5.104993343353271484e+00,3.411483001708984375e+01,-1.167833786010742188e+02,9.066989135742187500e+01,-6.875345611572265625e+01,4.290540695190429688e+01,-1.412848854064941406e+01,-1.059965896606445312e+02,-1.227941284179687500e+02,6.361751556396484375e+01,-3.942992019653320312e+01
7.755579948425292969e-01,2.000000000000000000e+00,9.771656036376953125e+00,5.058646678924560547e+00,3.410830307006835938e+01,-1.168371658325195312e+02,9.067191314697265625e+01,-6.877699279785156250e+01,4.283240509033203125e+01,-1.411896705627441406e+01,-1.060120315551757812e+02,-1.228477554321289062e+02,6.361292648315429688e+01,-3.946013259887695312e+01
7.795220017433166504e-01,2.000000000000000000e+00,9.828840255737304688e+00,4.965456962585449219e+00,3.409559249877929688e+01,-1.169449310302734375e+02,9.067601776123046875e+01,-6.882453155517578125e+01,4.268864822387695312e+01,-1.410061073303222656e+01,-1.060428695678710938e+02,-1.229571228027343750e+02,6.360418319702148438e+01,-3.952220535278320312e+01
7.835580110549926758e-01,2.000000000000000000e+00,9.828840255737304688e+00,4.965456962585449219e+00,3.409559249877929688e+01,-1.169449310302734375e+02,9.067601776123046875e+01,-6.882453155517578125e+01,4.268864822387695312e+01,-1.410061073303222656e+01,-1.060428695678710938e+02,-1.229571228027343750e+02,6.360418319702148438e+01,-3.952220535278320312e+01
7.875810265541076660e-01,2.000000000000000000e+00,9.857289314270019531e+00,4.919065475463867188e+00,3.408919143676757812e+01,-1.169989318847656250e+02,9.067789459228515625e+01,-6.884887695312500000e+01,4.261740112304687500e+01,-1.409150123596191406e+01,-1.060579910278320312e+02,-1.230116271972656250e+02,6.360003280639648438e+01,-3.955220031738281250e+01
7.916409969329833984e-01,2.000000000000000000e+00,9.886167526245117188e+00,4.872561454772949219e+00,3.408268356323242188e+01,-1.170522308349609375e+02,9.067991638183593750e+01,-6.887349700927734375e+01,4.254527664184570312e+01,-1.408216190338134766e+01,-1.060728836059570312e+02,-1.230660476684570312e+02,6.359580230712890625e+01,-3.958108901977539062e+01
7.955669760704040527e-01,2.000000000000000000e+00,9.914903640747070312e+00,4.826215267181396484e+00,3.407607269287109375e+01,-1.171055374145507812e+02,9.068177795410156250e+01,-6.889824676513671875e+01,4.247243881225585938e+01,-1.407277870178222656e+01,-1.060878448486328125e+02,-1.231207733154296875e+02,6.359135818481445312e+01,-3.961086273193359375e+01
7.995520234107971191e-01,2.000000000000000000e+00,9.943381309509277344e+00,4.779733180999755859e+00,3.406951141357421875e+01,-1.171601638793945312e+02,9.068397521972656250e+01,-6.892232513427734375e+01,4.239976119995117188e+01,-1.406344032287597656e+01,-1.061032409667968750e+02,-1.231749114990234375e+02,6.358705902099609375e+01,-3.964195632934570312e+01
8.038589954376220703e-01,2.000000000000000000e+00,9.971829414367675781e+00,4.733025550842285156e+00,3.406292343139648438e+01,-1.172133178710937500e+02,9.068583679199218750e+01,-6.894585418701171875e+01,4.232835388183593750e+01,-1.405423927307128906e+01,-1.061187896728515625e+02,-1.232291946411132812e+02,6.358312606811523438e+01,-3.967282485961914062e+01
8.075709939002990723e-01,2.000000000000000000e+00,1.000019168853759766e+01,4.686520576477050781e+00,3.405621337890625000e+01,-1.172668762207031250e+02,9.068781280517578125e+01,-6.896938323974609375e+01,4.225672149658203125e+01,-1.404526615142822266e+01,-1.061340789794921875e+02,-1.232831268310546875e+02,6.357933425903320312e+01,-3.970325851440429688e+01
8.115569949150085449e-01,2.000000000000000000e+00,1.002884101867675781e+01,4.639970779418945312e+00,3.404964447021484375e+01,-1.173209686279296875e+02,9.068951416015625000e+01,-6.899311828613281250e+01,4.218448638916015625e+01,-1.403629493713378906e+01,-1.061489715576171875e+02,-1.233369064331054688e+02,6.357532501220703125e+01,-3.973380279541015625e+01
8.158929944038391113e-01,2.000000000000000000e+00,1.005763339996337891e+01,4.593375682830810547e+00,3.404320144653320312e+01,-1.173743286132812500e+02,9.069169616699218750e+01,-6.901740264892578125e+01,4.211175537109375000e+01,-1.402732276916503906e+01,-1.061645355224609375e+02,-1.233915481567382812e+02,6.357124710083007812e+01,-3.976445388793945312e+01
8.195909857749938965e-01,2.000000000000000000e+00,1.008622550964355469e+01,4.547029972076416016e+00,3.403675079345703125e+01,-1.174281616210937500e+02,9.069361877441406250e+01,-6.904201507568359375e+01,4.203963088989257812e+01,-1.401839542388916016e+01,-1.061799774169921875e+02,-1.234461212158203125e+02,6.356717300415039062e+01,-3.979411697387695312e+01
8.235509991645812988e-01,2.000000000000000000e+00,1.011464500427246094e+01,4.500480175018310547e+00,3.403018569946289062e+01,-1.174821548461914062e+02,9.069543457031250000e+01,-6.906684112548828125e+01,4.196821975708007812e+01,-1.400919532775878906e+01,-1.061954803466796875e+02,-1.235006942749023438e+02,6.356315994262695312e+01,-3.982344818115234375e+01
8.287839889526367188e-01,2.000000000000000000e+00,1.014306545257568359e+01,4.453839778900146484e+00,3.402354049682617188e+01,-1.175356140136718750e+02,9.069745635986328125e+01,-6.909132385253906250e+01,4.189691543579101562e+01,-1.399994850158691406e+01,-1.062107086181640625e+02,-1.235555572509765625e+02,6.355893325805664062e+01,-3.985377120971679688e+01
8.318769931793212891e-01,2.000000000000000000e+00,1.020019149780273438e+01,4.360808372497558594e+00,3.401042556762695312e+01,-1.176436614990234375e+02,9.070129394531250000e+01,-6.913825225830078125e+01,4.175173568725585938e+01,-1.398209571838378906e+01,-1.062410049438476562e+02,-1.236633377075195312e+02,6.354975509643554688e+01,-3.991617584228515625e+01
8.355510234832763672e-01,2.000000000000000000e+00,1.020019149780273438e+01,4.360808372497558594e+00,3.401042556762695312e+01,-1.176436614990234375e+02,9.070129394531250000e+01,-6.913825225830078125e+01,4.175173568725585938e+01,-1.398209571838378906e+01,-1.062410049438476562e+02,-1.236633377075195312e+02,6.354975509643554688e+01,-3.991617584228515625e+01
8.398929834365844727e-01,2.000000000000000000e+00,1.022875595092773438e+01,4.314529895782470703e+00,3.400383758544921875e+01,-1.176971206665039062e+02,9.070337677001953125e+01,-6.916225433349609375e+01,4.167922592163085938e+01,-1.397284889221191406e+01,-1.062563934326171875e+02,-1.237181243896484375e+02,6.354560089111328125e+01,-3.994506835937500000e+01
8.436239957809448242e-01,2.000000000000000000e+00,1.025737571716308594e+01,4.268093585968017578e+00,3.399724960327148438e+01,-1.177511672973632812e+02,9.070518493652343750e+01,-6.918640136718750000e+01,4.160781097412109375e+01,-1.396350955963134766e+01,-1.062718429565429688e+02,-1.237718429565429688e+02,6.354159164428710938e+01,-3.997549819946289062e+01
8.475760221481323242e-01,2.000000000000000000e+00,1.028585338592529297e+01,4.221453189849853516e+00,3.399090576171875000e+01,-1.178048934936523438e+02,9.070705413818359375e+01,-6.921047973632812500e+01,4.153629302978515625e+01,-1.395453739166259766e+01,-1.062873992919921875e+02,-1.238257598876953125e+02,6.353707885742187500e+01,-4.000659179687500000e+01
8.515669703483581543e-01,2.000000000000000000e+00,1.031444549560546875e+01,4.174925804138183594e+00,3.398451995849609375e+01,-1.178588790893554688e+02,9.070892333984375000e+01,-6.923502349853515625e+01,4.146389389038085938e+01,-1.394565773010253906e+01,-1.063024063110351562e+02,-1.238802642822265625e+02,6.353270721435546875e+01,-4.003658676147460938e+01
8.555139899253845215e-01,2.000000000000000000e+00,1.037191677093505859e+01,4.081962108612060547e+00,3.397153091430664062e+01,-1.179656448364257812e+02,9.071292114257812500e+01,-6.928439331054687500e+01,4.131865310668945312e+01,-1.392762184143066406e+01,-1.063324279785156250e+02,-1.239891891479492188e+02,6.352396392822265625e+01,-4.009558105468750000e+01
8.596280217170715332e-01,2.000000000000000000e+00,1.037191677093505859e+01,4.081962108612060547e+00,3.397153091430664062e+01,-1.179656448364257812e+02,9.071292114257812500e+01,-6.928439331054687500e+01,4.131865310668945312e+01,-1.392762184143066406e+01,-1.063324279785156250e+02,-1.239891891479492188e+02,6.352396392822265625e+01,-4.009558105468750000e+01
8.635560274124145508e-01,2.000000000000000000e+00,1.040053653717041016e+01,4.035638809204101562e+00,3.396498489379882812e+01,-1.180193328857421875e+02,9.071488952636718750e+01,-6.930847167968750000e+01,4.124740600585937500e+01,-1.391828346252441406e+01,-1.063478240966796875e+02,-1.240438995361328125e+02,6.351980972290039062e+01,-4.012689208984375000e+01
8.675559759140014648e-01,2.000000000000000000e+00,1.042895603179931641e+01,3.989179611206054688e+00,3.395845413208007812e+01,-1.180732650756835938e+02,9.071665191650390625e+01,-6.933166503906250000e+01,4.117610549926757812e+01,-1.390908145904541016e+01,-1.063631591796875000e+02,-1.240979843139648438e+02,6.351536560058593750e+01,-4.015765380859375000e+01
8.721439838409423828e-01,2.000000000000000000e+00,1.045746326446533203e+01,3.942629814147949219e+00,3.395180892944335938e+01,-1.181271514892578125e+02,9.071867370605468750e+01,-6.935560607910156250e+01,4.110387039184570312e+01,-1.389997291564941406e+01,-1.063782272338867188e+02,-1.241522674560546875e+02,6.351165008544921875e+01,-4.018720626831054688e+01
8.757299780845642090e-01,2.000000000000000000e+00,1.048599720001220703e+01,3.896125316619873047e+00,3.394517898559570312e+01,-1.181808242797851562e+02,9.072059631347656250e+01,-6.938008880615234375e+01,4.103097534179687500e+01,-1.389090824127197266e+01,-1.063934478759765625e+02,-1.242072677612304688e+02,6.350764083862304688e+01,-4.021719741821289062e+01
8.802520036697387695e-01,2.000000000000000000e+00,1.051461791992187500e+01,3.849553108215332031e+00,3.393859100341796875e+01,-1.182338104248046875e+02,9.072241210937500000e+01,-6.940450286865234375e+01,4.095846557617187500e+01,-1.388189125061035156e+01,-1.064090042114257812e+02,-1.242607574462890625e+02,6.350341033935546875e+01,-4.024895095825195312e+01
8.835489749908447266e-01,2.000000000000000000e+00,1.054341030120849609e+01,3.803025960922241211e+00,3.393220520019531250e+01,-1.182878112792968750e+02,9.072433471679687500e+01,-6.942951965332031250e+01,4.088749313354492188e+01,-1.387236976623535156e+01,-1.064240722656250000e+02,-1.243147583007812500e+02,6.349955368041992188e+01,-4.027993011474609375e+01
8.875550031661987305e-01,2.000000000000000000e+00,1.057191658020019531e+01,3.756679534912109375e+00,3.392582321166992188e+01,-1.183419494628906250e+02,9.072635650634765625e+01,-6.945401000976562500e+01,4.081624603271484375e+01,-1.386266517639160156e+01,-1.064390792846679688e+02,-1.243694839477539062e+02,6.349547576904296875e+01,-4.030970382690429688e+01
8.916490077972412109e-01,2.000000000000000000e+00,1.060039424896240234e+01,3.710243225097656250e+00,3.391931915283203125e+01,-1.183954696655273438e+02,9.072827148437500000e+01,-6.947828674316406250e+01,4.074379348754882812e+01,-1.385369205474853516e+01,-1.064543151855468750e+02,-1.244236831665039062e+02,6.349153900146484375e+01,-4.033969879150390625e+01
8.962619900703430176e-01,2.000000000000000000e+00,1.062881374359130859e+01,3.663784027099609375e+00,3.391275024414062500e+01,-1.184496231079101562e+02,9.073024749755859375e+01,-6.950182342529296875e+01,4.067084503173828125e+01,-1.384462928771972656e+01,-1.064693222045898438e+02,-1.244784774780273438e+02,6.348723602294921875e+01,-4.037056732177734375e+01
8.997340202331542969e-01,2.000000000000000000e+00,1.065734863281250000e+01,3.617438077926635742e+00,3.390620422363281250e+01,-1.185029754638671875e+02,9.073227691650390625e+01,-6.952542114257812500e+01,4.059888458251953125e+01,-1.383547401428222656e+01,-1.064842758178710938e+02,-1.245325469970703125e+02,6.348294067382812500e+01,-4.040155029296875000e+01
9.047530293464660645e-01,2.000000000000000000e+00,1.068591117858886719e+01,3.571137189865112305e+00,3.389959716796875000e+01,-1.185563888549804688e+02,9.073413848876953125e+01,-6.954956054687500000e+01,4.052780151367187500e+01,-1.382627296447753906e+01,-1.064992370605468750e+02,-1.245866928100585938e+02,6.347856903076171875e+01,-4.043209457397460938e+01
9.076330065727233887e-01,2.000000000000000000e+00,1.071441745758056641e+01,3.524542331695556641e+00,3.389292526245117188e+01,-1.186107025146484375e+02,9.073632812500000000e+01,-6.957357025146484375e+01,4.045650100708007812e+01,-1.381725406646728516e+01,-1.065145721435546875e+02,-1.246415405273437500e+02,6.347441864013671875e+01,-4.046219635009765625e+01
9.116029739379882812e-01,2.000000000000000000e+00,1.074289512634277344e+01,3.478082895278930664e+00,3.388644027709960938e+01,-1.186640625000000000e+02,9.073829650878906250e+01,-6.959825897216796875e+01,4.038426589965820312e+01,-1.380819034576416016e+01,-1.065301284790039062e+02,-1.246955413818359375e+02,6.347004699707031250e+01,-4.049350738525390625e+01
9.155870079994201660e-01,2.000000000000000000e+00,1.077137184143066406e+01,3.431714296340942383e+00,3.388007736206054688e+01,-1.187178955078125000e+02,9.074027252197265625e+01,-6.962294006347656250e+01,4.031142425537109375e+01,-1.379903602600097656e+01,-1.065455245971679688e+02,-1.247488327026367188e+02,6.346567535400390625e+01,-4.052470779418945312e+01
9.205859899520874023e-01,2.000000000000000000e+00,1.079984855651855469e+01,3.385322809219360352e+00,3.387387466430664062e+01,-1.187713470458984375e+02,9.074234771728515625e+01,-6.964755249023437500e+01,4.023952102661132812e+01,-1.378978919982910156e+01,-1.065604705810546875e+02,-1.248034057617187500e+02,6.346158981323242188e+01,-4.055469894409179688e+01
9.238439798355102539e-01,2.000000000000000000e+00,1.082844066619873047e+01,3.338954210281372070e+00,3.386735153198242188e+01,-1.188246688842773438e+02,9.074437713623046875e+01,-6.967176818847656250e+01,4.016838455200195312e+01,-1.378077125549316406e+01,-1.065754318237304688e+02,-1.248578948974609375e+02,6.345707702636718750e+01,-4.058425521850585938e+01
9.281719923019409180e-01,2.000000000000000000e+00,1.085686111450195312e+01,3.292562723159790039e+00,3.386063766479492188e+01,-1.188787078857421875e+02,9.074634552001953125e+01,-6.969515991210937500e+01,4.009669876098632812e+01,-1.377143192291259766e+01,-1.065906600952148438e+02,-1.249121093750000000e+02,6.345277404785156250e+01,-4.061523437500000000e+01
9.321100115776062012e-01,2.000000000000000000e+00,1.091375732421875000e+01,3.199576616287231445e+00,3.384760665893554688e+01,-1.189852600097656250e+02,9.075061035156250000e+01,-6.974263763427734375e+01,3.995201110839843750e+01,-1.375293827056884766e+01,-1.066210098266601562e+02,-1.250209045410156250e+02,6.344366836547851562e+01,-4.067456054687500000e+01
9.357730150222778320e-01,2.000000000000000000e+00,1.091375732421875000e+01,3.199576616287231445e+00,3.384760665893554688e+01,-1.189852600097656250e+02,9.075061035156250000e+01,-6.974263763427734375e+01,3.995201110839843750e+01,-1.375293827056884766e+01,-1.066210098266601562e+02,-1.250209045410156250e+02,6.344366836547851562e+01,-4.067456054687500000e+01
9.399030208587646484e-01,2.000000000000000000e+00,1.094211959838867188e+01,3.153162479400634766e+00,3.384112167358398438e+01,-1.190394058227539062e+02,9.075274658203125000e+01,-6.976677703857421875e+01,3.987977600097656250e+01,-1.374415016174316406e+01,-1.066361846923828125e+02,-1.250755462646484375e+02,6.343987655639648438e+01,-4.070433425903320312e+01
9.447320103645324707e-01,2.000000000000000000e+00,1.097056770324707031e+01,3.106748580932617188e+00,3.383439254760742188e+01,-1.190926666259765625e+02,9.075477600097656250e+01,-6.979159545898437500e+01,3.980836105346679688e+01,-1.373531532287597656e+01,-1.066515731811523438e+02,-1.251302566528320312e+02,6.343601608276367188e+01,-4.073487472534179688e+01
9.478819966316223145e-01,2.000000000000000000e+00,1.099904537200927734e+01,3.060379743576049805e+00,3.382784271240234375e+01,-1.191461334228515625e+02,9.075690460205078125e+01,-6.981635284423828125e+01,3.973689651489257812e+01,-1.372620487213134766e+01,-1.066668624877929688e+02,-1.251832580566406250e+02,6.343135452270507812e+01,-4.076398849487304688e+01
9.519969820976257324e-01,2.000000000000000000e+00,1.102743625640869141e+01,3.014011144638061523e+00,3.382141876220703125e+01,-1.191999588012695312e+02,9.075903320312500000e+01,-6.984049224853515625e+01,3.966460800170898438e+01,-1.371714210510253906e+01,-1.066820831298828125e+02,-1.252374649047851562e+02,6.342698287963867188e+01,-4.079354476928710938e+01
9.559220075607299805e-01,2.000000000000000000e+00,1.105588436126708984e+01,2.967551708221435547e+00,3.381501388549804688e+01,-1.192531661987304688e+02,9.076122283935546875e+01,-6.986422729492187500e+01,3.959193420410156250e+01,-1.370816898345947266e+01,-1.066974792480468750e+02,-1.252921829223632812e+02,6.342312240600585938e+01,-4.082507324218750000e+01
9.598910212516784668e-01,2.000000000000000000e+00,1.108433341979980469e+01,2.921205759048461914e+00,3.380846786499023438e+01,-1.193076248168945312e+02,9.076335906982421875e+01,-6.988756561279296875e+01,3.951942443847656250e+01,-1.369901466369628906e+01,-1.067125473022460938e+02,-1.253462524414062500e+02,6.341903686523437500e+01,-4.085660552978515625e+01
9.639570116996765137e-01,2.000000000000000000e+00,1.111281013488769531e+01,2.874859809875488281e+00,3.380192184448242188e+01,-1.193615722656250000e+02,9.076532745361328125e+01,-6.991136169433593750e+01,3.944806671142578125e+01,-1.368995094299316406e+01,-1.067277145385742188e+02,-1.254006042480468750e+02,6.341459274291992188e+01,-4.088670730590820312e+01
9.688829779624938965e-01,2.000000000000000000e+00,1.114148807525634766e+01,2.828581571578979492e+00,3.379543304443359375e+01,-1.194146041870117188e+02,9.076750946044921875e+01,-6.993523406982421875e+01,3.937681961059570312e+01,-1.368079566955566406e+01,-1.067428970336914062e+02,-1.254549636840820312e+02,6.341051483154296875e+01,-4.091636657714843750e+01
9.719049930572509766e-01,2.000000000000000000e+00,1.117005157470703125e+01,2.782303333282470703e+00,3.378886795043945312e+01,-1.194682846069335938e+02,9.076980590820312500e+01,-6.995951080322265625e+01,3.930469131469726562e+01,-1.367159461975097656e+01,-1.067582855224609375e+02,-1.255088272094726562e+02,6.340657806396484375e+01,-4.094713211059570312e+01
9.765729904174804688e-01,2.000000000000000000e+00,1.119870185852050781e+01,2.735798835754394531e+00,3.378234100341796875e+01,-1.195217971801757812e+02,9.077199554443359375e+01,-6.998400115966796875e+01,3.923202133178710938e+01,-1.366216468811035156e+01,-1.067736206054687500e+02,-1.255634002685546875e+02,6.340250396728515625e+01,-4.097789382934570312e+01
9.808250069618225098e-01,2.000000000000000000e+00,1.122723579406738281e+01,2.689475297927856445e+00,3.377587509155273438e+01,-1.195753707885742188e+02,9.077423095703125000e+01,-7.000875091552734375e+01,3.915967559814453125e+01,-1.365328407287597656e+01,-1.067890090942382812e+02,-1.256172485351562500e+02,6.339820098876953125e+01,-4.100722503662109375e+01
9.841520190238952637e-01,2.000000000000000000e+00,1.125574111938476562e+01,2.643242359161376953e+00,3.376945114135742188e+01,-1.196292648315429688e+02,9.077630615234375000e+01,-7.003289794921875000e+01,3.908864593505859375e+01,-1.364408206939697266e+01,-1.068042984008789062e+02,-1.256707458496093750e+02,6.339390182495117188e+01,-4.103656005859375000e+01
9.881669878959655762e-01,2.000000000000000000e+00,1.128419017791748047e+01,2.596738100051879883e+00,3.376314926147460938e+01,-1.196824035644531250e+02,9.077854919433593750e+01,-7.005628967285156250e+01,3.901750946044921875e+01,-1.363501930236816406e+01,-1.068194656372070312e+02,-1.257257537841796875e+02,6.338975143432617188e+01,-4.106776428222656250e+01
9.930499792098999023e-01,2.000000000000000000e+00,1.131298351287841797e+01,2.550437211990356445e+00,3.375674438476562500e+01,-1.197359237670898438e+02,9.078073883056640625e+01,-7.007988739013671875e+01,3.894538879394531250e+01,-1.362595558166503906e+01,-1.068343734741210938e+02,-1.257800369262695312e+02,6.338559722900390625e+01,-4.109940338134765625e+01
9.945380091667175293e-01,2.000000000000000000e+00,1.134148883819580078e+01,2.504045724868774414e+00,3.375025558471679688e+01,-1.197895355224609375e+02,9.078297424316406250e+01,-7.010314941406250000e+01,3.887282180786132812e+01,-1.361670875549316406e+01,-1.068492736816406250e+02,-1.258339538574218750e+02,6.338158798217773438e+01,-4.112939453125000000e+01
1.000221014022827148e+00,2.000000000000000000e+00,1.136999511718750000e+01,2.457654476165771484e+00,3.374372863769531250e+01,-1.198429489135742188e+02,9.078521728515625000e+01,-7.012756347656250000e+01,3.880042266845703125e+01,-1.360746192932128906e+01,-1.068643951416015625e+02,-1.258889007568359375e+02,6.337699890136718750e+01,-4.115839767456054688e+01
1.004168987274169922e+00,2.000000000000000000e+00,1.139835739135742188e+01,2.411285877227783203e+00,3.373716354370117188e+01,-1.198967285156250000e+02,9.078734588623046875e+01,-7.015211486816406250e+01,3.872928619384765625e+01,-1.359839820861816406e+01,-1.068797302246093750e+02,-1.259433898925781250e+02,6.337284469604492188e+01,-4.118959808349609375e+01
1.008811950683593750e+00,2.000000000000000000e+00,1.145548343658447266e+01,2.318344593048095703e+00,3.372388839721679688e+01,-1.200036087036132812e+02,9.079177093505859375e+01,-7.020101165771484375e+01,3.858596801757812500e+01,-1.358004188537597656e+01,-1.069096450805664062e+02,-1.260513916015625000e+02,6.336490249633789062e+01,-4.125090408325195312e+01
1.012385010719299316e+00,2.000000000000000000e+00,1.145548343658447266e+01,2.318344593048095703e+00,3.372388839721679688e+01,-1.200036087036132812e+02,9.079177093505859375e+01,-7.020101165771484375e+01,3.858596801757812500e+01,-1.358004188537597656e+01,-1.069096450805664062e+02,-1.260513916015625000e+02,6.336490249633789062e+01,-4.125090408325195312e+01
1.017200946807861328e+00,2.000000000000000000e+00,1.148413372039794922e+01,2.271953344345092773e+00,3.371736145019531250e+01,-1.200577087402343750e+02,9.079380035400390625e+01,-7.022494506835937500e+01,3.851318359375000000e+01,-1.357079505920410156e+01,-1.069248199462890625e+02,-1.261055221557617188e+02,6.336016845703125000e+01,-4.127914047241210938e+01
1.020202040672302246e+00,2.000000000000000000e+00,1.151263904571533203e+01,2.225584745407104492e+00,3.371089935302734375e+01,-1.201108016967773438e+02,9.079582214355468750e+01,-7.024834442138671875e+01,3.844122314453125000e+01,-1.356145572662353516e+01,-1.069401016235351562e+02,-1.261595230102539062e+02,6.335608291625976562e+01,-4.130945968627929688e+01
1.024809002876281738e+00,2.000000000000000000e+00,1.154094314575195312e+01,2.179216146469116211e+00,3.370447158813476562e+01,-1.201648483276367188e+02,9.079785156250000000e+01,-7.027201080322265625e+01,3.836986923217773438e+01,-1.355225467681884766e+01,-1.069552764892578125e+02,-1.262137451171875000e+02,6.335251998901367188e+01,-4.134077072143554688e+01
1.028529047966003418e+00,2.000000000000000000e+00,1.156936359405517578e+01,2.132869958877563477e+00,3.369796371459960938e+01,-1.202184219360351562e+02,9.080024719238281250e+01,-7.029567718505859375e+01,3.829884338378906250e+01,-1.354319095611572266e+01,-1.069699630737304688e+02,-1.262678756713867188e+02,6.334865188598632812e+01,-4.137065505981445312e+01
1.032506942749023438e+00,2.000000000000000000e+00,1.159786987304687500e+01,2.086614370346069336e+00,3.369133758544921875e+01,-1.202716674804687500e+02,9.080233001708984375e+01,-7.031996154785156250e+01,3.822698974609375000e+01,-1.353426456451416016e+01,-1.069849166870117188e+02,-1.263223114013671875e+02,6.334471893310546875e+01,-4.139998626708984375e+01
1.036638975143432617e+00,2.000000000000000000e+00,1.162643241882324219e+01,2.040109872817993164e+00,3.368476867675781250e+01,-1.203258743286132812e+02,9.080435180664062500e+01,-7.034417724609375000e+01,3.815425872802734375e+01,-1.352506351470947266e+01,-1.070000915527343750e+02,-1.263771743774414062e+02,6.334005355834960938e+01,-4.143173980712890625e+01
1.041458964347839355e+00,2.000000000000000000e+00,1.165488147735595703e+01,1.993741154670715332e+00,3.367819976806640625e+01,-1.203794326782226562e+02,9.080616760253906250e+01,-7.036906433105468750e+01,3.808197021484375000e+01,-1.351577186584472656e+01,-1.070153198242187500e+02,-1.264310226440429688e+02,6.333612060546875000e+01,-4.146315765380859375e+01
1.044684052467346191e+00,2.000000000000000000e+00,1.168327236175537109e+01,1.947417855262756348e+00,3.367167663574218750e+01,-1.204327926635742188e+02,9.080825042724609375e+01,-7.039408111572265625e+01,3.801066970825195312e+01,-1.350661659240722656e+01,-1.070308227539062500e+02,-1.264850921630859375e+02,6.333240509033203125e+01,-4.149249267578125000e+01
1.048696994781494141e+00,2.000000000000000000e+00,1.171160602569580078e+01,1.901139616966247559e+00,3.366519165039062500e+01,-1.204863662719726562e+02,9.081043243408203125e+01,-7.041761779785156250e+01,3.793942260742187500e+01,-1.349773502349853516e+01,-1.070459976196289062e+02,-1.265395965576171875e+02,6.332846832275390625e+01,-4.152061843872070312e+01
1.052742958068847656e+00,2.000000000000000000e+00,1.174008274078369141e+01,1.854815959930419922e+00,3.365876770019531250e+01,-1.205395202636718750e+02,9.081240844726562500e+01,-7.044100952148437500e+01,3.786724090576171875e+01,-1.348880958557128906e+01,-1.070608444213867188e+02,-1.265931625366210938e+02,6.332409667968750000e+01,-4.155060958862304688e+01
1.056861042976379395e+00,2.000000000000000000e+00,1.176864624023437500e+01,1.808402061462402344e+00,3.365250396728515625e+01,-1.205932464599609375e+02,9.081432342529296875e+01,-7.046495056152343750e+01,3.779446029663085938e+01,-1.347947025299072266e+01,-1.070758514404296875e+02,-1.266472396850585938e+02,6.332016372680664062e+01,-4.158103942871093750e+01
1.060842990875244141e+00,2.000000000000000000e+00,1.179703712463378906e+01,1.761875033378601074e+00,3.364609909057617188e+01,-1.206471786499023438e+02,9.081629943847656250e+01,-7.048889160156250000e+01,3.772211456298828125e+01,-1.346999549865722656e+01,-1.070910873413085938e+02,-1.267016601562500000e+02,6.331586837768554688e+01,-4.161037826538085938e+01
1.065551042556762695e+00,2.000000000000000000e+00,1.182548618316650391e+01,1.715506315231323242e+00,3.363965225219726562e+01,-1.207000732421875000e+02,9.081827545166015625e+01,-7.051310729980468750e+01,3.765097808837890625e+01,-1.346083927154541016e+01,-1.071062622070312500e+02,-1.267557296752929688e+02,6.331171417236328125e+01,-4.164014816284179688e+01
1.068794965744018555e+00,2.000000000000000000e+00,1.185376167297363281e+01,1.669092416763305664e+00,3.363310623168945312e+01,-1.207538909912109375e+02,9.082040405273437500e+01,-7.053792572021484375e+01,3.757995223999023438e+01,-1.345186710357666016e+01,-1.071214294433593750e+02,-1.268101654052734375e+02,6.330748748779296875e+01,-4.167156982421875000e+01
1.073060989379882812e+00,2.000000000000000000e+00,1.188203811645507812e+01,1.622768878936767578e+00,3.362662124633789062e+01,-1.208073043823242188e+02,9.082211303710937500e+01,-7.056274414062500000e+01,3.750804519653320312e+01,-1.344294071197509766e+01,-1.071363906860351562e+02,-1.268643722534179688e+02,6.330355453491210938e+01,-4.170178222656250000e+01
1.076570987701416016e+00,2.000000000000000000e+00,1.191063022613525391e+01,1.576422810554504395e+00,3.362003326416015625e+01,-1.208607711791992188e+02,9.082408905029296875e+01,-7.058702087402343750e+01,3.743515014648437500e+01,-1.343410587310791016e+01,-1.071513977050781250e+02,-1.269182357788085938e+02,6.329932403564453125e+01,-4.173144531250000000e+01
1.080330967903137207e+00,2.000000000000000000e+00,1.193919372558593750e+01,1.530054092407226562e+00,3.361340332031250000e+01,-1.209150314331054688e+02,9.082604980468750000e+01,-7.061048889160156250e+01,3.736297225952148438e+01,-1.342513370513916016e+01,-1.071668472290039062e+02,-1.269729461669921875e+02,6.329481124877929688e+01,-4.176209640502929688e+01
1.083493947982788086e+00,2.000000000000000000e+00,1.196761322021484375e+01,1.483617544174194336e+00,3.360680007934570312e+01,-1.209680709838867188e+02,9.082792663574218750e+01,-7.063394927978515625e+01,3.729211044311523438e+01,-1.341611671447753906e+01,-1.071824569702148438e+02,-1.270276718139648438e+02,6.329058074951171875e+01,-4.179351806640625000e+01
1.087561011314392090e+00,2.000000000000000000e+00,1.199603271484375000e+01,1.437248826026916504e+00,3.360039138793945312e+01,-1.210219116210937500e+02,9.082994842529296875e+01,-7.065823364257812500e+01,3.722086334228515625e+01,-1.340700626373291016e+01,-1.071975708007812500e+02,-1.270812988281250000e+02,6.328643035888671875e+01,-4.182460784912109375e+01
1.091503024101257324e+00,2.000000000000000000e+00,1.202450942993164062e+01,1.390925407409667969e+00,3.359400939941406250e+01,-1.210759506225585938e+02,9.083180999755859375e+01,-7.068176269531250000e+01,3.714868164062500000e+01,-1.339798927307128906e+01,-1.072126922607421875e+02,-1.271350784301757812e+02,6.328220367431640625e+01,-4.185438156127929688e+01
1.095500946044921875e+00,2.000000000000000000e+00,1.205301666259765625e+01,1.344669818878173828e+00,3.358758163452148438e+01,-1.211289978027343750e+02,9.083378601074218750e+01,-7.070618438720703125e+01,3.707611846923828125e+01,-1.338929176330566406e+01,-1.072277069091796875e+02,-1.271895828247070312e+02,6.327798080444335938e+01,-4.188426589965820312e+01
1.099581956863403320e+00,2.000000000000000000e+00,1.208175182342529297e+01,1.298369050025939941e+00,3.358099746704101562e+01,-1.211827239990234375e+02,9.083570098876953125e+01,-7.073065948486328125e+01,3.700404739379882812e+01,-1.338018226623535156e+01,-1.072428741455078125e+02,-1.272438735961914062e+02,6.327397155761718750e+01,-4.191568756103515625e+01
1.103497028350830078e+00,2.000000000000000000e+00,1.211042881011962891e+01,1.252000212669372559e+00,3.357444763183593750e+01,-1.212365570068359375e+02,9.083746337890625000e+01,-7.075568389892578125e+01,3.693307876586914062e+01,-1.337084293365478516e+01,-1.072578887939453125e+02,-1.272987289428710938e+02,6.326974487304687500e+01,-4.194556808471679688e+01
1.107519030570983887e+00,2.000000000000000000e+00,1.213899326324462891e+01,1.205608963966369629e+00,3.356796264648437500e+01,-1.212901763916015625e+02,9.083933258056640625e+01,-7.077976226806640625e+01,3.686194229125976562e+01,-1.336159706115722656e+01,-1.072730102539062500e+02,-1.273527984619140625e+02,6.326566696166992188e+01,-4.197479248046875000e+01
1.111493945121765137e+00,2.000000000000000000e+00,1.216738319396972656e+01,1.159398674964904785e+00,3.356135559082031250e+01,-1.213439025878906250e+02,9.084124755859375000e+01,-7.080308532714843750e+01,3.679008865356445312e+01,-1.335285377502441406e+01,-1.072883987426757812e+02,-1.274063720703125000e+02,6.326143646240234375e+01,-4.200456237792968750e+01
