rpiRobotics/ARM-21-02-F-19-Robot-Motion-Program/data_performance_abb/curve_2/dual_arm/diffevo_pose6/grad_result/real/run_9.csv
timestamp,cmd_num,J1,J2,J3,J4,J5,J6,J1_2,J2_2,J3_2,J4_2,J5_2,J6_2
1.107000000774860382e-02,-1.000000000000000000e+00,5.492905616760253906e+00,1.202490615844726562e+01,3.508050918579101562e+01,-1.087819824218750000e+02,9.036631011962890625e+01,-6.516045379638671875e+01,5.363669204711914062e+01,-1.548919105529785156e+01,-1.037324752807617188e+02,-1.146968383789062500e+02,6.423976135253906250e+01,-3.491080474853515625e+01
1.245000027120113373e-02,-1.000000000000000000e+00,5.492848396301269531e+00,1.202490615844726562e+01,3.508050918579101562e+01,-1.087819824218750000e+02,9.036620330810546875e+01,-6.516059112548828125e+01,5.363657760620117188e+01,-1.548909854888916016e+01,-1.037324752807617188e+02,-1.146968383789062500e+02,6.423976135253906250e+01,-3.491080474853515625e+01
1.382400002330541611e-02,-1.000000000000000000e+00,5.492848396301269531e+00,1.202490615844726562e+01,3.508050918579101562e+01,-1.087819824218750000e+02,9.036620330810546875e+01,-6.516059112548828125e+01,5.363657760620117188e+01,-1.548909854888916016e+01,-1.037324752807617188e+02,-1.146968383789062500e+02,6.423976135253906250e+01,-3.491080474853515625e+01
1.634900085628032684e-02,-1.000000000000000000e+00,5.492905616760253906e+00,1.202486038208007812e+01,3.508054733276367188e+01,-1.087819824218750000e+02,9.036620330810546875e+01,-6.516045379638671875e+01,5.363669204711914062e+01,-1.548919105529785156e+01,-1.037323684692382812e+02,-1.146968383789062500e+02,6.423976135253906250e+01,-3.491080474853515625e+01
2.015599980950355530e-02,-1.000000000000000000e+00,5.492762088775634766e+00,1.202490615844726562e+01,3.508050918579101562e+01,-1.087820434570312500e+02,9.036631011962890625e+01,-6.516045379638671875e+01,5.363657760620117188e+01,-1.548919105529785156e+01,-1.037324752807617188e+02,-1.146968383789062500e+02,6.423976135253906250e+01,-3.491069030761718750e+01
2.148099988698959351e-02,-1.000000000000000000e+00,5.492762088775634766e+00,1.202490615844726562e+01,3.508050918579101562e+01,-1.087820434570312500e+02,9.036631011962890625e+01,-6.516045379638671875e+01,5.363657760620117188e+01,-1.548919105529785156e+01,-1.037324752807617188e+02,-1.146968383789062500e+02,6.423976135253906250e+01,-3.491069030761718750e+01
2.414100058376789093e-02,-1.000000000000000000e+00,5.492905616760253906e+00,1.202486038208007812e+01,3.508046722412109375e+01,-1.087818832397460938e+02,9.036620330810546875e+01,-6.516045379638671875e+01,5.363669204711914062e+01,-1.548919105529785156e+01,-1.037324752807617188e+02,-1.146968383789062500e+02,6.423976135253906250e+01,-3.491069030761718750e+01
2.734700031578540802e-02,-1.000000000000000000e+00,5.492905616760253906e+00,1.202486038208007812e+01,3.508046722412109375e+01,-1.087818832397460938e+02,9.036620330810546875e+01,-6.516045379638671875e+01,5.363669204711914062e+01,-1.548919105529785156e+01,-1.037324752807617188e+02,-1.146968383789062500e+02,6.423976135253906250e+01,-3.491069030761718750e+01
3.199300169944763184e-02,-1.000000000000000000e+00,5.492762088775634766e+00,1.202490615844726562e+01,3.508042526245117188e+01,-1.087818298339843750e+02,9.036631011962890625e+01,-6.516045379638671875e+01,5.363657760620117188e+01,-1.548919105529785156e+01,-1.037323684692382812e+02,-1.146968383789062500e+02,6.423976135253906250e+01,-3.491080474853515625e+01
3.528700023889541626e-02,-1.000000000000000000e+00,5.492762088775634766e+00,1.202486038208007812e+01,3.508050918579101562e+01,-1.087818832397460938e+02,9.036631011962890625e+01,-6.516045379638671875e+01,5.363669204711914062e+01,-1.548909854888916016e+01,-1.037324752807617188e+02,-1.146968383789062500e+02,6.423976135253906250e+01,-3.491080474853515625e+01
4.072900116443634033e-02,-1.000000000000000000e+00,5.492905616760253906e+00,1.202490615844726562e+01,3.508050918579101562e+01,-1.087818832397460938e+02,9.036620330810546875e+01,-6.516059112548828125e+01,5.363657760620117188e+01,-1.548919105529785156e+01,-1.037323684692382812e+02,-1.146968383789062500e+02,6.423960876464843750e+01,-3.491069030761718750e+01
4.983400180935859680e-02,2.000000000000000000e+00,5.492905616760253906e+00,1.202486038208007812e+01,3.508046722412109375e+01,-1.087820434570312500e+02,9.036620330810546875e+01,-6.516045379638671875e+01,5.363669204711914062e+01,-1.548909854888916016e+01,-1.037324752807617188e+02,-1.146968383789062500e+02,6.423976135253906250e+01,-3.491069030761718750e+01
5.637799948453903198e-02,2.000000000000000000e+00,5.492991924285888672e+00,1.202490615844726562e+01,3.508050918579101562e+01,-1.087819824218750000e+02,9.036631011962890625e+01,-6.516045379638671875e+01,5.363669204711914062e+01,-1.548919105529785156e+01,-1.037324752807617188e+02,-1.146968383789062500e+02,6.423960876464843750e+01,-3.491069030761718750e+01
6.095600128173828125e-02,2.000000000000000000e+00,5.492762088775634766e+00,1.202486038208007812e+01,3.508046722412109375e+01,-1.087820434570312500e+02,9.036620330810546875e+01,-6.516045379638671875e+01,5.363669204711914062e+01,-1.548919105529785156e+01,-1.037324752807617188e+02,-1.146968383789062500e+02,6.423976135253906250e+01,-3.491080474853515625e+01
1.049709990620613098e-01,2.000000000000000000e+00,5.492848396301269531e+00,1.202490615844726562e+01,3.508050918579101562e+01,-1.087819824218750000e+02,9.036631011962890625e+01,-6.516045379638671875e+01,5.363669204711914062e+01,-1.548919105529785156e+01,-1.037324752807617188e+02,-1.146968383789062500e+02,6.423960876464843750e+01,-3.491069030761718750e+01
1.062309965491294861e-01,2.000000000000000000e+00,5.492848396301269531e+00,1.202490615844726562e+01,3.508050918579101562e+01,-1.087819824218750000e+02,9.036631011962890625e+01,-6.516045379638671875e+01,5.363669204711914062e+01,-1.548919105529785156e+01,-1.037324752807617188e+02,-1.146968383789062500e+02,6.423960876464843750e+01,-3.491069030761718750e+01
1.088719964027404785e-01,2.000000000000000000e+00,5.492848396301269531e+00,1.202486038208007812e+01,3.508050918579101562e+01,-1.087819824218750000e+02,9.036631011962890625e+01,-6.516045379638671875e+01,5.363657760620117188e+01,-1.548919105529785156e+01,-1.037324752807617188e+02,-1.146968383789062500e+02,6.423976135253906250e+01,-3.491080474853515625e+01
1.134219989180564880e-01,2.000000000000000000e+00,5.492905616760253906e+00,1.202486038208007812e+01,3.508046722412109375e+01,-1.087818832397460938e+02,9.036620330810546875e+01,-6.516045379638671875e+01,5.363669204711914062e+01,-1.548919105529785156e+01,-1.037324752807617188e+02,-1.146968383789062500e+02,6.423960876464843750e+01,-3.491080474853515625e+01
1.157049983739852905e-01,2.000000000000000000e+00,5.492905616760253906e+00,1.202486038208007812e+01,3.508046722412109375e+01,-1.087818832397460938e+02,9.036620330810546875e+01,-6.516045379638671875e+01,5.363669204711914062e+01,-1.548919105529785156e+01,-1.037324752807617188e+02,-1.146968383789062500e+02,6.423960876464843750e+01,-3.491080474853515625e+01
1.173169985413551331e-01,2.000000000000000000e+00,5.492991924285888672e+00,1.202476978302001953e+01,3.508046722412109375e+01,-1.087820434570312500e+02,9.036641693115234375e+01,-6.516045379638671875e+01,5.363669204711914062e+01,-1.548919105529785156e+01,-1.037323684692382812e+02,-1.146968383789062500e+02,6.423976135253906250e+01,-3.491069030761718750e+01
1.186489984393119812e-01,2.000000000000000000e+00,5.492991924285888672e+00,1.202476978302001953e+01,3.508046722412109375e+01,-1.087820434570312500e+02,9.036641693115234375e+01,-6.516045379638671875e+01,5.363669204711914062e+01,-1.548919105529785156e+01,-1.037323684692382812e+02,-1.146968383789062500e+02,6.423976135253906250e+01,-3.491069030761718750e+01
1.282189935445785522e-01,2.000000000000000000e+00,5.493193149566650391e+00,1.202458953857421875e+01,3.508046722412109375e+01,-1.087819824218750000e+02,9.036631011962890625e+01,-6.516045379638671875e+01,5.363669204711914062e+01,-1.548919105529785156e+01,-1.037323684692382812e+02,-1.146968383789062500e+02,6.423976135253906250e+01,-3.491069030761718750e+01
1.295370012521743774e-01,2.000000000000000000e+00,5.495288372039794922e+00,1.202268791198730469e+01,3.508050918579101562e+01,-1.087819824218750000e+02,9.036631011962890625e+01,-6.516045379638671875e+01,5.363619613647460938e+01,-1.548919105529785156e+01,-1.037320938110351562e+02,-1.146968383789062500e+02,6.423960876464843750e+01,-3.491080474853515625e+01
1.321219950914382935e-01,2.000000000000000000e+00,5.495288372039794922e+00,1.202268791198730469e+01,3.508050918579101562e+01,-1.087819824218750000e+02,9.036631011962890625e+01,-6.516045379638671875e+01,5.363619613647460938e+01,-1.548919105529785156e+01,-1.037320938110351562e+02,-1.146968383789062500e+02,6.423960876464843750e+01,-3.491080474853515625e+01
1.334459930658340454e-01,2.000000000000000000e+00,5.497297763824462891e+00,1.202085494995117188e+01,3.508054733276367188e+01,-1.087819824218750000e+02,9.036641693115234375e+01,-6.516045379638671875e+01,5.363504028320312500e+01,-1.548955821990966797e+01,-1.037296447753906250e+02,-1.146973495483398438e+02,6.423960876464843750e+01,-3.491091537475585938e+01
1.347270011901855469e-01,2.000000000000000000e+00,5.497297763824462891e+00,1.202085494995117188e+01,3.508054733276367188e+01,-1.087819824218750000e+02,9.036641693115234375e+01,-6.516045379638671875e+01,5.363504028320312500e+01,-1.548955821990966797e+01,-1.037296447753906250e+02,-1.146973495483398438e+02,6.423960876464843750e+01,-3.491091537475585938e+01
1.412609964609146118e-01,2.000000000000000000e+00,5.503326416015625000e+00,1.201386260986328125e+01,3.508046722412109375e+01,-1.087827224731445312e+02,9.036631011962890625e+01,-6.516079711914062500e+01,5.362894439697265625e+01,-1.549111366271972656e+01,-1.037255706787109375e+02,-1.146988525390625000e+02,6.423713684082031250e+01,-3.491310882568359375e+01
1.426039934158325195e-01,2.000000000000000000e+00,5.503326416015625000e+00,1.201386260986328125e+01,3.508046722412109375e+01,-1.087827224731445312e+02,9.036631011962890625e+01,-6.516079711914062500e+01,5.362894439697265625e+01,-1.549111366271972656e+01,-1.037255706787109375e+02,-1.146988525390625000e+02,6.423713684082031250e+01,-3.491310882568359375e+01
1.453019976615905762e-01,2.000000000000000000e+00,5.507345676422119141e+00,1.200843143463134766e+01,3.508042526245117188e+01,-1.087843551635742188e+02,9.036641693115234375e+01,-6.516092681884765625e+01,5.362411117553710938e+01,-1.549166297912597656e+01,-1.037242660522460938e+02,-1.146999282836914062e+02,6.423407745361328125e+01,-3.491530990600585938e+01
1.466049998998641968e-01,2.000000000000000000e+00,5.507345676422119141e+00,1.200843143463134766e+01,3.508042526245117188e+01,-1.087843551635742188e+02,9.036641693115234375e+01,-6.516092681884765625e+01,5.362411117553710938e+01,-1.549166297912597656e+01,-1.037242660522460938e+02,-1.146999282836914062e+02,6.423407745361328125e+01,-3.491530990600585938e+01
1.507229954004287720e-01,2.000000000000000000e+00,5.512397766113281250e+00,1.200143814086914062e+01,3.508036422729492188e+01,-1.087874145507812500e+02,9.036652374267578125e+01,-6.516147613525390625e+01,5.361768341064453125e+01,-1.549166297912597656e+01,-1.037231750488281250e+02,-1.147015838623046875e+02,6.422977447509765625e+01,-3.491728591918945312e+01
1.547349989414215088e-01,2.000000000000000000e+00,5.518167972564697266e+00,1.199277114868164062e+01,3.508026123046875000e+01,-1.087920455932617188e+02,9.036679077148437500e+01,-6.516330718994140625e+01,5.360933303833007812e+01,-1.549083805084228516e+01,-1.037221984863281250e+02,-1.147045211791992188e+02,6.422591400146484375e+01,-3.491882324218750000e+01
1.573649942874908447e-01,2.000000000000000000e+00,5.525344371795654297e+00,1.198199939727783203e+01,3.507989501953125000e+01,-1.087981033325195312e+02,9.036679077148437500e+01,-6.516635894775390625e+01,5.359812927246093750e+01,-1.548960208892822266e+01,-1.037223587036132812e+02,-1.147083282470703125e+02,6.422431182861328125e+01,-3.492079925537109375e+01
1.586180031299591064e-01,2.000000000000000000e+00,5.525344371795654297e+00,1.198199939727783203e+01,3.507989501953125000e+01,-1.087981033325195312e+02,9.036679077148437500e+01,-6.516635894775390625e+01,5.359812927246093750e+01,-1.548960208892822266e+01,-1.037223587036132812e+02,-1.147083282470703125e+02,6.422431182861328125e+01,-3.492079925537109375e+01
1.646050065755844116e-01,2.000000000000000000e+00,5.543601989746093750e+00,1.195332717895507812e+01,3.507845306396484375e+01,-1.088171768188476562e+02,9.036721801757812500e+01,-6.517490386962890625e+01,5.356709289550781250e+01,-1.548809242248535156e+01,-1.037325286865234375e+02,-1.147229766845703125e+02,6.422198486328125000e+01,-3.492640686035156250e+01
1.662109941244125366e-01,2.000000000000000000e+00,5.543601989746093750e+00,1.195332717895507812e+01,3.507845306396484375e+01,-1.088171768188476562e+02,9.036721801757812500e+01,-6.517490386962890625e+01,5.356709289550781250e+01,-1.548809242248535156e+01,-1.037325286865234375e+02,-1.147229766845703125e+02,6.422198486328125000e+01,-3.492640686035156250e+01
1.687500029802322388e-01,2.000000000000000000e+00,5.554711818695068359e+00,1.193626499176025391e+01,3.507731628417968750e+01,-1.088306579589843750e+02,9.036774444580078125e+01,-6.518066406250000000e+01,5.354577636718750000e+01,-1.548630619049072266e+01,-1.037348175048828125e+02,-1.147342529296875000e+02,6.422074127197265625e+01,-3.493167877197265625e+01
1.700530052185058594e-01,2.000000000000000000e+00,5.554711818695068359e+00,1.193626499176025391e+01,3.507731628417968750e+01,-1.088306579589843750e+02,9.036774444580078125e+01,-6.518066406250000000e+01,5.354577636718750000e+01,-1.548630619049072266e+01,-1.037348175048828125e+02,-1.147342529296875000e+02,6.422074127197265625e+01,-3.493167877197265625e+01
1.740339994430541992e-01,2.000000000000000000e+00,5.566481113433837891e+00,1.191725540161132812e+01,3.507579040527343750e+01,-1.088476181030273438e+02,9.036844635009765625e+01,-6.518819427490234375e+01,5.352017974853515625e+01,-1.548461246490478516e+01,-1.037381820678710938e+02,-1.147489013671875000e+02,6.421950531005859375e+01,-3.493870925903320312e+01
1.765059977769851685e-01,2.000000000000000000e+00,5.566481113433837891e+00,1.191725540161132812e+01,3.507579040527343750e+01,-1.088476181030273438e+02,9.036844635009765625e+01,-6.518819427490234375e+01,5.352017974853515625e+01,-1.548461246490478516e+01,-1.037381820678710938e+02,-1.147489013671875000e+02,6.421950531005859375e+01,-3.493870925903320312e+01
1.790809929370880127e-01,2.000000000000000000e+00,5.579399108886718750e+00,1.189639091491699219e+01,3.507381820678710938e+01,-1.088683776855468750e+02,9.036876678466796875e+01,-6.519782257080078125e+01,5.348963546752929688e+01,-1.548278236389160156e+01,-1.037426986694335938e+02,-1.147672882080078125e+02,6.421775054931640625e+01,-3.494804763793945312e+01
1.817529946565628052e-01,2.000000000000000000e+00,5.593178749084472656e+00,1.187425804138183594e+01,3.507105255126953125e+01,-1.088932876586914062e+02,9.036972045898437500e+01,-6.520874023437500000e+01,5.345338058471679688e+01,-1.547971534729003906e+01,-1.037500381469726562e+02,-1.147906188964843750e+02,6.421651458740234375e+01,-3.495969009399414062e+01
1.830220073461532593e-01,2.000000000000000000e+00,5.593178749084472656e+00,1.187425804138183594e+01,3.507105255126953125e+01,-1.088932876586914062e+02,9.036972045898437500e+01,-6.520874023437500000e+01,5.345338058471679688e+01,-1.547971534729003906e+01,-1.037500381469726562e+02,-1.147906188964843750e+02,6.421651458740234375e+01,-3.495969009399414062e+01
1.860740035772323608e-01,2.000000000000000000e+00,5.607991218566894531e+00,1.185052013397216797e+01,3.506777954101562500e+01,-1.089229965209960938e+02,9.037074279785156250e+01,-6.522142028808593750e+01,5.341311645507812500e+01,-1.547554874420166016e+01,-1.037576599121093750e+02,-1.148179016113281250e+02,6.421476745605468750e+01,-3.497419738769531250e+01
1.885920017957687378e-01,2.000000000000000000e+00,5.607991218566894531e+00,1.185052013397216797e+01,3.506777954101562500e+01,-1.089229965209960938e+02,9.037074279785156250e+01,-6.522142028808593750e+01,5.341311645507812500e+01,-1.547554874420166016e+01,-1.037576599121093750e+02,-1.148179016113281250e+02,6.421476745605468750e+01,-3.497419738769531250e+01
1.901720017194747925e-01,2.000000000000000000e+00,5.623808860778808594e+00,1.182476711273193359e+01,3.506399917602539062e+01,-1.089560699462890625e+02,9.037148284912109375e+01,-6.523573303222656250e+01,5.336949920654296875e+01,-1.547046756744384766e+01,-1.037666854858398438e+02,-1.148509292602539062e+02,6.421265411376953125e+01,-3.499111557006835938e+01
1.936430037021636963e-01,2.000000000000000000e+00,5.623808860778808594e+00,1.182476711273193359e+01,3.506399917602539062e+01,-1.089560699462890625e+02,9.037148284912109375e+01,-6.523573303222656250e+01,5.336949920654296875e+01,-1.547046756744384766e+01,-1.037666854858398438e+02,-1.148509292602539062e+02,6.421265411376953125e+01,-3.499111557006835938e+01
2.012979984283447266e-01,2.000000000000000000e+00,5.677547931671142578e+00,1.173580837249755859e+01,3.505023193359375000e+01,-1.090730590820312500e+02,9.037462615966796875e+01,-6.528842926025390625e+01,5.321981430053710938e+01,-1.545000553131103516e+01,-1.038072586059570312e+02,-1.149760894775390625e+02,6.420529174804687500e+01,-3.505527496337890625e+01
2.053920030593872070e-01,2.000000000000000000e+00,5.697556495666503906e+00,1.170193195343017578e+01,3.504486465454101562e+01,-1.091201553344726562e+02,9.037606811523437500e+01,-6.530904388427734375e+01,5.316498947143554688e+01,-1.544167518615722656e+01,-1.038229751586914062e+02,-1.150252075195312500e+02,6.420230102539062500e+01,-3.508263015747070312e+01
2.067569941282272339e-01,2.000000000000000000e+00,5.697556495666503906e+00,1.170193195343017578e+01,3.504486465454101562e+01,-1.091201553344726562e+02,9.037606811523437500e+01,-6.530904388427734375e+01,5.316498947143554688e+01,-1.544167518615722656e+01,-1.038229751586914062e+02,-1.150252075195312500e+02,6.420230102539062500e+01,-3.508263015747070312e+01
2.092120051383972168e-01,2.000000000000000000e+00,5.718225479125976562e+00,1.166669654846191406e+01,3.503925323486328125e+01,-1.091674041748046875e+02,9.037724304199218750e+01,-6.533068084716796875e+01,5.310637664794921875e+01,-1.543320751190185547e+01,-1.038394012451171875e+02,-1.150766983032226562e+02,6.419895935058593750e+01,-3.511075592041015625e+01
2.128159999847412109e-01,2.000000000000000000e+00,5.718225479125976562e+00,1.166669654846191406e+01,3.503925323486328125e+01,-1.091674041748046875e+02,9.037724304199218750e+01,-6.533068084716796875e+01,5.310637664794921875e+01,-1.543320751190185547e+01,-1.038394012451171875e+02,-1.150766983032226562e+02,6.419895935058593750e+01,-3.511075592041015625e+01
2.141509950160980225e-01,2.000000000000000000e+00,5.739554882049560547e+00,1.162983226776123047e+01,3.503323745727539062e+01,-1.092165527343750000e+02,9.037868499755859375e+01,-6.535366821289062500e+01,5.304348373413085938e+01,-1.542423343658447266e+01,-1.038562622070312500e+02,-1.151296157836914062e+02,6.419582366943359375e+01,-3.513975906372070312e+01
2.175610065460205078e-01,2.000000000000000000e+00,5.739554882049560547e+00,1.162983226776123047e+01,3.503323745727539062e+01,-1.092165527343750000e+02,9.037868499755859375e+01,-6.535366821289062500e+01,5.304348373413085938e+01,-1.542423343658447266e+01,-1.038562622070312500e+02,-1.151296157836914062e+02,6.419582366943359375e+01,-3.513975906372070312e+01
2.190250009298324585e-01,2.000000000000000000e+00,5.761630535125732422e+00,1.159145259857177734e+01,3.502693176269531250e+01,-1.092681655883789062e+02,9.038038635253906250e+01,-6.537767028808593750e+01,5.297695922851562500e+01,-1.541512393951416016e+01,-1.038727416992187500e+02,-1.151841201782226562e+02,6.419254302978515625e+01,-3.517029953002929688e+01
2.230679988861083984e-01,2.000000000000000000e+00,5.784825325012207031e+00,1.155132961273193359e+01,3.502059173583984375e+01,-1.093210525512695312e+02,9.038198852539062500e+01,-6.540161132812500000e+01,5.290790939331054688e+01,-1.540592384338378906e+01,-1.038892745971679688e+02,-1.152386932373046875e+02,6.418904876708984375e+01,-3.520117187500000000e+01
2.258380055427551270e-01,2.000000000000000000e+00,5.809312343597412109e+00,1.150937366485595703e+01,3.501422500610351562e+01,-1.093745193481445312e+02,9.038379669189453125e+01,-6.542528533935546875e+01,5.283760070800781250e+01,-1.539690589904785156e+01,-1.039050445556640625e+02,-1.152931137084960938e+02,6.418554687500000000e+01,-3.523171615600585938e+01
2.296060025691986084e-01,2.000000000000000000e+00,5.834976196289062500e+00,1.146569824218750000e+01,3.500780105590820312e+01,-1.094281387329101562e+02,9.038561248779296875e+01,-6.544867706298828125e+01,5.276624298095703125e+01,-1.538779640197753906e+01,-1.039205474853515625e+02,-1.153479080200195312e+02,6.418197631835937500e+01,-3.526225662231445312e+01
2.329799979925155640e-01,2.000000000000000000e+00,5.834976196289062500e+00,1.146569824218750000e+01,3.500780105590820312e+01,-1.094281387329101562e+02,9.038561248779296875e+01,-6.544867706298828125e+01,5.276624298095703125e+01,-1.538779640197753906e+01,-1.039205474853515625e+02,-1.153479080200195312e+02,6.418197631835937500e+01,-3.526225662231445312e+01
2.350540012121200562e-01,2.000000000000000000e+00,5.861701965332031250e+00,1.142073249816894531e+01,3.500131607055664062e+01,-1.094821243286132812e+02,9.038752746582031250e+01,-6.547282409667968750e+01,5.269373321533203125e+01,-1.537841224670410156e+01,-1.039357223510742188e+02,-1.154033432006835938e+02,6.417818450927734375e+01,-3.529345703125000000e+01
2.389360070228576660e-01,2.000000000000000000e+00,5.889289855957031250e+00,1.137458992004394531e+01,3.499493026733398438e+01,-1.095370712280273438e+02,9.038955688476562500e+01,-6.549757385253906250e+01,5.262045288085937500e+01,-1.536893653869628906e+01,-1.039508972167968750e+02,-1.154588470458984375e+02,6.417403411865234375e+01,-3.532531738281250000e+01
2.429739981889724731e-01,2.000000000000000000e+00,5.917536735534667969e+00,1.132761001586914062e+01,3.498858642578125000e+01,-1.095911636352539062e+02,9.039136505126953125e+01,-6.552232360839843750e+01,5.254684448242187500e+01,-1.535945987701416016e+01,-1.039662322998046875e+02,-1.155144271850585938e+02,6.417024993896484375e+01,-3.535684585571289062e+01
2.470490038394927979e-01,2.000000000000000000e+00,5.946444511413574219e+00,1.128031349182128906e+01,3.498214340209960938e+01,-1.096455230712890625e+02,9.039334106445312500e+01,-6.554721832275390625e+01,5.247367858886718750e+01,-1.535003089904785156e+01,-1.039813537597656250e+02,-1.155694274902343750e+02,6.416703796386718750e+01,-3.538750076293945312e+01
2.544710040092468262e-01,2.000000000000000000e+00,5.975409984588623047e+00,1.123294925689697266e+01,3.497565841674804688e+01,-1.097001495361328125e+02,9.039542388916015625e+01,-6.557231140136718750e+01,5.240133285522460938e+01,-1.534082889556884766e+01,-1.039964218139648438e+02,-1.156245727539062500e+02,6.416274261474609375e+01,-3.541969299316406250e+01
2.570289969444274902e-01,2.000000000000000000e+00,6.004576206207275391e+00,1.118556213378906250e+01,3.496904754638671875e+01,-1.097544021606445312e+02,9.039760589599609375e+01,-6.559664916992187500e+01,5.232898712158203125e+01,-1.533158206939697266e+01,-1.040115432739257812e+02,-1.156801528930664062e+02,6.415887451171875000e+01,-3.545209884643554688e+01
2.589679956436157227e-01,2.000000000000000000e+00,6.033598899841308594e+00,1.113828849792480469e+01,3.496229934692382812e+01,-1.098093948364257812e+02,9.039947509765625000e+01,-6.562065887451171875e+01,5.225548553466796875e+01,-1.532233619689941406e+01,-1.040268249511718750e+02,-1.157351531982421875e+02,6.415480041503906250e+01,-3.548329925537109375e+01
2.629399895668029785e-01,2.000000000000000000e+00,6.062506198883056641e+00,1.109099197387695312e+01,3.495562744140625000e+01,-1.098642272949218750e+02,9.040133666992187500e+01,-6.564453125000000000e+01,5.218165969848632812e+01,-1.531295108795166016e+01,-1.040425949096679688e+02,-1.157890853881835938e+02,6.415122985839843750e+01,-3.551428222656250000e+01
2.669470012187957764e-01,2.000000000000000000e+00,6.091557502746582031e+00,1.104371738433837891e+01,3.494883728027343750e+01,-1.099180068969726562e+02,9.040341949462890625e+01,-6.566874694824218750e+01,5.210816192626953125e+01,-1.530365848541259766e+01,-1.040581512451171875e+02,-1.158444519042968750e+02,6.414759063720703125e+01,-3.554526519775390625e+01
2.709929943084716797e-01,2.000000000000000000e+00,6.120522975921630859e+00,1.099653434753417969e+01,3.494210815429687500e+01,-1.099729995727539062e+02,9.040549468994140625e+01,-6.569356536865234375e+01,5.203565216064453125e+01,-1.529441261291503906e+01,-1.040738143920898438e+02,-1.158999481201171875e+02,6.414373016357421875e+01,-3.557580566406250000e+01
2.749480009078979492e-01,2.000000000000000000e+00,6.149631977081298828e+00,1.094914722442626953e+01,3.493552017211914062e+01,-1.100272521972656250e+02,9.040752410888671875e+01,-6.571838378906250000e+01,5.196303176879882812e+01,-1.528534889221191406e+01,-1.040887680053710938e+02,-1.159551696777343750e+02,6.413950347900390625e+01,-3.560557937622070312e+01
2.791790068149566650e-01,2.000000000000000000e+00,6.178568363189697266e+00,1.090194129943847656e+01,3.492919921875000000e+01,-1.100817184448242188e+02,9.040966033935546875e+01,-6.574340820312500000e+01,5.188942337036132812e+01,-1.527582740783691406e+01,-1.041037292480468750e+02,-1.160104675292968750e+02,6.413556671142578125e+01,-3.563677978515625000e+01
2.829490005970001221e-01,2.000000000000000000e+00,6.207447052001953125e+00,1.085491657257080078e+01,3.492271423339843750e+01,-1.101362915039062500e+02,9.041168975830078125e+01,-6.576822662353515625e+01,5.181554031372070312e+01,-1.526621437072753906e+01,-1.041191711425781250e+02,-1.160656127929687500e+02,6.413155364990234375e+01,-3.566852951049804688e+01
2.903510034084320068e-01,2.000000000000000000e+00,6.236182689666748047e+00,1.080782318115234375e+01,3.491610336303710938e+01,-1.101900711059570312e+02,9.041360473632812500e+01,-6.579216766357421875e+01,5.174237060546875000e+01,-1.525673866271972656e+01,-1.041345138549804688e+02,-1.161207580566406250e+02,6.412754821777343750e+01,-3.570050048828125000e+01
2.918570041656494141e-01,2.000000000000000000e+00,6.264946460723876953e+00,1.076095676422119141e+01,3.490949630737304688e+01,-1.102446899414062500e+02,9.041579437255859375e+01,-6.581604003906250000e+01,5.167057800292968750e+01,-1.524744606018066406e+01,-1.041497344970703125e+02,-1.161755371093750000e+02,6.412383270263671875e+01,-3.573104095458984375e+01
2.949340045452117920e-01,2.000000000000000000e+00,6.293854713439941406e+00,1.071409034729003906e+01,3.490296936035156250e+01,-1.102992095947265625e+02,9.041770935058593750e+01,-6.584011840820312500e+01,5.159806823730468750e+01,-1.523838233947753906e+01,-1.041649169921875000e+02,-1.162299041748046875e+02,6.411982727050781250e+01,-3.576169586181640625e+01
3.015049993991851807e-01,2.000000000000000000e+00,6.293854713439941406e+00,1.071409034729003906e+01,3.490296936035156250e+01,-1.102992095947265625e+02,9.041770935058593750e+01,-6.584011840820312500e+01,5.159806823730468750e+01,-1.523838233947753906e+01,-1.041649169921875000e+02,-1.162299041748046875e+02,6.411982727050781250e+01,-3.576169586181640625e+01
3.052389919757843018e-01,2.000000000000000000e+00,6.351354598999023438e+00,1.062040233612060547e+01,3.488971328735351562e+01,-1.104078216552734375e+02,9.042197418212890625e+01,-6.588921356201171875e+01,5.145079421997070312e+01,-1.521965980529785156e+01,-1.041955337524414062e+02,-1.163407745361328125e+02,6.411174011230468750e+01,-3.582343673706054688e+01
3.070070147514343262e-01,2.000000000000000000e+00,6.380090236663818359e+00,1.057360363006591797e+01,3.488316726684570312e+01,-1.104618682861328125e+02,9.042383575439453125e+01,-6.591410827636718750e+01,5.137817764282226562e+01,-1.521032047271728516e+01,-1.042110900878906250e+02,-1.163956985473632812e+02,6.410765838623046875e+01,-3.585397720336914062e+01
3.119480013847351074e-01,2.000000000000000000e+00,6.380090236663818359e+00,1.057360363006591797e+01,3.488316726684570312e+01,-1.104618682861328125e+02,9.042383575439453125e+01,-6.591410827636718750e+01,5.130638122558593750e+01,-1.520075321197509766e+01,-1.042264785766601562e+02,-1.164509124755859375e+02,6.410364532470703125e+01,-3.588529205322265625e+01
3.155950009822845459e-01,2.000000000000000000e+00,6.437761783599853516e+00,1.048023319244384766e+01,3.487058258056640625e+01,-1.105712203979492188e+02,9.042799377441406250e+01,-6.596394348144531250e+01,5.123419952392578125e+01,-1.519159889221191406e+01,-1.042415390014648438e+02,-1.165066375732421875e+02,6.409899139404296875e+01,-3.591638183593750000e+01
3.200100064277648926e-01,2.000000000000000000e+00,6.466727256774902344e+00,1.043356990814208984e+01,3.486407470703125000e+01,-1.106251068115234375e+02,9.043013000488281250e+01,-6.598815917968750000e+01,5.116108703613281250e+01,-1.518207645416259766e+01,-1.042569885253906250e+02,-1.165615615844726562e+02,6.409476470947265625e+01,-3.594769287109375000e+01
3.230069875717163086e-01,2.000000000000000000e+00,6.495577335357666016e+00,1.038695240020751953e+01,3.485746765136718750e+01,-1.106797790527343750e+02,9.043215942382812500e+01,-6.601189422607421875e+01,5.108763885498046875e+01,-1.517273902893066406e+01,-1.042723236083984375e+02,-1.166165084838867188e+02,6.409046936035156250e+01,-3.597856521606445312e+01
3.303599953651428223e-01,2.000000000000000000e+00,6.495577335357666016e+00,1.038695240020751953e+01,3.485746765136718750e+01,-1.106797790527343750e+02,9.043215942382812500e+01,-6.601189422607421875e+01,5.101518630981445312e+01,-1.516330909729003906e+01,-1.042876663208007812e+02,-1.166715698242187500e+02,6.408587646484375000e+01,-3.600976562500000000e+01
3.317590057849884033e-01,2.000000000000000000e+00,6.553134441375732422e+00,1.029369449615478516e+01,3.484437561035156250e+01,-1.107883377075195312e+02,9.043626403808593750e+01,-6.606085968017578125e+01,5.094327926635742188e+01,-1.515410804748535156e+01,-1.043032760620117188e+02,-1.167261428833007812e+02,6.408164978027343750e+01,-3.604140472412109375e+01
3.349609971046447754e-01,2.000000000000000000e+00,6.581956386566162109e+00,1.024709892272949219e+01,3.483760070800781250e+01,-1.108429641723632812e+02,9.043839263916015625e+01,-6.608560943603515625e+01,5.087099075317382812e+01,-1.514499855041503906e+01,-1.043187255859375000e+02,-1.167811584472656250e+02,6.407771301269531250e+01,-3.607283020019531250e+01
3.390749990940093994e-01,2.000000000000000000e+00,6.581956386566162109e+00,1.024709892272949219e+01,3.483760070800781250e+01,-1.108429641723632812e+02,9.043839263916015625e+01,-6.608560943603515625e+01,5.087099075317382812e+01,-1.514499855041503906e+01,-1.043187255859375000e+02,-1.167811584472656250e+02,6.407771301269531250e+01,-3.607283020019531250e+01
3.429929912090301514e-01,2.000000000000000000e+00,6.610921382904052734e+00,1.020039081573486328e+01,3.483095169067382812e+01,-1.108974761962890625e+02,9.044047546386718750e+01,-6.611077117919921875e+01,5.079798507690429688e+01,-1.513616371154785156e+01,-1.043339996337890625e+02,-1.168367233276367188e+02,6.407334136962890625e+01,-3.610303878784179688e+01
3.469890058040618896e-01,2.000000000000000000e+00,6.639714717864990234e+00,1.015345668792724609e+01,3.482438659667968750e+01,-1.109516830444335938e+02,9.044255065917968750e+01,-6.613586425781250000e+01,5.072497940063476562e+01,-1.512700843811035156e+01,-1.043492355346679688e+02,-1.168915176391601562e+02,6.406911468505859375e+01,-3.613336181640625000e+01
3.519980013370513916e-01,2.000000000000000000e+00,6.668306350708007812e+00,1.010665798187255859e+01,3.481796264648437500e+01,-1.110062484741210938e+02,9.044474029541015625e+01,-6.616000366210937500e+01,5.065230941772460938e+01,-1.511762332916259766e+01,-1.043647308349609375e+02,-1.169469528198242188e+02,6.406525421142578125e+01,-3.616500091552734375e+01
3.558369874954223633e-01,2.000000000000000000e+00,6.725547790527343750e+00,1.001274394989013672e+01,3.480478668212890625e+01,-1.111142349243164062e+02,9.044932556152343750e+01,-6.620816040039062500e+01,5.050794982910156250e+01,-1.509940528869628906e+01,-1.043962783813476562e+02,-1.170568923950195312e+02,6.405760192871093750e+01,-3.622564697265625000e+01
3.589760065078735352e-01,2.000000000000000000e+00,6.754397869110107422e+00,9.965696334838867188e+00,3.479811859130859375e+01,-1.111687011718750000e+02,9.045124816894531250e+01,-6.623236846923828125e+01,5.043499755859375000e+01,-1.509015750885009766e+01,-1.044114532470703125e+02,-1.171121749877929688e+02,6.405330657958984375e+01,-3.625618743896484375e+01
3.640370070934295654e-01,2.000000000000000000e+00,6.754397869110107422e+00,9.965696334838867188e+00,3.479811859130859375e+01,-1.111687011718750000e+02,9.045124816894531250e+01,-6.623236846923828125e+01,5.043499755859375000e+01,-1.509015750885009766e+01,-1.044114532470703125e+02,-1.171121749877929688e+02,6.405330657958984375e+01,-3.625618743896484375e+01
3.669309914112091064e-01,2.000000000000000000e+00,6.812184810638427734e+00,9.871691703796386719e+00,3.478486251831054688e+01,-1.112773132324218750e+02,9.045571899414062500e+01,-6.628166961669921875e+01,5.028871536254882812e+01,-1.507120704650878906e+01,-1.044418029785156250e+02,-1.172217559814453125e+02,6.404528808593750000e+01,-3.631848144531250000e+01
3.719690144062042236e-01,2.000000000000000000e+00,6.812184810638427734e+00,9.871691703796386719e+00,3.478486251831054688e+01,-1.112773132324218750e+02,9.045571899414062500e+01,-6.628166961669921875e+01,5.028871536254882812e+01,-1.507120704650878906e+01,-1.044418029785156250e+02,-1.172217559814453125e+02,6.404528808593750000e+01,-3.631848144531250000e+01
3.749330043792724609e-01,2.000000000000000000e+00,6.869770526885986328e+00,9.777278900146484375e+00,3.477166748046875000e+01,-1.113854522705078125e+02,9.046004486083984375e+01,-6.633152008056640625e+01,5.014424514770507812e+01,-1.505179691314697266e+01,-1.044722061157226562e+02,-1.173322677612304688e+02,6.403683471679687500e+01,-3.637835693359375000e+01
3.802909851074218750e-01,2.000000000000000000e+00,6.869770526885986328e+00,9.777278900146484375e+00,3.477166748046875000e+01,-1.113854522705078125e+02,9.046004486083984375e+01,-6.633152008056640625e+01,5.014424514770507812e+01,-1.505179691314697266e+01,-1.044722061157226562e+02,-1.173322677612304688e+02,6.403683471679687500e+01,-3.637835693359375000e+01
3.830049932003021240e-01,2.000000000000000000e+00,6.927873134613037109e+00,9.683003425598144531e+00,3.475877380371093750e+01,-1.114946975708007812e+02,9.046456909179687500e+01,-6.637892150878906250e+01,4.999735641479492188e+01,-1.503330421447753906e+01,-1.045021133422851562e+02,-1.174427032470703125e+02,6.402794647216796875e+01,-3.644031906127929688e+01
3.872250020503997803e-01,2.000000000000000000e+00,6.927873134613037109e+00,9.683003425598144531e+00,3.475877380371093750e+01,-1.114946975708007812e+02,9.046456909179687500e+01,-6.637892150878906250e+01,4.999735641479492188e+01,-1.503330421447753906e+01,-1.045021133422851562e+02,-1.174427032470703125e+02,6.402794647216796875e+01,-3.644031906127929688e+01
3.909809887409210205e-01,2.000000000000000000e+00,6.957096576690673828e+00,9.636137008666992188e+00,3.475225067138671875e+01,-1.115492706298828125e+02,9.046681213378906250e+01,-6.640313720703125000e+01,4.992462921142578125e+01,-1.502378177642822266e+01,-1.045173416137695312e+02,-1.174968490600585938e+02,6.402429962158203125e+01,-3.647009277343750000e+01
3.960379958152770996e-01,2.000000000000000000e+00,6.986004829406738281e+00,9.589066505432128906e+00,3.474552154541015625e+01,-1.116031570434570312e+02,9.046905517578125000e+01,-6.642754364013671875e+01,4.985310745239257812e+01,-1.501407718658447266e+01,-1.045327377319335938e+02,-1.175519180297851562e+02,6.402022552490234375e+01,-3.650041580200195312e+01
3.990409970283508301e-01,2.000000000000000000e+00,7.043791294097900391e+00,9.495310783386230469e+00,3.473210144042968750e+01,-1.117121353149414062e+02,9.047357940673828125e+01,-6.647691345214843750e+01,4.970720672607421875e+01,-1.499558448791503906e+01,-1.045632476806640625e+02,-1.176612777709960938e+02,6.401118469238281250e+01,-3.656314849853515625e+01
4.029799997806549072e-01,2.000000000000000000e+00,7.043791294097900391e+00,9.495310783386230469e+00,3.473210144042968750e+01,-1.117121353149414062e+02,9.047357940673828125e+01,-6.647691345214843750e+01,4.970720672607421875e+01,-1.499558448791503906e+01,-1.045632476806640625e+02,-1.176612777709960938e+02,6.401118469238281250e+01,-3.656314849853515625e+01
4.079689979553222656e-01,2.000000000000000000e+00,7.101693153381347656e+00,9.401283264160156250e+00,3.471860122680664062e+01,-1.118205947875976562e+02,9.047800445556640625e+01,-6.652601623535156250e+01,4.956081771850585938e+01,-1.497644996643066406e+01,-1.045934906005859375e+02,-1.177712173461914062e+02,6.400302886962890625e+01,-3.662356948852539062e+01
4.115220010280609131e-01,2.000000000000000000e+00,7.130486011505126953e+00,9.354507446289062500e+00,3.471209335327148438e+01,-1.118744277954101562e+02,9.048051452636718750e+01,-6.654954528808593750e+01,4.948880386352539062e+01,-1.496683692932128906e+01,-1.046089859008789062e+02,-1.178259277343750000e+02,6.399851226806640625e+01,-3.665586853027343750e+01
4.160209894180297852e-01,2.000000000000000000e+00,7.130486011505126953e+00,9.354507446289062500e+00,3.471209335327148438e+01,-1.118744277954101562e+02,9.048051452636718750e+01,-6.654954528808593750e+01,4.948880386352539062e+01,-1.496683692932128906e+01,-1.046089859008789062e+02,-1.178259277343750000e+02,6.399851226806640625e+01,-3.665586853027343750e+01
4.199460148811340332e-01,2.000000000000000000e+00,7.187842845916748047e+00,9.261158943176269531e+00,3.469908142089843750e+01,-1.119827194213867188e+02,9.048493957519531250e+01,-6.659708404541015625e+01,4.934339904785156250e+01,-1.494843482971191406e+01,-1.046397171020507812e+02,-1.179359359741210938e+02,6.398991394042968750e+01,-3.671607971191406250e+01
4.249449968338012695e-01,2.000000000000000000e+00,7.187842845916748047e+00,9.261158943176269531e+00,3.469908142089843750e+01,-1.119827194213867188e+02,9.048493957519531250e+01,-6.659708404541015625e+01,4.927017593383789062e+01,-1.493941688537597656e+01,-1.046547241210937500e+02,-1.179906616210937500e+02,6.398619461059570312e+01,-3.674628829956054688e+01
4.276930093765258789e-01,2.000000000000000000e+00,7.245629310607910156e+00,9.167675018310546875e+00,3.468580627441406250e+01,-1.120907592773437500e+02,9.048947143554687500e+01,-6.664625549316406250e+01,4.919788360595703125e+01,-1.493035316467285156e+01,-1.046702346801757812e+02,-1.180460891723632812e+02,6.398204421997070312e+01,-3.677760314941406250e+01
4.319970011711120605e-01,2.000000000000000000e+00,7.245629310607910156e+00,9.167675018310546875e+00,3.468580627441406250e+01,-1.120907592773437500e+02,9.048947143554687500e+01,-6.664625549316406250e+01,4.919788360595703125e+01,-1.493035316467285156e+01,-1.046702346801757812e+02,-1.180460891723632812e+02,6.398204421997070312e+01,-3.677760314941406250e+01
4.384819865226745605e-01,2.000000000000000000e+00,7.274422168731689453e+00,9.121011734008789062e+00,3.467923736572265625e+01,-1.121451721191406250e+02,9.049187469482421875e+01,-6.667134857177734375e+01,4.912630844116210938e+01,-1.492101478576660156e+01,-1.046857833862304688e+02,-1.181002273559570312e+02,6.397789001464843750e+01,-3.680847167968750000e+01
4.401080012321472168e-01,2.000000000000000000e+00,7.332151889801025391e+00,9.027527809143066406e+00,3.466604232788085938e+01,-1.122530441284179688e+02,9.049651336669921875e+01,-6.671956634521484375e+01,4.898095703125000000e+01,-1.490242958068847656e+01,-1.047162933349609375e+02,-1.182092361450195312e+02,6.396973037719726562e+01,-3.686977386474609375e+01
4.449650049209594727e-01,2.000000000000000000e+00,7.332151889801025391e+00,9.027527809143066406e+00,3.466604232788085938e+01,-1.122530441284179688e+02,9.049651336669921875e+01,-6.671956634521484375e+01,4.890756988525390625e+01,-1.489336585998535156e+01,-1.047316360473632812e+02,-1.182645874023437500e+02,6.396529006958007812e+01,-3.690163803100585938e+01
4.476110041141510010e-01,2.000000000000000000e+00,7.389938831329345703e+00,8.934202194213867188e+00,3.465317535400390625e+01,-1.123612899780273438e+02,9.050103759765625000e+01,-6.676690673828125000e+01,4.883533477783203125e+01,-1.488416385650634766e+01,-1.047471313476562500e+02,-1.183193130493164062e+02,6.396112823486328125e+01,-3.693228912353515625e+01
4.519509971141815186e-01,2.000000000000000000e+00,7.389938831329345703e+00,8.934202194213867188e+00,3.465317535400390625e+01,-1.123612899780273438e+02,9.050103759765625000e+01,-6.676690673828125000e+01,4.883533477783203125e+01,-1.488416385650634766e+01,-1.047471313476562500e+02,-1.183193130493164062e+02,6.396112823486328125e+01,-3.693228912353515625e+01
4.561829864978790283e-01,2.000000000000000000e+00,7.418845653533935547e+00,8.887493133544921875e+00,3.464672851562500000e+01,-1.124159698486328125e+02,9.050312042236328125e+01,-6.679124450683593750e+01,4.876353836059570312e+01,-1.487491798400878906e+01,-1.047624206542968750e+02,-1.183747482299804688e+02,6.395712661743164062e+01,-3.696216964721679688e+01
4.609529972076416016e-01,2.000000000000000000e+00,7.447351455688476562e+00,8.840672492980957031e+00,3.464020156860351562e+01,-1.124702301025390625e+02,9.050546264648437500e+01,-6.681579589843750000e+01,4.869124603271484375e+01,-1.486539649963378906e+01,-1.047779159545898438e+02,-1.184294586181640625e+02,6.395304107666015625e+01,-3.699282455444335938e+01
4.637219905853271484e-01,2.000000000000000000e+00,7.504994869232177734e+00,8.747279167175292969e+00,3.462692642211914062e+01,-1.125782012939453125e+02,9.050988769531250000e+01,-6.686537170410156250e+01,4.854474639892578125e+01,-1.484722328186035156e+01,-1.048088684082031250e+02,-1.185388870239257812e+02,6.394430160522460938e+01,-3.705423736572265625e+01
4.680440127849578857e-01,2.000000000000000000e+00,7.504994869232177734e+00,8.747279167175292969e+00,3.462692642211914062e+01,-1.125782012939453125e+02,9.050988769531250000e+01,-6.686537170410156250e+01,4.854474639892578125e+01,-1.484722328186035156e+01,-1.048088684082031250e+02,-1.185388870239257812e+02,6.394430160522460938e+01,-3.705423736572265625e+01
4.710470139980316162e-01,2.000000000000000000e+00,7.533788204193115234e+00,8.700502395629882812e+00,3.462027740478515625e+01,-1.126322479248046875e+02,9.051186370849609375e+01,-6.688957977294921875e+01,4.847251129150390625e+01,-1.483806705474853516e+01,-1.048237686157226562e+02,-1.185932464599609375e+02,6.393992996215820312e+01,-3.708389663696289062e+01
4.750080108642578125e-01,2.000000000000000000e+00,7.562667369842529297e+00,8.653500556945800781e+00,3.461348724365234375e+01,-1.126864471435546875e+02,9.051416015625000000e+01,-6.691331481933593750e+01,4.840071487426757812e+01,-1.482886695861816406e+01,-1.048388290405273438e+02,-1.186479721069335938e+02,6.393592071533203125e+01,-3.711476898193359375e+01
4.811390042304992676e-01,2.000000000000000000e+00,7.591316699981689453e+00,8.606633186340332031e+00,3.460683822631835938e+01,-1.127404937744140625e+02,9.051618194580078125e+01,-6.693692016601562500e+01,4.832831573486328125e+01,-1.481962013244628906e+01,-1.048541717529296875e+02,-1.187027587890625000e+02,6.393148040771484375e+01,-3.714531326293945312e+01
4.837540090084075928e-01,2.000000000000000000e+00,7.648673057556152344e+00,8.512878417968750000e+00,3.459380722045898438e+01,-1.128483200073242188e+02,9.052039337158203125e+01,-6.698533630371093750e+01,4.818203353881835938e+01,-1.480130863189697266e+01,-1.048850631713867188e+02,-1.188124008178710938e+02,6.392251968383789062e+01,-3.720474624633789062e+01
4.880219995975494385e-01,2.000000000000000000e+00,7.648673057556152344e+00,8.512878417968750000e+00,3.459380722045898438e+01,-1.128483200073242188e+02,9.052039337158203125e+01,-6.698533630371093750e+01,4.818203353881835938e+01,-1.480130863189697266e+01,-1.048850631713867188e+02,-1.188124008178710938e+02,6.392251968383789062e+01,-3.720474624633789062e+01
4.920040071010589600e-01,2.000000000000000000e+00,7.677436828613281250e+00,8.465920448303222656e+00,3.458719635009765625e+01,-1.129023132324218750e+02,9.052258300781250000e+01,-6.701009368896484375e+01,4.810985183715820312e+01,-1.479201602935791016e+01,-1.049001846313476562e+02,-1.188676986694335938e+02,6.391828918457031250e+01,-3.723661041259765625e+01
4.959749877452850342e-01,2.000000000000000000e+00,7.706459999084472656e+00,8.419281005859375000e+00,3.458052825927734375e+01,-1.129565124511718750e+02,9.052461242675781250e+01,-6.703491210937500000e+01,4.803833007812500000e+01,-1.478272342681884766e+01,-1.049155731201171875e+02,-1.189214782714843750e+02,6.391427993774414062e+01,-3.726726150512695312e+01
4.990540146827697754e-01,2.000000000000000000e+00,7.735424995422363281e+00,8.372255325317382812e+00,3.457389831542968750e+01,-1.130104446411132812e+02,9.052652740478515625e+01,-6.705966186523437500e+01,4.796582031250000000e+01,-1.477334117889404297e+01,-1.049310684204101562e+02,-1.189760513305664062e+02,6.391005325317382812e+01,-3.729747390747070312e+01
5.031359791755676270e-01,2.000000000000000000e+00,7.764160633087158203e+00,8.325275421142578125e+00,3.456724929809570312e+01,-1.130641250610351562e+02,9.052849578857421875e+01,-6.708380889892578125e+01,4.789248657226562500e+01,-1.476386356353759766e+01,-1.049459762573242188e+02,-1.190306243896484375e+02,6.390575790405273438e+01,-3.732735824584960938e+01
5.070739984512329102e-01,2.000000000000000000e+00,7.792895793914794922e+00,8.278296470642089844e+00,3.456054306030273438e+01,-1.131185379028320312e+02,9.053063201904296875e+01,-6.710733795166015625e+01,4.781959152221679688e+01,-1.475452518463134766e+01,-1.049613113403320312e+02,-1.190844726562500000e+02,6.390160369873046875e+01,-3.735844802856445312e+01
5.120990276336669922e-01,2.000000000000000000e+00,7.821746826171875000e+00,8.231316566467285156e+00,3.455385208129882812e+01,-1.131726303100585938e+02,9.053255462646484375e+01,-6.713107299804687500e+01,4.774790573120117188e+01,-1.474532508850097656e+01,-1.049766464233398438e+02,-1.191391296386718750e+02,6.389767074584960938e+01,-3.738887786865234375e+01
5.153800249099731445e-01,2.000000000000000000e+00,7.850567340850830078e+00,8.184631347656250000e+00,3.454744720458984375e+01,-1.132265167236328125e+02,9.053473663330078125e+01,-6.715556335449218750e+01,4.767621994018554688e+01,-1.473626136779785156e+01,-1.049918823242187500e+02,-1.191941909790039062e+02,6.389381027221679688e+01,-3.741799163818359375e+01
5.191159844398498535e-01,2.000000000000000000e+00,7.879389286041259766e+00,8.137968063354492188e+00,3.454104232788085938e+01,-1.132810287475585938e+02,9.053660583496093750e+01,-6.718024444580078125e+01,4.760387802124023438e+01,-1.472683048248291016e+01,-1.050071029663085938e+02,-1.192488327026367188e+02,6.388965988159179688e+01,-3.744853591918945312e+01
5.232440233230590820e-01,2.000000000000000000e+00,7.908182621002197266e+00,8.091147422790527344e+00,3.453467941284179688e+01,-1.133347091674804688e+02,9.053857421875000000e+01,-6.720493316650390625e+01,4.753065109252929688e+01,-1.471744728088378906e+01,-1.050224456787109375e+02,-1.193041305541992188e+02,6.388557434082031250e+01,-3.748061752319335938e+01
5.273299813270568848e-01,2.000000000000000000e+00,7.936716556549072266e+00,8.044506072998046875e+00,3.452790832519531250e+01,-1.133888626098632812e+02,9.054055023193359375e+01,-6.722995758056640625e+01,4.745781326293945312e+01,-1.470801639556884766e+01,-1.050378341674804688e+02,-1.193585510253906250e+02,6.388127899169921875e+01,-3.751302337646484375e+01
5.319120287895202637e-01,2.000000000000000000e+00,7.965394973754882812e+00,7.997549533843994141e+00,3.452126312255859375e+01,-1.134433746337890625e+02,9.054247283935546875e+01,-6.725436401367187500e+01,4.738612747192382812e+01,-1.469890689849853516e+01,-1.050532836914062500e+02,-1.194125518798828125e+02,6.387697601318359375e+01,-3.754279708862304688e+01
5.362529754638671875e-01,2.000000000000000000e+00,7.994159221649169922e+00,7.950841426849365234e+00,3.451471710205078125e+01,-1.134968414306640625e+02,9.054428100585937500e+01,-6.727783203125000000e+01,4.731438827514648438e+01,-1.468956851959228516e+01,-1.050680770874023438e+02,-1.194674987792968750e+02,6.387231826782226562e+01,-3.757257080078125000e+01
5.397109985351562500e-01,2.000000000000000000e+00,8.022952079772949219e+00,7.904314041137695312e+00,3.450806427001953125e+01,-1.135512008666992188e+02,9.054635620117187500e+01,-6.730183410644531250e+01,4.724209594726562500e+01,-1.468036842346191406e+01,-1.050831451416015625e+02,-1.195222091674804688e+02,6.386823272705078125e+01,-3.760498046875000000e+01
5.440089702606201172e-01,2.000000000000000000e+00,8.051630020141601562e+00,7.857651233673095703e+00,3.450137710571289062e+01,-1.136051406860351562e+02,9.054827880859375000e+01,-6.732598114013671875e+01,4.716893005371093750e+01,-1.467084693908691406e+01,-1.050984802246093750e+02,-1.195762710571289062e+02,6.386451721191406250e+01,-3.763607025146484375e+01
5.479779839515686035e-01,2.000000000000000000e+00,8.080308914184570312e+00,7.811078548431396484e+00,3.449470520019531250e+01,-1.136585464477539062e+02,9.055014801025390625e+01,-6.735012817382812500e+01,4.709603500366210938e+01,-1.466137218475341797e+01,-1.051137619018554688e+02,-1.196309967041015625e+02,6.386014556884765625e+01,-3.766518402099609375e+01
5.514429807662963867e-01,2.000000000000000000e+00,8.108641624450683594e+00,7.764438629150390625e+00,3.448820114135742188e+01,-1.137130661010742188e+02,9.055207061767578125e+01,-6.737467193603515625e+01,4.702385330200195312e+01,-1.465221595764160156e+01,-1.051289901733398438e+02,-1.196854858398437500e+02,6.385541152954101562e+01,-3.769441223144531250e+01
5.565230250358581543e-01,2.000000000000000000e+00,8.137492179870605469e+00,7.717594623565673828e+00,3.448171615600585938e+01,-1.137666931152343750e+02,9.055419921875000000e+01,-6.739936065673828125e+01,4.695211410522460938e+01,-1.464328861236572266e+01,-1.051444396972656250e+02,-1.197401428222656250e+02,6.385096740722656250e+01,-3.772583007812500000e+01
5.606009960174560547e-01,2.000000000000000000e+00,8.166285514831542969e+00,7.671157836914062500e+00,3.447517013549804688e+01,-1.138207855224609375e+02,9.055595397949218750e+01,-6.742438507080078125e+01,4.687965774536132812e+01,-1.463427162170410156e+01,-1.051595535278320312e+02,-1.197950744628906250e+02,6.384688949584960938e+01,-3.775736236572265625e+01
5.640619993209838867e-01,2.000000000000000000e+00,8.195077896118164062e+00,7.624585628509521484e+00,3.446858215332031250e+01,-1.138747253417968750e+02,9.055782318115234375e+01,-6.744873046875000000e+01,4.680637741088867188e+01,-1.462511539459228516e+01,-1.051747283935546875e+02,-1.198491363525390625e+02,6.384295272827148438e+01,-3.778658294677734375e+01
5.676379799842834473e-01,2.000000000000000000e+00,8.223928451538085938e+00,7.577673912048339844e+00,3.446203231811523438e+01,-1.139283523559570312e+02,9.055984497070312500e+01,-6.747219848632812500e+01,4.673331832885742188e+01,-1.461577701568603516e+01,-1.051899108886718750e+02,-1.199044342041015625e+02,6.383828735351562500e+01,-3.781712722778320312e+01
5.720469951629638672e-01,2.000000000000000000e+00,8.252434730529785156e+00,7.531101703643798828e+00,3.445548629760742188e+01,-1.139827041625976562e+02,9.056187438964843750e+01,-6.749586486816406250e+01,4.666097259521484375e+01,-1.460671329498291016e+01,-1.052054595947265625e+02,-1.199595031738281250e+02,6.383413696289062500e+01,-3.784931564331054688e+01
5.757030248641967773e-01,2.000000000000000000e+00,8.281112670898437500e+00,7.484348297119140625e+00,3.444883728027343750e+01,-1.140370635986328125e+02,9.056368255615234375e+01,-6.751979827880859375e+01,4.658928680419921875e+01,-1.459764957427978516e+01,-1.052210693359375000e+02,-1.200127105712890625e+02,6.383034515380859375e+01,-3.787942123413085938e+01
5.811619758605957031e-01,2.000000000000000000e+00,8.309877395629882812e+00,7.437639713287353516e+00,3.444223022460937500e+01,-1.140903167724609375e+02,9.056560516357421875e+01,-6.754441833496093750e+01,4.651672363281250000e+01,-1.458863162994384766e+01,-1.052360763549804688e+02,-1.200669250488281250e+02,6.382633590698242188e+01,-3.790798568725585938e+01
5.849919915199279785e-01,2.000000000000000000e+00,8.338583946228027344e+00,7.391067504882812500e+00,3.443580627441406250e+01,-1.141449966430664062e+02,9.056752777099609375e+01,-6.756903839111328125e+01,4.644366455078125000e+01,-1.457943153381347656e+01,-1.052510375976562500e+02,-1.201224288940429688e+02,6.382204055786132812e+01,-3.793742370605468750e+01
5.882530212402343750e-01,2.000000000000000000e+00,8.367290496826171875e+00,7.344382286071777344e+00,3.442943954467773438e+01,-1.141989822387695312e+02,9.056954956054687500e+01,-6.759372711181640625e+01,4.637060546875000000e+01,-1.457004737854003906e+01,-1.052667007446289062e+02,-1.201771545410156250e+02,6.381774520874023438e+01,-3.796807861328125000e+01
5.917450189590454102e-01,2.000000000000000000e+00,8.395911216735839844e+00,7.297809600830078125e+00,3.442301559448242188e+01,-1.142525024414062500e+02,9.057152557373046875e+01,-6.761840820312500000e+01,4.629886627197265625e+01,-1.456093692779541016e+01,-1.052823638916015625e+02,-1.202317962646484375e+02,6.381365966796875000e+01,-3.799861907958984375e+01
5.959830284118652344e-01,2.000000000000000000e+00,8.424675941467285156e+00,7.251010894775390625e+00,3.441636657714843750e+01,-1.143069152832031250e+02,9.057333374023437500e+01,-6.764228057861328125e+01,4.622734451293945312e+01,-1.455191993713378906e+01,-1.052976455688476562e+02,-1.202863693237304688e+02,6.380943298339843750e+01,-3.802839279174804688e+01
5.999360084533691406e-01,2.000000000000000000e+00,8.453268051147460938e+00,7.204189777374267578e+00,3.440975952148437500e+01,-1.143608016967773438e+02,9.057530975341796875e+01,-6.766561126708984375e+01,4.615522003173828125e+01,-1.454294776916503906e+01,-1.053128814697265625e+02,-1.203404998779296875e+02,6.380527877807617188e+01,-3.805981445312500000e+01
6.040120124816894531e-01,2.000000000000000000e+00,8.481973648071289062e+00,7.157481670379638672e+00,3.440321350097656250e+01,-1.144150009155273438e+02,9.057728576660156250e+01,-6.768914031982421875e+01,4.608210372924804688e+01,-1.453402137756347656e+01,-1.053277740478515625e+02,-1.203955841064453125e+02,6.380112457275390625e+01,-3.809145736694335938e+01
6.089850068092346191e-01,2.000000000000000000e+00,8.510882377624511719e+00,7.110750675201416016e+00,3.439652633666992188e+01,-1.144687805175781250e+02,9.057909393310546875e+01,-6.771335601806640625e+01,4.600915527343750000e+01,-1.452486515045166016e+01,-1.053432769775390625e+02,-1.204502258300781250e+02,6.379704666137695312e+01,-3.812144851684570312e+01
6.120579838752746582e-01,2.000000000000000000e+00,8.539416313171386719e+00,7.064110279083251953e+00,3.438975524902343750e+01,-1.145220870971679688e+02,9.058128356933593750e+01,-6.773777008056640625e+01,4.593746948242187500e+01,-1.451566505432128906e+01,-1.053588333129882812e+02,-1.205043716430664062e+02,6.379319000244140625e+01,-3.815111160278320312e+01
6.159629821777343750e-01,2.000000000000000000e+00,8.567922592163085938e+00,7.017356872558593750e+00,3.438312530517578125e+01,-1.145763397216796875e+02,9.058330535888671875e+01,-6.776231384277343750e+01,4.586578750610351562e+01,-1.450655555725097656e+01,-1.053741149902343750e+02,-1.205590820312500000e+02,6.378888702392578125e+01,-3.818297195434570312e+01
6.200159788131713867e-01,2.000000000000000000e+00,8.596657752990722656e+00,6.970649242401123047e+00,3.437664031982421875e+01,-1.146303863525390625e+02,9.058512115478515625e+01,-6.778720092773437500e+01,4.579354858398437500e+01,-1.449767398834228516e+01,-1.053893432617187500e+02,-1.206140899658203125e+02,6.378422164916992188e+01,-3.821494293212890625e+01
6.241480112075805664e-01,2.000000000000000000e+00,8.625422477722167969e+00,6.924008846282958984e+00,3.437011337280273438e+01,-1.146844253540039062e+02,9.058708953857421875e+01,-6.781155395507812500e+01,4.572060012817382812e+01,-1.448861026763916016e+01,-1.054046249389648438e+02,-1.206690216064453125e+02,6.378022003173828125e+01,-3.824427413940429688e+01
6.280859708786010742e-01,2.000000000000000000e+00,8.654244422912597656e+00,6.877277851104736328e+00,3.436352539062500000e+01,-1.147381057739257812e+02,9.058901214599609375e+01,-6.783528900146484375e+01,4.564825439453125000e+01,-1.447918128967285156e+01,-1.054198608398437500e+02,-1.207238159179687500e+02,6.377591705322265625e+01,-3.827383041381835938e+01
6.368119716644287109e-01,2.000000000000000000e+00,8.683036804199218750e+00,6.830501556396484375e+00,3.435683822631835938e+01,-1.147915191650390625e+02,9.059125518798828125e+01,-6.785868072509765625e+01,4.557678985595703125e+01,-1.446942996978759766e+01,-1.054350814819335938e+02,-1.207785263061523438e+02,6.377154541015625000e+01,-3.830546951293945312e+01
6.382939815521240234e-01,2.000000000000000000e+00,8.740306854248046875e+00,6.737108230590820312e+00,3.434368515014648438e+01,-1.149000244140625000e+02,9.059541320800781250e+01,-6.790710449218750000e+01,4.543308639526367188e+01,-1.445098304748535156e+01,-1.054649963378906250e+02,-1.208876724243164062e+02,6.376338958740234375e+01,-3.836589431762695312e+01
6.408050060272216797e-01,2.000000000000000000e+00,8.768956184387207031e+00,6.690649032592773438e+00,3.433701324462890625e+01,-1.149539184570312500e+02,9.059738922119140625e+01,-6.793144989013671875e+01,4.536024856567382812e+01,-1.444182682037353516e+01,-1.054797973632812500e+02,-1.209414520263671875e+02,6.375930404663085938e+01,-3.839500808715820312e+01
6.442890167236328125e-01,2.000000000000000000e+00,8.768956184387207031e+00,6.690649032592773438e+00,3.433701324462890625e+01,-1.149539184570312500e+02,9.059738922119140625e+01,-6.793144989013671875e+01,4.536024856567382812e+01,-1.444182682037353516e+01,-1.054797973632812500e+02,-1.209414520263671875e+02,6.375930404663085938e+01,-3.839500808715820312e+01
6.483229994773864746e-01,2.000000000000000000e+00,8.797692298889160156e+00,6.644008636474609375e+00,3.433044815063476562e+01,-1.150082168579101562e+02,9.059934997558593750e+01,-6.795587158203125000e+01,4.528751754760742188e+01,-1.443253517150878906e+01,-1.054948577880859375e+02,-1.209958877563476562e+02,6.375471496582031250e+01,-3.842686843872070312e+01
6.540849804878234863e-01,2.000000000000000000e+00,8.855076789855957031e+00,6.550954341888427734e+00,3.431776046752929688e+01,-1.151155166625976562e+02,9.060362243652343750e+01,-6.800449371337890625e+01,4.514414596557617188e+01,-1.441390419006347656e+01,-1.055255279541015625e+02,-1.211057434082031250e+02,6.374648284912109375e+01,-3.848894119262695312e+01
6.575400233268737793e-01,2.000000000000000000e+00,8.883697509765625000e+00,6.504200935363769531e+00,3.431129455566406250e+01,-1.151696701049804688e+02,9.060548400878906250e+01,-6.802822875976562500e+01,4.507158279418945312e+01,-1.440470314025878906e+01,-1.055405960083007812e+02,-1.211604690551757812e+02,6.374240112304687500e+01,-3.851860427856445312e+01
6.619439721107482910e-01,2.000000000000000000e+00,8.883697509765625000e+00,6.504200935363769531e+00,3.431129455566406250e+01,-1.151696701049804688e+02,9.060548400878906250e+01,-6.802822875976562500e+01,4.507158279418945312e+01,-1.440470314025878906e+01,-1.055405960083007812e+02,-1.211604690551757812e+02,6.374240112304687500e+01,-3.851860427856445312e+01
6.649190187454223633e-01,2.000000000000000000e+00,8.940909385681152344e+00,6.411124229431152344e+00,3.429814147949218750e+01,-1.152777481079101562e+02,9.060970306396484375e+01,-6.807583618164062500e+01,4.492563247680664062e+01,-1.438616275787353516e+01,-1.055708847045898438e+02,-1.212694625854492188e+02,6.373416900634765625e+01,-3.858067703247070312e+01
6.683930158615112305e-01,2.000000000000000000e+00,8.940909385681152344e+00,6.411124229431152344e+00,3.429814147949218750e+01,-1.152777481079101562e+02,9.060970306396484375e+01,-6.807583618164062500e+01,4.492563247680664062e+01,-1.438616275787353516e+01,-1.055708847045898438e+02,-1.212694625854492188e+02,6.373416900634765625e+01,-3.858067703247070312e+01
6.709079742431640625e-01,2.000000000000000000e+00,8.969616889953613281e+00,6.364551544189453125e+00,3.429161453247070312e+01,-1.153311614990234375e+02,9.061204528808593750e+01,-6.810004425048828125e+01,4.485388946533203125e+01,-1.437664127349853516e+01,-1.055861740112304688e+02,-1.213237533569335938e+02,6.373045349121093750e+01,-3.861034011840820312e+01
6.749060153961181641e-01,2.000000000000000000e+00,8.998266220092773438e+00,6.318069934844970703e+00,3.428496551513671875e+01,-1.153845748901367188e+02,9.061412811279296875e+01,-6.812445831298828125e+01,4.478236770629882812e+01,-1.436702823638916016e+01,-1.056012420654296875e+02,-1.213786773681640625e+02,6.372644424438476562e+01,-3.863956069946289062e+01
6.789879798889160156e-01,2.000000000000000000e+00,9.026944160461425781e+00,6.271543025970458984e+00,3.427819442749023438e+01,-1.154388351440429688e+02,9.061614990234375000e+01,-6.814927673339843750e+01,4.470991516113281250e+01,-1.435782814025878906e+01,-1.056163024902343750e+02,-1.214326095581054688e+02,6.372221755981445312e+01,-3.867043304443359375e+01
6.829109787940979004e-01,2.000000000000000000e+00,9.055421829223632812e+00,6.224699020385742188e+00,3.427170562744140625e+01,-1.154925003051757812e+02,9.061844635009765625e+01,-6.817403411865234375e+01,4.463657760620117188e+01,-1.434894657135009766e+01,-1.056315307617187500e+02,-1.214873199462890625e+02,6.371799468994140625e+01,-3.870185852050781250e+01
6.884949803352355957e-01,2.000000000000000000e+00,9.084215164184570312e+00,6.178194522857666016e+00,3.426522064208984375e+01,-1.155461730957031250e+02,9.062078857421875000e+01,-6.819783782958984375e+01,4.456351852416992188e+01,-1.433979320526123047e+01,-1.056468658447265625e+02,-1.215422592163085938e+02,6.371376800537109375e+01,-3.873173904418945312e+01
6.926140189170837402e-01,2.000000000000000000e+00,9.112892150878906250e+00,6.131485939025878906e+00,3.425883865356445312e+01,-1.156004333496093750e+02,9.062275695800781250e+01,-6.822123718261718750e+01,4.449210739135742188e+01,-1.433059120178222656e+01,-1.056619873046875000e+02,-1.215966873168945312e+02,6.370989990234375000e+01,-3.876173019409179688e+01
6.965960264205932617e-01,2.000000000000000000e+00,9.141656875610351562e+00,6.084778308868408203e+00,3.425225067138671875e+01,-1.156534805297851562e+02,9.062490081787109375e+01,-6.824504089355468750e+01,4.442058563232421875e+01,-1.432143592834472656e+01,-1.056775512695312500e+02,-1.216517639160156250e+02,6.370560455322265625e+01,-3.879238510131835938e+01
7.004489898681640625e-01,2.000000000000000000e+00,9.170191764831542969e+00,6.038183212280273438e+00,3.424562454223632812e+01,-1.157076263427734375e+02,9.062712860107421875e+01,-6.826918029785156250e+01,4.434802246093750000e+01,-1.431237220764160156e+01,-1.056930465698242188e+02,-1.217058334350585938e+02,6.370109176635742188e+01,-3.882303619384765625e+01
7.057229876518249512e-01,2.000000000000000000e+00,9.199013710021972656e+00,5.991610527038574219e+00,3.423907470703125000e+01,-1.157616119384765625e+02,9.062942504882812500e+01,-6.829359436035156250e+01,4.427490997314453125e+01,-1.430326271057128906e+01,-1.057080612182617188e+02,-1.217601852416992188e+02,6.369693756103515625e+01,-3.885203933715820312e+01
7.089580297470092773e-01,2.000000000000000000e+00,9.227519035339355469e+00,5.944970607757568359e+00,3.423244857788085938e+01,-1.158151855468750000e+02,9.063150024414062500e+01,-6.831841278076171875e+01,4.420250701904296875e+01,-1.429410743713378906e+01,-1.057230682373046875e+02,-1.218146209716796875e+02,6.369278335571289062e+01,-3.888225173950195312e+01
7.128120064735412598e-01,2.000000000000000000e+00,9.256254196166992188e+00,5.898353099822998047e+00,3.422579956054687500e+01,-1.158695449829101562e+02,9.063385009765625000e+01,-6.834310150146484375e+01,4.405957794189453125e+01,-1.427561378479003906e+01,-1.057538452148437500e+02,-1.219229736328125000e+02,6.368345642089843750e+01,-3.894344329833984375e+01
7.168769836425781250e-01,2.000000000000000000e+00,9.284903526306152344e+00,5.851712703704833984e+00,3.421924972534179688e+01,-1.159234313964843750e+02,9.063619232177734375e+01,-6.836704254150390625e+01,4.405957794189453125e+01,-1.427561378479003906e+01,-1.057538452148437500e+02,-1.219229736328125000e+02,6.368345642089843750e+01,-3.894344329833984375e+01
7.209619879722595215e-01,2.000000000000000000e+00,9.313265800476074219e+00,5.805207729339599609e+00,3.421284866333007812e+01,-1.159769439697265625e+02,9.063833618164062500e+01,-6.839070892333984375e+01,4.398728561401367188e+01,-1.426622867584228516e+01,-1.057691879272460938e+02,-1.219779052734375000e+02,6.367966461181640625e+01,-3.897321701049804688e+01
7.247030138969421387e-01,2.000000000000000000e+00,9.341829299926757812e+00,5.758590698242187500e+00,3.420652389526367188e+01,-1.160308837890625000e+02,9.064051818847656250e+01,-6.841450500488281250e+01,4.391434097290039062e+01,-1.425712013244628906e+01,-1.057843627929687500e+02,-1.220325469970703125e+02,6.367558670043945312e+01,-3.900321197509765625e+01
7.299749851226806641e-01,2.000000000000000000e+00,9.370565414428710938e+00,5.711950302124023438e+00,3.420005798339843750e+01,-1.160845565795898438e+02,9.064276123046875000e+01,-6.843878936767578125e+01,4.384221267700195312e+01,-1.424805641174316406e+01,-1.057996978759765625e+02,-1.220868988037109375e+02,6.367136001586914062e+01,-3.903583908081054688e+01
7.333679795265197754e-01,2.000000000000000000e+00,9.399300575256347656e+00,5.665309906005859375e+00,3.419338989257812500e+01,-1.161384887695312500e+02,9.064488983154296875e+01,-6.846266174316406250e+01,4.377096557617187500e+01,-1.423899173736572266e+01,-1.058151473999023438e+02,-1.221421966552734375e+02,6.366706085205078125e+01,-3.906671142578125000e+01
7.372980117797851562e-01,2.000000000000000000e+00,9.428179740905761719e+00,5.618850708007812500e+00,3.418682098388671875e+01,-1.161922683715820312e+02,9.064707183837890625e+01,-6.848714447021484375e+01,4.369950103759765625e+01,-1.422997474670410156e+01,-1.058301544189453125e+02,-1.221961975097656250e+02,6.366291046142578125e+01,-3.909725189208984375e+01
7.389199733734130859e-01,2.000000000000000000e+00,9.456857681274414062e+00,5.572300910949707031e+00,3.418021392822265625e+01,-1.162456436157226562e+02,9.064931488037109375e+01,-6.851210021972656250e+01,4.362726593017578125e+01,-1.422077369689941406e+01,-1.058451690673828125e+02,-1.222504043579101562e+02,6.365882492065429688e+01,-3.912768554687500000e+01
7.429710030555725098e-01,2.000000000000000000e+00,9.485363960266113281e+00,5.525660514831542969e+00,3.417362594604492188e+01,-1.162995147705078125e+02,9.065144348144531250e+01,-6.853678131103515625e+01,4.355464553833007812e+01,-1.421152687072753906e+01,-1.058603973388671875e+02,-1.223054122924804688e+02,6.365504074096679688e+01,-3.915844726562500000e+01
7.469509840011596680e-01,2.000000000000000000e+00,9.514013290405273438e+00,5.479088306427001953e+00,3.416689682006835938e+01,-1.163531875610351562e+02,9.065363311767578125e+01,-6.856099700927734375e+01,4.348208236694335938e+01,-1.420246219635009766e+01,-1.058756256103515625e+02,-1.223594818115234375e+02,6.365089035034179688e+01,-3.918833160400390625e+01
7.509030103683471680e-01,2.000000000000000000e+00,9.542662620544433594e+00,5.432629108428955078e+00,3.416030883789062500e+01,-1.164070816040039062e+02,9.065566253662109375e+01,-6.858405303955078125e+01,4.341039657592773438e+01,-1.419335365295410156e+01,-1.058907470703125000e+02,-1.224138336181640625e+02,6.364673614501953125e+01,-3.921777343750000000e+01
7.549170255661010742e-01,2.000000000000000000e+00,9.571455001831054688e+00,5.386079311370849609e+00,3.415386581420898438e+01,-1.164608078002929688e+02,9.065757751464843750e+01,-6.860792541503906250e+01,4.333909606933593750e+01,-1.418410587310791016e+01,-1.059058151245117188e+02,-1.224685592651367188e+02,6.364236450195312500e+01,-3.924831771850585938e+01
7.589079737663269043e-01,2.000000000000000000e+00,9.600219726562500000e+00,5.339461803436279297e+00,3.414749908447265625e+01,-1.165142211914062500e+02,9.065991973876953125e+01,-6.863200378417968750e+01,4.326675033569335938e+01,-1.417481422424316406e+01,-1.059209289550781250e+02,-1.225225601196289062e+02,6.363842391967773438e+01,-3.927951812744140625e+01
7.629100084304809570e-01,2.000000000000000000e+00,9.628869056701660156e+00,5.292844295501708984e+00,3.414089202880859375e+01,-1.165682601928710938e+02,9.066168212890625000e+01,-6.865607452392578125e+01,4.319369125366210938e+01,-1.416538429260253906e+01,-1.059360504150390625e+02,-1.225772705078125000e+02,6.363470840454101562e+01,-3.930994796752929688e+01
7.669010162353515625e-01,2.000000000000000000e+00,9.657432556152343750e+00,5.246339797973632812e+00,3.413430404663085938e+01,-1.166220397949218750e+02,9.066391754150390625e+01,-6.868035125732421875e+01,4.312090301513671875e+01,-1.415604496002197266e+01,-1.059510116577148438e+02,-1.226317749023437500e+02,6.363041305541992188e+01,-3.933917236328125000e+01
7.709829807281494141e-01,2.000000000000000000e+00,9.685909271240234375e+00,5.199948310852050781e+00,3.412773895263671875e+01,-1.166755599975585938e+02,9.066610717773437500e+01,-6.870524597167968750e+01,4.304938507080078125e+01,-1.414689064025878906e+01,-1.059661788940429688e+02,-1.226857681274414062e+02,6.362552642822265625e+01,-3.936949539184570312e+01
7.750110030174255371e-01,2.000000000000000000e+00,9.714558601379394531e+00,5.153421401977539062e+00,3.412118911743164062e+01,-1.167300262451171875e+02,9.066797637939453125e+01,-6.872992706298828125e+01,4.297780990600585938e+01,-1.413778018951416016e+01,-1.059814682006835938e+02,-1.227403411865234375e+02,6.362130737304687500e+01,-3.940025711059570312e+01
7.789149880409240723e-01,2.000000000000000000e+00,9.743093490600585938e+00,5.106961727142333984e+00,3.411464309692382812e+01,-1.167834930419921875e+02,9.067015838623046875e+01,-6.875359344482421875e+01,4.290540695190429688e+01,-1.412839698791503906e+01,-1.059964752197265625e+02,-1.227947006225585938e+02,6.361722183227539062e+01,-3.943024826049804688e+01
7.872689962387084961e-01,2.000000000000000000e+00,9.771800041198730469e+00,5.060570240020751953e+00,3.410809707641601562e+01,-1.168371658325195312e+02,9.067208099365234375e+01,-6.877671813964843750e+01,4.283240509033203125e+01,-1.411914920806884766e+01,-1.060116500854492188e+02,-1.228482589721679688e+02,6.361292648315429688e+01,-3.945980453491210938e+01
7.899690270423889160e-01,2.000000000000000000e+00,9.828927040100097656e+00,4.967358112335205078e+00,3.409536743164062500e+01,-1.169447784423828125e+02,9.067601776123046875e+01,-6.882446289062500000e+01,4.268820953369140625e+01,-1.410061073303222656e+01,-1.060427017211914062e+02,-1.229575576782226562e+02,6.360403442382812500e+01,-3.952143478393554688e+01
7.919120192527770996e-01,2.000000000000000000e+00,9.828927040100097656e+00,4.967358112335205078e+00,3.409536743164062500e+01,-1.169447784423828125e+02,9.067601776123046875e+01,-6.882446289062500000e+01,4.268820953369140625e+01,-1.410061073303222656e+01,-1.060427017211914062e+02,-1.229575576782226562e+02,6.360403442382812500e+01,-3.952143478393554688e+01
7.949159741401672363e-01,2.000000000000000000e+00,9.857518196105957031e+00,4.921011924743652344e+00,3.408900833129882812e+01,-1.169988174438476562e+02,9.067810821533203125e+01,-6.884874725341796875e+01,4.261679840087890625e+01,-1.409136390686035156e+01,-1.060576629638671875e+02,-1.230118331909179688e+02,6.359981155395507812e+01,-3.955131912231445312e+01
7.999340295791625977e-01,2.000000000000000000e+00,9.857518196105957031e+00,4.921011924743652344e+00,3.408900833129882812e+01,-1.169988174438476562e+02,9.067810821533203125e+01,-6.884874725341796875e+01,4.254472732543945312e+01,-1.408211708068847656e+01,-1.060724029541015625e+02,-1.230664062500000000e+02,6.359594726562500000e+01,-3.958108901977539062e+01
8.035339713096618652e-01,2.000000000000000000e+00,9.915019035339355469e+00,4.828002929687500000e+00,3.407585144042968750e+01,-1.171055374145507812e+02,9.068177795410156250e+01,-6.889804840087890625e+01,4.247183609008789062e+01,-1.407273197174072266e+01,-1.060873565673828125e+02,-1.231207733154296875e+02,6.359150695800781250e+01,-3.961086273193359375e+01
8.079649806022644043e-01,2.000000000000000000e+00,9.943381309509277344e+00,4.781520843505859375e+00,3.406924438476562500e+01,-1.171599044799804688e+02,9.068386077880859375e+01,-6.892205047607421875e+01,4.239932250976562500e+01,-1.406339359283447266e+01,-1.061029663085937500e+02,-1.231751251220703125e+02,6.358720397949218750e+01,-3.964140701293945312e+01
8.121309876441955566e-01,2.000000000000000000e+00,9.971829414367675781e+00,4.734858036041259766e+00,3.406263351440429688e+01,-1.172134094238281250e+02,9.068583679199218750e+01,-6.894564819335937500e+01,4.232769393920898438e+01,-1.405410099029541016e+01,-1.061184616088867188e+02,-1.232294845581054688e+02,6.358327102661132812e+01,-3.967282485961914062e+01
8.149979710578918457e-01,2.000000000000000000e+00,1.000045013427734375e+01,4.688376426696777344e+00,3.405590820312500000e+01,-1.172669830322265625e+02,9.068791198730468750e+01,-6.896958923339843750e+01,4.225627899169921875e+01,-1.404503726959228516e+01,-1.061335296630859375e+02,-1.232834167480468750e+02,6.357947921752929688e+01,-3.970347976684570312e+01
8.199809789657592773e-01,2.000000000000000000e+00,1.000045013427734375e+01,4.688376426696777344e+00,3.405590820312500000e+01,-1.172669830322265625e+02,9.068791198730468750e+01,-6.896958923339843750e+01,4.225627899169921875e+01,-1.404503726959228516e+01,-1.061335296630859375e+02,-1.232834167480468750e+02,6.357947921752929688e+01,-3.970347976684570312e+01
8.229060173034667969e-01,2.000000000000000000e+00,1.005789279937744141e+01,4.595321655273437500e+00,3.404293441772460938e+01,-1.173743286132812500e+02,9.069169616699218750e+01,-6.901740264892578125e+01,4.211131668090820312e+01,-1.402709388732910156e+01,-1.061641006469726562e+02,-1.233919067382812500e+02,6.357110595703125000e+01,-3.976500320434570312e+01
8.279600143432617188e-01,2.000000000000000000e+00,1.005789279937744141e+01,4.595321655273437500e+00,3.404293441772460938e+01,-1.173743286132812500e+02,9.069169616699218750e+01,-6.901740264892578125e+01,4.211131668090820312e+01,-1.402709388732910156e+01,-1.061641006469726562e+02,-1.233919067382812500e+02,6.357110595703125000e+01,-3.976500320434570312e+01
8.319150209426879883e-01,2.000000000000000000e+00,1.011487483978271484e+01,4.502290248870849609e+00,3.402994155883789062e+01,-1.174824218750000000e+02,9.069543457031250000e+01,-6.906677246093750000e+01,4.196799850463867188e+01,-1.400882911682128906e+01,-1.061950988769531250e+02,-1.235009155273437500e+02,6.356228637695312500e+01,-3.982444000244140625e+01
8.349019885063171387e-01,2.000000000000000000e+00,1.014317989349365234e+01,4.455695152282714844e+00,3.402333450317382812e+01,-1.175356140136718750e+02,9.069745635986328125e+01,-6.909132385253906250e+01,4.189669799804687500e+01,-1.399967288970947266e+01,-1.062100601196289062e+02,-1.235557708740234375e+02,6.355791473388671875e+01,-3.985498046875000000e+01
8.389040231704711914e-01,2.000000000000000000e+00,1.017174339294433594e+01,4.409191131591796875e+00,3.401670455932617188e+01,-1.175898742675781250e+02,9.069937133789062500e+01,-6.911485290527343750e+01,4.182463073730468750e+01,-1.399079322814941406e+01,-1.062253341674804688e+02,-1.236094055175781250e+02,6.355398178100585938e+01,-3.988552093505859375e+01
8.440060019493103027e-01,2.000000000000000000e+00,1.017174339294433594e+01,4.409191131591796875e+00,3.401670455932617188e+01,-1.175898742675781250e+02,9.069937133789062500e+01,-6.911485290527343750e+01,4.182463073730468750e+01,-1.399079322814941406e+01,-1.062253341674804688e+02,-1.236094055175781250e+02,6.355398178100585938e+01,-3.988552093505859375e+01
8.469859957695007324e-01,2.000000000000000000e+00,1.022909927368164062e+01,4.316317558288574219e+00,3.400349044799804688e+01,-1.176972198486328125e+02,9.070316314697265625e+01,-6.916211700439453125e+01,4.167966079711914062e+01,-1.397225379943847656e+01,-1.062556381225585938e+02,-1.237183303833007812e+02,6.354516601562500000e+01,-3.994594955444335938e+01
8.520010113716125488e-01,2.000000000000000000e+00,1.022909927368164062e+01,4.316317558288574219e+00,3.400349044799804688e+01,-1.176972198486328125e+02,9.070316314697265625e+01,-6.916211700439453125e+01,4.167966079711914062e+01,-1.397225379943847656e+01,-1.062556381225585938e+02,-1.237183303833007812e+02,6.354516601562500000e+01,-3.994594955444335938e+01
8.549119830131530762e-01,2.000000000000000000e+00,1.028605365753173828e+01,4.223286151885986328e+00,3.399060058593750000e+01,-1.178048934936523438e+02,9.070694732666015625e+01,-6.921061706542968750e+01,4.153673171997070312e+01,-1.395403480529785156e+01,-1.062866287231445312e+02,-1.238257598876953125e+02,6.353634643554687500e+01,-4.000681304931640625e+01
8.590809702873229980e-01,2.000000000000000000e+00,1.028605365753173828e+01,4.223286151885986328e+00,3.399060058593750000e+01,-1.178048934936523438e+02,9.070694732666015625e+01,-6.921061706542968750e+01,4.153673171997070312e+01,-1.395403480529785156e+01,-1.062866287231445312e+02,-1.238257598876953125e+02,6.353634643554687500e+01,-4.000681304931640625e+01
8.632190227508544922e-01,2.000000000000000000e+00,1.031464576721191406e+01,4.176713466644287109e+00,3.398421859741210938e+01,-1.178587265014648438e+02,9.070892333984375000e+01,-6.923481750488281250e+01,4.146438980102539062e+01,-1.394529151916503906e+01,-1.063017501831054688e+02,-1.238804016113281250e+02,6.353168106079101562e+01,-4.003702545166015625e+01
8.669829964637756348e-01,2.000000000000000000e+00,1.034323787689208984e+01,4.130254745483398438e+00,3.397780990600585938e+01,-1.179124526977539062e+02,9.071089935302734375e+01,-6.925978088378906250e+01,4.139133071899414062e+01,-1.393636512756347656e+01,-1.063166046142578125e+02,-1.239346160888671875e+02,6.352774810791015625e+01,-4.006591796875000000e+01
8.719750046730041504e-01,2.000000000000000000e+00,1.040082454681396484e+01,4.037222862243652344e+00,3.396463394165039062e+01,-1.180195388793945312e+02,9.071456909179687500e+01,-6.930860900878906250e+01,4.124762725830078125e+01,-1.391796302795410156e+01,-1.063470611572265625e+02,-1.240441207885742188e+02,6.351908111572265625e+01,-4.012733078002929688e+01
8.749859929084777832e-01,2.000000000000000000e+00,1.042918586730957031e+01,3.990854501724243164e+00,3.395804977416992188e+01,-1.180732650756835938e+02,9.071654510498046875e+01,-6.933187103271484375e+01,4.117632675170898438e+01,-1.390867042541503906e+01,-1.063622894287109375e+02,-1.240979843139648438e+02,6.351492691040039062e+01,-4.015798568725585938e+01
8.800039887428283691e-01,2.000000000000000000e+00,1.042918586730957031e+01,3.990854501724243164e+00,3.395804977416992188e+01,-1.180732650756835938e+02,9.071654510498046875e+01,-6.933187103271484375e+01,4.117632675170898438e+01,-1.390867042541503906e+01,-1.063622894287109375e+02,-1.240979843139648438e+02,6.351492691040039062e+01,-4.015798568725585938e+01
8.835330009460449219e-01,2.000000000000000000e+00,1.048622608184814453e+01,3.897732019424438477e+00,3.394485473632812500e+01,-1.181806182861328125e+02,9.072070312500000000e+01,-6.937975311279296875e+01,4.103086471557617188e+01,-1.389063453674316406e+01,-1.063928527832031250e+02,-1.242072677612304688e+02,6.350705718994140625e+01,-4.021719741821289062e+01
8.881250023841857910e-01,2.000000000000000000e+00,1.048622608184814453e+01,3.897732019424438477e+00,3.394485473632812500e+01,-1.181806182861328125e+02,9.072070312500000000e+01,-6.937975311279296875e+01,4.103086471557617188e+01,-1.389063453674316406e+01,-1.063928527832031250e+02,-1.242072677612304688e+02,6.350705718994140625e+01,-4.021719741821289062e+01
8.909379839897155762e-01,2.000000000000000000e+00,1.054346752166748047e+01,3.804610013961791992e+00,3.393192291259765625e+01,-1.182878112792968750e+02,9.072443389892578125e+01,-6.942919158935546875e+01,4.088711166381835938e+01,-1.387200355529785156e+01,-1.064233627319335938e+02,-1.243151168823242188e+02,6.349860382080078125e+01,-4.028026199340820312e+01
8.959479928016662598e-01,2.000000000000000000e+00,1.054346752166748047e+01,3.804610013961791992e+00,3.393192291259765625e+01,-1.182878112792968750e+02,9.072443389892578125e+01,-6.942919158935546875e+01,4.088711166381835938e+01,-1.387200355529785156e+01,-1.064233627319335938e+02,-1.243151168823242188e+02,6.349860382080078125e+01,-4.028026199340820312e+01
8.988999724388122559e-01,2.000000000000000000e+00,1.060045146942138672e+01,3.711963176727294922e+00,3.391897201538085938e+01,-1.183954696655273438e+02,9.072827148437500000e+01,-6.947828674316406250e+01,4.074341201782226562e+01,-1.385337257385253906e+01,-1.064537124633789062e+02,-1.244241943359375000e+02,6.349073410034179688e+01,-4.033914947509765625e+01
9.040369987487792969e-01,2.000000000000000000e+00,1.060045146942138672e+01,3.711963176727294922e+00,3.391897201538085938e+01,-1.183954696655273438e+02,9.072827148437500000e+01,-6.947828674316406250e+01,4.074341201782226562e+01,-1.385337257385253906e+01,-1.064537124633789062e+02,-1.244241943359375000e+02,6.349073410034179688e+01,-4.033914947509765625e+01
9.075989723205566406e-01,2.000000000000000000e+00,1.065729045867919922e+01,3.618999242782592773e+00,3.390585708618164062e+01,-1.185029754638671875e+02,9.073227691650390625e+01,-6.952528381347656250e+01,4.059833526611328125e+01,-1.383506107330322266e+01,-1.064834060668945312e+02,-1.245325469970703125e+02,6.348199081420898438e+01,-4.040155029296875000e+01
9.142869710922241211e-01,2.000000000000000000e+00,1.065729045867919922e+01,3.618999242782592773e+00,3.390585708618164062e+01,-1.185029754638671875e+02,9.073227691650390625e+01,-6.952528381347656250e+01,4.059833526611328125e+01,-1.383506107330322266e+01,-1.064834060668945312e+02,-1.245325469970703125e+02,6.348199081420898438e+01,-4.040155029296875000e+01
9.157209992408752441e-01,2.000000000000000000e+00,1.071441745758056641e+01,3.526148796081542969e+00,3.389262008666992188e+01,-1.186104812622070312e+02,9.073611450195312500e+01,-6.957357025146484375e+01,4.045595169067382812e+01,-1.381693458557128906e+01,-1.065138092041015625e+02,-1.246417617797851562e+02,6.347412490844726562e+01,-4.046131896972656250e+01
9.199659824371337891e-01,2.000000000000000000e+00,1.071441745758056641e+01,3.526148796081542969e+00,3.389262008666992188e+01,-1.186104812622070312e+02,9.073611450195312500e+01,-6.957357025146484375e+01,4.045595169067382812e+01,-1.381693458557128906e+01,-1.065138092041015625e+02,-1.246417617797851562e+02,6.347412490844726562e+01,-4.046131896972656250e+01
9.239199757575988770e-01,2.000000000000000000e+00,1.077131462097167969e+01,3.433366298675537109e+00,3.387977218627929688e+01,-1.187178955078125000e+02,9.074016571044921875e+01,-6.962273406982421875e+01,4.031115341186523438e+01,-1.379871559143066406e+01,-1.065447006225585938e+02,-1.247486114501953125e+02,6.346523666381835938e+01,-4.052470779418945312e+01
9.289230108261108398e-01,2.000000000000000000e+00,1.077131462097167969e+01,3.433366298675537109e+00,3.387977218627929688e+01,-1.187178955078125000e+02,9.074016571044921875e+01,-6.962273406982421875e+01,4.023930358886718750e+01,-1.378955936431884766e+01,-1.065598831176757812e+02,-1.248034057617187500e+02,6.346129608154296875e+01,-4.055426025390625000e+01
9.324939846992492676e-01,2.000000000000000000e+00,1.082849884033203125e+01,3.340583562850952148e+00,3.386698532104492188e+01,-1.188245010375976562e+02,9.074421691894531250e+01,-6.967156219482421875e+01,4.016810989379882812e+01,-1.378045082092285156e+01,-1.065750503540039062e+02,-1.248579788208007812e+02,6.345707702636718750e+01,-4.058403396606445312e+01
9.359269738197326660e-01,2.000000000000000000e+00,1.085697555541992188e+01,3.294327974319458008e+00,3.386033630371093750e+01,-1.188784484863281250e+02,9.074634552001953125e+01,-6.969489288330078125e+01,4.009680938720703125e+01,-1.377111244201660156e+01,-1.065901718139648438e+02,-1.249122619628906250e+02,6.345241165161132812e+01,-4.061545562744140625e+01
9.398149847984313965e-01,2.000000000000000000e+00,1.088533782958984375e+01,3.247710466384887695e+00,3.385380935668945312e+01,-1.189320602416992188e+02,9.074837493896484375e+01,-6.971869659423828125e+01,4.002462768554687500e+01,-1.376177310943603516e+01,-1.066051864624023438e+02,-1.249668350219726562e+02,6.344818115234375000e+01,-4.064555740356445312e+01
9.439449906349182129e-01,2.000000000000000000e+00,1.088533782958984375e+01,3.247710466384887695e+00,3.385380935668945312e+01,-1.189320602416992188e+02,9.074837493896484375e+01,-6.971869659423828125e+01,4.002462768554687500e+01,-1.376177310943603516e+01,-1.066051864624023438e+02,-1.249668350219726562e+02,6.344818115234375000e+01,-4.064555740356445312e+01
9.489439725875854492e-01,2.000000000000000000e+00,1.091381549835205078e+01,3.201251029968261719e+00,3.384730148315429688e+01,-1.189852600097656250e+02,9.075045776367187500e+01,-6.974250030517578125e+01,3.995228195190429688e+01,-1.375270938873291016e+01,-1.066204071044921875e+02,-1.250210418701171875e+02,6.344388580322265625e+01,-4.067433929443359375e+01
9.516639709472656250e-01,2.000000000000000000e+00,1.097068309783935547e+01,3.108355283737182617e+00,3.383408737182617188e+01,-1.190924530029296875e+02,9.075477600097656250e+01,-6.979125976562500000e+01,3.980874633789062500e+01,-1.373508644104003906e+01,-1.066507644653320312e+02,-1.251304702758789062e+02,6.343536376953125000e+01,-4.073509597778320312e+01
9.559559822082519531e-01,2.000000000000000000e+00,1.097068309783935547e+01,3.108355283737182617e+00,3.383408737182617188e+01,-1.190924530029296875e+02,9.075477600097656250e+01,-6.979125976562500000e+01,3.980874633789062500e+01,-1.373508644104003906e+01,-1.066507644653320312e+02,-1.251304702758789062e+02,6.343536376953125000e+01,-4.073509597778320312e+01
9.599530100822448730e-01,2.000000000000000000e+00,1.099913120269775391e+01,3.062009334564208984e+00,3.382743835449218750e+01,-1.191461334228515625e+02,9.075669097900390625e+01,-6.981608581542968750e+01,3.973733901977539062e+01,-1.372606754302978516e+01,-1.066660385131835938e+02,-1.251834640502929688e+02,6.343099212646484375e+01,-4.076398849487304688e+01
9.642159938812255859e-01,2.000000000000000000e+00,1.102743625640869141e+01,3.015549898147583008e+00,3.382109451293945312e+01,-1.191999588012695312e+02,9.075882720947265625e+01,-6.984049224853515625e+01,3.966521072387695312e+01,-1.371691322326660156e+01,-1.066815490722656250e+02,-1.252376098632812500e+02,6.342683792114257812e+01,-4.079321289062500000e+01
9.679459929466247559e-01,2.000000000000000000e+00,1.105602836608886719e+01,2.969181299209594727e+00,3.381467056274414062e+01,-1.192532730102539062e+02,9.076111602783203125e+01,-6.986422729492187500e+01,3.959248352050781250e+01,-1.370794010162353516e+01,-1.066969375610351562e+02,-1.252923202514648438e+02,6.342326736450195312e+01,-4.082485580444335938e+01
9.719489812850952148e-01,2.000000000000000000e+00,1.108459091186523438e+01,2.922722101211547852e+00,3.380814361572265625e+01,-1.193075180053710938e+02,9.076325225830078125e+01,-6.988742828369140625e+01,3.951996994018554688e+01,-1.369901466369628906e+01,-1.067119979858398438e+02,-1.253463897705078125e+02,6.341903686523437500e+01,-4.085660552978515625e+01
9.760220050811767578e-01,2.000000000000000000e+00,1.111292552947998047e+01,2.876421213150024414e+00,3.380155563354492188e+01,-1.193614654541015625e+02,9.076532745361328125e+01,-6.991123199462890625e+01,3.944850540161132812e+01,-1.368995094299316406e+01,-1.067271804809570312e+02,-1.254009628295898438e+02,6.341495895385742188e+01,-4.088593673706054688e+01
9.799600243568420410e-01,2.000000000000000000e+00,1.114148807525634766e+01,2.830097675323486328e+00,3.379507064819335938e+01,-1.194143447875976562e+02,9.076750946044921875e+01,-6.993523406982421875e+01,3.937703704833984375e+01,-1.368065834045410156e+01,-1.067423477172851562e+02,-1.254553298950195312e+02,6.341073226928710938e+01,-4.091538238525390625e+01
9.839550256729125977e-01,2.000000000000000000e+00,1.117019557952880859e+01,2.783751726150512695e+00,3.378852462768554688e+01,-1.194682846069335938e+02,9.076991271972656250e+01,-6.995938110351562500e+01,3.930491638183593750e+01,-1.367136573791503906e+01,-1.067577438354492188e+02,-1.255093307495117188e+02,6.340694046020507812e+01,-4.094603347778320312e+01
9.870340228080749512e-01,2.000000000000000000e+00,1.119875907897949219e+01,2.737337827682495117e+00,3.378195571899414062e+01,-1.195217971801757812e+02,9.077199554443359375e+01,-6.998393249511718750e+01,3.923218536376953125e+01,-1.366216468811035156e+01,-1.067732391357421875e+02,-1.255640411376953125e+02,6.340286254882812500e+01,-4.097690582275390625e+01
9.909949898719787598e-01,2.000000000000000000e+00,1.122737884521484375e+01,2.690923690795898438e+00,3.377542877197265625e+01,-1.195755233764648438e+02,9.077396392822265625e+01,-7.000868225097656250e+01,3.915967559814453125e+01,-1.365305519104003906e+01,-1.067884750366210938e+02,-1.256178894042968750e+02,6.339856719970703125e+01,-4.100612640380859375e+01
9.950789809226989746e-01,2.000000000000000000e+00,1.125588512420654297e+01,2.644623041152954102e+00,3.376908493041992188e+01,-1.196291503906250000e+02,9.077630615234375000e+01,-7.003296661376953125e+01,3.908837509155273438e+01,-1.364408206939697266e+01,-1.068039169311523438e+02,-1.256713180541992188e+02,6.339441680908203125e+01,-4.103601455688476562e+01
9.990910291671752930e-01,2.000000000000000000e+00,1.128433322906494141e+01,2.598186254501342773e+00,3.376282501220703125e+01,-1.196821441650390625e+02,9.077854919433593750e+01,-7.005622100830078125e+01,3.901712799072265625e+01,-1.363501930236816406e+01,-1.068190383911132812e+02,-1.257261047363281250e+02,6.339025497436523438e+01,-4.106743240356445312e+01
1.003975033760070801e+00,2.000000000000000000e+00,1.131309795379638672e+01,2.551862955093383789e+00,3.375639724731445312e+01,-1.197356643676757812e+02,9.078089904785156250e+01,-7.007988739013671875e+01,3.894511032104492188e+01,-1.362595558166503906e+01,-1.068340988159179688e+02,-1.257807464599609375e+02,6.338574218750000000e+01,-4.109940338134765625e+01
1.007948994636535645e+00,2.000000000000000000e+00,1.134166049957275391e+01,2.505471467971801758e+00,3.374988937377929688e+01,-1.197895355224609375e+02,9.078297424316406250e+01,-7.010356140136718750e+01,3.887232971191406250e+01,-1.361670875549316406e+01,-1.068489990234375000e+02,-1.258345336914062500e+02,6.338122558593750000e+01,-4.112884521484375000e+01
1.011978030204772949e+00,2.000000000000000000e+00,1.136999511718750000e+01,2.458989858627319336e+00,3.374332427978515625e+01,-1.198428573608398438e+02,9.078510284423828125e+01,-7.012756347656250000e+01,3.880009078979492188e+01,-1.360746192932128906e+01,-1.068642349243164062e+02,-1.258892517089843750e+02,6.337699890136718750e+01,-4.115806961059570312e+01
1.016373991966247559e+00,2.000000000000000000e+00,1.142697715759277344e+01,2.366139173507690430e+00,3.373016738891601562e+01,-1.199497222900390625e+02,9.078948211669921875e+01,-7.017673492431640625e+01,3.865760040283203125e+01,-1.358924293518066406e+01,-1.068947982788085938e+02,-1.259977416992187500e+02,6.336861801147460938e+01,-4.122179031372070312e+01
1.019165039062500000e+00,2.000000000000000000e+00,1.142697715759277344e+01,2.366139173507690430e+00,3.373016738891601562e+01,-1.199497222900390625e+02,9.078948211669921875e+01,-7.017673492431640625e+01,3.865760040283203125e+01,-1.358924293518066406e+01,-1.068947982788085938e+02,-1.259977416992187500e+02,6.336861801147460938e+01,-4.122179031372070312e+01
1.023498058319091797e+00,2.000000000000000000e+00,1.145554161071777344e+01,2.319612026214599609e+00,3.372350311279296875e+01,-1.200035552978515625e+02,9.079150390625000000e+01,-7.020114135742187500e+01,3.858552932739257812e+01,-1.358004188537597656e+01,-1.069094848632812500e+02,-1.260521087646484375e+02,6.336454010009765625e+01,-4.125057220458984375e+01
1.028228044509887695e+00,2.000000000000000000e+00,1.148416137695312500e+01,2.273288726806640625e+00,3.371691513061523438e+01,-1.200573348999023438e+02,9.079380035400390625e+01,-7.022494506835937500e+01,3.851307296752929688e+01,-1.357065677642822266e+01,-1.069246597290039062e+02,-1.261061019897460938e+02,6.336053085327148438e+01,-4.127914047241210938e+01
1.031249046325683594e+00,2.000000000000000000e+00,1.151249599456787109e+01,2.227032899856567383e+00,3.371050643920898438e+01,-1.201106948852539062e+02,9.079592895507812500e+01,-7.024848175048828125e+01,3.844111633300781250e+01,-1.356136512756347656e+01,-1.069401016235351562e+02,-1.261599578857421875e+02,6.335645294189453125e+01,-4.130945968627929688e+01
1.035284042358398438e+00,2.000000000000000000e+00,1.154082870483398438e+01,2.180641651153564453e+00,3.370406341552734375e+01,-1.201646957397460938e+02,9.079806518554687500e+01,-7.027214813232421875e+01,3.836997985839843750e+01,-1.355225467681884766e+01,-1.069552764892578125e+02,-1.262143859863281250e+02,6.335273742675781250e+01,-4.134055328369140625e+01
1.040380954742431641e+00,2.000000000000000000e+00,1.156930541992187500e+01,2.134295701980590820e+00,3.369753646850585938e+01,-1.202182006835937500e+02,9.080014801025390625e+01,-7.029581451416015625e+01,3.829895019531250000e+01,-1.354319095611572266e+01,-1.069699630737304688e+02,-1.262683868408203125e+02,6.334880447387695312e+01,-4.137010574340820312e+01
1.043400049209594727e+00,2.000000000000000000e+00,1.159781169891357422e+01,2.087994813919067383e+00,3.369101333618164062e+01,-1.202714080810546875e+02,9.080233001708984375e+01,-7.031996154785156250e+01,3.822726440429687500e+01,-1.353417396545410156e+01,-1.069850234985351562e+02,-1.263228912353515625e+02,6.334457397460937500e+01,-4.139998626708984375e+01
1.047374963760375977e+00,2.000000000000000000e+00,1.162634658813476562e+01,2.041377067565917969e+00,3.368438339233398438e+01,-1.203258743286132812e+02,9.080414581298828125e+01,-7.034430694580078125e+01,3.815481185913085938e+01,-1.352506351470947266e+01,-1.070000915527343750e+02,-1.263775329589843750e+02,6.334042358398437500e+01,-4.143119049072265625e+01
1.052409052848815918e+00,2.000000000000000000e+00,1.165493869781494141e+01,1.994963169097900391e+00,3.367777633666992188e+01,-1.203793411254882812e+02,9.080627441406250000e+01,-7.036933135986328125e+01,3.808251953125000000e+01,-1.351568031311035156e+01,-1.070153198242187500e+02,-1.264315948486328125e+02,6.333633804321289062e+01,-4.146271896362304688e+01
1.055331945419311523e+00,2.000000000000000000e+00,1.168312835693359375e+01,1.948820710182189941e+00,3.367126846313476562e+01,-1.204325332641601562e+02,9.080825042724609375e+01,-7.039408111572265625e+01,3.801105499267578125e+01,-1.350661659240722656e+01,-1.070308227539062500e+02,-1.264854583740234375e+02,6.333218383789062500e+01,-4.149139404296875000e+01
1.059952974319458008e+00,2.000000000000000000e+00,1.171146297454833984e+01,1.902519941329956055e+00,3.366478347778320312e+01,-1.204862594604492188e+02,9.081033325195312500e+01,-7.041761779785156250e+01,3.794002914428710938e+01,-1.349773502349853516e+01,-1.070458908081054688e+02,-1.265401000976562500e+02,6.332810592651367188e+01,-4.152006912231445312e+01
1.063364982604980469e+00,2.000000000000000000e+00,1.173996829986572266e+01,1.856219172477722168e+00,3.365841674804687500e+01,-1.205392456054687500e+02,9.081224822998046875e+01,-7.044100952148437500e+01,3.786784744262695312e+01,-1.348890018463134766e+01,-1.070609588623046875e+02,-1.265936660766601562e+02,6.332409667968750000e+01,-4.154962158203125000e+01
1.068063974380493164e+00,2.000000000000000000e+00,1.176850318908691406e+01,1.809827923774719238e+00,3.365211868286132812e+01,-1.205931396484375000e+02,9.081432342529296875e+01,-7.046508789062500000e+01,3.779495620727539062e+01,-1.347956180572509766e+01,-1.070759582519531250e+02,-1.266477355957031250e+02,6.332016372680664062e+01,-4.157972335815429688e+01
1.072026968002319336e+00,2.000000000000000000e+00,1.179689407348632812e+01,1.763187527656555176e+00,3.364567184448242188e+01,-1.206470718383789062e+02,9.081629943847656250e+01,-7.048916625976562500e+01,3.772266387939453125e+01,-1.347017860412597656e+01,-1.070910873413085938e+02,-1.267021713256835938e+02,6.331601333618164062e+01,-4.160960769653320312e+01
1.076521039009094238e+00,2.000000000000000000e+00,1.182528495788574219e+01,1.716841459274291992e+00,3.363916778564453125e+01,-1.206998519897460938e+02,9.081827545166015625e+01,-7.051324462890625000e+01,3.765152740478515625e+01,-1.346093177795410156e+01,-1.071063156127929688e+02,-1.267562332153320312e+02,6.331171417236328125e+01,-4.164014816284179688e+01
1.080109953880310059e+00,2.000000000000000000e+00,1.185361862182617188e+01,1.670404791831970215e+00,3.363263702392578125e+01,-1.207536849975585938e+02,9.082040405273437500e+01,-7.053792572021484375e+01,3.758060836791992188e+01,-1.345205116271972656e+01,-1.071215972900390625e+02,-1.268105926513671875e+02,6.330697631835937500e+01,-4.167134857177734375e+01
1.083657026290893555e+00,2.000000000000000000e+00,1.188192367553710938e+01,1.624036192893981934e+00,3.362621307373046875e+01,-1.208072662353515625e+02,9.082221221923828125e+01,-7.056274414062500000e+01,3.750826263427734375e+01,-1.344303226470947266e+01,-1.071364440917968750e+02,-1.268649444580078125e+02,6.330297088623046875e+01,-4.170178222656250000e+01
1.088063955307006836e+00,2.000000000000000000e+00,1.191040039062500000e+01,1.577712774276733398e+00,3.361958312988281250e+01,-1.208607177734375000e+02,9.082418823242187500e+01,-7.058715820312500000e+01,3.743553543090820312e+01,-1.343419742584228516e+01,-1.071515655517578125e+02,-1.269186553955078125e+02,6.329896163940429688e+01,-4.173144531250000000e+01
1.092903971672058105e+00,2.000000000000000000e+00,1.193902111053466797e+01,1.531298756599426270e+00,3.361289978027343750e+01,-1.209150314331054688e+02,9.082604980468750000e+01,-7.061082458496093750e+01,3.736297225952148438e+01,-1.342531776428222656e+01,-1.071671142578125000e+02,-1.269735183715820312e+02,6.329481124877929688e+01,-4.176231765747070312e+01
1.095950007438659668e+00,2.000000000000000000e+00,1.196749782562255859e+01,1.484862089157104492e+00,3.360637283325195312e+01,-1.209680709838867188e+02,9.082792663574218750e+01,-7.063415527343750000e+01,3.729199981689453125e+01,-1.341629886627197266e+01,-1.071824569702148438e+02,-1.270279541015625000e+02,6.329058074951171875e+01,-4.179417800903320312e+01
1.100757002830505371e+00,2.000000000000000000e+00,1.199603271484375000e+01,1.438448190689086914e+00,3.359994506835937500e+01,-1.210219116210937500e+02,9.082994842529296875e+01,-7.065823364257812500e+01,3.722058868408203125e+01,-1.340723514556884766e+01,-1.071977920532226562e+02,-1.270815200805664062e+02,6.328621292114257812e+01,-4.182439041137695312e+01
1.104125976562500000e+00,2.000000000000000000e+00,1.202439498901367188e+01,1.392079591751098633e+00,3.359362411499023438e+01,-1.210759506225585938e+02,9.083180999755859375e+01,-7.068196868896484375e+01,3.714857101440429688e+01,-1.339830970764160156e+01,-1.072129135131835938e+02,-1.271355819702148438e+02,6.328184127807617188e+01,-4.185416412353515625e+01
1.107926011085510254e+00,2.000000000000000000e+00,1.205287170410156250e+01,1.345914483070373535e+00,3.358709716796875000e+01,-1.211288833618164062e+02,9.083394622802734375e+01,-7.070631408691406250e+01,3.707590103149414062e+01,-1.338942909240722656e+01,-1.072280273437500000e+02,-1.271901550292968750e+02,6.327783203125000000e+01,-4.188448715209960938e+01
1.111901998519897461e+00,2.000000000000000000e+00,1.208160781860351562e+01,1.299636244773864746e+00,3.358058929443359375e+01,-1.211827239990234375e+02,9.083554840087890625e+01,-7.073113250732421875e+01,3.700382614135742188e+01,-1.338036441802978516e+01,-1.072432022094726562e+02,-1.272443771362304688e+02,6.327375411987304688e+01,-4.191513824462890625e+01
1.116318941116333008e+00,2.000000000000000000e+00,1.211037158966064453e+01,1.253131866455078125e+00,3.357394027709960938e+01,-1.212365570068359375e+02,9.083746337890625000e+01,-7.075568389892578125e+01,3.693268966674804688e+01,-1.337102699279785156e+01,-1.072582168579101562e+02,-1.272991714477539062e+02,6.326974487304687500e+01,-4.194447326660156250e+01
