rpiRobotics/ARM-21-02-F-19-Robot-Motion-Program/data_performance_abb/curve_2/dual_arm/diffevo_pose6/grad_result/real/run_4.csv
timestamp,cmd_num,J1,J2,J3,J4,J5,J6,J1_2,J2_2,J3_2,J4_2,J5_2,J6_2
2.500000118743628263e-04,-1.000000000000000000e+00,5.492905616760253906e+00,1.202490615844726562e+01,3.508050918579101562e+01,-1.087818832397460938e+02,9.036620330810546875e+01,-6.516045379638671875e+01,5.363646697998046875e+01,-1.548909854888916016e+01,-1.037324752807617188e+02,-1.146968383789062500e+02,6.423976135253906250e+01,-3.491080474853515625e+01
1.780000049620866776e-03,-1.000000000000000000e+00,5.492905616760253906e+00,1.202495098114013672e+01,3.508050918579101562e+01,-1.087818832397460938e+02,9.036620330810546875e+01,-6.516045379638671875e+01,5.363646697998046875e+01,-1.548905372619628906e+01,-1.037325286865234375e+02,-1.146968383789062500e+02,6.423960876464843750e+01,-3.491080474853515625e+01
4.358000122010707855e-03,-1.000000000000000000e+00,5.492848396301269531e+00,1.202486038208007812e+01,3.508050918579101562e+01,-1.087821426391601562e+02,9.036631011962890625e+01,-6.516045379638671875e+01,5.363646697998046875e+01,-1.548905372619628906e+01,-1.037324752807617188e+02,-1.146968383789062500e+02,6.423960876464843750e+01,-3.491080474853515625e+01
7.801000028848648071e-03,-1.000000000000000000e+00,5.492848396301269531e+00,1.202486038208007812e+01,3.508050918579101562e+01,-1.087821426391601562e+02,9.036631011962890625e+01,-6.516045379638671875e+01,5.363646697998046875e+01,-1.548905372619628906e+01,-1.037324752807617188e+02,-1.146968383789062500e+02,6.423960876464843750e+01,-3.491080474853515625e+01
1.169900037348270416e-02,-1.000000000000000000e+00,5.492905616760253906e+00,1.202486038208007812e+01,3.508050918579101562e+01,-1.087820434570312500e+02,9.036620330810546875e+01,-6.516045379638671875e+01,5.363630294799804688e+01,-1.548909854888916016e+01,-1.037323684692382812e+02,-1.146968383789062500e+02,6.423976135253906250e+01,-3.491069030761718750e+01
1.567699946463108063e-02,-1.000000000000000000e+00,5.492848396301269531e+00,1.202486038208007812e+01,3.508050918579101562e+01,-1.087818832397460938e+02,9.036620330810546875e+01,-6.516045379638671875e+01,5.363646697998046875e+01,-1.548909854888916016e+01,-1.037324752807617188e+02,-1.146968383789062500e+02,6.423960876464843750e+01,-3.491080474853515625e+01
1.973900012671947479e-02,-1.000000000000000000e+00,5.492905616760253906e+00,1.202495098114013672e+01,3.508050918579101562e+01,-1.087819824218750000e+02,9.036631011962890625e+01,-6.516045379638671875e+01,5.363646697998046875e+01,-1.548909854888916016e+01,-1.037324752807617188e+02,-1.146968383789062500e+02,6.423998260498046875e+01,-3.491080474853515625e+01
2.393100038170814514e-02,-1.000000000000000000e+00,5.492905616760253906e+00,1.202490615844726562e+01,3.508050918579101562e+01,-1.087819824218750000e+02,9.036631011962890625e+01,-6.516045379638671875e+01,5.363657760620117188e+01,-1.548909854888916016e+01,-1.037324752807617188e+02,-1.146968383789062500e+02,6.423976135253906250e+01,-3.491080474853515625e+01
2.769299969077110291e-02,-1.000000000000000000e+00,5.492762088775634766e+00,1.202490615844726562e+01,3.508057022094726562e+01,-1.087819824218750000e+02,9.036620330810546875e+01,-6.516045379638671875e+01,5.363646697998046875e+01,-1.548909854888916016e+01,-1.037325286865234375e+02,-1.146968383789062500e+02,6.423960876464843750e+01,-3.491069030761718750e+01
3.385199978947639465e-02,2.000000000000000000e+00,5.492905616760253906e+00,1.202490615844726562e+01,3.508046722412109375e+01,-1.087819824218750000e+02,9.036631011962890625e+01,-6.516045379638671875e+01,5.363646697998046875e+01,-1.548905372619628906e+01,-1.037324752807617188e+02,-1.146968383789062500e+02,6.423960876464843750e+01,-3.491080474853515625e+01
4.185400158166885376e-02,2.000000000000000000e+00,5.492848396301269531e+00,1.202490615844726562e+01,3.508050918579101562e+01,-1.087820434570312500e+02,9.036631011962890625e+01,-6.516045379638671875e+01,5.363646697998046875e+01,-1.548909854888916016e+01,-1.037324752807617188e+02,-1.146968383789062500e+02,6.423960876464843750e+01,-3.491080474853515625e+01
4.841599985957145691e-02,2.000000000000000000e+00,5.492848396301269531e+00,1.202490615844726562e+01,3.508050918579101562e+01,-1.087818832397460938e+02,9.036609649658203125e+01,-6.516045379638671875e+01,5.363646697998046875e+01,-1.548909854888916016e+01,-1.037324752807617188e+02,-1.146968383789062500e+02,6.423960876464843750e+01,-3.491080474853515625e+01
5.290700122714042664e-02,2.000000000000000000e+00,5.492905616760253906e+00,1.202486038208007812e+01,3.508050918579101562e+01,-1.087818832397460938e+02,9.036620330810546875e+01,-6.516059112548828125e+01,5.363646697998046875e+01,-1.548909854888916016e+01,-1.037324752807617188e+02,-1.146968383789062500e+02,6.423960876464843750e+01,-3.491069030761718750e+01
9.273000061511993408e-02,2.000000000000000000e+00,5.492905616760253906e+00,1.202486038208007812e+01,3.508050918579101562e+01,-1.087820434570312500e+02,9.036631011962890625e+01,-6.516045379638671875e+01,5.363646697998046875e+01,-1.548905372619628906e+01,-1.037324752807617188e+02,-1.146968383789062500e+02,6.423976135253906250e+01,-3.491069030761718750e+01
9.399200230836868286e-02,2.000000000000000000e+00,5.492905616760253906e+00,1.202486038208007812e+01,3.508050918579101562e+01,-1.087820434570312500e+02,9.036631011962890625e+01,-6.516045379638671875e+01,5.363646697998046875e+01,-1.548905372619628906e+01,-1.037324752807617188e+02,-1.146968383789062500e+02,6.423976135253906250e+01,-3.491069030761718750e+01
9.761100262403488159e-02,2.000000000000000000e+00,5.492905616760253906e+00,1.202490615844726562e+01,3.508050918579101562e+01,-1.087820434570312500e+02,9.036631011962890625e+01,-6.516045379638671875e+01,5.363646697998046875e+01,-1.548905372619628906e+01,-1.037324752807617188e+02,-1.146968383789062500e+02,6.423976135253906250e+01,-3.491069030761718750e+01
1.001129969954490662e-01,2.000000000000000000e+00,5.492905616760253906e+00,1.202490615844726562e+01,3.508050918579101562e+01,-1.087820434570312500e+02,9.036631011962890625e+01,-6.516045379638671875e+01,5.363646697998046875e+01,-1.548905372619628906e+01,-1.037324752807617188e+02,-1.146968383789062500e+02,6.423960876464843750e+01,-3.491080474853515625e+01
1.044500023126602173e-01,2.000000000000000000e+00,5.493193149566650391e+00,1.202458953857421875e+01,3.508050918579101562e+01,-1.087820434570312500e+02,9.036631011962890625e+01,-6.516045379638671875e+01,5.363646697998046875e+01,-1.548909854888916016e+01,-1.037324752807617188e+02,-1.146968383789062500e+02,6.423976135253906250e+01,-3.491069030761718750e+01
1.057830005884170532e-01,2.000000000000000000e+00,5.493193149566650391e+00,1.202458953857421875e+01,3.508050918579101562e+01,-1.087820434570312500e+02,9.036631011962890625e+01,-6.516045379638671875e+01,5.363646697998046875e+01,-1.548909854888916016e+01,-1.037324752807617188e+02,-1.146968383789062500e+02,6.423976135253906250e+01,-3.491069030761718750e+01
1.082969978451728821e-01,2.000000000000000000e+00,5.493967533111572266e+00,1.202395534515380859e+01,3.508050918579101562e+01,-1.087819824218750000e+02,9.036620330810546875e+01,-6.516045379638671875e+01,5.363630294799804688e+01,-1.548905372619628906e+01,-1.037324752807617188e+02,-1.146968383789062500e+02,6.423960876464843750e+01,-3.491080474853515625e+01
1.097320020198822021e-01,2.000000000000000000e+00,5.493967533111572266e+00,1.202395534515380859e+01,3.508050918579101562e+01,-1.087819824218750000e+02,9.036620330810546875e+01,-6.516045379638671875e+01,5.363630294799804688e+01,-1.548905372619628906e+01,-1.037324752807617188e+02,-1.146968383789062500e+02,6.423960876464843750e+01,-3.491080474853515625e+01
1.171120032668113708e-01,2.000000000000000000e+00,5.497240543365478516e+00,1.202085494995117188e+01,3.508050918579101562e+01,-1.087820434570312500e+02,9.036620330810546875e+01,-6.516045379638671875e+01,5.363515090942382812e+01,-1.548955821990966797e+01,-1.037301940917968750e+02,-1.146973495483398438e+02,6.423946380615234375e+01,-3.491080474853515625e+01
1.183890029788017273e-01,2.000000000000000000e+00,5.497240543365478516e+00,1.202085494995117188e+01,3.508050918579101562e+01,-1.087820434570312500e+02,9.036620330810546875e+01,-6.516045379638671875e+01,5.363515090942382812e+01,-1.548955821990966797e+01,-1.037301940917968750e+02,-1.146973495483398438e+02,6.423946380615234375e+01,-3.491080474853515625e+01
1.221150010824203491e-01,2.000000000000000000e+00,5.499967575073242188e+00,1.201802635192871094e+01,3.508050918579101562e+01,-1.087821426391601562e+02,9.036631011962890625e+01,-6.516045379638671875e+01,5.363284683227539062e+01,-1.549028873443603516e+01,-1.037277984619140625e+02,-1.146980590820312500e+02,6.423873901367187500e+01,-3.491124343872070312e+01
1.248129978775978088e-01,2.000000000000000000e+00,5.503326416015625000e+00,1.201395320892333984e+01,3.508046722412109375e+01,-1.087827224731445312e+02,9.036631011962890625e+01,-6.516079711914062500e+01,5.362932586669921875e+01,-1.549106693267822266e+01,-1.037263793945312500e+02,-1.146988525390625000e+02,6.423713684082031250e+01,-3.491289138793945312e+01
1.278659999370574951e-01,2.000000000000000000e+00,5.503326416015625000e+00,1.201395320892333984e+01,3.508046722412109375e+01,-1.087827224731445312e+02,9.036631011962890625e+01,-6.516079711914062500e+01,5.362932586669921875e+01,-1.549106693267822266e+01,-1.037263793945312500e+02,-1.146988525390625000e+02,6.423713684082031250e+01,-3.491289138793945312e+01
1.293199956417083740e-01,2.000000000000000000e+00,5.507402896881103516e+00,1.200854396820068359e+01,3.508046722412109375e+01,-1.087842559814453125e+02,9.036641693115234375e+01,-6.516092681884765625e+01,5.362460327148437500e+01,-1.549161720275878906e+01,-1.037251892089843750e+02,-1.146997070312500000e+02,6.423356628417968750e+01,-3.491508865356445312e+01
1.306859999895095825e-01,2.000000000000000000e+00,5.507402896881103516e+00,1.200854396820068359e+01,3.508046722412109375e+01,-1.087842559814453125e+02,9.036641693115234375e+01,-6.516092681884765625e+01,5.362460327148437500e+01,-1.549161720275878906e+01,-1.037251892089843750e+02,-1.146997070312500000e+02,6.423356628417968750e+01,-3.491508865356445312e+01
1.332270056009292603e-01,2.000000000000000000e+00,5.512311458587646484e+00,1.200159740447998047e+01,3.508042526245117188e+01,-1.087874603271484375e+02,9.036641693115234375e+01,-6.516147613525390625e+01,5.361828613281250000e+01,-1.549161720275878906e+01,-1.037242660522460938e+02,-1.147015838623046875e+02,6.422889709472656250e+01,-3.491662597656250000e+01
1.345980018377304077e-01,2.000000000000000000e+00,5.512311458587646484e+00,1.200159740447998047e+01,3.508042526245117188e+01,-1.087874603271484375e+02,9.036641693115234375e+01,-6.516147613525390625e+01,5.361828613281250000e+01,-1.549161720275878906e+01,-1.037242660522460938e+02,-1.147015838623046875e+02,6.422889709472656250e+01,-3.491662597656250000e+01
1.400029957294464111e-01,2.000000000000000000e+00,5.518167972564697266e+00,1.199286174774169922e+01,3.508026123046875000e+01,-1.087920455932617188e+02,9.036652374267578125e+01,-6.516316986083984375e+01,5.360971832275390625e+01,-1.549070167541503906e+01,-1.037233352661132812e+02,-1.147040939331054688e+02,6.422467041015625000e+01,-3.491805648803710938e+01
1.414459943771362305e-01,2.000000000000000000e+00,5.525287151336669922e+00,1.198202228546142578e+01,3.507993698120117188e+01,-1.087980499267578125e+02,9.036679077148437500e+01,-6.516601562500000000e+01,5.359867858886718750e+01,-1.548937320709228516e+01,-1.037236099243164062e+02,-1.147083282470703125e+02,6.422307586669921875e+01,-3.491981506347656250e+01
1.427949965000152588e-01,2.000000000000000000e+00,5.525287151336669922e+00,1.198202228546142578e+01,3.507993698120117188e+01,-1.087980499267578125e+02,9.036679077148437500e+01,-6.516601562500000000e+01,5.359867858886718750e+01,-1.548937320709228516e+01,-1.037236099243164062e+02,-1.147083282470703125e+02,6.422307586669921875e+01,-3.491981506347656250e+01
1.463440060615539551e-01,2.000000000000000000e+00,5.533812999725341797e+00,1.196871566772460938e+01,3.507934570312500000e+01,-1.088062667846679688e+02,9.036700439453125000e+01,-6.517022705078125000e+01,5.358483123779296875e+01,-1.548868656158447266e+01,-1.037298660278320312e+02,-1.147145690917968750e+02,6.422183227539062500e+01,-3.492190170288085938e+01
1.493059992790222168e-01,2.000000000000000000e+00,5.543688297271728516e+00,1.195339584350585938e+01,3.507849121093750000e+01,-1.088171234130859375e+02,9.036732482910156250e+01,-6.517476654052734375e+01,5.356758499145507812e+01,-1.548772525787353516e+01,-1.037338867187500000e+02,-1.147226181030273438e+02,6.422059631347656250e+01,-3.492541503906250000e+01
1.506949961185455322e-01,2.000000000000000000e+00,5.543688297271728516e+00,1.195339584350585938e+01,3.507849121093750000e+01,-1.088171234130859375e+02,9.036732482910156250e+01,-6.517476654052734375e+01,5.356758499145507812e+01,-1.548772525787353516e+01,-1.037338867187500000e+02,-1.147226181030273438e+02,6.422059631347656250e+01,-3.492541503906250000e+01
1.530639976263046265e-01,2.000000000000000000e+00,5.554711818695068359e+00,1.193633174896240234e+01,3.507735443115234375e+01,-1.088304443359375000e+02,9.036785888671875000e+01,-6.518099975585937500e+01,5.354632568359375000e+01,-1.548612403869628906e+01,-1.037361221313476562e+02,-1.147338867187500000e+02,6.421936035156250000e+01,-3.493068695068359375e+01
1.544000059366226196e-01,2.000000000000000000e+00,5.554711818695068359e+00,1.193633174896240234e+01,3.507735443115234375e+01,-1.088304443359375000e+02,9.036785888671875000e+01,-6.518099975585937500e+01,5.354632568359375000e+01,-1.548612403869628906e+01,-1.037361221313476562e+02,-1.147338867187500000e+02,6.421936035156250000e+01,-3.493068695068359375e+01
1.588740050792694092e-01,2.000000000000000000e+00,5.566481113433837891e+00,1.191732406616210938e+01,3.507587051391601562e+01,-1.088474578857421875e+02,9.036817932128906250e+01,-6.518819427490234375e+01,5.352072906494140625e+01,-1.548429298400878906e+01,-1.037396011352539062e+02,-1.147485427856445312e+02,6.421811676025390625e+01,-3.493771743774414062e+01
1.617619991302490234e-01,2.000000000000000000e+00,5.579313278198242188e+00,1.189648151397705078e+01,3.507377624511718750e+01,-1.088682632446289062e+02,9.036876678466796875e+01,-6.519782257080078125e+01,5.349029541015625000e+01,-1.548246097564697266e+01,-1.037442245483398438e+02,-1.147669219970703125e+02,6.421651458740234375e+01,-3.494683837890625000e+01
1.655050069093704224e-01,2.000000000000000000e+00,5.593178749084472656e+00,1.187434864044189453e+01,3.507109069824218750e+01,-1.088932876586914062e+02,9.036950683593750000e+01,-6.520874023437500000e+01,5.345425796508789062e+01,-1.547944068908691406e+01,-1.037512359619140625e+02,-1.147902679443359375e+02,6.421527099609375000e+01,-3.495848464965820312e+01
1.667560040950775146e-01,2.000000000000000000e+00,5.593178749084472656e+00,1.187434864044189453e+01,3.507109069824218750e+01,-1.088932876586914062e+02,9.036950683593750000e+01,-6.520874023437500000e+01,5.345425796508789062e+01,-1.547944068908691406e+01,-1.037512359619140625e+02,-1.147902679443359375e+02,6.421527099609375000e+01,-3.495848464965820312e+01
1.706330031156539917e-01,2.000000000000000000e+00,5.607991218566894531e+00,1.185052013397216797e+01,3.506779861450195312e+01,-1.089227371215820312e+02,9.037062835693359375e+01,-6.522142028808593750e+01,5.341377639770507812e+01,-1.547509193420410156e+01,-1.037590713500976562e+02,-1.148174057006835938e+02,6.421367645263671875e+01,-3.497331619262695312e+01
1.731670051813125610e-01,2.000000000000000000e+00,5.623808860778808594e+00,1.182483386993408203e+01,3.506401443481445312e+01,-1.089560241699218750e+02,9.037126922607421875e+01,-6.523593902587890625e+01,5.337015914916992188e+01,-1.547019386291503906e+01,-1.037681579589843750e+02,-1.148504409790039062e+02,6.421155548095703125e+01,-3.499034500122070312e+01
1.745219975709915161e-01,2.000000000000000000e+00,5.623808860778808594e+00,1.182483386993408203e+01,3.506401443481445312e+01,-1.089560241699218750e+02,9.037126922607421875e+01,-6.523593902587890625e+01,5.337015914916992188e+01,-1.547019386291503906e+01,-1.037681579589843750e+02,-1.148504409790039062e+02,6.421155548095703125e+01,-3.499034500122070312e+01
1.779730021953582764e-01,2.000000000000000000e+00,5.640659809112548828e+00,1.179729366302490234e+01,3.505982971191406250e+01,-1.089909973144531250e+02,9.037223052978515625e+01,-6.525173187255859375e+01,5.332308578491210938e+01,-1.546410465240478516e+01,-1.037798461914062500e+02,-1.148882751464843750e+02,6.420915222167968750e+01,-3.500913238525390625e+01
1.807209998369216919e-01,2.000000000000000000e+00,5.640659809112548828e+00,1.179729366302490234e+01,3.505982971191406250e+01,-1.089909973144531250e+02,9.037223052978515625e+01,-6.525173187255859375e+01,5.332308578491210938e+01,-1.546410465240478516e+01,-1.037798461914062500e+02,-1.148882751464843750e+02,6.420915222167968750e+01,-3.500913238525390625e+01
1.847449988126754761e-01,2.000000000000000000e+00,5.658544063568115234e+00,1.176753616333007812e+01,3.505519485473632812e+01,-1.090294494628906250e+02,9.037335205078125000e+01,-6.526950836181640625e+01,5.327293014526367188e+01,-1.545728492736816406e+01,-1.037939910888671875e+02,-1.149298477172851562e+02,6.420667266845703125e+01,-3.503033447265625000e+01
1.898400038480758667e-01,2.000000000000000000e+00,5.677547931671142578e+00,1.173576354980468750e+01,3.505023193359375000e+01,-1.090729598999023438e+02,9.037462615966796875e+01,-6.528829193115234375e+01,5.322031021118164062e+01,-1.544954872131347656e+01,-1.038088912963867188e+02,-1.149757995605468750e+02,6.420405578613281250e+01,-3.505527496337890625e+01
1.928350031375885010e-01,2.000000000000000000e+00,5.697499275207519531e+00,1.170197677612304688e+01,3.504494476318359375e+01,-1.091198883056640625e+02,9.037585449218750000e+01,-6.530904388427734375e+01,5.316532135009765625e+01,-1.544108009338378906e+01,-1.038244400024414062e+02,-1.150247726440429688e+02,6.420143127441406250e+01,-3.508251953125000000e+01
1.970199942588806152e-01,2.000000000000000000e+00,5.718225479125976562e+00,1.166665172576904297e+01,3.503927230834960938e+01,-1.091671371459960938e+02,9.037734222412109375e+01,-6.533094787597656250e+01,5.310654449462890625e+01,-1.543242835998535156e+01,-1.038410873413085938e+02,-1.150761184692382812e+02,6.419844818115234375e+01,-3.511031341552734375e+01
1.986220031976699829e-01,2.000000000000000000e+00,5.739439964294433594e+00,1.162974166870117188e+01,3.503329849243164062e+01,-1.092162857055664062e+02,9.037857055664062500e+01,-6.535379791259765625e+01,5.304348373413085938e+01,-1.542363929748535156e+01,-1.038578872680664062e+02,-1.151289749145507812e+02,6.419509124755859375e+01,-3.513877105712890625e+01
2.048970013856887817e-01,2.000000000000000000e+00,5.761630535125732422e+00,1.159147453308105469e+01,3.502701187133789062e+01,-1.092680664062500000e+02,9.038017272949218750e+01,-6.537780761718750000e+01,5.297668457031250000e+01,-1.541443729400634766e+01,-1.038744277954101562e+02,-1.151835479736328125e+02,6.419232177734375000e+01,-3.516986083984375000e+01
2.091230005025863647e-01,2.000000000000000000e+00,5.784853935241699219e+00,1.155132961273193359e+01,3.502065277099609375e+01,-1.093208923339843750e+02,9.038208770751953125e+01,-6.540161132812500000e+01,5.290763473510742188e+01,-1.540542030334472656e+01,-1.038905792236328125e+02,-1.152383270263671875e+02,6.418890380859375000e+01,-3.520139312744140625e+01
2.127889990806579590e-01,2.000000000000000000e+00,5.809254646301269531e+00,1.150937366485595703e+01,3.501422500610351562e+01,-1.093743591308593750e+02,9.038368988037109375e+01,-6.542514801025390625e+01,5.283726882934570312e+01,-1.539617347717285156e+01,-1.039067916870117188e+02,-1.152926101684570312e+02,6.418525695800781250e+01,-3.523127365112304688e+01
2.168799936771392822e-01,2.000000000000000000e+00,5.835033893585205078e+00,1.146574306488037109e+01,3.500775909423828125e+01,-1.094281387329101562e+02,9.038550567626953125e+01,-6.544881439208984375e+01,5.276575088500976562e+01,-1.538715457916259766e+01,-1.039223403930664062e+02,-1.153472518920898438e+02,6.418124389648437500e+01,-3.526137924194335938e+01
2.196229994297027588e-01,2.000000000000000000e+00,5.861701965332031250e+00,1.142073249816894531e+01,3.500135421752929688e+01,-1.094821243286132812e+02,9.038742828369140625e+01,-6.547296142578125000e+01,5.269334793090820312e+01,-1.537777137756347656e+01,-1.039374084472656250e+02,-1.154029083251953125e+02,6.417731475830078125e+01,-3.529301834106445312e+01
2.236229926347732544e-01,2.000000000000000000e+00,5.889347076416015625e+00,1.137458992004394531e+01,3.499493026733398438e+01,-1.095369644165039062e+02,9.038923645019531250e+01,-6.549743652343750000e+01,5.261963272094726562e+01,-1.536815834045410156e+01,-1.039525833129882812e+02,-1.154584884643554688e+02,6.417315673828125000e+01,-3.532466125488281250e+01
2.276369929313659668e-01,2.000000000000000000e+00,5.917680740356445312e+00,1.132749652862548828e+01,3.498858642578125000e+01,-1.095912170410156250e+02,9.039136505126953125e+01,-6.552232360839843750e+01,5.254602050781250000e+01,-1.535877323150634766e+01,-1.039680786132812500e+02,-1.155138549804687500e+02,6.416944122314453125e+01,-3.535641098022460938e+01
2.316710054874420166e-01,2.000000000000000000e+00,5.946444511413574219e+00,1.128033542633056641e+01,3.498218536376953125e+01,-1.096455230712890625e+02,9.039334106445312500e+01,-6.554735565185546875e+01,5.247285461425781250e+01,-1.534943485260009766e+01,-1.039830932617187500e+02,-1.155692901611328125e+02,6.416565704345703125e+01,-3.538673400878906250e+01
2.356290072202682495e-01,2.000000000000000000e+00,5.975409984588623047e+00,1.123308467864990234e+01,3.497565841674804688e+01,-1.097002563476562500e+02,9.039520263671875000e+01,-6.557244110107421875e+01,5.240056228637695312e+01,-1.534014225006103516e+01,-1.039981613159179688e+02,-1.156242141723632812e+02,6.416172790527343750e+01,-3.541870117187500000e+01
2.410849928855895996e-01,2.000000000000000000e+00,6.004633903503417969e+00,1.118567562103271484e+01,3.496900939941406250e+01,-1.097544021606445312e+02,9.039734649658203125e+01,-6.559678649902343750e+01,5.232843780517578125e+01,-1.533089637756347656e+01,-1.040130615234375000e+02,-1.156796493530273438e+02,6.415785980224609375e+01,-3.545209884643554688e+01
2.426449954509735107e-01,2.000000000000000000e+00,6.033656120300292969e+00,1.113837909698486328e+01,3.496233749389648438e+01,-1.098093948364257812e+02,9.039920806884765625e+01,-6.562079620361328125e+01,5.225488662719726562e+01,-1.532169532775878906e+01,-1.040284576416015625e+02,-1.157346496582031250e+02,6.415392303466796875e+01,-3.548329925537109375e+01
2.500860095024108887e-01,2.000000000000000000e+00,6.033656120300292969e+00,1.113837909698486328e+01,3.496233749389648438e+01,-1.098093948364257812e+02,9.039920806884765625e+01,-6.562079620361328125e+01,5.225488662719726562e+01,-1.532169532775878906e+01,-1.040284576416015625e+02,-1.157346496582031250e+02,6.415392303466796875e+01,-3.548329925537109375e+01
2.515020072460174561e-01,2.000000000000000000e+00,6.091557502746582031e+00,1.104378604888916016e+01,3.494887924194335938e+01,-1.099181137084960938e+02,9.040341949462890625e+01,-6.566894531250000000e+01,5.210750198364257812e+01,-1.530310916900634766e+01,-1.040598373413085938e+02,-1.158440780639648438e+02,6.414620208740234375e+01,-3.554526519775390625e+01
2.557010054588317871e-01,2.000000000000000000e+00,6.120580196380615234e+00,1.099660205841064453e+01,3.494215011596679688e+01,-1.099729995727539062e+02,9.040538787841796875e+01,-6.569363403320312500e+01,5.203526687622070312e+01,-1.529390907287597656e+01,-1.040753402709960938e+02,-1.158995971679687500e+02,6.414256286621093750e+01,-3.557657241821289062e+01
2.597160041332244873e-01,2.000000000000000000e+00,6.149574279785156250e+00,1.094919300079345703e+01,3.493556213378906250e+01,-1.100273590087890625e+02,9.040731048583984375e+01,-6.571858215332031250e+01,5.196281433105468750e+01,-1.528479862213134766e+01,-1.040902938842773438e+02,-1.159549484252929688e+02,6.413906097412109375e+01,-3.560645675659179688e+01
2.661100029945373535e-01,2.000000000000000000e+00,6.178682804107666016e+00,1.090194129943847656e+01,3.492913818359375000e+01,-1.100817184448242188e+02,9.040944671630859375e+01,-6.574354553222656250e+01,5.188920211791992188e+01,-1.527550697326660156e+01,-1.041050872802734375e+02,-1.160098876953125000e+02,6.413520050048828125e+01,-3.563623046875000000e+01
2.675389945507049561e-01,2.000000000000000000e+00,6.207619190216064453e+00,1.085493850708007812e+01,3.492267227172851562e+01,-1.101362915039062500e+02,9.041136169433593750e+01,-6.576809692382812500e+01,5.181515502929687500e+01,-1.526589298248291016e+01,-1.041205902099609375e+02,-1.160652389526367188e+02,6.413104248046875000e+01,-3.566852951049804688e+01
2.717249989509582520e-01,2.000000000000000000e+00,6.236182689666748047e+00,1.080782318115234375e+01,3.491610336303710938e+01,-1.101900711059570312e+02,9.041349792480468750e+01,-6.579230499267578125e+01,5.174220657348632812e+01,-1.525641822814941406e+01,-1.041360321044921875e+02,-1.161203918457031250e+02,6.412689208984375000e+01,-3.570050048828125000e+01
2.756179869174957275e-01,2.000000000000000000e+00,6.265004158020019531e+00,1.076100254058837891e+01,3.490953826904296875e+01,-1.102449569702148438e+02,9.041562652587890625e+01,-6.581617736816406250e+01,5.167046737670898438e+01,-1.524721717834472656e+01,-1.041512603759765625e+02,-1.161752471923828125e+02,6.412310791015625000e+01,-3.573082351684570312e+01
2.796179950237274170e-01,2.000000000000000000e+00,6.293854713439941406e+00,1.071415805816650391e+01,3.490296936035156250e+01,-1.102991104125976562e+02,9.041760253906250000e+01,-6.584011840820312500e+01,5.159795761108398438e+01,-1.523792552947998047e+01,-1.041663818359375000e+02,-1.162292480468750000e+02,6.411939239501953125e+01,-3.576059722900390625e+01
2.836849987506866455e-01,2.000000000000000000e+00,6.322762489318847656e+00,1.066715526580810547e+01,3.489634323120117188e+01,-1.103530960083007812e+02,9.041963195800781250e+01,-6.586446380615234375e+01,5.152462387084960938e+01,-1.522872352600097656e+01,-1.041814422607421875e+02,-1.162844772338867188e+02,6.411508941650390625e+01,-3.579245758056640625e+01
2.876169979572296143e-01,2.000000000000000000e+00,6.351526737213134766e+00,1.062040233612060547e+01,3.488971328735351562e+01,-1.104079360961914062e+02,9.042170715332031250e+01,-6.588908386230468750e+01,5.145068359375000000e+01,-1.521943092346191406e+01,-1.041971664428710938e+02,-1.163404846191406250e+02,6.411087036132812500e+01,-3.582288742065429688e+01
2.916190028190612793e-01,2.000000000000000000e+00,6.380204677581787109e+00,1.057360363006591797e+01,3.488320922851562500e+01,-1.104618682861328125e+02,9.042368316650390625e+01,-6.591410827636718750e+01,5.137806701660156250e+01,-1.521000003814697266e+01,-1.042128295898437500e+02,-1.163954849243164062e+02,6.410714721679687500e+01,-3.585342788696289062e+01
2.956100106239318848e-01,2.000000000000000000e+00,6.408882617950439453e+00,1.052689552307128906e+01,3.487680435180664062e+01,-1.105163345336914062e+02,9.042591857910156250e+01,-6.593953704833984375e+01,5.130626678466796875e+01,-1.520061683654785156e+01,-1.042281723022460938e+02,-1.164506301879882812e+02,6.410314178466796875e+01,-3.588529205322265625e+01
2.996140122413635254e-01,2.000000000000000000e+00,6.437905311584472656e+00,1.048025512695312500e+01,3.487064361572265625e+01,-1.105712203979492188e+02,9.042778778076171875e+01,-6.596394348144531250e+01,5.123387145996093750e+01,-1.519137096405029297e+01,-1.042433395385742188e+02,-1.165062789916992188e+02,6.409877014160156250e+01,-3.591693115234375000e+01
3.036899864673614502e-01,2.000000000000000000e+00,6.466870784759521484e+00,1.043356990814208984e+01,3.486411666870117188e+01,-1.106252059936523438e+02,9.042970275878906250e+01,-6.598795318603515625e+01,5.116075515747070312e+01,-1.518207645416259766e+01,-1.042585144042968750e+02,-1.165611419677734375e+02,6.409461975097656250e+01,-3.594747543334960938e+01
3.076260089874267578e-01,2.000000000000000000e+00,6.495577335357666016e+00,1.038699722290039062e+01,3.485750961303710938e+01,-1.106798858642578125e+02,9.043204498291015625e+01,-6.601189422607421875e+01,5.108714675903320312e+01,-1.517264747619628906e+01,-1.042739562988281250e+02,-1.166162185668945312e+02,6.409031677246093750e+01,-3.597834777832031250e+01
3.116070032119750977e-01,2.000000000000000000e+00,6.524570941925048828e+00,1.034040260314941406e+01,3.485094070434570312e+01,-1.107344589233398438e+02,9.043396759033203125e+01,-6.603604125976562500e+01,5.101463699340820312e+01,-1.516321659088134766e+01,-1.042895202636718750e+02,-1.166714324951171875e+02,6.408602142333984375e+01,-3.600998687744140625e+01
3.158029913902282715e-01,2.000000000000000000e+00,6.553421974182128906e+00,1.029374027252197266e+01,3.484437561035156250e+01,-1.107884521484375000e+02,9.043610382080078125e+01,-6.606072235107421875e+01,5.094262313842773438e+01,-1.515396976470947266e+01,-1.043048477172851562e+02,-1.167258605957031250e+02,6.408164978027343750e+01,-3.604195404052734375e+01
3.186669945716857910e-01,2.000000000000000000e+00,6.582099914550781250e+00,1.024721240997314453e+01,3.483770370483398438e+01,-1.108432312011718750e+02,9.043817901611328125e+01,-6.608547210693359375e+01,5.087033081054687500e+01,-1.514490604400634766e+01,-1.043203582763671875e+02,-1.167811584472656250e+02,6.407742309570312500e+01,-3.607283020019531250e+01
3.236750066280364990e-01,2.000000000000000000e+00,6.582099914550781250e+00,1.024721240997314453e+01,3.483770370483398438e+01,-1.108432312011718750e+02,9.043817901611328125e+01,-6.608547210693359375e+01,5.087033081054687500e+01,-1.514490604400634766e+01,-1.043203582763671875e+02,-1.167811584472656250e+02,6.407742309570312500e+01,-3.607283020019531250e+01
3.276450037956237793e-01,2.000000000000000000e+00,6.639886379241943359e+00,1.015366077423095703e+01,3.482438659667968750e+01,-1.109518432617187500e+02,9.044245147705078125e+01,-6.613566589355468750e+01,5.072443389892578125e+01,-1.512677955627441406e+01,-1.043510284423828125e+02,-1.168915176391601562e+02,6.406991577148437500e+01,-3.613413238525390625e+01
3.316169977188110352e-01,2.000000000000000000e+00,6.668421268463134766e+00,1.010670375823974609e+01,3.481796264648437500e+01,-1.110062484741210938e+02,9.044463348388671875e+01,-6.615980529785156250e+01,5.065175628662109375e+01,-1.511748695373535156e+01,-1.043663635253906250e+02,-1.169467315673828125e+02,6.406554412841796875e+01,-3.616599273681640625e+01
3.356670141220092773e-01,2.000000000000000000e+00,6.696984291076660156e+00,1.005988216400146484e+01,3.481145477294921875e+01,-1.110600280761718750e+02,9.044670867919921875e+01,-6.618367004394531250e+01,5.057985305786132812e+01,-1.510837650299072266e+01,-1.043821334838867188e+02,-1.170021667480468750e+02,6.406139373779296875e+01,-3.619587326049804688e+01
3.420239984989166260e-01,2.000000000000000000e+00,6.725634098052978516e+00,1.001278972625732422e+01,3.480478668212890625e+01,-1.111144485473632812e+02,9.044895172119140625e+01,-6.620795440673828125e+01,5.050767135620117188e+01,-1.509917640686035156e+01,-1.043978042602539062e+02,-1.170568923950195312e+02,6.405760192871093750e+01,-3.622564697265625000e+01
3.434439897537231445e-01,2.000000000000000000e+00,6.754426479339599609e+00,9.965809822082519531e+00,3.479815673828125000e+01,-1.111688079833984375e+02,9.045108032226562500e+01,-6.623217010498046875e+01,5.043472671508789062e+01,-1.509002113342285156e+01,-1.044130859375000000e+02,-1.171120376586914062e+02,6.405344390869140625e+01,-3.625662994384765625e+01
3.498130142688751221e-01,2.000000000000000000e+00,6.754426479339599609e+00,9.965809822082519531e+00,3.479815673828125000e+01,-1.111688079833984375e+02,9.045108032226562500e+01,-6.623217010498046875e+01,5.036155319213867188e+01,-1.508072853088378906e+01,-1.044280929565429688e+02,-1.171669616699218750e+02,6.404951477050781250e+01,-3.628837966918945312e+01
3.515430092811584473e-01,2.000000000000000000e+00,6.812271118164062500e+00,9.871736526489257812e+00,3.478486251831054688e+01,-1.112774200439453125e+02,9.045556640625000000e+01,-6.628166961669921875e+01,5.028866195678710938e+01,-1.507111454010009766e+01,-1.044432754516601562e+02,-1.172217559814453125e+02,6.404543304443359375e+01,-3.631914138793945312e+01
3.566980063915252686e-01,2.000000000000000000e+00,6.812271118164062500e+00,9.871736526489257812e+00,3.478486251831054688e+01,-1.112774200439453125e+02,9.045556640625000000e+01,-6.628166961669921875e+01,5.028866195678710938e+01,-1.507111454010009766e+01,-1.044432754516601562e+02,-1.172217559814453125e+02,6.404543304443359375e+01,-3.631914138793945312e+01
3.596790134906768799e-01,2.000000000000000000e+00,6.869856834411621094e+00,9.777438163757324219e+00,3.477170944213867188e+01,-1.113856124877929688e+02,9.045993804931640625e+01,-6.633138275146484375e+01,5.014424514770507812e+01,-1.505179691314697266e+01,-1.044736175537109375e+02,-1.173319854736328125e+02,6.403683471679687500e+01,-3.637879562377929688e+01
3.646939992904663086e-01,2.000000000000000000e+00,6.869856834411621094e+00,9.777438163757324219e+00,3.477170944213867188e+01,-1.113856124877929688e+02,9.045993804931640625e+01,-6.633138275146484375e+01,5.007085800170898438e+01,-1.504232215881347656e+01,-1.044888458251953125e+02,-1.173871994018554688e+02,6.403282928466796875e+01,-3.641021728515625000e+01
3.684409856796264648e-01,2.000000000000000000e+00,6.927959442138671875e+00,9.683138847351074219e+00,3.475877380371093750e+01,-1.114948043823242188e+02,9.046441650390625000e+01,-6.637871551513671875e+01,4.999735641479492188e+01,-1.503316593170166016e+01,-1.045038528442382812e+02,-1.174427032470703125e+02,6.402852630615234375e+01,-3.644076156616210938e+01
3.719600141048431396e-01,2.000000000000000000e+00,6.957010746002197266e+00,9.636181831359863281e+00,3.475217056274414062e+01,-1.115493698120117188e+02,9.046681213378906250e+01,-6.640279388427734375e+01,4.992490386962890625e+01,-1.502369117736816406e+01,-1.045188674926757812e+02,-1.174968490600585938e+02,6.402416229248046875e+01,-3.647009277343750000e+01
3.756349980831146240e-01,2.000000000000000000e+00,6.985861301422119141e+00,9.589134216308593750e+00,3.474556350708007812e+01,-1.116032638549804688e+02,9.046905517578125000e+01,-6.642774963378906250e+01,4.985310745239257812e+01,-1.501407718658447266e+01,-1.045343093872070312e+02,-1.175517120361328125e+02,6.401992797851562500e+01,-3.650096511840820312e+01
3.806299865245819092e-01,2.000000000000000000e+00,6.985861301422119141e+00,9.589134216308593750e+00,3.474556350708007812e+01,-1.116032638549804688e+02,9.046905517578125000e+01,-6.642774963378906250e+01,4.985310745239257812e+01,-1.501407718658447266e+01,-1.045343093872070312e+02,-1.175517120361328125e+02,6.401992797851562500e+01,-3.650096511840820312e+01
3.836210072040557861e-01,2.000000000000000000e+00,7.043791294097900391e+00,9.495310783386230469e+00,3.473213958740234375e+01,-1.117122497558593750e+02,9.047331237792968750e+01,-6.647691345214843750e+01,4.970732116699218750e+01,-1.499535560607910156e+01,-1.045647201538085938e+02,-1.176612091064453125e+02,6.401118469238281250e+01,-3.656369781494140625e+01
3.876590132713317871e-01,2.000000000000000000e+00,7.043791294097900391e+00,9.495310783386230469e+00,3.473213958740234375e+01,-1.117122497558593750e+02,9.047331237792968750e+01,-6.647691345214843750e+01,4.970732116699218750e+01,-1.499535560607910156e+01,-1.045647201538085938e+02,-1.176612091064453125e+02,6.401118469238281250e+01,-3.656369781494140625e+01
3.918710052967071533e-01,2.000000000000000000e+00,7.072670459747314453e+00,9.448127746582031250e+00,3.472537231445312500e+01,-1.117660751342773438e+02,9.047576904296875000e+01,-6.650180053710937500e+01,4.963338088989257812e+01,-1.498606204986572266e+01,-1.045797271728515625e+02,-1.177154998779296875e+02,6.400733184814453125e+01,-3.659423828125000000e+01
3.983300030231475830e-01,2.000000000000000000e+00,7.101521015167236328e+00,9.401351928710937500e+00,3.471860122680664062e+01,-1.118205947875976562e+02,9.047800445556640625e+01,-6.652601623535156250e+01,4.948869323730468750e+01,-1.496660804748535156e+01,-1.046105651855468750e+02,-1.178259277343750000e+02,6.399865341186523438e+01,-3.665697097778320312e+01
3.999559879302978516e-01,2.000000000000000000e+00,7.159135341644287109e+00,9.307911872863769531e+00,3.470558929443359375e+01,-1.119281005859375000e+02,9.048264312744140625e+01,-6.657301330566406250e+01,4.941617965698242188e+01,-1.495726966857910156e+01,-1.046260681152343750e+02,-1.178810043334960938e+02,6.399443435668945312e+01,-3.668740081787109375e+01
4.063909947872161865e-01,2.000000000000000000e+00,7.159135341644287109e+00,9.307911872863769531e+00,3.470558929443359375e+01,-1.119281005859375000e+02,9.048264312744140625e+01,-6.657301330566406250e+01,4.934284973144531250e+01,-1.494825172424316406e+01,-1.046411819458007812e+02,-1.179359359741210938e+02,6.399034881591796875e+01,-3.671684646606445312e+01
4.079720079898834229e-01,2.000000000000000000e+00,7.216692447662353516e+00,9.214246749877929688e+00,3.469241333007812500e+01,-1.120367126464843750e+02,9.048701477050781250e+01,-6.662143707275390625e+01,4.926973342895507812e+01,-1.493932437896728516e+01,-1.046561965942382812e+02,-1.179906616210937500e+02,6.398648834228515625e+01,-3.674716949462890625e+01
4.127019941806793213e-01,2.000000000000000000e+00,7.216692447662353516e+00,9.214246749877929688e+00,3.469241333007812500e+01,-1.120367126464843750e+02,9.048701477050781250e+01,-6.662143707275390625e+01,4.926973342895507812e+01,-1.493932437896728516e+01,-1.046561965942382812e+02,-1.179906616210937500e+02,6.398648834228515625e+01,-3.674716949462890625e+01
4.166480004787445068e-01,2.000000000000000000e+00,7.274422168731689453e+00,9.120899200439453125e+00,3.467917633056640625e+01,-1.121452789306640625e+02,9.049187469482421875e+01,-6.667114257812500000e+01,4.912564849853515625e+01,-1.492083168029785156e+01,-1.046872558593750000e+02,-1.181002273559570312e+02,6.397759628295898438e+01,-3.680912780761718750e+01
4.203320145606994629e-01,2.000000000000000000e+00,7.303358078002929688e+00,9.074145317077636719e+00,3.467255020141601562e+01,-1.121987915039062500e+02,9.049405670166015625e+01,-6.669569396972656250e+01,4.905352020263671875e+01,-1.491162967681884766e+01,-1.047026443481445312e+02,-1.181541595458984375e+02,6.397381210327148438e+01,-3.683978271484375000e+01
4.236750006675720215e-01,2.000000000000000000e+00,7.332036495208740234e+00,9.027527809143066406e+00,3.466598510742187500e+01,-1.122530441284179688e+02,9.049624633789062500e+01,-6.671963500976562500e+01,4.897996902465820312e+01,-1.490233707427978516e+01,-1.047177124023437500e+02,-1.182092361450195312e+02,6.396973037719726562e+01,-3.687076568603515625e+01
4.277629852294921875e-01,2.000000000000000000e+00,7.332036495208740234e+00,9.027527809143066406e+00,3.466598510742187500e+01,-1.122530441284179688e+02,9.049624633789062500e+01,-6.671963500976562500e+01,4.897996902465820312e+01,-1.490233707427978516e+01,-1.047177124023437500e+02,-1.182092361450195312e+02,6.396973037719726562e+01,-3.687076568603515625e+01
4.318630099296569824e-01,2.000000000000000000e+00,7.390024185180664062e+00,8.934156417846679688e+00,3.465317535400390625e+01,-1.123612899780273438e+02,9.050082397460937500e+01,-6.676690673828125000e+01,4.883456420898437500e+01,-1.488407325744628906e+01,-1.047483825683593750e+02,-1.183193130493164062e+02,6.396157455444335938e+01,-3.693250656127929688e+01
4.356789886951446533e-01,2.000000000000000000e+00,7.390024185180664062e+00,8.934156417846679688e+00,3.465317535400390625e+01,-1.123612899780273438e+02,9.050082397460937500e+01,-6.676690673828125000e+01,4.883456420898437500e+01,-1.488407325744628906e+01,-1.047483825683593750e+02,-1.183193130493164062e+02,6.396157455444335938e+01,-3.693250656127929688e+01
4.396980106830596924e-01,2.000000000000000000e+00,7.418673992156982422e+00,8.887448310852050781e+00,3.464668655395507812e+01,-1.124160766601562500e+02,9.050312042236328125e+01,-6.679117584228515625e+01,4.876304244995117188e+01,-1.487464237213134766e+01,-1.047638320922851562e+02,-1.183745269775390625e+02,6.395712661743164062e+01,-3.696294021606445312e+01
4.452140033245086670e-01,2.000000000000000000e+00,7.476402759552001953e+00,8.794077873229980469e+00,3.463351440429687500e+01,-1.125237960815429688e+02,9.050754547119140625e+01,-6.684061431884765625e+01,4.861775207519531250e+01,-1.485601139068603516e+01,-1.047947235107421875e+02,-1.184841842651367188e+02,6.394889068603515625e+01,-3.702424240112304688e+01
4.479779899120330811e-01,2.000000000000000000e+00,7.505081176757812500e+00,8.747391700744628906e+00,3.462692642211914062e+01,-1.125783081054687500e+02,9.050956726074218750e+01,-6.686537170410156250e+01,4.854452514648437500e+01,-1.484685707092285156e+01,-1.048101730346679688e+02,-1.185388870239257812e+02,6.394466781616210938e+01,-3.705423736572265625e+01
4.516589939594268799e-01,2.000000000000000000e+00,7.505081176757812500e+00,8.747391700744628906e+00,3.462692642211914062e+01,-1.125783081054687500e+02,9.050956726074218750e+01,-6.686537170410156250e+01,4.854452514648437500e+01,-1.484685707092285156e+01,-1.048101730346679688e+02,-1.185388870239257812e+02,6.394466781616210938e+01,-3.705423736572265625e+01
4.556680023670196533e-01,2.000000000000000000e+00,7.533788204193115234e+00,8.700548171997070312e+00,3.462015151977539062e+01,-1.126322479248046875e+02,9.051186370849609375e+01,-6.688971710205078125e+01,4.847223663330078125e+01,-1.483774757385253906e+01,-1.048249053955078125e+02,-1.185932464599609375e+02,6.394014739990234375e+01,-3.708455657958984375e+01
4.596810042858123779e-01,2.000000000000000000e+00,7.562810897827148438e+00,8.653613090515136719e+00,3.461342620849609375e+01,-1.126867141723632812e+02,9.051393890380859375e+01,-6.691345214843750000e+01,4.840060806274414062e+01,-1.482849979400634766e+01,-1.048400344848632812e+02,-1.186476821899414062e+02,6.393592071533203125e+01,-3.711521148681640625e+01
4.636569917201995850e-01,2.000000000000000000e+00,7.591431617736816406e+00,8.606769561767578125e+00,3.460683822631835938e+01,-1.127404937744140625e+02,9.051602172851562500e+01,-6.693718719482421875e+01,4.832831573486328125e+01,-1.481925296783447266e+01,-1.048553619384765625e+02,-1.187026748657226562e+02,6.393162155151367188e+01,-3.714553451538085938e+01
4.676960110664367676e-01,2.000000000000000000e+00,7.619965553283691406e+00,8.559925079345703125e+00,3.460020828247070312e+01,-1.127941131591796875e+02,9.051821136474609375e+01,-6.696092224121093750e+01,4.825514602661132812e+01,-1.481000709533691406e+01,-1.048704833984375000e+02,-1.187570495605468750e+02,6.392703247070312500e+01,-3.717442703247070312e+01
4.719730019569396973e-01,2.000000000000000000e+00,7.648673057556152344e+00,8.512990951538085938e+00,3.459370422363281250e+01,-1.128483200073242188e+02,9.052033996582031250e+01,-6.698533630371093750e+01,4.818186569213867188e+01,-1.480094337463378906e+01,-1.048858718872070312e+02,-1.188122634887695312e+02,6.392244338989257812e+01,-3.720497131347656250e+01
4.756590127944946289e-01,2.000000000000000000e+00,7.677379608154296875e+00,8.466079711914062500e+00,3.458713531494140625e+01,-1.129023132324218750e+02,9.052236938476562500e+01,-6.700995635986328125e+01,4.811001586914062500e+01,-1.479160499572753906e+01,-1.049011611938476562e+02,-1.188675460815429688e+02,6.391828918457031250e+01,-3.723682785034179688e+01
4.796560108661651611e-01,2.000000000000000000e+00,7.706316471099853516e+00,8.419348716735839844e+00,3.458042526245117188e+01,-1.129565124511718750e+02,9.052449798583984375e+01,-6.703491210937500000e+01,4.803849792480468750e+01,-1.478231239318847656e+01,-1.049163818359375000e+02,-1.189214782714843750e+02,6.391435623168945312e+01,-3.726802825927734375e+01
4.837279915809631348e-01,2.000000000000000000e+00,7.735309600830078125e+00,8.372368812561035156e+00,3.457379531860351562e+01,-1.130104446411132812e+02,9.052642059326171875e+01,-6.705966186523437500e+01,4.796582031250000000e+01,-1.477288150787353516e+01,-1.049316177368164062e+02,-1.189757614135742188e+02,6.391020202636718750e+01,-3.729879379272460938e+01
4.876590073108673096e-01,2.000000000000000000e+00,7.764045238494873047e+00,8.325275421142578125e+00,3.456720733642578125e+01,-1.130642242431640625e+02,9.052833557128906250e+01,-6.708353424072265625e+01,4.789259719848632812e+01,-1.476340579986572266e+01,-1.049467926025390625e+02,-1.190306243896484375e+02,6.390575790405273438e+01,-3.732845687866210938e+01
4.916720092296600342e-01,2.000000000000000000e+00,7.792752265930175781e+00,8.278341293334960938e+00,3.456050109863281250e+01,-1.131185379028320312e+02,9.053057861328125000e+01,-6.710747528076171875e+01,4.781937408447265625e+01,-1.475402164459228516e+01,-1.049619598388671875e+02,-1.190846252441406250e+02,6.390102386474609375e+01,-3.735823059082031250e+01
4.961529970169067383e-01,2.000000000000000000e+00,7.821746826171875000e+00,8.231248855590820312e+00,3.455381011962890625e+01,-1.131727371215820312e+02,9.053250122070312500e+01,-6.713127899169921875e+01,4.774774169921875000e+01,-1.474495792388916016e+01,-1.049771957397460938e+02,-1.191391296386718750e+02,6.389723205566406250e+01,-3.738887786865234375e+01
4.997389912605285645e-01,2.000000000000000000e+00,7.850625514984130859e+00,8.184631347656250000e+00,3.454730606079101562e+01,-1.132265167236328125e+02,9.053446960449218750e+01,-6.715556335449218750e+01,4.767589187622070312e+01,-1.473571109771728516e+01,-1.049923171997070312e+02,-1.191941909790039062e+02,6.389315414428710938e+01,-3.741886901855468750e+01
5.036529898643493652e-01,2.000000000000000000e+00,7.879303932189941406e+00,8.137968063354492188e+00,3.454094314575195312e+01,-1.132811431884765625e+02,9.053660583496093750e+01,-6.718024444580078125e+01,4.760354614257812500e+01,-1.472628211975097656e+01,-1.050073776245117188e+02,-1.192486267089843750e+02,6.388892745971679688e+01,-3.744886398315429688e+01
5.076779723167419434e-01,2.000000000000000000e+00,7.908124446868896484e+00,8.091192245483398438e+00,3.453451538085937500e+01,-1.133348159790039062e+02,9.053846740722656250e+01,-6.720493316650390625e+01,4.753032302856445312e+01,-1.471685123443603516e+01,-1.050227203369140625e+02,-1.193037796020507812e+02,6.388477325439453125e+01,-3.748039627075195312e+01
5.117980241775512695e-01,2.000000000000000000e+00,7.936716556549072266e+00,8.044439315795898438e+00,3.452784729003906250e+01,-1.133888626098632812e+02,9.054027557373046875e+01,-6.722975158691406250e+01,4.745748519897460938e+01,-1.470751285552978516e+01,-1.050382156372070312e+02,-1.193585510253906250e+02,6.388047027587890625e+01,-3.751269531250000000e+01
5.156900286674499512e-01,2.000000000000000000e+00,7.965337753295898438e+00,7.997617244720458984e+00,3.452116012573242188e+01,-1.134433746337890625e+02,9.054230499267578125e+01,-6.725416564941406250e+01,4.738563156127929688e+01,-1.469813060760498047e+01,-1.050535583496093750e+02,-1.194125518798828125e+02,6.387625122070312500e+01,-3.754279708862304688e+01
5.233479738235473633e-01,2.000000000000000000e+00,8.023010253906250000e+00,7.904246807098388672e+00,3.450790405273437500e+01,-1.135514678955078125e+02,9.054625701904296875e+01,-6.730183410644531250e+01,4.724127197265625000e+01,-1.467963600158691406e+01,-1.050834121704101562e+02,-1.195222091674804688e+02,6.386765289306640625e+01,-3.760420989990234375e+01
5.247529745101928711e-01,2.000000000000000000e+00,8.051687240600585938e+00,7.857605934143066406e+00,3.450117111206054688e+01,-1.136051406860351562e+02,9.054811859130859375e+01,-6.732598114013671875e+01,4.716821289062500000e+01,-1.467016029357910156e+01,-1.050988616943359375e+02,-1.195761337280273438e+02,6.386379241943359375e+01,-3.763574218750000000e+01
5.277289748191833496e-01,2.000000000000000000e+00,8.051687240600585938e+00,7.857605934143066406e+00,3.450117111206054688e+01,-1.136051406860351562e+02,9.054811859130859375e+01,-6.732598114013671875e+01,4.716821289062500000e+01,-1.467016029357910156e+01,-1.050988616943359375e+02,-1.195761337280273438e+02,6.386379241943359375e+01,-3.763574218750000000e+01
5.316669940948486328e-01,2.000000000000000000e+00,8.080222129821777344e+00,7.811033248901367188e+00,3.449456787109375000e+01,-1.136585464477539062e+02,9.055014801025390625e+01,-6.735033416748046875e+01,4.709548187255859375e+01,-1.466077613830566406e+01,-1.051141967773437500e+02,-1.196308441162109375e+02,6.385934448242187500e+01,-3.766540527343750000e+01
5.356690287590026855e-01,2.000000000000000000e+00,8.108871459960937500e+00,7.764393329620361328e+00,3.448809814453125000e+01,-1.137131729125976562e+02,9.055207061767578125e+01,-6.737453460693359375e+01,4.702330398559570312e+01,-1.465139102935791016e+01,-1.051291503906250000e+02,-1.196854858398437500e+02,6.385490036010742188e+01,-3.769474029541015625e+01
5.397689938545227051e-01,2.000000000000000000e+00,8.137463569641113281e+00,7.717526435852050781e+00,3.448167419433593750e+01,-1.137667922973632812e+02,9.055403137207031250e+01,-6.739936065673828125e+01,4.695172882080078125e+01,-1.464246559143066406e+01,-1.051445465087890625e+02,-1.197405014038085938e+02,6.385052871704101562e+01,-3.772561264038085938e+01
5.456759929656982422e-01,2.000000000000000000e+00,8.166314125061035156e+00,7.671203136444091797e+00,3.447508621215820312e+01,-1.138205718994140625e+02,9.055595397949218750e+01,-6.742438507080078125e+01,4.687943649291992188e+01,-1.463353919982910156e+01,-1.051598281860351562e+02,-1.197950744628906250e+02,6.384666824340820312e+01,-3.775714111328125000e+01
5.487009882926940918e-01,2.000000000000000000e+00,8.223814010620117188e+00,7.577719211578369141e+00,3.446193313598632812e+01,-1.139282913208007812e+02,9.055979156494140625e+01,-6.747232818603515625e+01,4.673304748535156250e+01,-1.461499977111816406e+01,-1.051899108886718750e+02,-1.199041519165039062e+02,6.383814620971679688e+01,-3.781767654418945312e+01
5.517190098762512207e-01,2.000000000000000000e+00,8.223814010620117188e+00,7.577719211578369141e+00,3.446193313598632812e+01,-1.139282913208007812e+02,9.055979156494140625e+01,-6.747232818603515625e+01,4.673304748535156250e+01,-1.461499977111816406e+01,-1.051899108886718750e+02,-1.199041519165039062e+02,6.383814620971679688e+01,-3.781767654418945312e+01
5.556939840316772461e-01,2.000000000000000000e+00,8.252491950988769531e+00,7.531056404113769531e+00,3.445532226562500000e+01,-1.139825439453125000e+02,9.056176757812500000e+01,-6.749586486816406250e+01,4.666080856323242188e+01,-1.460575199127197266e+01,-1.052054595947265625e+02,-1.199595031738281250e+02,6.383354949951171875e+01,-3.784953308105468750e+01
5.597969889640808105e-01,2.000000000000000000e+00,8.281112670898437500e+00,7.484348297119140625e+00,3.444871520996093750e+01,-1.140369110107421875e+02,9.056358337402343750e+01,-6.751993560791015625e+01,4.658906936645507812e+01,-1.459673404693603516e+01,-1.052210693359375000e+02,-1.200127105712890625e+02,6.382983398437500000e+01,-3.788029861450195312e+01
5.637170076370239258e-01,2.000000000000000000e+00,8.309934616088867188e+00,7.437685012817382812e+00,3.444211196899414062e+01,-1.140905303955078125e+02,9.056533813476562500e+01,-6.754441833496093750e+01,4.651661300659179688e+01,-1.458757972717285156e+01,-1.052360763549804688e+02,-1.200669250488281250e+02,6.382589721679687500e+01,-3.790853500366210938e+01
5.688840150833129883e-01,2.000000000000000000e+00,8.338669776916503906e+00,7.391135692596435547e+00,3.443572235107421875e+01,-1.141449966430664062e+02,9.056731414794921875e+01,-6.756876373291015625e+01,4.644366455078125000e+01,-1.457842445373535156e+01,-1.052511444091796875e+02,-1.201224288940429688e+02,6.382196426391601562e+01,-3.793797683715820312e+01
5.726979970932006836e-01,2.000000000000000000e+00,8.395997047424316406e+00,7.297809600830078125e+00,3.442293548583984375e+01,-1.142525024414062500e+02,9.057147216796875000e+01,-6.761840820312500000e+01,4.629870223999023438e+01,-1.455988502502441406e+01,-1.052821502685546875e+02,-1.202317962646484375e+02,6.381300354003906250e+01,-3.799806976318359375e+01
5.758209824562072754e-01,2.000000000000000000e+00,8.395997047424316406e+00,7.297809600830078125e+00,3.442293548583984375e+01,-1.142525024414062500e+02,9.057147216796875000e+01,-6.761840820312500000e+01,4.629870223999023438e+01,-1.455988502502441406e+01,-1.052821502685546875e+02,-1.202317962646484375e+02,6.381300354003906250e+01,-3.799806976318359375e+01
5.800129771232604980e-01,2.000000000000000000e+00,8.424761772155761719e+00,7.251169681549072266e+00,3.441634750366210938e+01,-1.143070678710937500e+02,9.057328033447265625e+01,-6.764228057861328125e+01,4.622734451293945312e+01,-1.455086612701416016e+01,-1.052974853515625000e+02,-1.202863693237304688e+02,6.380943298339843750e+01,-3.802817535400390625e+01
5.838540196418762207e-01,2.000000000000000000e+00,8.453268051147460938e+00,7.204280376434326172e+00,3.440966033935546875e+01,-1.143608016967773438e+02,9.057525634765625000e+01,-6.766547393798828125e+01,4.615522003173828125e+01,-1.454194068908691406e+01,-1.053125534057617188e+02,-1.203406524658203125e+02,6.380535507202148438e+01,-3.805926513671875000e+01
5.878360271453857422e-01,2.000000000000000000e+00,8.482117652893066406e+00,7.157549381256103516e+00,3.440313339233398438e+01,-1.144150009155273438e+02,9.057723236083984375e+01,-6.768948364257812500e+01,4.608221435546875000e+01,-1.453296756744384766e+01,-1.053275070190429688e+02,-1.203955841064453125e+02,6.380083847045898438e+01,-3.809145736694335938e+01
5.928369760513305664e-01,2.000000000000000000e+00,8.510825157165527344e+00,7.110818862915039062e+00,3.439646530151367188e+01,-1.144687805175781250e+02,9.057914733886718750e+01,-6.771335601806640625e+01,4.600926589965820312e+01,-1.452385997772216797e+01,-1.053429489135742188e+02,-1.204500198364257812e+02,6.379646682739257812e+01,-3.812166595458984375e+01
5.974100232124328613e-01,2.000000000000000000e+00,8.539416313171386719e+00,7.064200878143310547e+00,3.438973236083984375e+01,-1.145219268798828125e+02,9.058106994628906250e+01,-6.773777008056640625e+01,4.593741607666015625e+01,-1.451442909240722656e+01,-1.053586120605468750e+02,-1.205043716430664062e+02,6.379260253906250000e+01,-3.815089416503906250e+01
6.006569862365722656e-01,2.000000000000000000e+00,8.567951202392578125e+00,7.017470359802246094e+00,3.438304519653320312e+01,-1.145761871337890625e+02,9.058309936523437500e+01,-6.776251983642578125e+01,4.586556243896484375e+01,-1.450541114807128906e+01,-1.053740081787109375e+02,-1.205590820312500000e+02,6.378837966918945312e+01,-3.818186950683593750e+01
6.040599942207336426e-01,2.000000000000000000e+00,8.596657752990722656e+00,6.970694541931152344e+00,3.437651824951171875e+01,-1.146303863525390625e+02,9.058496093750000000e+01,-6.778713226318359375e+01,4.579322052001953125e+01,-1.449643802642822266e+01,-1.053891754150390625e+02,-1.206140899658203125e+02,6.378407669067382812e+01,-3.821450424194335938e+01
6.066169738769531250e-01,2.000000000000000000e+00,8.625393867492675781e+00,6.924054145812988281e+00,3.436996841430664062e+01,-1.146845321655273438e+02,9.058720397949218750e+01,-6.781148529052734375e+01,4.572032546997070312e+01,-1.448737430572509766e+01,-1.054042968750000000e+02,-1.206688003540039062e+02,6.377992630004882812e+01,-3.824526596069335938e+01
6.119949817657470703e-01,2.000000000000000000e+00,8.654244422912597656e+00,6.877277851104736328e+00,3.436340332031250000e+01,-1.147382049560546875e+02,9.058906555175781250e+01,-6.783522033691406250e+01,4.564781570434570312e+01,-1.447789955139160156e+01,-1.054194793701171875e+02,-1.207235946655273438e+02,6.377621078491210938e+01,-3.827426528930664062e+01
6.170759797096252441e-01,2.000000000000000000e+00,8.683036804199218750e+00,6.830546855926513672e+00,3.435675811767578125e+01,-1.147914657592773438e+02,9.059098815917968750e+01,-6.785868072509765625e+01,4.557629394531250000e+01,-1.446837806701660156e+01,-1.054346466064453125e+02,-1.207783050537109375e+02,6.377198028564453125e+01,-3.830503082275390625e+01
6.186190247535705566e-01,2.000000000000000000e+00,8.711743354797363281e+00,6.783793926239013672e+00,3.435017013549804688e+01,-1.148457107543945312e+02,9.059306335449218750e+01,-6.788262176513671875e+01,4.550482940673828125e+01,-1.445894718170166016e+01,-1.054498214721679688e+02,-1.208330307006835938e+02,6.376753997802734375e+01,-3.833656311035156250e+01
6.245579719543457031e-01,2.000000000000000000e+00,8.768956184387207031e+00,6.690694332122802734e+00,3.433695220947265625e+01,-1.149539184570312500e+02,9.059727478027343750e+01,-6.793124389648437500e+01,4.535953521728515625e+01,-1.444068336486816406e+01,-1.054794082641601562e+02,-1.209413146972656250e+02,6.375930404663085938e+01,-3.839577484130859375e+01
6.282089948654174805e-01,2.000000000000000000e+00,8.768956184387207031e+00,6.690694332122802734e+00,3.433695220947265625e+01,-1.149539184570312500e+02,9.059727478027343750e+01,-6.793124389648437500e+01,4.535953521728515625e+01,-1.444068336486816406e+01,-1.054794082641601562e+02,-1.209413146972656250e+02,6.375930404663085938e+01,-3.839577484130859375e+01
6.322619915008544922e-01,2.000000000000000000e+00,8.797692298889160156e+00,6.644053936004638672e+00,3.433036422729492188e+01,-1.150084228515625000e+02,9.059925079345703125e+01,-6.795587158203125000e+01,4.528669738769531250e+01,-1.443148136138916016e+01,-1.054944763183593750e+02,-1.209958877563476562e+02,6.375537109375000000e+01,-3.842664718627929688e+01
6.360939741134643555e-01,2.000000000000000000e+00,8.826340675354003906e+00,6.597414016723632812e+00,3.432398223876953125e+01,-1.150617370605468750e+02,9.060154724121093750e+01,-6.798034667968750000e+01,4.521528244018554688e+01,-1.442218875885009766e+01,-1.055099792480468750e+02,-1.210510330200195312e+02,6.375092315673828125e+01,-3.845883941650390625e+01
6.386219859123229980e-01,2.000000000000000000e+00,8.855076789855957031e+00,6.550954341888427734e+00,3.431767654418945312e+01,-1.151155166625976562e+02,9.060346221923828125e+01,-6.800449371337890625e+01,4.514392852783203125e+01,-1.441271400451660156e+01,-1.055251541137695312e+02,-1.211056747436523438e+02,6.374648284912109375e+01,-3.848937988281250000e+01
6.447759866714477539e-01,2.000000000000000000e+00,8.883697509765625000e+00,6.504291534423828125e+00,3.431125259399414062e+01,-1.151698150634765625e+02,9.060565185546875000e+01,-6.802781677246093750e+01,4.507136535644531250e+01,-1.440365028381347656e+01,-1.055402145385742188e+02,-1.211603851318359375e+02,6.374247360229492188e+01,-3.851849365234375000e+01
6.490030288696289062e-01,2.000000000000000000e+00,8.912146568298339844e+00,6.457606315612792969e+00,3.430464553833007812e+01,-1.152235412597656250e+02,9.060772705078125000e+01,-6.805155181884765625e+01,4.499808502197265625e+01,-1.439431095123291016e+01,-1.055551757812500000e+02,-1.212154617309570312e+02,6.373846435546875000e+01,-3.854903411865234375e+01
6.506159901618957520e-01,2.000000000000000000e+00,8.941053390502929688e+00,6.411124229431152344e+00,3.429805755615234375e+01,-1.152777481079101562e+02,9.060975646972656250e+01,-6.807556152343750000e+01,4.492518997192382812e+01,-1.438501930236816406e+01,-1.055704574584960938e+02,-1.212693939208984375e+02,6.373431396484375000e+01,-3.857968902587890625e+01
6.566770076751708984e-01,2.000000000000000000e+00,8.969616889953613281e+00,6.364574432373046875e+00,3.429149246215820312e+01,-1.153312683105468750e+02,9.061188507080078125e+01,-6.809977722167968750e+01,4.485372161865234375e+01,-1.437558937072753906e+01,-1.055858459472656250e+02,-1.213237533569335938e+02,6.373023605346679688e+01,-3.860989761352539062e+01
6.602609753608703613e-01,2.000000000000000000e+00,8.998208999633789062e+00,6.318069934844970703e+00,3.428482055664062500e+01,-1.153845748901367188e+02,9.061390686035156250e+01,-6.812445831298828125e+01,4.478225708007812500e+01,-1.436588382720947266e+01,-1.056008071899414062e+02,-1.213786773681640625e+02,6.372593307495117188e+01,-3.863890457153320312e+01
6.655099987983703613e-01,2.000000000000000000e+00,9.026886940002441406e+00,6.271543025970458984e+00,3.427811431884765625e+01,-1.154388351440429688e+02,9.061614990234375000e+01,-6.814927673339843750e+01,4.470969390869140625e+01,-1.435663795471191406e+01,-1.056158142089843750e+02,-1.214327468872070312e+02,6.372221755981445312e+01,-3.866988372802734375e+01
6.686890125274658203e-01,2.000000000000000000e+00,9.055564880371093750e+00,6.224766731262207031e+00,3.427146530151367188e+01,-1.154923934936523438e+02,9.061833190917968750e+01,-6.817375946044921875e+01,4.463657760620117188e+01,-1.434780311584472656e+01,-1.056310424804687500e+02,-1.214873199462890625e+02,6.371828079223632812e+01,-3.870218658447265625e+01
6.736990213394165039e-01,2.000000000000000000e+00,9.084242820739746094e+00,6.178262233734130859e+00,3.426503753662109375e+01,-1.155463790893554688e+02,9.062057495117187500e+01,-6.819783782958984375e+01,4.456363296508789062e+01,-1.433892154693603516e+01,-1.056465454101562500e+02,-1.215421142578125000e+02,6.371434783935546875e+01,-3.873195648193359375e+01
6.766440272331237793e-01,2.000000000000000000e+00,9.113036155700683594e+00,6.131554603576660156e+00,3.425869750976562500e+01,-1.156005325317382812e+02,9.062270355224609375e+01,-6.822123718261718750e+01,4.449210739135742188e+01,-1.432967567443847656e+01,-1.056617736816406250e+02,-1.215966873168945312e+02,6.370989990234375000e+01,-3.876151275634765625e+01
6.807979941368103027e-01,2.000000000000000000e+00,9.141542434692382812e+00,6.084800720214843750e+00,3.425214767456054688e+01,-1.156537399291992188e+02,9.062505340576171875e+01,-6.824517822265625000e+01,4.442058563232421875e+01,-1.432042789459228516e+01,-1.056770553588867188e+02,-1.216515426635742188e+02,6.370574951171875000e+01,-3.879304504394531250e+01
6.845809817314147949e-01,2.000000000000000000e+00,9.170306205749511719e+00,6.038250923156738281e+00,3.424552154541015625e+01,-1.157076644897460938e+02,9.062712860107421875e+01,-6.826930999755859375e+01,4.434802246093750000e+01,-1.431127357482910156e+01,-1.056926651000976562e+02,-1.217060470581054688e+02,6.370116043090820312e+01,-3.882369232177734375e+01
6.897259950637817383e-01,2.000000000000000000e+00,9.199070930480957031e+00,5.991723537445068359e+00,3.423897552490234375e+01,-1.157616119384765625e+02,9.062942504882812500e+01,-6.829359436035156250e+01,4.427501678466796875e+01,-1.430225467681884766e+01,-1.057079467773437500e+02,-1.217601852416992188e+02,6.369693756103515625e+01,-3.885247802734375000e+01
6.931430101394653320e-01,2.000000000000000000e+00,9.227576255798339844e+00,5.945015907287597656e+00,3.423234558105468750e+01,-1.158150787353515625e+02,9.063176727294921875e+01,-6.831841278076171875e+01,4.420240020751953125e+01,-1.429319095611572266e+01,-1.057229537963867188e+02,-1.218148269653320312e+02,6.369278335571289062e+01,-3.888181304931640625e+01
6.946030259132385254e-01,2.000000000000000000e+00,9.256340980529785156e+00,5.898466110229492188e+00,3.422573852539062500e+01,-1.158697509765625000e+02,9.063385009765625000e+01,-6.834323883056640625e+01,4.413098907470703125e+01,-1.428394508361816406e+01,-1.057380218505859375e+02,-1.218690414428710938e+02,6.368863296508789062e+01,-3.891312026977539062e+01
7.009379863739013672e-01,2.000000000000000000e+00,9.284903526306152344e+00,5.851825714111328125e+00,3.421915054321289062e+01,-1.159235305786132812e+02,9.063614654541015625e+01,-6.836757659912109375e+01,4.405952072143554688e+01,-1.427455997467041016e+01,-1.057535858154296875e+02,-1.219229736328125000e+02,6.368425369262695312e+01,-3.894388580322265625e+01
7.048439979553222656e-01,2.000000000000000000e+00,9.313495635986328125e+00,5.805275917053222656e+00,3.421268463134765625e+01,-1.159769439697265625e+02,9.063816833496093750e+01,-6.839104461669921875e+01,4.398712158203125000e+01,-1.426513004302978516e+01,-1.057691879272460938e+02,-1.219779052734375000e+02,6.367995834350585938e+01,-3.897321701049804688e+01
7.087330222129821777e-01,2.000000000000000000e+00,9.342059135437011719e+00,5.758703708648681641e+00,3.420642089843750000e+01,-1.160310363769531250e+02,9.064046478271484375e+01,-6.841464233398437500e+01,4.391406250000000000e+01,-1.425606632232666016e+01,-1.057845230102539062e+02,-1.220325469970703125e+02,6.367566299438476562e+01,-3.900276947021484375e+01
7.137899994850158691e-01,2.000000000000000000e+00,9.370708465576171875e+00,5.712040901184082031e+00,3.419995498657226562e+01,-1.160845565795898438e+02,9.064276123046875000e+01,-6.843913269042968750e+01,4.384188079833984375e+01,-1.424714088439941406e+01,-1.057996978759765625e+02,-1.220868988037109375e+02,6.367136001586914062e+01,-3.903528976440429688e+01
7.168400287628173828e-01,2.000000000000000000e+00,9.399444580078125000e+00,5.665422916412353516e+00,3.419334793090820312e+01,-1.161384887695312500e+02,9.064483642578125000e+01,-6.846279907226562500e+01,4.377058029174804688e+01,-1.423816776275634766e+01,-1.058148727416992188e+02,-1.221421966552734375e+02,6.366706085205078125e+01,-3.906671142578125000e+01
7.207610011100769043e-01,2.000000000000000000e+00,9.428179740905761719e+00,5.618896007537841797e+00,3.418675994873046875e+01,-1.161922683715820312e+02,9.064696502685546875e+01,-6.848714447021484375e+01,4.369884109497070312e+01,-1.422915077209472656e+01,-1.058298797607421875e+02,-1.221960449218750000e+02,6.366305160522460938e+01,-3.909670257568359375e+01
7.251229882240295410e-01,2.000000000000000000e+00,9.456857681274414062e+00,5.572255611419677734e+00,3.418011474609375000e+01,-1.162456436157226562e+02,9.064942169189453125e+01,-6.851230621337890625e+01,4.362654876708984375e+01,-1.421990299224853516e+01,-1.058451690673828125e+02,-1.222506179809570312e+02,6.365897750854492188e+01,-3.912659072875976562e+01
7.265989780426025391e-01,2.000000000000000000e+00,9.485391616821289062e+00,5.525705814361572266e+00,3.417348480224609375e+01,-1.162996292114257812e+02,9.065123748779296875e+01,-6.853698730468750000e+01,4.355398559570312500e+01,-1.421065711975097656e+01,-1.058605575561523438e+02,-1.223054809570312500e+02,6.365489196777343750e+01,-3.915768051147460938e+01
7.328460216522216797e-01,2.000000000000000000e+00,9.485391616821289062e+00,5.525705814361572266e+00,3.417348480224609375e+01,-1.162996292114257812e+02,9.065123748779296875e+01,-6.853698730468750000e+01,4.348180770874023438e+01,-1.420150184631347656e+01,-1.058757858276367188e+02,-1.223594818115234375e+02,6.365073776245117188e+01,-3.918833160400390625e+01
7.356010079383850098e-01,2.000000000000000000e+00,9.542662620544433594e+00,5.432697296142578125e+00,3.416020965576171875e+01,-1.164071884155273438e+02,9.065566253662109375e+01,-6.858438873291015625e+01,4.341001129150390625e+01,-1.419248390197753906e+01,-1.058908538818359375e+02,-1.224137649536132812e+02,6.364680480957031250e+01,-3.921755218505859375e+01
7.396169900894165039e-01,2.000000000000000000e+00,9.571340560913085938e+00,5.386079311370849609e+00,3.415380477905273438e+01,-1.164610214233398438e+02,9.065805816650390625e+01,-6.860820007324218750e+01,4.333860015869140625e+01,-1.418328285217285156e+01,-1.059059219360351562e+02,-1.224684753417968750e+02,6.364302062988281250e+01,-3.924776840209960938e+01
7.436760067939758301e-01,2.000000000000000000e+00,9.600190162658691406e+00,5.339461803436279297e+00,3.414735794067382812e+01,-1.165142211914062500e+02,9.065959930419921875e+01,-6.863179779052734375e+01,4.326630783081054688e+01,-1.417399024963378906e+01,-1.059213638305664062e+02,-1.225225601196289062e+02,6.363879394531250000e+01,-3.927951812744140625e+01
7.475979924201965332e-01,2.000000000000000000e+00,9.628811836242675781e+00,5.292866706848144531e+00,3.414083099365234375e+01,-1.165682067871093750e+02,9.066168212890625000e+01,-6.865594482421875000e+01,4.319352722167968750e+01,-1.416460609436035156e+01,-1.059365997314453125e+02,-1.225772705078125000e+02,6.363456344604492188e+01,-3.931049728393554688e+01
7.514539957046508789e-01,2.000000000000000000e+00,9.657432556152343750e+00,5.246294498443603516e+00,3.413426208496093750e+01,-1.166222000122070312e+02,9.066402435302734375e+01,-6.868076324462890625e+01,4.312073898315429688e+01,-1.415517616271972656e+01,-1.059514389038085938e+02,-1.226316223144531250e+02,6.363041305541992188e+01,-3.933939361572265625e+01
7.556729912757873535e-01,2.000000000000000000e+00,9.685966491699218750e+00,5.199903011322021484e+00,3.412769699096679688e+01,-1.166757278442382812e+02,9.066610717773437500e+01,-6.870537567138671875e+01,4.304910659790039062e+01,-1.414611244201660156e+01,-1.059664535522460938e+02,-1.226857681274414062e+02,6.362611389160156250e+01,-3.937004470825195312e+01
7.596009969711303711e-01,2.000000000000000000e+00,9.714558601379394531e+00,5.153421401977539062e+00,3.412115097045898438e+01,-1.167300262451171875e+02,9.066780853271484375e+01,-6.873006439208984375e+01,4.297769927978515625e+01,-1.413714027404785156e+01,-1.059815750122070312e+02,-1.227404785156250000e+02,6.362130737304687500e+01,-3.940080642700195312e+01
7.636610269546508789e-01,2.000000000000000000e+00,9.743236541748046875e+00,5.106961727142333984e+00,3.411456298828125000e+01,-1.167833786010742188e+02,9.066978454589843750e+01,-6.875373077392578125e+01,4.290530014038085938e+01,-1.412793922424316406e+01,-1.059968566894531250e+02,-1.227944793701171875e+02,6.361693572998046875e+01,-3.942958831787109375e+01
7.676550149917602539e-01,2.000000000000000000e+00,9.771800041198730469e+00,5.060570240020751953e+00,3.410801696777343750e+01,-1.168371658325195312e+02,9.067208099365234375e+01,-6.877671813964843750e+01,4.283240509033203125e+01,-1.411850929260253906e+01,-1.060120315551757812e+02,-1.228482589721679688e+02,6.361263275146484375e+01,-3.946013259887695312e+01
7.716069817543029785e-01,2.000000000000000000e+00,9.800334930419921875e+00,5.013907909393310547e+00,3.410152816772460938e+01,-1.168915710449218750e+02,9.067410278320312500e+01,-6.880059051513671875e+01,4.275983810424804688e+01,-1.410907936096191406e+01,-1.060275802612304688e+02,-1.229029006958007812e+02,6.360818481445312500e+01,-3.949166107177734375e+01
7.755969762802124023e-01,2.000000000000000000e+00,9.829070091247558594e+00,4.967335224151611328e+00,3.409536743164062500e+01,-1.169447784423828125e+02,9.067601776123046875e+01,-6.882480621337890625e+01,4.268837356567382812e+01,-1.410001564025878906e+01,-1.060430831909179688e+02,-1.229576950073242188e+02,6.360388946533203125e+01,-3.952220535278320312e+01
7.796000242233276367e-01,2.000000000000000000e+00,9.857719421386718750e+00,4.920921325683593750e+00,3.408892440795898438e+01,-1.169988174438476562e+02,9.067789459228515625e+01,-6.884887695312500000e+01,4.261696243286132812e+01,-1.409095191955566406e+01,-1.060581512451171875e+02,-1.230118331909179688e+02,6.359966278076171875e+01,-3.955186843872070312e+01
7.836580276489257812e-01,2.000000000000000000e+00,9.886311531066894531e+00,4.874462127685546875e+00,3.408235931396484375e+01,-1.170524902343750000e+02,9.067991638183593750e+01,-6.887349700927734375e+01,4.254472732543945312e+01,-1.408161354064941406e+01,-1.060728836059570312e+02,-1.230664062500000000e+02,6.359580230712890625e+01,-3.958108901977539062e+01
7.875940203666687012e-01,2.000000000000000000e+00,9.914961814880371094e+00,4.828002929687500000e+00,3.407583236694335938e+01,-1.171058044433593750e+02,9.068189239501953125e+01,-6.889824676513671875e+01,4.247183609008789062e+01,-1.407222843170166016e+01,-1.060878448486328125e+02,-1.231209793090820312e+02,6.359150695800781250e+01,-3.961086273193359375e+01
7.916129827499389648e-01,2.000000000000000000e+00,9.943324089050292969e+00,4.781633853912353516e+00,3.406920242309570312e+01,-1.171599044799804688e+02,9.068364715576171875e+01,-6.892259216308593750e+01,4.239921188354492188e+01,-1.406293582916259766e+01,-1.061034622192382812e+02,-1.231751251220703125e+02,6.358720397949218750e+01,-3.964195632934570312e+01
7.956560254096984863e-01,2.000000000000000000e+00,9.971771240234375000e+00,4.734858036041259766e+00,3.406257247924804688e+01,-1.172134094238281250e+02,9.068572998046875000e+01,-6.894606018066406250e+01,4.232769393920898438e+01,-1.405378150939941406e+01,-1.061190109252929688e+02,-1.232294845581054688e+02,6.358312606811523438e+01,-3.967282485961914062e+01
7.998459935188293457e-01,2.000000000000000000e+00,1.000042152404785156e+01,4.688376426696777344e+00,3.405588531494140625e+01,-1.172668762207031250e+02,9.068769836425781250e+01,-6.896938323974609375e+01,4.225600814819335938e+01,-1.404471778869628906e+01,-1.061340789794921875e+02,-1.232835464477539062e+02,6.357904052734375000e+01,-3.970325851440429688e+01
8.036789894104003906e-01,2.000000000000000000e+00,1.002889823913574219e+01,4.641871929168701172e+00,3.404930114746093750e+01,-1.173209686279296875e+02,9.068967437744140625e+01,-6.899298858642578125e+01,4.218393707275390625e+01,-1.403579139709472656e+01,-1.061490859985351562e+02,-1.233370437622070312e+02,6.357503890991210938e+01,-3.973413085937500000e+01
8.077049851417541504e-01,2.000000000000000000e+00,1.005772018432617188e+01,4.595276832580566406e+00,3.404285049438476562e+01,-1.173743820190429688e+02,9.069159698486328125e+01,-6.901781463623046875e+01,4.211115264892578125e+01,-1.402681922912597656e+01,-1.061646423339843750e+02,-1.233917694091796875e+02,6.357066726684570312e+01,-3.976500320434570312e+01
8.115649819374084473e-01,2.000000000000000000e+00,1.008642673492431641e+01,4.548772335052490234e+00,3.403640747070312500e+01,-1.174282226562500000e+02,9.069329833984375000e+01,-6.904201507568359375e+01,4.203886032104492188e+01,-1.401784706115722656e+01,-1.061803054809570312e+02,-1.234464797973632812e+02,6.356665802001953125e+01,-3.979488372802734375e+01
8.155890107154846191e-01,2.000000000000000000e+00,1.011487483978271484e+01,4.502290248870849609e+00,3.402983856201171875e+01,-1.174823150634765625e+02,9.069553375244140625e+01,-6.906677246093750000e+01,4.196750640869140625e+01,-1.400864601135253906e+01,-1.061957015991210938e+02,-1.235008316040039062e+02,6.356257629394531250e+01,-3.982444000244140625e+01
8.195890188217163086e-01,2.000000000000000000e+00,1.014323711395263672e+01,4.455740451812744141e+00,3.402327346801757812e+01,-1.175355224609375000e+02,9.069745635986328125e+01,-6.909111785888671875e+01,4.189625930786132812e+01,-1.399958229064941406e+01,-1.062108154296875000e+02,-1.235558395385742188e+02,6.355835342407226562e+01,-3.985476303100585938e+01
8.259779810905456543e-01,2.000000000000000000e+00,1.017159938812255859e+01,4.409236431121826172e+00,3.401670455932617188e+01,-1.175899887084960938e+02,9.069916534423828125e+01,-6.911505889892578125e+01,4.182418823242187500e+01,-1.399070072174072266e+01,-1.062260437011718750e+02,-1.236095581054687500e+02,6.355412673950195312e+01,-3.988607025146484375e+01
8.274869918823242188e-01,2.000000000000000000e+00,1.020062255859375000e+01,4.362709045410156250e+00,3.401013946533203125e+01,-1.176438064575195312e+02,9.070102691650390625e+01,-6.913865661621093750e+01,4.175146102905273438e+01,-1.398159217834472656e+01,-1.062411727905273438e+02,-1.236636199951171875e+02,6.354975509643554688e+01,-3.991595458984375000e+01
8.347730040550231934e-01,2.000000000000000000e+00,1.022909927368164062e+01,4.316317558288574219e+00,3.400349044799804688e+01,-1.176970138549804688e+02,9.070305633544921875e+01,-6.916239166259765625e+01,4.167894744873046875e+01,-1.397248268127441406e+01,-1.062563934326171875e+02,-1.237183303833007812e+02,6.354574584960937500e+01,-3.994572830200195312e+01
8.361579775810241699e-01,2.000000000000000000e+00,1.025757694244384766e+01,4.269881248474121094e+00,3.399690628051757812e+01,-1.177511672973632812e+02,9.070503234863281250e+01,-6.918640136718750000e+01,4.160759353637695312e+01,-1.396314334869384766e+01,-1.062719421386718750e+02,-1.237718429565429688e+02,6.354130554199218750e+01,-3.997637939453125000e+01
8.396090269088745117e-01,2.000000000000000000e+00,1.028599739074707031e+01,4.223331451416015625e+00,3.399060058593750000e+01,-1.178048934936523438e+02,9.070705413818359375e+01,-6.921075439453125000e+01,4.153640365600585938e+01,-1.395430850982666016e+01,-1.062872314453125000e+02,-1.238257598876953125e+02,6.353664016723632812e+01,-4.000747299194335938e+01
8.436650037765502930e-01,2.000000000000000000e+00,1.031458854675292969e+01,4.176781654357910156e+00,3.398425674438476562e+01,-1.178586196899414062e+02,9.070881652832031250e+01,-6.923529815673828125e+01,4.146416473388671875e+01,-1.394542884826660156e+01,-1.063021926879882812e+02,-1.238802642822265625e+02,6.353211975097656250e+01,-4.003702545166015625e+01
8.476719856262207031e-01,2.000000000000000000e+00,1.034332466125488281e+01,4.130254745483398438e+00,3.397780990600585938e+01,-1.179127120971679688e+02,9.071067810058593750e+01,-6.926005554199218750e+01,4.139110565185546875e+01,-1.393654823303222656e+01,-1.063173065185546875e+02,-1.239347686767578125e+02,6.352789688110351562e+01,-4.006646728515625000e+01
8.515369892120361328e-01,2.000000000000000000e+00,1.037205982208251953e+01,4.083682060241699219e+00,3.397124481201171875e+01,-1.179656448364257812e+02,9.071260070800781250e+01,-6.928439331054687500e+01,4.131881713867187500e+01,-1.392743778228759766e+01,-1.063324813842773438e+02,-1.239893417358398438e+02,6.352367019653320312e+01,-4.009601974487304688e+01
8.577520251274108887e-01,2.000000000000000000e+00,1.037205982208251953e+01,4.083682060241699219e+00,3.397124481201171875e+01,-1.179656448364257812e+02,9.071260070800781250e+01,-6.928439331054687500e+01,4.131881713867187500e+01,-1.392743778228759766e+01,-1.063324813842773438e+02,-1.239893417358398438e+02,6.352367019653320312e+01,-4.009601974487304688e+01
8.596640229225158691e-01,2.000000000000000000e+00,1.042912864685058594e+01,3.990899562835693359e+00,3.395811080932617188e+01,-1.180732650756835938e+02,9.071633148193359375e+01,-6.933213806152343750e+01,4.117621612548828125e+01,-1.390908145904541016e+01,-1.063629913330078125e+02,-1.240979843139648438e+02,6.351536560058593750e+01,-4.015765380859375000e+01
8.646129965782165527e-01,2.000000000000000000e+00,1.042912864685058594e+01,3.990899562835693359e+00,3.395811080932617188e+01,-1.180732650756835938e+02,9.071633148193359375e+01,-6.933213806152343750e+01,4.110365295410156250e+01,-1.390006446838378906e+01,-1.063780593872070312e+02,-1.241524047851562500e+02,6.351135635375976562e+01,-4.018764495849609375e+01
8.681949973106384277e-01,2.000000000000000000e+00,1.048616886138916016e+01,3.897686719894409180e+00,3.394489288330078125e+01,-1.181808242797851562e+02,9.072038269042968750e+01,-6.938008880615234375e+01,4.103086471557617188e+01,-1.389109230041503906e+01,-1.063932876586914062e+02,-1.242074127197265625e+02,6.350720214843750000e+01,-4.021763992309570312e+01
8.716160058975219727e-01,2.000000000000000000e+00,1.051470375061035156e+01,3.851227760314941406e+00,3.393824768066406250e+01,-1.182339248657226562e+02,9.072241210937500000e+01,-6.940450286865234375e+01,4.095830154418945312e+01,-1.388189125061035156e+01,-1.064087371826171875e+02,-1.242607574462890625e+02,6.350312423706054688e+01,-4.024884033203125000e+01
8.766639828681945801e-01,2.000000000000000000e+00,1.051470375061035156e+01,3.851227760314941406e+00,3.393824768066406250e+01,-1.182339248657226562e+02,9.072241210937500000e+01,-6.940450286865234375e+01,4.095830154418945312e+01,-1.388189125061035156e+01,-1.064087371826171875e+02,-1.242607574462890625e+02,6.350312423706054688e+01,-4.024884033203125000e+01
8.796030282974243164e-01,2.000000000000000000e+00,1.057203197479248047e+01,3.758309125900268555e+00,3.392551803588867188e+01,-1.183419494628906250e+02,9.072602844238281250e+01,-6.945421600341796875e+01,4.081586456298828125e+01,-1.386307716369628906e+01,-1.064388656616210938e+02,-1.243696212768554688e+02,6.349496078491210938e+01,-4.030970382690429688e+01
8.836500048637390137e-01,2.000000000000000000e+00,1.057203197479248047e+01,3.758309125900268555e+00,3.392551803588867188e+01,-1.183419494628906250e+02,9.072602844238281250e+01,-6.945421600341796875e+01,4.081586456298828125e+01,-1.386307716369628906e+01,-1.064388656616210938e+02,-1.243696212768554688e+02,6.349496078491210938e+01,-4.030970382690429688e+01
8.914129734039306641e-01,2.000000000000000000e+00,1.060039424896240234e+01,3.711963176727294922e+00,3.391897201538085938e+01,-1.183955764770507812e+02,9.072837829589843750e+01,-6.947828674316406250e+01,4.074341201782226562e+01,-1.385378360748291016e+01,-1.064540939331054688e+02,-1.244238357543945312e+02,6.349102783203125000e+01,-4.033947753906250000e+01
8.927649855613708496e-01,2.000000000000000000e+00,1.065740585327148438e+01,3.618999242782592773e+00,3.390595626831054688e+01,-1.185029754638671875e+02,9.073216247558593750e+01,-6.952562713623046875e+01,4.059844207763671875e+01,-1.383565616607666016e+01,-1.064840621948242188e+02,-1.245326995849609375e+02,6.348228454589843750e+01,-4.040133285522460938e+01
8.954799771308898926e-01,2.000000000000000000e+00,1.068582534790039062e+01,3.572653532028198242e+00,3.389929199218750000e+01,-1.185563888549804688e+02,9.073413848876953125e+01,-6.954989624023437500e+01,4.052719879150390625e+01,-1.382659244537353516e+01,-1.064991226196289062e+02,-1.245868301391601562e+02,6.347813415527343750e+01,-4.043154525756835938e+01
9.008700251579284668e-01,2.000000000000000000e+00,1.068582534790039062e+01,3.572653532028198242e+00,3.389929199218750000e+01,-1.185563888549804688e+02,9.073413848876953125e+01,-6.954989624023437500e+01,4.052719879150390625e+01,-1.382659244537353516e+01,-1.064991226196289062e+02,-1.245868301391601562e+02,6.347813415527343750e+01,-4.043154525756835938e+01
9.036620259284973145e-01,2.000000000000000000e+00,1.074283695220947266e+01,3.479666948318481445e+00,3.388623809814453125e+01,-1.186639480590820312e+02,9.073829650878906250e+01,-6.959825897216796875e+01,4.038376998901367188e+01,-1.380842018127441406e+01,-1.065300140380859375e+02,-1.246957626342773438e+02,6.347004699707031250e+01,-4.049306869506835938e+01
9.076409935951232910e-01,2.000000000000000000e+00,1.074283695220947266e+01,3.479666948318481445e+00,3.388623809814453125e+01,-1.186639480590820312e+02,9.073829650878906250e+01,-6.959825897216796875e+01,4.038376998901367188e+01,-1.380842018127441406e+01,-1.065300140380859375e+02,-1.246957626342773438e+02,6.347004699707031250e+01,-4.049306869506835938e+01
9.117190241813659668e-01,2.000000000000000000e+00,1.077137184143066406e+01,3.433456659317016602e+00,3.387977218627929688e+01,-1.187178955078125000e+02,9.074016571044921875e+01,-6.962321472167968750e+01,4.031087875366210938e+01,-1.379926395416259766e+01,-1.065450820922851562e+02,-1.247488327026367188e+02,6.346552276611328125e+01,-4.052459716796875000e+01
9.157170057296752930e-01,2.000000000000000000e+00,1.079970455169677734e+01,3.386884212493896484e+00,3.387351226806640625e+01,-1.187714614868164062e+02,9.074202728271484375e+01,-6.964775848388671875e+01,4.023886108398437500e+01,-1.379024696350097656e+01,-1.065602035522460938e+02,-1.248034057617187500e+02,6.346129608154296875e+01,-4.055448150634765625e+01
9.196439981460571289e-01,2.000000000000000000e+00,1.082849884033203125e+01,3.340583562850952148e+00,3.386704254150390625e+01,-1.188246688842773438e+02,9.074411010742187500e+01,-6.967210388183593750e+01,4.016772460937500000e+01,-1.378109073638916016e+01,-1.065754318237304688e+02,-1.248579788208007812e+02,6.345685577392578125e+01,-4.058447265625000000e+01
9.236410260200500488e-01,2.000000000000000000e+00,1.085691833496093750e+01,3.294214725494384766e+00,3.386043930053710938e+01,-1.188787078857421875e+02,9.074624633789062500e+01,-6.969536590576171875e+01,4.009642410278320312e+01,-1.377175331115722656e+01,-1.065905532836914062e+02,-1.249122619628906250e+02,6.345292282104492188e+01,-4.061567306518554688e+01
9.275919795036315918e-01,2.000000000000000000e+00,1.091384315490722656e+01,3.201251029968261719e+00,3.384736251831054688e+01,-1.189854202270507812e+02,9.075035095214843750e+01,-6.974290466308593750e+01,3.995173263549804688e+01,-1.375339603424072266e+01,-1.066207885742187500e+02,-1.250210418701171875e+02,6.344352340698242188e+01,-4.067522048950195312e+01
9.316509962081909180e-01,2.000000000000000000e+00,1.091384315490722656e+01,3.201251029968261719e+00,3.384736251831054688e+01,-1.189854202270507812e+02,9.075035095214843750e+01,-6.974290466308593750e+01,3.995173263549804688e+01,-1.375339603424072266e+01,-1.066207885742187500e+02,-1.250210418701171875e+02,6.344352340698242188e+01,-4.067522048950195312e+01
9.356610178947448730e-01,2.000000000000000000e+00,1.094203281402587891e+01,3.154723882675170898e+00,3.384077835083007812e+01,-1.190394058227539062e+02,9.075247955322265625e+01,-6.976718902587890625e+01,3.987949752807617188e+01,-1.374451637268066406e+01,-1.066360778808593750e+02,-1.250756835937500000e+02,6.343987655639648438e+01,-4.070521163940429688e+01
9.396499991416931152e-01,2.000000000000000000e+00,1.097056770324707031e+01,3.108309984207153320e+00,3.383414840698242188e+01,-1.190927658081054688e+02,9.075450897216796875e+01,-6.979145812988281250e+01,3.980836105346679688e+01,-1.373586368560791016e+01,-1.066512985229492188e+02,-1.251304702758789062e+02,6.343586730957031250e+01,-4.073575592041015625e+01
9.436439871788024902e-01,2.000000000000000000e+00,1.099918937683105469e+01,3.061964035034179688e+00,3.382760238647460938e+01,-1.191460800170898438e+02,9.075669097900390625e+01,-6.981622314453125000e+01,3.973711395263671875e+01,-1.372689151763916016e+01,-1.066665878295898438e+02,-1.251834640502929688e+02,6.343149566650390625e+01,-4.076486968994140625e+01
9.477059841156005859e-01,2.000000000000000000e+00,1.102760887145996094e+01,3.015617847442626953e+00,3.382117462158203125e+01,-1.192000656127929688e+02,9.075882720947265625e+01,-6.984062957763671875e+01,3.966488265991210938e+01,-1.371782779693603516e+01,-1.066818161010742188e+02,-1.252376098632812500e+02,6.342698287963867188e+01,-4.079442214965820312e+01
9.519760012626647949e-01,2.000000000000000000e+00,1.105608558654785156e+01,2.969135999679565430e+00,3.381473159790039062e+01,-1.192532730102539062e+02,9.076122283935546875e+01,-6.986436462402343750e+01,3.959231567382812500e+01,-1.370871925354003906e+01,-1.066972045898437500e+02,-1.252925415039062500e+02,6.342312240600585938e+01,-4.082583999633789062e+01
9.556999802589416504e-01,2.000000000000000000e+00,1.108453369140625000e+01,2.922722101211547852e+00,3.380820465087890625e+01,-1.193076248168945312e+02,9.076313781738281250e+01,-6.988769531250000000e+01,3.951964187622070312e+01,-1.369970035552978516e+01,-1.067124404907226562e+02,-1.253463897705078125e+02,6.341918945312500000e+01,-4.085759353637695312e+01
9.596740007400512695e-01,2.000000000000000000e+00,1.111281013488769531e+01,2.876308202743530273e+00,3.380165863037109375e+01,-1.193615722656250000e+02,9.076522064208984375e+01,-6.991149902343750000e+01,3.944834136962890625e+01,-1.369068336486816406e+01,-1.067275543212890625e+02,-1.254008255004882812e+02,6.341481018066406250e+01,-4.088714599609375000e+01
9.637659788131713867e-01,2.000000000000000000e+00,1.114148807525634766e+01,2.830097675323486328e+00,3.379517364501953125e+01,-1.194143447875976562e+02,9.076762390136718750e+01,-6.993544006347656250e+01,3.937693023681640625e+01,-1.368148231506347656e+01,-1.067426223754882812e+02,-1.254553298950195312e+02,6.341051483154296875e+01,-4.091636657714843750e+01
9.678109884262084961e-01,2.000000000000000000e+00,1.117019557952880859e+01,2.783819437026977539e+00,3.378864669799804688e+01,-1.194682846069335938e+02,9.076980590820312500e+01,-6.995964813232421875e+01,3.930491638183593750e+01,-1.367228126525878906e+01,-1.067581176757812500e+02,-1.255093307495117188e+02,6.340657806396484375e+01,-4.094713211059570312e+01
9.716749787330627441e-01,2.000000000000000000e+00,1.119870185852050781e+01,2.737382888793945312e+00,3.378205871582031250e+01,-1.195219573974609375e+02,9.077188873291015625e+01,-6.998400115966796875e+01,3.923218536376953125e+01,-1.366298866271972656e+01,-1.067733535766601562e+02,-1.255640411376953125e+02,6.340264511108398438e+01,-4.097822189331054688e+01
9.767760038375854492e-01,2.000000000000000000e+00,1.122732162475585938e+01,2.691059589385986328e+00,3.377551269531250000e+01,-1.195755233764648438e+02,9.077423095703125000e+01,-7.000868225097656250e+01,3.915967559814453125e+01,-1.365410709381103516e+01,-1.067887420654296875e+02,-1.256178894042968750e+02,6.339856719970703125e+01,-4.100722503662109375e+01
9.796609878540039062e-01,2.000000000000000000e+00,1.128433322906494141e+01,2.598276853561401367e+00,3.376290512084960938e+01,-1.196823043823242188e+02,9.077838897705078125e+01,-7.005635833740234375e+01,3.901723861694335938e+01,-1.363607120513916016e+01,-1.068188705444335938e+02,-1.257261047363281250e+02,6.339003753662109375e+01,-4.106721115112304688e+01
9.836419820785522461e-01,2.000000000000000000e+00,1.128433322906494141e+01,2.598276853561401367e+00,3.376290512084960938e+01,-1.196823043823242188e+02,9.077838897705078125e+01,-7.005635833740234375e+01,3.901723861694335938e+01,-1.363607120513916016e+01,-1.068188705444335938e+02,-1.257261047363281250e+02,6.339003753662109375e+01,-4.106721115112304688e+01
9.880149960517883301e-01,2.000000000000000000e+00,1.131304073333740234e+01,2.551862955093383789e+00,3.375651931762695312e+01,-1.197358093261718750e+02,9.078063201904296875e+01,-7.007988739013671875e+01,3.894527816772460938e+01,-1.362687015533447266e+01,-1.068339385986328125e+02,-1.257806091308593750e+02,6.338574218750000000e+01,-4.109940338134765625e+01
9.911649823188781738e-01,2.000000000000000000e+00,1.134154605865478516e+01,2.505471467971801758e+00,3.374993133544921875e+01,-1.197896499633789062e+02,9.078287506103515625e+01,-7.010342407226562500e+01,3.887243652343750000e+01,-1.361762428283691406e+01,-1.068488922119140625e+02,-1.258345336914062500e+02,6.338173294067382812e+01,-4.112994384765625000e+01
9.957000017166137695e-01,2.000000000000000000e+00,1.136999511718750000e+01,2.459102869033813477e+00,3.374342727661132812e+01,-1.198429489135742188e+02,9.078510284423828125e+01,-7.012770080566406250e+01,3.880009078979492188e+01,-1.360837650299072266e+01,-1.068641204833984375e+02,-1.258893203735351562e+02,6.337736129760742188e+01,-4.115895080566406250e+01
9.996420145034790039e-01,2.000000000000000000e+00,1.139844322204589844e+01,2.412598371505737305e+00,3.373690032958984375e+01,-1.198968429565429688e+02,9.078734588623046875e+01,-7.015204620361328125e+01,3.872890090942382812e+01,-1.359931278228759766e+01,-1.068794631958007812e+02,-1.259438247680664062e+02,6.337298965454101562e+01,-4.118992996215820312e+01
1.004189968109130859e+00,2.000000000000000000e+00,1.145554161071777344e+01,2.319679975509643555e+00,3.372362136840820312e+01,-1.200035552978515625e+02,9.079150390625000000e+01,-7.020114135742187500e+01,3.858547210693359375e+01,-1.358104801177978516e+01,-1.069093704223632812e+02,-1.260519638061523438e+02,6.336454010009765625e+01,-4.125145339965820312e+01
1.007132053375244141e+00,2.000000000000000000e+00,1.145554161071777344e+01,2.319679975509643555e+00,3.372362136840820312e+01,-1.200035552978515625e+02,9.079150390625000000e+01,-7.020114135742187500e+01,3.858547210693359375e+01,-1.358104801177978516e+01,-1.069093704223632812e+02,-1.260519638061523438e+02,6.336454010009765625e+01,-4.125145339965820312e+01
1.012248992919921875e+00,2.000000000000000000e+00,1.148416137695312500e+01,2.273356676101684570e+00,3.371703338623046875e+01,-1.200575408935546875e+02,9.079380035400390625e+01,-7.022494506835937500e+01,3.851269149780273438e+01,-1.357180213928222656e+01,-1.069244384765625000e+02,-1.261061019897460938e+02,6.335995101928710938e+01,-4.127990722656250000e+01
1.015727996826171875e+00,2.000000000000000000e+00,1.151269626617431641e+01,2.226987600326538086e+00,3.371060943603515625e+01,-1.201109542846679688e+02,9.079566955566406250e+01,-7.024834442138671875e+01,3.844067382812500000e+01,-1.356246376037597656e+01,-1.069398803710937500e+02,-1.261600952148437500e+02,6.335608291625976562e+01,-4.131000900268554688e+01
1.019667029380798340e+00,2.000000000000000000e+00,1.154094314575195312e+01,2.180596351623535156e+00,3.370420837402343750e+01,-1.201647338867187500e+02,9.079795837402343750e+01,-7.027173614501953125e+01,3.836948394775390625e+01,-1.355326271057128906e+01,-1.069548950195312500e+02,-1.262143859863281250e+02,6.335222625732421875e+01,-4.134109878540039062e+01
1.023648023605346680e+00,2.000000000000000000e+00,1.156947803497314453e+01,2.134295701980590820e+00,3.369766235351562500e+01,-1.202184219360351562e+02,9.080003356933593750e+01,-7.029554748535156250e+01,3.829856491088867188e+01,-1.354410743713378906e+01,-1.069696884155273438e+02,-1.262683868408203125e+02,6.334828948974609375e+01,-4.137120437622070312e+01
1.028872966766357422e+00,2.000000000000000000e+00,1.159795570373535156e+01,2.088062763214111328e+00,3.369103240966796875e+01,-1.202715072631835938e+02,9.080216979980468750e+01,-7.031982421875000000e+01,3.822655105590820312e+01,-1.353513526916503906e+01,-1.069846496582031250e+02,-1.263228912353515625e+02,6.334384536743164062e+01,-4.140075683593750000e+01
1.033617973327636719e+00,2.000000000000000000e+00,1.162643241882324219e+01,2.041422367095947266e+00,3.368450546264648438e+01,-1.203259658813476562e+02,9.080414581298828125e+01,-7.034430694580078125e+01,3.815398788452148438e+01,-1.352593421936035156e+01,-1.069996566772460938e+02,-1.263776779174804688e+02,6.333939743041992188e+01,-4.143173980712890625e+01
1.037171959877014160e+00,2.000000000000000000e+00,1.168321418762207031e+01,1.948866009712219238e+00,3.367141342163085938e+01,-1.204326400756835938e+02,9.080835723876953125e+01,-7.039374542236328125e+01,3.801066970825195312e+01,-1.350753211975097656e+01,-1.070303802490234375e+02,-1.264856643676757812e+02,6.333204269409179688e+01,-4.149216461181640625e+01
1.039945960044860840e+00,2.000000000000000000e+00,1.171160602569580078e+01,1.902519941329956055e+00,3.366490554809570312e+01,-1.204865188598632812e+02,9.081043243408203125e+01,-7.041748046875000000e+01,3.793958663940429688e+01,-1.349846839904785156e+01,-1.070456695556640625e+02,-1.265401000976562500e+02,6.332810592651367188e+01,-4.152083587646484375e+01
1.043645024299621582e+00,2.000000000000000000e+00,1.171160602569580078e+01,1.902519941329956055e+00,3.366490554809570312e+01,-1.204865188598632812e+02,9.081043243408203125e+01,-7.041748046875000000e+01,3.793958663940429688e+01,-1.349846839904785156e+01,-1.070456695556640625e+02,-1.265401000976562500e+02,6.332810592651367188e+01,-4.152083587646484375e+01
1.047724962234497070e+00,2.000000000000000000e+00,1.174022579193115234e+01,1.856173992156982422e+00,3.365854263305664062e+01,-1.205394134521484375e+02,9.081224822998046875e+01,-7.044100952148437500e+01,3.786757278442382812e+01,-1.348963356018066406e+01,-1.070606307983398438e+02,-1.265936660766601562e+02,6.332359313964843750e+01,-4.154984283447265625e+01
1.051694989204406738e+00,2.000000000000000000e+00,1.176870346069335938e+01,1.809714555740356445e+00,3.365224075317382812e+01,-1.205931396484375000e+02,9.081421661376953125e+01,-7.046474456787109375e+01,3.779478836059570312e+01,-1.348047828674316406e+01,-1.070756301879882812e+02,-1.266477355957031250e+02,6.331907272338867188e+01,-4.157972335815429688e+01
1.055680990219116211e+00,2.000000000000000000e+00,1.179709434509277344e+01,1.763300657272338867e+00,3.364579391479492188e+01,-1.206471786499023438e+02,9.081608581542968750e+01,-7.048868560791015625e+01,3.772244262695312500e+01,-1.347095680236816406e+01,-1.070906982421875000e+02,-1.267021713256835938e+02,6.331513595581054688e+01,-4.160960769653320312e+01
1.060693025588989258e+00,2.000000000000000000e+00,1.182537174224853516e+01,1.716954588890075684e+00,3.363932800292968750e+01,-1.206999588012695312e+02,9.081816101074218750e+01,-7.051290130615234375e+01,3.765130615234375000e+01,-1.346184730529785156e+01,-1.071058807373046875e+02,-1.267562332153320312e+02,6.331098556518554688e+01,-4.163993072509765625e+01
1.063778996467590332e+00,2.000000000000000000e+00,1.185376167297363281e+01,1.670450091361999512e+00,3.363280105590820312e+01,-1.207540054321289062e+02,9.082025146484375000e+01,-7.053758239746093750e+01,3.758050155639648438e+01,-1.345273685455322266e+01,-1.071210479736328125e+02,-1.268105926513671875e+02,6.330639266967773438e+01,-4.167134857177734375e+01
1.067702054977416992e+00,2.000000000000000000e+00,1.188209629058837891e+01,1.623990893363952637e+00,3.362629699707031250e+01,-1.208074188232421875e+02,9.082211303710937500e+01,-7.056253814697265625e+01,3.750826263427734375e+01,-1.344390201568603516e+01,-1.071361160278320312e+02,-1.268649444580078125e+02,6.330224227905273438e+01,-4.170178222656250000e+01
1.071740031242370605e+00,2.000000000000000000e+00,1.191051578521728516e+01,1.577712774276733398e+00,3.361977005004882812e+01,-1.208606185913085938e+02,9.082408905029296875e+01,-7.058682250976562500e+01,3.743553543090820312e+01,-1.343492984771728516e+01,-1.071510696411132812e+02,-1.269184570312500000e+02,6.329808807373046875e+01,-4.173144531250000000e+01
1.075829982757568359e+00,2.000000000000000000e+00,1.193913555145263672e+01,1.531366586685180664e+00,3.361307907104492188e+01,-1.209149246215820312e+02,9.082604980468750000e+01,-7.061028289794921875e+01,3.736308288574218750e+01,-1.342595863342285156e+01,-1.071665191650390625e+02,-1.269734497070312500e+02,6.329386138916015625e+01,-4.176209640502929688e+01
1.080301046371459961e+00,2.000000000000000000e+00,1.196761322021484375e+01,1.484862089157104492e+00,3.360651016235351562e+01,-1.209682235717773438e+02,9.082781219482421875e+01,-7.063381195068359375e+01,3.729199981689453125e+01,-1.341689395904541016e+01,-1.071821289062500000e+02,-1.270280227661132812e+02,6.328970718383789062e+01,-4.179396057128906250e+01
1.084846019744873047e+00,2.000000000000000000e+00,1.199603271484375000e+01,1.438516139984130859e+00,3.360008621215820312e+01,-1.210220031738281250e+02,9.082994842529296875e+01,-7.065775299072265625e+01,3.722086334228515625e+01,-1.340787696838378906e+01,-1.071972961425781250e+02,-1.270815200805664062e+02,6.328533554077148438e+01,-4.182537841796875000e+01
1.087929964065551758e+00,2.000000000000000000e+00,1.202450942993164062e+01,1.392124772071838379e+00,3.359376144409179688e+01,-1.210758438110351562e+02,9.083171081542968750e+01,-7.068141937255859375e+01,3.714857101440429688e+01,-1.339890480041503906e+01,-1.072124786376953125e+02,-1.271355819702148438e+02,6.328147888183593750e+01,-4.185504150390625000e+01
1.091881990432739258e+00,2.000000000000000000e+00,1.205307388305664062e+01,1.345959782600402832e+00,3.358729934692382812e+01,-1.211288833618164062e+02,9.083367919921875000e+01,-7.070618438720703125e+01,3.707600784301757812e+01,-1.339002418518066406e+01,-1.072273788452148438e+02,-1.271901550292968750e+02,6.327746963500976562e+01,-4.188426589965820312e+01
1.095926046371459961e+00,2.000000000000000000e+00,1.208160781860351562e+01,1.299726724624633789e+00,3.358073043823242188e+01,-1.211827239990234375e+02,9.083554840087890625e+01,-7.073100280761718750e+01,3.700393676757812500e+01,-1.338091468811035156e+01,-1.072426071166992188e+02,-1.272442245483398438e+02,6.327302169799804688e+01,-4.191546630859375000e+01
1.100003004074096680e+00,2.000000000000000000e+00,1.211037158966064453e+01,1.253267526626586914e+00,3.357414245605468750e+01,-1.212367095947265625e+02,9.083730316162109375e+01,-7.075540924072265625e+01,3.693291091918945312e+01,-1.337157630920410156e+01,-1.072577285766601562e+02,-1.272991714477539062e+02,6.326865005493164062e+01,-4.194556808471679688e+01
1.102638006210327148e+00,2.000000000000000000e+00,1.213899326324462891e+01,1.206853508949279785e+00,3.356765747070312500e+01,-1.212903366088867188e+02,9.083922576904296875e+01,-7.077941894531250000e+01,3.686144638061523438e+01,-1.336232948303222656e+01,-1.072728500366210938e+02,-1.273531570434570312e+02,6.326479339599609375e+01,-4.197446441650390625e+01
1.109032034873962402e+00,2.000000000000000000e+00,1.216732597351074219e+01,1.160552740097045898e+00,3.356109237670898438e+01,-1.213439025878906250e+02,9.084109497070312500e+01,-7.080308532714843750e+01,3.678970336914062500e+01,-1.335344886779785156e+01,-1.072881240844726562e+02,-1.274070205688476562e+02,6.326070785522460938e+01,-4.200456237792968750e+01
1.110587000846862793e+00,2.000000000000000000e+00,1.219583225250244141e+01,1.114251971244812012e+00,3.355462646484375000e+01,-1.213968887329101562e+02,9.084322357177734375e+01,-7.082648468017578125e+01,3.671702957153320312e+01,-1.334470462799072266e+01,-1.073034667968750000e+02,-1.274612350463867188e+02,6.325648498535156250e+01,-4.203642654418945312e+01
