rpiRobotics/ARM-21-02-F-19-Robot-Motion-Program/data_performance_abb/curve_2/dual_arm/diffevo_pose6/grad_result/real/run_2.csv
timestamp,cmd_num,J1,J2,J3,J4,J5,J6,J1_2,J2_2,J3_2,J4_2,J5_2,J6_2
1.196200028061866760e-02,-1.000000000000000000e+00,5.492905616760253906e+00,1.202490615844726562e+01,3.508050918579101562e+01,-1.087818298339843750e+02,9.036620330810546875e+01,-6.516024780273437500e+01,5.363669204711914062e+01,-1.548909854888916016e+01,-1.037324752807617188e+02,-1.146968383789062500e+02,6.423960876464843750e+01,-3.491080474853515625e+01
1.327199954539537430e-02,-1.000000000000000000e+00,5.492905616760253906e+00,1.202490615844726562e+01,3.508050918579101562e+01,-1.087818298339843750e+02,9.036620330810546875e+01,-6.516024780273437500e+01,5.363669204711914062e+01,-1.548909854888916016e+01,-1.037324752807617188e+02,-1.146968383789062500e+02,6.423960876464843750e+01,-3.491080474853515625e+01
1.568200066685676575e-02,-1.000000000000000000e+00,5.492848396301269531e+00,1.202486038208007812e+01,3.508050918579101562e+01,-1.087818298339843750e+02,9.036620330810546875e+01,-6.516045379638671875e+01,5.363669204711914062e+01,-1.548919105529785156e+01,-1.037324752807617188e+02,-1.146968383789062500e+02,6.423976135253906250e+01,-3.491080474853515625e+01
1.707999967038631439e-02,-1.000000000000000000e+00,5.492848396301269531e+00,1.202486038208007812e+01,3.508050918579101562e+01,-1.087818298339843750e+02,9.036620330810546875e+01,-6.516045379638671875e+01,5.363669204711914062e+01,-1.548919105529785156e+01,-1.037324752807617188e+02,-1.146968383789062500e+02,6.423976135253906250e+01,-3.491080474853515625e+01
2.066799998283386230e-02,-1.000000000000000000e+00,5.492762088775634766e+00,1.202486038208007812e+01,3.508050918579101562e+01,-1.087819824218750000e+02,9.036620330810546875e+01,-6.516045379638671875e+01,5.363669204711914062e+01,-1.548919105529785156e+01,-1.037325286865234375e+02,-1.146968383789062500e+02,6.423976135253906250e+01,-3.491069030761718750e+01
2.200699970126152039e-02,-1.000000000000000000e+00,5.492762088775634766e+00,1.202486038208007812e+01,3.508050918579101562e+01,-1.087819824218750000e+02,9.036620330810546875e+01,-6.516045379638671875e+01,5.363669204711914062e+01,-1.548919105529785156e+01,-1.037325286865234375e+02,-1.146968383789062500e+02,6.423976135253906250e+01,-3.491069030761718750e+01
2.444300055503845215e-02,-1.000000000000000000e+00,5.492905616760253906e+00,1.202486038208007812e+01,3.508050918579101562e+01,-1.087818832397460938e+02,9.036631011962890625e+01,-6.516045379638671875e+01,5.363669204711914062e+01,-1.548909854888916016e+01,-1.037324752807617188e+02,-1.146968383789062500e+02,6.423976135253906250e+01,-3.491069030761718750e+01
2.770799957215785980e-02,-1.000000000000000000e+00,5.492905616760253906e+00,1.202486038208007812e+01,3.508050918579101562e+01,-1.087818832397460938e+02,9.036631011962890625e+01,-6.516045379638671875e+01,5.363669204711914062e+01,-1.548909854888916016e+01,-1.037324752807617188e+02,-1.146968383789062500e+02,6.423976135253906250e+01,-3.491069030761718750e+01
3.224899992346763611e-02,-1.000000000000000000e+00,5.492905616760253906e+00,1.202490615844726562e+01,3.508050918579101562e+01,-1.087818298339843750e+02,9.036620330810546875e+01,-6.516045379638671875e+01,5.363669204711914062e+01,-1.548919105529785156e+01,-1.037324752807617188e+02,-1.146968383789062500e+02,6.423960876464843750e+01,-3.491080474853515625e+01
3.606100007891654968e-02,-1.000000000000000000e+00,5.492762088775634766e+00,1.202486038208007812e+01,3.508054733276367188e+01,-1.087818832397460938e+02,9.036631011962890625e+01,-6.516045379638671875e+01,5.363657760620117188e+01,-1.548909854888916016e+01,-1.037323684692382812e+02,-1.146968383789062500e+02,6.423976135253906250e+01,-3.491080474853515625e+01
3.987300023436546326e-02,-1.000000000000000000e+00,5.492905616760253906e+00,1.202486038208007812e+01,3.508046722412109375e+01,-1.087819824218750000e+02,9.036620330810546875e+01,-6.516045379638671875e+01,5.363669204711914062e+01,-1.548909854888916016e+01,-1.037323684692382812e+02,-1.146968383789062500e+02,6.423976135253906250e+01,-3.491069030761718750e+01
4.488399997353553772e-02,-1.000000000000000000e+00,5.492848396301269531e+00,1.202486038208007812e+01,3.508050918579101562e+01,-1.087818832397460938e+02,9.036620330810546875e+01,-6.516045379638671875e+01,5.363669204711914062e+01,-1.548909854888916016e+01,-1.037323684692382812e+02,-1.146968383789062500e+02,6.423960876464843750e+01,-3.491080474853515625e+01
4.963200166821479797e-02,2.000000000000000000e+00,5.492905616760253906e+00,1.202486038208007812e+01,3.508050918579101562e+01,-1.087818298339843750e+02,9.036620330810546875e+01,-6.516045379638671875e+01,5.363657760620117188e+01,-1.548919105529785156e+01,-1.037324752807617188e+02,-1.146968383789062500e+02,6.423976135253906250e+01,-3.491080474853515625e+01
5.814500153064727783e-02,2.000000000000000000e+00,5.492905616760253906e+00,1.202486038208007812e+01,3.508050918579101562e+01,-1.087819824218750000e+02,9.036609649658203125e+01,-6.516045379638671875e+01,5.363669204711914062e+01,-1.548919105529785156e+01,-1.037324752807617188e+02,-1.146968383789062500e+02,6.423976135253906250e+01,-3.491080474853515625e+01
6.458599865436553955e-02,2.000000000000000000e+00,5.492905616760253906e+00,1.202486038208007812e+01,3.508050918579101562e+01,-1.087818832397460938e+02,9.036609649658203125e+01,-6.516045379638671875e+01,5.363669204711914062e+01,-1.548919105529785156e+01,-1.037323684692382812e+02,-1.146968383789062500e+02,6.423960876464843750e+01,-3.491080474853515625e+01
6.911399960517883301e-02,2.000000000000000000e+00,5.492848396301269531e+00,1.202490615844726562e+01,3.508054733276367188e+01,-1.087818832397460938e+02,9.036631011962890625e+01,-6.516045379638671875e+01,5.363657760620117188e+01,-1.548919105529785156e+01,-1.037324752807617188e+02,-1.146968383789062500e+02,6.423976135253906250e+01,-3.491080474853515625e+01
1.090390011668205261e-01,2.000000000000000000e+00,5.492848396301269531e+00,1.202486038208007812e+01,3.508054733276367188e+01,-1.087819824218750000e+02,9.036609649658203125e+01,-6.516045379638671875e+01,5.363657760620117188e+01,-1.548919105529785156e+01,-1.037324752807617188e+02,-1.146968383789062500e+02,6.423960876464843750e+01,-3.491080474853515625e+01
1.102909967303276062e-01,2.000000000000000000e+00,5.492848396301269531e+00,1.202486038208007812e+01,3.508054733276367188e+01,-1.087819824218750000e+02,9.036609649658203125e+01,-6.516045379638671875e+01,5.363657760620117188e+01,-1.548919105529785156e+01,-1.037324752807617188e+02,-1.146968383789062500e+02,6.423960876464843750e+01,-3.491080474853515625e+01
1.138570010662078857e-01,2.000000000000000000e+00,5.492991924285888672e+00,1.202486038208007812e+01,3.508050918579101562e+01,-1.087820434570312500e+02,9.036620330810546875e+01,-6.516024780273437500e+01,5.363657760620117188e+01,-1.548909854888916016e+01,-1.037324752807617188e+02,-1.146968383789062500e+02,6.423960876464843750e+01,-3.491080474853515625e+01
1.160489991307258606e-01,2.000000000000000000e+00,5.492991924285888672e+00,1.202486038208007812e+01,3.508050918579101562e+01,-1.087820434570312500e+02,9.036620330810546875e+01,-6.516024780273437500e+01,5.363657760620117188e+01,-1.548909854888916016e+01,-1.037324752807617188e+02,-1.146968383789062500e+02,6.423960876464843750e+01,-3.491080474853515625e+01
1.206310018897056580e-01,2.000000000000000000e+00,5.493250370025634766e+00,1.202454376220703125e+01,3.508054733276367188e+01,-1.087818832397460938e+02,9.036620330810546875e+01,-6.516045379638671875e+01,5.363669204711914062e+01,-1.548919105529785156e+01,-1.037324752807617188e+02,-1.146968383789062500e+02,6.423976135253906250e+01,-3.491080474853515625e+01
1.219469979405403137e-01,2.000000000000000000e+00,5.493250370025634766e+00,1.202454376220703125e+01,3.508054733276367188e+01,-1.087818832397460938e+02,9.036620330810546875e+01,-6.516045379638671875e+01,5.363669204711914062e+01,-1.548919105529785156e+01,-1.037324752807617188e+02,-1.146968383789062500e+02,6.423976135253906250e+01,-3.491080474853515625e+01
1.245120018720626831e-01,2.000000000000000000e+00,5.493250370025634766e+00,1.202454376220703125e+01,3.508054733276367188e+01,-1.087818832397460938e+02,9.036620330810546875e+01,-6.516045379638671875e+01,5.363657760620117188e+01,-1.548919105529785156e+01,-1.037323684692382812e+02,-1.146968383789062500e+02,6.423976135253906250e+01,-3.491069030761718750e+01
1.259800046682357788e-01,2.000000000000000000e+00,5.494025230407714844e+00,1.202395534515380859e+01,3.508050918579101562e+01,-1.087818832397460938e+02,9.036620330810546875e+01,-6.516045379638671875e+01,5.363657760620117188e+01,-1.548919105529785156e+01,-1.037323684692382812e+02,-1.146968383789062500e+02,6.423976135253906250e+01,-3.491069030761718750e+01
1.349419951438903809e-01,2.000000000000000000e+00,5.494025230407714844e+00,1.202395534515380859e+01,3.508050918579101562e+01,-1.087818832397460938e+02,9.036620330810546875e+01,-6.516045379638671875e+01,5.363619613647460938e+01,-1.548919105529785156e+01,-1.037319793701171875e+02,-1.146968383789062500e+02,6.423960876464843750e+01,-3.491080474853515625e+01
1.385509967803955078e-01,2.000000000000000000e+00,5.500025272369384766e+00,1.201784515380859375e+01,3.508050918579101562e+01,-1.087821426391601562e+02,9.036641693115234375e+01,-6.516045379638671875e+01,5.363267898559570312e+01,-1.549028873443603516e+01,-1.037279586791992188e+02,-1.146980590820312500e+02,6.423873901367187500e+01,-3.491124343872070312e+01
1.412020027637481689e-01,2.000000000000000000e+00,5.503469944000244141e+00,1.201372623443603516e+01,3.508050918579101562e+01,-1.087828826904296875e+02,9.036641693115234375e+01,-6.516059112548828125e+01,5.362905502319335938e+01,-1.549111366271972656e+01,-1.037266540527343750e+02,-1.146988525390625000e+02,6.423728179931640625e+01,-3.491234207153320312e+01
1.424770057201385498e-01,2.000000000000000000e+00,5.503469944000244141e+00,1.201372623443603516e+01,3.508050918579101562e+01,-1.087828826904296875e+02,9.036641693115234375e+01,-6.516059112548828125e+01,5.362905502319335938e+01,-1.549111366271972656e+01,-1.037266540527343750e+02,-1.146988525390625000e+02,6.423728179931640625e+01,-3.491234207153320312e+01
1.451530009508132935e-01,2.000000000000000000e+00,5.507545948028564453e+00,1.200820541381835938e+01,3.508046722412109375e+01,-1.087844085693359375e+02,9.036631011962890625e+01,-6.516079711914062500e+01,5.362421798706054688e+01,-1.549166297912597656e+01,-1.037254638671875000e+02,-1.146997070312500000e+02,6.423392486572265625e+01,-3.491464996337890625e+01
1.491609960794448853e-01,2.000000000000000000e+00,5.512397766113281250e+00,1.200127983093261719e+01,3.508042526245117188e+01,-1.087874603271484375e+02,9.036652374267578125e+01,-6.516147613525390625e+01,5.361790466308593750e+01,-1.549161720275878906e+01,-1.037244796752929688e+02,-1.147013626098632812e+02,6.422911834716796875e+01,-3.491607666015625000e+01
1.504970043897628784e-01,2.000000000000000000e+00,5.512397766113281250e+00,1.200127983093261719e+01,3.508042526245117188e+01,-1.087874603271484375e+02,9.036652374267578125e+01,-6.516147613525390625e+01,5.361790466308593750e+01,-1.549161720275878906e+01,-1.037244796752929688e+02,-1.147013626098632812e+02,6.422911834716796875e+01,-3.491607666015625000e+01
1.531819999217987061e-01,2.000000000000000000e+00,5.518167972564697266e+00,1.199259090423583984e+01,3.508028411865234375e+01,-1.087920455932617188e+02,9.036668395996093750e+01,-6.516296386718750000e+01,5.360943984985351562e+01,-1.549079227447509766e+01,-1.037236099243164062e+02,-1.147039413452148438e+02,6.422482299804687500e+01,-3.491761398315429688e+01
1.570190042257308960e-01,2.000000000000000000e+00,5.525344371795654297e+00,1.198172760009765625e+01,3.507997894287109375e+01,-1.087983169555664062e+02,9.036679077148437500e+01,-6.516601562500000000e+01,5.359828948974609375e+01,-1.548946571350097656e+01,-1.037239913940429688e+02,-1.147081756591796875e+02,6.422307586669921875e+01,-3.491915512084960938e+01
1.617220044136047363e-01,2.000000000000000000e+00,5.525344371795654297e+00,1.198172760009765625e+01,3.507997894287109375e+01,-1.087983169555664062e+02,9.036679077148437500e+01,-6.516601562500000000e+01,5.358444976806640625e+01,-1.548868656158447266e+01,-1.037301406860351562e+02,-1.147145690917968750e+02,6.422183227539062500e+01,-3.492156982421875000e+01
1.630550026893615723e-01,2.000000000000000000e+00,5.533812999725341797e+00,1.196837711334228516e+01,3.507936859130859375e+01,-1.088064804077148438e+02,9.036689758300781250e+01,-6.517008972167968750e+01,5.358444976806640625e+01,-1.548868656158447266e+01,-1.037301406860351562e+02,-1.147145690917968750e+02,6.422183227539062500e+01,-3.492156982421875000e+01
1.656640022993087769e-01,2.000000000000000000e+00,5.543745517730712891e+00,1.195307922363281250e+01,3.507849121093750000e+01,-1.088173294067382812e+02,9.036732482910156250e+01,-6.517476654052734375e+01,5.356719970703125000e+01,-1.548795413970947266e+01,-1.037341613769531250e+02,-1.147226181030273438e+02,6.422059631347656250e+01,-3.492464447021484375e+01
1.670210063457489014e-01,2.000000000000000000e+00,5.543745517730712891e+00,1.195307922363281250e+01,3.507849121093750000e+01,-1.088173294067382812e+02,9.036732482910156250e+01,-6.517476654052734375e+01,5.356719970703125000e+01,-1.548795413970947266e+01,-1.037341613769531250e+02,-1.147226181030273438e+02,6.422059631347656250e+01,-3.492464447021484375e+01
1.714020073413848877e-01,2.000000000000000000e+00,5.554769039154052734e+00,1.193594741821289062e+01,3.507735443115234375e+01,-1.088308181762695312e+02,9.036764526367187500e+01,-6.518066406250000000e+01,5.354605102539062500e+01,-1.548626041412353516e+01,-1.037362823486328125e+02,-1.147338867187500000e+02,6.421950531005859375e+01,-3.492969894409179688e+01
1.739760041236877441e-01,2.000000000000000000e+00,5.566538810729980469e+00,1.191693878173828125e+01,3.507588958740234375e+01,-1.088476181030273438e+02,9.036807250976562500e+01,-6.518833160400390625e+01,5.352045440673828125e+01,-1.548447608947753906e+01,-1.037398681640625000e+02,-1.147486801147460938e+02,6.421826934814453125e+01,-3.493684005737304688e+01
1.752309948205947876e-01,2.000000000000000000e+00,5.566538810729980469e+00,1.191693878173828125e+01,3.507588958740234375e+01,-1.088476181030273438e+02,9.036807250976562500e+01,-6.518833160400390625e+01,5.352045440673828125e+01,-1.548447608947753906e+01,-1.037398681640625000e+02,-1.147486801147460938e+02,6.421826934814453125e+01,-3.493684005737304688e+01
1.781190037727355957e-01,2.000000000000000000e+00,5.579399108886718750e+00,1.189609622955322266e+01,3.507383728027343750e+01,-1.088683776855468750e+02,9.036876678466796875e+01,-6.519747924804687500e+01,5.348991394042968750e+01,-1.548264408111572266e+01,-1.037446060180664062e+02,-1.147670669555664062e+02,6.421688079833984375e+01,-3.494596099853515625e+01
1.830009967088699341e-01,2.000000000000000000e+00,5.593264579772949219e+00,1.187391853332519531e+01,3.507119369506835938e+01,-1.088933944702148438e+02,9.036930084228515625e+01,-6.520860290527343750e+01,5.345398712158203125e+01,-1.547966957092285156e+01,-1.037517318725585938e+02,-1.147902679443359375e+02,6.421527099609375000e+01,-3.495716476440429688e+01
1.854320019483566284e-01,2.000000000000000000e+00,5.608134746551513672e+00,1.185015678405761719e+01,3.506790161132812500e+01,-1.089232101440429688e+02,9.037030792236328125e+01,-6.522128295898437500e+01,5.341350173950195312e+01,-1.547545814514160156e+01,-1.037594528198242188e+02,-1.148175430297851562e+02,6.421389770507812500e+01,-3.497177886962890625e+01
1.867379993200302124e-01,2.000000000000000000e+00,5.608134746551513672e+00,1.185015678405761719e+01,3.506790161132812500e+01,-1.089232101440429688e+02,9.037030792236328125e+01,-6.522128295898437500e+01,5.341350173950195312e+01,-1.547545814514160156e+01,-1.037594528198242188e+02,-1.148175430297851562e+02,6.421389770507812500e+01,-3.497177886962890625e+01
1.893350034952163696e-01,2.000000000000000000e+00,5.623952388763427734e+00,1.182449531555175781e+01,3.506414031982421875e+01,-1.089562835693359375e+02,9.037105560302734375e+01,-6.523559570312500000e+01,5.336988830566406250e+01,-1.547037696838378906e+01,-1.037683715820312500e+02,-1.148505783081054688e+02,6.421177673339843750e+01,-3.498924636840820312e+01
1.907040029764175415e-01,2.000000000000000000e+00,5.623952388763427734e+00,1.182449531555175781e+01,3.506414031982421875e+01,-1.089562835693359375e+02,9.037105560302734375e+01,-6.523559570312500000e+01,5.336988830566406250e+01,-1.547037696838378906e+01,-1.037683715820312500e+02,-1.148505783081054688e+02,6.421177673339843750e+01,-3.498924636840820312e+01
1.951549947261810303e-01,2.000000000000000000e+00,5.640889167785644531e+00,1.179695415496826172e+01,3.505989074707031250e+01,-1.089913177490234375e+02,9.037211608886718750e+01,-6.525173187255859375e+01,5.332281112670898438e+01,-1.546451663970947266e+01,-1.037803344726562500e+02,-1.148882751464843750e+02,6.420930480957031250e+01,-3.500825119018554688e+01
1.976069957017898560e-01,2.000000000000000000e+00,5.658745288848876953e+00,1.176715087890625000e+01,3.505527496337890625e+01,-1.090296096801757812e+02,9.037323760986328125e+01,-6.526923370361328125e+01,5.327293014526367188e+01,-1.545756053924560547e+01,-1.037943115234375000e+02,-1.149299926757812500e+02,6.420704650878906250e+01,-3.502989578247070312e+01
1.988970041275024414e-01,2.000000000000000000e+00,5.658745288848876953e+00,1.176715087890625000e+01,3.505527496337890625e+01,-1.090296096801757812e+02,9.037323760986328125e+01,-6.526923370361328125e+01,5.327293014526367188e+01,-1.545756053924560547e+01,-1.037943115234375000e+02,-1.149299926757812500e+02,6.420704650878906250e+01,-3.502989578247070312e+01
2.014929950237274170e-01,2.000000000000000000e+00,5.677605628967285156e+00,1.173546886444091797e+01,3.505033493041992188e+01,-1.090732269287109375e+02,9.037431335449218750e+01,-6.528829193115234375e+01,5.322041702270507812e+01,-1.544986915588378906e+01,-1.038091125488281250e+02,-1.149757995605468750e+02,6.420420074462890625e+01,-3.505439758300781250e+01
2.072450071573257446e-01,2.000000000000000000e+00,5.697671413421630859e+00,1.170166015625000000e+01,3.504502868652343750e+01,-1.091202545166015625e+02,9.037564086914062500e+01,-6.530890655517578125e+01,5.316559600830078125e+01,-1.544149208068847656e+01,-1.038248825073242188e+02,-1.150249252319335938e+02,6.420121002197265625e+01,-3.508219146728515625e+01
2.096779942512512207e-01,2.000000000000000000e+00,5.718340396881103516e+00,1.166626739501953125e+01,3.503939819335937500e+01,-1.091675109863281250e+02,9.037713623046875000e+01,-6.533054351806640625e+01,5.310709381103515625e+01,-1.543302249908447266e+01,-1.038415832519531250e+02,-1.150762557983398438e+02,6.419808197021484375e+01,-3.511108398437500000e+01
2.110150009393692017e-01,2.000000000000000000e+00,5.718340396881103516e+00,1.166626739501953125e+01,3.503939819335937500e+01,-1.091675109863281250e+02,9.037713623046875000e+01,-6.533054351806640625e+01,5.310709381103515625e+01,-1.543302249908447266e+01,-1.038415832519531250e+02,-1.150762557983398438e+02,6.419808197021484375e+01,-3.511108398437500000e+01
2.136130034923553467e-01,2.000000000000000000e+00,5.739640712738037109e+00,1.162942504882812500e+01,3.503340148925781250e+01,-1.092165527343750000e+02,9.037857055664062500e+01,-6.535366821289062500e+01,5.304425048828125000e+01,-1.542409706115722656e+01,-1.038582763671875000e+02,-1.151292572021484375e+02,6.419531250000000000e+01,-3.513975906372070312e+01
2.186139971017837524e-01,2.000000000000000000e+00,5.761716365814208984e+00,1.159109020233154297e+01,3.502709579467773438e+01,-1.092684326171875000e+02,9.038017272949218750e+01,-6.537754058837890625e+01,5.297767257690429688e+01,-1.541494178771972656e+01,-1.038748092651367188e+02,-1.151835479736328125e+02,6.419218444824218750e+01,-3.517107009887695312e+01
2.211299985647201538e-01,2.000000000000000000e+00,5.761716365814208984e+00,1.159109020233154297e+01,3.502709579467773438e+01,-1.092684326171875000e+02,9.038017272949218750e+01,-6.537754058837890625e+01,5.297767257690429688e+01,-1.541494178771972656e+01,-1.038748092651367188e+02,-1.151835479736328125e+02,6.419218444824218750e+01,-3.517107009887695312e+01
2.229029983282089233e-01,2.000000000000000000e+00,5.784883022308349609e+00,1.155105781555175781e+01,3.502077102661132812e+01,-1.093211593627929688e+02,9.038176727294921875e+01,-6.540147399902343750e+01,5.290862655639648438e+01,-1.540574073791503906e+01,-1.038910751342773438e+02,-1.152382583618164062e+02,6.418868255615234375e+01,-3.520260238647460938e+01
2.269179970026016235e-01,2.000000000000000000e+00,5.809427261352539062e+00,1.150901126861572266e+01,3.501442718505859375e+01,-1.093746185302734375e+02,9.038368988037109375e+01,-6.542487335205078125e+01,5.283809661865234375e+01,-1.539681434631347656e+01,-1.039071121215820312e+02,-1.152928314208984375e+02,6.418489074707031250e+01,-3.523292160034179688e+01
2.312079966068267822e-01,2.000000000000000000e+00,5.835119724273681641e+00,1.146542644500732422e+01,3.500796508789062500e+01,-1.094283981323242188e+02,9.038529205322265625e+01,-6.544853973388671875e+01,5.276662826538085938e+01,-1.538761425018310547e+01,-1.039226150512695312e+02,-1.153473358154296875e+02,6.418109893798828125e+01,-3.526357269287109375e+01
2.349250018596649170e-01,2.000000000000000000e+00,5.861816883087158203e+00,1.142039299011230469e+01,3.500149536132812500e+01,-1.094822387695312500e+02,9.038731384277343750e+01,-6.547282409667968750e+01,5.269428253173828125e+01,-1.537822914123535156e+01,-1.039377899169921875e+02,-1.154029769897460938e+02,6.417768096923828125e+01,-3.529477310180664062e+01
2.422910034656524658e-01,2.000000000000000000e+00,5.861816883087158203e+00,1.142039299011230469e+01,3.500149536132812500e+01,-1.094822387695312500e+02,9.038731384277343750e+01,-6.547282409667968750e+01,5.262072753906250000e+01,-1.536866188049316406e+01,-1.039531250000000000e+02,-1.154584884643554688e+02,6.417353057861328125e+01,-3.532630538940429688e+01
2.437839955091476440e-01,2.000000000000000000e+00,5.917680740356445312e+00,1.132733821868896484e+01,3.498876953125000000e+01,-1.095913772583007812e+02,9.039115142822265625e+01,-6.552218627929687500e+01,5.254684448242187500e+01,-1.535927677154541016e+01,-1.039684677124023438e+02,-1.155138549804687500e+02,6.416973876953125000e+01,-3.535762023925781250e+01
2.479140013456344604e-01,2.000000000000000000e+00,5.946502208709716797e+00,1.128013229370117188e+01,3.498238372802734375e+01,-1.096457366943359375e+02,9.039312744140625000e+01,-6.554735565185546875e+01,5.247378540039062500e+01,-1.535003089904785156e+01,-1.039835357666015625e+02,-1.155690002441406250e+02,6.416602325439453125e+01,-3.538816070556640625e+01
2.509720027446746826e-01,2.000000000000000000e+00,5.975553512573242188e+00,1.123283576965332031e+01,3.497586059570312500e+01,-1.097004623413085938e+02,9.039510345458984375e+01,-6.557244110107421875e+01,5.240160369873046875e+01,-1.534064579010009766e+01,-1.039984283447265625e+02,-1.156242141723632812e+02,6.416194152832031250e+01,-3.541946792602539062e+01
2.571370005607604980e-01,2.000000000000000000e+00,5.975553512573242188e+00,1.123283576965332031e+01,3.497586059570312500e+01,-1.097004623413085938e+02,9.039510345458984375e+01,-6.557244110107421875e+01,5.232898712158203125e+01,-1.533139991760253906e+01,-1.040133285522460938e+02,-1.156797866821289062e+02,6.415785980224609375e+01,-3.545187759399414062e+01
2.589820027351379395e-01,2.000000000000000000e+00,6.033742427825927734e+00,1.113810729980468750e+01,3.496252441406250000e+01,-1.098093948364257812e+02,9.039931488037109375e+01,-6.562052154541015625e+01,5.225537872314453125e+01,-1.532210731506347656e+01,-1.040288925170898438e+02,-1.157347946166992188e+02,6.415378570556640625e+01,-3.548286056518554688e+01
2.666009962558746338e-01,2.000000000000000000e+00,6.033742427825927734e+00,1.113810729980468750e+01,3.496252441406250000e+01,-1.098093948364257812e+02,9.039931488037109375e+01,-6.562052154541015625e+01,5.225537872314453125e+01,-1.532210731506347656e+01,-1.040288925170898438e+02,-1.157347946166992188e+02,6.415378570556640625e+01,-3.548286056518554688e+01
2.680320143699645996e-01,2.000000000000000000e+00,6.091615200042724609e+00,1.104349136352539062e+01,3.494902038574218750e+01,-1.099182662963867188e+02,9.040299224853515625e+01,-6.566874694824218750e+01,5.210772323608398438e+01,-1.530342960357666016e+01,-1.040602722167968750e+02,-1.158440780639648438e+02,6.414685821533203125e+01,-3.554416656494140625e+01
2.709429860115051270e-01,2.000000000000000000e+00,6.120723724365234375e+00,1.099642086029052734e+01,3.494229125976562500e+01,-1.099729995727539062e+02,9.040517425537109375e+01,-6.569356536865234375e+01,5.203537750244140625e+01,-1.529422950744628906e+01,-1.040756072998046875e+02,-1.158998031616210938e+02,6.414321899414062500e+01,-3.557525634765625000e+01
2.759810090065002441e-01,2.000000000000000000e+00,6.120723724365234375e+00,1.099642086029052734e+01,3.494229125976562500e+01,-1.099729995727539062e+02,9.040517425537109375e+01,-6.569356536865234375e+01,5.203537750244140625e+01,-1.529422950744628906e+01,-1.040756072998046875e+02,-1.158998031616210938e+02,6.414321899414062500e+01,-3.557525634765625000e+01
2.789080142974853516e-01,2.000000000000000000e+00,6.178740501403808594e+00,1.090180587768554688e+01,3.492930221557617188e+01,-1.100819854736328125e+02,9.040933990478515625e+01,-6.574340820312500000e+01,5.188942337036132812e+01,-1.527573490142822266e+01,-1.041056289672851562e+02,-1.160098876953125000e+02,6.413483428955078125e+01,-3.563600921630859375e+01
2.829099893569946289e-01,2.000000000000000000e+00,6.207561969757080078e+00,1.085480308532714844e+01,3.492295455932617188e+01,-1.101365585327148438e+02,9.041136169433593750e+01,-6.576795959472656250e+01,5.181554031372070312e+01,-1.526612186431884766e+01,-1.041209716796875000e+02,-1.160650405883789062e+02,6.413104248046875000e+01,-3.566831207275390625e+01
2.880110144615173340e-01,2.000000000000000000e+00,6.207561969757080078e+00,1.085480308532714844e+01,3.492295455932617188e+01,-1.101365585327148438e+02,9.041136169433593750e+01,-6.576795959472656250e+01,5.181554031372070312e+01,-1.526612186431884766e+01,-1.041209716796875000e+02,-1.160650405883789062e+02,6.413104248046875000e+01,-3.566831207275390625e+01
2.916670143604278564e-01,2.000000000000000000e+00,6.265119075775146484e+00,1.076073074340820312e+01,3.490969848632812500e+01,-1.102450637817382812e+02,9.041541290283203125e+01,-6.581617736816406250e+01,5.167046737670898438e+01,-1.524730777740478516e+01,-1.041515350341796875e+02,-1.161752471923828125e+02,6.412332916259765625e+01,-3.573159027099609375e+01
2.959620058536529541e-01,2.000000000000000000e+00,6.293998241424560547e+00,1.071393203735351562e+01,3.490317153930664062e+01,-1.102991104125976562e+02,9.041738891601562500e+01,-6.583998107910156250e+01,5.159795761108398438e+01,-1.523815345764160156e+01,-1.041665496826171875e+02,-1.162294006347656250e+02,6.411953735351562500e+01,-3.576202392578125000e+01
2.989079952239990234e-01,2.000000000000000000e+00,6.322877407073974609e+00,1.066699790954589844e+01,3.489658355712890625e+01,-1.103529891967773438e+02,9.041941070556640625e+01,-6.586446380615234375e+01,5.152462387084960938e+01,-1.522881507873535156e+01,-1.041818237304687500e+02,-1.162847671508789062e+02,6.411545562744140625e+01,-3.579388427734375000e+01
3.039669990539550781e-01,2.000000000000000000e+00,6.322877407073974609e+00,1.066699790954589844e+01,3.489658355712890625e+01,-1.103529891967773438e+02,9.041941070556640625e+01,-6.586446380615234375e+01,5.152462387084960938e+01,-1.522881507873535156e+01,-1.041818237304687500e+02,-1.162847671508789062e+02,6.411545562744140625e+01,-3.579388427734375000e+01
3.076649904251098633e-01,2.000000000000000000e+00,6.380348205566406250e+00,1.057349109649658203e+01,3.488340759277343750e+01,-1.104620742797851562e+02,9.042356872558593750e+01,-6.591397094726562500e+01,5.137828445434570312e+01,-1.521023082733154297e+01,-1.042129364013671875e+02,-1.163956298828125000e+02,6.410751342773437500e+01,-3.585485839843750000e+01
3.119379878044128418e-01,2.000000000000000000e+00,6.409141540527343750e+00,1.052669239044189453e+01,3.487704849243164062e+01,-1.105163803100585938e+02,9.042570495605468750e+01,-6.593939971923828125e+01,5.130643463134765625e+01,-1.520075321197509766e+01,-1.042281723022460938e+02,-1.164506301879882812e+02,6.410328674316406250e+01,-3.588638687133789062e+01
3.156439960002899170e-01,2.000000000000000000e+00,6.437962532043457031e+00,1.048000717163085938e+01,3.487084579467773438e+01,-1.105712203979492188e+02,9.042767333984375000e+01,-6.596414947509765625e+01,5.123441696166992188e+01,-1.519137096405029297e+01,-1.042434463500976562e+02,-1.165065689086914062e+02,6.409899139404296875e+01,-3.591748046875000000e+01
3.223400115966796875e-01,2.000000000000000000e+00,6.466956615447998047e+00,1.043343448638916016e+01,3.486431884765625000e+01,-1.106252593994140625e+02,9.042970275878906250e+01,-6.598781585693359375e+01,5.116108703613281250e+01,-1.518216896057128906e+01,-1.042586822509765625e+02,-1.165613632202148438e+02,6.409476470947265625e+01,-3.594824218750000000e+01
3.237420022487640381e-01,2.000000000000000000e+00,6.495807170867919922e+00,1.038674831390380859e+01,3.485766983032226562e+01,-1.106799926757812500e+02,9.043177795410156250e+01,-6.601189422607421875e+01,5.108786392211914062e+01,-1.517287635803222656e+01,-1.042740707397460938e+02,-1.166162185668945312e+02,6.409046936035156250e+01,-3.597889328002929688e+01
3.299910128116607666e-01,2.000000000000000000e+00,6.524628639221191406e+00,1.034017658233642578e+01,3.485110092163085938e+01,-1.107345581054687500e+02,9.043380737304687500e+01,-6.603624725341796875e+01,5.101518630981445312e+01,-1.516330909729003906e+01,-1.042894058227539062e+02,-1.166714324951171875e+02,6.408587646484375000e+01,-3.600943756103515625e+01
3.325609862804412842e-01,2.000000000000000000e+00,6.553335666656494141e+00,1.029358100891113281e+01,3.484457397460937500e+01,-1.107883377075195312e+02,9.043599700927734375e+01,-6.606085968017578125e+01,5.094317245483398438e+01,-1.515424537658691406e+01,-1.043048477172851562e+02,-1.167260055541992188e+02,6.408179473876953125e+01,-3.604063796997070312e+01
3.359510004520416260e-01,2.000000000000000000e+00,6.582157135009765625e+00,1.024698638916015625e+01,3.483790969848632812e+01,-1.108432312011718750e+02,9.043791198730468750e+01,-6.608581542968750000e+01,5.087088012695312500e+01,-1.514513492584228516e+01,-1.043203582763671875e+02,-1.167809371948242188e+02,6.407756042480468750e+01,-3.607205963134765625e+01
3.396120071411132812e-01,2.000000000000000000e+00,6.611122608184814453e+00,1.020018768310546875e+01,3.483119964599609375e+01,-1.108974761962890625e+02,9.044036865234375000e+01,-6.611057281494140625e+01,5.079771041870117188e+01,-1.513616371154785156e+01,-1.043358001708984375e+02,-1.168365859985351562e+02,6.407348632812500000e+01,-3.610271072387695312e+01
3.461570143699645996e-01,2.000000000000000000e+00,6.611122608184814453e+00,1.020018768310546875e+01,3.483119964599609375e+01,-1.108974761962890625e+02,9.044036865234375000e+01,-6.611057281494140625e+01,5.072470855712890625e+01,-1.512700843811035156e+01,-1.043509216308593750e+02,-1.168912963867187500e+02,6.406977081298828125e+01,-3.613336181640625000e+01
3.475610017776489258e-01,2.000000000000000000e+00,6.668421268463134766e+00,1.010656738281250000e+01,3.481820678710937500e+01,-1.110062484741210938e+02,9.044436645507812500e+01,-6.615980529785156250e+01,5.065203475952148438e+01,-1.511771583557128906e+01,-1.043664703369140625e+02,-1.169469528198242188e+02,6.406591033935546875e+01,-3.616500091552734375e+01
3.520990014076232910e-01,2.000000000000000000e+00,6.668421268463134766e+00,1.010656738281250000e+01,3.481820678710937500e+01,-1.110062484741210938e+02,9.044436645507812500e+01,-6.615980529785156250e+01,5.065203475952148438e+01,-1.511771583557128906e+01,-1.043664703369140625e+02,-1.169469528198242188e+02,6.406591033935546875e+01,-3.616500091552734375e+01
3.549799919128417969e-01,2.000000000000000000e+00,6.725719928741455078e+00,1.001253986358642578e+01,3.480503082275390625e+01,-1.111146011352539062e+02,9.044873809814453125e+01,-6.620795440673828125e+01,5.050767135620117188e+01,-1.509940528869628906e+01,-1.043978042602539062e+02,-1.170568923950195312e+02,6.405738067626953125e+01,-3.622564697265625000e+01
3.589259982109069824e-01,2.000000000000000000e+00,6.754484176635742188e+00,9.965628623962402344e+00,3.479840469360351562e+01,-1.111689682006835938e+02,9.045108032226562500e+01,-6.623217010498046875e+01,5.043461227416992188e+01,-1.509025001525878906e+01,-1.044131927490234375e+02,-1.171120376586914062e+02,6.405344390869140625e+01,-3.625662994384765625e+01
3.640370070934295654e-01,2.000000000000000000e+00,6.754484176635742188e+00,9.965628623962402344e+00,3.479840469360351562e+01,-1.111689682006835938e+02,9.045108032226562500e+01,-6.623217010498046875e+01,5.043461227416992188e+01,-1.509025001525878906e+01,-1.044131927490234375e+02,-1.171120376586914062e+02,6.405344390869140625e+01,-3.625662994384765625e+01
3.679339885711669922e-01,2.000000000000000000e+00,6.812328338623046875e+00,9.871578216552734375e+00,3.478508377075195312e+01,-1.112775268554687500e+02,9.045556640625000000e+01,-6.628153991699218750e+01,5.028833007812500000e+01,-1.507120704650878906e+01,-1.044432754516601562e+02,-1.172216033935546875e+02,6.404543304443359375e+01,-3.631935882568359375e+01
3.730140030384063721e-01,2.000000000000000000e+00,6.812328338623046875e+00,9.871578216552734375e+00,3.478508377075195312e+01,-1.112775268554687500e+02,9.045556640625000000e+01,-6.628153991699218750e+01,5.028833007812500000e+01,-1.507120704650878906e+01,-1.044432754516601562e+02,-1.172216033935546875e+02,6.404543304443359375e+01,-3.631935882568359375e+01
3.758650124073028564e-01,2.000000000000000000e+00,6.869971752166748047e+00,9.777234077453613281e+00,3.477190780639648438e+01,-1.113857727050781250e+02,9.046004486083984375e+01,-6.633138275146484375e+01,5.014369964599609375e+01,-1.505179691314697266e+01,-1.044737854003906250e+02,-1.173321228027343750e+02,6.403683471679687500e+01,-3.637923812866210938e+01
3.799610137939453125e-01,2.000000000000000000e+00,6.869971752166748047e+00,9.777234077453613281e+00,3.477190780639648438e+01,-1.113857727050781250e+02,9.046004486083984375e+01,-6.633138275146484375e+01,5.014369964599609375e+01,-1.505179691314697266e+01,-1.044737854003906250e+02,-1.173321228027343750e+02,6.403683471679687500e+01,-3.637923812866210938e+01
3.838450014591217041e-01,2.000000000000000000e+00,6.928016662597656250e+00,9.682935714721679688e+00,3.475904083251953125e+01,-1.114946975708007812e+02,9.046441650390625000e+01,-6.637892150878906250e+01,4.999692153930664062e+01,-1.503316593170166016e+01,-1.045039138793945312e+02,-1.174425659179687500e+02,6.402794647216796875e+01,-3.644119644165039062e+01
3.879840075969696045e-01,2.000000000000000000e+00,6.928016662597656250e+00,9.682935714721679688e+00,3.475904083251953125e+01,-1.114946975708007812e+02,9.046441650390625000e+01,-6.637892150878906250e+01,4.999692153930664062e+01,-1.503316593170166016e+01,-1.045039138793945312e+02,-1.174425659179687500e+02,6.402794647216796875e+01,-3.644119644165039062e+01
3.929859995841979980e-01,2.000000000000000000e+00,6.957096576690673828e+00,9.636046409606933594e+00,3.475243377685546875e+01,-1.115493698120117188e+02,9.046654510498046875e+01,-6.640299987792968750e+01,4.992446136474609375e+01,-1.502369117736816406e+01,-1.045190353393554688e+02,-1.174968490600585938e+02,6.402386474609375000e+01,-3.646987533569335938e+01
3.956420123577117920e-01,2.000000000000000000e+00,7.015056133270263672e+00,9.542177200317382812e+00,3.473907470703125000e+01,-1.116573562622070312e+02,9.047107696533203125e+01,-6.645195770263671875e+01,4.978043365478515625e+01,-1.500473880767822266e+01,-1.045499267578125000e+02,-1.176070632934570312e+02,6.401527404785156250e+01,-3.653271484375000000e+01
3.999600112438201904e-01,2.000000000000000000e+00,7.015056133270263672e+00,9.542177200317382812e+00,3.473907470703125000e+01,-1.116573562622070312e+02,9.047107696533203125e+01,-6.645195770263671875e+01,4.978043365478515625e+01,-1.500473880767822266e+01,-1.045499267578125000e+02,-1.176070632934570312e+02,6.401527404785156250e+01,-3.653271484375000000e+01
4.039770066738128662e-01,2.000000000000000000e+00,7.043934822082519531e+00,9.495197296142578125e+00,3.473236465454101562e+01,-1.117121353149414062e+02,9.047331237792968750e+01,-6.647691345214843750e+01,4.970704269409179688e+01,-1.499544620513916016e+01,-1.045649871826171875e+02,-1.176612091064453125e+02,6.401090240478515625e+01,-3.656369781494140625e+01
4.081760048866271973e-01,2.000000000000000000e+00,7.072928905487060547e+00,9.448059082031250000e+00,3.472561264038085938e+01,-1.117660751342773438e+02,9.047576904296875000e+01,-6.650166320800781250e+01,4.963338088989257812e+01,-1.498615455627441406e+01,-1.045799407958984375e+02,-1.177155685424804688e+02,6.400688934326171875e+01,-3.659302902221679688e+01
4.129750132560729980e-01,2.000000000000000000e+00,7.101635932922363281e+00,9.401238441467285156e+00,3.471888732910156250e+01,-1.118205947875976562e+02,9.047800445556640625e+01,-6.652587890625000000e+01,4.956070709228515625e+01,-1.497644996643066406e+01,-1.045951232910156250e+02,-1.177709960937500000e+02,6.400288391113281250e+01,-3.662324142456054688e+01
4.156819880008697510e-01,2.000000000000000000e+00,7.159278869628906250e+00,9.307708740234375000e+00,3.470579147338867188e+01,-1.119281005859375000e+02,9.048249053955078125e+01,-6.657301330566406250e+01,4.941651153564453125e+01,-1.495745182037353516e+01,-1.046260681152343750e+02,-1.178810043334960938e+02,6.399399566650390625e+01,-3.668619155883789062e+01
4.200719892978668213e-01,2.000000000000000000e+00,7.159278869628906250e+00,9.307708740234375000e+00,3.470579147338867188e+01,-1.119281005859375000e+02,9.048249053955078125e+01,-6.657301330566406250e+01,4.941651153564453125e+01,-1.495745182037353516e+01,-1.046260681152343750e+02,-1.178810043334960938e+02,6.399399566650390625e+01,-3.668619155883789062e+01
4.242179989814758301e-01,2.000000000000000000e+00,7.216865062713623047e+00,9.214292526245117188e+00,3.469269943237304688e+01,-1.120367126464843750e+02,9.048701477050781250e+01,-6.662150573730468750e+01,4.927006149291992188e+01,-1.493941688537597656e+01,-1.046564178466796875e+02,-1.179906616210937500e+02,6.398619461059570312e+01,-3.674562835693359375e+01
4.269559979438781738e-01,2.000000000000000000e+00,7.216865062713623047e+00,9.214292526245117188e+00,3.469269943237304688e+01,-1.120367126464843750e+02,9.048701477050781250e+01,-6.662150573730468750e+01,4.927006149291992188e+01,-1.493941688537597656e+01,-1.046564178466796875e+02,-1.179906616210937500e+02,6.398619461059570312e+01,-3.674562835693359375e+01
4.331589937210083008e-01,2.000000000000000000e+00,7.245715141296386719e+00,9.167675018310546875e+00,3.468605041503906250e+01,-1.120908660888671875e+02,9.048936462402343750e+01,-6.664625549316406250e+01,4.919799423217773438e+01,-1.493035316467285156e+01,-1.046717529296875000e+02,-1.180460891723632812e+02,6.398218536376953125e+01,-3.677737808227539062e+01
4.368650019168853760e-01,2.000000000000000000e+00,7.303473472595214844e+00,9.074145317077636719e+00,3.467281341552734375e+01,-1.121987380981445312e+02,9.049394989013671875e+01,-6.669583129882812500e+01,4.905406951904296875e+01,-1.491162967681884766e+01,-1.047026443481445312e+02,-1.181541595458984375e+02,6.397366333007812500e+01,-3.683923339843750000e+01
4.394699931144714355e-01,2.000000000000000000e+00,7.332151889801025391e+00,9.027549743652343750e+00,3.466626739501953125e+01,-1.122529449462890625e+02,9.049624633789062500e+01,-6.671969604492187500e+01,4.898051834106445312e+01,-1.490252017974853516e+01,-1.047177124023437500e+02,-1.182094421386718750e+02,6.396936798095703125e+01,-3.687065505981445312e+01
4.430060088634490967e-01,2.000000000000000000e+00,7.332151889801025391e+00,9.027549743652343750e+00,3.466626739501953125e+01,-1.122529449462890625e+02,9.049624633789062500e+01,-6.671969604492187500e+01,4.898051834106445312e+01,-1.490252017974853516e+01,-1.047177124023437500e+02,-1.182094421386718750e+02,6.396936798095703125e+01,-3.687065505981445312e+01
4.470840096473693848e-01,2.000000000000000000e+00,7.361145019531250000e+00,8.980819702148437500e+00,3.465969848632812500e+01,-1.123076171875000000e+02,9.049837493896484375e+01,-6.674323272705078125e+01,4.890745925903320312e+01,-1.489345645904541016e+01,-1.047331008911132812e+02,-1.182644500732421875e+02,6.396529006958007812e+01,-3.690262603759765625e+01
4.510599970817565918e-01,2.000000000000000000e+00,7.390168190002441406e+00,8.934065818786621094e+00,3.465331649780273438e+01,-1.123612899780273438e+02,9.050088500976562500e+01,-6.676730346679687500e+01,4.883494949340820312e+01,-1.488416385650634766e+01,-1.047486572265625000e+02,-1.183193130493164062e+02,6.396112823486328125e+01,-3.693349838256835938e+01
4.551079869270324707e-01,2.000000000000000000e+00,7.418903827667236328e+00,8.887402534484863281e+00,3.464693069458007812e+01,-1.124158630371093750e+02,9.050306701660156250e+01,-6.679103851318359375e+01,4.876353836059570312e+01,-1.487491798400878906e+01,-1.047639389038085938e+02,-1.183747482299804688e+02,6.395727157592773438e+01,-3.696294021606445312e+01
4.612669944763183594e-01,2.000000000000000000e+00,7.447581291198730469e+00,8.840740203857421875e+00,3.464042663574218750e+01,-1.124701156616210938e+02,9.050519561767578125e+01,-6.681579589843750000e+01,4.869113922119140625e+01,-1.486553287506103516e+01,-1.047793884277343750e+02,-1.184293212890625000e+02,6.395289993286132812e+01,-3.699359130859375000e+01
4.638899862766265869e-01,2.000000000000000000e+00,7.505138397216796875e+00,8.747323989868164062e+00,3.462710952758789062e+01,-1.125783081054687500e+02,9.050951385498046875e+01,-6.686516571044921875e+01,4.854447174072265625e+01,-1.484722328186035156e+01,-1.048103866577148438e+02,-1.185390396118164062e+02,6.394379425048828125e+01,-3.705467605590820312e+01
4.679650068283081055e-01,2.000000000000000000e+00,7.505138397216796875e+00,8.747323989868164062e+00,3.462710952758789062e+01,-1.125783081054687500e+02,9.050951385498046875e+01,-6.686516571044921875e+01,4.854447174072265625e+01,-1.484722328186035156e+01,-1.048103866577148438e+02,-1.185390396118164062e+02,6.394379425048828125e+01,-3.705467605590820312e+01
4.719699919223785400e-01,2.000000000000000000e+00,7.534046173095703125e+00,8.700457572937011719e+00,3.462046051025390625e+01,-1.126322479248046875e+02,9.051170349121093750e+01,-6.688957977294921875e+01,4.847201538085937500e+01,-1.483802223205566406e+01,-1.048252944946289062e+02,-1.185932464599609375e+02,6.393978500366210938e+01,-3.708389663696289062e+01
4.751139879226684570e-01,2.000000000000000000e+00,7.562868118286132812e+00,8.653613090515136719e+00,3.461370849609375000e+01,-1.126862945556640625e+02,9.051393890380859375e+01,-6.691331481933593750e+01,4.840049743652343750e+01,-1.482877445220947266e+01,-1.048404083251953125e+02,-1.186478195190429688e+02,6.393577575683593750e+01,-3.711476898193359375e+01
4.793229997158050537e-01,2.000000000000000000e+00,7.591488838195800781e+00,8.606701850891113281e+00,3.460697937011718750e+01,-1.127404937744140625e+02,9.051586151123046875e+01,-6.693704986572265625e+01,4.832804107666015625e+01,-1.481957435607910156e+01,-1.048556365966796875e+02,-1.187028961181640625e+02,6.393148040771484375e+01,-3.714509201049804688e+01
4.833030104637145996e-01,2.000000000000000000e+00,7.620023727416992188e+00,8.559857368469238281e+00,3.460045242309570312e+01,-1.127941131591796875e+02,9.051804351806640625e+01,-6.696079254150390625e+01,4.825487136840820312e+01,-1.481032752990722656e+01,-1.048708724975585938e+02,-1.187570495605468750e+02,6.392667007446289062e+01,-3.717398834228515625e+01
4.883059859275817871e-01,2.000000000000000000e+00,7.648759365081787109e+00,8.512923240661621094e+00,3.459394454956054688e+01,-1.128482055664062500e+02,9.052018737792968750e+01,-6.698547363281250000e+01,4.818148422241210938e+01,-1.480121803283691406e+01,-1.048862609863281250e+02,-1.188121948242187500e+02,6.392244338989257812e+01,-3.720419692993164062e+01
4.912120103836059570e-01,2.000000000000000000e+00,7.677580833435058594e+00,8.465966224670410156e+00,3.458733749389648438e+01,-1.129023132324218750e+02,9.052236938476562500e+01,-6.700981903076171875e+01,4.810957717895507812e+01,-1.479201602935791016e+01,-1.049014358520507812e+02,-1.188676986694335938e+02,6.391828918457031250e+01,-3.723583984375000000e+01
4.954580068588256836e-01,2.000000000000000000e+00,7.706546306610107422e+00,8.419235229492187500e+00,3.458069229125976562e+01,-1.129564056396484375e+02,9.052433776855468750e+01,-6.703463745117187500e+01,4.803805541992187500e+01,-1.478263282775878906e+01,-1.049168243408203125e+02,-1.189216308593750000e+02,6.391435623168945312e+01,-3.726726150512695312e+01
5.000360012054443359e-01,2.000000000000000000e+00,7.735424995422363281e+00,8.372210502624511719e+00,3.457406234741210938e+01,-1.130105590820312500e+02,9.052636718750000000e+01,-6.705966186523437500e+01,4.796554565429687500e+01,-1.477334117889404297e+01,-1.049321670532226562e+02,-1.189758987426757812e+02,6.390983581542968750e+01,-3.729747390747070312e+01
5.034679770469665527e-01,2.000000000000000000e+00,7.764217853546142578e+00,8.325230598449707031e+00,3.456741333007812500e+01,-1.130640716552734375e+02,9.052833557128906250e+01,-6.708367156982421875e+01,4.789248657226562500e+01,-1.476377296447753906e+01,-1.049471664428710938e+02,-1.190307617187500000e+02,6.390561294555664062e+01,-3.732735824584960938e+01
5.079720020294189453e-01,2.000000000000000000e+00,7.793068408966064453e+00,8.278296470642089844e+00,3.456070327758789062e+01,-1.131183776855468750e+02,9.053041839599609375e+01,-6.710733795166015625e+01,4.781948471069335938e+01,-1.475448131561279297e+01,-1.049622344970703125e+02,-1.190847625732421875e+02,6.390160369873046875e+01,-3.735823059082031250e+01
5.123829841613769531e-01,2.000000000000000000e+00,7.821804046630859375e+00,8.231316566467285156e+00,3.455407714843750000e+01,-1.131727371215820312e+02,9.053250122070312500e+01,-6.713141632080078125e+01,4.774790573120117188e+01,-1.474537086486816406e+01,-1.049774703979492188e+02,-1.191393356323242188e+02,6.389767074584960938e+01,-3.738887786865234375e+01
5.160530209541320801e-01,2.000000000000000000e+00,7.850625514984130859e+00,8.184540748596191406e+00,3.454751205444335938e+01,-1.132265167236328125e+02,9.053436279296875000e+01,-6.715556335449218750e+01,4.767627716064453125e+01,-1.473612308502197266e+01,-1.049925842285156250e+02,-1.191943435668945312e+02,6.389344406127929688e+01,-3.741854476928710938e+01
5.195900201797485352e-01,2.000000000000000000e+00,7.879389286041259766e+00,8.137854576110839844e+00,3.454108428955078125e+01,-1.132809295654296875e+02,9.053628540039062500e+01,-6.718024444580078125e+01,4.760387802124023438e+01,-1.472678661346435547e+01,-1.050078125000000000e+02,-1.192489852905273438e+02,6.388922119140625000e+01,-3.744908523559570312e+01
5.240269899368286133e-01,2.000000000000000000e+00,7.908268928527832031e+00,8.091078758239746094e+00,3.453478240966796875e+01,-1.133348159790039062e+02,9.053841400146484375e+01,-6.720526885986328125e+01,4.753065109252929688e+01,-1.471735572814941406e+01,-1.050229873657226562e+02,-1.193039932250976562e+02,6.388521194458007812e+01,-3.748127365112304688e+01
5.276579856872558594e-01,2.000000000000000000e+00,7.936946392059326172e+00,8.044506072998046875e+00,3.452815246582031250e+01,-1.133888626098632812e+02,9.054049682617187500e+01,-6.722995758056640625e+01,4.745803451538085938e+01,-1.470801639556884766e+01,-1.050384902954101562e+02,-1.193587036132812500e+02,6.388127899169921875e+01,-3.751357650756835938e+01
5.319690108299255371e-01,2.000000000000000000e+00,7.965481281280517578e+00,7.997549533843994141e+00,3.452142333984375000e+01,-1.134433746337890625e+02,9.054203796386718750e+01,-6.725416564941406250e+01,4.738640213012695312e+01,-1.469877052307128906e+01,-1.050536651611328125e+02,-1.194125518798828125e+02,6.387719345092773438e+01,-3.754301452636718750e+01
5.383219718933105469e-01,2.000000000000000000e+00,8.023153305053710938e+00,7.904292106628417969e+00,3.450810623168945312e+01,-1.135513000488281250e+02,9.054620361328125000e+01,-6.730183410644531250e+01,4.724193191528320312e+01,-1.468018531799316406e+01,-1.050839538574218750e+02,-1.195222091674804688e+02,6.386838150024414062e+01,-3.760498046875000000e+01
5.409740209579467773e-01,2.000000000000000000e+00,8.051630020141601562e+00,7.857651233673095703e+00,3.450141525268554688e+01,-1.136049804687500000e+02,9.054806518554687500e+01,-6.732598114013671875e+01,4.716876602172851562e+01,-1.467075443267822266e+01,-1.050991363525390625e+02,-1.195762710571289062e+02,6.386423110961914062e+01,-3.763640213012695312e+01
5.440000295639038086e-01,2.000000000000000000e+00,8.051630020141601562e+00,7.857651233673095703e+00,3.450141525268554688e+01,-1.136049804687500000e+02,9.054806518554687500e+01,-6.732598114013671875e+01,4.716876602172851562e+01,-1.467075443267822266e+01,-1.050991363525390625e+02,-1.195762710571289062e+02,6.386423110961914062e+01,-3.763640213012695312e+01
5.477139949798583984e-01,2.000000000000000000e+00,8.080366134643554688e+00,7.811123847961425781e+00,3.449486923217773438e+01,-1.136583938598632812e+02,9.055019378662109375e+01,-6.735012817382812500e+01,4.709587097167968750e+01,-1.466127967834472656e+01,-1.051144104003906250e+02,-1.196309967041015625e+02,6.385978317260742188e+01,-3.766518402099609375e+01
5.519930124282836914e-01,2.000000000000000000e+00,8.108958244323730469e+00,7.764438629150390625e+00,3.448834228515625000e+01,-1.137129592895507812e+02,9.055207061767578125e+01,-6.737467193603515625e+01,4.702385330200195312e+01,-1.465212345123291016e+01,-1.051295318603515625e+02,-1.196854858398437500e+02,6.385533523559570312e+01,-3.769441223144531250e+01
5.560179948806762695e-01,2.000000000000000000e+00,8.137693405151367188e+00,7.717594623565673828e+00,3.448181915283203125e+01,-1.137666931152343750e+02,9.055382537841796875e+01,-6.739949798583984375e+01,4.695199966430664062e+01,-1.464319801330566406e+01,-1.051449203491210938e+02,-1.197403488159179688e+02,6.385089111328125000e+01,-3.772561264038085938e+01
5.619369745254516602e-01,2.000000000000000000e+00,8.166458129882812500e+00,7.671157836914062500e+00,3.447531127929687500e+01,-1.138204650878906250e+02,9.055579376220703125e+01,-6.742452239990234375e+01,4.687943649291992188e+01,-1.463417911529541016e+01,-1.051603164672851562e+02,-1.197950744628906250e+02,6.384645080566406250e+01,-3.775714111328125000e+01
5.648999810218811035e-01,2.000000000000000000e+00,8.223928451538085938e+00,7.577764511108398438e+00,3.446215820312500000e+01,-1.139281387329101562e+02,9.055947875976562500e+01,-6.747232818603515625e+01,4.673315429687500000e+01,-1.461554813385009766e+01,-1.051901702880859375e+02,-1.199044342041015625e+02,6.383850860595703125e+01,-3.781679916381835938e+01
5.681070089340209961e-01,2.000000000000000000e+00,8.223928451538085938e+00,7.577764511108398438e+00,3.446215820312500000e+01,-1.139281387329101562e+02,9.055947875976562500e+01,-6.747232818603515625e+01,4.673315429687500000e+01,-1.461554813385009766e+01,-1.051901702880859375e+02,-1.199044342041015625e+02,6.383850860595703125e+01,-3.781679916381835938e+01
5.719159841537475586e-01,2.000000000000000000e+00,8.252607345581054688e+00,7.531124591827392578e+00,3.445558929443359375e+01,-1.139826583862304688e+02,9.056155395507812500e+01,-6.749600219726562500e+01,4.666091918945312500e+01,-1.460643959045410156e+01,-1.052058944702148438e+02,-1.199592971801757812e+02,6.383442306518554688e+01,-3.784876632690429688e+01
5.760750174522399902e-01,2.000000000000000000e+00,8.281169891357421875e+00,7.484393119812011719e+00,3.444892120361328125e+01,-1.140369110107421875e+02,9.056352996826171875e+01,-6.751993560791015625e+01,4.658906936645507812e+01,-1.459742069244384766e+01,-1.052212829589843750e+02,-1.200127105712890625e+02,6.383012771606445312e+01,-3.787942123413085938e+01
5.801180005073547363e-01,2.000000000000000000e+00,8.309934616088867188e+00,7.437639713287353516e+00,3.444231033325195312e+01,-1.140904235839843750e+02,9.056539154052734375e+01,-6.754455566406250000e+01,4.651661300659179688e+01,-1.458831310272216797e+01,-1.052362976074218750e+02,-1.200669250488281250e+02,6.382589721679687500e+01,-3.790831375122070312e+01
5.849909782409667969e-01,2.000000000000000000e+00,8.338726997375488281e+00,7.391067504882812500e+00,3.443588638305664062e+01,-1.141448898315429688e+02,9.056736755371093750e+01,-6.756903839111328125e+01,4.644338989257812500e+01,-1.457901859283447266e+01,-1.052512588500976562e+02,-1.201224288940429688e+02,6.382167816162109375e+01,-3.793720626831054688e+01
5.887939929962158203e-01,2.000000000000000000e+00,8.396141052246093750e+00,7.297697067260742188e+00,3.442307662963867188e+01,-1.142525024414062500e+02,9.057131195068359375e+01,-6.761827087402343750e+01,4.629853820800781250e+01,-1.456061840057373047e+01,-1.052824707031250000e+02,-1.202317962646484375e+02,6.381351470947265625e+01,-3.799861907958984375e+01
5.922099947929382324e-01,2.000000000000000000e+00,8.396141052246093750e+00,7.297697067260742188e+00,3.442307662963867188e+01,-1.142525024414062500e+02,9.057131195068359375e+01,-6.761827087402343750e+01,4.629853820800781250e+01,-1.456061840057373047e+01,-1.052824707031250000e+02,-1.202317962646484375e+02,6.381351470947265625e+01,-3.799861907958984375e+01
5.960749983787536621e-01,2.000000000000000000e+00,8.424761772155761719e+00,7.251101493835449219e+00,3.441648864746093750e+01,-1.143069152832031250e+02,9.057306671142578125e+01,-6.764214324951171875e+01,4.622734451293945312e+01,-1.455159854888916016e+01,-1.052976455688476562e+02,-1.202863693237304688e+02,6.380943298339843750e+01,-3.802861022949218750e+01
6.000800132751464844e-01,2.000000000000000000e+00,8.453325271606445312e+00,7.204280376434326172e+00,3.440986251831054688e+01,-1.143606414794921875e+02,9.057520294189453125e+01,-6.766547393798828125e+01,4.615510940551757812e+01,-1.454271984100341797e+01,-1.053125534057617188e+02,-1.203408737182617188e+02,6.380499267578125000e+01,-3.806003570556640625e+01
6.041169762611389160e-01,2.000000000000000000e+00,8.482117652893066406e+00,7.157549381256103516e+00,3.440327453613281250e+01,-1.144150009155273438e+02,9.057707214355468750e+01,-6.768941497802734375e+01,4.608210372924804688e+01,-1.453369998931884766e+01,-1.053276138305664062e+02,-1.203957290649414062e+02,6.380062103271484375e+01,-3.809167480468750000e+01
6.089619994163513184e-01,2.000000000000000000e+00,8.510882377624511719e+00,7.110773563385009766e+00,3.439656829833984375e+01,-1.144685134887695312e+02,9.057909393310546875e+01,-6.771335601806640625e+01,4.600937652587890625e+01,-1.452463626861572266e+01,-1.053431167602539062e+02,-1.204502258300781250e+02,6.379668426513671875e+01,-3.812166595458984375e+01
6.108949780464172363e-01,2.000000000000000000e+00,8.539503097534179688e+00,7.064064979553222656e+00,3.438985443115234375e+01,-1.145220870971679688e+02,9.058090972900390625e+01,-6.773777008056640625e+01,4.593758010864257812e+01,-1.451520729064941406e+01,-1.053586654663085938e+02,-1.205043716430664062e+02,6.379303741455078125e+01,-3.815089416503906250e+01
6.165050268173217773e-01,2.000000000000000000e+00,8.568152427673339844e+00,7.017425060272216797e+00,3.438320541381835938e+01,-1.145760726928710938e+02,9.058293151855468750e+01,-6.776251983642578125e+01,4.586605834960937500e+01,-1.450619029998779297e+01,-1.053740081787109375e+02,-1.205592346191406250e+02,6.378866577148437500e+01,-3.818275070190429688e+01
6.203100085258483887e-01,2.000000000000000000e+00,8.596801757812500000e+00,6.970694541931152344e+00,3.437674331665039062e+01,-1.146302719116210938e+02,9.058506011962890625e+01,-6.778733825683593750e+01,4.579382324218750000e+01,-1.449721622467041016e+01,-1.053891754150390625e+02,-1.206140899658203125e+02,6.378407669067382812e+01,-3.821450424194335938e+01
6.229500174522399902e-01,2.000000000000000000e+00,8.625508308410644531e+00,6.924121856689453125e+00,3.437021636962890625e+01,-1.146844253540039062e+02,9.058720397949218750e+01,-6.781134796142578125e+01,4.572076416015625000e+01,-1.448806095123291016e+01,-1.054044113159179688e+02,-1.206688003540039062e+02,6.377985000610351562e+01,-3.824438476562500000e+01
6.269590258598327637e-01,2.000000000000000000e+00,8.654329299926757812e+00,6.877277851104736328e+00,3.436362838745117188e+01,-1.147381057739257812e+02,9.058891296386718750e+01,-6.783515167236328125e+01,4.564836502075195312e+01,-1.447872352600097656e+01,-1.054194793701171875e+02,-1.207238159179687500e+02,6.377584838867187500e+01,-3.827426528930664062e+01
6.310099959373474121e-01,2.000000000000000000e+00,8.683179855346679688e+00,6.830592155456542969e+00,3.435693740844726562e+01,-1.147913589477539062e+02,9.059093475341796875e+01,-6.785874938964843750e+01,4.557678985595703125e+01,-1.446920108795166016e+01,-1.054347534179687500e+02,-1.207783050537109375e+02,6.377161788940429688e+01,-3.830524826049804688e+01
6.349040269851684570e-01,2.000000000000000000e+00,8.711858749389648438e+00,6.783793926239013672e+00,3.435033035278320312e+01,-1.148457107543945312e+02,9.059290313720703125e+01,-6.788242340087890625e+01,4.550548553466796875e+01,-1.445963573455810547e+01,-1.054496078491210938e+02,-1.208330307006835938e+02,6.376702880859375000e+01,-3.833656311035156250e+01
6.409929990768432617e-01,2.000000000000000000e+00,8.769100189208984375e+00,6.690649032592773438e+00,3.433719635009765625e+01,-1.149540100097656250e+02,9.059712219238281250e+01,-6.793131256103515625e+01,4.536024856567382812e+01,-1.444137001037597656e+01,-1.054795761108398438e+02,-1.209411621093750000e+02,6.375886535644531250e+01,-3.839533996582031250e+01
6.428949832916259766e-01,2.000000000000000000e+00,8.769100189208984375e+00,6.690649032592773438e+00,3.433719635009765625e+01,-1.149540100097656250e+02,9.059712219238281250e+01,-6.793131256103515625e+01,4.536024856567382812e+01,-1.444137001037597656e+01,-1.054795761108398438e+02,-1.209411621093750000e+02,6.375886535644531250e+01,-3.839533996582031250e+01
6.468899846076965332e-01,2.000000000000000000e+00,8.797778129577636719e+00,6.644053936004638672e+00,3.433058929443359375e+01,-1.150082168579101562e+02,9.059908294677734375e+01,-6.795587158203125000e+01,4.528751754760742188e+01,-1.443216896057128906e+01,-1.054944763183593750e+02,-1.209958877563476562e+02,6.375500869750976562e+01,-3.842697906494140625e+01
6.510170102119445801e-01,2.000000000000000000e+00,8.826427459716796875e+00,6.597368717193603516e+00,3.432416152954101562e+01,-1.150616302490234375e+02,9.060105895996093750e+01,-6.798034667968750000e+01,4.521566772460937500e+01,-1.442273902893066406e+01,-1.055098648071289062e+02,-1.210511016845703125e+02,6.375070571899414062e+01,-3.845905685424804688e+01
6.549879908561706543e-01,2.000000000000000000e+00,8.855134010314941406e+00,6.550954341888427734e+00,3.431784057617187500e+01,-1.151153564453125000e+02,9.060340881347656250e+01,-6.800435638427734375e+01,4.514414596557617188e+01,-1.441344642639160156e+01,-1.055251007080078125e+02,-1.211055221557617188e+02,6.374662780761718750e+01,-3.848894119262695312e+01
6.588900089263916016e-01,2.000000000000000000e+00,8.883697509765625000e+00,6.504291534423828125e+00,3.431141281127929688e+01,-1.151698150634765625e+02,9.060538482666015625e+01,-6.802809143066406250e+01,4.507168960571289062e+01,-1.440424633026123047e+01,-1.055402145385742188e+02,-1.211603851318359375e+02,6.374254989624023438e+01,-3.851827621459960938e+01
6.655309796333312988e-01,2.000000000000000000e+00,8.912203788757324219e+00,6.457696914672851562e+00,3.430484771728515625e+01,-1.152233963012695312e+02,9.060767364501953125e+01,-6.805155181884765625e+01,4.499824905395507812e+01,-1.439499759674072266e+01,-1.055551757812500000e+02,-1.212153244018554688e+02,6.373846435546875000e+01,-3.854958343505859375e+01
6.687189936637878418e-01,2.000000000000000000e+00,8.941111564636230469e+00,6.411191940307617188e+00,3.429825973510742188e+01,-1.152777481079101562e+02,9.060958862304687500e+01,-6.807569885253906250e+01,4.492535400390625000e+01,-1.438584327697753906e+01,-1.055704574584960938e+02,-1.212692489624023438e+02,6.373438644409179688e+01,-3.858067703247070312e+01
6.727989912033081055e-01,2.000000000000000000e+00,8.969616889953613281e+00,6.364506721496582031e+00,3.429169082641601562e+01,-1.153311614990234375e+02,9.061172485351562500e+01,-6.809977722167968750e+01,4.485372161865234375e+01,-1.437632083892822266e+01,-1.055855178833007812e+02,-1.213236007690429688e+02,6.373030471801757812e+01,-3.860989761352539062e+01
6.769620180130004883e-01,2.000000000000000000e+00,8.998438835144042969e+00,6.318115234375000000e+00,3.428504562377929688e+01,-1.153845748901367188e+02,9.061386108398437500e+01,-6.812466430664062500e+01,4.478215026855468750e+01,-1.436647987365722656e+01,-1.056005859375000000e+02,-1.213786773681640625e+02,6.372622680664062500e+01,-3.863923263549804688e+01
6.817550063133239746e-01,2.000000000000000000e+00,9.027145385742187500e+00,6.271633625030517578e+00,3.427837753295898438e+01,-1.154388351440429688e+02,9.061598968505859375e+01,-6.814927673339843750e+01,4.470980453491210938e+01,-1.435723209381103516e+01,-1.056158142089843750e+02,-1.214326095581054688e+02,6.372199630737304688e+01,-3.867010498046875000e+01
6.849780082702636719e-01,2.000000000000000000e+00,9.055564880371093750e+00,6.224812030792236328e+00,3.427178955078125000e+01,-1.154923934936523438e+02,9.061817932128906250e+01,-6.817389678955078125e+01,4.463646697998046875e+01,-1.434839725494384766e+01,-1.056311492919921875e+02,-1.214871826171875000e+02,6.371777725219726562e+01,-3.870152664184570312e+01
6.901729702949523926e-01,2.000000000000000000e+00,9.084242820739746094e+00,6.178262233734130859e+00,3.426532363891601562e+01,-1.155462875366210938e+02,9.062041473388671875e+01,-6.819763183593750000e+01,4.456351852416992188e+01,-1.433937931060791016e+01,-1.056463851928710938e+02,-1.215421142578125000e+02,6.371376800537109375e+01,-3.873140716552734375e+01
6.915720105171203613e-01,2.000000000000000000e+00,9.113207817077636719e+00,6.131554603576660156e+00,3.425897979736328125e+01,-1.156004333496093750e+02,9.062260437011718750e+01,-6.822137451171875000e+01,4.449200057983398438e+01,-1.433004093170166016e+01,-1.056613922119140625e+02,-1.215966873168945312e+02,6.370954132080078125e+01,-3.876173019409179688e+01
6.972230076789855957e-01,2.000000000000000000e+00,9.141857147216796875e+00,6.084846019744873047e+00,3.425243377685546875e+01,-1.156536254882812500e+02,9.062473297119140625e+01,-6.824550628662109375e+01,4.442042160034179688e+01,-1.432088565826416016e+01,-1.056770553588867188e+02,-1.216515426635742188e+02,6.370538711547851562e+01,-3.879260253906250000e+01
6.988959908485412598e-01,2.000000000000000000e+00,9.170392036437988281e+00,6.038319110870361328e+00,3.424576187133789062e+01,-1.157074661254882812e+02,9.062697601318359375e+01,-6.826951599121093750e+01,4.434802246093750000e+01,-1.431182193756103516e+01,-1.056925582885742188e+02,-1.217060470581054688e+02,6.370093917846679688e+01,-3.882259368896484375e+01
7.029460072517395020e-01,2.000000000000000000e+00,9.199156761169433594e+00,5.991678714752197266e+00,3.423921585083007812e+01,-1.157616119384765625e+02,9.062927246093750000e+01,-6.829373168945312500e+01,4.427501678466796875e+01,-1.430280494689941406e+01,-1.057078399658203125e+02,-1.217600479125976562e+02,6.369656753540039062e+01,-3.885137939453125000e+01
7.069280147552490234e-01,2.000000000000000000e+00,9.227576255798339844e+00,5.945015907287597656e+00,3.423261260986328125e+01,-1.158150787353515625e+02,9.063134765625000000e+01,-6.831875610351562500e+01,4.420273208618164062e+01,-1.429355716705322266e+01,-1.057226867675781250e+02,-1.218148269653320312e+02,6.369234848022460938e+01,-3.888203048706054688e+01
7.131909728050231934e-01,2.000000000000000000e+00,9.256398200988769531e+00,5.898353099822998047e+00,3.422600173950195312e+01,-1.158696517944335938e+02,9.063358306884765625e+01,-6.834343719482421875e+01,4.413126373291015625e+01,-1.428449344635009766e+01,-1.057379150390625000e+02,-1.218688964843750000e+02,6.368833923339843750e+01,-3.891312026977539062e+01
7.170689702033996582e-01,2.000000000000000000e+00,9.284990310668945312e+00,5.851825714111328125e+00,3.421939468383789062e+01,-1.159234313964843750e+02,9.063587951660156250e+01,-6.836737823486328125e+01,4.405990982055664062e+01,-1.427520179748535156e+01,-1.057535858154296875e+02,-1.219229736328125000e+02,6.368403625488281250e+01,-3.894322586059570312e+01
7.189180254936218262e-01,2.000000000000000000e+00,9.313639640808105469e+00,5.805275917053222656e+00,3.421298980712890625e+01,-1.159767913818359375e+02,9.063822174072265625e+01,-6.839104461669921875e+01,4.398767089843750000e+01,-1.426577186584472656e+01,-1.057689132690429688e+02,-1.219779052734375000e+02,6.367974090576171875e+01,-3.897277832031250000e+01
7.229430079460144043e-01,2.000000000000000000e+00,9.341973304748535156e+00,5.758749008178710938e+00,3.420668792724609375e+01,-1.160308837890625000e+02,9.064035797119140625e+01,-6.841464233398437500e+01,4.391466903686523438e+01,-1.425661659240722656e+01,-1.057840957641601562e+02,-1.220324096679687500e+02,6.367544174194335938e+01,-3.900376129150390625e+01
7.268959879875183105e-01,2.000000000000000000e+00,9.370795249938964844e+00,5.712040901184082031e+00,3.420022201538085938e+01,-1.160845565795898438e+02,9.064259338378906250e+01,-6.843899536132812500e+01,4.384243011474609375e+01,-1.424764442443847656e+01,-1.057994232177734375e+02,-1.220871200561523438e+02,6.367136001586914062e+01,-3.903528976440429688e+01
7.327179908752441406e-01,2.000000000000000000e+00,9.399501800537109375e+00,5.665377616882324219e+00,3.419355392456054688e+01,-1.161385955810546875e+02,9.064472198486328125e+01,-6.846300506591796875e+01,4.377107620239257812e+01,-1.423867225646972656e+01,-1.058147659301757812e+02,-1.221420440673828125e+02,6.366706085205078125e+01,-3.906649398803710938e+01
7.349259853363037109e-01,2.000000000000000000e+00,9.428294181823730469e+00,5.618827819824218750e+00,3.418696594238281250e+01,-1.161922683715820312e+02,9.064707183837890625e+01,-6.848748016357421875e+01,4.369950103759765625e+01,-1.422947025299072266e+01,-1.058297271728515625e+02,-1.221960449218750000e+02,6.366283416748046875e+01,-3.909670257568359375e+01
7.411980032920837402e-01,2.000000000000000000e+00,9.457029342651367188e+00,5.572300910949707031e+00,3.418041992187500000e+01,-1.162455291748046875e+02,9.064904785156250000e+01,-6.851210021972656250e+01,4.362726593017578125e+01,-1.422036170959472656e+01,-1.058448944091796875e+02,-1.222506179809570312e+02,6.365860748291015625e+01,-3.912713623046875000e+01
7.429680228233337402e-01,2.000000000000000000e+00,9.485449790954589844e+00,5.525705814361572266e+00,3.417383193969726562e+01,-1.162995147705078125e+02,9.065106964111328125e+01,-6.853698730468750000e+01,4.355453491210937500e+01,-1.421116065979003906e+01,-1.058601226806640625e+02,-1.223053436279296875e+02,6.365460586547851562e+01,-3.915789794921875000e+01
7.494090199470520020e-01,2.000000000000000000e+00,9.485449790954589844e+00,5.525705814361572266e+00,3.417383193969726562e+01,-1.162995147705078125e+02,9.065106964111328125e+01,-6.853698730468750000e+01,4.348224639892578125e+01,-1.420214271545410156e+01,-1.058753509521484375e+02,-1.223592605590820312e+02,6.365059661865234375e+01,-3.918811035156250000e+01
7.508810162544250488e-01,2.000000000000000000e+00,9.542805671691894531e+00,5.432629108428955078e+00,3.416055297851562500e+01,-1.164069671630859375e+02,9.065544128417968750e+01,-6.858459472656250000e+01,4.341050338745117188e+01,-1.419294071197509766e+01,-1.058907470703125000e+02,-1.224136123657226562e+02,6.364658737182617188e+01,-3.921700286865234375e+01
7.581869959831237793e-01,2.000000000000000000e+00,9.542805671691894531e+00,5.432629108428955078e+00,3.416055297851562500e+01,-1.164069671630859375e+02,9.065544128417968750e+01,-6.858459472656250000e+01,4.341050338745117188e+01,-1.419294071197509766e+01,-1.058907470703125000e+02,-1.224136123657226562e+02,6.364658737182617188e+01,-3.921700286865234375e+01
7.596269845962524414e-01,2.000000000000000000e+00,9.600335121154785156e+00,5.339506626129150391e+00,3.414764404296875000e+01,-1.165141067504882812e+02,9.065959930419921875e+01,-6.863200378417968750e+01,4.326663970947265625e+01,-1.417444801330566406e+01,-1.059210891723632812e+02,-1.225225601196289062e+02,6.363842391967773438e+01,-3.927984619140625000e+01
7.662090063095092773e-01,2.000000000000000000e+00,9.628983497619628906e+00,5.292776107788085938e+00,3.414111709594726562e+01,-1.165682067871093750e+02,9.066168212890625000e+01,-6.865607452392578125e+01,4.319358062744140625e+01,-1.416497230529785156e+01,-1.059361572265625000e+02,-1.225772705078125000e+02,6.363442230224609375e+01,-3.930994796752929688e+01
7.675970196723937988e-01,2.000000000000000000e+00,9.657432556152343750e+00,5.246339797973632812e+00,3.413455200195312500e+01,-1.166220397949218750e+02,9.066376495361328125e+01,-6.868062591552734375e+01,4.312073898315429688e+01,-1.415554237365722656e+01,-1.059510116577148438e+02,-1.226317749023437500e+02,6.363011932373046875e+01,-3.933939361572265625e+01
7.719569802284240723e-01,2.000000000000000000e+00,9.686052322387695312e+00,5.199993610382080078e+00,3.412800216674804688e+01,-1.166755599975585938e+02,9.066578674316406250e+01,-6.870537567138671875e+01,4.304922103881835938e+01,-1.414647769927978516e+01,-1.059662857055664062e+02,-1.226856231689453125e+02,6.362611389160156250e+01,-3.936949539184570312e+01
7.749900221824645996e-01,2.000000000000000000e+00,9.714644432067871094e+00,5.153489112854003906e+00,3.412141418457031250e+01,-1.167299118041992188e+02,9.066797637939453125e+01,-6.872992706298828125e+01,4.297758865356445312e+01,-1.413746070861816406e+01,-1.059813003540039062e+02,-1.227404785156250000e+02,6.362188720703125000e+01,-3.940025711059570312e+01
7.799879908561706543e-01,2.000000000000000000e+00,9.714644432067871094e+00,5.153489112854003906e+00,3.412141418457031250e+01,-1.167299118041992188e+02,9.066797637939453125e+01,-6.872992706298828125e+01,4.297758865356445312e+01,-1.413746070861816406e+01,-1.059813003540039062e+02,-1.227404785156250000e+02,6.362188720703125000e+01,-3.940025711059570312e+01
7.828900218009948730e-01,2.000000000000000000e+00,9.771944046020507812e+00,5.060615539550781250e+00,3.410834121704101562e+01,-1.168371658325195312e+02,9.067191314697265625e+01,-6.877685546875000000e+01,4.283229446411132812e+01,-1.411873817443847656e+01,-1.060115356445312500e+02,-1.228481216430664062e+02,6.361277770996093750e+01,-3.946013259887695312e+01
7.879459857940673828e-01,2.000000000000000000e+00,9.771944046020507812e+00,5.060615539550781250e+00,3.410834121704101562e+01,-1.168371658325195312e+02,9.067191314697265625e+01,-6.877685546875000000e+01,4.283229446411132812e+01,-1.411873817443847656e+01,-1.060115356445312500e+02,-1.228481216430664062e+02,6.361277770996093750e+01,-3.946013259887695312e+01
7.916650176048278809e-01,2.000000000000000000e+00,9.828927040100097656e+00,4.967358112335205078e+00,3.409559249877929688e+01,-1.169447784423828125e+02,9.067575836181640625e+01,-6.882480621337890625e+01,4.268809890747070312e+01,-1.410033607482910156e+01,-1.060428695678710938e+02,-1.229575576782226562e+02,6.360425186157226562e+01,-3.952165603637695312e+01
7.959200143814086914e-01,2.000000000000000000e+00,9.857719421386718750e+00,4.921034336090087891e+00,3.408922958374023438e+01,-1.169988174438476562e+02,9.067789459228515625e+01,-6.884860992431640625e+01,4.261679840087890625e+01,-1.409108829498291016e+01,-1.060577697753906250e+02,-1.230116271972656250e+02,6.359995651245117188e+01,-3.955186843872070312e+01
7.989360094070434570e-01,2.000000000000000000e+00,9.886512756347656250e+00,4.874620914459228516e+00,3.408264160156250000e+01,-1.170523986816406250e+02,9.067975616455078125e+01,-6.887342834472656250e+01,4.254472732543945312e+01,-1.408184242248535156e+01,-1.060725097656250000e+02,-1.230666198730468750e+02,6.359536743164062500e+01,-3.958163833618164062e+01
8.039579987525939941e-01,2.000000000000000000e+00,9.886512756347656250e+00,4.874620914459228516e+00,3.408264160156250000e+01,-1.170523986816406250e+02,9.067975616455078125e+01,-6.887342834472656250e+01,4.254472732543945312e+01,-1.408184242248535156e+01,-1.060725097656250000e+02,-1.230666198730468750e+02,6.359536743164062500e+01,-3.958163833618164062e+01
8.079050183296203613e-01,2.000000000000000000e+00,9.943438529968261719e+00,4.781589031219482422e+00,3.406951141357421875e+01,-1.171601638793945312e+02,9.068364715576171875e+01,-6.892245483398437500e+01,4.239921188354492188e+01,-1.406307411193847656e+01,-1.061030731201171875e+02,-1.231751251220703125e+02,6.358749771118164062e+01,-3.964195632934570312e+01
8.108879923820495605e-01,2.000000000000000000e+00,9.971973419189453125e+00,4.734925746917724609e+00,3.406286239624023438e+01,-1.172135162353515625e+02,9.068572998046875000e+01,-6.894585418701171875e+01,4.232796859741210938e+01,-1.405378150939941406e+01,-1.061185760498046875e+02,-1.232294845581054688e+02,6.358341217041015625e+01,-3.967337799072265625e+01
8.161339759826660156e-01,2.000000000000000000e+00,9.971973419189453125e+00,4.734925746917724609e+00,3.406286239624023438e+01,-1.172135162353515625e+02,9.068572998046875000e+01,-6.894585418701171875e+01,4.232796859741210938e+01,-1.405378150939941406e+01,-1.061185760498046875e+02,-1.232294845581054688e+02,6.358341217041015625e+01,-3.967337799072265625e+01
8.189730048179626465e-01,2.000000000000000000e+00,1.002901363372802734e+01,4.641917228698730469e+00,3.404956054687500000e+01,-1.173208618164062500e+02,9.068962097167968750e+01,-6.899353027343750000e+01,4.218442916870117188e+01,-1.403592872619628906e+01,-1.061488723754882812e+02,-1.233371963500976562e+02,6.357503890991210938e+01,-3.973413085937500000e+01
8.239520192146301270e-01,2.000000000000000000e+00,1.002901363372802734e+01,4.641917228698730469e+00,3.404956054687500000e+01,-1.173208618164062500e+02,9.068962097167968750e+01,-6.899353027343750000e+01,4.218442916870117188e+01,-1.403592872619628906e+01,-1.061488723754882812e+02,-1.233371963500976562e+02,6.357503890991210938e+01,-3.973413085937500000e+01
8.276249766349792480e-01,2.000000000000000000e+00,1.008634090423583984e+01,4.548840522766113281e+00,3.403663253784179688e+01,-1.174283294677734375e+02,9.069329833984375000e+01,-6.904208374023437500e+01,4.203952026367187500e+01,-1.401793766021728516e+01,-1.061800842285156250e+02,-1.234464797973632812e+02,6.356680297851562500e+01,-3.979510498046875000e+01
8.341599702835083008e-01,2.000000000000000000e+00,1.008634090423583984e+01,4.548840522766113281e+00,3.403663253784179688e+01,-1.174283294677734375e+02,9.069329833984375000e+01,-6.904208374023437500e+01,4.196821975708007812e+01,-1.400864601135253906e+01,-1.061954803466796875e+02,-1.235009155273437500e+02,6.356257629394531250e+01,-3.982520675659179688e+01
8.355550169944763184e-01,2.000000000000000000e+00,1.014317989349365234e+01,4.455695152282714844e+00,3.402349853515625000e+01,-1.175355224609375000e+02,9.069724273681640625e+01,-6.909132385253906250e+01,4.189691543579101562e+01,-1.399949073791503906e+01,-1.062106552124023438e+02,-1.235557708740234375e+02,6.355835342407226562e+01,-3.985519790649414062e+01
8.422949910163879395e-01,2.000000000000000000e+00,1.014317989349365234e+01,4.455695152282714844e+00,3.402349853515625000e+01,-1.175355224609375000e+02,9.069724273681640625e+01,-6.909132385253906250e+01,4.189691543579101562e+01,-1.399949073791503906e+01,-1.062106552124023438e+02,-1.235557708740234375e+02,6.355835342407226562e+01,-3.985519790649414062e+01
8.437590003013610840e-01,2.000000000000000000e+00,1.020042133331298828e+01,4.362709045410156250e+00,3.401040649414062500e+01,-1.176436614990234375e+02,9.070108032226562500e+01,-6.913851928710937500e+01,4.175200653076171875e+01,-1.398150062561035156e+01,-1.062410049438476562e+02,-1.236636199951171875e+02,6.355018997192382812e+01,-3.991639328002929688e+01
8.509590029716491699e-01,2.000000000000000000e+00,1.022904300689697266e+01,4.316385269165039062e+00,3.400373458862304688e+01,-1.176970138549804688e+02,9.070305633544921875e+01,-6.916225433349609375e+01,4.167966079711914062e+01,-1.397216224670410156e+01,-1.062562866210937500e+02,-1.237183303833007812e+02,6.354603958129882812e+01,-3.994550704956054688e+01
8.524270057678222656e-01,2.000000000000000000e+00,1.025757694244384766e+01,4.269971847534179688e+00,3.399718856811523438e+01,-1.177509994506835938e+02,9.070503234863281250e+01,-6.918626403808593750e+01,4.160819625854492188e+01,-1.396300601959228516e+01,-1.062718429565429688e+02,-1.237719802856445312e+02,6.354159164428710938e+01,-3.997549819946289062e+01
8.554660081863403320e-01,2.000000000000000000e+00,1.028605365753173828e+01,4.223422050476074219e+00,3.399078369140625000e+01,-1.178050003051757812e+02,9.070684051513671875e+01,-6.921047973632812500e+01,4.153673171997070312e+01,-1.395403480529785156e+01,-1.062873382568359375e+02,-1.238256225585937500e+02,6.353692626953125000e+01,-4.000681304931640625e+01
8.589730262756347656e-01,2.000000000000000000e+00,1.028605365753173828e+01,4.223422050476074219e+00,3.399078369140625000e+01,-1.178050003051757812e+02,9.070684051513671875e+01,-6.921047973632812500e+01,4.153673171997070312e+01,-1.395403480529785156e+01,-1.062873382568359375e+02,-1.238256225585937500e+02,6.353692626953125000e+01,-4.000681304931640625e+01
8.630779981613159180e-01,2.000000000000000000e+00,1.031478977203369141e+01,4.176781654357910156e+00,3.398448181152343750e+01,-1.178587265014648438e+02,9.070870208740234375e+01,-6.923502349853515625e+01,4.146427536010742188e+01,-1.394529151916503906e+01,-1.063023529052734375e+02,-1.238804016113281250e+02,6.353211975097656250e+01,-4.003702545166015625e+01
8.683760166168212891e-01,2.000000000000000000e+00,1.037217426300048828e+01,4.083727359771728516e+00,3.397144699096679688e+01,-1.179656448364257812e+02,9.071260070800781250e+01,-6.928466796875000000e+01,4.131870651245117188e+01,-1.392720890045166016e+01,-1.063326492309570312e+02,-1.239891891479492188e+02,6.352381134033203125e+01,-4.009558105468750000e+01
8.718810081481933594e-01,2.000000000000000000e+00,1.040076637268066406e+01,4.037222862243652344e+00,3.396490097045898438e+01,-1.180195388793945312e+02,9.071468353271484375e+01,-6.930847167968750000e+01,4.124740600585937500e+01,-1.391796302795410156e+01,-1.063480377197265625e+02,-1.240442657470703125e+02,6.351951599121093750e+01,-4.012689208984375000e+01
8.768969774246215820e-01,2.000000000000000000e+00,1.040076637268066406e+01,4.037222862243652344e+00,3.396490097045898438e+01,-1.180195388793945312e+02,9.071468353271484375e+01,-6.930847167968750000e+01,4.117610549926757812e+01,-1.390867042541503906e+01,-1.063632659912109375e+02,-1.240981903076171875e+02,6.351536560058593750e+01,-4.015787124633789062e+01
8.796479701995849609e-01,2.000000000000000000e+00,1.045769214630126953e+01,3.944417715072631836e+00,3.395170593261718750e+01,-1.181270446777343750e+02,9.071846771240234375e+01,-6.935581207275390625e+01,4.110375976562500000e+01,-1.389960670471191406e+01,-1.063782272338867188e+02,-1.241524047851562500e+02,6.351149749755859375e+01,-4.018720626831054688e+01
8.839660286903381348e-01,2.000000000000000000e+00,1.045769214630126953e+01,3.944417715072631836e+00,3.395170593261718750e+01,-1.181270446777343750e+02,9.071846771240234375e+01,-6.935581207275390625e+01,4.110375976562500000e+01,-1.389960670471191406e+01,-1.063782272338867188e+02,-1.241524047851562500e+02,6.351149749755859375e+01,-4.018720626831054688e+01
8.889759778976440430e-01,2.000000000000000000e+00,1.048622608184814453e+01,3.897890329360961914e+00,3.394507598876953125e+01,-1.181805114746093750e+02,9.072038269042968750e+01,-6.937975311279296875e+01,4.103075790405273438e+01,-1.389063453674316406e+01,-1.063935546875000000e+02,-1.242074127197265625e+02,6.350720214843750000e+01,-4.021730804443359375e+01
8.927099704742431641e-01,2.000000000000000000e+00,1.054341030120849609e+01,3.804745912551879883e+00,3.393210601806640625e+01,-1.182879104614257812e+02,9.072422027587890625e+01,-6.942938995361328125e+01,4.088711166381835938e+01,-1.387186622619628906e+01,-1.064240722656250000e+02,-1.243149108886718750e+02,6.349919128417968750e+01,-4.028015136718750000e+01
8.958849906921386719e-01,2.000000000000000000e+00,1.057203197479248047e+01,3.758309125900268555e+00,3.392576217651367188e+01,-1.183419113159179688e+02,9.072614288330078125e+01,-6.945421600341796875e+01,4.081558990478515625e+01,-1.386238956451416016e+01,-1.064390792846679688e+02,-1.243698348999023438e+02,6.349532318115234375e+01,-4.030926513671875000e+01
8.999410271644592285e-01,2.000000000000000000e+00,1.057203197479248047e+01,3.758309125900268555e+00,3.392576217651367188e+01,-1.183419113159179688e+02,9.072614288330078125e+01,-6.945421600341796875e+01,4.081558990478515625e+01,-1.386238956451416016e+01,-1.064390792846679688e+02,-1.243698348999023438e+02,6.349532318115234375e+01,-4.030926513671875000e+01
9.040420055389404297e-01,2.000000000000000000e+00,1.060056591033935547e+01,3.711918115615844727e+00,3.391923522949218750e+01,-1.183954696655273438e+02,9.072827148437500000e+01,-6.947828674316406250e+01,4.074324417114257812e+01,-1.385337257385253906e+01,-1.064544219970703125e+02,-1.244241943359375000e+02,6.349102783203125000e+01,-4.033860015869140625e+01
9.077169895172119141e-01,2.000000000000000000e+00,1.062895679473876953e+01,3.665413379669189453e+00,3.391270828247070312e+01,-1.184495086669921875e+02,9.073035430908203125e+01,-6.950161743164062500e+01,4.067051696777343750e+01,-1.384426212310791016e+01,-1.064693222045898438e+02,-1.244786148071289062e+02,6.348643875122070312e+01,-4.037023925781250000e+01
9.119390249252319336e-01,2.000000000000000000e+00,1.065734863281250000e+01,3.619044542312622070e+00,3.390614318847656250e+01,-1.185028686523437500e+02,9.073216247558593750e+01,-6.952528381347656250e+01,4.059866714477539062e+01,-1.383506107330322266e+01,-1.064842758178710938e+02,-1.245326995849609375e+02,6.348199081420898438e+01,-4.040165710449218750e+01
9.171299934387207031e-01,2.000000000000000000e+00,1.068591117858886719e+01,3.572811841964721680e+00,3.389949417114257812e+01,-1.185563888549804688e+02,9.073403167724609375e+01,-6.954935455322265625e+01,4.052758407592773438e+01,-1.382595252990722656e+01,-1.064992370605468750e+02,-1.245868301391601562e+02,6.347827529907226562e+01,-4.043121337890625000e+01
9.199259877204895020e-01,2.000000000000000000e+00,1.074303817749023438e+01,3.479689598083496094e+00,3.388633728027343750e+01,-1.186639480590820312e+02,9.073818969726562500e+01,-6.959825897216796875e+01,4.038404846191406250e+01,-1.380768775939941406e+01,-1.065302352905273438e+02,-1.246956939697265625e+02,6.346960830688476562e+01,-4.049361801147460938e+01
9.239510297775268555e-01,2.000000000000000000e+00,1.074303817749023438e+01,3.479689598083496094e+00,3.388633728027343750e+01,-1.186639480590820312e+02,9.073818969726562500e+01,-6.959825897216796875e+01,4.038404846191406250e+01,-1.380768775939941406e+01,-1.065302352905273438e+02,-1.246956939697265625e+02,6.346960830688476562e+01,-4.049361801147460938e+01
9.279749989509582520e-01,2.000000000000000000e+00,1.077145767211914062e+01,3.433411598205566406e+00,3.388003540039062500e+01,-1.187177352905273438e+02,9.074027252197265625e+01,-6.962307739257812500e+01,4.031131744384765625e+01,-1.379871559143066406e+01,-1.065451965332031250e+02,-1.247490386962890625e+02,6.346523666381835938e+01,-4.052514648437500000e+01
9.319199919700622559e-01,2.000000000000000000e+00,1.079999256134033203e+01,3.386929512023925781e+00,3.387377548217773438e+01,-1.187714614868164062e+02,9.074224090576171875e+01,-6.964775848388671875e+01,4.023952102661132812e+01,-1.378955936431884766e+01,-1.065604705810546875e+02,-1.248036117553710938e+02,6.346129608154296875e+01,-4.055448150634765625e+01
9.359509944915771484e-01,2.000000000000000000e+00,1.082858467102050781e+01,3.340628623962402344e+00,3.386730957031250000e+01,-1.188245010375976562e+02,9.074421691894531250e+01,-6.967190551757812500e+01,4.016838455200195312e+01,-1.378054237365722656e+01,-1.065755386352539062e+02,-1.248579788208007812e+02,6.345707702636718750e+01,-4.058425521850585938e+01
9.390310049057006836e-01,2.000000000000000000e+00,1.085703277587890625e+01,3.294260025024414062e+00,3.386057662963867188e+01,-1.188787078857421875e+02,9.074613189697265625e+01,-6.969536590576171875e+01,4.009692001342773438e+01,-1.377111244201660156e+01,-1.065908279418945312e+02,-1.249122619628906250e+02,6.345277404785156250e+01,-4.061611175537109375e+01
9.433339834213256836e-01,2.000000000000000000e+00,1.088550949096679688e+01,3.247710466384887695e+00,3.385404968261718750e+01,-1.189320602416992188e+02,9.074826812744140625e+01,-6.971869659423828125e+01,4.002490234375000000e+01,-1.376177310943603516e+01,-1.066060485839843750e+02,-1.249668350219726562e+02,6.344833374023437500e+01,-4.064599609375000000e+01
9.469749927520751953e-01,2.000000000000000000e+00,1.091395854949951172e+01,3.201318979263305664e+00,3.384756469726562500e+01,-1.189851608276367188e+02,9.075045776367187500e+01,-6.974263763427734375e+01,3.995228195190429688e+01,-1.375284767150878906e+01,-1.066210098266601562e+02,-1.250210418701171875e+02,6.344366836547851562e+01,-4.067478179931640625e+01
9.520180225372314453e-01,2.000000000000000000e+00,1.094226264953613281e+01,3.154837131500244141e+00,3.384101867675781250e+01,-1.190394592285156250e+02,9.075237274169921875e+01,-6.976691436767578125e+01,3.988004684448242188e+01,-1.374405860900878906e+01,-1.066361846923828125e+02,-1.250756835937500000e+02,6.343936538696289062e+01,-4.070477294921875000e+01
9.560970067977905273e-01,2.000000000000000000e+00,1.097076892852783203e+01,3.108309984207153320e+00,3.383439254760742188e+01,-1.190925064086914062e+02,9.075450897216796875e+01,-6.979145812988281250e+01,3.980874633789062500e+01,-1.373531532287597656e+01,-1.066512985229492188e+02,-1.251304702758789062e+02,6.343536376953125000e+01,-4.073531341552734375e+01
9.591500163078308105e-01,2.000000000000000000e+00,1.099921703338623047e+01,3.062054634094238281e+00,3.382774353027343750e+01,-1.191460266113281250e+02,9.075669097900390625e+01,-6.981635284423828125e+01,3.973755645751953125e+01,-1.372620487213134766e+01,-1.066666946411132812e+02,-1.251836166381835938e+02,6.343135452270507812e+01,-4.076443099975585938e+01
9.630849957466125488e-01,2.000000000000000000e+00,1.102749347686767578e+01,3.015708208084106445e+00,3.382138061523437500e+01,-1.191998062133789062e+02,9.075871276855468750e+01,-6.984062957763671875e+01,3.966510009765625000e+01,-1.371714210510253906e+01,-1.066822509765625000e+02,-1.252378311157226562e+02,6.342712402343750000e+01,-4.079376220703125000e+01
9.683110117912292480e-01,2.000000000000000000e+00,1.105614376068115234e+01,2.969181299209594727e+00,3.381497573852539062e+01,-1.192532730102539062e+02,9.076084899902343750e+01,-6.986422729492187500e+01,3.959231567382812500e+01,-1.370816898345947266e+01,-1.066974792480468750e+02,-1.252925415039062500e+02,6.342290496826171875e+01,-4.082540512084960938e+01
9.710810184478759766e-01,2.000000000000000000e+00,1.108464908599853516e+01,2.922722101211547852e+00,3.380842590332031250e+01,-1.193076248168945312e+02,9.076303863525390625e+01,-6.988756561279296875e+01,3.951964187622070312e+01,-1.369924354553222656e+01,-1.067125473022460938e+02,-1.253463897705078125e+02,6.341867446899414062e+01,-4.085693359375000000e+01
9.751160144805908203e-01,2.000000000000000000e+00,1.111292552947998047e+01,2.876353502273559570e+00,3.380192184448242188e+01,-1.193614654541015625e+02,9.076522064208984375e+01,-6.991149902343750000e+01,3.944834136962890625e+01,-1.369022560119628906e+01,-1.067275543212890625e+02,-1.254008255004882812e+02,6.341444778442382812e+01,-4.088593673706054688e+01
9.802799820899963379e-01,2.000000000000000000e+00,1.114157485961914062e+01,2.830165863037109375e+00,3.379543304443359375e+01,-1.194143447875976562e+02,9.076741027832031250e+01,-6.993544006347656250e+01,3.937693023681640625e+01,-1.368088722229003906e+01,-1.067426223754882812e+02,-1.254551162719726562e+02,6.341051483154296875e+01,-4.091614913940429688e+01
9.831339716911315918e-01,2.000000000000000000e+00,1.117013740539550781e+01,2.783819437026977539e+00,3.378886795043945312e+01,-1.194683837890625000e+02,9.076959228515625000e+01,-6.995964813232421875e+01,3.930469131469726562e+01,-1.367168617248535156e+01,-1.067581176757812500e+02,-1.255095367431640625e+02,6.340679931640625000e+01,-4.094757080078125000e+01
9.873239994049072266e-01,2.000000000000000000e+00,1.119884490966796875e+01,2.737337827682495117e+00,3.378229904174804688e+01,-1.195217971801757812e+02,9.077188873291015625e+01,-6.998432922363281250e+01,3.923180007934570312e+01,-1.366239356994628906e+01,-1.067736206054687500e+02,-1.255640411376953125e+02,6.340264511108398438e+01,-4.097822189331054688e+01
9.913089871406555176e-01,2.000000000000000000e+00,1.122723579406738281e+01,2.690991640090942383e+00,3.377579498291015625e+01,-1.195755233764648438e+02,9.077407836914062500e+01,-7.000888824462890625e+01,3.915956497192382812e+01,-1.365342140197753906e+01,-1.067890090942382812e+02,-1.256176834106445312e+02,6.339820098876953125e+01,-4.100667572021484375e+01
9.960160255432128906e-01,2.000000000000000000e+00,1.125582790374755859e+01,2.644713640213012695e+00,3.376945114135742188e+01,-1.196292648315429688e+02,9.077620697021484375e+01,-7.003302764892578125e+01,3.908821105957031250e+01,-1.364444923400878906e+01,-1.068040237426757812e+02,-1.256710281372070312e+02,6.339404678344726562e+01,-4.103656005859375000e+01
1.000000000000000000e+00,2.000000000000000000e+00,1.128439140319824219e+01,2.598276853561401367e+00,3.376321029663085938e+01,-1.196823043823242188e+02,9.077828216552734375e+01,-7.005649566650390625e+01,3.901712799072265625e+01,-1.363538551330566406e+01,-1.068191452026367188e+02,-1.257260360717773438e+02,6.339003753662109375e+01,-4.106798171997070312e+01
1.004400014877319336e+00,2.000000000000000000e+00,1.131309795379638672e+01,2.551908016204833984e+00,3.375682449340820312e+01,-1.197356643676757812e+02,9.078063201904296875e+01,-7.007995605468750000e+01,3.894527816772460938e+01,-1.362632179260253906e+01,-1.068342056274414062e+02,-1.257806091308593750e+02,6.338574218750000000e+01,-4.109994888305664062e+01
1.008026003837585449e+00,2.000000000000000000e+00,1.134166049957275391e+01,2.505471467971801758e+00,3.375025558471679688e+01,-1.197895355224609375e+02,9.078265380859375000e+01,-7.010382843017578125e+01,3.887243652343750000e+01,-1.361702919006347656e+01,-1.068491668701171875e+02,-1.258345336914062500e+02,6.338137054443359375e+01,-4.112939453125000000e+01
1.011579990386962891e+00,2.000000000000000000e+00,1.137005233764648438e+01,2.459102869033813477e+00,3.374370956420898438e+01,-1.198429489135742188e+02,9.078500366210937500e+01,-7.012789916992187500e+01,3.880009078979492188e+01,-1.360782814025878906e+01,-1.068643951416015625e+02,-1.258892517089843750e+02,6.337699890136718750e+01,-4.115895080566406250e+01
1.015956044197082520e+00,2.000000000000000000e+00,1.139850044250488281e+01,2.412688732147216797e+00,3.373714447021484375e+01,-1.198968429565429688e+02,9.078724670410156250e+01,-7.015225219726562500e+01,3.872890090942382812e+01,-1.359871768951416016e+01,-1.068798370361328125e+02,-1.259436798095703125e+02,6.337262725830078125e+01,-4.119047927856445312e+01
1.020403981208801270e+00,2.000000000000000000e+00,1.145559883117675781e+01,2.319679975509643555e+00,3.372384643554687500e+01,-1.200035018920898438e+02,9.079150390625000000e+01,-7.020134735107421875e+01,3.858586120605468750e+01,-1.358049964904785156e+01,-1.069096450805664062e+02,-1.260521087646484375e+02,6.336439132690429688e+01,-4.125090408325195312e+01
1.023524045944213867e+00,2.000000000000000000e+00,1.145559883117675781e+01,2.319679975509643555e+00,3.372384643554687500e+01,-1.200035018920898438e+02,9.079150390625000000e+01,-7.020134735107421875e+01,3.858586120605468750e+01,-1.358049964904785156e+01,-1.069096450805664062e+02,-1.260521087646484375e+02,6.336439132690429688e+01,-4.125090408325195312e+01
1.028663992881774902e+00,2.000000000000000000e+00,1.148430538177490234e+01,2.273356676101684570e+00,3.371728134155273438e+01,-1.200572280883789062e+02,9.079353332519531250e+01,-7.022508239746093750e+01,3.851329421997070312e+01,-1.357120704650878906e+01,-1.069248199462890625e+02,-1.261061019897460938e+02,6.336053085327148438e+01,-4.127935791015625000e+01
1.031942963600158691e+00,2.000000000000000000e+00,1.151275348663330078e+01,2.227032899856567383e+00,3.371089935302734375e+01,-1.201108551025390625e+02,9.079566955566406250e+01,-7.024848175048828125e+01,3.844133377075195312e+01,-1.356191444396972656e+01,-1.069401016235351562e+02,-1.261599578857421875e+02,6.335645294189453125e+01,-4.130979156494140625e+01
1.035954952239990234e+00,2.000000000000000000e+00,1.154105854034423828e+01,2.180641651153564453e+00,3.370449066162109375e+01,-1.201647338867187500e+02,9.079795837402343750e+01,-7.027201080322265625e+01,3.836997985839843750e+01,-1.355280494689941406e+01,-1.069551696777343750e+02,-1.262143859863281250e+02,6.335236740112304688e+01,-4.134055328369140625e+01
1.039715051651000977e+00,2.000000000000000000e+00,1.156936359405517578e+01,2.134363412857055664e+00,3.369800567626953125e+01,-1.202184219360351562e+02,9.079988098144531250e+01,-7.029581451416015625e+01,3.829906082153320312e+01,-1.354374122619628906e+01,-1.069700698852539062e+02,-1.262683868408203125e+02,6.334828948974609375e+01,-4.137010574340820312e+01
1.044826030731201172e+00,2.000000000000000000e+00,1.159795570373535156e+01,2.087994813919067383e+00,3.369133758544921875e+01,-1.202714080810546875e+02,9.080195617675781250e+01,-7.031996154785156250e+01,3.822710037231445312e+01,-1.353467750549316406e+01,-1.069850234985351562e+02,-1.263228912353515625e+02,6.334421157836914062e+01,-4.139965820312500000e+01
1.048097968101501465e+00,2.000000000000000000e+00,1.162643241882324219e+01,2.041422367095947266e+00,3.368476867675781250e+01,-1.203258743286132812e+02,9.080398559570312500e+01,-7.034430694580078125e+01,3.815464782714843750e+01,-1.352561378479003906e+01,-1.069999847412109375e+02,-1.263776779174804688e+02,6.334027099609375000e+01,-4.143064117431640625e+01
1.052893996238708496e+00,2.000000000000000000e+00,1.165493869781494141e+01,1.995053648948669434e+00,3.367819976806640625e+01,-1.203793411254882812e+02,9.080643463134765625e+01,-7.036906433105468750e+01,3.808235549926757812e+01,-1.351632118225097656e+01,-1.070154342651367188e+02,-1.264315948486328125e+02,6.333648681640625000e+01,-4.146217346191406250e+01
1.055940032005310059e+00,2.000000000000000000e+00,1.168321418762207031e+01,1.948866009712219238e+00,3.367167663574218750e+01,-1.204327926635742188e+02,9.080825042724609375e+01,-7.039360809326171875e+01,3.801116561889648438e+01,-1.350712013244628906e+01,-1.070308227539062500e+02,-1.264854583740234375e+02,6.333240509033203125e+01,-4.149139404296875000e+01
1.060050010681152344e+00,2.000000000000000000e+00,1.171160602569580078e+01,1.902474761009216309e+00,3.366522979736328125e+01,-1.204865188598632812e+02,9.081021881103515625e+01,-7.041748046875000000e+01,3.793991851806640625e+01,-1.349823951721191406e+01,-1.070459976196289062e+02,-1.265399551391601562e+02,6.332810592651367188e+01,-4.152006912231445312e+01
1.063959956169128418e+00,2.000000000000000000e+00,1.174008274078369141e+01,1.856173992156982422e+00,3.365878677368164062e+01,-1.205394134521484375e+02,9.081224822998046875e+01,-7.044100952148437500e+01,3.786757278442382812e+01,-1.348940467834472656e+01,-1.070610580444335938e+02,-1.265936660766601562e+02,6.332409667968750000e+01,-4.154984283447265625e+01
1.069133043289184570e+00,2.000000000000000000e+00,1.176856040954589844e+01,1.809759974479675293e+00,3.365242004394531250e+01,-1.205930328369140625e+02,9.081421661376953125e+01,-7.046474456787109375e+01,3.779489898681640625e+01,-1.348006534576416016e+01,-1.070758514404296875e+02,-1.266477355957031250e+02,6.332016372680664062e+01,-4.157994461059570312e+01
1.071969032287597656e+00,2.000000000000000000e+00,1.179703712463378906e+01,1.763255357742309570e+00,3.364609909057617188e+01,-1.206470718383789062e+02,9.081608581542968750e+01,-7.048889160156250000e+01,3.772261047363281250e+01,-1.347059059143066406e+01,-1.070908660888671875e+02,-1.267021713256835938e+02,6.331601333618164062e+01,-4.161015319824218750e+01
1.077075958251953125e+00,2.000000000000000000e+00,1.182534217834472656e+01,1.716954588890075684e+00,3.363961029052734375e+01,-1.206998519897460938e+02,9.081816101074218750e+01,-7.051310729980468750e+01,3.765141677856445312e+01,-1.346143436431884766e+01,-1.071061477661132812e+02,-1.267562332153320312e+02,6.331149673461914062e+01,-4.164070129394531250e+01
1.080060005187988281e+00,2.000000000000000000e+00,1.185370445251464844e+01,1.670450091361999512e+00,3.363306427001953125e+01,-1.207537994384765625e+02,9.082013702392578125e+01,-7.053771972656250000e+01,3.758016967773437500e+01,-1.345255470275878906e+01,-1.071212692260742188e+02,-1.268104553222656250e+02,6.330734252929687500e+01,-4.167156982421875000e+01
1.084097027778625488e+00,2.000000000000000000e+00,1.188203811645507812e+01,1.624126672744750977e+00,3.362662124633789062e+01,-1.208073043823242188e+02,9.082200622558593750e+01,-7.056253814697265625e+01,3.750804519653320312e+01,-1.344353580474853516e+01,-1.071362762451171875e+02,-1.268649444580078125e+02,6.330333328247070312e+01,-4.170156478881835938e+01
1.088894009590148926e+00,2.000000000000000000e+00,1.193913555145263672e+01,1.531321406364440918e+00,3.361334609985351562e+01,-1.209148712158203125e+02,9.082584381103515625e+01,-7.061028289794921875e+01,3.736269760131835938e+01,-1.342559242248535156e+01,-1.071668472290039062e+02,-1.269735183715820312e+02,6.329459381103515625e+01,-4.176253509521484375e+01
1.092018961906433105e+00,2.000000000000000000e+00,1.193913555145263672e+01,1.531321406364440918e+00,3.361334609985351562e+01,-1.209148712158203125e+02,9.082584381103515625e+01,-7.061028289794921875e+01,3.736269760131835938e+01,-1.342559242248535156e+01,-1.071668472290039062e+02,-1.269735183715820312e+02,6.329459381103515625e+01,-4.176253509521484375e+01
1.096390962600708008e+00,2.000000000000000000e+00,1.196755599975585938e+01,1.484952688217163086e+00,3.360680007934570312e+01,-1.209680709838867188e+02,9.082781219482421875e+01,-7.063415527343750000e+01,3.729172515869140625e+01,-1.341662025451660156e+01,-1.071823501586914062e+02,-1.270279541015625000e+02,6.329006958007812500e+01,-4.179351806640625000e+01
1.101294040679931641e+00,2.000000000000000000e+00,1.199603271484375000e+01,1.438606619834899902e+00,3.360039138793945312e+01,-1.210219116210937500e+02,9.082968139648437500e+01,-7.065789031982421875e+01,3.722058868408203125e+01,-1.340760135650634766e+01,-1.071975173950195312e+02,-1.270813827514648438e+02,6.328585052490234375e+01,-4.182395172119140625e+01
1.103986024856567383e+00,2.000000000000000000e+00,1.202450942993164062e+01,1.392237901687622070e+00,3.359400939941406250e+01,-1.210759506225585938e+02,9.083180999755859375e+01,-7.068231201171875000e+01,3.714846420288085938e+01,-1.339867591857910156e+01,-1.072128601074218750e+02,-1.271355819702148438e+02,6.328184127807617188e+01,-4.185416412353515625e+01
1.108103036880493164e+00,2.000000000000000000e+00,1.205301666259765625e+01,1.346072912216186523e+00,3.358750534057617188e+01,-1.211288833618164062e+02,9.083357238769531250e+01,-7.070631408691406250e+01,3.707578659057617188e+01,-1.338984107971191406e+01,-1.072277069091796875e+02,-1.271901550292968750e+02,6.327783203125000000e+01,-4.188426589965820312e+01
1.110877990722656250e+00,2.000000000000000000e+00,1.208166599273681641e+01,1.299772143363952637e+00,3.358099746704101562e+01,-1.211825561523437500e+02,9.083533477783203125e+01,-7.073079681396484375e+01,3.700382614135742188e+01,-1.338082313537597656e+01,-1.072428207397460938e+02,-1.272442245483398438e+02,6.327375411987304688e+01,-4.191513824462890625e+01
1.114873051643371582e+00,2.000000000000000000e+00,1.211028575897216797e+01,1.253267526626586914e+00,3.357440948486328125e+01,-1.212365570068359375e+02,9.083730316162109375e+01,-7.075568389892578125e+01,3.693296432495117188e+01,-1.337148475646972656e+01,-1.072578887939453125e+02,-1.272990188598632812e+02,6.326952362060546875e+01,-4.194458007812500000e+01
