rpiRobotics/ARM-21-02-F-19-Robot-Motion-Program/data_performance_abb/curve_2/dual_arm/diffevo_pose6/grad_result/real/run_6.csv
timestamp,cmd_num,J1,J2,J3,J4,J5,J6,J1_2,J2_2,J3_2,J4_2,J5_2,J6_2
3.710000019054859877e-04,-1.000000000000000000e+00,5.492848396301269531e+00,1.202486038208007812e+01,3.508042526245117188e+01,-1.087818832397460938e+02,9.036620330810546875e+01,-6.516059112548828125e+01,5.363630294799804688e+01,-1.548905372619628906e+01,-1.037324752807617188e+02,-1.146968383789062500e+02,6.423960876464843750e+01,-3.491080474853515625e+01
3.148999996483325958e-03,-1.000000000000000000e+00,5.492848396301269531e+00,1.202486038208007812e+01,3.508050918579101562e+01,-1.087820434570312500e+02,9.036620330810546875e+01,-6.516045379638671875e+01,5.363630294799804688e+01,-1.548905372619628906e+01,-1.037324752807617188e+02,-1.146968383789062500e+02,6.423960876464843750e+01,-3.491069030761718750e+01
5.433999933302402496e-03,-1.000000000000000000e+00,5.492848396301269531e+00,1.202486038208007812e+01,3.508050918579101562e+01,-1.087820434570312500e+02,9.036620330810546875e+01,-6.516045379638671875e+01,5.363630294799804688e+01,-1.548905372619628906e+01,-1.037324752807617188e+02,-1.146968383789062500e+02,6.423960876464843750e+01,-3.491069030761718750e+01
9.763999842107295990e-03,-1.000000000000000000e+00,5.492848396301269531e+00,1.202486038208007812e+01,3.508050918579101562e+01,-1.087819824218750000e+02,9.036631011962890625e+01,-6.516045379638671875e+01,5.363630294799804688e+01,-1.548896217346191406e+01,-1.037324752807617188e+02,-1.146968383789062500e+02,6.423976135253906250e+01,-3.491080474853515625e+01
1.222299970686435699e-02,-1.000000000000000000e+00,5.492704868316650391e+00,1.202486038208007812e+01,3.508042526245117188e+01,-1.087819824218750000e+02,9.036620330810546875e+01,-6.516045379638671875e+01,5.363630294799804688e+01,-1.548896217346191406e+01,-1.037324752807617188e+02,-1.146968383789062500e+02,6.423976135253906250e+01,-3.491080474853515625e+01
1.504399999976158142e-02,-1.000000000000000000e+00,5.492905616760253906e+00,1.202481555938720703e+01,3.508050918579101562e+01,-1.087819824218750000e+02,9.036620330810546875e+01,-6.516045379638671875e+01,5.363630294799804688e+01,-1.548896217346191406e+01,-1.037325286865234375e+02,-1.146968383789062500e+02,6.423976135253906250e+01,-3.491080474853515625e+01
1.917199976742267609e-02,-1.000000000000000000e+00,5.492905616760253906e+00,1.202481555938720703e+01,3.508050918579101562e+01,-1.087819824218750000e+02,9.036620330810546875e+01,-6.516045379638671875e+01,5.363630294799804688e+01,-1.548896217346191406e+01,-1.037325286865234375e+02,-1.146968383789062500e+02,6.423976135253906250e+01,-3.491080474853515625e+01
2.310699969530105591e-02,-1.000000000000000000e+00,5.492704868316650391e+00,1.202486038208007812e+01,3.508046722412109375e+01,-1.087818832397460938e+02,9.036620330810546875e+01,-6.516045379638671875e+01,5.363630294799804688e+01,-1.548891544342041016e+01,-1.037324752807617188e+02,-1.146968383789062500e+02,6.423976135253906250e+01,-3.491080474853515625e+01
2.707199938595294952e-02,-1.000000000000000000e+00,5.492905616760253906e+00,1.202486038208007812e+01,3.508046722412109375e+01,-1.087819824218750000e+02,9.036631011962890625e+01,-6.516045379638671875e+01,5.363630294799804688e+01,-1.548896217346191406e+01,-1.037324752807617188e+02,-1.146968383789062500e+02,6.423998260498046875e+01,-3.491080474853515625e+01
3.227600082755088806e-02,-1.000000000000000000e+00,5.492848396301269531e+00,1.202486038208007812e+01,3.508046722412109375e+01,-1.087819824218750000e+02,9.036641693115234375e+01,-6.516045379638671875e+01,5.363630294799804688e+01,-1.548896217346191406e+01,-1.037323684692382812e+02,-1.146968383789062500e+02,6.423960876464843750e+01,-3.491069030761718750e+01
3.880900144577026367e-02,2.000000000000000000e+00,5.492905616760253906e+00,1.202486038208007812e+01,3.508046722412109375e+01,-1.087819824218750000e+02,9.036641693115234375e+01,-6.516045379638671875e+01,5.363630294799804688e+01,-1.548905372619628906e+01,-1.037324752807617188e+02,-1.146968383789062500e+02,6.423960876464843750e+01,-3.491080474853515625e+01
4.766799882054328918e-02,2.000000000000000000e+00,5.492848396301269531e+00,1.202486038208007812e+01,3.508050918579101562e+01,-1.087818832397460938e+02,9.036631011962890625e+01,-6.516045379638671875e+01,5.363630294799804688e+01,-1.548905372619628906e+01,-1.037324752807617188e+02,-1.146968383789062500e+02,6.423960876464843750e+01,-3.491080474853515625e+01
5.502799898386001587e-02,2.000000000000000000e+00,5.492762088775634766e+00,1.202486038208007812e+01,3.508046722412109375e+01,-1.087818832397460938e+02,9.036620330810546875e+01,-6.516045379638671875e+01,5.363630294799804688e+01,-1.548896217346191406e+01,-1.037325286865234375e+02,-1.146968383789062500e+02,6.423976135253906250e+01,-3.491080474853515625e+01
5.960699915885925293e-02,2.000000000000000000e+00,5.492905616760253906e+00,1.202486038208007812e+01,3.508050918579101562e+01,-1.087818832397460938e+02,9.036620330810546875e+01,-6.516045379638671875e+01,5.363630294799804688e+01,-1.548896217346191406e+01,-1.037324752807617188e+02,-1.146968383789062500e+02,6.423976135253906250e+01,-3.491080474853515625e+01
1.008189991116523743e-01,2.000000000000000000e+00,5.492905616760253906e+00,1.202486038208007812e+01,3.508050918579101562e+01,-1.087818298339843750e+02,9.036631011962890625e+01,-6.516045379638671875e+01,5.363630294799804688e+01,-1.548905372619628906e+01,-1.037324752807617188e+02,-1.146968383789062500e+02,6.423976135253906250e+01,-3.491069030761718750e+01
1.032639965415000916e-01,2.000000000000000000e+00,5.492762088775634766e+00,1.202486038208007812e+01,3.508046722412109375e+01,-1.087818832397460938e+02,9.036620330810546875e+01,-6.516045379638671875e+01,5.363630294799804688e+01,-1.548896217346191406e+01,-1.037323684692382812e+02,-1.146968383789062500e+02,6.423976135253906250e+01,-3.491080474853515625e+01
1.045389994978904724e-01,2.000000000000000000e+00,5.492762088775634766e+00,1.202486038208007812e+01,3.508046722412109375e+01,-1.087818832397460938e+02,9.036620330810546875e+01,-6.516045379638671875e+01,5.363630294799804688e+01,-1.548896217346191406e+01,-1.037323684692382812e+02,-1.146968383789062500e+02,6.423976135253906250e+01,-3.491080474853515625e+01
1.081129983067512512e-01,2.000000000000000000e+00,5.492848396301269531e+00,1.202486038208007812e+01,3.508050918579101562e+01,-1.087820434570312500e+02,9.036620330810546875e+01,-6.516045379638671875e+01,5.363630294799804688e+01,-1.548896217346191406e+01,-1.037324752807617188e+02,-1.146968383789062500e+02,6.423976135253906250e+01,-3.491080474853515625e+01
1.112300008535385132e-01,2.000000000000000000e+00,5.492905616760253906e+00,1.202481555938720703e+01,3.508046722412109375e+01,-1.087818832397460938e+02,9.036631011962890625e+01,-6.516045379638671875e+01,5.363630294799804688e+01,-1.548905372619628906e+01,-1.037324752807617188e+02,-1.146968383789062500e+02,6.423960876464843750e+01,-3.491080474853515625e+01
1.124909967184066772e-01,2.000000000000000000e+00,5.492905616760253906e+00,1.202481555938720703e+01,3.508046722412109375e+01,-1.087818832397460938e+02,9.036631011962890625e+01,-6.516045379638671875e+01,5.363630294799804688e+01,-1.548905372619628906e+01,-1.037324752807617188e+02,-1.146968383789062500e+02,6.423960876464843750e+01,-3.491080474853515625e+01
1.151190027594566345e-01,2.000000000000000000e+00,5.493135452270507812e+00,1.202449893951416016e+01,3.508050918579101562e+01,-1.087818832397460938e+02,9.036631011962890625e+01,-6.516059112548828125e+01,5.363646697998046875e+01,-1.548896217346191406e+01,-1.037323684692382812e+02,-1.146968383789062500e+02,6.423976135253906250e+01,-3.491069030761718750e+01
1.163839995861053467e-01,2.000000000000000000e+00,5.493135452270507812e+00,1.202449893951416016e+01,3.508050918579101562e+01,-1.087818832397460938e+02,9.036631011962890625e+01,-6.516059112548828125e+01,5.363646697998046875e+01,-1.548896217346191406e+01,-1.037323684692382812e+02,-1.146968383789062500e+02,6.423976135253906250e+01,-3.491069030761718750e+01
1.250829994678497314e-01,2.000000000000000000e+00,5.493881702423095703e+00,1.202391052246093750e+01,3.508050918579101562e+01,-1.087818832397460938e+02,9.036620330810546875e+01,-6.516045379638671875e+01,5.363630294799804688e+01,-1.548896217346191406e+01,-1.037323684692382812e+02,-1.146968383789062500e+02,6.423976135253906250e+01,-3.491069030761718750e+01
1.275369971990585327e-01,2.000000000000000000e+00,5.497240543365478516e+00,1.202080917358398438e+01,3.508046722412109375e+01,-1.087821426391601562e+02,9.036631011962890625e+01,-6.516059112548828125e+01,5.363515090942382812e+01,-1.548937320709228516e+01,-1.037299194335937500e+02,-1.146973495483398438e+02,6.423946380615234375e+01,-3.491091537475585938e+01
1.288000047206878662e-01,2.000000000000000000e+00,5.497240543365478516e+00,1.202080917358398438e+01,3.508046722412109375e+01,-1.087821426391601562e+02,9.036631011962890625e+01,-6.516059112548828125e+01,5.363515090942382812e+01,-1.548937320709228516e+01,-1.037299194335937500e+02,-1.146973495483398438e+02,6.423946380615234375e+01,-3.491091537475585938e+01
1.324979960918426514e-01,2.000000000000000000e+00,5.499967575073242188e+00,1.201788997650146484e+01,3.508042526245117188e+01,-1.087820434570312500e+02,9.036620330810546875e+01,-6.516045379638671875e+01,5.363284683227539062e+01,-1.549015235900878906e+01,-1.037276306152343750e+02,-1.146980590820312500e+02,6.423888397216796875e+01,-3.491113281250000000e+01
1.351429969072341919e-01,2.000000000000000000e+00,5.503326416015625000e+00,1.201386260986328125e+01,3.508046722412109375e+01,-1.087827758789062500e+02,9.036641693115234375e+01,-6.516079711914062500e+01,5.362916564941406250e+01,-1.549097633361816406e+01,-1.037261657714843750e+02,-1.146988525390625000e+02,6.423713684082031250e+01,-3.491267013549804688e+01
1.393499970436096191e-01,2.000000000000000000e+00,5.507402896881103516e+00,1.200834083557128906e+01,3.508042526245117188e+01,-1.087842025756835938e+02,9.036641693115234375e+01,-6.516092681884765625e+01,5.362449645996093750e+01,-1.549134254455566406e+01,-1.037251358032226562e+02,-1.146997070312500000e+02,6.423371124267578125e+01,-3.491476058959960938e+01
1.406919956207275391e-01,2.000000000000000000e+00,5.507402896881103516e+00,1.200834083557128906e+01,3.508042526245117188e+01,-1.087842025756835938e+02,9.036641693115234375e+01,-6.516092681884765625e+01,5.362449645996093750e+01,-1.549134254455566406e+01,-1.037251358032226562e+02,-1.146997070312500000e+02,6.423371124267578125e+01,-3.491476058959960938e+01
1.435420066118240356e-01,2.000000000000000000e+00,5.512311458587646484e+00,1.200134754180908203e+01,3.508036422729492188e+01,-1.087873077392578125e+02,9.036668395996093750e+01,-6.516161346435546875e+01,5.361806869506835938e+01,-1.549134254455566406e+01,-1.037242660522460938e+02,-1.147015838623046875e+02,6.422875976562500000e+01,-3.491629791259765625e+01
1.448560059070587158e-01,2.000000000000000000e+00,5.512311458587646484e+00,1.200134754180908203e+01,3.508036422729492188e+01,-1.087873077392578125e+02,9.036668395996093750e+01,-6.516161346435546875e+01,5.361806869506835938e+01,-1.549134254455566406e+01,-1.037242660522460938e+02,-1.147015838623046875e+02,6.422875976562500000e+01,-3.491629791259765625e+01
1.509830057621002197e-01,2.000000000000000000e+00,5.518081665039062500e+00,1.199270343780517578e+01,3.508021926879882812e+01,-1.087920455932617188e+02,9.036652374267578125e+01,-6.516316986083984375e+01,5.359856796264648438e+01,-1.548909854888916016e+01,-1.037234420776367188e+02,-1.147083282470703125e+02,6.422270202636718750e+01,-3.491926574707031250e+01
1.522729992866516113e-01,2.000000000000000000e+00,5.525200843811035156e+00,1.198184108734130859e+01,3.507993698120117188e+01,-1.087983169555664062e+02,9.036689758300781250e+01,-6.516635894775390625e+01,5.359856796264648438e+01,-1.548909854888916016e+01,-1.037234420776367188e+02,-1.147083282470703125e+02,6.422270202636718750e+01,-3.491926574707031250e+01
1.535969972610473633e-01,2.000000000000000000e+00,5.525200843811035156e+00,1.198184108734130859e+01,3.507993698120117188e+01,-1.087983169555664062e+02,9.036689758300781250e+01,-6.516635894775390625e+01,5.359856796264648438e+01,-1.548909854888916016e+01,-1.037234420776367188e+02,-1.147083282470703125e+02,6.422270202636718750e+01,-3.491926574707031250e+01
1.572069972753524780e-01,2.000000000000000000e+00,5.533726692199707031e+00,1.196851253509521484e+01,3.507930755615234375e+01,-1.088064346313476562e+02,9.036711120605468750e+01,-6.517022705078125000e+01,5.358483123779296875e+01,-1.548822975158691406e+01,-1.037297592163085938e+02,-1.147145690917968750e+02,6.422161102294921875e+01,-3.492135238647460938e+01
1.615449935197830200e-01,2.000000000000000000e+00,5.543745517730712891e+00,1.195319175720214844e+01,3.507843399047851562e+01,-1.088171768188476562e+02,9.036743164062500000e+01,-6.517490386962890625e+01,5.356747817993164062e+01,-1.548722171783447266e+01,-1.037336120605468750e+02,-1.147227554321289062e+02,6.422059631347656250e+01,-3.492475509643554688e+01
1.640350073575973511e-01,2.000000000000000000e+00,5.554711818695068359e+00,1.193606090545654297e+01,3.507731628417968750e+01,-1.088308181762695312e+02,9.036774444580078125e+01,-6.518080139160156250e+01,5.354621887207031250e+01,-1.548562049865722656e+01,-1.037358474731445312e+02,-1.147342529296875000e+02,6.421913909912109375e+01,-3.492969894409179688e+01
1.653680056333541870e-01,2.000000000000000000e+00,5.554711818695068359e+00,1.193606090545654297e+01,3.507731628417968750e+01,-1.088308181762695312e+02,9.036774444580078125e+01,-6.518080139160156250e+01,5.354621887207031250e+01,-1.548562049865722656e+01,-1.037358474731445312e+02,-1.147342529296875000e+02,6.421913909912109375e+01,-3.492969894409179688e+01
1.678559929132461548e-01,2.000000000000000000e+00,5.566481113433837891e+00,1.191709613800048828e+01,3.507582855224609375e+01,-1.088476181030273438e+02,9.036833190917968750e+01,-6.518833160400390625e+01,5.352056503295898438e+01,-1.548392677307128906e+01,-1.037393264770507812e+02,-1.147489013671875000e+02,6.421789550781250000e+01,-3.493673324584960938e+01
1.724099963903427124e-01,2.000000000000000000e+00,5.566481113433837891e+00,1.191709613800048828e+01,3.507582855224609375e+01,-1.088476181030273438e+02,9.036833190917968750e+01,-6.518833160400390625e+01,5.349002075195312500e+01,-1.548209571838378906e+01,-1.037439498901367188e+02,-1.147670669555664062e+02,6.421665954589843750e+01,-3.494651031494140625e+01
1.737039983272552490e-01,2.000000000000000000e+00,5.579399108886718750e+00,1.189625549316406250e+01,3.507371520996093750e+01,-1.088682632446289062e+02,9.036908721923828125e+01,-6.519782257080078125e+01,5.349002075195312500e+01,-1.548209571838378906e+01,-1.037439498901367188e+02,-1.147670669555664062e+02,6.421665954589843750e+01,-3.494651031494140625e+01
1.762260049581527710e-01,2.000000000000000000e+00,5.593264579772949219e+00,1.187410068511962891e+01,3.507105255126953125e+01,-1.088932876586914062e+02,9.036962127685546875e+01,-6.520860290527343750e+01,5.345382308959960938e+01,-1.547884464263916016e+01,-1.037509689331054688e+02,-1.147904663085937500e+02,6.421527099609375000e+01,-3.495848464965820312e+01
1.775529980659484863e-01,2.000000000000000000e+00,5.593264579772949219e+00,1.187410068511962891e+01,3.507105255126953125e+01,-1.088932876586914062e+02,9.036962127685546875e+01,-6.520860290527343750e+01,5.345382308959960938e+01,-1.547884464263916016e+01,-1.037509689331054688e+02,-1.147904663085937500e+02,6.421527099609375000e+01,-3.495848464965820312e+01
1.802069991827011108e-01,2.000000000000000000e+00,5.608048915863037109e+00,1.185031604766845703e+01,3.506777954101562500e+01,-1.089231033325195312e+02,9.037062835693359375e+01,-6.522128295898437500e+01,5.341377639770507812e+01,-1.547467994689941406e+01,-1.037589111328125000e+02,-1.148179016113281250e+02,6.421331024169921875e+01,-3.497265625000000000e+01
1.843750029802322388e-01,2.000000000000000000e+00,5.623895168304443359e+00,1.182467651367187500e+01,3.506399917602539062e+01,-1.089560699462890625e+02,9.037148284912109375e+01,-6.523573303222656250e+01,5.336999511718750000e+01,-1.546959877014160156e+01,-1.037677764892578125e+02,-1.148509292602539062e+02,6.421141815185546875e+01,-3.498968505859375000e+01
1.856410056352615356e-01,2.000000000000000000e+00,5.623895168304443359e+00,1.182467651367187500e+01,3.506399917602539062e+01,-1.089560699462890625e+02,9.037148284912109375e+01,-6.523573303222656250e+01,5.336999511718750000e+01,-1.546959877014160156e+01,-1.037677764892578125e+02,-1.148509292602539062e+02,6.421141815185546875e+01,-3.498968505859375000e+01
1.891990005970001221e-01,2.000000000000000000e+00,5.640803337097167969e+00,1.179713535308837891e+01,3.505972671508789062e+01,-1.089912109375000000e+02,9.037239074707031250e+01,-6.525173187255859375e+01,5.332291793823242188e+01,-1.546369361877441406e+01,-1.037795181274414062e+02,-1.148884124755859375e+02,6.420915222167968750e+01,-3.500924301147460938e+01
1.920939981937408447e-01,2.000000000000000000e+00,5.658658981323242188e+00,1.176730918884277344e+01,3.505511474609375000e+01,-1.090297164916992188e+02,9.037335205078125000e+01,-6.526937103271484375e+01,5.327282333374023438e+01,-1.545678138732910156e+01,-1.037936630249023438e+02,-1.149303512573242188e+02,6.420667266845703125e+01,-3.503022384643554688e+01
1.992879956960678101e-01,2.000000000000000000e+00,5.677605628967285156e+00,1.173565006256103516e+01,3.505019378662109375e+01,-1.090730590820312500e+02,9.037462615966796875e+01,-6.528829193115234375e+01,5.316559600830078125e+01,-1.544071388244628906e+01,-1.038241195678710938e+02,-1.150252075195312500e+02,6.420106506347656250e+01,-3.508285140991210938e+01
2.006690055131912231e-01,2.000000000000000000e+00,5.697556495666503906e+00,1.170186328887939453e+01,3.504490661621093750e+01,-1.091199951171875000e+02,9.037596130371093750e+01,-6.530917358398437500e+01,5.316559600830078125e+01,-1.544071388244628906e+01,-1.038241195678710938e+02,-1.150252075195312500e+02,6.420106506347656250e+01,-3.508285140991210938e+01
2.032929956912994385e-01,2.000000000000000000e+00,5.697556495666503906e+00,1.170186328887939453e+01,3.504490661621093750e+01,-1.091199951171875000e+02,9.037596130371093750e+01,-6.530917358398437500e+01,5.316559600830078125e+01,-1.544071388244628906e+01,-1.038241195678710938e+02,-1.150252075195312500e+02,6.420106506347656250e+01,-3.508285140991210938e+01
2.046290040016174316e-01,2.000000000000000000e+00,5.718283176422119141e+00,1.166656112670898438e+01,3.503921127319335938e+01,-1.091672439575195312e+02,9.037724304199218750e+01,-6.533068084716796875e+01,5.310692596435546875e+01,-1.543210697174072266e+01,-1.038405456542968750e+02,-1.150765457153320312e+02,6.419792938232421875e+01,-3.511185455322265625e+01
2.080000042915344238e-01,2.000000000000000000e+00,5.739554882049560547e+00,1.162974166870117188e+01,3.503321456909179688e+01,-1.092165527343750000e+02,9.037889099121093750e+01,-6.535379791259765625e+01,5.304392242431640625e+01,-1.542313575744628906e+01,-1.038572998046875000e+02,-1.151293258666992188e+02,6.419494628906250000e+01,-3.514030838012695312e+01
2.093300074338912964e-01,2.000000000000000000e+00,5.739554882049560547e+00,1.162974166870117188e+01,3.503321456909179688e+01,-1.092165527343750000e+02,9.037889099121093750e+01,-6.535379791259765625e+01,5.304392242431640625e+01,-1.542313575744628906e+01,-1.038572998046875000e+02,-1.151293258666992188e+02,6.419494628906250000e+01,-3.514030838012695312e+01
2.127380073070526123e-01,2.000000000000000000e+00,5.761659145355224609e+00,1.159131717681884766e+01,3.502688980102539062e+01,-1.092683258056640625e+02,9.038038635253906250e+01,-6.537767028808593750e+01,5.297745513916015625e+01,-1.541398048400878906e+01,-1.038740463256835938e+02,-1.151837539672851562e+02,6.419181060791015625e+01,-3.517128753662109375e+01
2.162690013647079468e-01,2.000000000000000000e+00,5.761659145355224609e+00,1.159131717681884766e+01,3.502688980102539062e+01,-1.092683258056640625e+02,9.038038635253906250e+01,-6.537767028808593750e+01,5.297745513916015625e+01,-1.541398048400878906e+01,-1.038740463256835938e+02,-1.151837539672851562e+02,6.419181060791015625e+01,-3.517128753662109375e+01
2.195259928703308105e-01,2.000000000000000000e+00,5.784883022308349609e+00,1.155119419097900391e+01,3.502059173583984375e+01,-1.093210525512695312e+02,9.038198852539062500e+01,-6.540174865722656250e+01,5.290813064575195312e+01,-1.540477943420410156e+01,-1.038902511596679688e+02,-1.152386932373046875e+02,6.418831634521484375e+01,-3.520238113403320312e+01
2.233400046825408936e-01,2.000000000000000000e+00,5.809340953826904297e+00,1.150928306579589844e+01,3.501422500610351562e+01,-1.093743591308593750e+02,9.038379669189453125e+01,-6.542528533935546875e+01,5.283787155151367188e+01,-1.539576053619384766e+01,-1.039062423706054688e+02,-1.152931137084960938e+02,6.418489074707031250e+01,-3.523314285278320312e+01
2.274940013885498047e-01,2.000000000000000000e+00,5.834976196289062500e+00,1.146569824218750000e+01,3.500780105590820312e+01,-1.094281387329101562e+02,9.038571929931640625e+01,-6.544853973388671875e+01,5.276624298095703125e+01,-1.538660621643066406e+01,-1.039218521118164062e+02,-1.153476867675781250e+02,6.418088531494140625e+01,-3.526247406005859375e+01
2.316090017557144165e-01,2.000000000000000000e+00,5.861816883087158203e+00,1.142066478729248047e+01,3.500129318237304688e+01,-1.094823379516601562e+02,9.038774871826171875e+01,-6.547268676757812500e+01,5.269373321533203125e+01,-1.537726783752441406e+01,-1.039370269775390625e+02,-1.154031906127929688e+02,6.417680358886718750e+01,-3.529235839843750000e+01
2.364500015974044800e-01,2.000000000000000000e+00,5.889289855957031250e+00,1.137447643280029297e+01,3.499485015869140625e+01,-1.095369644165039062e+02,9.038945007324218750e+01,-6.549743652343750000e+01,5.262001419067382812e+01,-1.536756229400634766e+01,-1.039523086547851562e+02,-1.154587783813476562e+02,6.417315673828125000e+01,-3.532421875000000000e+01
2.397779971361160278e-01,2.000000000000000000e+00,5.917623043060302734e+00,1.132749652862548828e+01,3.498854446411132812e+01,-1.095911636352539062e+02,9.039147949218750000e+01,-6.552239227294921875e+01,5.254613113403320312e+01,-1.535799598693847656e+01,-1.039676971435546875e+02,-1.155141448974609375e+02,6.416944122314453125e+01,-3.535662841796875000e+01
2.438450008630752563e-01,2.000000000000000000e+00,5.946358680725097656e+00,1.128031349182128906e+01,3.498214340209960938e+01,-1.096455230712890625e+02,9.039355468750000000e+01,-6.554735565185546875e+01,5.247312545776367188e+01,-1.534874820709228516e+01,-1.039825515747070312e+02,-1.155692901611328125e+02,6.416565704345703125e+01,-3.538673400878906250e+01
2.483569979667663574e-01,2.000000000000000000e+00,5.975496292114257812e+00,1.123294925689697266e+01,3.497561645507812500e+01,-1.097001495361328125e+02,9.039542388916015625e+01,-6.557244110107421875e+01,5.240083694458007812e+01,-1.533950233459472656e+01,-1.039977264404296875e+02,-1.156245727539062500e+02,6.416143035888671875e+01,-3.541793441772460938e+01
2.517769932746887207e-01,2.000000000000000000e+00,6.004576206207275391e+00,1.118551635742187500e+01,3.496890640258789062e+01,-1.097545089721679688e+02,9.039760589599609375e+01,-6.559678649902343750e+01,5.232816314697265625e+01,-1.533025550842285156e+01,-1.040127944946289062e+02,-1.156801528930664062e+02,6.415734863281250000e+01,-3.545089340209960938e+01
2.560999989509582520e-01,2.000000000000000000e+00,6.033598899841308594e+00,1.113824272155761719e+01,3.496225738525390625e+01,-1.098095016479492188e+02,9.039958190917968750e+01,-6.562072753906250000e+01,5.225477218627929688e+01,-1.532087135314941406e+01,-1.040281829833984375e+02,-1.157350158691406250e+02,6.415392303466796875e+01,-3.548363113403320312e+01
2.606750130653381348e-01,2.000000000000000000e+00,6.062563896179199219e+00,1.109083271026611328e+01,3.495558547973632812e+01,-1.098642272949218750e+02,9.040145111083984375e+01,-6.564459991455078125e+01,5.218083572387695312e+01,-1.531157875061035156e+01,-1.040438461303710938e+02,-1.157889328002929688e+02,6.415028381347656250e+01,-3.551428222656250000e+01
2.643240094184875488e-01,2.000000000000000000e+00,6.091615200042724609e+00,1.104360485076904297e+01,3.494883728027343750e+01,-1.099181137084960938e+02,9.040352630615234375e+01,-6.566887664794921875e+01,5.210761260986328125e+01,-1.530237865447998047e+01,-1.040595626831054688e+02,-1.158442306518554688e+02,6.414634704589843750e+01,-3.554471588134765625e+01
2.679559886455535889e-01,2.000000000000000000e+00,6.120666503906250000e+00,1.099653434753417969e+01,3.494210815429687500e+01,-1.099729995727539062e+02,9.040555572509765625e+01,-6.569335937500000000e+01,5.203521347045898438e+01,-1.529335880279541016e+01,-1.040750656127929688e+02,-1.158999481201171875e+02,6.414256286621093750e+01,-3.557657241821289062e+01
2.717790007591247559e-01,2.000000000000000000e+00,6.149746417999267578e+00,1.094905757904052734e+01,3.493547821044921875e+01,-1.100275192260742188e+02,9.040773773193359375e+01,-6.571851348876953125e+01,5.196270370483398438e+01,-1.528402042388916016e+01,-1.040900192260742188e+02,-1.159551696777343750e+02,6.413870239257812500e+01,-3.560744476318359375e+01
2.760950028896331787e-01,2.000000000000000000e+00,6.178740501403808594e+00,1.090167045593261719e+01,3.492905426025390625e+01,-1.100818786621093750e+02,9.040975952148437500e+01,-6.574354553222656250e+01,5.188920211791992188e+01,-1.527463722229003906e+01,-1.041050872802734375e+02,-1.160100936889648438e+02,6.413483428955078125e+01,-3.563821029663085938e+01
2.801190018653869629e-01,2.000000000000000000e+00,6.207504272460937500e+00,1.085480308532714844e+01,3.492261123657226562e+01,-1.101363906860351562e+02,9.041168975830078125e+01,-6.576809692382812500e+01,5.181542968750000000e+01,-1.526511573791503906e+01,-1.041204223632812500e+02,-1.160652389526367188e+02,6.413104248046875000e+01,-3.566962814331054688e+01
2.848420143127441406e-01,2.000000000000000000e+00,6.236211299896240234e+00,1.080771064758300781e+01,3.491604232788085938e+01,-1.101902236938476562e+02,9.041381835937500000e+01,-6.579230499267578125e+01,5.174220657348632812e+01,-1.525573158264160156e+01,-1.041357650756835938e+02,-1.161205368041992188e+02,6.412711334228515625e+01,-3.570170974731445312e+01
2.884100079536437988e-01,2.000000000000000000e+00,6.264975547790527344e+00,1.076086711883544922e+01,3.490949630737304688e+01,-1.102448043823242188e+02,9.041579437255859375e+01,-6.581604003906250000e+01,5.167046737670898438e+01,-1.524643898010253906e+01,-1.041509857177734375e+02,-1.161755371093750000e+02,6.412310791015625000e+01,-3.573269271850585938e+01
2.924549877643585205e-01,2.000000000000000000e+00,6.293941020965576172e+00,1.071404457092285156e+01,3.490286636352539062e+01,-1.102992095947265625e+02,9.041770935058593750e+01,-6.584011840820312500e+01,5.159795761108398438e+01,-1.523714637756347656e+01,-1.041662750244140625e+02,-1.162299041748046875e+02,6.411917114257812500e+01,-3.576224136352539062e+01
2.960700094699859619e-01,2.000000000000000000e+00,6.322762489318847656e+00,1.066699790954589844e+01,3.489624023437500000e+01,-1.103530960083007812e+02,9.041967773437500000e+01,-6.586446380615234375e+01,5.152473068237304688e+01,-1.522803688049316406e+01,-1.041814422607421875e+02,-1.162846145629882812e+02,6.411531066894531250e+01,-3.579322433471679688e+01
3.000760078430175781e-01,2.000000000000000000e+00,6.351584434509277344e+00,1.062028980255126953e+01,3.488961029052734375e+01,-1.104079360961914062e+02,9.042176055908203125e+01,-6.588921356201171875e+01,5.145090484619140625e+01,-1.521860599517822266e+01,-1.041968917846679688e+02,-1.163406219482421875e+02,6.411122894287109375e+01,-3.582409667968750000e+01
3.042429983615875244e-01,2.000000000000000000e+00,6.380290508270263672e+00,1.057344532012939453e+01,3.488316726684570312e+01,-1.104621276855468750e+02,9.042368316650390625e+01,-6.591424560546875000e+01,5.137828445434570312e+01,-1.520917701721191406e+01,-1.042125549316406250e+02,-1.163956985473632812e+02,6.410729217529296875e+01,-3.585485839843750000e+01
3.090859949588775635e-01,2.000000000000000000e+00,6.409026622772216797e+00,1.052673721313476562e+01,3.487680435180664062e+01,-1.105163803100585938e+02,9.042602539062500000e+01,-6.593953704833984375e+01,5.130643463134765625e+01,-1.519970130920410156e+01,-1.042277832031250000e+02,-1.164508438110351562e+02,6.410343170166015625e+01,-3.588584136962890625e+01
3.122749924659729004e-01,2.000000000000000000e+00,6.437905311584472656e+00,1.048018741607666016e+01,3.487058258056640625e+01,-1.105712203979492188e+02,9.042789459228515625e+01,-6.596394348144531250e+01,5.123408889770507812e+01,-1.519045352935791016e+01,-1.042430648803710938e+02,-1.165065689086914062e+02,6.409899139404296875e+01,-3.591693115234375000e+01
3.162949979305267334e-01,2.000000000000000000e+00,6.466870784759521484e+00,1.043356990814208984e+01,3.486401367187500000e+01,-1.106252059936523438e+02,9.043002319335937500e+01,-6.598795318603515625e+01,5.116081237792968750e+01,-1.518111515045166016e+01,-1.042582931518554688e+02,-1.165614242553710938e+02,6.409446716308593750e+01,-3.594824218750000000e+01
3.201420009136199951e-01,2.000000000000000000e+00,6.495720863342285156e+00,1.038688373565673828e+01,3.485740661621093750e+01,-1.106800918579101562e+02,9.043204498291015625e+01,-6.601189422607421875e+01,5.108731079101562500e+01,-1.517182254791259766e+01,-1.042737426757812500e+02,-1.166163558959960938e+02,6.409017181396484375e+01,-3.597856521606445312e+01
3.243989944458007812e-01,2.000000000000000000e+00,6.524570941925048828e+00,1.034028911590576172e+01,3.485083770751953125e+01,-1.107345581054687500e+02,9.043428802490234375e+01,-6.603624725341796875e+01,5.101474761962890625e+01,-1.516225528717041016e+01,-1.042892456054687500e+02,-1.166714324951171875e+02,6.408602142333984375e+01,-3.600844573974609375e+01
3.283320069313049316e-01,2.000000000000000000e+00,6.553421974182128906e+00,1.029369449615478516e+01,3.484427261352539062e+01,-1.107884521484375000e+02,9.043637084960937500e+01,-6.606106567382812500e+01,5.094278717041015625e+01,-1.515319156646728516e+01,-1.043047409057617188e+02,-1.167261428833007812e+02,6.408208465576171875e+01,-3.604063796997070312e+01
3.331359922885894775e-01,2.000000000000000000e+00,6.582157135009765625e+00,1.024709892272949219e+01,3.483760070800781250e+01,-1.108432312011718750e+02,9.043839263916015625e+01,-6.608560943603515625e+01,5.087033081054687500e+01,-1.514399147033691406e+01,-1.043202438354492188e+02,-1.167811584472656250e+02,6.407785797119140625e+01,-3.607304763793945312e+01
3.350329995155334473e-01,2.000000000000000000e+00,6.611122608184814453e+00,1.020043659210205078e+01,3.483089447021484375e+01,-1.108974761962890625e+02,9.044047546386718750e+01,-6.611077117919921875e+01,5.079716110229492188e+01,-1.513501930236816406e+01,-1.043354721069335938e+02,-1.168367233276367188e+02,6.407348632812500000e+01,-3.610303878784179688e+01
3.404980003833770752e-01,2.000000000000000000e+00,6.639886379241943359e+00,1.015352439880371094e+01,3.482432937622070312e+01,-1.109518432617187500e+02,9.044255065917968750e+01,-6.613586425781250000e+01,5.072388458251953125e+01,-1.512586402893066406e+01,-1.043507003784179688e+02,-1.168912963867187500e+02,6.406941223144531250e+01,-3.613281250000000000e+01
3.430559933185577393e-01,2.000000000000000000e+00,6.668536186218261719e+00,1.010665798187255859e+01,3.481785964965820312e+01,-1.110062484741210938e+02,9.044500732421875000e+01,-6.615980529785156250e+01,5.065137481689453125e+01,-1.511657142639160156e+01,-1.043662567138671875e+02,-1.169469528198242188e+02,6.406569671630859375e+01,-3.616544342041015625e+01
3.470920026302337646e-01,2.000000000000000000e+00,6.697156906127929688e+00,1.005976867675781250e+01,3.481135559082031250e+01,-1.110600280761718750e+02,9.044686889648437500e+01,-6.618347167968750000e+01,5.057908630371093750e+01,-1.510736942291259766e+01,-1.043820266723632812e+02,-1.170021667480468750e+02,6.406168365478515625e+01,-3.619708251953125000e+01
3.511419892311096191e-01,2.000000000000000000e+00,6.725719928741455078e+00,1.001278972625732422e+01,3.480470275878906250e+01,-1.111143417358398438e+02,9.044911193847656250e+01,-6.620795440673828125e+01,5.050701141357421875e+01,-1.509826183319091797e+01,-1.043975296020507812e+02,-1.170568923950195312e+02,6.405774688720703125e+01,-3.622641372680664062e+01
3.552120029926300049e-01,2.000000000000000000e+00,6.754512786865234375e+00,9.965809822082519531e+00,3.479808044433593750e+01,-1.111689682006835938e+02,9.045134735107421875e+01,-6.623236846923828125e+01,5.043395233154296875e+01,-1.508915138244628906e+01,-1.044125976562500000e+02,-1.171121749877929688e+02,6.405359649658203125e+01,-3.625618743896484375e+01
3.590489923954010010e-01,2.000000000000000000e+00,6.783506393432617188e+00,9.918784141540527344e+00,3.479146957397460938e+01,-1.112232742309570312e+02,9.045353698730468750e+01,-6.625643920898437500e+01,5.036067581176757812e+01,-1.507967472076416016e+01,-1.044277648925781250e+02,-1.171673202514648438e+02,6.404936981201171875e+01,-3.628859710693359375e+01
3.630259931087493896e-01,2.000000000000000000e+00,6.812386035919189453e+00,9.871736526489257812e+00,3.478482055664062500e+01,-1.112773132324218750e+02,9.045583343505859375e+01,-6.628153991699218750e+01,5.028811264038085938e+01,-1.507010746002197266e+01,-1.044430007934570312e+02,-1.172217559814453125e+02,6.404543304443359375e+01,-3.632046127319335938e+01
3.671700060367584229e-01,2.000000000000000000e+00,6.841178417205810547e+00,9.824508666992187500e+00,3.477811050415039062e+01,-1.113310394287109375e+02,9.045790863037109375e+01,-6.630677032470703125e+01,5.021620559692382812e+01,-1.506035709381103516e+01,-1.044582748413085938e+02,-1.172769012451171875e+02,6.404179382324218750e+01,-3.634935379028320312e+01
3.710309863090515137e-01,2.000000000000000000e+00,6.869914531707763672e+00,9.777302742004394531e+00,3.477158355712890625e+01,-1.113856124877929688e+02,9.046031188964843750e+01,-6.633138275146484375e+01,5.014358520507812500e+01,-1.505092811584472656e+01,-1.044734573364257812e+02,-1.173322677612304688e+02,6.403778839111328125e+01,-3.637923812866210938e+01
3.750329911708831787e-01,2.000000000000000000e+00,6.898936748504638672e+00,9.730118751525878906e+00,3.476518249511718750e+01,-1.114404983520507812e+02,9.046254730224609375e+01,-6.635511779785156250e+01,5.007036209106445312e+01,-1.504145145416259766e+01,-1.044884643554687500e+02,-1.173875503540039062e+02,6.403326416015625000e+01,-3.641043853759765625e+01
3.790450096130371094e-01,2.000000000000000000e+00,6.927959442138671875e+00,9.683048248291015625e+00,3.475877380371093750e+01,-1.114946975708007812e+02,9.046456909179687500e+01,-6.637871551513671875e+01,4.999708557128906250e+01,-1.503211402893066406e+01,-1.045035247802734375e+02,-1.174427032470703125e+02,6.402889251708984375e+01,-3.644097900390625000e+01
3.830319941043853760e-01,2.000000000000000000e+00,6.957096576690673828e+00,9.636137008666992188e+00,3.475217056274414062e+01,-1.115493698120117188e+02,9.046691894531250000e+01,-6.640313720703125000e+01,4.992462921142578125e+01,-1.502250099182128906e+01,-1.045188140869140625e+02,-1.174966964721679688e+02,6.402445220947265625e+01,-3.647031021118164062e+01
3.888559937477111816e-01,2.000000000000000000e+00,6.986147880554199219e+00,9.589066505432128906e+00,3.474537658691406250e+01,-1.116032638549804688e+02,9.046905517578125000e+01,-6.642754364013671875e+01,4.985283279418945312e+01,-1.501302623748779297e+01,-1.045339355468750000e+02,-1.175517120361328125e+02,6.402037048339843750e+01,-3.650096511840820312e+01
3.910270035266876221e-01,2.000000000000000000e+00,7.015056133270263672e+00,9.542177200317382812e+00,3.473881149291992188e+01,-1.116573562622070312e+02,9.047139739990234375e+01,-6.645195770263671875e+01,4.978043365478515625e+01,-1.500377750396728516e+01,-1.045491638183593750e+02,-1.176068572998046875e+02,6.401599884033203125e+01,-3.653293228149414062e+01
3.950240015983581543e-01,2.000000000000000000e+00,7.043992519378662109e+00,9.495197296142578125e+00,3.473207855224609375e+01,-1.117121353149414062e+02,9.047384643554687500e+01,-6.647677612304687500e+01,4.970704269409179688e+01,-1.499453163146972656e+01,-1.045643920898437500e+02,-1.176613464355468750e+02,6.401162719726562500e+01,-3.656358718872070312e+01
3.992800116539001465e-01,2.000000000000000000e+00,7.072928905487060547e+00,9.448059082031250000e+00,3.472520828247070312e+01,-1.117661819458007812e+02,9.047592926025390625e+01,-6.650166320800781250e+01,4.963327026367187500e+01,-1.498501014709472656e+01,-1.045795669555664062e+02,-1.177157135009765625e+02,6.400733184814453125e+01,-3.659347152709960938e+01
4.030320048332214355e-01,2.000000000000000000e+00,7.101635932922363281e+00,9.401283264160156250e+00,3.471855926513671875e+01,-1.118204879760742188e+02,9.047827148437500000e+01,-6.652587890625000000e+01,4.956081771850585938e+01,-1.497535037994384766e+01,-1.045946807861328125e+02,-1.177709960937500000e+02,6.400302886962890625e+01,-3.662477874755859375e+01
4.070329964160919189e-01,2.000000000000000000e+00,7.130543231964111328e+00,9.354575157165527344e+00,3.471193313598632812e+01,-1.118745880126953125e+02,9.048040771484375000e+01,-6.654927825927734375e+01,4.948869323730468750e+01,-1.496573829650878906e+01,-1.046101303100585938e+02,-1.178260803222656250e+02,6.399836730957031250e+01,-3.665697097778320312e+01
4.111750125885009766e-01,2.000000000000000000e+00,7.159250259399414062e+00,9.307821273803710938e+00,3.470548629760742188e+01,-1.119281005859375000e+02,9.048307800292968750e+01,-6.657301330566406250e+01,4.941629409790039062e+01,-1.495639991760253906e+01,-1.046256332397460938e+02,-1.178808670043945312e+02,6.399457550048828125e+01,-3.668718338012695312e+01
4.150429964065551758e-01,2.000000000000000000e+00,7.187986373901367188e+00,9.261068344116210938e+00,3.469894027709960938e+01,-1.119827194213867188e+02,9.048504638671875000e+01,-6.659695434570312500e+01,4.934284973144531250e+01,-1.494738292694091797e+01,-1.046409149169921875e+02,-1.179359359741210938e+02,6.399049758911132812e+01,-3.671607971191406250e+01
4.190309941768646240e-01,2.000000000000000000e+00,7.216778755187988281e+00,9.214360237121582031e+00,3.469231033325195312e+01,-1.120367126464843750e+02,9.048738861083984375e+01,-6.662163543701171875e+01,4.926962661743164062e+01,-1.493836307525634766e+01,-1.046560897827148438e+02,-1.179906616210937500e+02,6.398619461059570312e+01,-3.674694824218750000e+01
4.256699979305267334e-01,2.000000000000000000e+00,7.245657920837402344e+00,9.167675018310546875e+00,3.468570709228515625e+01,-1.120908660888671875e+02,9.048963165283203125e+01,-6.664618682861328125e+01,4.919728088378906250e+01,-1.492925357818603516e+01,-1.046713180541992188e+02,-1.180462265014648438e+02,6.398218536376953125e+01,-3.677891921997070312e+01
4.301329851150512695e-01,2.000000000000000000e+00,7.274536609649658203e+00,9.120944023132324219e+00,3.467913818359375000e+01,-1.121452789306640625e+02,9.049182128906250000e+01,-6.667100524902343750e+01,4.912553787231445312e+01,-1.491982460021972656e+01,-1.046869277954101562e+02,-1.181002273559570312e+02,6.397803497314453125e+01,-3.680935287475585938e+01
4.315690100193023682e-01,2.000000000000000000e+00,7.303416252136230469e+00,9.074235916137695312e+00,3.467250823974609375e+01,-1.121987915039062500e+02,9.049421691894531250e+01,-6.669562530517578125e+01,4.905335617065429688e+01,-1.491066837310791016e+01,-1.047023239135742188e+02,-1.181539382934570312e+02,6.397410202026367188e+01,-3.683923339843750000e+01
4.350470006465911865e-01,2.000000000000000000e+00,7.332209110260009766e+00,9.027549743652343750e+00,3.466594314575195312e+01,-1.122530441284179688e+02,9.049656677246093750e+01,-6.671956634521484375e+01,4.897996902465820312e+01,-1.490137577056884766e+01,-1.047173843383789062e+02,-1.182092361450195312e+02,6.396987915039062500e+01,-3.687131500244140625e+01
4.390279948711395264e-01,2.000000000000000000e+00,7.361145019531250000e+00,8.980887413024902344e+00,3.465941619873046875e+01,-1.123075103759765625e+02,9.049869537353515625e+01,-6.674310302734375000e+01,4.890657806396484375e+01,-1.489226627349853516e+01,-1.047328872680664062e+02,-1.182644500732421875e+02,6.396543121337890625e+01,-3.690372467041015625e+01
4.431009888648986816e-01,2.000000000000000000e+00,7.389880657196044922e+00,8.934111595153808594e+00,3.465304946899414062e+01,-1.123612365722656250e+02,9.050071716308593750e+01,-6.676723480224609375e+01,4.883417892456054688e+01,-1.488302040100097656e+01,-1.047480545043945312e+02,-1.183195343017578125e+02,6.396128082275390625e+01,-3.693349838256835938e+01
4.470509886741638184e-01,2.000000000000000000e+00,7.418673992156982422e+00,8.887448310852050781e+00,3.464664840698242188e+01,-1.124160766601562500e+02,9.050306701660156250e+01,-6.679117584228515625e+01,4.876254653930664062e+01,-1.487368106842041016e+01,-1.047636184692382812e+02,-1.183747482299804688e+02,6.395705032348632812e+01,-3.696195220947265625e+01
4.510410130023956299e-01,2.000000000000000000e+00,7.447581291198730469e+00,8.840740203857421875e+00,3.464003753662109375e+01,-1.124701156616210938e+02,9.050551605224609375e+01,-6.681552886962890625e+01,4.869042587280273438e+01,-1.486425209045410156e+01,-1.047791137695312500e+02,-1.184293212890625000e+02,6.395253753662109375e+01,-3.699304199218750000e+01
4.550409913063049316e-01,2.000000000000000000e+00,7.476460933685302734e+00,8.794077873229980469e+00,3.463347244262695312e+01,-1.125237960815429688e+02,9.050775909423828125e+01,-6.684041595458984375e+01,4.861720275878906250e+01,-1.485509681701660156e+01,-1.047947235107421875e+02,-1.184840316772460938e+02,6.394808959960937500e+01,-3.702468490600585938e+01
4.613679945468902588e-01,2.000000000000000000e+00,7.505138397216796875e+00,8.747391700744628906e+00,3.462684249877929688e+01,-1.125782012939453125e+02,9.050973510742187500e+01,-6.686537170410156250e+01,4.854419708251953125e+01,-1.484607887268066406e+01,-1.048097839355468750e+02,-1.185388870239257812e+02,6.394379425048828125e+01,-3.705379867553710938e+01
4.631009995937347412e-01,2.000000000000000000e+00,7.533931732177734375e+00,8.700502395629882812e+00,3.462005233764648438e+01,-1.126322479248046875e+02,9.051186370849609375e+01,-6.688971710205078125e+01,4.847174072265625000e+01,-1.483687686920166016e+01,-1.048245239257812500e+02,-1.185931091308593750e+02,6.393992996215820312e+01,-3.708324050903320312e+01
4.680370092391967773e-01,2.000000000000000000e+00,7.562810897827148438e+00,8.653613090515136719e+00,3.461338424682617188e+01,-1.126865539550781250e+02,9.051410675048828125e+01,-6.691304779052734375e+01,4.840027618408203125e+01,-1.482767677307128906e+01,-1.048397598266601562e+02,-1.186478195190429688e+02,6.393541336059570312e+01,-3.711455154418945312e+01
4.710299968719482422e-01,2.000000000000000000e+00,7.591431617736816406e+00,8.606701850891113281e+00,3.460669326782226562e+01,-1.127404937744140625e+02,9.051612854003906250e+01,-6.693678283691406250e+01,4.832793045043945312e+01,-1.481842994689941406e+01,-1.048550949096679688e+02,-1.187026748657226562e+02,6.393096923828125000e+01,-3.714553451538085938e+01
4.760789871215820312e-01,2.000000000000000000e+00,7.591431617736816406e+00,8.606701850891113281e+00,3.460669326782226562e+01,-1.127404937744140625e+02,9.051612854003906250e+01,-6.693678283691406250e+01,4.825487136840820312e+01,-1.480918216705322266e+01,-1.048704833984375000e+02,-1.187568969726562500e+02,6.392667007446289062e+01,-3.717420578002929688e+01
4.790289998054504395e-01,2.000000000000000000e+00,7.648759365081787109e+00,8.512878417968750000e+00,3.459366226196289062e+01,-1.128482055664062500e+02,9.052050018310546875e+01,-6.698533630371093750e+01,4.818175506591796875e+01,-1.479993534088134766e+01,-1.048856048583984375e+02,-1.188121948242187500e+02,6.392280578613281250e+01,-3.720419692993164062e+01
4.860840141773223877e-01,2.000000000000000000e+00,7.648759365081787109e+00,8.512878417968750000e+00,3.459366226196289062e+01,-1.128482055664062500e+02,9.052050018310546875e+01,-6.698533630371093750e+01,4.818175506591796875e+01,-1.479993534088134766e+01,-1.048856048583984375e+02,-1.188121948242187500e+02,6.392280578613281250e+01,-3.720419692993164062e+01
4.874829947948455811e-01,2.000000000000000000e+00,7.706488132476806641e+00,8.419281005859375000e+00,3.458042526245117188e+01,-1.129565124511718750e+02,9.052455902099609375e+01,-6.703477478027343750e+01,4.803821945190429688e+01,-1.478153324127197266e+01,-1.049162826538085938e+02,-1.189216308593750000e+02,6.391377639770507812e+01,-3.726802825927734375e+01
4.920420050621032715e-01,2.000000000000000000e+00,7.735424995422363281e+00,8.372255325317382812e+00,3.457385635375976562e+01,-1.130104446411132812e+02,9.052657318115234375e+01,-6.705953216552734375e+01,4.796582031250000000e+01,-1.477214908599853516e+01,-1.049313430786132812e+02,-1.189758987426757812e+02,6.390961456298828125e+01,-3.729802322387695312e+01
4.950270056724548340e-01,2.000000000000000000e+00,7.764103412628173828e+00,8.325275421142578125e+00,3.456715011596679688e+01,-1.130640716552734375e+02,9.052849578857421875e+01,-6.708353424072265625e+01,4.789248657226562500e+01,-1.476262760162353516e+01,-1.049463577270507812e+02,-1.190304718017578125e+02,6.390561294555664062e+01,-3.732867431640625000e+01
4.991759955883026123e-01,2.000000000000000000e+00,7.764103412628173828e+00,8.325275421142578125e+00,3.456715011596679688e+01,-1.130640716552734375e+02,9.052849578857421875e+01,-6.708353424072265625e+01,4.789248657226562500e+01,-1.476262760162353516e+01,-1.049463577270507812e+02,-1.190304718017578125e+02,6.390561294555664062e+01,-3.732867431640625000e+01
5.040779709815979004e-01,2.000000000000000000e+00,7.792895793914794922e+00,8.278250694274902344e+00,3.456044006347656250e+01,-1.131186447143554688e+02,9.053036499023437500e+01,-6.710747528076171875e+01,4.774774169921875000e+01,-1.474427127838134766e+01,-1.049768142700195312e+02,-1.191393356323242188e+02,6.389745330810546875e+01,-3.738920974731445312e+01
5.076869726181030273e-01,2.000000000000000000e+00,7.850625514984130859e+00,8.184631347656250000e+00,3.454720306396484375e+01,-1.132265167236328125e+02,9.053452301025390625e+01,-6.715556335449218750e+01,4.767621994018554688e+01,-1.473497867584228516e+01,-1.049918823242187500e+02,-1.191941909790039062e+02,6.389315414428710938e+01,-3.741854476928710938e+01
5.110599994659423828e-01,2.000000000000000000e+00,7.879389286041259766e+00,8.137968063354492188e+00,3.454088211059570312e+01,-1.132810287475585938e+02,9.053655242919921875e+01,-6.718010711669921875e+01,4.760376739501953125e+01,-1.472559452056884766e+01,-1.050071029663085938e+02,-1.192488327026367188e+02,6.388922119140625000e+01,-3.744996643066406250e+01
5.151360034942626953e-01,2.000000000000000000e+00,7.879389286041259766e+00,8.137968063354492188e+00,3.454088211059570312e+01,-1.132810287475585938e+02,9.053655242919921875e+01,-6.718010711669921875e+01,4.760376739501953125e+01,-1.472559452056884766e+01,-1.050071029663085938e+02,-1.192488327026367188e+02,6.388922119140625000e+01,-3.744996643066406250e+01
5.190780162811279297e-01,2.000000000000000000e+00,7.908268928527832031e+00,8.091147422790527344e+00,3.453445434570312500e+01,-1.133348159790039062e+02,9.053846740722656250e+01,-6.720506286621093750e+01,4.753032302856445312e+01,-1.471616554260253906e+01,-1.050224456787109375e+02,-1.193037796020507812e+02,6.388499450683593750e+01,-3.748204421997070312e+01
5.259619951248168945e-01,2.000000000000000000e+00,7.936802864074707031e+00,8.044439315795898438e+00,3.452780914306640625e+01,-1.133888626098632812e+02,9.054033660888671875e+01,-6.723009490966796875e+01,4.745759201049804688e+01,-1.470678043365478516e+01,-1.050378341674804688e+02,-1.193587036132812500e+02,6.388047027587890625e+01,-3.751214599609375000e+01
5.280860066413879395e-01,2.000000000000000000e+00,7.994302749633789062e+00,7.950796127319335938e+00,3.451455307006835938e+01,-1.134969940185546875e+02,9.054422760009765625e+01,-6.727803039550781250e+01,4.731410980224609375e+01,-1.468842411041259766e+01,-1.050679168701171875e+02,-1.194676971435546875e+02,6.387231826782226562e+01,-3.757257080078125000e+01
5.320299863815307617e-01,2.000000000000000000e+00,8.023010253906250000e+00,7.904359340667724609e+00,3.450790405273437500e+01,-1.135513000488281250e+02,9.054620361328125000e+01,-6.730163574218750000e+01,4.724138259887695312e+01,-1.467903995513916016e+01,-1.050830383300781250e+02,-1.195222091674804688e+02,6.386765289306640625e+01,-3.760443115234375000e+01
5.350400209426879883e-01,2.000000000000000000e+00,8.051687240600585938e+00,7.857605934143066406e+00,3.450117111206054688e+01,-1.136049804687500000e+02,9.054806518554687500e+01,-6.732598114013671875e+01,4.716793823242187500e+01,-1.466947364807128906e+01,-1.050982055664062500e+02,-1.195761337280273438e+02,6.386357498168945312e+01,-3.763464355468750000e+01
5.390740036964416504e-01,2.000000000000000000e+00,8.051687240600585938e+00,7.857605934143066406e+00,3.450117111206054688e+01,-1.136049804687500000e+02,9.054806518554687500e+01,-6.732598114013671875e+01,4.716793823242187500e+01,-1.466947364807128906e+01,-1.050982055664062500e+02,-1.195761337280273438e+02,6.386357498168945312e+01,-3.763464355468750000e+01
5.431450009346008301e-01,2.000000000000000000e+00,8.080251693725585938e+00,7.811078548431396484e+00,3.449456787109375000e+01,-1.136583938598632812e+02,9.055014801025390625e+01,-6.735012817382812500e+01,4.709521102905273438e+01,-1.465999698638916016e+01,-1.051136550903320312e+02,-1.196308441162109375e+02,6.385934448242187500e+01,-3.766375732421875000e+01
5.471490025520324707e-01,2.000000000000000000e+00,8.108814239501953125e+00,7.764438629150390625e+00,3.448804092407226562e+01,-1.137129592895507812e+02,9.055211639404296875e+01,-6.737467193603515625e+01,4.702308273315429688e+01,-1.465088748931884766e+01,-1.051287689208984375e+02,-1.196854858398437500e+02,6.385533523559570312e+01,-3.769386291503906250e+01
5.511869788169860840e-01,2.000000000000000000e+00,8.137463569641113281e+00,7.717639923095703125e+00,3.448157119750976562e+01,-1.137666931152343750e+02,9.055398559570312500e+01,-6.739949798583984375e+01,4.695128631591796875e+01,-1.464191627502441406e+01,-1.051440582275390625e+02,-1.197405014038085938e+02,6.385110855102539062e+01,-3.772583007812500000e+01
5.551109910011291504e-01,2.000000000000000000e+00,8.166486740112304688e+00,7.671157836914062500e+00,3.447504425048828125e+01,-1.138205718994140625e+02,9.055590820312500000e+01,-6.742438507080078125e+01,4.687888717651367188e+01,-1.463280582427978516e+01,-1.051594467163085938e+02,-1.197950744628906250e+02,6.384681320190429688e+01,-3.775659179687500000e+01
5.591530203819274902e-01,2.000000000000000000e+00,8.195221900939941406e+00,7.624540328979492188e+00,3.446843719482421875e+01,-1.138747711181640625e+02,9.055782318115234375e+01,-6.744873046875000000e+01,4.680566406250000000e+01,-1.462360572814941406e+01,-1.051743469238281250e+02,-1.198491363525390625e+02,6.384244155883789062e+01,-3.778603363037109375e+01
5.630990266799926758e-01,2.000000000000000000e+00,8.223871231079101562e+00,7.577673912048339844e+00,3.446189117431640625e+01,-1.139281387329101562e+02,9.055979156494140625e+01,-6.747232818603515625e+01,4.673265838623046875e+01,-1.461431312561035156e+01,-1.051896896362304688e+02,-1.199044342041015625e+02,6.383828735351562500e+01,-3.781767654418945312e+01
5.671349763870239258e-01,2.000000000000000000e+00,8.252607345581054688e+00,7.531101703643798828e+00,3.445536422729492188e+01,-1.139824447631835938e+02,9.056166076660156250e+01,-6.749586486816406250e+01,4.666053771972656250e+01,-1.460524940490722656e+01,-1.052052993774414062e+02,-1.199592971801757812e+02,6.383457183837890625e+01,-3.784975814819335938e+01
5.710999965667724609e-01,2.000000000000000000e+00,8.281112670898437500e+00,7.484393119812011719e+00,3.444865798950195312e+01,-1.140370101928710938e+02,9.056352996826171875e+01,-6.752007293701171875e+01,4.658885192871093750e+01,-1.459623050689697266e+01,-1.052205810546875000e+02,-1.200127105712890625e+02,6.383034515380859375e+01,-3.788029861450195312e+01
5.762699842453002930e-01,2.000000000000000000e+00,8.309877395629882812e+00,7.437685012817382812e+00,3.444211196899414062e+01,-1.140905303955078125e+02,9.056576538085937500e+01,-6.754441833496093750e+01,4.651650619506835938e+01,-1.458707618713378906e+01,-1.052354812622070312e+02,-1.200669250488281250e+02,6.382589721679687500e+01,-3.790908432006835938e+01
5.803949832916259766e-01,2.000000000000000000e+00,8.367434501647949219e+00,7.344382286071777344e+00,3.442934036254882812e+01,-1.141986160278320312e+02,9.056944274902343750e+01,-6.759386444091796875e+01,4.637060546875000000e+01,-1.456871986389160156e+01,-1.052663726806640625e+02,-1.201771545410156250e+02,6.381774520874023438e+01,-3.796884918212890625e+01
5.840439796447753906e-01,2.000000000000000000e+00,8.395911216735839844e+00,7.297809600830078125e+00,3.442293548583984375e+01,-1.142525024414062500e+02,9.057141876220703125e+01,-6.761827087402343750e+01,4.629886627197265625e+01,-1.455956459045410156e+01,-1.052818756103515625e+02,-1.202317962646484375e+02,6.381365966796875000e+01,-3.799917221069335938e+01
5.870310068130493164e-01,2.000000000000000000e+00,8.424675941467285156e+00,7.251056194305419922e+00,3.441626739501953125e+01,-1.143069152832031250e+02,9.057328033447265625e+01,-6.764214324951171875e+01,4.622750854492187500e+01,-1.455054664611816406e+01,-1.052971572875976562e+02,-1.202863693237304688e+02,6.380907058715820312e+01,-3.802916336059570312e+01
5.911650061607360840e-01,2.000000000000000000e+00,8.424675941467285156e+00,7.251056194305419922e+00,3.441626739501953125e+01,-1.143069152832031250e+02,9.057328033447265625e+01,-6.764214324951171875e+01,4.622750854492187500e+01,-1.455054664611816406e+01,-1.052971572875976562e+02,-1.202863693237304688e+02,6.380907058715820312e+01,-3.802916336059570312e+01
5.950750112533569336e-01,2.000000000000000000e+00,8.453325271606445312e+00,7.204280376434326172e+00,3.440964126586914062e+01,-1.143606414794921875e+02,9.057530975341796875e+01,-6.766547393798828125e+01,4.615522003173828125e+01,-1.454161930084228516e+01,-1.053121643066406250e+02,-1.203406524658203125e+02,6.380499267578125000e+01,-3.806025314331054688e+01
5.991259813308715820e-01,2.000000000000000000e+00,8.482030868530273438e+00,7.157436370849609375e+00,3.440305328369140625e+01,-1.144147415161132812e+02,9.057723236083984375e+01,-6.768941497802734375e+01,4.608232498168945312e+01,-1.453260231018066406e+01,-1.053274536132812500e+02,-1.203957290649414062e+02,6.380112457275390625e+01,-3.809101486206054688e+01
6.040560007095336914e-01,2.000000000000000000e+00,8.539444923400878906e+00,7.064110279083251953e+00,3.438969039916992188e+01,-1.145220870971679688e+02,9.058128356933593750e+01,-6.773763275146484375e+01,4.593780136108398438e+01,-1.451424598693847656e+01,-1.053582382202148438e+02,-1.205040054321289062e+02,6.379281997680664062e+01,-3.815066909790039062e+01
6.080399751663208008e-01,2.000000000000000000e+00,8.539444923400878906e+00,7.064110279083251953e+00,3.438969039916992188e+01,-1.145220870971679688e+02,9.058128356933593750e+01,-6.773763275146484375e+01,4.593780136108398438e+01,-1.451424598693847656e+01,-1.053582382202148438e+02,-1.205040054321289062e+02,6.379281997680664062e+01,-3.815066909790039062e+01
6.120340228080749512e-01,2.000000000000000000e+00,8.568008422851562500e+00,7.017425060272216797e+00,3.438298416137695312e+01,-1.145761871337890625e+02,9.058309936523437500e+01,-6.776238250732421875e+01,4.586627960205078125e+01,-1.450508975982666016e+01,-1.053735198974609375e+02,-1.205590820312500000e+02,6.378860092163085938e+01,-3.818165206909179688e+01
6.161209940910339355e-01,2.000000000000000000e+00,8.596744537353515625e+00,6.970762252807617188e+00,3.437649917602539062e+01,-1.146302719116210938e+02,9.058506011962890625e+01,-6.778720092773437500e+01,4.579382324218750000e+01,-1.449630165100097656e+01,-1.053888549804687500e+02,-1.206140899658203125e+02,6.378451538085937500e+01,-3.821274185180664062e+01
6.200429797172546387e-01,2.000000000000000000e+00,8.625422477722167969e+00,6.924054145812988281e+00,3.436996841430664062e+01,-1.146844253540039062e+02,9.058703613281250000e+01,-6.781169128417968750e+01,4.572071075439453125e+01,-1.448723793029785156e+01,-1.054040298461914062e+02,-1.206688003540039062e+02,6.378036117553710938e+01,-3.824361801147460938e+01
6.230739951133728027e-01,2.000000000000000000e+00,8.654329299926757812e+00,6.877277851104736328e+00,3.436344528198242188e+01,-1.147381057739257812e+02,9.058906555175781250e+01,-6.783515167236328125e+01,4.564814758300781250e+01,-1.447780704498291016e+01,-1.054192047119140625e+02,-1.207238159179687500e+02,6.377613449096679688e+01,-3.827404785156250000e+01
6.319910287857055664e-01,2.000000000000000000e+00,8.683123588562011719e+00,6.830592155456542969e+00,3.435671615600585938e+01,-1.147913055419921875e+02,9.059114074707031250e+01,-6.785881805419921875e+01,4.557667922973632812e+01,-1.446805667877197266e+01,-1.054344863891601562e+02,-1.207783050537109375e+02,6.377183914184570312e+01,-3.830546951293945312e+01
6.332989931106567383e-01,2.000000000000000000e+00,8.740364074707031250e+00,6.737221240997314453e+00,3.434352111816406250e+01,-1.149000778198242188e+02,9.059535980224609375e+01,-6.790670013427734375e+01,4.543292236328125000e+01,-1.444961071014404297e+01,-1.054647293090820312e+02,-1.208875350952148438e+02,6.376389312744140625e+01,-3.836622619628906250e+01
6.358510255813598633e-01,2.000000000000000000e+00,8.769042968750000000e+00,6.690739631652832031e+00,3.433695220947265625e+01,-1.149539184570312500e+02,9.059743499755859375e+01,-6.793124389648437500e+01,4.535980987548828125e+01,-1.444045448303222656e+01,-1.054794082641601562e+02,-1.209414520263671875e+02,6.375966644287109375e+01,-3.839643478393554688e+01
6.401379704475402832e-01,2.000000000000000000e+00,8.769042968750000000e+00,6.690739631652832031e+00,3.433695220947265625e+01,-1.149539184570312500e+02,9.059743499755859375e+01,-6.793124389648437500e+01,4.535980987548828125e+01,-1.444045448303222656e+01,-1.054794082641601562e+02,-1.209414520263671875e+02,6.375966644287109375e+01,-3.839643478393554688e+01
6.432269811630249023e-01,2.000000000000000000e+00,8.797692298889160156e+00,6.644008636474609375e+00,3.433036422729492188e+01,-1.150083236694335938e+02,9.059941101074218750e+01,-6.795600128173828125e+01,4.528685760498046875e+01,-1.443139076232910156e+01,-1.054943161010742188e+02,-1.209958877563476562e+02,6.375529479980468750e+01,-3.842752456665039062e+01
6.480839848518371582e-01,2.000000000000000000e+00,8.855076789855957031e+00,6.551067352294921875e+00,3.431767654418945312e+01,-1.151155166625976562e+02,9.060356903076171875e+01,-6.800449371337890625e+01,4.514354324340820312e+01,-1.441262149810791016e+01,-1.055251541137695312e+02,-1.211055221557617188e+02,6.374670410156250000e+01,-3.848861312866210938e+01
6.518239974975585938e-01,2.000000000000000000e+00,8.855076789855957031e+00,6.551067352294921875e+00,3.431767654418945312e+01,-1.151155166625976562e+02,9.060356903076171875e+01,-6.800449371337890625e+01,4.514354324340820312e+01,-1.441262149810791016e+01,-1.055251541137695312e+02,-1.211055221557617188e+02,6.374670410156250000e+01,-3.848861312866210938e+01
6.562550067901611328e-01,2.000000000000000000e+00,8.883697509765625000e+00,6.504359245300292969e+00,3.431121444702148438e+01,-1.151698150634765625e+02,9.060565185546875000e+01,-6.802795410156250000e+01,4.507108688354492188e+01,-1.440351295471191406e+01,-1.055403213500976562e+02,-1.211603851318359375e+02,6.374247360229492188e+01,-3.851860427856445312e+01
6.591939926147460938e-01,2.000000000000000000e+00,8.912289619445800781e+00,6.457651615142822266e+00,3.430460357666015625e+01,-1.152235412597656250e+02,9.060783386230468750e+01,-6.805168914794921875e+01,4.499791717529296875e+01,-1.439431095123291016e+01,-1.055551757812500000e+02,-1.212153244018554688e+02,6.373868560791015625e+01,-3.854980468750000000e+01
6.630780100822448730e-01,2.000000000000000000e+00,8.940967559814453125e+00,6.411260128021240234e+00,3.429809951782226562e+01,-1.152777481079101562e+02,9.060990905761718750e+01,-6.807569885253906250e+01,4.492508316040039062e+01,-1.438501930236816406e+01,-1.055703506469726562e+02,-1.212693939208984375e+02,6.373489379882812500e+01,-3.858001708984375000e+01
6.670989990234375000e-01,2.000000000000000000e+00,8.969760894775390625e+00,6.364551544189453125e+00,3.429138946533203125e+01,-1.153312683105468750e+02,9.061193847656250000e+01,-6.809990692138671875e+01,4.485350418090820312e+01,-1.437549781799316406e+01,-1.055855178833007812e+02,-1.213238830566406250e+02,6.373089218139648438e+01,-3.860924148559570312e+01
6.712660193443298340e-01,2.000000000000000000e+00,8.998380661010742188e+00,6.318205833435058594e+00,3.428482055664062500e+01,-1.153845748901367188e+02,9.061418151855468750e+01,-6.812432098388671875e+01,4.478236770629882812e+01,-1.436602210998535156e+01,-1.056009140014648438e+02,-1.213785400390625000e+02,6.372658920288085938e+01,-3.863824462890625000e+01
6.764100193977355957e-01,2.000000000000000000e+00,9.026886940002441406e+00,6.271588325500488281e+00,3.427815246582031250e+01,-1.154388351440429688e+02,9.061631011962890625e+01,-6.814927673339843750e+01,4.470991516113281250e+01,-1.435677433013916016e+01,-1.056158142089843750e+02,-1.214324569702148438e+02,6.372221755981445312e+01,-3.866955566406250000e+01
6.793450117111206055e-01,2.000000000000000000e+00,9.055564880371093750e+00,6.224812030792236328e+00,3.427150726318359375e+01,-1.154926147460937500e+02,9.061865234375000000e+01,-6.817389678955078125e+01,4.463657760620117188e+01,-1.434780311584472656e+01,-1.056310424804687500e+02,-1.214873199462890625e+02,6.371799468994140625e+01,-3.870130538940429688e+01
6.840450167655944824e-01,2.000000000000000000e+00,9.084242820739746094e+00,6.178194522857666016e+00,3.426507949829101562e+01,-1.155462875366210938e+02,9.062068176269531250e+01,-6.819763183593750000e+01,4.456379699707031250e+01,-1.433878517150878906e+01,-1.056462707519531250e+02,-1.215422592163085938e+02,6.371413040161132812e+01,-3.873140716552734375e+01
6.871669888496398926e-01,2.000000000000000000e+00,9.113036155700683594e+00,6.131599426269531250e+00,3.425869750976562500e+01,-1.156003799438476562e+02,9.062287139892578125e+01,-6.822123718261718750e+01,4.449243927001953125e+01,-1.432967567443847656e+01,-1.056614990234375000e+02,-1.215966873168945312e+02,6.370997619628906250e+01,-3.876096343994140625e+01
6.912840008735656738e-01,2.000000000000000000e+00,9.141656875610351562e+00,6.084800720214843750e+00,3.425214767456054688e+01,-1.156537399291992188e+02,9.062483978271484375e+01,-6.824536895751953125e+01,4.442086410522460938e+01,-1.432042789459228516e+01,-1.056772232055664062e+02,-1.216517639160156250e+02,6.370546340942382812e+01,-3.879161071777343750e+01
6.951599717140197754e-01,2.000000000000000000e+00,9.170306205749511719e+00,6.038341522216796875e+00,3.424546051025390625e+01,-1.157075729370117188e+02,9.062718200683593750e+01,-6.826951599121093750e+01,4.434818649291992188e+01,-1.431145572662353516e+01,-1.056925582885742188e+02,-1.217060470581054688e+02,6.370087051391601562e+01,-3.882259368896484375e+01
7.002580165863037109e-01,2.000000000000000000e+00,9.199013710021972656e+00,5.991678714752197266e+00,3.423897552490234375e+01,-1.157616653442382812e+02,9.062942504882812500e+01,-6.829373168945312500e+01,4.427529525756835938e+01,-1.430234718322753906e+01,-1.057076797485351562e+02,-1.217600479125976562e+02,6.369737625122070312e+01,-3.885269927978515625e+01
7.034469842910766602e-01,2.000000000000000000e+00,9.227719306945800781e+00,5.945015907287597656e+00,3.423234558105468750e+01,-1.158151855468750000e+02,9.063176727294921875e+01,-6.831841278076171875e+01,4.420294952392578125e+01,-1.429319095611572266e+01,-1.057229537963867188e+02,-1.218148269653320312e+02,6.369314575195312500e+01,-3.888203048706054688e+01
7.073519825935363770e-01,2.000000000000000000e+00,9.256340980529785156e+00,5.898466110229492188e+00,3.422569656372070312e+01,-1.158696517944335938e+02,9.063396453857421875e+01,-6.834323883056640625e+01,4.413159561157226562e+01,-1.428417396545410156e+01,-1.057381896972656250e+02,-1.218690414428710938e+02,6.368833923339843750e+01,-3.891224288940429688e+01
7.114059925079345703e-01,2.000000000000000000e+00,9.284903526306152344e+00,5.851758003234863281e+00,3.421915054321289062e+01,-1.159235305786132812e+02,9.063603973388671875e+01,-6.836791992187500000e+01,4.405985260009765625e+01,-1.427488136291503906e+01,-1.057535858154296875e+02,-1.219229736328125000e+02,6.368389129638671875e+01,-3.894322586059570312e+01
7.154880166053771973e-01,2.000000000000000000e+00,9.313409805297851562e+00,5.805321216583251953e+00,3.421274566650390625e+01,-1.159767913818359375e+02,9.063822174072265625e+01,-6.839118194580078125e+01,4.398756408691406250e+01,-1.426545143127441406e+01,-1.057690277099609375e+02,-1.219777526855468750e+02,6.367995834350585938e+01,-3.897398757934570312e+01
7.194060087203979492e-01,2.000000000000000000e+00,9.341973304748535156e+00,5.758749008178710938e+00,3.420642089843750000e+01,-1.160308837890625000e+02,9.064073181152343750e+01,-6.841464233398437500e+01,4.391455841064453125e+01,-1.425647926330566406e+01,-1.057842559814453125e+02,-1.220324096679687500e+02,6.367558670043945312e+01,-3.900397872924804688e+01
7.248089909553527832e-01,2.000000000000000000e+00,9.370795249938964844e+00,5.712040901184082031e+00,3.419995498657226562e+01,-1.160846633911132812e+02,9.064286041259765625e+01,-6.843913269042968750e+01,4.384221267700195312e+01,-1.424764442443847656e+01,-1.057995910644531250e+02,-1.220871200561523438e+02,6.367136001586914062e+01,-3.903485107421875000e+01
7.290580272674560547e-01,2.000000000000000000e+00,9.399444580078125000e+00,5.665490627288818359e+00,3.419328689575195312e+01,-1.161385955810546875e+02,9.064498901367187500e+01,-6.846300506591796875e+01,4.377096557617187500e+01,-1.423848915100097656e+01,-1.058150405883789062e+02,-1.221420440673828125e+02,6.366720581054687500e+01,-3.906649398803710938e+01
7.330350279808044434e-01,2.000000000000000000e+00,9.428236961364746094e+00,5.618896007537841797e+00,3.418675994873046875e+01,-1.161922683715820312e+02,9.064707183837890625e+01,-6.848768615722656250e+01,4.369933700561523438e+01,-1.422947025299072266e+01,-1.058298797607421875e+02,-1.221963348388671875e+02,6.366305160522460938e+01,-3.909747314453125000e+01
7.360370159149169922e-01,2.000000000000000000e+00,9.456914901733398438e+00,5.572300910949707031e+00,3.418017196655273438e+01,-1.162455291748046875e+02,9.064931488037109375e+01,-6.851230621337890625e+01,4.362699127197265625e+01,-1.422017860412597656e+01,-1.058450622558593750e+02,-1.222506179809570312e+02,6.365911865234375000e+01,-3.912713623046875000e+01
7.396199703216552734e-01,2.000000000000000000e+00,9.485391616821289062e+00,5.525705814361572266e+00,3.417348480224609375e+01,-1.162995147705078125e+02,9.065133666992187500e+01,-6.853712463378906250e+01,4.355409622192382812e+01,-1.421106815338134766e+01,-1.058605575561523438e+02,-1.223053436279296875e+02,6.365489196777343750e+01,-3.915745925903320312e+01
7.441369891166687012e-01,2.000000000000000000e+00,9.513956069946289062e+00,5.479269027709960938e+00,3.416685867309570312e+01,-1.163531875610351562e+02,9.065363311767578125e+01,-6.856099700927734375e+01,4.348180770874023438e+01,-1.420205116271972656e+01,-1.058755111694335938e+02,-1.223594818115234375e+02,6.365059661865234375e+01,-3.918756103515625000e+01
7.487189769744873047e-01,2.000000000000000000e+00,9.542719841003417969e+00,5.432742118835449219e+00,3.416027069091796875e+01,-1.164070816040039062e+02,9.065554809570312500e+01,-6.858438873291015625e+01,4.341012191772460938e+01,-1.419294071197509766e+01,-1.058910217285156250e+02,-1.224138336181640625e+02,6.364658737182617188e+01,-3.921755218505859375e+01
7.520790100097656250e-01,2.000000000000000000e+00,9.571369171142578125e+00,5.386169910430908203e+00,3.415386581420898438e+01,-1.164608078002929688e+02,9.065768432617187500e+01,-6.860806274414062500e+01,4.333876419067382812e+01,-1.418373966217041016e+01,-1.059059219360351562e+02,-1.224685592651367188e+02,6.364250946044921875e+01,-3.924743652343750000e+01
7.555299997329711914e-01,2.000000000000000000e+00,9.600219726562500000e+00,5.339597225189208984e+00,3.414741897583007812e+01,-1.165140151977539062e+02,9.065981292724609375e+01,-6.863200378417968750e+01,4.326630783081054688e+01,-1.417444801330566406e+01,-1.059212036132812500e+02,-1.225225601196289062e+02,6.363842391967773438e+01,-3.927896881103515625e+01
7.601879835128784180e-01,2.000000000000000000e+00,9.628869056701660156e+00,5.292889595031738281e+00,3.414083099365234375e+01,-1.165681610107421875e+02,9.066184234619140625e+01,-6.865641021728515625e+01,4.319352722167968750e+01,-1.416506385803222656e+01,-1.059363250732421875e+02,-1.225772705078125000e+02,6.363426971435546875e+01,-3.930973052978515625e+01
7.638549804687500000e-01,2.000000000000000000e+00,9.657374382019042969e+00,5.246385097503662109e+00,3.413426208496093750e+01,-1.166220932006835938e+02,9.066413879394531250e+01,-6.868062591552734375e+01,4.312096023559570312e+01,-1.415577125549316406e+01,-1.059512786865234375e+02,-1.226317749023437500e+02,6.362989807128906250e+01,-3.933884429931640625e+01
7.680829763412475586e-01,2.000000000000000000e+00,9.685909271240234375e+00,5.200038433074951172e+00,3.412769699096679688e+01,-1.166756668090820312e+02,9.066600036621093750e+01,-6.870537567138671875e+01,4.304938507080078125e+01,-1.414657020568847656e+01,-1.059665603637695312e+02,-1.226857681274414062e+02,6.362552642822265625e+01,-3.936927413940429688e+01
7.731660008430480957e-01,2.000000000000000000e+00,9.714558601379394531e+00,5.153421401977539062e+00,3.412111282348632812e+01,-1.167299118041992188e+02,9.066807556152343750e+01,-6.873006439208984375e+01,4.297786331176757812e+01,-1.413755130767822266e+01,-1.059815750122070312e+02,-1.227404785156250000e+02,6.362145233154296875e+01,-3.940003585815429688e+01
7.760949730873107910e-01,2.000000000000000000e+00,9.743236541748046875e+00,5.107075214385986328e+00,3.411456298828125000e+01,-1.167833786010742188e+02,9.066989135742187500e+01,-6.875386810302734375e+01,4.290551757812500000e+01,-1.412835025787353516e+01,-1.059966964721679688e+02,-1.227948379516601562e+02,6.361671829223632812e+01,-3.942992019653320312e+01
7.800229787826538086e-01,2.000000000000000000e+00,9.771800041198730469e+00,5.060615539550781250e+00,3.410795593261718750e+01,-1.168371658325195312e+02,9.067191314697265625e+01,-6.877706146240234375e+01,4.283284378051757812e+01,-1.411896705627441406e+01,-1.060123062133789062e+02,-1.228482589721679688e+02,6.361227035522460938e+01,-3.946035385131835938e+01
7.839429974555969238e-01,2.000000000000000000e+00,9.800334930419921875e+00,5.013975620269775391e+00,3.410161209106445312e+01,-1.168914794921875000e+02,9.067400360107421875e+01,-6.880072784423828125e+01,4.276022720336914062e+01,-1.410962867736816406e+01,-1.060278549194335938e+02,-1.229027023315429688e+02,6.360811996459960938e+01,-3.949056243896484375e+01
7.881540060043334961e-01,2.000000000000000000e+00,9.828927040100097656e+00,4.967448711395263672e+00,3.409532928466796875e+01,-1.169449310302734375e+02,9.067597198486328125e+01,-6.882480621337890625e+01,4.268875885009765625e+01,-1.410047340393066406e+01,-1.060432510375976562e+02,-1.229576950073242188e+02,6.360388946533203125e+01,-3.952198410034179688e+01
7.920939922332763672e-01,2.000000000000000000e+00,9.857518196105957031e+00,4.921102046966552734e+00,3.408896636962890625e+01,-1.169988174438476562e+02,9.067799377441406250e+01,-6.884908294677734375e+01,4.261740112304687500e+01,-1.409136390686035156e+01,-1.060581512451171875e+02,-1.230119781494140625e+02,6.359966278076171875e+01,-3.955241775512695312e+01
7.970510125160217285e-01,2.000000000000000000e+00,9.886254310607910156e+00,4.874530315399169922e+00,3.408235931396484375e+01,-1.170523986816406250e+02,9.067991638183593750e+01,-6.887349700927734375e+01,4.254511260986328125e+01,-1.408225345611572266e+01,-1.060731582641601562e+02,-1.230664062500000000e+02,6.359522247314453125e+01,-3.958076095581054688e+01
8.003879785537719727e-01,2.000000000000000000e+00,9.914903640747070312e+00,4.828093528747558594e+00,3.407579040527343750e+01,-1.171055374145507812e+02,9.068189239501953125e+01,-6.889831542968750000e+01,4.247243881225585938e+01,-1.407291603088378906e+01,-1.060881195068359375e+02,-1.231211242675781250e+02,6.359085083007812500e+01,-3.960998535156250000e+01
8.040590286254882812e-01,2.000000000000000000e+00,9.943381309509277344e+00,4.781589031219482422e+00,3.406920242309570312e+01,-1.171600494384765625e+02,9.068397521972656250e+01,-6.892279815673828125e+01,4.239987182617187500e+01,-1.406353092193603516e+01,-1.061035690307617188e+02,-1.231751251220703125e+02,6.358691024780273438e+01,-3.964173507690429688e+01
8.083940148353576660e-01,2.000000000000000000e+00,9.971886634826660156e+00,4.734858036041259766e+00,3.406257247924804688e+01,-1.172134094238281250e+02,9.068583679199218750e+01,-6.894612884521484375e+01,4.232851791381835938e+01,-1.405428504943847656e+01,-1.061191177368164062e+02,-1.232293319702148438e+02,6.358283233642578125e+01,-3.967337799072265625e+01
8.123099803924560547e-01,2.000000000000000000e+00,1.000033569335937500e+01,4.688444137573242188e+00,3.405590820312500000e+01,-1.172667694091796875e+02,9.068781280517578125e+01,-6.896986389160156250e+01,4.225677490234375000e+01,-1.404535865783691406e+01,-1.061341857910156250e+02,-1.232835464477539062e+02,6.357904052734375000e+01,-3.970325851440429688e+01
8.161270022392272949e-01,2.000000000000000000e+00,1.002895545959472656e+01,4.641871929168701172e+00,3.404933929443359375e+01,-1.173207702636718750e+02,9.068978118896484375e+01,-6.899353027343750000e+01,4.218448638916015625e+01,-1.403643131256103516e+01,-1.061494140625000000e+02,-1.233373336791992188e+02,6.357482147216796875e+01,-3.973259353637695312e+01
8.217689990997314453e-01,2.000000000000000000e+00,1.005777740478515625e+01,4.595366954803466797e+00,3.404285049438476562e+01,-1.173743820190429688e+02,9.069159698486328125e+01,-6.901767730712890625e+01,4.211175537109375000e+01,-1.402746009826660156e+01,-1.061649703979492188e+02,-1.233919067382812500e+02,6.357081222534179688e+01,-3.976423645019531250e+01
8.250359892845153809e-01,2.000000000000000000e+00,1.008642673492431641e+01,4.548817634582519531e+00,3.403640747070312500e+01,-1.174284210205078125e+02,9.069361877441406250e+01,-6.904201507568359375e+01,4.196811294555664062e+01,-1.400919532775878906e+01,-1.061959686279296875e+02,-1.235008316040039062e+02,6.356243133544921875e+01,-3.982399749755859375e+01
8.280419707298278809e-01,2.000000000000000000e+00,1.011476039886474609e+01,4.502313137054443359e+00,3.402986145019531250e+01,-1.174823150634765625e+02,9.069553375244140625e+01,-6.906677246093750000e+01,4.196811294555664062e+01,-1.400919532775878906e+01,-1.061959686279296875e+02,-1.235008316040039062e+02,6.356243133544921875e+01,-3.982399749755859375e+01
8.335220217704772949e-01,2.000000000000000000e+00,1.014329528808593750e+01,4.455695152282714844e+00,3.402325057983398438e+01,-1.175356140136718750e+02,9.069734954833984375e+01,-6.909111785888671875e+01,4.189708328247070312e+01,-1.400017738342285156e+01,-1.062109222412109375e+02,-1.235556945800781250e+02,6.355805969238281250e+01,-3.985300445556640625e+01
8.350120186805725098e-01,2.000000000000000000e+00,1.017174339294433594e+01,4.409191131591796875e+00,3.401670455932617188e+01,-1.175900802612304688e+02,9.069937133789062500e+01,-6.911519622802734375e+01,4.182473754882812500e+01,-1.399134254455566406e+01,-1.062260437011718750e+02,-1.236095581054687500e+02,6.355398178100585938e+01,-3.988508605957031250e+01
8.400560021400451660e-01,2.000000000000000000e+00,1.020042133331298828e+01,4.362776756286621094e+00,3.401013946533203125e+01,-1.176435470581054688e+02,9.070140075683593750e+01,-6.913851928710937500e+01,4.175184249877929688e+01,-1.398214149475097656e+01,-1.062411727905273438e+02,-1.236636199951171875e+02,6.354989624023437500e+01,-3.991661453247070312e+01
8.430389761924743652e-01,2.000000000000000000e+00,1.022904300689697266e+01,4.316385269165039062e+00,3.400350952148437500e+01,-1.176970138549804688e+02,9.070316314697265625e+01,-6.916239166259765625e+01,4.167938995361328125e+01,-1.397289466857910156e+01,-1.062565002441406250e+02,-1.237181930541992188e+02,6.354574584960937500e+01,-3.994594955444335938e+01
8.470240235328674316e-01,2.000000000000000000e+00,1.025757694244384766e+01,4.269926548004150391e+00,3.399692153930664062e+01,-1.177509994506835938e+02,9.070503234863281250e+01,-6.918653869628906250e+01,4.160797882080078125e+01,-1.396369361877441406e+01,-1.062719421386718750e+02,-1.237716903686523438e+02,6.354115676879882812e+01,-3.997506332397460938e+01
8.510810136795043945e-01,2.000000000000000000e+00,1.028599739074707031e+01,4.223422050476074219e+00,3.399055862426757812e+01,-1.178050003051757812e+02,9.070694732666015625e+01,-6.921047973632812500e+01,4.153662109375000000e+01,-1.395472145080566406e+01,-1.062873992919921875e+02,-1.238259048461914062e+02,6.353664016723632812e+01,-4.000681304931640625e+01
8.550130128860473633e-01,2.000000000000000000e+00,1.031464576721191406e+01,4.176849365234375000e+00,3.398425674438476562e+01,-1.178587265014648438e+02,9.070892333984375000e+01,-6.923468780517578125e+01,4.146405792236328125e+01,-1.394597816467285156e+01,-1.063025207519531250e+02,-1.238806152343750000e+02,6.353241348266601562e+01,-4.003702545166015625e+01
8.590170145034790039e-01,2.000000000000000000e+00,1.034332466125488281e+01,4.130367755889892578e+00,3.397785186767578125e+01,-1.179124526977539062e+02,9.071089935302734375e+01,-6.926005554199218750e+01,4.139126968383789062e+01,-1.393705177307128906e+01,-1.063174133300781250e+02,-1.239344024658203125e+02,6.352804183959960938e+01,-4.006591796875000000e+01
8.630290031433105469e-01,2.000000000000000000e+00,1.037217426300048828e+01,4.083727359771728516e+00,3.397128677368164062e+01,-1.179656448364257812e+02,9.071270751953125000e+01,-6.928487396240234375e+01,4.131887054443359375e+01,-1.392803287506103516e+01,-1.063326492309570312e+02,-1.239891891479492188e+02,6.352381134033203125e+01,-4.009624099731445312e+01
8.670750260353088379e-01,2.000000000000000000e+00,1.040070915222167969e+01,4.037381172180175781e+00,3.396471786499023438e+01,-1.180194244384765625e+02,9.071456909179687500e+01,-6.930826568603515625e+01,4.124779129028320312e+01,-1.391874027252197266e+01,-1.063478240966796875e+02,-1.240441207885742188e+02,6.351951599121093750e+01,-4.012733078002929688e+01
8.710610270500183105e-01,2.000000000000000000e+00,1.042918586730957031e+01,3.990967512130737305e+00,3.395804977416992188e+01,-1.180732650756835938e+02,9.071665191650390625e+01,-6.933234405517578125e+01,4.117665481567382812e+01,-1.390944862365722656e+01,-1.063631591796875000e+02,-1.240979843139648438e+02,6.351536560058593750e+01,-4.015765380859375000e+01
8.751159906387329102e-01,2.000000000000000000e+00,1.045763492584228516e+01,3.944485425949096680e+00,3.395152282714843750e+01,-1.181270446777343750e+02,9.071867370605468750e+01,-6.935594177246093750e+01,4.110419845581054688e+01,-1.390052223205566406e+01,-1.063782806396484375e+02,-1.241524047851562500e+02,6.351149749755859375e+01,-4.018731689453125000e+01
8.791790008544921875e-01,2.000000000000000000e+00,1.048619842529296875e+01,3.897845029830932617e+00,3.394493484497070312e+01,-1.181807174682617188e+02,9.072059631347656250e+01,-6.937995147705078125e+01,4.103141403198242188e+01,-1.389145851135253906e+01,-1.063935546875000000e+02,-1.242074127197265625e+02,6.350720214843750000e+01,-4.021796798706054688e+01
8.847330212593078613e-01,2.000000000000000000e+00,1.051479053497314453e+01,3.851295709609985352e+00,3.393834686279296875e+01,-1.182337036132812500e+02,9.072251129150390625e+01,-6.940470123291015625e+01,4.095885086059570312e+01,-1.388225746154785156e+01,-1.064088439941406250e+02,-1.242607574462890625e+02,6.350312423706054688e+01,-4.024960708618164062e+01
8.886709809303283691e-01,2.000000000000000000e+00,1.054346752166748047e+01,3.804700613021850586e+00,3.393181991577148438e+01,-1.182877044677734375e+02,9.072443389892578125e+01,-6.942938995361328125e+01,4.088766098022460938e+01,-1.387282752990722656e+01,-1.064239654541015625e+02,-1.243149108886718750e+02,6.349919128417968750e+01,-4.027949523925781250e+01
8.928970098495483398e-01,2.000000000000000000e+00,1.057203197479248047e+01,3.758309125900268555e+00,3.392551803588867188e+01,-1.183419113159179688e+02,9.072635650634765625e+01,-6.945401000976562500e+01,4.081624603271484375e+01,-1.386335086822509766e+01,-1.064391326904296875e+02,-1.243696212768554688e+02,6.349532318115234375e+01,-4.030871582031250000e+01
8.969119787216186523e-01,2.000000000000000000e+00,1.060045146942138672e+01,3.712008476257324219e+00,3.391907119750976562e+01,-1.183954696655273438e+02,9.072849273681640625e+01,-6.947828674316406250e+01,4.074406814575195312e+01,-1.385428714752197266e+01,-1.064543151855468750e+02,-1.244240417480468750e+02,6.349117279052734375e+01,-4.033947753906250000e+01
9.018700122833251953e-01,2.000000000000000000e+00,1.062881374359130859e+01,3.665458679199218750e+00,3.391244506835937500e+01,-1.184494171142578125e+02,9.073035430908203125e+01,-6.950182342529296875e+01,4.067111968994140625e+01,-1.384504127502441406e+01,-1.064693222045898438e+02,-1.244786148071289062e+02,6.348723602294921875e+01,-4.037068176269531250e+01
9.048209786415100098e-01,2.000000000000000000e+00,1.065734863281250000e+01,3.619044542312622070e+00,3.390589904785156250e+01,-1.185028686523437500e+02,9.073237609863281250e+01,-6.952562713623046875e+01,4.059910202026367188e+01,-1.383606910705566406e+01,-1.064841766357421875e+02,-1.245326995849609375e+02,6.348279190063476562e+01,-4.040077972412109375e+01
9.094240069389343262e-01,2.000000000000000000e+00,1.068591117858886719e+01,3.572766542434692383e+00,3.389923095703125000e+01,-1.185564956665039062e+02,9.073424530029296875e+01,-6.954976654052734375e+01,4.052807617187500000e+01,-1.382700538635253906e+01,-1.064992370605468750e+02,-1.245869827270507812e+02,6.347856903076171875e+01,-4.043055343627929688e+01
9.110090136528015137e-01,2.000000000000000000e+00,1.071450328826904297e+01,3.526216745376586914e+00,3.389268493652343750e+01,-1.186105957031250000e+02,9.073632812500000000e+01,-6.957390594482421875e+01,4.045666503906250000e+01,-1.381775760650634766e+01,-1.065144653320312500e+02,-1.246416244506835938e+02,6.347441864013671875e+01,-4.046164321899414062e+01
9.150949716567993164e-01,2.000000000000000000e+00,1.074283695220947266e+01,3.479780197143554688e+00,3.388613510131835938e+01,-1.186639480590820312e+02,9.073829650878906250e+01,-6.959812164306640625e+01,4.038442993164062500e+01,-1.380874061584472656e+01,-1.065300140380859375e+02,-1.246954040527343750e+02,6.347026443481445312e+01,-4.049416732788085938e+01
9.212350249290466309e-01,2.000000000000000000e+00,1.077137184143066406e+01,3.433388948440551758e+00,3.387977218627929688e+01,-1.187177352905273438e+02,9.074027252197265625e+01,-6.962321472167968750e+01,4.031153869628906250e+01,-1.379958534240722656e+01,-1.065451965332031250e+02,-1.247489013671875000e+02,6.346603775024414062e+01,-4.052437591552734375e+01
9.230250120162963867e-01,2.000000000000000000e+00,1.079990673065185547e+01,3.386861562728881836e+00,3.387351226806640625e+01,-1.187716217041015625e+02,9.074213409423828125e+01,-6.964789581298828125e+01,4.023962783813476562e+01,-1.379042911529541016e+01,-1.065603637695312500e+02,-1.248036117553710938e+02,6.346180725097656250e+01,-4.055348968505859375e+01
9.270120263099670410e-01,2.000000000000000000e+00,1.082849884033203125e+01,3.340538263320922852e+00,3.386698532104492188e+01,-1.188245010375976562e+02,9.074437713623046875e+01,-6.967190551757812500e+01,4.016849136352539062e+01,-1.378141212463378906e+01,-1.065755386352539062e+02,-1.248579788208007812e+02,6.345707702636718750e+01,-4.058447265625000000e+01
9.311119914054870605e-01,2.000000000000000000e+00,1.085691833496093750e+01,3.294214725494384766e+00,3.386037445068359375e+01,-1.188784484863281250e+02,9.074645233154296875e+01,-6.969515991210937500e+01,4.009680938720703125e+01,-1.377189064025878906e+01,-1.065905532836914062e+02,-1.249122619628906250e+02,6.345277404785156250e+01,-4.061611175537109375e+01
9.350150227546691895e-01,2.000000000000000000e+00,1.088545322418212891e+01,3.247642517089843750e+00,3.385385131835937500e+01,-1.189320602416992188e+02,9.074837493896484375e+01,-6.971903228759765625e+01,4.002462768554687500e+01,-1.376255226135253906e+01,-1.066056747436523438e+02,-1.249666824340820312e+02,6.344883728027343750e+01,-4.064577484130859375e+01
9.390149712562561035e-01,2.000000000000000000e+00,1.091381549835205078e+01,3.201251029968261719e+00,3.384730148315429688e+01,-1.189851608276367188e+02,9.075061035156250000e+01,-6.974276733398437500e+01,3.995217514038085938e+01,-1.375362586975097656e+01,-1.066207885742187500e+02,-1.250210418701171875e+02,6.344483566284179688e+01,-4.067412185668945312e+01
9.430199861526489258e-01,2.000000000000000000e+00,1.094211959838867188e+01,3.154791831970214844e+00,3.384077835083007812e+01,-1.190395736694335938e+02,9.075258636474609375e+01,-6.976705169677734375e+01,3.988004684448242188e+01,-1.374483680725097656e+01,-1.066360778808593750e+02,-1.250758972167968750e+02,6.344002151489257812e+01,-4.070521163940429688e+01
9.470450282096862793e-01,2.000000000000000000e+00,1.097074031829833984e+01,3.108264923095703125e+00,3.383408737182617188e+01,-1.190926666259765625e+02,9.075460815429687500e+01,-6.979159545898437500e+01,3.980847549438476562e+01,-1.373586368560791016e+01,-1.066512985229492188e+02,-1.251304702758789062e+02,6.343521118164062500e+01,-4.073597717285156250e+01
9.511749744415283203e-01,2.000000000000000000e+00,1.099918937683105469e+01,3.062009334564208984e+00,3.382754135131835938e+01,-1.191461334228515625e+02,9.075669097900390625e+01,-6.981622314453125000e+01,3.973733901977539062e+01,-1.372675514221191406e+01,-1.066664199829101562e+02,-1.251834640502929688e+02,6.343120956420898438e+01,-4.076486968994140625e+01
9.550970196723937988e-01,2.000000000000000000e+00,1.102755165100097656e+01,3.015617847442626953e+00,3.382113265991210938e+01,-1.192000656127929688e+02,9.075893402099609375e+01,-6.984062957763671875e+01,3.966510009765625000e+01,-1.371769142150878906e+01,-1.066818161010742188e+02,-1.252376098632812500e+02,6.342749404907226562e+01,-4.079442214965820312e+01
9.593110084533691406e-01,2.000000000000000000e+00,1.105602836608886719e+01,2.969181299209594727e+00,3.381473159790039062e+01,-1.192531127929687500e+02,9.076111602783203125e+01,-6.986436462402343750e+01,3.959236907958984375e+01,-1.370885658264160156e+01,-1.066970977783203125e+02,-1.252923202514648438e+02,6.342362976074218750e+01,-4.082661437988281250e+01
9.630680084228515625e-01,2.000000000000000000e+00,1.108459091186523438e+01,2.922790050506591797e+00,3.380814361572265625e+01,-1.193076248168945312e+02,9.076313781738281250e+01,-6.988783264160156250e+01,3.951985931396484375e+01,-1.369970035552978516e+01,-1.067124404907226562e+02,-1.253466110229492188e+02,6.341889572143554688e+01,-4.085715484619140625e+01
9.680569767951965332e-01,2.000000000000000000e+00,1.111301136016845703e+01,2.876421213150024414e+00,3.380161666870117188e+01,-1.193614654541015625e+02,9.076532745361328125e+01,-6.991136169433593750e+01,3.944855880737304688e+01,-1.369054603576660156e+01,-1.067274475097656250e+02,-1.254009628295898438e+02,6.341459274291992188e+01,-4.088747787475585938e+01
9.710320234298706055e-01,2.000000000000000000e+00,1.114157485961914062e+01,2.830165863037109375e+00,3.379510879516601562e+01,-1.194142303466796875e+02,9.076762390136718750e+01,-6.993544006347656250e+01,3.937726211547851562e+01,-1.368148231506347656e+01,-1.067426223754882812e+02,-1.254553298950195312e+02,6.341073226928710938e+01,-4.091769027709960938e+01
9.773460030555725098e-01,2.000000000000000000e+00,1.114157485961914062e+01,2.830165863037109375e+00,3.379510879516601562e+01,-1.194142303466796875e+02,9.076762390136718750e+01,-6.993544006347656250e+01,3.930529785156250000e+01,-1.367218971252441406e+01,-1.067578506469726562e+02,-1.255093307495117188e+02,6.340679931640625000e+01,-4.094789886474609375e+01
9.801080226898193359e-01,2.000000000000000000e+00,1.119870185852050781e+01,2.737382888793945312e+00,3.378210067749023438e+01,-1.195217971801757812e+02,9.077188873291015625e+01,-6.998419952392578125e+01,3.923257064819335938e+01,-1.366285133361816406e+01,-1.067730789184570312e+02,-1.255638885498046875e+02,6.340250396728515625e+01,-4.097822189331054688e+01
9.841830134391784668e-01,2.000000000000000000e+00,1.122723579406738281e+01,2.691014289855957031e+00,3.377551269531250000e+01,-1.195753707885742188e+02,9.077407836914062500e+01,-7.000895690917968750e+01,3.916022491455078125e+01,-1.365387916564941406e+01,-1.067887420654296875e+02,-1.256176834106445312e+02,6.339820098876953125e+01,-4.100744628906250000e+01
9.870839715003967285e-01,2.000000000000000000e+00,1.125582790374755859e+01,2.644736051559448242e+00,3.376912689208984375e+01,-1.196292648315429688e+02,9.077630615234375000e+01,-7.003289794921875000e+01,3.908892440795898438e+01,-1.364490604400634766e+01,-1.068037490844726562e+02,-1.256713180541992188e+02,6.339419555664062500e+01,-4.103733062744140625e+01
9.920250177383422852e-01,2.000000000000000000e+00,1.125582790374755859e+01,2.644736051559448242e+00,3.376912689208984375e+01,-1.196292648315429688e+02,9.077630615234375000e+01,-7.003289794921875000e+01,3.908892440795898438e+01,-1.364490604400634766e+01,-1.068037490844726562e+02,-1.256713180541992188e+02,6.339419555664062500e+01,-4.103733062744140625e+01
9.950079917907714844e-01,2.000000000000000000e+00,1.131298351287841797e+01,2.551862955093383789e+00,3.375637817382812500e+01,-1.197359237670898438e+02,9.078063201904296875e+01,-7.007995605468750000e+01,3.894565963745117188e+01,-1.362664127349853516e+01,-1.068339385986328125e+02,-1.257807464599609375e+02,6.338522720336914062e+01,-4.110028076171875000e+01
9.991449713706970215e-01,2.000000000000000000e+00,1.131298351287841797e+01,2.551862955093383789e+00,3.375637817382812500e+01,-1.197359237670898438e+02,9.078063201904296875e+01,-7.007995605468750000e+01,3.894565963745117188e+01,-1.362664127349853516e+01,-1.068339385986328125e+02,-1.257807464599609375e+02,6.338522720336914062e+01,-4.110028076171875000e+01
1.004060029983520508e+00,2.000000000000000000e+00,1.134154605865478516e+01,2.505539417266845703e+00,3.374988937377929688e+01,-1.197893905639648438e+02,9.078297424316406250e+01,-7.010363006591796875e+01,3.887293243408203125e+01,-1.361725807189941406e+01,-1.068488922119140625e+02,-1.258343963623046875e+02,6.338122558593750000e+01,-4.112939453125000000e+01
1.007009983062744141e+00,2.000000000000000000e+00,1.139835739135742188e+01,2.412734031677246094e+00,3.373681640625000000e+01,-1.198968429565429688e+02,9.078734588623046875e+01,-7.015204620361328125e+01,3.872956085205078125e+01,-1.359908485412597656e+01,-1.068794631958007812e+02,-1.259438247680664062e+02,6.337284469604492188e+01,-4.119102859497070312e+01
1.012007951736450195e+00,2.000000000000000000e+00,1.142683410644531250e+01,2.366320133209228516e+00,3.373020935058593750e+01,-1.199498825073242188e+02,9.078937530517578125e+01,-7.017680358886718750e+01,3.865820693969726562e+01,-1.358979225158691406e+01,-1.068943634033203125e+02,-1.259977416992187500e+02,6.336825561523437500e+01,-4.122179031372070312e+01
1.016016960144042969e+00,2.000000000000000000e+00,1.145545482635498047e+01,2.319702625274658203e+00,3.372352218627929688e+01,-1.200035552978515625e+02,9.079150390625000000e+01,-7.020134735107421875e+01,3.858607864379882812e+01,-1.358072853088378906e+01,-1.069092636108398438e+02,-1.260521774291992188e+02,6.336439132690429688e+01,-4.125090408325195312e+01
1.019021034240722656e+00,2.000000000000000000e+00,1.148407554626464844e+01,2.273356676101684570e+00,3.371699523925781250e+01,-1.200575027465820312e+02,9.079364013671875000e+01,-7.022494506835937500e+01,3.851329421997070312e+01,-1.357134437561035156e+01,-1.069244384765625000e+02,-1.261061019897460938e+02,6.336016845703125000e+01,-4.128045654296875000e+01
1.023136973381042480e+00,2.000000000000000000e+00,1.148407554626464844e+01,2.273356676101684570e+00,3.371699523925781250e+01,-1.200575027465820312e+02,9.079364013671875000e+01,-7.022494506835937500e+01,3.851329421997070312e+01,-1.357134437561035156e+01,-1.069244384765625000e+02,-1.261061019897460938e+02,6.336016845703125000e+01,-4.128045654296875000e+01
1.028120040893554688e+00,2.000000000000000000e+00,1.151243782043457031e+01,2.227123737335205078e+00,3.371059036254882812e+01,-1.201106948852539062e+02,9.079592895507812500e+01,-7.024834442138671875e+01,3.844133377075195312e+01,-1.356191444396972656e+01,-1.069397201538085938e+02,-1.261599578857421875e+02,6.335623550415039062e+01,-4.131110763549804688e+01
1.031008958816528320e+00,2.000000000000000000e+00,1.156922054290771484e+01,2.134295701980590820e+00,3.369766235351562500e+01,-1.202185134887695312e+02,9.080003356933593750e+01,-7.029567718505859375e+01,3.829895019531250000e+01,-1.354364967346191406e+01,-1.069694747924804688e+02,-1.262685317993164062e+02,6.334792709350585938e+01,-4.137065505981445312e+01
1.035294055938720703e+00,2.000000000000000000e+00,1.156922054290771484e+01,2.134295701980590820e+00,3.369766235351562500e+01,-1.202185134887695312e+02,9.080003356933593750e+01,-7.029567718505859375e+01,3.829895019531250000e+01,-1.354364967346191406e+01,-1.069694747924804688e+02,-1.262685317993164062e+02,6.334792709350585938e+01,-4.137065505981445312e+01
1.039067029953002930e+00,2.000000000000000000e+00,1.159766864776611328e+01,2.088108062744140625e+00,3.369107437133789062e+01,-1.202714080810546875e+02,9.080216979980468750e+01,-7.031982421875000000e+01,3.822698974609375000e+01,-1.353467750549316406e+01,-1.069845428466796875e+02,-1.263230285644531250e+02,6.334384536743164062e+01,-4.140130615234375000e+01
1.043133974075317383e+00,2.000000000000000000e+00,1.162628936767578125e+01,2.041467666625976562e+00,3.368444442749023438e+01,-1.203257064819335938e+02,9.080425262451171875e+01,-7.034430694580078125e+01,3.815436935424804688e+01,-1.352552127838134766e+01,-1.069997634887695312e+02,-1.263775329589843750e+02,6.334027099609375000e+01,-4.143251037597656250e+01
1.047065019607543945e+00,2.000000000000000000e+00,1.165473747253417969e+01,1.995098948478698730e+00,3.367783737182617188e+01,-1.203794326782226562e+02,9.080616760253906250e+01,-7.036933135986328125e+01,3.808208084106445312e+01,-1.351609134674072266e+01,-1.070151062011718750e+02,-1.264315948486328125e+02,6.333612060546875000e+01,-4.146315765380859375e+01
1.051061034202575684e+00,2.000000000000000000e+00,1.168312835693359375e+01,1.948911309242248535e+00,3.367131042480468750e+01,-1.204327926635742188e+02,9.080835723876953125e+01,-7.039374542236328125e+01,3.801077651977539062e+01,-1.350693702697753906e+01,-1.070304946899414062e+02,-1.264854583740234375e+02,6.333204269409179688e+01,-4.149293136596679688e+01
1.055119991302490234e+00,2.000000000000000000e+00,1.171146297454833984e+01,1.902474761009216309e+00,3.366482543945312500e+01,-1.204862594604492188e+02,9.081043243408203125e+01,-7.041748046875000000e+01,3.793958663940429688e+01,-1.349796390533447266e+01,-1.070455627441406250e+02,-1.265403213500976562e+02,6.332788848876953125e+01,-4.152138519287109375e+01
1.060189008712768555e+00,2.000000000000000000e+00,1.173988246917724609e+01,1.856106042861938477e+00,3.365845870971679688e+01,-1.205392456054687500e+02,9.081224822998046875e+01,-7.044135284423828125e+01,3.786746215820312500e+01,-1.348899173736572266e+01,-1.070607376098632812e+02,-1.265936660766601562e+02,6.332409667968750000e+01,-4.155060958862304688e+01
1.064111948013305664e+00,2.000000000000000000e+00,1.179697990417480469e+01,1.763300657272338867e+00,3.364575195312500000e+01,-1.206470718383789062e+02,9.081619262695312500e+01,-7.048902893066406250e+01,3.772238922119140625e+01,-1.347036170959472656e+01,-1.070904846191406250e+02,-1.267021713256835938e+02,6.331565093994140625e+01,-4.161081314086914062e+01
1.067008018493652344e+00,2.000000000000000000e+00,1.182528495788574219e+01,1.716954588890075684e+00,3.363920593261718750e+01,-1.207000732421875000e+02,9.081842803955078125e+01,-7.051344299316406250e+01,3.765125274658203125e+01,-1.346106815338134766e+01,-1.071058807373046875e+02,-1.267562332153320312e+02,6.331112670898437500e+01,-4.164070129394531250e+01
1.072059035301208496e+00,2.000000000000000000e+00,1.182528495788574219e+01,1.716954588890075684e+00,3.363920593261718750e+01,-1.207000732421875000e+02,9.081842803955078125e+01,-7.051344299316406250e+01,3.765125274658203125e+01,-1.346106815338134766e+01,-1.071058807373046875e+02,-1.267562332153320312e+02,6.331112670898437500e+01,-4.164070129394531250e+01
1.075011014938354492e+00,2.000000000000000000e+00,1.188186645507812500e+01,1.624081492424011230e+00,3.362617111206054688e+01,-1.208074188232421875e+02,9.082211303710937500e+01,-7.056253814697265625e+01,3.750848770141601562e+01,-1.344316959381103516e+01,-1.071362228393554688e+02,-1.268649444580078125e+02,6.330297088623046875e+01,-4.170123291015625000e+01
1.079136967658996582e+00,2.000000000000000000e+00,1.188186645507812500e+01,1.624081492424011230e+00,3.362617111206054688e+01,-1.208074188232421875e+02,9.082211303710937500e+01,-7.056253814697265625e+01,3.750848770141601562e+01,-1.344316959381103516e+01,-1.071362228393554688e+02,-1.268649444580078125e+02,6.330297088623046875e+01,-4.170123291015625000e+01
1.083052039146423340e+00,2.000000000000000000e+00,1.191048622131347656e+01,1.577712774276733398e+00,3.361962509155273438e+01,-1.208607711791992188e+02,9.082408905029296875e+01,-7.058715820312500000e+01,3.743564605712890625e+01,-1.343419742584228516e+01,-1.071510696411132812e+02,-1.269188079833984375e+02,6.329845046997070312e+01,-4.173166275024414062e+01
1.088049054145812988e+00,2.000000000000000000e+00,1.196755599975585938e+01,1.484952688217163086e+00,3.360644912719726562e+01,-1.209679641723632812e+02,9.082792663574218750e+01,-7.063394927978515625e+01,3.729227447509765625e+01,-1.341629886627197266e+01,-1.071820755004882812e+02,-1.270277404785156250e+02,6.329006958007812500e+01,-4.179275131225585938e+01
1.091032981872558594e+00,2.000000000000000000e+00,1.199597549438476562e+01,1.438606619834899902e+00,3.360004806518554688e+01,-1.210219116210937500e+02,9.082994842529296875e+01,-7.065809631347656250e+01,3.722113800048828125e+01,-1.340714454650878906e+01,-1.071974105834960938e+02,-1.270815200805664062e+02,6.328606796264648438e+01,-4.182395172119140625e+01
1.095409989356994629e+00,2.000000000000000000e+00,1.199597549438476562e+01,1.438606619834899902e+00,3.360004806518554688e+01,-1.210219116210937500e+02,9.082994842529296875e+01,-7.065809631347656250e+01,3.722113800048828125e+01,-1.340714454650878906e+01,-1.071974105834960938e+02,-1.270815200805664062e+02,6.328606796264648438e+01,-4.182395172119140625e+01
1.099221944808959961e+00,2.000000000000000000e+00,1.202439498901367188e+01,1.392237901687622070e+00,3.359366607666015625e+01,-1.210759506225585938e+02,9.083180999755859375e+01,-7.068210601806640625e+01,3.714868164062500000e+01,-1.339808082580566406e+01,-1.072126922607421875e+02,-1.271358718872070312e+02,6.328184127807617188e+01,-4.185504150390625000e+01
1.103060007095336914e+00,2.000000000000000000e+00,1.205287170410156250e+01,1.345959782600402832e+00,3.358719635009765625e+01,-1.211289978027343750e+02,9.083367919921875000e+01,-7.070631408691406250e+01,3.707628250122070312e+01,-1.338933658599853516e+01,-1.072274856567382812e+02,-1.271903076171875000e+02,6.327761077880859375e+01,-4.188525390625000000e+01
1.107123970985412598e+00,2.000000000000000000e+00,1.208160781860351562e+01,1.299681544303894043e+00,3.358062744140625000e+01,-1.211827239990234375e+02,9.083570098876953125e+01,-7.073133850097656250e+01,3.700415802001953125e+01,-1.338018226623535156e+01,-1.072426071166992188e+02,-1.272443771362304688e+02,6.327375411987304688e+01,-4.191535568237304688e+01
1.112025976181030273e+00,2.000000000000000000e+00,1.211028575897216797e+01,1.253267526626586914e+00,3.357410430908203125e+01,-1.212364501953125000e+02,9.083746337890625000e+01,-7.075568389892578125e+01,3.693329620361328125e+01,-1.337093448638916016e+01,-1.072578353881835938e+02,-1.272991714477539062e+02,6.326974487304687500e+01,-4.194513320922851562e+01
