rpiRobotics/ARM-21-02-F-19-Robot-Motion-Program/data_performance_abb/curve_2/dual_arm/diffevo_pose6/grad_result/real/run_3.csv
timestamp,cmd_num,J1,J2,J3,J4,J5,J6,J1_2,J2_2,J3_2,J4_2,J5_2,J6_2
7.849000394344329834e-03,-1.000000000000000000e+00,5.492848396301269531e+00,1.202481555938720703e+01,3.508050918579101562e+01,-1.087820434570312500e+02,9.036620330810546875e+01,-6.516059112548828125e+01,5.363646697998046875e+01,-1.548909854888916016e+01,-1.037324752807617188e+02,-1.146968383789062500e+02,6.423960876464843750e+01,-3.491080474853515625e+01
9.221999906003475189e-03,-1.000000000000000000e+00,5.492848396301269531e+00,1.202481555938720703e+01,3.508050918579101562e+01,-1.087820434570312500e+02,9.036620330810546875e+01,-6.516059112548828125e+01,5.363646697998046875e+01,-1.548909854888916016e+01,-1.037324752807617188e+02,-1.146968383789062500e+02,6.423960876464843750e+01,-3.491080474853515625e+01
1.358199957758188248e-02,-1.000000000000000000e+00,5.492848396301269531e+00,1.202481555938720703e+01,3.508054733276367188e+01,-1.087819824218750000e+02,9.036620330810546875e+01,-6.516045379638671875e+01,5.363646697998046875e+01,-1.548919105529785156e+01,-1.037324752807617188e+02,-1.146968383789062500e+02,6.423976135253906250e+01,-3.491080474853515625e+01
1.651499979197978973e-02,-1.000000000000000000e+00,5.492848396301269531e+00,1.202481555938720703e+01,3.508050918579101562e+01,-1.087818832397460938e+02,9.036631011962890625e+01,-6.516045379638671875e+01,5.363646697998046875e+01,-1.548909854888916016e+01,-1.037324752807617188e+02,-1.146968383789062500e+02,6.423976135253906250e+01,-3.491069030761718750e+01
1.776299998164176941e-02,-1.000000000000000000e+00,5.492848396301269531e+00,1.202481555938720703e+01,3.508050918579101562e+01,-1.087818832397460938e+02,9.036631011962890625e+01,-6.516045379638671875e+01,5.363646697998046875e+01,-1.548909854888916016e+01,-1.037324752807617188e+02,-1.146968383789062500e+02,6.423976135253906250e+01,-3.491069030761718750e+01
2.035499922931194305e-02,-1.000000000000000000e+00,5.492762088775634766e+00,1.202481555938720703e+01,3.508050918579101562e+01,-1.087818832397460938e+02,9.036620330810546875e+01,-6.516045379638671875e+01,5.363646697998046875e+01,-1.548909854888916016e+01,-1.037325286865234375e+02,-1.146968383789062500e+02,6.423960876464843750e+01,-3.491080474853515625e+01
2.406400069594383240e-02,-1.000000000000000000e+00,5.492848396301269531e+00,1.202481555938720703e+01,3.508050918579101562e+01,-1.087818832397460938e+02,9.036631011962890625e+01,-6.516045379638671875e+01,5.363646697998046875e+01,-1.548909854888916016e+01,-1.037324752807617188e+02,-1.146968383789062500e+02,6.423960876464843750e+01,-3.491080474853515625e+01
2.764200046658515930e-02,-1.000000000000000000e+00,5.492848396301269531e+00,1.202481555938720703e+01,3.508050918579101562e+01,-1.087818832397460938e+02,9.036631011962890625e+01,-6.516045379638671875e+01,5.363646697998046875e+01,-1.548909854888916016e+01,-1.037324752807617188e+02,-1.146968383789062500e+02,6.423960876464843750e+01,-3.491080474853515625e+01
3.195500001311302185e-02,-1.000000000000000000e+00,5.492848396301269531e+00,1.202481555938720703e+01,3.508050918579101562e+01,-1.087819824218750000e+02,9.036620330810546875e+01,-6.516059112548828125e+01,5.363657760620117188e+01,-1.548909854888916016e+01,-1.037324752807617188e+02,-1.146968383789062500e+02,6.423960876464843750e+01,-3.491080474853515625e+01
3.561900183558464050e-02,-1.000000000000000000e+00,5.492905616760253906e+00,1.202486038208007812e+01,3.508046722412109375e+01,-1.087819824218750000e+02,9.036620330810546875e+01,-6.516045379638671875e+01,5.363657760620117188e+01,-1.548909854888916016e+01,-1.037323684692382812e+02,-1.146968383789062500e+02,6.423976135253906250e+01,-3.491069030761718750e+01
4.068699851632118225e-02,-1.000000000000000000e+00,5.492905616760253906e+00,1.202486038208007812e+01,3.508050918579101562e+01,-1.087818832397460938e+02,9.036631011962890625e+01,-6.516045379638671875e+01,5.363646697998046875e+01,-1.548919105529785156e+01,-1.037324752807617188e+02,-1.146968383789062500e+02,6.423960876464843750e+01,-3.491080474853515625e+01
4.532400146126747131e-02,2.000000000000000000e+00,5.492762088775634766e+00,1.202476978302001953e+01,3.508050918579101562e+01,-1.087819824218750000e+02,9.036609649658203125e+01,-6.516045379638671875e+01,5.363646697998046875e+01,-1.548919105529785156e+01,-1.037324752807617188e+02,-1.146968383789062500e+02,6.423960876464843750e+01,-3.491080474853515625e+01
5.385399982333183289e-02,2.000000000000000000e+00,5.492762088775634766e+00,1.202481555938720703e+01,3.508050918579101562e+01,-1.087818832397460938e+02,9.036620330810546875e+01,-6.516045379638671875e+01,5.363657760620117188e+01,-1.548909854888916016e+01,-1.037324752807617188e+02,-1.146968383789062500e+02,6.423960876464843750e+01,-3.491069030761718750e+01
6.402400135993957520e-02,2.000000000000000000e+00,5.492762088775634766e+00,1.202486038208007812e+01,3.508050918579101562e+01,-1.087818832397460938e+02,9.036620330810546875e+01,-6.516045379638671875e+01,5.363646697998046875e+01,-1.548909854888916016e+01,-1.037324752807617188e+02,-1.146968383789062500e+02,6.423960876464843750e+01,-3.491080474853515625e+01
6.894999742507934570e-02,2.000000000000000000e+00,5.492762088775634766e+00,1.202486038208007812e+01,3.508050918579101562e+01,-1.087820434570312500e+02,9.036620330810546875e+01,-6.516045379638671875e+01,5.363646697998046875e+01,-1.548919105529785156e+01,-1.037324752807617188e+02,-1.146968383789062500e+02,6.423960876464843750e+01,-3.491080474853515625e+01
1.086580008268356323e-01,2.000000000000000000e+00,5.492848396301269531e+00,1.202481555938720703e+01,3.508050918579101562e+01,-1.087819824218750000e+02,9.036652374267578125e+01,-6.516045379638671875e+01,5.363657760620117188e+01,-1.548919105529785156e+01,-1.037324752807617188e+02,-1.146968383789062500e+02,6.423960876464843750e+01,-3.491080474853515625e+01
1.101030036807060242e-01,2.000000000000000000e+00,5.492848396301269531e+00,1.202481555938720703e+01,3.508050918579101562e+01,-1.087819824218750000e+02,9.036652374267578125e+01,-6.516045379638671875e+01,5.363657760620117188e+01,-1.548919105529785156e+01,-1.037324752807617188e+02,-1.146968383789062500e+02,6.423960876464843750e+01,-3.491080474853515625e+01
1.136149987578392029e-01,2.000000000000000000e+00,5.492848396301269531e+00,1.202481555938720703e+01,3.508050918579101562e+01,-1.087819824218750000e+02,9.036620330810546875e+01,-6.516045379638671875e+01,5.363646697998046875e+01,-1.548909854888916016e+01,-1.037324752807617188e+02,-1.146968383789062500e+02,6.423960876464843750e+01,-3.491080474853515625e+01
1.161089986562728882e-01,2.000000000000000000e+00,5.492848396301269531e+00,1.202481555938720703e+01,3.508050918579101562e+01,-1.087819824218750000e+02,9.036620330810546875e+01,-6.516045379638671875e+01,5.363646697998046875e+01,-1.548909854888916016e+01,-1.037324752807617188e+02,-1.146968383789062500e+02,6.423960876464843750e+01,-3.491080474853515625e+01
1.200940012931823730e-01,2.000000000000000000e+00,5.492991924285888672e+00,1.202476978302001953e+01,3.508050918579101562e+01,-1.087818298339843750e+02,9.036620330810546875e+01,-6.516045379638671875e+01,5.363646697998046875e+01,-1.548919105529785156e+01,-1.037324752807617188e+02,-1.146968383789062500e+02,6.423976135253906250e+01,-3.491069030761718750e+01
1.214289963245391846e-01,2.000000000000000000e+00,5.493135452270507812e+00,1.202449893951416016e+01,3.508050918579101562e+01,-1.087820434570312500e+02,9.036620330810546875e+01,-6.516045379638671875e+01,5.363646697998046875e+01,-1.548909854888916016e+01,-1.037325286865234375e+02,-1.146968383789062500e+02,6.423960876464843750e+01,-3.491069030761718750e+01
1.228210031986236572e-01,2.000000000000000000e+00,5.493135452270507812e+00,1.202449893951416016e+01,3.508050918579101562e+01,-1.087820434570312500e+02,9.036620330810546875e+01,-6.516045379638671875e+01,5.363646697998046875e+01,-1.548909854888916016e+01,-1.037325286865234375e+02,-1.146968383789062500e+02,6.423960876464843750e+01,-3.491069030761718750e+01
1.254040002822875977e-01,2.000000000000000000e+00,5.493881702423095703e+00,1.202386474609375000e+01,3.508046722412109375e+01,-1.087820434570312500e+02,9.036631011962890625e+01,-6.516045379638671875e+01,5.363646697998046875e+01,-1.548919105529785156e+01,-1.037324752807617188e+02,-1.146969757080078125e+02,6.423960876464843750e+01,-3.491080474853515625e+01
1.266579926013946533e-01,2.000000000000000000e+00,5.493881702423095703e+00,1.202386474609375000e+01,3.508046722412109375e+01,-1.087820434570312500e+02,9.036631011962890625e+01,-6.516045379638671875e+01,5.363646697998046875e+01,-1.548919105529785156e+01,-1.037324752807617188e+02,-1.146969757080078125e+02,6.423960876464843750e+01,-3.491080474853515625e+01
1.323889940977096558e-01,2.000000000000000000e+00,5.497240543365478516e+00,1.202080917358398438e+01,3.508054733276367188e+01,-1.087820434570312500e+02,9.036620330810546875e+01,-6.516045379638671875e+01,5.363504028320312500e+01,-1.548955821990966797e+01,-1.037300262451171875e+02,-1.146973495483398438e+02,6.423946380615234375e+01,-3.491113281250000000e+01
1.337119936943054199e-01,2.000000000000000000e+00,5.497240543365478516e+00,1.202080917358398438e+01,3.508054733276367188e+01,-1.087820434570312500e+02,9.036620330810546875e+01,-6.516045379638671875e+01,5.363504028320312500e+01,-1.548955821990966797e+01,-1.037300262451171875e+02,-1.146973495483398438e+02,6.423946380615234375e+01,-3.491113281250000000e+01
1.374180018901824951e-01,2.000000000000000000e+00,5.497240543365478516e+00,1.202080917358398438e+01,3.508054733276367188e+01,-1.087820434570312500e+02,9.036620330810546875e+01,-6.516045379638671875e+01,5.363504028320312500e+01,-1.548955821990966797e+01,-1.037300262451171875e+02,-1.146973495483398438e+02,6.423946380615234375e+01,-3.491113281250000000e+01
1.387570053339004517e-01,2.000000000000000000e+00,5.499967575073242188e+00,1.201784515380859375e+01,3.508050918579101562e+01,-1.087820434570312500e+02,9.036620330810546875e+01,-6.516059112548828125e+01,5.363267898559570312e+01,-1.549028873443603516e+01,-1.037277984619140625e+02,-1.146980590820312500e+02,6.423873901367187500e+01,-3.491124343872070312e+01
1.448740065097808838e-01,2.000000000000000000e+00,5.507402896881103516e+00,1.200825023651123047e+01,3.508046722412109375e+01,-1.087845687866210938e+02,9.036641693115234375e+01,-6.516092681884765625e+01,5.362421798706054688e+01,-1.549175357818603516e+01,-1.037251358032226562e+02,-1.146997070312500000e+02,6.423392486572265625e+01,-3.491486740112304688e+01
1.462070047855377197e-01,2.000000000000000000e+00,5.507402896881103516e+00,1.200825023651123047e+01,3.508046722412109375e+01,-1.087845687866210938e+02,9.036641693115234375e+01,-6.516092681884765625e+01,5.362421798706054688e+01,-1.549175357818603516e+01,-1.037251358032226562e+02,-1.146997070312500000e+02,6.423392486572265625e+01,-3.491486740112304688e+01
1.488859951496124268e-01,2.000000000000000000e+00,5.512167930603027344e+00,1.200134754180908203e+01,3.508040618896484375e+01,-1.087876205444335938e+02,9.036631011962890625e+01,-6.516181182861328125e+01,5.361779022216796875e+01,-1.549175357818603516e+01,-1.037240447998046875e+02,-1.147013626098632812e+02,6.422926330566406250e+01,-3.491662597656250000e+01
1.501819938421249390e-01,2.000000000000000000e+00,5.512167930603027344e+00,1.200134754180908203e+01,3.508040618896484375e+01,-1.087876205444335938e+02,9.036631011962890625e+01,-6.516181182861328125e+01,5.361779022216796875e+01,-1.549175357818603516e+01,-1.037240447998046875e+02,-1.147013626098632812e+02,6.422926330566406250e+01,-3.491662597656250000e+01
1.535090059041976929e-01,2.000000000000000000e+00,5.518081665039062500e+00,1.199270343780517578e+01,3.508026123046875000e+01,-1.087922592163085938e+02,9.036668395996093750e+01,-6.516316986083984375e+01,5.360922241210937500e+01,-1.549093055725097656e+01,-1.037232818603515625e+02,-1.147040939331054688e+02,6.422482299804687500e+01,-3.491816329956054688e+01
1.571830064058303833e-01,2.000000000000000000e+00,5.525143623352050781e+00,1.198188591003417969e+01,3.507997894287109375e+01,-1.087983169555664062e+02,9.036679077148437500e+01,-6.516635894775390625e+01,5.359812927246093750e+01,-1.548955821990966797e+01,-1.037235565185546875e+02,-1.147083282470703125e+02,6.422322082519531250e+01,-3.492014312744140625e+01
1.585289984941482544e-01,2.000000000000000000e+00,5.525143623352050781e+00,1.198188591003417969e+01,3.507997894287109375e+01,-1.087983169555664062e+02,9.036679077148437500e+01,-6.516635894775390625e+01,5.359812927246093750e+01,-1.548955821990966797e+01,-1.037235565185546875e+02,-1.147083282470703125e+02,6.422322082519531250e+01,-3.492014312744140625e+01
1.620810031890869141e-01,2.000000000000000000e+00,5.533669471740722656e+00,1.196851253509521484e+01,3.507934570312500000e+01,-1.088064804077148438e+02,9.036689758300781250e+01,-6.517022705078125000e+01,5.358444976806640625e+01,-1.548882484436035156e+01,-1.037297592163085938e+02,-1.147145690917968750e+02,6.422198486328125000e+01,-3.492222976684570312e+01
1.650989949703216553e-01,2.000000000000000000e+00,5.533669471740722656e+00,1.196851253509521484e+01,3.507934570312500000e+01,-1.088064804077148438e+02,9.036689758300781250e+01,-6.517022705078125000e+01,5.356719970703125000e+01,-1.548795413970947266e+01,-1.037338333129882812e+02,-1.147227554321289062e+02,6.422059631347656250e+01,-3.492563629150390625e+01
1.664270013570785522e-01,2.000000000000000000e+00,5.543544769287109375e+00,1.195328235626220703e+01,3.507845306396484375e+01,-1.088175430297851562e+02,9.036721801757812500e+01,-6.517490386962890625e+01,5.356719970703125000e+01,-1.548795413970947266e+01,-1.037338333129882812e+02,-1.147227554321289062e+02,6.422059631347656250e+01,-3.492563629150390625e+01
1.689359992742538452e-01,2.000000000000000000e+00,5.554568290710449219e+00,1.193610572814941406e+01,3.507737731933593750e+01,-1.088310241699218750e+02,9.036753845214843750e+01,-6.518066406250000000e+01,5.354594039916992188e+01,-1.548630619049072266e+01,-1.037359008789062500e+02,-1.147338867187500000e+02,6.421950531005859375e+01,-3.493046951293945312e+01
1.703159958124160767e-01,2.000000000000000000e+00,5.554568290710449219e+00,1.193610572814941406e+01,3.507737731933593750e+01,-1.088310241699218750e+02,9.036753845214843750e+01,-6.518066406250000000e+01,5.354594039916992188e+01,-1.548630619049072266e+01,-1.037359008789062500e+02,-1.147338867187500000e+02,6.421950531005859375e+01,-3.493046951293945312e+01
1.727550029754638672e-01,2.000000000000000000e+00,5.566251754760742188e+00,1.191714191436767578e+01,3.507582855224609375e+01,-1.088478317260742188e+02,9.036796569824218750e+01,-6.518852996826171875e+01,5.352017974853515625e+01,-1.548456668853759766e+01,-1.037394866943359375e+02,-1.147485427856445312e+02,6.421826934814453125e+01,-3.493761062622070312e+01
1.772810071706771851e-01,2.000000000000000000e+00,5.579169750213623047e+00,1.189630031585693359e+01,3.507381820678710938e+01,-1.088685302734375000e+02,9.036865997314453125e+01,-6.519782257080078125e+01,5.348974609375000000e+01,-1.548264408111572266e+01,-1.037442245483398438e+02,-1.147672882080078125e+02,6.421688079833984375e+01,-3.494651031494140625e+01
1.785559952259063721e-01,2.000000000000000000e+00,5.579169750213623047e+00,1.189630031585693359e+01,3.507381820678710938e+01,-1.088685302734375000e+02,9.036865997314453125e+01,-6.519782257080078125e+01,5.348974609375000000e+01,-1.548264408111572266e+01,-1.037442245483398438e+02,-1.147672882080078125e+02,6.421688079833984375e+01,-3.494651031494140625e+01
1.823219954967498779e-01,2.000000000000000000e+00,5.593034744262695312e+00,1.187416744232177734e+01,3.507113265991210938e+01,-1.088937072753906250e+02,9.036940002441406250e+01,-6.520874023437500000e+01,5.345354461669921875e+01,-1.547957706451416016e+01,-1.037512359619140625e+02,-1.147902679443359375e+02,6.421542358398437500e+01,-3.495881271362304688e+01
1.848929971456527710e-01,2.000000000000000000e+00,5.593034744262695312e+00,1.187416744232177734e+01,3.507113265991210938e+01,-1.088937072753906250e+02,9.036940002441406250e+01,-6.520874023437500000e+01,5.341322708129882812e+01,-1.547545814514160156e+01,-1.037589111328125000e+02,-1.148177642822265625e+02,6.421389770507812500e+01,-3.497331619262695312e+01
1.890369951725006104e-01,2.000000000000000000e+00,5.623607635498046875e+00,1.182476711273193359e+01,3.506405639648437500e+01,-1.089563903808593750e+02,9.037126922607421875e+01,-6.523593902587890625e+01,5.336949920654296875e+01,-1.547037696838378906e+01,-1.037679367065429688e+02,-1.148505783081054688e+02,6.421155548095703125e+01,-3.499001312255859375e+01
1.904049962759017944e-01,2.000000000000000000e+00,5.623607635498046875e+00,1.182476711273193359e+01,3.506405639648437500e+01,-1.089563903808593750e+02,9.037126922607421875e+01,-6.523593902587890625e+01,5.336949920654296875e+01,-1.547037696838378906e+01,-1.037679367065429688e+02,-1.148505783081054688e+02,6.421155548095703125e+01,-3.499001312255859375e+01
1.938820034265518188e-01,2.000000000000000000e+00,5.640544891357421875e+00,1.179729366302490234e+01,3.505982971191406250e+01,-1.089916305541992188e+02,9.037191009521484375e+01,-6.525186920166015625e+01,5.332242584228515625e+01,-1.546442604064941406e+01,-1.037799606323242188e+02,-1.148884124755859375e+02,6.420944976806640625e+01,-3.500891113281250000e+01
1.951880007982254028e-01,2.000000000000000000e+00,5.640544891357421875e+00,1.179729366302490234e+01,3.505982971191406250e+01,-1.089916305541992188e+02,9.037191009521484375e+01,-6.525186920166015625e+01,5.332242584228515625e+01,-1.546442604064941406e+01,-1.037799606323242188e+02,-1.148884124755859375e+02,6.420944976806640625e+01,-3.500891113281250000e+01
2.011869996786117554e-01,2.000000000000000000e+00,5.658486366271972656e+00,1.176749038696289062e+01,3.505523681640625000e+01,-1.090299224853515625e+02,9.037335205078125000e+01,-6.526937103271484375e+01,5.327232742309570312e+01,-1.545751380920410156e+01,-1.037938766479492188e+02,-1.149299926757812500e+02,6.420704650878906250e+01,-3.503022384643554688e+01
2.026209980249404907e-01,2.000000000000000000e+00,5.677433013916015625e+00,1.173576354980468750e+01,3.505029296875000000e+01,-1.090734329223632812e+02,9.037431335449218750e+01,-6.528842926025390625e+01,5.321981430053710938e+01,-1.544973087310791016e+01,-1.038088912963867188e+02,-1.149759521484375000e+02,6.420434570312500000e+01,-3.505439758300781250e+01
2.064539939165115356e-01,2.000000000000000000e+00,5.697326660156250000e+00,1.170193195343017578e+01,3.504502868652343750e+01,-1.091204147338867188e+02,9.037564086914062500e+01,-6.530917358398437500e+01,5.316477203369140625e+01,-1.544139957427978516e+01,-1.038244400024414062e+02,-1.150247726440429688e+02,6.420143127441406250e+01,-3.508197021484375000e+01
2.092140018939971924e-01,2.000000000000000000e+00,5.697326660156250000e+00,1.170193195343017578e+01,3.504502868652343750e+01,-1.091204147338867188e+02,9.037564086914062500e+01,-6.530917358398437500e+01,5.310626983642578125e+01,-1.543284034729003906e+01,-1.038410873413085938e+02,-1.150764083862304688e+02,6.419830322265625000e+01,-3.511053466796875000e+01
2.180909961462020874e-01,2.000000000000000000e+00,5.761314392089843750e+00,1.159154319763183594e+01,3.502705383300781250e+01,-1.092685852050781250e+02,9.038006591796875000e+01,-6.537780761718750000e+01,5.297668457031250000e+01,-1.541484928131103516e+01,-1.038743209838867188e+02,-1.151836166381835938e+02,6.419218444824218750e+01,-3.517008209228515625e+01
2.193920016288757324e-01,2.000000000000000000e+00,5.761314392089843750e+00,1.159154319763183594e+01,3.502705383300781250e+01,-1.092685852050781250e+02,9.038006591796875000e+01,-6.537780761718750000e+01,5.297668457031250000e+01,-1.541484928131103516e+01,-1.038743209838867188e+02,-1.151836166381835938e+02,6.419218444824218750e+01,-3.517008209228515625e+01
2.220409959554672241e-01,2.000000000000000000e+00,5.784509658813476562e+00,1.155137443542480469e+01,3.502071380615234375e+01,-1.093214187622070312e+02,9.038166809082031250e+01,-6.540188598632812500e+01,5.290741729736328125e+01,-1.540564918518066406e+01,-1.038907470703125000e+02,-1.152382583618164062e+02,6.418831634521484375e+01,-3.520183181762695312e+01
2.234770059585571289e-01,2.000000000000000000e+00,5.784509658813476562e+00,1.155137443542480469e+01,3.502071380615234375e+01,-1.093214187622070312e+02,9.038166809082031250e+01,-6.540188598632812500e+01,5.290741729736328125e+01,-1.540564918518066406e+01,-1.038907470703125000e+02,-1.152382583618164062e+02,6.418831634521484375e+01,-3.520183181762695312e+01
2.290789932012557983e-01,2.000000000000000000e+00,5.808938980102539062e+00,1.150937366485595703e+01,3.501432800292968750e+01,-1.093747329711914062e+02,9.038326263427734375e+01,-6.542528533935546875e+01,5.283715820312500000e+01,-1.539672183990478516e+01,-1.039067916870117188e+02,-1.152927627563476562e+02,6.418437957763671875e+01,-3.523237228393554688e+01
2.316939979791641235e-01,2.000000000000000000e+00,5.834631443023681641e+00,1.146578788757324219e+01,3.500786209106445312e+01,-1.094286117553710938e+02,9.038529205322265625e+01,-6.544881439208984375e+01,5.276585769653320312e+01,-1.538761425018310547e+01,-1.039224472045898438e+02,-1.153475418090820312e+02,6.418109893798828125e+01,-3.526269531250000000e+01
2.371950000524520874e-01,2.000000000000000000e+00,5.861443996429443359e+00,1.142073249816894531e+01,3.500139617919921875e+01,-1.094825515747070312e+02,9.038710784912109375e+01,-6.547309112548828125e+01,5.269334793090820312e+01,-1.537822914123535156e+01,-1.039376831054687500e+02,-1.154029769897460938e+02,6.417745971679687500e+01,-3.529389572143554688e+01
2.389110028743743896e-01,2.000000000000000000e+00,5.889002323150634766e+00,1.137465763092041016e+01,3.499493026733398438e+01,-1.095372238159179688e+02,9.038912963867187500e+01,-6.549777984619140625e+01,5.261990356445312500e+01,-1.536866188049316406e+01,-1.039529647827148438e+02,-1.154584884643554688e+02,6.417353057861328125e+01,-3.532575607299804688e+01
2.451429963111877441e-01,2.000000000000000000e+00,5.917106628417968750e+00,1.132761001586914062e+01,3.498862838745117188e+01,-1.095914764404296875e+02,9.039094543457031250e+01,-6.552252960205078125e+01,5.254613113403320312e+01,-1.535927677154541016e+01,-1.039682464599609375e+02,-1.155138549804687500e+02,6.416944122314453125e+01,-3.535728836059570312e+01
2.469210028648376465e-01,2.000000000000000000e+00,5.946013927459716797e+00,1.128047180175781250e+01,3.498226165771484375e+01,-1.096457366943359375e+02,9.039291381835937500e+01,-6.554742431640625000e+01,5.247312545776367188e+01,-1.534993839263916016e+01,-1.039833679199218750e+02,-1.155691375732421875e+02,6.416565704345703125e+01,-3.538793945312500000e+01
2.531690001487731934e-01,2.000000000000000000e+00,5.975065231323242188e+00,1.123315334320068359e+01,3.497573471069335938e+01,-1.097004623413085938e+02,9.039499664306640625e+01,-6.557264709472656250e+01,5.240094375610351562e+01,-1.534064579010009766e+01,-1.039982681274414062e+02,-1.156242141723632812e+02,6.416157531738281250e+01,-3.542012786865234375e+01
2.573179900646209717e-01,2.000000000000000000e+00,6.004202842712402344e+00,1.118567562103271484e+01,3.496904754638671875e+01,-1.097545623779296875e+02,9.039723205566406250e+01,-6.559706115722656250e+01,5.232854461669921875e+01,-1.533149147033691406e+01,-1.040133285522460938e+02,-1.156797866821289062e+02,6.415763854980468750e+01,-3.545265197753906250e+01
2.589879930019378662e-01,2.000000000000000000e+00,6.033139228820800781e+00,1.113842391967773438e+01,3.496244049072265625e+01,-1.098096084594726562e+02,9.039910125732421875e+01,-6.562079620361328125e+01,5.225505065917968750e+01,-1.532224369049072266e+01,-1.040287246704101562e+02,-1.157346496582031250e+02,6.415378570556640625e+01,-3.548385238647460938e+01
2.661989927291870117e-01,2.000000000000000000e+00,6.062276840209960938e+00,1.109099197387695312e+01,3.495566940307617188e+01,-1.098644866943359375e+02,9.040106964111328125e+01,-6.564466857910156250e+01,5.218099975585937500e+01,-1.531281471252441406e+01,-1.040443878173828125e+02,-1.157889328002929688e+02,6.415028381347656250e+01,-3.551428222656250000e+01
2.676109969615936279e-01,2.000000000000000000e+00,6.091270923614501953e+00,1.104371738433837891e+01,3.494898223876953125e+01,-1.099182662963867188e+02,9.040309906005859375e+01,-6.566901397705078125e+01,5.210750198364257812e+01,-1.530352210998535156e+01,-1.040601043701171875e+02,-1.158440780639648438e+02,6.414671325683593750e+01,-3.554493331909179688e+01
2.719889879226684570e-01,2.000000000000000000e+00,6.120264530181884766e+00,1.099671554565429688e+01,3.494221115112304688e+01,-1.099730987548828125e+02,9.040517425537109375e+01,-6.569376373291015625e+01,5.203537750244140625e+01,-1.529441261291503906e+01,-1.040756072998046875e+02,-1.158995971679687500e+02,6.414270019531250000e+01,-3.557580566406250000e+01
2.750220000743865967e-01,2.000000000000000000e+00,6.149258136749267578e+00,1.094926071166992188e+01,3.493562316894531250e+01,-1.100275192260742188e+02,9.040720367431640625e+01,-6.571871948242187500e+01,5.196292114257812500e+01,-1.528525638580322266e+01,-1.040904006958007812e+02,-1.159549484252929688e+02,6.413870239257812500e+01,-3.560591125488281250e+01
2.824479937553405762e-01,2.000000000000000000e+00,6.149258136749267578e+00,1.094926071166992188e+01,3.493562316894531250e+01,-1.100275192260742188e+02,9.040720367431640625e+01,-6.571871948242187500e+01,5.188931274414062500e+01,-1.527582740783691406e+01,-1.041055221557617188e+02,-1.160100936889648438e+02,6.413468933105468750e+01,-3.563600921630859375e+01
2.838729918003082275e-01,2.000000000000000000e+00,6.207246303558349609e+00,1.085500717163085938e+01,3.492271423339843750e+01,-1.101366577148437500e+02,9.041136169433593750e+01,-6.576836395263671875e+01,5.181526565551757812e+01,-1.526612186431884766e+01,-1.041208572387695312e+02,-1.160652389526367188e+02,6.413104248046875000e+01,-3.566852951049804688e+01
2.869279980659484863e-01,2.000000000000000000e+00,6.235952854156494141e+00,1.080793666839599609e+01,3.491614532470703125e+01,-1.101903305053710938e+02,9.041317749023437500e+01,-6.579244232177734375e+01,5.174220657348632812e+01,-1.525673866271972656e+01,-1.041360321044921875e+02,-1.161203918457031250e+02,6.412711334228515625e+01,-3.570050048828125000e+01
2.935149967670440674e-01,2.000000000000000000e+00,6.235952854156494141e+00,1.080793666839599609e+01,3.491614532470703125e+01,-1.101903305053710938e+02,9.041317749023437500e+01,-6.579244232177734375e+01,5.174220657348632812e+01,-1.525673866271972656e+01,-1.041360321044921875e+02,-1.161203918457031250e+02,6.412711334228515625e+01,-3.570050048828125000e+01
2.959469854831695557e-01,2.000000000000000000e+00,6.293596267700195312e+00,1.071420383453369141e+01,3.490296936035156250e+01,-1.102992095947265625e+02,9.041733551025390625e+01,-6.584024810791015625e+01,5.159795761108398438e+01,-1.523829078674316406e+01,-1.041662750244140625e+02,-1.162294006347656250e+02,6.411917114257812500e+01,-3.576147460937500000e+01
2.999660074710845947e-01,2.000000000000000000e+00,6.322475433349609375e+00,1.066726875305175781e+01,3.489644622802734375e+01,-1.103533630371093750e+02,9.041951751708984375e+01,-6.586479949951171875e+01,5.152462387084960938e+01,-1.522904396057128906e+01,-1.041814422607421875e+02,-1.162844772338867188e+02,6.411545562744140625e+01,-3.579322433471679688e+01
3.029899895191192627e-01,2.000000000000000000e+00,6.351210594177246094e+00,1.062051582336425781e+01,3.488971328735351562e+01,-1.104080352783203125e+02,9.042138671875000000e+01,-6.588921356201171875e+01,5.145068359375000000e+01,-1.521956729888916016e+01,-1.041971664428710938e+02,-1.163404846191406250e+02,6.411122894287109375e+01,-3.582343673706054688e+01
3.072179853916168213e-01,2.000000000000000000e+00,6.351210594177246094e+00,1.062051582336425781e+01,3.488971328735351562e+01,-1.104080352783203125e+02,9.042138671875000000e+01,-6.588921356201171875e+01,5.145068359375000000e+01,-1.521956729888916016e+01,-1.041971664428710938e+02,-1.163404846191406250e+02,6.411122894287109375e+01,-3.582343673706054688e+01
3.119440078735351562e-01,2.000000000000000000e+00,6.380032539367675781e+00,1.057376194000244141e+01,3.488330841064453125e+01,-1.104621276855468750e+02,9.042356872558593750e+01,-6.591424560546875000e+01,5.130621337890625000e+01,-1.520075321197509766e+01,-1.042279510498046875e+02,-1.164506301879882812e+02,6.410277557373046875e+01,-3.588584136962890625e+01
3.155789971351623535e-01,2.000000000000000000e+00,6.437532424926757812e+00,1.048043632507324219e+01,3.487064361572265625e+01,-1.105712203979492188e+02,9.042740631103515625e+01,-6.596414947509765625e+01,5.123398208618164062e+01,-1.519159889221191406e+01,-1.042430648803710938e+02,-1.165064163208007812e+02,6.409848022460937500e+01,-3.591670989990234375e+01
3.200390040874481201e-01,2.000000000000000000e+00,6.466526031494140625e+00,1.043379592895507812e+01,3.486421585083007812e+01,-1.106252593994140625e+02,9.042964935302734375e+01,-6.598795318603515625e+01,5.116097640991210938e+01,-1.518216896057128906e+01,-1.042584075927734375e+02,-1.165612106323242188e+02,6.409461975097656250e+01,-3.594802474975585938e+01
3.229880034923553467e-01,2.000000000000000000e+00,6.495433807373046875e+00,1.038708782196044922e+01,3.485757064819335938e+01,-1.106800918579101562e+02,9.043177795410156250e+01,-6.601210021972656250e+01,5.108753204345703125e+01,-1.517273902893066406e+01,-1.042737426757812500e+02,-1.166165084838867188e+02,6.409068298339843750e+01,-3.597911453247070312e+01
3.280040025711059570e-01,2.000000000000000000e+00,6.495433807373046875e+00,1.038708782196044922e+01,3.485757064819335938e+01,-1.106800918579101562e+02,9.043177795410156250e+01,-6.601210021972656250e+01,5.108753204345703125e+01,-1.517273902893066406e+01,-1.042737426757812500e+02,-1.166165084838867188e+02,6.409068298339843750e+01,-3.597911453247070312e+01
3.321450054645538330e-01,2.000000000000000000e+00,6.553048133850097656e+00,1.029385280609130859e+01,3.484437561035156250e+01,-1.107884521484375000e+02,9.043588256835937500e+01,-6.606085968017578125e+01,5.094289779663085938e+01,-1.515424537658691406e+01,-1.043044662475585938e+02,-1.167260055541992188e+02,6.408179473876953125e+01,-3.604118728637695312e+01
3.349849879741668701e-01,2.000000000000000000e+00,6.581812858581542969e+00,1.024725818634033203e+01,3.483770370483398438e+01,-1.108432312011718750e+02,9.043791198730468750e+01,-6.608560943603515625e+01,5.087077331542968750e+01,-1.514513492584228516e+01,-1.043198623657226562e+02,-1.167811584472656250e+02,6.407771301269531250e+01,-3.607283020019531250e+01
3.399629890918731689e-01,2.000000000000000000e+00,6.581812858581542969e+00,1.024725818634033203e+01,3.483770370483398438e+01,-1.108432312011718750e+02,9.043791198730468750e+01,-6.608560943603515625e+01,5.087077331542968750e+01,-1.514513492584228516e+01,-1.043198623657226562e+02,-1.167811584472656250e+02,6.407771301269531250e+01,-3.607283020019531250e+01
3.429130017757415771e-01,2.000000000000000000e+00,6.639657020568847656e+00,1.015370559692382812e+01,3.482448959350585938e+01,-1.109518432617187500e+02,9.044218444824218750e+01,-6.613566589355468750e+01,5.072459793090820312e+01,-1.512709999084472656e+01,-1.043504867553710938e+02,-1.168915176391601562e+02,6.406962585449218750e+01,-3.613380050659179688e+01
3.480159938335418701e-01,2.000000000000000000e+00,6.639657020568847656e+00,1.015370559692382812e+01,3.482448959350585938e+01,-1.109518432617187500e+02,9.044218444824218750e+01,-6.613566589355468750e+01,5.072459793090820312e+01,-1.512709999084472656e+01,-1.043504867553710938e+02,-1.168915176391601562e+02,6.406962585449218750e+01,-3.613380050659179688e+01
3.509140014648437500e-01,2.000000000000000000e+00,6.696697235107421875e+00,1.005992698669433594e+01,3.481145477294921875e+01,-1.110602951049804688e+02,9.044650268554687500e+01,-6.618367004394531250e+01,5.058012771606445312e+01,-1.510860538482666016e+01,-1.043815917968750000e+02,-1.170021667480468750e+02,6.406153869628906250e+01,-3.619587326049804688e+01
3.582809865474700928e-01,2.000000000000000000e+00,6.696697235107421875e+00,1.005992698669433594e+01,3.481145477294921875e+01,-1.110602951049804688e+02,9.044650268554687500e+01,-6.618367004394531250e+01,5.058012771606445312e+01,-1.510860538482666016e+01,-1.043815917968750000e+02,-1.170021667480468750e+02,6.406153869628906250e+01,-3.619587326049804688e+01
3.597770035266876221e-01,2.000000000000000000e+00,6.754053592681884766e+00,9.965900421142578125e+00,3.479821777343750000e+01,-1.111689682006835938e+02,9.045097351074218750e+01,-6.623217010498046875e+01,5.043472671508789062e+01,-1.509038639068603516e+01,-1.044125442504882812e+02,-1.171121749877929688e+02,6.405359649658203125e+01,-3.625662994384765625e+01
3.662619888782501221e-01,2.000000000000000000e+00,6.783133506774902344e+00,9.918829917907714844e+00,3.479156875610351562e+01,-1.112233734130859375e+02,9.045316314697265625e+01,-6.625678253173828125e+01,5.036144256591796875e+01,-1.508095741271972656e+01,-1.044274978637695312e+02,-1.171671142578125000e+02,6.404951477050781250e+01,-3.628859710693359375e+01
3.676640093326568604e-01,2.000000000000000000e+00,6.811954975128173828e+00,9.871736526489257812e+00,3.478496551513671875e+01,-1.112775268554687500e+02,9.045529937744140625e+01,-6.628153991699218750e+01,5.028871536254882812e+01,-1.507134342193603516e+01,-1.044426193237304688e+02,-1.172216033935546875e+02,6.404528808593750000e+01,-3.631935882568359375e+01
3.740749955177307129e-01,2.000000000000000000e+00,6.811954975128173828e+00,9.871736526489257812e+00,3.478496551513671875e+01,-1.112775268554687500e+02,9.045529937744140625e+01,-6.628153991699218750e+01,5.021675491333007812e+01,-1.506159305572509766e+01,-1.044579544067382812e+02,-1.172770385742187500e+02,6.404120635986328125e+01,-3.634891510009765625e+01
3.755770027637481689e-01,2.000000000000000000e+00,6.869598388671875000e+00,9.777505874633789062e+00,3.477174758911132812e+01,-1.113856658935546875e+02,9.045972442626953125e+01,-6.633138275146484375e+01,5.014424514770507812e+01,-1.505202579498291016e+01,-1.044731292724609375e+02,-1.173322677612304688e+02,6.403654479980468750e+01,-3.637945556640625000e+01
3.799949884414672852e-01,2.000000000000000000e+00,6.869598388671875000e+00,9.777505874633789062e+00,3.477174758911132812e+01,-1.113856658935546875e+02,9.045972442626953125e+01,-6.633138275146484375e+01,5.014424514770507812e+01,-1.505202579498291016e+01,-1.044731292724609375e+02,-1.173322677612304688e+02,6.403654479980468750e+01,-3.637945556640625000e+01
3.840540051460266113e-01,2.000000000000000000e+00,6.927672386169433594e+00,9.683207511901855469e+00,3.475883483886718750e+01,-1.114946975708007812e+02,9.046424865722656250e+01,-6.637905883789062500e+01,4.999735641479492188e+01,-1.503339481353759766e+01,-1.045032043457031250e+02,-1.174427032470703125e+02,6.402823638916015625e+01,-3.644097900390625000e+01
3.875199854373931885e-01,2.000000000000000000e+00,6.956723690032958984e+00,9.636294364929199219e+00,3.475225067138671875e+01,-1.115494842529296875e+02,9.046649169921875000e+01,-6.640299987792968750e+01,4.992473983764648438e+01,-1.502378177642822266e+01,-1.045182647705078125e+02,-1.174969863891601562e+02,6.402401733398437500e+01,-3.647053146362304688e+01
3.919549882411956787e-01,2.000000000000000000e+00,6.956723690032958984e+00,9.636294364929199219e+00,3.475225067138671875e+01,-1.115494842529296875e+02,9.046649169921875000e+01,-6.640299987792968750e+01,4.992473983764648438e+01,-1.502378177642822266e+01,-1.045182647705078125e+02,-1.174969863891601562e+02,6.402401733398437500e+01,-3.647053146362304688e+01
3.969309926033020020e-01,2.000000000000000000e+00,7.014625072479248047e+00,9.542358398437500000e+00,3.473895263671875000e+01,-1.116575164794921875e+02,9.047097015380859375e+01,-6.645209503173828125e+01,4.978043365478515625e+01,-1.500501441955566406e+01,-1.045489425659179688e+02,-1.176072082519531250e+02,6.401527404785156250e+01,-3.653249740600585938e+01
3.996819853782653809e-01,2.000000000000000000e+00,7.043561935424804688e+00,9.495401382446289062e+00,3.473220062255859375e+01,-1.117121353149414062e+02,9.047315979003906250e+01,-6.647711944580078125e+01,4.970732116699218750e+01,-1.499567508697509766e+01,-1.045640106201171875e+02,-1.176612777709960938e+02,6.401090240478515625e+01,-3.656391525268554688e+01
4.039680063724517822e-01,2.000000000000000000e+00,7.043561935424804688e+00,9.495401382446289062e+00,3.473220062255859375e+01,-1.117121353149414062e+02,9.047315979003906250e+01,-6.647711944580078125e+01,4.970732116699218750e+01,-1.499567508697509766e+01,-1.045640106201171875e+02,-1.176612777709960938e+02,6.401090240478515625e+01,-3.656391525268554688e+01
4.082149863243103027e-01,2.000000000000000000e+00,7.101205348968505859e+00,9.401487350463867188e+00,3.471862030029296875e+01,-1.118207473754882812e+02,9.047795104980468750e+01,-6.652574157714843750e+01,4.956070709228515625e+01,-1.497654056549072266e+01,-1.045943527221679688e+02,-1.177709960937500000e+02,6.400288391113281250e+01,-3.662390136718750000e+01
4.116980135440826416e-01,2.000000000000000000e+00,7.130112648010253906e+00,9.354665756225585938e+00,3.471209335327148438e+01,-1.118745880126953125e+02,9.048019409179687500e+01,-6.654940795898437500e+01,4.948869323730468750e+01,-1.496701908111572266e+01,-1.046098022460937500e+02,-1.178260803222656250e+02,6.399821853637695312e+01,-3.665664291381835938e+01
4.159669876098632812e-01,2.000000000000000000e+00,7.130112648010253906e+00,9.354665756225585938e+00,3.471209335327148438e+01,-1.118745880126953125e+02,9.048019409179687500e+01,-6.654940795898437500e+01,4.948869323730468750e+01,-1.496701908111572266e+01,-1.046098022460937500e+02,-1.178260803222656250e+02,6.399821853637695312e+01,-3.665664291381835938e+01
4.199860095977783203e-01,2.000000000000000000e+00,7.158905982971191406e+00,9.308002471923828125e+00,3.470566940307617188e+01,-1.119281005859375000e+02,9.048249053955078125e+01,-6.657315063476562500e+01,4.941640090942382812e+01,-1.495772647857666016e+01,-1.046251907348632812e+02,-1.178808670043945312e+02,6.399399566650390625e+01,-3.668729400634765625e+01
4.239670038223266602e-01,2.000000000000000000e+00,7.187613010406494141e+00,9.261317253112792969e+00,3.469916534423828125e+01,-1.119828338623046875e+02,9.048467254638671875e+01,-6.659722137451171875e+01,4.934323501586914062e+01,-1.494861698150634766e+01,-1.046403732299804688e+02,-1.179359359741210938e+02,6.399034881591796875e+01,-3.671585464477539062e+01
4.280120134353637695e-01,2.000000000000000000e+00,7.216492176055908203e+00,9.214473724365234375e+00,3.469251632690429688e+01,-1.120368728637695312e+02,9.048701477050781250e+01,-6.662150573730468750e+01,4.927006149291992188e+01,-1.493969154357910156e+01,-1.046554412841796875e+02,-1.179906616210937500e+02,6.398634719848632812e+01,-3.674562835693359375e+01
4.331490099430084229e-01,2.000000000000000000e+00,7.245341777801513672e+00,9.167788505554199219e+00,3.468586730957031250e+01,-1.120907592773437500e+02,9.048947143554687500e+01,-6.664604949951171875e+01,4.919777297973632812e+01,-1.493044376373291016e+01,-1.046709365844726562e+02,-1.180460891723632812e+02,6.398218536376953125e+01,-3.677716064453125000e+01
4.366750121116638184e-01,2.000000000000000000e+00,7.303128719329833984e+00,9.074394226074218750e+00,3.467269134521484375e+01,-1.121987380981445312e+02,9.049405670166015625e+01,-6.669569396972656250e+01,4.905379867553710938e+01,-1.491185855865478516e+01,-1.047017745971679688e+02,-1.181541595458984375e+02,6.397366333007812500e+01,-3.683912277221679688e+01
4.395540058612823486e-01,2.000000000000000000e+00,7.331950187683105469e+00,9.027709007263183594e+00,3.466608428955078125e+01,-1.122531051635742188e+02,9.049624633789062500e+01,-6.671963500976562500e+01,4.898068237304687500e+01,-1.490261268615722656e+01,-1.047168426513671875e+02,-1.182094421386718750e+02,6.396973037719726562e+01,-3.687010574340820312e+01
4.439510107040405273e-01,2.000000000000000000e+00,7.331950187683105469e+00,9.027709007263183594e+00,3.466608428955078125e+01,-1.122531051635742188e+02,9.049624633789062500e+01,-6.671963500976562500e+01,4.898068237304687500e+01,-1.490261268615722656e+01,-1.047168426513671875e+02,-1.182094421386718750e+02,6.396973037719726562e+01,-3.687010574340820312e+01
4.480130076408386230e-01,2.000000000000000000e+00,7.360657691955566406e+00,8.981000900268554688e+00,3.465955734252929688e+01,-1.123076171875000000e+02,9.049853515625000000e+01,-6.674337005615234375e+01,4.890756988525390625e+01,-1.489359474182128906e+01,-1.047321777343750000e+02,-1.182642364501953125e+02,6.396557617187500000e+01,-3.690207290649414062e+01
4.509660005569458008e-01,2.000000000000000000e+00,7.389880657196044922e+00,8.934291839599609375e+00,3.465313339233398438e+01,-1.123614044189453125e+02,9.050056457519531250e+01,-6.676690673828125000e+01,4.883511734008789062e+01,-1.488443851470947266e+01,-1.047477340698242188e+02,-1.183195343017578125e+02,6.396142196655273438e+01,-3.693349838256835938e+01
4.550560116767883301e-01,2.000000000000000000e+00,7.418615818023681641e+00,8.887583732604980469e+00,3.464680862426757812e+01,-1.124159698486328125e+02,9.050290679931640625e+01,-6.679124450683593750e+01,4.876342773437500000e+01,-1.487505435943603516e+01,-1.047630157470703125e+02,-1.183747482299804688e+02,6.395712661743164062e+01,-3.696294021606445312e+01
4.610849916934967041e-01,2.000000000000000000e+00,7.447351455688476562e+00,8.840853691101074219e+00,3.464020156860351562e+01,-1.124702301025390625e+02,9.050504302978515625e+01,-6.681566619873046875e+01,4.869124603271484375e+01,-1.486571693420410156e+01,-1.047784118652343750e+02,-1.184293212890625000e+02,6.395304107666015625e+01,-3.699359130859375000e+01
4.639059901237487793e-01,2.000000000000000000e+00,7.504880428314208984e+00,8.747437477111816406e+00,3.462696456909179688e+01,-1.125783081054687500e+02,9.050951385498046875e+01,-6.686516571044921875e+01,4.854485702514648438e+01,-1.484731483459472656e+01,-1.048092498779296875e+02,-1.185390396118164062e+02,6.394445037841796875e+01,-3.705511474609375000e+01
4.680350124835968018e-01,2.000000000000000000e+00,7.504880428314208984e+00,8.747437477111816406e+00,3.462696456909179688e+01,-1.125783081054687500e+02,9.050951385498046875e+01,-6.686516571044921875e+01,4.854485702514648438e+01,-1.484731483459472656e+01,-1.048092498779296875e+02,-1.185390396118164062e+02,6.394445037841796875e+01,-3.705511474609375000e+01
4.710049927234649658e-01,2.000000000000000000e+00,7.533730506896972656e+00,8.700548171997070312e+00,3.462027740478515625e+01,-1.126322479248046875e+02,9.051175689697265625e+01,-6.688951110839843750e+01,4.847234725952148438e+01,-1.483820533752441406e+01,-1.048242568969726562e+02,-1.185933990478515625e+02,6.394000244140625000e+01,-3.708433914184570312e+01
4.760249853134155273e-01,2.000000000000000000e+00,7.562610149383544922e+00,8.653658866882324219e+00,3.461352920532226562e+01,-1.126864471435546875e+02,9.051389312744140625e+01,-6.691331481933593750e+01,4.840071487426757812e+01,-1.482904911041259766e+01,-1.048392639160156250e+02,-1.186479721069335938e+02,6.393577575683593750e+01,-3.711521148681640625e+01
4.791069924831390381e-01,2.000000000000000000e+00,7.591202259063720703e+00,8.606883049011230469e+00,3.460689926147460938e+01,-1.127404937744140625e+02,9.051596832275390625e+01,-6.693678283691406250e+01,4.832853317260742188e+01,-1.481975746154785156e+01,-1.048544387817382812e+02,-1.187028961181640625e+02,6.393126296997070312e+01,-3.714553451538085938e+01
4.830340147018432617e-01,2.000000000000000000e+00,7.619765281677246094e+00,8.560015678405761719e+00,3.460031127929687500e+01,-1.127939605712890625e+02,9.051809692382812500e+01,-6.696079254150390625e+01,4.825525665283203125e+01,-1.481055641174316406e+01,-1.048697738647460938e+02,-1.187570495605468750e+02,6.392681503295898438e+01,-3.717464828491210938e+01
4.881179928779602051e-01,2.000000000000000000e+00,7.648443222045898438e+00,8.513035774230957031e+00,3.459380722045898438e+01,-1.128482055664062500e+02,9.052018737792968750e+01,-6.698547363281250000e+01,4.818203353881835938e+01,-1.480135440826416016e+01,-1.048851699829101562e+02,-1.188121948242187500e+02,6.392266082763671875e+01,-3.720518875122070312e+01
4.915089905261993408e-01,2.000000000000000000e+00,7.677265167236328125e+00,8.466079711914062500e+00,3.458723831176757812e+01,-1.129024124145507812e+02,9.052231597900390625e+01,-6.700961303710937500e+01,4.811001586914062500e+01,-1.479215431213378906e+01,-1.049003448486328125e+02,-1.188676986694335938e+02,6.391843414306640625e+01,-3.723661041259765625e+01
4.959520101547241211e-01,2.000000000000000000e+00,7.706230163574218750e+00,8.419281005859375000e+00,3.458058929443359375e+01,-1.129565124511718750e+02,9.052423095703125000e+01,-6.703450012207031250e+01,4.803849792480468750e+01,-1.478281593322753906e+01,-1.049157333374023438e+02,-1.189216308593750000e+02,6.391450119018554688e+01,-3.726802825927734375e+01
5.000240206718444824e-01,2.000000000000000000e+00,7.735166072845458984e+00,8.372323989868164062e+00,3.457389831542968750e+01,-1.130103912353515625e+02,9.052626037597656250e+01,-6.705966186523437500e+01,4.796598815917968750e+01,-1.477338504791259766e+01,-1.049308013916015625e+02,-1.189760513305664062e+02,6.391034698486328125e+01,-3.729802322387695312e+01
5.033090114593505859e-01,2.000000000000000000e+00,7.763930797576904297e+00,8.325434684753417969e+00,3.456735229492187500e+01,-1.130640716552734375e+02,9.052833557128906250e+01,-6.708367156982421875e+01,4.789270782470703125e+01,-1.476400184631347656e+01,-1.049459762573242188e+02,-1.190306243896484375e+02,6.390605163574218750e+01,-3.732768249511718750e+01
5.071399807929992676e-01,2.000000000000000000e+00,7.792637348175048828e+00,8.278409957885742188e+00,3.456060409545898438e+01,-1.131184310913085938e+02,9.053041839599609375e+01,-6.710733795166015625e+01,4.781948471069335938e+01,-1.475452518463134766e+01,-1.049613113403320312e+02,-1.190846252441406250e+02,6.390211868286132812e+01,-3.735789871215820312e+01
5.122529864311218262e-01,2.000000000000000000e+00,7.821545124053955078e+00,8.231407165527343750e+00,3.455391311645507812e+01,-1.131727371215820312e+02,9.053238677978515625e+01,-6.713127899169921875e+01,4.774779891967773438e+01,-1.474546146392822266e+01,-1.049764862060546875e+02,-1.191393356323242188e+02,6.389781188964843750e+01,-3.738887786865234375e+01
5.153890252113342285e-01,2.000000000000000000e+00,7.850366592407226562e+00,8.184788703918457031e+00,3.454740905761718750e+01,-1.132265167236328125e+02,9.053430938720703125e+01,-6.715556335449218750e+01,4.767610931396484375e+01,-1.473616886138916016e+01,-1.049916076660156250e+02,-1.191941909790039062e+02,6.389351654052734375e+01,-3.741832351684570312e+01
5.200060009956359863e-01,2.000000000000000000e+00,7.879159450531005859e+00,8.138058662414550781e+00,3.454104232788085938e+01,-1.132811431884765625e+02,9.053633880615234375e+01,-6.718024444580078125e+01,4.760360336303710938e+01,-1.472683048248291016e+01,-1.050066757202148438e+02,-1.192486267089843750e+02,6.388922119140625000e+01,-3.744886398315429688e+01
5.234950184822082520e-01,2.000000000000000000e+00,7.907981395721435547e+00,8.091259956359863281e+00,3.453467941284179688e+01,-1.133347091674804688e+02,9.053841400146484375e+01,-6.720493316650390625e+01,4.753065109252929688e+01,-1.471735572814941406e+01,-1.050220108032226562e+02,-1.193037796020507812e+02,6.388499450683593750e+01,-3.748094177246093750e+01
5.280159711837768555e-01,2.000000000000000000e+00,7.936573028564453125e+00,8.044619560241699219e+00,3.452801132202148438e+01,-1.133887481689453125e+02,9.054027557373046875e+01,-6.722975158691406250e+01,4.745792388916015625e+01,-1.470801639556884766e+01,-1.050375671386718750e+02,-1.193585510253906250e+02,6.388084030151367188e+01,-3.751324462890625000e+01
5.319589972496032715e-01,2.000000000000000000e+00,7.965251445770263672e+00,7.997617244720458984e+00,3.452136230468750000e+01,-1.134433746337890625e+02,9.054219818115234375e+01,-6.725457000732421875e+01,4.738602066040039062e+01,-1.469867801666259766e+01,-1.050530090332031250e+02,-1.194125518798828125e+02,6.387661361694335938e+01,-3.754301452636718750e+01
5.399640202522277832e-01,2.000000000000000000e+00,8.022837638854980469e+00,7.904495239257812500e+00,3.450806427001953125e+01,-1.135513000488281250e+02,9.054604339599609375e+01,-6.730163574218750000e+01,4.724182510375976562e+01,-1.468004703521728516e+01,-1.050830383300781250e+02,-1.195222091674804688e+02,6.386787033081054688e+01,-3.760498046875000000e+01
5.413259863853454590e-01,2.000000000000000000e+00,8.051457405090332031e+00,7.857877254486083984e+00,3.450137710571289062e+01,-1.136049804687500000e+02,9.054806518554687500e+01,-6.732598114013671875e+01,4.716876602172851562e+01,-1.467070865631103516e+01,-1.050983657836914062e+02,-1.195761337280273438e+02,6.386379241943359375e+01,-3.763607025146484375e+01
5.439440011978149414e-01,2.000000000000000000e+00,8.080107688903808594e+00,7.811214447021484375e+00,3.449476623535156250e+01,-1.136583938598632812e+02,9.055009460449218750e+01,-6.735033416748046875e+01,4.709587097167968750e+01,-1.466118717193603516e+01,-1.051136550903320312e+02,-1.196308441162109375e+02,6.385934448242187500e+01,-3.766573333740234375e+01
5.480380058288574219e-01,2.000000000000000000e+00,8.080107688903808594e+00,7.811214447021484375e+00,3.449476623535156250e+01,-1.136583938598632812e+02,9.055009460449218750e+01,-6.735033416748046875e+01,4.709587097167968750e+01,-1.466118717193603516e+01,-1.051136550903320312e+02,-1.196308441162109375e+02,6.385934448242187500e+01,-3.766573333740234375e+01
5.516009926795959473e-01,2.000000000000000000e+00,8.108671188354492188e+00,7.764393329620361328e+00,3.448824310302734375e+01,-1.137130661010742188e+02,9.055190277099609375e+01,-6.737467193603515625e+01,4.702385330200195312e+01,-1.465194129943847656e+01,-1.051288833618164062e+02,-1.196853485107421875e+02,6.385475540161132812e+01,-3.769495773315429688e+01
5.560129880905151367e-01,2.000000000000000000e+00,8.137263298034667969e+00,7.717639923095703125e+00,3.448177719116210938e+01,-1.137667922973632812e+02,9.055398559570312500e+01,-6.739936065673828125e+01,4.695211410522460938e+01,-1.464283084869384766e+01,-1.051441650390625000e+02,-1.197403488159179688e+02,6.385052871704101562e+01,-3.772583007812500000e+01
5.606089830398559570e-01,2.000000000000000000e+00,8.166198730468750000e+00,7.671271324157714844e+00,3.447523117065429688e+01,-1.138204650878906250e+02,9.055579376220703125e+01,-6.742452239990234375e+01,4.687965774536132812e+01,-1.463399600982666016e+01,-1.051595535278320312e+02,-1.197950744628906250e+02,6.384645080566406250e+01,-3.775736236572265625e+01
5.645099878311157227e-01,2.000000000000000000e+00,8.223814010620117188e+00,7.577764511108398438e+00,3.446207427978515625e+01,-1.139282913208007812e+02,9.055957794189453125e+01,-6.747232818603515625e+01,4.673331832885742188e+01,-1.461536502838134766e+01,-1.051897964477539062e+02,-1.199041519165039062e+02,6.383799362182617188e+01,-3.781679916381835938e+01
5.680329799652099609e-01,2.000000000000000000e+00,8.223814010620117188e+00,7.577764511108398438e+00,3.446207427978515625e+01,-1.139282913208007812e+02,9.055957794189453125e+01,-6.747232818603515625e+01,4.673331832885742188e+01,-1.461536502838134766e+01,-1.051897964477539062e+02,-1.199041519165039062e+02,6.383799362182617188e+01,-3.781679916381835938e+01
5.718330144882202148e-01,2.000000000000000000e+00,8.252434730529785156e+00,7.531191825866699219e+00,3.445554733276367188e+01,-1.139825439453125000e+02,9.056155395507812500e+01,-6.749586486816406250e+01,4.666114044189453125e+01,-1.460625553131103516e+01,-1.052054595947265625e+02,-1.199592971801757812e+02,6.383362197875976562e+01,-3.784898757934570312e+01
5.759860277175903320e-01,2.000000000000000000e+00,8.280969619750976562e+00,7.484483718872070312e+00,3.444883728027343750e+01,-1.140368499755859375e+02,9.056358337402343750e+01,-6.751993560791015625e+01,4.658940124511718750e+01,-1.459714794158935547e+01,-1.052210693359375000e+02,-1.200126419067382812e+02,6.382968902587890625e+01,-3.787942123413085938e+01
5.796530246734619141e-01,2.000000000000000000e+00,8.309675216674804688e+00,7.437775611877441406e+00,3.444227218627929688e+01,-1.140904235839843750e+02,9.056528472900390625e+01,-6.754421997070312500e+01,4.651694488525390625e+01,-1.458812808990478516e+01,-1.052360763549804688e+02,-1.200667114257812500e+02,6.382561111450195312e+01,-3.790798568725585938e+01
5.850639939308166504e-01,2.000000000000000000e+00,8.338526725769042969e+00,7.391180992126464844e+00,3.443588638305664062e+01,-1.141449966430664062e+02,9.056731414794921875e+01,-6.756903839111328125e+01,4.644394302368164062e+01,-1.457883548736572266e+01,-1.052510375976562500e+02,-1.201224288940429688e+02,6.382116699218750000e+01,-3.793742370605468750e+01
5.892400145530700684e-01,2.000000000000000000e+00,8.395853996276855469e+00,7.297809600830078125e+00,3.442316055297851562e+01,-1.142525024414062500e+02,9.057120513916015625e+01,-6.761827087402343750e+01,4.629886627197265625e+01,-1.456043338775634766e+01,-1.052824707031250000e+02,-1.202317962646484375e+02,6.381285858154296875e+01,-3.799840164184570312e+01
5.919209718704223633e-01,2.000000000000000000e+00,8.395853996276855469e+00,7.297809600830078125e+00,3.442316055297851562e+01,-1.142525024414062500e+02,9.057120513916015625e+01,-6.761827087402343750e+01,4.629886627197265625e+01,-1.456043338775634766e+01,-1.052824707031250000e+02,-1.202317962646484375e+02,6.381285858154296875e+01,-3.799840164184570312e+01
5.960140228271484375e-01,2.000000000000000000e+00,8.424531936645507812e+00,7.251101493835449219e+00,3.441648864746093750e+01,-1.143069152832031250e+02,9.057312774658203125e+01,-6.764200592041015625e+01,4.622750854492187500e+01,-1.455127906799316406e+01,-1.052977523803710938e+02,-1.202865066528320312e+02,6.380907058715820312e+01,-3.802817535400390625e+01
6.000480055809020996e-01,2.000000000000000000e+00,8.453181266784667969e+00,7.204370975494384766e+00,3.440986251831054688e+01,-1.143608016967773438e+02,9.057525634765625000e+01,-6.766547393798828125e+01,4.615522003173828125e+01,-1.454248905181884766e+01,-1.053128814697265625e+02,-1.203404998779296875e+02,6.380506134033203125e+01,-3.805981445312500000e+01
6.040099859237670898e-01,2.000000000000000000e+00,8.481973648071289062e+00,7.157662868499755859e+00,3.440329360961914062e+01,-1.144150009155273438e+02,9.057707214355468750e+01,-6.768914031982421875e+01,4.608221435546875000e+01,-1.453347110748291016e+01,-1.053277740478515625e+02,-1.203957290649414062e+02,6.380083847045898438e+01,-3.809167480468750000e+01
6.091229915618896484e-01,2.000000000000000000e+00,8.510709762573242188e+00,7.110886573791503906e+00,3.439664459228515625e+01,-1.144686813354492188e+02,9.057909393310546875e+01,-6.771321868896484375e+01,4.600926589965820312e+01,-1.452440738677978516e+01,-1.053433914184570312e+02,-1.204502258300781250e+02,6.379675292968750000e+01,-3.812188720703125000e+01
6.133419871330261230e-01,2.000000000000000000e+00,8.539301872253417969e+00,7.064200878143310547e+00,3.438991928100585938e+01,-1.145220870971679688e+02,9.058101654052734375e+01,-6.773777008056640625e+01,4.593746948242187500e+01,-1.451502513885498047e+01,-1.053590469360351562e+02,-1.205043716430664062e+02,6.379253387451171875e+01,-3.815111160278320312e+01
6.161080002784729004e-01,2.000000000000000000e+00,8.567922592163085938e+00,7.017425060272216797e+00,3.438320541381835938e+01,-1.145761871337890625e+02,9.058304595947265625e+01,-6.776251983642578125e+01,4.586572647094726562e+01,-1.450586891174316406e+01,-1.053741683959960938e+02,-1.205592346191406250e+02,6.378816223144531250e+01,-3.818252944946289062e+01
6.201429963111877441e-01,2.000000000000000000e+00,8.596571922302246094e+00,6.970762252807617188e+00,3.437674331665039062e+01,-1.146303863525390625e+02,9.058490753173828125e+01,-6.778720092773437500e+01,4.579354858398437500e+01,-1.449698829650878906e+01,-1.053895568847656250e+02,-1.206140899658203125e+02,6.378400421142578125e+01,-3.821494293212890625e+01
6.241750121116638184e-01,2.000000000000000000e+00,8.625279426574707031e+00,6.924121856689453125e+00,3.437023544311523438e+01,-1.146843261718750000e+02,9.058676910400390625e+01,-6.781148529052734375e+01,4.572048950195312500e+01,-1.448792457580566406e+01,-1.054046249389648438e+02,-1.206688003540039062e+02,6.378006744384765625e+01,-3.824482345581054688e+01
6.278979778289794922e-01,2.000000000000000000e+00,8.654129028320312500e+00,6.877436161041259766e+00,3.436362838745117188e+01,-1.147381057739257812e+02,9.058901214599609375e+01,-6.783528900146484375e+01,4.564814758300781250e+01,-1.447858524322509766e+01,-1.054199600219726562e+02,-1.207235946655273438e+02,6.377606582641601562e+01,-3.827449035644531250e+01
6.308959722518920898e-01,2.000000000000000000e+00,8.682921409606933594e+00,6.830637454986572266e+00,3.435699844360351562e+01,-1.147914657592773438e+02,9.059114074707031250e+01,-6.785874938964843750e+01,4.557645797729492188e+01,-1.446897220611572266e+01,-1.054351959228515625e+02,-1.207783050537109375e+02,6.377161788940429688e+01,-3.830546951293945312e+01
6.349030137062072754e-01,2.000000000000000000e+00,8.711686134338378906e+00,6.783816337585449219e+00,3.435039138793945312e+01,-1.148457641601562500e+02,9.059306335449218750e+01,-6.788262176513671875e+01,4.550521469116210938e+01,-1.445954322814941406e+01,-1.054503707885742188e+02,-1.208331680297851562e+02,6.376732254028320312e+01,-3.833678054809570312e+01
6.413469910621643066e-01,2.000000000000000000e+00,8.768898963928222656e+00,6.690739631652832031e+00,3.433719635009765625e+01,-1.149538040161132812e+02,9.059706115722656250e+01,-6.793144989013671875e+01,4.536008071899414062e+01,-1.444123268127441406e+01,-1.054799499511718750e+02,-1.209414520263671875e+02,6.375952148437500000e+01,-3.839555740356445312e+01
6.429179906845092773e-01,2.000000000000000000e+00,8.768898963928222656e+00,6.690739631652832031e+00,3.433719635009765625e+01,-1.149538040161132812e+02,9.059706115722656250e+01,-6.793144989013671875e+01,4.536008071899414062e+01,-1.444123268127441406e+01,-1.054799499511718750e+02,-1.209414520263671875e+02,6.375952148437500000e+01,-3.839555740356445312e+01
6.469460129737854004e-01,2.000000000000000000e+00,8.797548294067382812e+00,6.644099235534667969e+00,3.433058929443359375e+01,-1.150082168579101562e+02,9.059908294677734375e+01,-6.795587158203125000e+01,4.528741073608398438e+01,-1.443207740783691406e+01,-1.054950180053710938e+02,-1.209958877563476562e+02,6.375529479980468750e+01,-3.842719650268554688e+01
6.519690155982971191e-01,2.000000000000000000e+00,8.826283454895019531e+00,6.597527027130126953e+00,3.432420349121093750e+01,-1.150616302490234375e+02,9.060116577148437500e+01,-6.798048400878906250e+01,4.521556091308593750e+01,-1.442273902893066406e+01,-1.055104141235351562e+02,-1.210511016845703125e+02,6.375048828125000000e+01,-3.845894622802734375e+01
6.549050211906433105e-01,2.000000000000000000e+00,8.854990005493164062e+00,6.551135540008544922e+00,3.431792068481445312e+01,-1.151155166625976562e+02,9.060314178466796875e+01,-6.800449371337890625e+01,4.514414596557617188e+01,-1.441344642639160156e+01,-1.055257492065429688e+02,-1.211057434082031250e+02,6.374597167968750000e+01,-3.848871994018554688e+01
6.588990092277526855e-01,2.000000000000000000e+00,8.883554458618164062e+00,6.504404544830322266e+00,3.431149673461914062e+01,-1.151698150634765625e+02,9.060548400878906250e+01,-6.802795410156250000e+01,4.507158279418945312e+01,-1.440424633026123047e+01,-1.055407638549804688e+02,-1.211604690551757812e+02,6.374240112304687500e+01,-3.851827621459960938e+01
6.653069853782653809e-01,2.000000000000000000e+00,8.912088394165039062e+00,6.457606315612792969e+00,3.430488967895507812e+01,-1.152233963012695312e+02,9.060756683349609375e+01,-6.805142211914062500e+01,4.499824905395507812e+01,-1.439490699768066406e+01,-1.055559921264648438e+02,-1.212153244018554688e+02,6.373846435546875000e+01,-3.854947662353515625e+01
6.669189929962158203e-01,2.000000000000000000e+00,8.940909385681152344e+00,6.411282539367675781e+00,3.429830169677734375e+01,-1.152776412963867188e+02,9.060970306396484375e+01,-6.807569885253906250e+01,4.492563247680664062e+01,-1.438570499420166016e+01,-1.055712127685546875e+02,-1.212693939208984375e+02,6.373445510864257812e+01,-3.858067703247070312e+01
6.709840297698974609e-01,2.000000000000000000e+00,8.969559669494628906e+00,6.364665031433105469e+00,3.429175567626953125e+01,-1.153312683105468750e+02,9.061177825927734375e+01,-6.809977722167968750e+01,4.485394668579101562e+01,-1.437632083892822266e+01,-1.055863418579101562e+02,-1.213237533569335938e+02,6.373052215576171875e+01,-3.861001205444335938e+01
6.749410033226013184e-01,2.000000000000000000e+00,8.998323440551757812e+00,6.318115234375000000e+00,3.428504562377929688e+01,-1.153845748901367188e+02,9.061390686035156250e+01,-6.812445831298828125e+01,4.478247833251953125e+01,-1.436657047271728516e+01,-1.056012420654296875e+02,-1.213785400390625000e+02,6.372636795043945312e+01,-3.863923263549804688e+01
6.788949966430664062e-01,2.000000000000000000e+00,9.027001380920410156e+00,6.271588325500488281e+00,3.427843856811523438e+01,-1.154389801025390625e+02,9.061598968505859375e+01,-6.814927673339843750e+01,4.470991516113281250e+01,-1.435723209381103516e+01,-1.056165237426757812e+02,-1.214327468872070312e+02,6.372221755981445312e+01,-3.867043304443359375e+01
6.829100251197814941e-01,2.000000000000000000e+00,9.055507659912109375e+00,6.224766731262207031e+00,3.427178955078125000e+01,-1.154925003051757812e+02,9.061823272705078125e+01,-6.817389678955078125e+01,4.463669204711914062e+01,-1.434839725494384766e+01,-1.056318588256835938e+02,-1.214873199462890625e+02,6.371806335449218750e+01,-3.870163345336914062e+01
6.886630058288574219e-01,2.000000000000000000e+00,9.084215164184570312e+00,6.178262233734130859e+00,3.426536560058593750e+01,-1.155462875366210938e+02,9.062025451660156250e+01,-6.819763183593750000e+01,4.456390380859375000e+01,-1.433937931060791016e+01,-1.056470870971679688e+02,-1.215421142578125000e+02,6.371413040161132812e+01,-3.873173904418945312e+01
6.926990151405334473e-01,2.000000000000000000e+00,9.112978935241699219e+00,6.131644725799560547e+00,3.425887680053710938e+01,-1.156005325317382812e+02,9.062260437011718750e+01,-6.822123718261718750e+01,4.449227142333984375e+01,-1.433013343811035156e+01,-1.056621017456054688e+02,-1.215969009399414062e+02,6.370975875854492188e+01,-3.876173019409179688e+01
6.968870162963867188e-01,2.000000000000000000e+00,9.141599655151367188e+00,6.084800720214843750e+00,3.425234985351562500e+01,-1.156535720825195312e+02,9.062473297119140625e+01,-6.824517822265625000e+01,4.442058563232421875e+01,-1.432088565826416016e+01,-1.056777038574218750e+02,-1.216515426635742188e+02,6.370546340942382812e+01,-3.879260253906250000e+01
7.006890177726745605e-01,2.000000000000000000e+00,9.170248985290527344e+00,6.038319110870361328e+00,3.424572372436523438e+01,-1.157074661254882812e+02,9.062702941894531250e+01,-6.826930999755859375e+01,4.434818649291992188e+01,-1.431182193756103516e+01,-1.056933212280273438e+02,-1.217058334350585938e+02,6.370087051391601562e+01,-3.882303619384765625e+01
7.058479785919189453e-01,2.000000000000000000e+00,9.198956489562988281e+00,5.991723537445068359e+00,3.423915863037109375e+01,-1.157616119384765625e+02,9.062915802001953125e+01,-6.829359436035156250e+01,4.427501678466796875e+01,-1.430271339416503906e+01,-1.057084350585937500e+02,-1.217601852416992188e+02,6.369656753540039062e+01,-3.885203933715820312e+01
7.090129852294921875e-01,2.000000000000000000e+00,9.227519035339355469e+00,5.944970607757568359e+00,3.423261260986328125e+01,-1.158151855468750000e+02,9.063145446777343750e+01,-6.831841278076171875e+01,4.420261764526367188e+01,-1.429364967346191406e+01,-1.057234497070312500e+02,-1.218148269653320312e+02,6.369219589233398438e+01,-3.888181304931640625e+01
7.128779888153076172e-01,2.000000000000000000e+00,9.256196975708007812e+00,5.898420810699462891e+00,3.422594070434570312e+01,-1.158696517944335938e+02,9.063369750976562500e+01,-6.834310150146484375e+01,4.413109970092773438e+01,-1.428449344635009766e+01,-1.057386779785156250e+02,-1.218690414428710938e+02,6.368790054321289062e+01,-3.891312026977539062e+01
7.155179977416992188e-01,2.000000000000000000e+00,9.284846305847167969e+00,5.851825714111328125e+00,3.421939468383789062e+01,-1.159234313964843750e+02,9.063592529296875000e+01,-6.836757659912109375e+01,4.405957794189453125e+01,-1.427520179748535156e+01,-1.057541198730468750e+02,-1.219229736328125000e+02,6.368367385864257812e+01,-3.894322586059570312e+01
7.210869789123535156e-01,2.000000000000000000e+00,9.313409805297851562e+00,5.805321216583251953e+00,3.421295166015625000e+01,-1.159767913818359375e+02,9.063806915283203125e+01,-6.839118194580078125e+01,4.398723220825195312e+01,-1.426577186584472656e+01,-1.057695693969726562e+02,-1.219779052734375000e+02,6.367966461181640625e+01,-3.897255706787109375e+01
7.229520082473754883e-01,2.000000000000000000e+00,9.341915130615234375e+00,5.758749008178710938e+00,3.420668792724609375e+01,-1.160310363769531250e+02,9.064019775390625000e+01,-6.841450500488281250e+01,4.391434097290039062e+01,-1.425661659240722656e+01,-1.057849044799804688e+02,-1.220324096679687500e+02,6.367566299438476562e+01,-3.900321197509765625e+01
7.269999980926513672e-01,2.000000000000000000e+00,9.370708465576171875e+00,5.711995601654052734e+00,3.420022201538085938e+01,-1.160845565795898438e+02,9.064248657226562500e+01,-6.843865203857421875e+01,4.384221267700195312e+01,-1.424773597717285156e+01,-1.058001403808593750e+02,-1.220868988037109375e+02,6.367157745361328125e+01,-3.903528976440429688e+01
7.308970093727111816e-01,2.000000000000000000e+00,9.399300575256347656e+00,5.665377616882324219e+00,3.419355392456054688e+01,-1.161385955810546875e+02,9.064462280273437500e+01,-6.846313476562500000e+01,4.377074432373046875e+01,-1.423867225646972656e+01,-1.058154144287109375e+02,-1.221419143676757812e+02,6.366720581054687500e+01,-3.906627273559570312e+01
7.370619773864746094e-01,2.000000000000000000e+00,9.428179740905761719e+00,5.618850708007812500e+00,3.418692398071289062e+01,-1.161921768188476562e+02,9.064696502685546875e+01,-6.848714447021484375e+01,4.369922637939453125e+01,-1.422965431213378906e+01,-1.058304290771484375e+02,-1.221963348388671875e+02,6.366269302368164062e+01,-3.909670257568359375e+01
7.413390278816223145e-01,2.000000000000000000e+00,9.456857681274414062e+00,5.572255611419677734e+00,3.418037796020507812e+01,-1.162456436157226562e+02,9.064904785156250000e+01,-6.851210021972656250e+01,4.362699127197265625e+01,-1.422049808502197266e+01,-1.058456039428710938e+02,-1.222505493164062500e+02,6.365860748291015625e+01,-3.912713623046875000e+01
7.428900003433227539e-01,2.000000000000000000e+00,9.485363960266113281e+00,5.525705814361572266e+00,3.417372894287109375e+01,-1.162993698120117188e+02,9.065150451660156250e+01,-6.853712463378906250e+01,4.355437088012695312e+01,-1.421116065979003906e+01,-1.058606643676757812e+02,-1.223054809570312500e+02,6.365474700927734375e+01,-3.915822601318359375e+01
7.469509840011596680e-01,2.000000000000000000e+00,9.513926506042480469e+00,5.479223728179931641e+00,3.416709899902343750e+01,-1.163531875610351562e+02,9.065325927734375000e+01,-6.856099700927734375e+01,4.348224639892578125e+01,-1.420214271545410156e+01,-1.058759002685546875e+02,-1.223594818115234375e+02,6.365059661865234375e+01,-3.918833160400390625e+01
7.540850043296813965e-01,2.000000000000000000e+00,9.542548179626464844e+00,5.432742118835449219e+00,3.416051101684570312e+01,-1.164069671630859375e+02,9.065539550781250000e+01,-6.858438873291015625e+01,4.341050338745117188e+01,-1.419303226470947266e+01,-1.058911285400390625e+02,-1.224135513305664062e+02,6.364673614501953125e+01,-3.921755218505859375e+01
7.554929852485656738e-01,2.000000000000000000e+00,9.571254730224609375e+00,5.386169910430908203e+00,3.415396499633789062e+01,-1.164609146118164062e+02,9.065757751464843750e+01,-6.860806274414062500e+01,4.333898544311523438e+01,-1.418392372131347656e+01,-1.059061889648437500e+02,-1.224683380126953125e+02,6.364287185668945312e+01,-3.924743652343750000e+01
7.610570192337036133e-01,2.000000000000000000e+00,9.600105285644531250e+00,5.339506626129150391e+00,3.414756011962890625e+01,-1.165141067504882812e+02,9.065954589843750000e+01,-6.863213348388671875e+01,4.326663970947265625e+01,-1.417463111877441406e+01,-1.059213638305664062e+02,-1.225226974487304688e+02,6.363864898681640625e+01,-3.927984619140625000e+01
7.629640102386474609e-01,2.000000000000000000e+00,9.628754615783691406e+00,5.292798995971679688e+00,3.414107513427734375e+01,-1.165682067871093750e+02,9.066168212890625000e+01,-6.865628051757812500e+01,4.319369125366210938e+01,-1.416515541076660156e+01,-1.059365997314453125e+02,-1.225771331787109375e+02,6.363442230224609375e+01,-3.931027984619140625e+01
7.699930071830749512e-01,2.000000000000000000e+00,9.657259941101074219e+00,5.246294498443603516e+00,3.413455200195312500e+01,-1.166220397949218750e+02,9.066376495361328125e+01,-6.868048858642578125e+01,4.312090301513671875e+01,-1.415577125549316406e+01,-1.059515457153320312e+02,-1.226317749023437500e+02,6.362997436523437500e+01,-3.933917236328125000e+01
7.719609737396240234e-01,2.000000000000000000e+00,9.685852050781250000e+00,5.199993610382080078e+00,3.412800216674804688e+01,-1.166755599975585938e+02,9.066562652587890625e+01,-6.870537567138671875e+01,4.304927444458007812e+01,-1.414670753479003906e+01,-1.059664535522460938e+02,-1.226857681274414062e+02,6.362567901611328125e+01,-3.936949539184570312e+01
7.759130001068115234e-01,2.000000000000000000e+00,9.714558601379394531e+00,5.153421401977539062e+00,3.412129211425781250e+01,-1.167298202514648438e+02,9.066780853271484375e+01,-6.872992706298828125e+01,4.297769927978515625e+01,-1.413759803771972656e+01,-1.059817352294921875e+02,-1.227404785156250000e+02,6.362159347534179688e+01,-3.940080642700195312e+01
7.795289754867553711e-01,2.000000000000000000e+00,9.743179321289062500e+00,5.107007026672363281e+00,3.411470413208007812e+01,-1.167833786010742188e+02,9.066989135742187500e+01,-6.875359344482421875e+01,4.290551757812500000e+01,-1.412848854064941406e+01,-1.059965896606445312e+02,-1.227944793701171875e+02,6.361722183227539062e+01,-3.943024826049804688e+01
7.829449772834777832e-01,2.000000000000000000e+00,9.771800041198730469e+00,5.060615539550781250e+00,3.410817718505859375e+01,-1.168370132446289062e+02,9.067197418212890625e+01,-6.877706146240234375e+01,4.283267974853515625e+01,-1.411896705627441406e+01,-1.060119171142578125e+02,-1.228481216430664062e+02,6.361255645751953125e+01,-3.946013259887695312e+01
7.894769906997680664e-01,2.000000000000000000e+00,9.771800041198730469e+00,5.060615539550781250e+00,3.410817718505859375e+01,-1.168370132446289062e+02,9.067197418212890625e+01,-6.877706146240234375e+01,4.283267974853515625e+01,-1.411896705627441406e+01,-1.060119171142578125e+02,-1.228481216430664062e+02,6.361255645751953125e+01,-3.946013259887695312e+01
7.933980226516723633e-01,2.000000000000000000e+00,9.828927040100097656e+00,4.967335224151611328e+00,3.409551239013671875e+01,-1.169450378417968750e+02,9.067575836181640625e+01,-6.882480621337890625e+01,4.268848419189453125e+01,-1.410056495666503906e+01,-1.060427017211914062e+02,-1.229575576782226562e+02,6.360388946533203125e+01,-3.952143478393554688e+01
7.959769964218139648e-01,2.000000000000000000e+00,9.857518196105957031e+00,4.921011924743652344e+00,3.408910751342773438e+01,-1.169988174438476562e+02,9.067789459228515625e+01,-6.884908294677734375e+01,4.261696243286132812e+01,-1.409136390686035156e+01,-1.060578842163085938e+02,-1.230118331909179688e+02,6.359995651245117188e+01,-3.955220031738281250e+01
7.989479899406433105e-01,2.000000000000000000e+00,9.886254310607910156e+00,4.874575614929199219e+00,3.408254241943359375e+01,-1.170522308349609375e+02,9.067975616455078125e+01,-6.887329101562500000e+01,4.254472732543945312e+01,-1.408202457427978516e+01,-1.060725097656250000e+02,-1.230664062500000000e+02,6.359580230712890625e+01,-3.958108901977539062e+01
8.040109872817993164e-01,2.000000000000000000e+00,9.886254310607910156e+00,4.874575614929199219e+00,3.408254241943359375e+01,-1.170522308349609375e+02,9.067975616455078125e+01,-6.887329101562500000e+01,4.254472732543945312e+01,-1.408202457427978516e+01,-1.060725097656250000e+02,-1.230664062500000000e+02,6.359580230712890625e+01,-3.958108901977539062e+01
8.069059848785400391e-01,2.000000000000000000e+00,9.943381309509277344e+00,4.781589031219482422e+00,3.406930541992187500e+01,-1.171599044799804688e+02,9.068364715576171875e+01,-6.892245483398437500e+01,4.239921188354492188e+01,-1.406325721740722656e+01,-1.061030731201171875e+02,-1.231751251220703125e+02,6.358720397949218750e+01,-3.964173507690429688e+01
8.120009899139404297e-01,2.000000000000000000e+00,9.943381309509277344e+00,4.781589031219482422e+00,3.406930541992187500e+01,-1.171599044799804688e+02,9.068364715576171875e+01,-6.892245483398437500e+01,4.239921188354492188e+01,-1.406325721740722656e+01,-1.061030731201171875e+02,-1.231751251220703125e+02,6.358720397949218750e+01,-3.964173507690429688e+01
8.161169886589050293e-01,2.000000000000000000e+00,1.000019168853759766e+01,4.688489437103271484e+00,3.405611038208007812e+01,-1.172667694091796875e+02,9.068759155273437500e+01,-6.896952056884765625e+01,4.225611495971679688e+01,-1.404489994049072266e+01,-1.061335296630859375e+02,-1.232832641601562500e+02,6.357904052734375000e+01,-3.970325851440429688e+01
8.189669847488403320e-01,2.000000000000000000e+00,1.002884101867675781e+01,4.641917228698730469e+00,3.404948043823242188e+01,-1.173208618164062500e+02,9.068940734863281250e+01,-6.899353027343750000e+01,4.218415832519531250e+01,-1.403606510162353516e+01,-1.061485443115234375e+02,-1.233370437622070312e+02,6.357489013671875000e+01,-3.973413085937500000e+01
8.239409923553466797e-01,2.000000000000000000e+00,1.002884101867675781e+01,4.641917228698730469e+00,3.404948043823242188e+01,-1.173208618164062500e+02,9.068940734863281250e+01,-6.899353027343750000e+01,4.218415832519531250e+01,-1.403606510162353516e+01,-1.061485443115234375e+02,-1.233370437622070312e+02,6.357489013671875000e+01,-3.973413085937500000e+01
8.278170228004455566e-01,2.000000000000000000e+00,1.008628273010253906e+01,4.548930644989013672e+00,3.403659057617187500e+01,-1.174283676147460938e+02,9.069351196289062500e+01,-6.904188537597656250e+01,4.203919219970703125e+01,-1.401803016662597656e+01,-1.061797027587890625e+02,-1.234464797973632812e+02,6.356665802001953125e+01,-3.979510498046875000e+01
8.308960199356079102e-01,2.000000000000000000e+00,1.011470317840576172e+01,4.502358436584472656e+00,3.403004455566406250e+01,-1.174822616577148438e+02,9.069532012939453125e+01,-6.906697845458984375e+01,4.196772384643554688e+01,-1.400878334045410156e+01,-1.061950988769531250e+02,-1.235009155273437500e+02,6.356257629394531250e+01,-3.982498931884765625e+01
8.359910249710083008e-01,2.000000000000000000e+00,1.011470317840576172e+01,4.502358436584472656e+00,3.403004455566406250e+01,-1.174822616577148438e+02,9.069532012939453125e+01,-6.906697845458984375e+01,4.196772384643554688e+01,-1.400878334045410156e+01,-1.061950988769531250e+02,-1.235009155273437500e+02,6.356257629394531250e+01,-3.982498931884765625e+01
8.389649987220764160e-01,2.000000000000000000e+00,1.017154216766357422e+01,4.409304141998291016e+00,3.401686859130859375e+01,-1.175898742675781250e+02,9.069927215576171875e+01,-6.911532592773437500e+01,4.182463073730468750e+01,-1.399079322814941406e+01,-1.062254486083984375e+02,-1.236094055175781250e+02,6.355412673950195312e+01,-3.988530349731445312e+01
8.428919911384582520e-01,2.000000000000000000e+00,1.020033550262451172e+01,4.362776756286621094e+00,3.401030349731445312e+01,-1.176436614990234375e+02,9.070118713378906250e+01,-6.913879394531250000e+01,4.175173568725585938e+01,-1.398172950744628906e+01,-1.062405700683593750e+02,-1.236636199951171875e+02,6.354975509643554688e+01,-3.991661453247070312e+01
8.479890227317810059e-01,2.000000000000000000e+00,1.020033550262451172e+01,4.362776756286621094e+00,3.401030349731445312e+01,-1.176436614990234375e+02,9.070118713378906250e+01,-6.913879394531250000e+01,4.175173568725585938e+01,-1.398172950744628906e+01,-1.062405700683593750e+02,-1.236636199951171875e+02,6.354975509643554688e+01,-3.991661453247070312e+01
8.516420125961303711e-01,2.000000000000000000e+00,1.025743293762207031e+01,4.269926548004150391e+00,3.399706649780273438e+01,-1.177511672973632812e+02,9.070503234863281250e+01,-6.918640136718750000e+01,4.160797882080078125e+01,-1.396323585510253906e+01,-1.062712936401367188e+02,-1.237718429565429688e+02,6.354130554199218750e+01,-3.997637939453125000e+01
8.580120205879211426e-01,2.000000000000000000e+00,1.025743293762207031e+01,4.269926548004150391e+00,3.399706649780273438e+01,-1.177511672973632812e+02,9.070503234863281250e+01,-6.918640136718750000e+01,4.153689956665039062e+01,-1.395417118072509766e+01,-1.062865753173828125e+02,-1.238257598876953125e+02,6.353664016723632812e+01,-4.000724792480468750e+01
8.594920039176940918e-01,2.000000000000000000e+00,1.031444549560546875e+01,4.176781654357910156e+00,3.398437881469726562e+01,-1.178588790893554688e+02,9.070870208740234375e+01,-6.923529815673828125e+01,4.146449661254882812e+01,-1.394542884826660156e+01,-1.063016967773437500e+02,-1.238806152343750000e+02,6.353197479248046875e+01,-4.003724288940429688e+01
8.674349784851074219e-01,2.000000000000000000e+00,1.031444549560546875e+01,4.176781654357910156e+00,3.398437881469726562e+01,-1.178588790893554688e+02,9.070870208740234375e+01,-6.923529815673828125e+01,4.139143753051757812e+01,-1.393645668029785156e+01,-1.063166046142578125e+02,-1.239346160888671875e+02,6.352818298339843750e+01,-4.006613922119140625e+01
8.687610030174255371e-01,2.000000000000000000e+00,1.037200260162353516e+01,4.083772659301757812e+00,3.397140884399414062e+01,-1.179656448364257812e+02,9.071270751953125000e+01,-6.928439331054687500e+01,4.131881713867187500e+01,-1.392734622955322266e+01,-1.063317794799804688e+02,-1.239893417358398438e+02,6.352367019653320312e+01,-4.009601974487304688e+01
8.719050288200378418e-01,2.000000000000000000e+00,1.040065193176269531e+01,4.037381172180175781e+00,3.396479797363281250e+01,-1.180194244384765625e+02,9.071456909179687500e+01,-6.930847167968750000e+01,4.124762725830078125e+01,-1.391814517974853516e+01,-1.063471679687500000e+02,-1.240442657470703125e+02,6.351937484741210938e+01,-4.012733078002929688e+01
8.748999834060668945e-01,2.000000000000000000e+00,1.042907142639160156e+01,3.990967512130737305e+00,3.395827484130859375e+01,-1.180732650756835938e+02,9.071643829345703125e+01,-6.933213806152343750e+01,4.117632675170898438e+01,-1.390894412994384766e+01,-1.063623962402343750e+02,-1.240979843139648438e+02,6.351492691040039062e+01,-4.015820312500000000e+01
8.800349831581115723e-01,2.000000000000000000e+00,1.042907142639160156e+01,3.990967512130737305e+00,3.395827484130859375e+01,-1.180732650756835938e+02,9.071643829345703125e+01,-6.933213806152343750e+01,4.117632675170898438e+01,-1.390894412994384766e+01,-1.063623962402343750e+02,-1.240979843139648438e+02,6.351492691040039062e+01,-4.015820312500000000e+01
8.838000297546386719e-01,2.000000000000000000e+00,1.048602581024169922e+01,3.897845029830932617e+00,3.394493484497070312e+01,-1.181806182861328125e+02,9.072038269042968750e+01,-6.938008880615234375e+01,4.103097534179687500e+01,-1.389090824127197266e+01,-1.063926925659179688e+02,-1.242072677612304688e+02,6.350720214843750000e+01,-4.021785736083984375e+01
8.902789950370788574e-01,2.000000000000000000e+00,1.048602581024169922e+01,3.897845029830932617e+00,3.394493484497070312e+01,-1.181806182861328125e+02,9.072038269042968750e+01,-6.938008880615234375e+01,4.103097534179687500e+01,-1.389090824127197266e+01,-1.063926925659179688e+02,-1.242072677612304688e+02,6.350720214843750000e+01,-4.021785736083984375e+01
8.928740024566650391e-01,2.000000000000000000e+00,1.054338264465332031e+01,3.804745912551879883e+00,3.393196487426757812e+01,-1.182877044677734375e+02,9.072422027587890625e+01,-6.942951965332031250e+01,4.088711166381835938e+01,-1.387218570709228516e+01,-1.064233093261718750e+02,-1.243151168823242188e+02,6.349903869628906250e+01,-4.028047943115234375e+01
8.955460190773010254e-01,2.000000000000000000e+00,1.057188796997070312e+01,3.758376836776733398e+00,3.392562103271484375e+01,-1.183419113159179688e+02,9.072614288330078125e+01,-6.945421600341796875e+01,4.081569671630859375e+01,-1.386284828186035156e+01,-1.064382705688476562e+02,-1.243698348999023438e+02,6.349510574340820312e+01,-4.030970382690429688e+01
8.999919891357421875e-01,2.000000000000000000e+00,1.057188796997070312e+01,3.758376836776733398e+00,3.392562103271484375e+01,-1.183419113159179688e+02,9.072614288330078125e+01,-6.945421600341796875e+01,4.081569671630859375e+01,-1.386284828186035156e+01,-1.064382705688476562e+02,-1.243698348999023438e+02,6.349510574340820312e+01,-4.030970382690429688e+01
9.039670228958129883e-01,2.000000000000000000e+00,1.062889957427978516e+01,3.665368080139160156e+00,3.391254425048828125e+01,-1.184495086669921875e+02,9.073014068603515625e+01,-6.950195312500000000e+01,4.067062377929687500e+01,-1.384453773498535156e+01,-1.064686126708984375e+02,-1.244786148071289062e+02,6.348672485351562500e+01,-4.037100982666015625e+01
9.104030132293701172e-01,2.000000000000000000e+00,1.062889957427978516e+01,3.665368080139160156e+00,3.391254425048828125e+01,-1.184495086669921875e+02,9.073014068603515625e+01,-6.950195312500000000e+01,4.067062377929687500e+01,-1.384453773498535156e+01,-1.064686126708984375e+02,-1.244786148071289062e+02,6.348672485351562500e+01,-4.037100982666015625e+01
9.120140075683593750e-01,2.000000000000000000e+00,1.068582534790039062e+01,3.572766542434692383e+00,3.389939117431640625e+01,-1.185563888549804688e+02,9.073413848876953125e+01,-6.954956054687500000e+01,4.052719879150390625e+01,-1.382627296447753906e+01,-1.064985885620117188e+02,-1.245870513916015625e+02,6.347842025756835938e+01,-4.043154525756835938e+01
9.171469807624816895e-01,2.000000000000000000e+00,1.068582534790039062e+01,3.572766542434692383e+00,3.389939117431640625e+01,-1.185563888549804688e+02,9.073413848876953125e+01,-6.954956054687500000e+01,4.045578765869140625e+01,-1.381725406646728516e+01,-1.065139160156250000e+02,-1.246419754028320312e+02,6.347441864013671875e+01,-4.046241378784179688e+01
9.196149706840515137e-01,2.000000000000000000e+00,1.074289512634277344e+01,3.479825496673583984e+00,3.388617706298828125e+01,-1.186639480590820312e+02,9.073809051513671875e+01,-6.959825897216796875e+01,4.038388061523437500e+01,-1.380809974670410156e+01,-1.065293121337890625e+02,-1.246954727172851562e+02,6.346960830688476562e+01,-4.049383544921875000e+01
9.239370226860046387e-01,2.000000000000000000e+00,1.074289512634277344e+01,3.479825496673583984e+00,3.388617706298828125e+01,-1.186639480590820312e+02,9.073809051513671875e+01,-6.959825897216796875e+01,4.038388061523437500e+01,-1.380809974670410156e+01,-1.065293121337890625e+02,-1.246954727172851562e+02,6.346960830688476562e+01,-4.049383544921875000e+01
9.279729723930358887e-01,2.000000000000000000e+00,1.077131462097167969e+01,3.433411598205566406e+00,3.387987136840820312e+01,-1.187177352905273438e+02,9.074016571044921875e+01,-6.962321472167968750e+01,4.031104278564453125e+01,-1.379903602600097656e+01,-1.065445938110351562e+02,-1.247488327026367188e+02,6.346523666381835938e+01,-4.052547836303710938e+01
9.319589734077453613e-01,2.000000000000000000e+00,1.079979133605957031e+01,3.386974811553955078e+00,3.387361145019531250e+01,-1.187714614868164062e+02,9.074224090576171875e+01,-6.964789581298828125e+01,4.023886108398437500e+01,-1.378988075256347656e+01,-1.065597152709960938e+02,-1.248036117553710938e+02,6.346129608154296875e+01,-4.055503082275390625e+01
9.359430074691772461e-01,2.000000000000000000e+00,1.082844066619873047e+01,3.340673923492431641e+00,3.386710357666015625e+01,-1.188245010375976562e+02,9.074411010742187500e+01,-6.967176818847656250e+01,4.016800308227539062e+01,-1.378086185455322266e+01,-1.065749435424804688e+02,-1.248579788208007812e+02,6.345707702636718750e+01,-4.058469390869140625e+01
9.389430284500122070e-01,2.000000000000000000e+00,1.085691833496093750e+01,3.294327974319458008e+00,3.386043930053710938e+01,-1.188784484863281250e+02,9.074603271484375000e+01,-6.969536590576171875e+01,4.009669876098632812e+01,-1.377143192291259766e+01,-1.065901718139648438e+02,-1.249122619628906250e+02,6.345262908935546875e+01,-4.061545562744140625e+01
9.432200193405151367e-01,2.000000000000000000e+00,1.088522338867187500e+01,3.247755527496337891e+00,3.385390853881835938e+01,-1.189320602416992188e+02,9.074810791015625000e+01,-6.971869659423828125e+01,4.002462768554687500e+01,-1.376209449768066406e+01,-1.066051864624023438e+02,-1.249668350219726562e+02,6.344833374023437500e+01,-4.064599609375000000e+01
9.469630122184753418e-01,2.000000000000000000e+00,1.091375732421875000e+01,3.201364040374755859e+00,3.384740066528320312e+01,-1.189854202270507812e+02,9.075035095214843750e+01,-6.974290466308593750e+01,3.995201110839843750e+01,-1.375307655334472656e+01,-1.066204071044921875e+02,-1.250210418701171875e+02,6.344388580322265625e+01,-4.067478179931640625e+01
9.520499706268310547e-01,2.000000000000000000e+00,1.094209098815917969e+01,3.154837131500244141e+00,3.384081649780273438e+01,-1.190395736694335938e+02,9.075247955322265625e+01,-6.976705169677734375e+01,3.988004684448242188e+01,-1.374428749084472656e+01,-1.066355285644531250e+02,-1.250758972167968750e+02,6.343965911865234375e+01,-4.070455551147460938e+01
9.557499885559082031e-01,2.000000000000000000e+00,1.097053909301757812e+01,3.108309984207153320e+00,3.383419036865234375e+01,-1.190926666259765625e+02,9.075450897216796875e+01,-6.979145812988281250e+01,3.980858230590820312e+01,-1.373554420471191406e+01,-1.066509246826171875e+02,-1.251301193237304688e+02,6.343550491333007812e+01,-4.073531341552734375e+01
9.599390029907226562e-01,2.000000000000000000e+00,1.099904537200927734e+01,3.062099695205688477e+00,3.382760238647460938e+01,-1.191460266113281250e+02,9.075690460205078125e+01,-6.981635284423828125e+01,3.973744583129882812e+01,-1.372643375396728516e+01,-1.066660385131835938e+02,-1.251836166381835938e+02,6.343149566650390625e+01,-4.076398849487304688e+01
9.640830159187316895e-01,2.000000000000000000e+00,1.102734947204589844e+01,3.015753507614135742e+00,3.382117462158203125e+01,-1.191999588012695312e+02,9.075882720947265625e+01,-6.984062957763671875e+01,3.966521072387695312e+01,-1.371737003326416016e+01,-1.066812744140625000e+02,-1.252376098632812500e+02,6.342749404907226562e+01,-4.079376220703125000e+01
9.681770205497741699e-01,2.000000000000000000e+00,1.105597114562988281e+01,2.969226598739624023e+00,3.381476974487304688e+01,-1.192532730102539062e+02,9.076084899902343750e+01,-6.986422729492187500e+01,3.959248352050781250e+01,-1.370816898345947266e+01,-1.066966629028320312e+02,-1.252923202514648438e+02,6.342326736450195312e+01,-4.082562255859375000e+01
9.710869789123535156e-01,2.000000000000000000e+00,1.108447647094726562e+01,2.922835111618041992e+00,3.380828475952148438e+01,-1.193075180053710938e+02,9.076303863525390625e+01,-6.988769531250000000e+01,3.952002334594726562e+01,-1.369924354553222656e+01,-1.067117309570312500e+02,-1.253466110229492188e+02,6.341918945312500000e+01,-4.085693359375000000e+01
9.753500223159790039e-01,2.000000000000000000e+00,1.111275291442871094e+01,2.876466512680053711e+00,3.380169677734375000e+01,-1.193614654541015625e+02,9.076522064208984375e+01,-6.991136169433593750e+01,3.944866943359375000e+01,-1.369031715393066406e+01,-1.067269058227539062e+02,-1.254008255004882812e+02,6.341481018066406250e+01,-4.088615798950195312e+01
9.799410104751586914e-01,2.000000000000000000e+00,1.114134502410888672e+01,2.830210924148559570e+00,3.379521179199218750e+01,-1.194143447875976562e+02,9.076741027832031250e+01,-6.993523406982421875e+01,3.937726211547851562e+01,-1.368111610412597656e+01,-1.067420730590820312e+02,-1.254551162719726562e+02,6.341087722778320312e+01,-4.091614913940429688e+01
9.839389920234680176e-01,2.000000000000000000e+00,1.116999435424804688e+01,2.783819437026977539e+00,3.378864669799804688e+01,-1.194681243896484375e+02,9.076948547363281250e+01,-6.995938110351562500e+01,3.930508041381835938e+01,-1.367168617248535156e+01,-1.067573089599609375e+02,-1.255093307495117188e+02,6.340694046020507812e+01,-4.094680404663085938e+01
9.879819750785827637e-01,2.000000000000000000e+00,1.119870185852050781e+01,2.737382888793945312e+00,3.378210067749023438e+01,-1.195217971801757812e+02,9.077188873291015625e+01,-6.998365783691406250e+01,3.923218536376953125e+01,-1.366248512268066406e+01,-1.067728042602539062e+02,-1.255640411376953125e+02,6.340250396728515625e+01,-4.097734451293945312e+01
9.911400079727172852e-01,2.000000000000000000e+00,1.122714996337890625e+01,2.690991640090942383e+00,3.377559280395507812e+01,-1.195753707885742188e+02,9.077407836914062500e+01,-7.000854492187500000e+01,3.915967559814453125e+01,-1.365351200103759766e+01,-1.067883071899414062e+02,-1.256176834106445312e+02,6.339820098876953125e+01,-4.100667572021484375e+01
9.951559901237487793e-01,2.000000000000000000e+00,1.125568389892578125e+01,2.644668340682983398e+00,3.376920700073242188e+01,-1.196291503906250000e+02,9.077630615234375000e+01,-7.003289794921875000e+01,3.908848190307617188e+01,-1.364444923400878906e+01,-1.068033676147460938e+02,-1.256711807250976562e+02,6.339441680908203125e+01,-4.103623199462890625e+01
9.991869926452636719e-01,2.000000000000000000e+00,1.128419017791748047e+01,2.598276853561401367e+00,3.376294326782226562e+01,-1.196823043823242188e+02,9.077838897705078125e+01,-7.005601501464843750e+01,3.901740264892578125e+01,-1.363538551330566406e+01,-1.068186035156250000e+02,-1.257262420654296875e+02,6.339040756225585938e+01,-4.106798171997070312e+01
1.004094958305358887e+00,2.000000000000000000e+00,1.131278228759765625e+01,2.551908016204833984e+00,3.375651931762695312e+01,-1.197355499267578125e+02,9.078073883056640625e+01,-7.007941436767578125e+01,3.894549560546875000e+01,-1.362632179260253906e+01,-1.068335571289062500e+02,-1.257807464599609375e+02,6.338610458374023438e+01,-4.109994888305664062e+01
1.007169008255004883e+00,2.000000000000000000e+00,1.134143066406250000e+01,2.505539417266845703e+00,3.374999237060546875e+01,-1.197896499633789062e+02,9.078276062011718750e+01,-7.010328674316406250e+01,3.887254714965820312e+01,-1.361702919006347656e+01,-1.068484649658203125e+02,-1.258343276977539062e+02,6.338137054443359375e+01,-4.112939453125000000e+01
1.011307001113891602e+00,2.000000000000000000e+00,1.136979389190673828e+01,2.459102869033813477e+00,3.374342727661132812e+01,-1.198428573608398438e+02,9.078500366210937500e+01,-7.012736511230468750e+01,3.880020141601562500e+01,-1.360782814025878906e+01,-1.068635787963867188e+02,-1.258892517089843750e+02,6.337699890136718750e+01,-4.115895080566406250e+01
1.015144944190979004e+00,2.000000000000000000e+00,1.139827060699462891e+01,2.412643432617187500e+00,3.373690032958984375e+01,-1.198968429565429688e+02,9.078713226318359375e+01,-7.015184020996093750e+01,3.872890090942382812e+01,-1.359862709045410156e+01,-1.068791885375976562e+02,-1.259438247680664062e+02,6.337284469604492188e+01,-4.119047927856445312e+01
1.019999027252197266e+00,2.000000000000000000e+00,1.142686271667480469e+01,2.366139173507690430e+00,3.373027038574218750e+01,-1.199499969482421875e+02,9.078926849365234375e+01,-7.017639160156250000e+01,3.865765380859375000e+01,-1.358956336975097656e+01,-1.068942489624023438e+02,-1.259976043701171875e+02,6.336898803710937500e+01,-4.122233963012695312e+01
1.023941993713378906e+00,2.000000000000000000e+00,1.145539760589599609e+01,2.319612026214599609e+00,3.372362136840820312e+01,-1.200035018920898438e+02,9.079150390625000000e+01,-7.020066833496093750e+01,3.858563613891601562e+01,-1.358049964904785156e+01,-1.069091033935546875e+02,-1.260519638061523438e+02,6.336454010009765625e+01,-4.125090408325195312e+01
1.028288006782531738e+00,2.000000000000000000e+00,1.148404693603515625e+01,2.273334026336669922e+00,3.371711730957031250e+01,-1.200573883056640625e+02,9.079364013671875000e+01,-7.022467803955078125e+01,3.851307296752929688e+01,-1.357111454010009766e+01,-1.069240570068359375e+02,-1.261059646606445312e+02,6.336016845703125000e+01,-4.127968597412109375e+01
1.032179951667785645e+00,2.000000000000000000e+00,1.151255321502685547e+01,2.227032899856567383e+00,3.371067047119140625e+01,-1.201108016967773438e+02,9.079582214355468750e+01,-7.024820709228515625e+01,3.844111633300781250e+01,-1.356182193756103516e+01,-1.069396133422851562e+02,-1.261600952148437500e+02,6.335645294189453125e+01,-4.130979156494140625e+01
1.035513997077941895e+00,2.000000000000000000e+00,1.154082870483398438e+01,2.180596351623535156e+00,3.370420837402343750e+01,-1.201647338867187500e+02,9.079774475097656250e+01,-7.027147674560546875e+01,3.836975860595703125e+01,-1.355248451232910156e+01,-1.069548950195312500e+02,-1.262143859863281250e+02,6.335251998901367188e+01,-4.134109878540039062e+01
1.039957046508789062e+00,2.000000000000000000e+00,1.156922054290771484e+01,2.134250402450561523e+00,3.369772338867187500e+01,-1.202184219360351562e+02,9.080003356933593750e+01,-7.029541015625000000e+01,3.829884338378906250e+01,-1.354364967346191406e+01,-1.069696884155273438e+02,-1.262685317993164062e+02,6.334880447387695312e+01,-4.137087249755859375e+01
1.044772028923034668e+00,2.000000000000000000e+00,1.159781169891357422e+01,2.087994813919067383e+00,3.369107437133789062e+01,-1.202714080810546875e+02,9.080206298828125000e+01,-7.031982421875000000e+01,3.822698974609375000e+01,-1.353458595275878906e+01,-1.069845428466796875e+02,-1.263228912353515625e+02,6.334435653686523438e+01,-4.140020751953125000e+01
1.047950029373168945e+00,2.000000000000000000e+00,1.162628936767578125e+01,2.041422367095947266e+00,3.368450546264648438e+01,-1.203257064819335938e+02,9.080414581298828125e+01,-7.034403991699218750e+01,3.815453720092773438e+01,-1.352538490295410156e+01,-1.069997634887695312e+02,-1.263776779174804688e+02,6.334027099609375000e+01,-4.143151855468750000e+01
1.052477955818176270e+00,2.000000000000000000e+00,1.165479469299316406e+01,1.994963169097900391e+00,3.367794036865234375e+01,-1.203793411254882812e+02,9.080627441406250000e+01,-7.036885833740234375e+01,3.808224487304687500e+01,-1.351609134674072266e+01,-1.070151062011718750e+02,-1.264317474365234375e+02,6.333648681640625000e+01,-4.146271896362304688e+01
1.056170940399169922e+00,2.000000000000000000e+00,1.168307113647460938e+01,1.948843359947204590e+00,3.367141342163085938e+01,-1.204327926635742188e+02,9.080814361572265625e+01,-7.039360809326171875e+01,3.801105499267578125e+01,-1.350702762603759766e+01,-1.070307083129882812e+02,-1.264854583740234375e+02,6.333277130126953125e+01,-4.149161529541015625e+01
1.059702038764953613e+00,2.000000000000000000e+00,1.171146297454833984e+01,1.902452111244201660e+00,3.366486740112304688e+01,-1.204862594604492188e+02,9.081021881103515625e+01,-7.041761779785156250e+01,3.794002914428710938e+01,-1.349805641174316406e+01,-1.070458908081054688e+02,-1.265401000976562500e+02,6.332825088500976562e+01,-4.152028656005859375e+01
1.063935041427612305e+00,2.000000000000000000e+00,1.174002552032470703e+01,1.856106042861938477e+00,3.365854263305664062e+01,-1.205392456054687500e+02,9.081224822998046875e+01,-7.044080352783203125e+01,3.786768341064453125e+01,-1.348908424377441406e+01,-1.070609588623046875e+02,-1.265935287475585938e+02,6.332409667968750000e+01,-4.154962158203125000e+01
1.069149971008300781e+00,2.000000000000000000e+00,1.176850318908691406e+01,1.809714555740356445e+00,3.365215682983398438e+01,-1.205932464599609375e+02,9.081411743164062500e+01,-7.046474456787109375e+01,3.779506301879882812e+01,-1.347997474670410156e+01,-1.070758514404296875e+02,-1.266477355957031250e+02,6.331980133056640625e+01,-4.157994461059570312e+01
1.072988986968994141e+00,2.000000000000000000e+00,1.179689407348632812e+01,1.763142228126525879e+00,3.364579391479492188e+01,-1.206471786499023438e+02,9.081608581542968750e+01,-7.048889160156250000e+01,3.772261047363281250e+01,-1.347059059143066406e+01,-1.070910873413085938e+02,-1.267021713256835938e+02,6.331549835205078125e+01,-4.161015319824218750e+01
1.076715946197509766e+00,2.000000000000000000e+00,1.182522678375244141e+01,1.716886758804321289e+00,3.363932800292968750e+01,-1.206998519897460938e+02,9.081816101074218750e+01,-7.051310729980468750e+01,3.765158081054687500e+01,-1.346134376525878906e+01,-1.071062622070312500e+02,-1.267562332153320312e+02,6.331149673461914062e+01,-4.164036941528320312e+01
1.080111980438232422e+00,2.000000000000000000e+00,1.185356140136718750e+01,1.670450091361999512e+00,3.363280105590820312e+01,-1.207537994384765625e+02,9.082013702392578125e+01,-7.053758239746093750e+01,3.758060836791992188e+01,-1.345237064361572266e+01,-1.071214294433593750e+02,-1.268104553222656250e+02,6.330712509155273438e+01,-4.167156982421875000e+01
1.083832025527954102e+00,2.000000000000000000e+00,1.188195133209228516e+01,1.623990893363952637e+00,3.362629699707031250e+01,-1.208072662353515625e+02,9.082184600830078125e+01,-7.056240844726562500e+01,3.750848770141601562e+01,-1.344344520568847656e+01,-1.071365509033203125e+02,-1.268649444580078125e+02,6.330260467529296875e+01,-4.170178222656250000e+01
1.088016986846923828e+00,2.000000000000000000e+00,1.191048622131347656e+01,1.577690005302429199e+00,3.361972808837890625e+01,-1.208607177734375000e+02,9.082397460937500000e+01,-7.058702087402343750e+01,3.743553543090820312e+01,-1.343465614318847656e+01,-1.071515655517578125e+02,-1.269186553955078125e+02,6.329823303222656250e+01,-4.173122787475585938e+01
1.092007994651794434e+00,2.000000000000000000e+00,1.193904972076416016e+01,1.531208276748657227e+00,3.361307907104492188e+01,-1.209149246215820312e+02,9.082604980468750000e+01,-7.061028289794921875e+01,3.736308288574218750e+01,-1.342568397521972656e+01,-1.071671752929687500e+02,-1.269734497070312500e+02,6.329386138916015625e+01,-4.176275634765625000e+01
1.095963001251220703e+00,2.000000000000000000e+00,1.196755599975585938e+01,1.484816908836364746e+00,3.360651016235351562e+01,-1.209680709838867188e+02,9.082792663574218750e+01,-7.063394927978515625e+01,3.729199981689453125e+01,-1.341662025451660156e+01,-1.071825027465820312e+02,-1.270278701782226562e+02,6.328985214233398438e+01,-4.179439544677734375e+01
1.100908041000366211e+00,2.000000000000000000e+00,1.199603271484375000e+01,1.438516139984130859e+00,3.360008621215820312e+01,-1.210218048095703125e+02,9.082968139648437500e+01,-7.065809631347656250e+01,3.722086334228515625e+01,-1.340751075744628906e+01,-1.071977920532226562e+02,-1.270815200805664062e+02,6.328606796264648438e+01,-4.182460784912109375e+01
1.104166030883789062e+00,2.000000000000000000e+00,1.202439498901367188e+01,1.392079591751098633e+00,3.359372329711914062e+01,-1.210758438110351562e+02,9.083171081542968750e+01,-7.068176269531250000e+01,3.714857101440429688e+01,-1.339867591857910156e+01,-1.072130813598632812e+02,-1.271355133056640625e+02,6.328184127807617188e+01,-4.185460281372070312e+01
1.108152985572814941e+00,2.000000000000000000e+00,1.205281448364257812e+01,1.345846533775329590e+00,3.358723831176757812e+01,-1.211289978027343750e+02,9.083357238769531250e+01,-7.070618438720703125e+01,3.707590103149414062e+01,-1.338974952697753906e+01,-1.072280273437500000e+02,-1.271901550292968750e+02,6.327710723876953125e+01,-4.188470458984375000e+01
1.112050056457519531e+00,2.000000000000000000e+00,1.208166599273681641e+01,1.299636244773864746e+00,3.358068847656250000e+01,-1.211828308105468750e+02,9.083544158935546875e+01,-7.073113250732421875e+01,3.700393676757812500e+01,-1.338077735900878906e+01,-1.072432022094726562e+02,-1.272442245483398438e+02,6.327288055419921875e+01,-4.191535568237304688e+01
1.116106986999511719e+00,2.000000000000000000e+00,1.211028575897216797e+01,1.253177046775817871e+00,3.357403945922851562e+01,-1.212365570068359375e+02,9.083730316162109375e+01,-7.075568389892578125e+01,3.693291091918945312e+01,-1.337139320373535156e+01,-1.072583312988281250e+02,-1.272991714477539062e+02,6.326880264282226562e+01,-4.194480133056640625e+01
