rpiRobotics/ARM-21-02-F-19-Robot-Motion-Program/data_performance_abb/curve_2/baseline/0.1/curve_exe_v205.078125_z10.csv
timestamp, cmd_num, J1, J2, J3, J4, J5, J6
0, -1, 40.1443, 19.6879, 17.1579, 10.788, 99.4848, -59.0429
0.003, -1, 40.1443, 19.6879, 17.1579, 10.788, 99.4848, -59.0429
0.006, -1, 40.1443, 19.6879, 17.1579, 10.788, 99.4848, -59.0429
0.008, -1, 40.1443, 19.6879, 17.1579, 10.788, 99.4848, -59.0429
0.011, -1, 40.1443, 19.6879, 17.1579, 10.788, 99.4848, -59.0429
0.016, -1, 40.1443, 19.6879, 17.1579, 10.788, 99.4848, -59.0429
0.02, -1, 40.1443, 19.6879, 17.1579, 10.788, 99.4848, -59.0429
0.024, -1, 40.1443, 19.6879, 17.1579, 10.788, 99.4848, -59.0429
0.028, -1, 40.1443, 19.6879, 17.1579, 10.788, 99.4848, -59.0429
0.032, -1, 40.1443, 19.6879, 17.1579, 10.788, 99.4848, -59.0429
0.036, -1, 40.1442, 19.6878, 17.1579, 10.788, 99.4848, -59.043
0.04, -1, 40.1439, 19.6878, 17.1579, 10.788, 99.4848, -59.043
0.044, -1, 40.1433, 19.6877, 17.1578, 10.788, 99.4848, -59.043
0.048, -1, 40.1421, 19.6875, 17.1577, 10.788, 99.4847, -59.0431
0.052, -1, 40.1401, 19.6871, 17.1575, 10.788, 99.4847, -59.0432
0.056, -1, 40.1372, 19.6864, 17.1573, 10.7879, 99.4846, -59.0436
0.06, -1, 40.1334, 19.6855, 17.1569, 10.7879, 99.4844, -59.0444
0.064, -1, 40.1285, 19.6843, 17.1566, 10.7879, 99.4841, -59.0456
0.068, -1, 40.1224, 19.6826, 17.1562, 10.7879, 99.4835, -59.0477
0.072, -1, 40.1149, 19.6804, 17.1557, 10.788, 99.4826, -59.0508
0.076, -1, 40.1057, 19.6775, 17.1554, 10.788, 99.4813, -59.0554
0.08, -1, 40.0944, 19.6739, 17.1551, 10.7882, 99.4795, -59.0618
0.084, -1, 40.0808, 19.6694, 17.155, 10.7884, 99.4769, -59.0705
0.088, -1, 40.0644, 19.664, 17.1551, 10.7887, 99.4736, -59.082
0.092, -1, 40.0452, 19.6575, 17.1556, 10.7891, 99.4692, -59.097
0.096, -1, 40.0229, 19.6498, 17.1566, 10.7896, 99.4636, -59.1158
0.1, -1, 39.9974, 19.6409, 17.1581, 10.7903, 99.4567, -59.1392
0.104, -1, 39.9684, 19.6307, 17.1604, 10.7912, 99.4483, -59.1677
0.108, -1, 39.9357, 19.6191, 17.1634, 10.7923, 99.4382, -59.2017
0.112, -1, 39.8991, 19.606, 17.1673, 10.7937, 99.4263, -59.2416
0.116, -1, 39.8586, 19.5914, 17.1721, 10.7952, 99.4125, -59.288
0.12, -1, 39.8141, 19.5752, 17.178, 10.7971, 99.3967, -59.3409
0.124, -1, 39.7657, 19.5575, 17.1849, 10.7992, 99.3789, -59.4005
0.128, -1, 39.7136, 19.5383, 17.1928, 10.8015, 99.359, -59.467
0.131, -1, 39.6577, 19.5177, 17.2019, 10.8042, 99.3372, -59.5401
0.136, -1, 39.5981, 19.4956, 17.2119, 10.807, 99.3133, -59.6196
0.139, -1, 39.5348, 19.4721, 17.2228, 10.8102, 99.2877, -59.7052
0.144, -1, 39.4678, 19.4472, 17.2346, 10.8135, 99.2604, -59.7964
0.148, -1, 39.3972, 19.421, 17.247, 10.817, 99.2315, -59.8927
0.152, -1, 39.3232, 19.3935, 17.26, 10.8207, 99.2013, -59.9935
0.156, -1, 39.2463, 19.3649, 17.2734, 10.8245, 99.1699, -60.0983
0.16, -1, 39.1667, 19.3353, 17.2871, 10.8284, 99.1375, -60.2064
0.164, -1, 39.0847, 19.3048, 17.3012, 10.8324, 99.1043, -60.3173
0.168, -1, 39.0005, 19.2734, 17.3153, 10.8365, 99.0704, -60.4305
0.172, -1, 38.9142, 19.2413, 17.3295, 10.8407, 99.036, -60.5453
0.176, -1, 38.826, 19.2086, 17.3437, 10.8449, 99.0012, -60.6615
0.18, -1, 38.736, 19.1753, 17.3579, 10.849, 98.9662, -60.7787
0.184, -1, 38.6444, 19.1415, 17.3719, 10.8532, 98.9309, -60.8965
0.188, -1, 38.5514, 19.1073, 17.3859, 10.8574, 98.8956, -61.0148
0.192, -1, 38.4574, 19.073, 17.3998, 10.8616, 98.8601, -61.1334
0.196, -1, 38.3626, 19.0384, 17.4137, 10.8658, 98.8246, -61.2522
0.2, -1, 38.2674, 19.0037, 17.4275, 10.87, 98.789, -61.3712
0.204, -1, 38.1719, 18.9689, 17.4413, 10.8742, 98.7534, -61.4902
0.208, -1, 38.0761, 18.9341, 17.4551, 10.8784, 98.7178, -61.6093
0.212, -1, 37.9802, 18.8992, 17.4689, 10.8826, 98.6822, -61.7285
0.216, -1, 37.8842, 18.8643, 17.4827, 10.8868, 98.6466, -61.8477
0.22, -1, 37.7881, 18.8294, 17.4964, 10.891, 98.611, -61.9669
0.224, -1, 37.6919, 18.7945, 17.5102, 10.8952, 98.5753, -62.0861
0.228, -1, 37.5958, 18.7596, 17.524, 10.8994, 98.5397, -62.2053
0.232, -1, 37.4996, 18.7247, 17.5378, 10.9036, 98.5041, -62.3245
0.236, -1, 37.4034, 18.6897, 17.5515, 10.9078, 98.4684, -62.4438
0.24, -1, 37.3072, 18.6548, 17.5653, 10.912, 98.4328, -62.563
0.244, -1, 37.211, 18.6199, 17.579, 10.9162, 98.3971, -62.6822
0.248, -1, 37.1148, 18.5849, 17.5928, 10.9205, 98.3615, -62.8014
0.252, -1, 37.0186, 18.55, 17.6066, 10.9247, 98.3259, -62.9207
0.256, -1, 36.9224, 18.5151, 17.6203, 10.9289, 98.2902, -63.0399
0.26, -1, 36.8262, 18.4801, 17.6341, 10.9331, 98.2546, -63.1591
0.264, -1, 36.73, 18.4452, 17.6479, 10.9373, 98.219, -63.2783
0.268, -1, 36.6338, 18.4103, 17.6616, 10.9415, 98.1834, -63.3975
0.272, -1, 36.5376, 18.3753, 17.6754, 10.9457, 98.1477, -63.5167
0.276, -1, 36.4414, 18.3404, 17.6892, 10.9499, 98.1121, -63.6359
0.28, -1, 36.3452, 18.3055, 17.7029, 10.9541, 98.0765, -63.7551
0.284, -1, 36.249, 18.2705, 17.7167, 10.9583, 98.0409, -63.8743
0.288, -1, 36.1528, 18.2356, 17.7304, 10.9625, 98.0052, -63.9935
0.292, -1, 36.0566, 18.2007, 17.7442, 10.9667, 97.9696, -64.1127
0.296, -1, 35.9605, 18.1658, 17.758, 10.9709, 97.934, -64.2319
0.3, -1, 35.8643, 18.1309, 17.7717, 10.975, 97.8984, -64.351
0.304, -1, 35.7681, 18.0959, 17.7855, 10.9792, 97.8627, -64.4702
0.308, -1, 35.6719, 18.061, 17.7992, 10.9834, 97.8271, -64.5894
0.312, -1, 35.5758, 18.0261, 17.813, 10.9876, 97.7915, -64.7085
0.316, -1, 35.4796, 17.9912, 17.8267, 10.9918, 97.7559, -64.8277
0.32, -1, 35.3834, 17.9563, 17.8405, 10.996, 97.7203, -64.9469
0.324, -1, 35.2873, 17.9213, 17.8543, 11.0002, 97.6847, -65.066
0.328, -1, 35.1911, 17.8864, 17.868, 11.0044, 97.6491, -65.1852
0.332, -1, 35.095, 17.8515, 17.8818, 11.0086, 97.6134, -65.3043
0.336, -1, 34.9988, 17.8166, 17.8955, 11.0128, 97.5778, -65.4234
0.34, -1, 34.9027, 17.7817, 17.9093, 11.017, 97.5422, -65.5426
0.344, -1, 34.8066, 17.7468, 17.923, 11.0212, 97.5066, -65.6617
0.348, -1, 34.7104, 17.7119, 17.9368, 11.0254, 97.471, -65.7808
0.352, -1, 34.6143, 17.677, 17.9505, 11.0296, 97.4354, -65.8999
0.356, -1, 34.5182, 17.6421, 17.9643, 11.0338, 97.3998, -66.0191
0.36, -1, 34.4221, 17.6072, 17.978, 11.038, 97.3642, -66.1382
0.364, -1, 34.3259, 17.5723, 17.9918, 11.0422, 97.3286, -66.2573
0.368, -1, 34.2298, 17.5374, 18.0055, 11.0464, 97.293, -66.3764
0.372, -1, 34.1337, 17.5025, 18.0193, 11.0506, 97.2574, -66.4955
0.376, -1, 34.0376, 17.4676, 18.033, 11.0548, 97.2218, -66.6145
0.38, -1, 33.9415, 17.4327, 18.0468, 11.059, 97.1862, -66.7336
0.384, -1, 33.8454, 17.3978, 18.0605, 11.0632, 97.1507, -66.8527
0.388, -1, 33.7493, 17.3629, 18.0743, 11.0674, 97.1151, -66.9718
0.392, -1, 33.6532, 17.328, 18.088, 11.0716, 97.0795, -67.0908
0.396, -1, 33.5572, 17.2931, 18.1018, 11.0758, 97.0439, -67.2099
0.4, -1, 33.4611, 17.2582, 18.1155, 11.08, 97.0083, -67.329
0.404, -1, 33.365, 17.2234, 18.1293, 11.0842, 96.9727, -67.448
0.408, -1, 33.2689, 17.1885, 18.143, 11.0884, 96.9371, -67.5671
0.412, -1, 33.1729, 17.1536, 18.1567, 11.0926, 96.9016, -67.6861
0.416, -1, 33.0768, 17.1187, 18.1705, 11.0968, 96.866, -67.8051
0.42, -1, 32.9808, 17.0838, 18.1842, 11.1009, 96.8304, -67.9241
0.424, -1, 32.8847, 17.049, 18.198, 11.1051, 96.7948, -68.0432
0.428, -1, 32.7887, 17.0141, 18.2117, 11.1093, 96.7593, -68.1622
0.432, -1, 32.6926, 16.9792, 18.2254, 11.1135, 96.7237, -68.2812
0.436, -1, 32.5966, 16.9443, 18.2392, 11.1177, 96.6881, -68.4002
0.44, -1, 32.5006, 16.9095, 18.2529, 11.1219, 96.6526, -68.5192
0.444, -1, 32.4045, 16.8746, 18.2667, 11.1261, 96.617, -68.6382
0.448, -1, 32.3085, 16.8397, 18.2804, 11.1303, 96.5814, -68.7572
0.452, -1, 32.2125, 16.8049, 18.2941, 11.1345, 96.5459, -68.8761
0.456, -1, 32.1165, 16.77, 18.3079, 11.1387, 96.5103, -68.9951
0.46, -1, 32.0205, 16.7352, 18.3216, 11.1429, 96.4748, -69.1141
0.464, -1, 31.9245, 16.7003, 18.3353, 11.1471, 96.4392, -69.233
0.468, -1, 31.8285, 16.6654, 18.3491, 11.1513, 96.4037, -69.352
0.472, -1, 31.7325, 16.6306, 18.3628, 11.1554, 96.3681, -69.4709
0.476, -1, 31.6365, 16.5957, 18.3765, 11.1596, 96.3326, -69.5899
0.48, -1, 31.5405, 16.5609, 18.3903, 11.1638, 96.297, -69.7088
0.484, -1, 31.4446, 16.526, 18.404, 11.168, 96.2615, -69.8277
0.488, -1, 31.3486, 16.4912, 18.4177, 11.1722, 96.2259, -69.9466
0.492, -1, 31.2526, 16.4563, 18.4314, 11.1764, 96.1904, -70.0656
0.496, -1, 31.1567, 16.4215, 18.4452, 11.1806, 96.1548, -70.1845
0.5, -1, 31.0607, 16.3867, 18.4589, 11.1848, 96.1193, -70.3034
0.504, -1, 30.9648, 16.3518, 18.4726, 11.189, 96.0838, -70.4223
0.508, -1, 30.8688, 16.317, 18.4863, 11.1932, 96.0482, -70.5412
0.512, -1, 30.7729, 16.2822, 18.5001, 11.1973, 96.0127, -70.66
0.516, -1, 30.6769, 16.2473, 18.5138, 11.2015, 95.9772, -70.7789
0.52, -1, 30.581, 16.2125, 18.5275, 11.2057, 95.9416, -70.8978
0.524, -1, 30.4851, 16.1777, 18.5412, 11.2099, 95.9061, -71.0166
0.528, -1, 30.3892, 16.1428, 18.555, 11.2141, 95.8706, -71.1355
0.532, -1, 30.2933, 16.108, 18.5687, 11.2183, 95.8351, -71.2543
0.536, -1, 30.1974, 16.0732, 18.5824, 11.2225, 95.7996, -71.3732
0.54, -1, 30.1015, 16.0384, 18.5961, 11.2267, 95.764, -71.492
0.544, -1, 30.0056, 16.0036, 18.6098, 11.2308, 95.7285, -71.6108
0.548, -1, 29.9097, 15.9687, 18.6236, 11.235, 95.693, -71.7296
0.552, -1, 29.8138, 15.9339, 18.6373, 11.2392, 95.6575, -71.8484
0.556, -1, 29.718, 15.8991, 18.651, 11.2434, 95.622, -71.9672
0.56, -1, 29.6221, 15.8643, 18.6647, 11.2476, 95.5865, -72.086
0.564, -1, 29.5262, 15.8295, 18.6784, 11.2518, 95.551, -72.2048
0.568, -1, 29.4304, 15.7947, 18.6921, 11.256, 95.5155, -72.3236
0.572, -1, 29.3345, 15.7599, 18.7058, 11.2601, 95.48, -72.4424
0.576, -1, 29.2387, 15.7251, 18.7196, 11.2643, 95.4445, -72.5611
0.58, -1, 29.1429, 15.6903, 18.7333, 11.2685, 95.409, -72.6799
0.584, -1, 29.047, 15.6555, 18.747, 11.2727, 95.3735, -72.7986
0.588, -1, 28.9512, 15.6207, 18.7607, 11.2769, 95.338, -72.9174
0.592, -1, 28.8554, 15.5859, 18.7744, 11.2811, 95.3025, -73.0361
0.596, -1, 28.7596, 15.5511, 18.7881, 11.2852, 95.267, -73.1548
0.6, -1, 28.6638, 15.5163, 18.8018, 11.2894, 95.2316, -73.2735
0.604, -1, 28.568, 15.4816, 18.8155, 11.2936, 95.1961, -73.3922
0.608, -1, 28.4722, 15.4468, 18.8292, 11.2978, 95.1606, -73.5109
0.612, -1, 28.3764, 15.412, 18.8429, 11.302, 95.1251, -73.6296
0.616, -1, 28.2806, 15.3772, 18.8566, 11.3062, 95.0897, -73.7483
0.62, -1, 28.1849, 15.3424, 18.8703, 11.3103, 95.0542, -73.867
0.624, -1, 28.0891, 15.3077, 18.884, 11.3145, 95.0187, -73.9856
0.628, -1, 27.9933, 15.2729, 18.8977, 11.3187, 94.9833, -74.1043
0.632, -1, 27.8976, 15.2381, 18.9114, 11.3229, 94.9478, -74.2229
0.636, -1, 27.8019, 15.2034, 18.9251, 11.3271, 94.9124, -74.3416
0.64, -1, 27.7061, 15.1686, 18.9388, 11.3312, 94.8769, -74.4602
0.644, -1, 27.6104, 15.1339, 18.9525, 11.3354, 94.8414, -74.5788
0.648, -1, 27.5147, 15.0991, 18.9662, 11.3396, 94.806, -74.6974
0.652, -1, 27.419, 15.0644, 18.9799, 11.3438, 94.7705, -74.816
0.656, -1, 27.3233, 15.0296, 18.9936, 11.348, 94.7351, -74.9346
0.66, -1, 27.2276, 14.9949, 19.0073, 11.3521, 94.6997, -75.0532
0.664, -1, 27.1319, 14.9601, 19.0209, 11.3563, 94.6642, -75.1718
0.668, -1, 27.0362, 14.9254, 19.0346, 11.3605, 94.6288, -75.2903
0.672, -1, 26.9405, 14.8906, 19.0483, 11.3647, 94.5933, -75.4089
0.676, -1, 26.8449, 14.8559, 19.062, 11.3688, 94.5579, -75.5274
0.68, -1, 26.7492, 14.8212, 19.0757, 11.373, 94.5225, -75.646
0.684, -1, 26.6535, 14.7864, 19.0894, 11.3772, 94.4871, -75.7645
0.688, -1, 26.5579, 14.7517, 19.1031, 11.3814, 94.4516, -75.883
0.692, -1, 26.4623, 14.717, 19.1167, 11.3856, 94.4162, -76.0015
0.696, -1, 26.3666, 14.6823, 19.1304, 11.3897, 94.3808, -76.12
0.7, -1, 26.271, 14.6475, 19.1441, 11.3939, 94.3454, -76.2385
0.704, -1, 26.1754, 14.6128, 19.1578, 11.3981, 94.31, -76.357
0.708, -1, 26.0798, 14.5781, 19.1714, 11.4023, 94.2746, -76.4755
0.712, -1, 25.9842, 14.5434, 19.1851, 11.4064, 94.2392, -76.5939
0.716, -1, 25.8886, 14.5087, 19.1988, 11.4106, 94.2038, -76.7124
0.72, -1, 25.793, 14.474, 19.2125, 11.4148, 94.1684, -76.8308
0.724, -1, 25.6975, 14.4393, 19.2261, 11.4189, 94.133, -76.9492
0.728, -1, 25.6019, 14.4046, 19.2398, 11.4231, 94.0976, -77.0676
0.732, -1, 25.5063, 14.3699, 19.2535, 11.4273, 94.0622, -77.1861
0.736, -1, 25.4108, 14.3352, 19.2672, 11.4315, 94.0268, -77.3045
0.74, -1, 25.3152, 14.3005, 19.2808, 11.4356, 93.9914, -77.4228
0.744, -1, 25.2197, 14.2658, 19.2945, 11.4398, 93.956, -77.5412
0.748, -1, 25.1242, 14.2311, 19.3082, 11.444, 93.9206, -77.6596
0.752, -1, 25.0287, 14.1964, 19.3218, 11.4481, 93.8853, -77.7779
0.756, -1, 24.9331, 14.1618, 19.3355, 11.4523, 93.8499, -77.8963
0.76, -1, 24.8376, 14.1271, 19.3491, 11.4565, 93.8145, -78.0146
0.764, -1, 24.7422, 14.0924, 19.3628, 11.4607, 93.7792, -78.133
0.768, -1, 24.6467, 14.0577, 19.3765, 11.4648, 93.7438, -78.2513
0.772, -1, 24.5512, 14.0231, 19.3901, 11.469, 93.7084, -78.3696
0.776, -1, 24.4557, 13.9884, 19.4038, 11.4732, 93.6731, -78.4879
0.78, -1, 24.3603, 13.9537, 19.4174, 11.4773, 93.6377, -78.6062
0.784, -1, 24.2648, 13.9191, 19.4311, 11.4815, 93.6024, -78.7245
0.788, -1, 24.1694, 13.8844, 19.4447, 11.4857, 93.567, -78.8427
0.792, -1, 24.0739, 13.8498, 19.4584, 11.4898, 93.5317, -78.961
0.796, -1, 23.9785, 13.8151, 19.472, 11.494, 93.4963, -79.0792
0.8, -1, 23.8831, 13.7805, 19.4857, 11.4982, 93.461, -79.1975
0.804, -1, 23.7877, 13.7458, 19.4993, 11.5023, 93.4257, -79.3157
0.808, -1, 23.6923, 13.7112, 19.513, 11.5065, 93.3903, -79.4339
0.812, -1, 23.5969, 13.6766, 19.5266, 11.5107, 93.355, -79.5521
0.816, -1, 23.5015, 13.6419, 19.5403, 11.5148, 93.3197, -79.6703
0.82, -1, 23.4061, 13.6073, 19.5539, 11.519, 93.2843, -79.7885
0.824, -1, 23.3108, 13.5727, 19.5676, 11.5231, 93.249, -79.9067
0.828, -1, 23.2154, 13.538, 19.5812, 11.5273, 93.2137, -80.0248
0.832, -1, 23.12, 13.5034, 19.5949, 11.5315, 93.1784, -80.143
0.836, -1, 23.0247, 13.4688, 19.6085, 11.5356, 93.1431, -80.2611
0.84, -1, 22.9294, 13.4342, 19.6221, 11.5398, 93.1078, -80.3792
0.844, -1, 22.8341, 13.3996, 19.6358, 11.544, 93.0725, -80.4974
0.848, -1, 22.7387, 13.365, 19.6494, 11.5481, 93.0372, -80.6155
0.852, -1, 22.6434, 13.3304, 19.663, 11.5523, 93.0019, -80.7336
0.856, -1, 22.5481, 13.2958, 19.6767, 11.5564, 92.9666, -80.8517
0.86, -1, 22.4529, 13.2612, 19.6903, 11.5606, 92.9313, -80.9697
0.864, -1, 22.3576, 13.2266, 19.7039, 11.5648, 92.896, -81.0878
0.868, -1, 22.2623, 13.192, 19.7176, 11.5689, 92.8607, -81.2058
0.872, -1, 22.167, 13.1574, 19.7312, 11.5731, 92.8254, -81.3239
0.876, -1, 22.0718, 13.1228, 19.7448, 11.5772, 92.7902, -81.4419
0.88, -1, 21.9766, 13.0882, 19.7584, 11.5814, 92.7549, -81.5599
0.884, -1, 21.8813, 13.0537, 19.7721, 11.5856, 92.7196, -81.6779
0.888, -1, 21.7861, 13.0191, 19.7857, 11.5897, 92.6844, -81.7959
0.892, -1, 21.6909, 12.9845, 19.7993, 11.5939, 92.6491, -81.9139
0.896, -1, 21.5957, 12.9499, 19.8129, 11.598, 92.6138, -82.0319
0.9, -1, 21.5005, 12.9154, 19.8265, 11.6022, 92.5786, -82.1498
0.904, -1, 21.4053, 12.8808, 19.8402, 11.6063, 92.5433, -82.2678
0.908, -1, 21.3101, 12.8463, 19.8538, 11.6105, 92.5081, -82.3857
0.912, -1, 21.215, 12.8117, 19.8674, 11.6147, 92.4728, -82.5036
0.916, -1, 21.1198, 12.7771, 19.881, 11.6188, 92.4376, -82.6216
0.92, -1, 21.0247, 12.7426, 19.8946, 11.623, 92.4024, -82.7394
0.924, -1, 20.9295, 12.7081, 19.9082, 11.6271, 92.3671, -82.8573
0.928, -1, 20.8344, 12.6735, 19.9218, 11.6313, 92.3319, -82.9752
0.932, -1, 20.7393, 12.639, 19.9354, 11.6354, 92.2967, -83.0931
0.936, -1, 20.6442, 12.6044, 19.949, 11.6396, 92.2614, -83.2109
0.94, -1, 20.5491, 12.5699, 19.9626, 11.6437, 92.2262, -83.3288
0.944, -1, 20.454, 12.5354, 19.9762, 11.6479, 92.191, -83.4466
0.948, -1, 20.3589, 12.5009, 19.9898, 11.652, 92.1558, -83.5644
0.952, -1, 20.2639, 12.4664, 20.0034, 11.6562, 92.1206, -83.6822
0.956, -1, 20.1688, 12.4318, 20.017, 11.6603, 92.0854, -83.8
0.96, -1, 20.0737, 12.3973, 20.0306, 11.6645, 92.0502, -83.9178
0.964, -1, 19.9787, 12.3628, 20.0442, 11.6686, 92.015, -84.0355
0.968, -1, 19.8837, 12.3283, 20.0578, 11.6728, 91.9798, -84.1533
0.972, -1, 19.7887, 12.2938, 20.0714, 11.6769, 91.9446, -84.271
0.976, -1, 19.6937, 12.2593, 20.085, 11.6811, 91.9094, -84.3887
0.98, -1, 19.5987, 12.2248, 20.0986, 11.6852, 91.8742, -84.5065
0.984, -1, 19.5037, 12.1903, 20.1122, 11.6894, 91.8391, -84.6242
0.988, -1, 19.4087, 12.1559, 20.1258, 11.6935, 91.8039, -84.7418
0.992, -1, 19.3137, 12.1214, 20.1394, 11.6977, 91.7687, -84.8595
0.996, -1, 19.2188, 12.0869, 20.1529, 11.7018, 91.7335, -84.9772
1, -1, 19.1238, 12.0524, 20.1665, 11.706, 91.6984, -85.0948
1.004, -1, 19.0289, 12.018, 20.1801, 11.7101, 91.6632, -85.2125
1.008, -1, 18.934, 11.9835, 20.1937, 11.7142, 91.6281, -85.3301
1.012, -1, 18.8391, 11.949, 20.2073, 11.7184, 91.5929, -85.4477
1.016, -1, 18.7442, 11.9146, 20.2208, 11.7225, 91.5578, -85.5653
1.02, -1, 18.6493, 11.8801, 20.2344, 11.7267, 91.5226, -85.6829
1.024, -1, 18.5544, 11.8457, 20.248, 11.7308, 91.4875, -85.8004
1.027, -1, 18.4595, 11.8112, 20.2616, 11.735, 91.4523, -85.918
1.032, -1, 18.3647, 11.7768, 20.2751, 11.7391, 91.4172, -86.0355
1.036, -1, 18.2698, 11.7423, 20.2887, 11.7432, 91.3821, -86.1531
1.04, -1, 18.175, 11.7079, 20.3023, 11.7474, 91.347, -86.2706
1.044, -1, 18.0802, 11.6735, 20.3158, 11.7515, 91.3118, -86.3881
1.048, -1, 17.9854, 11.639, 20.3294, 11.7557, 91.2767, -86.5056
1.052, -1, 17.8906, 11.6046, 20.343, 11.7598, 91.2416, -86.623
1.055, -1, 17.7958, 11.5702, 20.3565, 11.7639, 91.2065, -86.7405
1.06, -1, 17.701, 11.5358, 20.3701, 11.7681, 91.1714, -86.8579
1.064, -1, 17.6062, 11.5014, 20.3836, 11.7722, 91.1363, -86.9754
1.068, -1, 17.5115, 11.467, 20.3972, 11.7763, 91.1012, -87.0928
1.072, -1, 17.4167, 11.4326, 20.4107, 11.7805, 91.0661, -87.2102
1.076, -1, 17.322, 11.3982, 20.4243, 11.7846, 91.031, -87.3276
1.08, -1, 17.2272, 11.3638, 20.4378, 11.7888, 90.9959, -87.445
1.084, -1, 17.1325, 11.3294, 20.4514, 11.7929, 90.9609, -87.5623
1.088, -1, 17.0378, 11.295, 20.4649, 11.797, 90.9258, -87.6797
1.091, -1, 16.9431, 11.2606, 20.4785, 11.8012, 90.8907, -87.797
1.096, -1, 16.8485, 11.2262, 20.492, 11.8053, 90.8557, -87.9143
1.1, -1, 16.7538, 11.1919, 20.5056, 11.8094, 90.8206, -88.0316
1.104, -1, 16.6591, 11.1575, 20.5191, 11.8136, 90.7856, -88.1489
1.108, -1, 16.5645, 11.1231, 20.5326, 11.8177, 90.7505, -88.2662
1.112, -1, 16.4698, 11.0888, 20.5462, 11.8218, 90.7154, -88.3835
1.116, -1, 16.3752, 11.0544, 20.5597, 11.826, 90.6804, -88.5007
1.119, -1, 16.2806, 11.0201, 20.5733, 11.8301, 90.6454, -88.618
1.124, -1, 16.186, 10.9857, 20.5868, 11.8342, 90.6103, -88.7352
1.128, -1, 16.0914, 10.9514, 20.6003, 11.8383, 90.5753, -88.8524
1.132, -1, 15.9968, 10.917, 20.6139, 11.8425, 90.5403, -88.9696
1.136, -1, 15.9023, 10.8827, 20.6274, 11.8466, 90.5052, -89.0868
1.14, -1, 15.8077, 10.8484, 20.6409, 11.8507, 90.4702, -89.2039
1.144, -1, 15.7132, 10.814, 20.6544, 11.8549, 90.4352, -89.3211
1.147, -1, 15.6186, 10.7797, 20.668, 11.859, 90.4002, -89.4382
1.152, -1, 15.5241, 10.7454, 20.6815, 11.8631, 90.3652, -89.5553
1.156, -1, 15.4296, 10.7111, 20.695, 11.8672, 90.3302, -89.6724
1.16, -1, 15.3351, 10.6768, 20.7085, 11.8714, 90.2952, -89.7895
1.164, -1, 15.2406, 10.6425, 20.722, 11.8755, 90.2602, -89.9066
1.168, -1, 15.1462, 10.6082, 20.7355, 11.8796, 90.2252, -90.0237
1.172, -1, 15.0517, 10.5739, 20.7491, 11.8837, 90.1902, -90.1407
1.175, -1, 14.9572, 10.5396, 20.7626, 11.8879, 90.1553, -90.2578
1.18, -1, 14.8628, 10.5053, 20.7761, 11.892, 90.1203, -90.3748
1.184, -1, 14.7684, 10.471, 20.7896, 11.8961, 90.0853, -90.4918
1.188, -1, 14.674, 10.4367, 20.8031, 11.9002, 90.0503, -90.6088
1.192, -1, 14.5796, 10.4024, 20.8166, 11.9044, 90.0154, -90.7258
1.196, -1, 14.4852, 10.3682, 20.8301, 11.9085, 89.9804, -90.8427
1.2, -1, 14.3908, 10.3339, 20.8436, 11.9126, 89.9455, -90.9597
1.204, -1, 14.2964, 10.2996, 20.8571, 11.9167, 89.9105, -91.0766
1.208, -1, 14.2021, 10.2654, 20.8706, 11.9208, 89.8756, -91.1935
1.212, -1, 14.1077, 10.2311, 20.8841, 11.925, 89.8406, -91.3104
1.216, -1, 14.0134, 10.1969, 20.8976, 11.9291, 89.8057, -91.4273
1.22, -1, 13.9191, 10.1626, 20.9111, 11.9332, 89.7708, -91.5442
1.224, -1, 13.8248, 10.1284, 20.9246, 11.9373, 89.7358, -91.6611
1.228, -1, 13.7305, 10.0941, 20.9381, 11.9414, 89.7009, -91.7779
1.232, -1, 13.6362, 10.0599, 20.9515, 11.9455, 89.666, -91.8947
1.236, -1, 13.5419, 10.0257, 20.965, 11.9497, 89.6311, -92.0116
1.24, -1, 13.4476, 9.99144, 20.9785, 11.9538, 89.5962, -92.1284
1.244, -1, 13.3534, 9.95722, 20.992, 11.9579, 89.5612, -92.2451
1.248, -1, 13.2592, 9.92301, 21.0055, 11.962, 89.5264, -92.3619
1.252, -1, 13.1649, 9.88879, 21.019, 11.9661, 89.4914, -92.4787
1.256, -1, 13.0707, 9.85459, 21.0324, 11.9702, 89.4566, -92.5954
1.26, -1, 12.9765, 9.82038, 21.0459, 11.9743, 89.4217, -92.7121
1.264, -1, 12.8823, 9.78618, 21.0594, 11.9785, 89.3868, -92.8289
1.267, -1, 12.7881, 9.75199, 21.0729, 11.9826, 89.3519, -92.9455
1.272, -1, 12.694, 9.7178, 21.0863, 11.9867, 89.317, -93.0622
1.276, -1, 12.5998, 9.68361, 21.0998, 11.9908, 89.2822, -93.1789
1.28, -1, 12.5057, 9.64943, 21.1133, 11.9949, 89.2473, -93.2955
1.284, -1, 12.4116, 9.61526, 21.1267, 11.999, 89.2124, -93.4122
1.288, -1, 12.3175, 9.58109, 21.1402, 12.0031, 89.1776, -93.5288
1.292, -1, 12.2234, 9.54692, 21.1537, 12.0072, 89.1427, -93.6454
1.295, -1, 12.1293, 9.51275, 21.1671, 12.0113, 89.1079, -93.762
1.3, -1, 12.0352, 9.4786, 21.1806, 12.0154, 89.073, -93.8786
1.304, -1, 11.9411, 9.44444, 21.194, 12.0195, 89.0382, -93.9951
1.308, -1, 11.8471, 9.41029, 21.2075, 12.0237, 89.0034, -94.1117
1.312, -1, 11.753, 9.37615, 21.2209, 12.0278, 88.9685, -94.2282
1.316, -1, 11.659, 9.34201, 21.2344, 12.0319, 88.9337, -94.3447
1.32, -1, 11.565, 9.30787, 21.2478, 12.036, 88.8989, -94.4612
1.324, -1, 11.471, 9.27374, 21.2613, 12.0401, 88.8641, -94.5777
1.328, -1, 11.377, 9.23962, 21.2747, 12.0442, 88.8293, -94.6941
1.332, -1, 11.283, 9.20549, 21.2882, 12.0483, 88.7945, -94.8106
1.336, -1, 11.1891, 9.17138, 21.3016, 12.0524, 88.7597, -94.927
1.34, -1, 11.0951, 9.13727, 21.3151, 12.0565, 88.7249, -95.0434
1.344, -1, 11.0012, 9.10316, 21.3285, 12.0606, 88.6901, -95.1598
1.348, -1, 10.9073, 9.06906, 21.3419, 12.0647, 88.6553, -95.2762
1.352, -1, 10.8133, 9.03496, 21.3554, 12.0688, 88.6205, -95.3926
1.356, -1, 10.7194, 9.00086, 21.3688, 12.0729, 88.5858, -95.5089
1.36, -1, 10.6256, 8.96677, 21.3822, 12.077, 88.551, -95.6253
1.364, -1, 10.5317, 8.93269, 21.3957, 12.0811, 88.5162, -95.7416
1.368, -1, 10.4378, 8.89861, 21.4091, 12.0852, 88.4815, -95.8579
1.372, -1, 10.344, 8.86454, 21.4225, 12.0893, 88.4467, -95.9742
1.376, -1, 10.2501, 8.83047, 21.4359, 12.0934, 88.4119, -96.0904
1.38, -1, 10.1563, 8.7964, 21.4493, 12.0975, 88.3772, -96.2067
1.384, -1, 10.0625, 8.76234, 21.4628, 12.1016, 88.3425, -96.3229
1.388, -1, 9.96873, 8.72829, 21.4762, 12.1057, 88.3077, -96.4392
1.392, -1, 9.87495, 8.69424, 21.4896, 12.1098, 88.273, -96.5554
1.396, -1, 9.78118, 8.66019, 21.503, 12.1139, 88.2383, -96.6716
1.4, -1, 9.68743, 8.62615, 21.5164, 12.1179, 88.2035, -96.7877
1.404, -1, 9.59369, 8.59211, 21.5298, 12.122, 88.1688, -96.9039
1.408, -1, 9.49996, 8.55808, 21.5432, 12.1261, 88.1341, -97.02
1.412, -1, 9.40625, 8.52406, 21.5567, 12.1302, 88.0994, -97.1361
1.416, -1, 9.31255, 8.49003, 21.5701, 12.1343, 88.0647, -97.2523
1.42, -1, 9.21886, 8.45602, 21.5835, 12.1384, 88.03, -97.3683
1.424, -1, 9.12519, 8.42201, 21.5969, 12.1425, 87.9953, -97.4844
1.428, -1, 9.03153, 8.388, 21.6103, 12.1466, 87.9606, -97.6005
1.432, -1, 8.93788, 8.354, 21.6237, 12.1507, 87.9259, -97.7165
1.436, -1, 8.84425, 8.32, 21.637, 12.1548, 87.8913, -97.8325
1.44, -1, 8.75063, 8.28601, 21.6504, 12.1588, 87.8566, -97.9485
1.444, -1, 8.65703, 8.25202, 21.6638, 12.1629, 87.8219, -98.0645
1.448, -1, 8.56343, 8.21804, 21.6772, 12.167, 87.7873, -98.1805
1.452, -1, 8.46986, 8.18406, 21.6906, 12.1711, 87.7526, -98.2964
1.456, -1, 8.37629, 8.15009, 21.704, 12.1752, 87.718, -98.4124
1.46, -1, 8.28274, 8.11612, 21.7174, 12.1793, 87.6833, -98.5283
1.464, -1, 8.18921, 8.08216, 21.7308, 12.1834, 87.6487, -98.6442
1.468, -1, 8.09568, 8.0482, 21.7441, 12.1874, 87.614, -98.7601
1.472, -1, 8.00217, 8.01425, 21.7575, 12.1915, 87.5794, -98.876
1.476, -1, 7.90868, 7.9803, 21.7709, 12.1956, 87.5448, -98.9918
1.48, -1, 7.8152, 7.94636, 21.7843, 12.1997, 87.5102, -99.1077
1.484, -1, 7.72173, 7.91242, 21.7976, 12.2038, 87.4755, -99.2235
1.488, -1, 7.62827, 7.87849, 21.811, 12.2078, 87.4409, -99.3393
1.492, -1, 7.53483, 7.84456, 21.8244, 12.2119, 87.4063, -99.4551
1.496, -1, 7.44141, 7.81064, 21.8377, 12.216, 87.3717, -99.5708
1.5, -1, 7.34799, 7.77673, 21.8511, 12.2201, 87.3371, -99.6866
1.504, -1, 7.25459, 7.74281, 21.8644, 12.2242, 87.3025, -99.8023
1.508, -1, 7.16121, 7.70891, 21.8778, 12.2282, 87.2679, -99.918
1.512, -1, 7.06783, 7.675, 21.8912, 12.2323, 87.2334, -100.034
1.516, -1, 6.97447, 7.64111, 21.9045, 12.2364, 87.1988, -100.149
1.52, -1, 6.88113, 7.60722, 21.9179, 12.2405, 87.1642, -100.265
1.524, -1, 6.7878, 7.57333, 21.9312, 12.2445, 87.1297, -100.381
1.528, -1, 6.69448, 7.53945, 21.9446, 12.2486, 87.0951, -100.496
1.532, -1, 6.60118, 7.50557, 21.9579, 12.2527, 87.0605, -100.612
1.536, -1, 6.50789, 7.4717, 21.9713, 12.2568, 87.026, -100.728
1.54, -1, 6.41461, 7.43783, 21.9846, 12.2608, 86.9914, -100.843
1.544, -1, 6.32135, 7.40397, 21.9979, 12.2649, 86.9569, -100.959
1.548, -1, 6.22811, 7.37011, 22.0113, 12.269, 86.9224, -101.074
1.552, -1, 6.13487, 7.33626, 22.0246, 12.273, 86.8878, -101.19
1.556, -1, 6.04165, 7.30241, 22.038, 12.2771, 86.8533, -101.305
1.56, -1, 5.94845, 7.26857, 22.0513, 12.2812, 86.8188, -101.421
1.564, -1, 5.85525, 7.23473, 22.0646, 12.2853, 86.7843, -101.536
1.568, -1, 5.76207, 7.2009, 22.078, 12.2893, 86.7498, -101.652
1.572, -1, 5.66891, 7.16707, 22.0913, 12.2934, 86.7153, -101.767
1.576, -1, 5.57576, 7.13325, 22.1046, 12.2975, 86.6808, -101.883
1.58, -1, 5.48262, 7.09944, 22.1179, 12.3015, 86.6463, -101.998
1.584, -1, 5.3895, 7.06562, 22.1312, 12.3056, 86.6118, -102.113
1.588, -1, 5.29639, 7.03182, 22.1446, 12.3097, 86.5773, -102.229
1.592, -1, 5.20329, 6.99801, 22.1579, 12.3137, 86.5428, -102.344
1.596, -1, 5.11021, 6.96422, 22.1712, 12.3178, 86.5084, -102.459
1.6, -1, 5.01714, 6.93043, 22.1845, 12.3218, 86.4739, -102.575
1.604, -1, 4.92409, 6.89664, 22.1978, 12.3259, 86.4394, -102.69
1.608, -1, 4.83105, 6.86286, 22.2111, 12.33, 86.405, -102.805
1.612, -1, 4.73802, 6.82908, 22.2244, 12.334, 86.3705, -102.921
1.616, -1, 4.64501, 6.79531, 22.2377, 12.3381, 86.3361, -103.036
1.62, -1, 4.55201, 6.76154, 22.2511, 12.3422, 86.3016, -103.151
1.624, -1, 4.45903, 6.72778, 22.2644, 12.3462, 86.2672, -103.266
1.628, -1, 4.36606, 6.69403, 22.2777, 12.3503, 86.2328, -103.382
1.632, -1, 4.2731, 6.66027, 22.291, 12.3543, 86.1983, -103.497
1.636, -1, 4.18016, 6.62653, 22.3042, 12.3584, 86.1639, -103.612
1.64, -1, 4.08723, 6.59279, 22.3175, 12.3624, 86.1295, -103.727
1.644, -1, 3.99432, 6.55905, 22.3308, 12.3665, 86.0951, -103.842
1.648, -1, 3.90142, 6.52532, 22.3441, 12.3706, 86.0607, -103.957
1.652, -1, 3.80853, 6.4916, 22.3574, 12.3746, 86.0263, -104.072
1.656, -1, 3.71566, 6.45787, 22.3707, 12.3787, 85.9919, -104.187
1.66, -1, 3.6228, 6.42416, 22.384, 12.3827, 85.9575, -104.302
1.664, -1, 3.52996, 6.39045, 22.3973, 12.3868, 85.9231, -104.418
1.668, -1, 3.43713, 6.35674, 22.4105, 12.3908, 85.8887, -104.533
1.672, -1, 3.34432, 6.32305, 22.4238, 12.3949, 85.8544, -104.648
1.676, -1, 3.25152, 6.28935, 22.4371, 12.3989, 85.82, -104.763
1.68, -1, 3.15873, 6.25566, 22.4504, 12.403, 85.7856, -104.878
1.684, -1, 3.06596, 6.22198, 22.4636, 12.407, 85.7513, -104.992
1.688, -1, 2.9732, 6.1883, 22.4769, 12.4111, 85.7169, -105.107
1.692, -1, 2.88046, 6.15462, 22.4902, 12.4151, 85.6826, -105.222
1.696, -1, 2.78773, 6.12096, 22.5034, 12.4192, 85.6482, -105.337
1.7, -1, 2.69502, 6.08729, 22.5167, 12.4232, 85.6139, -105.452
1.704, -1, 2.60232, 6.05364, 22.53, 12.4273, 85.5796, -105.567
1.708, -1, 2.50964, 6.01998, 22.5432, 12.4313, 85.5452, -105.682
1.712, -1, 2.41696, 5.98633, 22.5565, 12.4354, 85.5109, -105.797
1.716, -1, 2.32431, 5.95269, 22.5697, 12.4394, 85.4766, -105.911
1.72, -1, 2.23167, 5.91906, 22.583, 12.4435, 85.4423, -106.026
1.724, -1, 2.13904, 5.88542, 22.5962, 12.4475, 85.408, -106.141
1.728, -1, 2.04643, 5.8518, 22.6095, 12.4515, 85.3737, -106.256
1.732, -1, 1.95383, 5.81818, 22.6227, 12.4556, 85.3394, -106.371
1.736, -1, 1.86125, 5.78456, 22.636, 12.4596, 85.3051, -106.485
1.74, -1, 1.76868, 5.75095, 22.6492, 12.4637, 85.2708, -106.6
1.744, -1, 1.67612, 5.71734, 22.6625, 12.4677, 85.2365, -106.715
1.748, -1, 1.58358, 5.68374, 22.6757, 12.4718, 85.2023, -106.829
1.752, -1, 1.49106, 5.65015, 22.6889, 12.4758, 85.168, -106.944
1.756, -1, 1.39855, 5.61656, 22.7022, 12.4798, 85.1337, -107.059
1.76, -1, 1.30605, 5.58298, 22.7154, 12.4839, 85.0995, -107.173
1.764, -1, 1.21357, 5.5494, 22.7286, 12.4879, 85.0652, -107.288
1.768, -1, 1.1211, 5.51582, 22.7418, 12.4919, 85.031, -107.402
1.772, -1, 1.02865, 5.48226, 22.7551, 12.496, 84.9967, -107.517
1.776, -1, 0.936215, 5.44869, 22.7683, 12.5, 84.9625, -107.632
1.78, -1, 0.843793, 5.41514, 22.7815, 12.5041, 84.9283, -107.746
1.784, -1, 0.751386, 5.38158, 22.7947, 12.5081, 84.8941, -107.861
1.788, -1, 0.658993, 5.34804, 22.808, 12.5121, 84.8598, -107.975
1.792, -1, 0.566616, 5.3145, 22.8212, 12.5162, 84.8256, -108.089
1.796, -1, 0.474253, 5.28096, 22.8344, 12.5202, 84.7914, -108.204
1.8, -1, 0.381905, 5.24743, 22.8476, 12.5242, 84.7572, -108.318
1.804, -1, 0.289572, 5.21391, 22.8608, 12.5283, 84.723, -108.433
1.808, -1, 0.197254, 5.18039, 22.874, 12.5323, 84.6888, -108.547
1.812, -1, 0.10495, 5.14687, 22.8872, 12.5363, 84.6546, -108.662
1.816, -1, 0.0126621, 5.11336, 22.9004, 12.5403, 84.6205, -108.776
1.82, -1, -0.0796113, 5.07986, 22.9136, 12.5444, 84.5863, -108.89
1.824, -1, -0.17187, 5.04636, 22.9268, 12.5484, 84.5521, -109.005
1.828, -1, -0.264113, 5.01287, 22.94, 12.5524, 84.518, -109.119
1.832, -1, -0.356342, 4.97938, 22.9532, 12.5565, 84.4838, -109.233
1.836, -1, -0.448555, 4.9459, 22.9664, 12.5605, 84.4497, -109.347
1.84, -1, -0.540753, 4.91243, 22.9796, 12.5645, 84.4155, -109.462
1.844, -1, -0.632937, 4.87895, 22.9928, 12.5685, 84.3814, -109.576
1.848, -1, -0.725105, 4.84549, 23.0059, 12.5726, 84.3472, -109.69
1.852, -1, -0.817258, 4.81203, 23.0191, 12.5766, 84.3131, -109.804
1.856, -1, -0.909396, 4.77858, 23.0323, 12.5806, 84.279, -109.918
1.86, -1, -1.00152, 4.74513, 23.0455, 12.5846, 84.2449, -110.033
1.864, -1, -1.09363, 4.71168, 23.0587, 12.5886, 84.2108, -110.147
1.868, -1, -1.18572, 4.67825, 23.0718, 12.5927, 84.1766, -110.261
1.872, -1, -1.2778, 4.64481, 23.085, 12.5967, 84.1425, -110.375
1.876, -1, -1.36986, 4.61139, 23.0982, 12.6007, 84.1084, -110.489
1.88, -1, -1.46191, 4.57797, 23.1113, 12.6047, 84.0744, -110.603
1.884, -1, -1.55394, 4.54455, 23.1245, 12.6087, 84.0403, -110.717
1.888, -1, -1.64596, 4.51114, 23.1377, 12.6128, 84.0062, -110.831
1.892, -1, -1.73796, 4.47774, 23.1508, 12.6168, 83.9721, -110.945
1.896, -1, -1.82995, 4.44434, 23.164, 12.6208, 83.938, -111.059
1.9, -1, -1.92192, 4.41094, 23.1772, 12.6248, 83.904, -111.173
1.904, -1, -2.01388, 4.37755, 23.1903, 12.6288, 83.8699, -111.287
1.908, -1, -2.10582, 4.34417, 23.2035, 12.6328, 83.8359, -111.401
1.912, -1, -2.19775, 4.31079, 23.2166, 12.6368, 83.8018, -111.515
1.916, -1, -2.28966, 4.27742, 23.2298, 12.6409, 83.7678, -111.629
1.92, -1, -2.38156, 4.24405, 23.2429, 12.6449, 83.7338, -111.743
1.924, -1, -2.47344, 4.21069, 23.256, 12.6489, 83.6997, -111.856
1.928, -1, -2.56531, 4.17734, 23.2692, 12.6529, 83.6657, -111.97
1.932, -1, -2.65716, 4.14399, 23.2823, 12.6569, 83.6317, -112.084
1.936, -1, -2.749, 4.11064, 23.2955, 12.6609, 83.5977, -112.198
1.94, -1, -2.84082, 4.0773, 23.3086, 12.6649, 83.5637, -112.312
1.944, -1, -2.93263, 4.04397, 23.3217, 12.6689, 83.5297, -112.425
1.948, -1, -3.02442, 4.01064, 23.3349, 12.6729, 83.4957, -112.539
1.952, -1, -3.1162, 3.97732, 23.348, 12.6769, 83.4617, -112.653
1.956, -1, -3.20796, 3.944, 23.3611, 12.681, 83.4277, -112.767
1.96, -1, -3.29971, 3.91069, 23.3742, 12.685, 83.3937, -112.88
1.964, -1, -3.39145, 3.87738, 23.3874, 12.689, 83.3597, -112.994
1.968, -1, -3.48316, 3.84408, 23.4005, 12.693, 83.3258, -113.108
1.972, -1, -3.57487, 3.81078, 23.4136, 12.697, 83.2918, -113.221
1.976, -1, -3.66656, 3.77749, 23.4267, 12.701, 83.2579, -113.335
1.98, -1, -3.75823, 3.7442, 23.4398, 12.705, 83.2239, -113.448
1.984, -1, -3.84989, 3.71092, 23.4529, 12.709, 83.19, -113.562
1.988, -1, -3.94154, 3.67765, 23.4661, 12.713, 83.156, -113.676
1.992, -1, -4.03316, 3.64438, 23.4792, 12.717, 83.1221, -113.789
1.996, -1, -4.12478, 3.61112, 23.4923, 12.721, 83.0882, -113.903
1.999, -1, -4.21638, 3.57786, 23.5054, 12.725, 83.0542, -114.016
2.004, -1, -4.30797, 3.5446, 23.5185, 12.729, 83.0203, -114.13
2.008, -1, -4.39954, 3.51136, 23.5316, 12.733, 82.9864, -114.243
2.012, -1, -4.49109, 3.47811, 23.5447, 12.737, 82.9525, -114.357
2.015, -1, -4.58263, 3.44488, 23.5578, 12.741, 82.9186, -114.47
2.019, -1, -4.67416, 3.41164, 23.5709, 12.745, 82.8847, -114.583
2.024, -1, -4.76567, 3.37842, 23.584, 12.749, 82.8508, -114.697
2.028, -1, -4.85716, 3.3452, 23.597, 12.753, 82.8169, -114.81
2.031, -1, -4.94864, 3.31198, 23.6101, 12.757, 82.783, -114.923
2.036, -1, -5.04011, 3.27877, 23.6232, 12.7609, 82.7492, -115.037
2.04, -1, -5.13156, 3.24557, 23.6363, 12.7649, 82.7153, -115.15
2.044, -1, -5.223, 3.21237, 23.6494, 12.7689, 82.6814, -115.263
2.048, -1, -5.31442, 3.17917, 23.6625, 12.7729, 82.6476, -115.377
2.051, -1, -5.40583, 3.14599, 23.6755, 12.7769, 82.6137, -115.49
2.055, -1, -5.49722, 3.1128, 23.6886, 12.7809, 82.5799, -115.603
2.06, -1, -5.58859, 3.07963, 23.7017, 12.7849, 82.546, -115.716
2.064, -1, -5.67995, 3.04645, 23.7147, 12.7889, 82.5122, -115.83
2.068, -1, -5.7713, 3.01329, 23.7278, 12.7929, 82.4784, -115.943
2.071, -1, -5.86263, 2.98013, 23.7409, 12.7969, 82.4445, -116.056
2.076, -1, -5.95395, 2.94697, 23.7539, 12.8008, 82.4107, -116.169
2.08, -1, -6.04525, 2.91382, 23.767, 12.8048, 82.3769, -116.282
2.084, -1, -6.13653, 2.88068, 23.7801, 12.8088, 82.3431, -116.395
2.087, -1, -6.22781, 2.84754, 23.7931, 12.8128, 82.3093, -116.509
2.092, -1, -6.31906, 2.8144, 23.8062, 12.8168, 82.2755, -116.622
2.096, -1, -6.4103, 2.78127, 23.8192, 12.8208, 82.2417, -116.735
2.1, -1, -6.50153, 2.74815, 23.8323, 12.8247, 82.2079, -116.848
2.104, -1, -6.59274, 2.71503, 23.8453, 12.8287, 82.1741, -116.961
2.107, -1, -6.68394, 2.68192, 23.8584, 12.8327, 82.1404, -117.074
2.111, -1, -6.77512, 2.64881, 23.8714, 12.8367, 82.1066, -117.187
2.116, -1, -6.86628, 2.61571, 23.8844, 12.8407, 82.0728, -117.3
2.12, -1, -6.95743, 2.58262, 23.8975, 12.8447, 82.0391, -117.413
2.124, -1, -7.04857, 2.54953, 23.9105, 12.8486, 82.0053, -117.526
2.127, -1, -7.13969, 2.51644, 23.9236, 12.8526, 81.9716, -117.638
2.132, -1, -7.23079, 2.48336, 23.9366, 12.8566, 81.9378, -117.751
2.136, -1, -7.32188, 2.45029, 23.9496, 12.8606, 81.9041, -117.864
2.14, -1, -7.41296, 2.41722, 23.9626, 12.8645, 81.8704, -117.977
2.143, -1, -7.50402, 2.38416, 23.9757, 12.8685, 81.8367, -118.09
2.148, -1, -7.59506, 2.3511, 23.9887, 12.8725, 81.8029, -118.203
2.152, -1, -7.68609, 2.31805, 24.0017, 12.8765, 81.7692, -118.315
2.156, -1, -7.77711, 2.28501, 24.0147, 12.8804, 81.7355, -118.428
2.16, -1, -7.86811, 2.25197, 24.0278, 12.8844, 81.7018, -118.541
2.163, -1, -7.95909, 2.21893, 24.0408, 12.8884, 81.6681, -118.654
2.168, -1, -8.05006, 2.1859, 24.0538, 12.8924, 81.6344, -118.766
2.172, -1, -8.14101, 2.15288, 24.0668, 12.8963, 81.6007, -118.879
2.176, -1, -8.23195, 2.11986, 24.0798, 12.9003, 81.5671, -118.992
2.179, -1, -8.32287, 2.08685, 24.0928, 12.9043, 81.5334, -119.105
2.184, -1, -8.41378, 2.05384, 24.1058, 12.9082, 81.4997, -119.217
2.188, -1, -8.50467, 2.02084, 24.1188, 12.9122, 81.4661, -119.33
2.192, -1, -8.59555, 1.98784, 24.1318, 12.9162, 81.4324, -119.442
2.196, -1, -8.68641, 1.95485, 24.1448, 12.9201, 81.3988, -119.555
2.199, -1, -8.77726, 1.92186, 24.1578, 12.9241, 81.3651, -119.668
2.204, -1, -8.86809, 1.88888, 24.1708, 12.9281, 81.3315, -119.78
2.208, -1, -8.95891, 1.85591, 24.1838, 12.932, 81.2978, -119.893
2.212, -1, -9.04971, 1.82294, 24.1968, 12.936, 81.2642, -120.005
2.216, -1, -9.1405, 1.78998, 24.2098, 12.94, 81.2306, -120.118
2.219, -1, -9.23127, 1.75702, 24.2228, 12.9439, 81.197, -120.23
2.224, -1, -9.32202, 1.72407, 24.2357, 12.9479, 81.1634, -120.343
2.228, -1, -9.41276, 1.69112, 24.2487, 12.9519, 81.1297, -120.455
2.232, -1, -9.50349, 1.65818, 24.2617, 12.9558, 81.0962, -120.567
2.235, -1, -9.5942, 1.62524, 24.2747, 12.9598, 81.0625, -120.68
2.24, -1, -9.68489, 1.59232, 24.2876, 12.9637, 81.029, -120.792
2.244, -1, -9.77557, 1.55939, 24.3006, 12.9677, 80.9954, -120.905
2.248, -1, -9.86623, 1.52647, 24.3136, 12.9717, 80.9618, -121.017
2.252, -1, -9.95688, 1.49356, 24.3266, 12.9756, 80.9282, -121.129
2.255, -1, -10.0475, 1.46065, 24.3395, 12.9796, 80.8947, -121.242
2.259, -1, -10.1381, 1.42775, 24.3525, 12.9835, 80.8611, -121.354
2.264, -1, -10.2287, 1.39485, 24.3654, 12.9875, 80.8276, -121.466
2.268, -1, -10.3193, 1.36196, 24.3784, 12.9914, 80.794, -121.578
2.272, -1, -10.4099, 1.32908, 24.3914, 12.9954, 80.7605, -121.691
2.275, -1, -10.5005, 1.2962, 24.4043, 12.9993, 80.7269, -121.803
2.28, -1, -10.591, 1.26332, 24.4173, 13.0033, 80.6934, -121.915
2.284, -1, -10.6815, 1.23046, 24.4302, 13.0072, 80.6599, -122.027
2.288, -1, -10.772, 1.19759, 24.4432, 13.0112, 80.6263, -122.139
2.291, -1, -10.8625, 1.16473, 24.4561, 13.0151, 80.5928, -122.251
2.296, -1, -10.953, 1.13188, 24.4691, 13.0191, 80.5593, -122.364
2.3, -1, -11.0435, 1.09904, 24.482, 13.023, 80.5258, -122.476
2.304, -1, -11.1339, 1.06619, 24.4949, 13.027, 80.4923, -122.588
2.308, -1, -11.2244, 1.03336, 24.5079, 13.0309, 80.4588, -122.7
2.311, -1, -11.3148, 1.00053, 24.5208, 13.0349, 80.4253, -122.812
2.316, -1, -11.4052, 0.967705, 24.5337, 13.0388, 80.3919, -122.924
2.32, -1, -11.4956, 0.934886, 24.5467, 13.0428, 80.3584, -123.036
2.324, -1, -11.5859, 0.902072, 24.5596, 13.0467, 80.3249, -123.148
2.328, -1, -11.6763, 0.869264, 24.5725, 13.0507, 80.2915, -123.26
2.331, -1, -11.7666, 0.836462, 24.5854, 13.0546, 80.258, -123.372
2.336, -1, -11.857, 0.803665, 24.5984, 13.0586, 80.2245, -123.484
2.34, -1, -11.9473, 0.770873, 24.6113, 13.0625, 80.1911, -123.596
2.344, -1, -12.0376, 0.738086, 24.6242, 13.0665, 80.1576, -123.707
2.347, -1, -12.1279, 0.705305, 24.6371, 13.0704, 80.1242, -123.819
2.352, -1, -12.2181, 0.67253, 24.65, 13.0743, 80.0908, -123.931
2.356, -1, -12.3084, 0.63976, 24.6629, 13.0783, 80.0574, -124.043
2.36, -1, -12.3986, 0.606995, 24.6758, 13.0822, 80.0239, -124.155
2.364, -1, -12.4889, 0.574235, 24.6888, 13.0862, 79.9905, -124.267
2.367, -1, -12.5791, 0.541481, 24.7017, 13.0901, 79.9571, -124.378
2.372, -1, -12.6693, 0.508732, 24.7146, 13.094, 79.9237, -124.49
2.376, -1, -12.7595, 0.475989, 24.7275, 13.098, 79.8903, -124.602
2.38, -1, -12.8496, 0.443251, 24.7404, 13.1019, 79.8569, -124.714
2.383, -1, -12.9398, 0.410518, 24.7533, 13.1058, 79.8235, -124.825
2.388, -1, -13.0299, 0.377791, 24.7662, 13.1098, 79.7901, -124.937
2.392, -1, -13.12, 0.345068, 24.779, 13.1137, 79.7568, -125.049
2.396, -1, -13.2101, 0.312352, 24.7919, 13.1176, 79.7234, -125.16
2.4, -1, -13.3002, 0.27964, 24.8048, 13.1216, 79.69, -125.272
2.403, -1, -13.3903, 0.246934, 24.8177, 13.1255, 79.6567, -125.384
2.408, -1, -13.4804, 0.214234, 24.8306, 13.1294, 79.6233, -125.495
2.412, -1, -13.5704, 0.181538, 24.8435, 13.1334, 79.59, -125.607
2.416, -1, -13.6605, 0.148848, 24.8564, 13.1373, 79.5566, -125.718
2.42, -1, -13.7505, 0.116163, 24.8692, 13.1412, 79.5233, -125.83
2.423, -1, -13.8405, 0.0834841, 24.8821, 13.1452, 79.4899, -125.941
2.428, -1, -13.9305, 0.05081, 24.895, 13.1491, 79.4566, -126.053
2.432, -1, -14.0204, 0.0181414, 24.9078, 13.153, 79.4233, -126.164
2.436, -1, -14.1104, -0.014522, 24.9207, 13.1569, 79.39, -126.276
2.439, -1, -14.2003, -0.04718, 24.9336, 13.1609, 79.3567, -126.387
2.444, -1, -14.2903, -0.0798327, 24.9465, 13.1648, 79.3234, -126.499
2.448, -1, -14.3802, -0.11248, 24.9593, 13.1687, 79.2901, -126.61
2.452, -1, -14.4701, -0.145122, 24.9722, 13.1727, 79.2568, -126.722
2.456, -1, -14.56, -0.177759, 24.985, 13.1766, 79.2235, -126.833
2.459, -1, -14.6499, -0.21039, 24.9979, 13.1805, 79.1902, -126.944
2.464, -1, -14.7397, -0.243016, 25.0107, 13.1844, 79.1569, -127.056
2.468, -1, -14.8296, -0.275637, 25.0236, 13.1883, 79.1236, -127.167
2.472, -1, -14.9194, -0.308252, 25.0364, 13.1923, 79.0904, -127.278
2.476, -1, -15.0092, -0.340862, 25.0493, 13.1962, 79.0571, -127.39
2.479, -1, -15.099, -0.373467, 25.0621, 13.2001, 79.0238, -127.501
2.484, -1, -15.1888, -0.406066, 25.075, 13.204, 78.9906, -127.612
2.488, -1, -15.2785, -0.43866, 25.0878, 13.2079, 78.9574, -127.723
2.492, -1, -15.3683, -0.471249, 25.1007, 13.2119, 78.9241, -127.835
2.495, -1, -15.458, -0.503832, 25.1135, 13.2158, 78.8909, -127.946
2.5, -1, -15.5478, -0.53641, 25.1263, 13.2197, 78.8576, -128.057
2.504, -1, -15.6375, -0.568983, 25.1392, 13.2236, 78.8244, -128.168
2.508, -1, -15.7272, -0.60155, 25.152, 13.2275, 78.7912, -128.279
2.512, -1, -15.8169, -0.634112, 25.1648, 13.2315, 78.758, -128.39
2.515, -1, -15.9065, -0.666669, 25.1777, 13.2354, 78.7248, -128.502
2.52, -1, -15.9962, -0.69922, 25.1905, 13.2393, 78.6916, -128.613
2.524, -1, -16.0858, -0.731766, 25.2033, 13.2432, 78.6584, -128.724
2.528, -1, -16.1754, -0.764307, 25.2161, 13.2471, 78.6252, -128.835
2.531, -1, -16.265, -0.796843, 25.2289, 13.251, 78.592, -128.946
2.536, -1, -16.3546, -0.829373, 25.2418, 13.2549, 78.5588, -129.057
2.54, -1, -16.4442, -0.861897, 25.2546, 13.2588, 78.5256, -129.168
2.544, -1, -16.5338, -0.894417, 25.2674, 13.2628, 78.4925, -129.279
2.548, -1, -16.6233, -0.926931, 25.2802, 13.2667, 78.4593, -129.39
2.551, -1, -16.7129, -0.95944, 25.293, 13.2706, 78.4262, -129.501
2.556, -1, -16.8024, -0.991943, 25.3058, 13.2745, 78.393, -129.612
2.56, -1, -16.8919, -1.02444, 25.3186, 13.2784, 78.3598, -129.722
2.564, -1, -16.9814, -1.05693, 25.3314, 13.2823, 78.3267, -129.833
2.568, -1, -17.0709, -1.08942, 25.3442, 13.2862, 78.2936, -129.944
2.571, -1, -17.1603, -1.1219, 25.357, 13.2901, 78.2604, -130.055
2.576, -1, -17.2498, -1.15438, 25.3698, 13.294, 78.2273, -130.166
2.58, -1, -17.3392, -1.18685, 25.3826, 13.2979, 78.1942, -130.277
2.584, -1, -17.4286, -1.21932, 25.3954, 13.3018, 78.1611, -130.388
2.587, -1, -17.518, -1.25178, 25.4082, 13.3057, 78.128, -130.498
2.592, -1, -17.6074, -1.28424, 25.421, 13.3096, 78.0949, -130.609
2.596, -1, -17.6968, -1.31669, 25.4338, 13.3135, 78.0618, -130.72
2.6, -1, -17.7861, -1.34913, 25.4465, 13.3174, 78.0287, -130.831
2.604, -1, -17.8755, -1.38157, 25.4593, 13.3213, 77.9956, -130.941
2.607, -1, -17.9648, -1.414, 25.4721, 13.3252, 77.9625, -131.052
2.612, -1, -18.0541, -1.44643, 25.4849, 13.3291, 77.9294, -131.163
2.616, -1, -18.1434, -1.47886, 25.4976, 13.333, 77.8963, -131.273
2.62, -1, -18.2327, -1.51128, 25.5104, 13.3369, 77.8633, -131.384
2.624, -1, -18.322, -1.54369, 25.5232, 13.3408, 77.8302, -131.495
2.627, -1, -18.4112, -1.5761, 25.536, 13.3447, 77.7972, -131.605
2.632, -1, -18.5005, -1.6085, 25.5487, 13.3486, 77.7641, -131.716
2.636, -1, -18.5897, -1.6409, 25.5615, 13.3525, 77.7311, -131.826
2.64, -1, -18.6789, -1.67329, 25.5742, 13.3564, 77.698, -131.937
2.643, -1, -18.7681, -1.70568, 25.587, 13.3603, 77.665, -132.047
2.648, -1, -18.8573, -1.73806, 25.5998, 13.3642, 77.632, -132.158
2.652, -1, -18.9465, -1.77043, 25.6125, 13.3681, 77.5989, -132.268
2.656, -1, -19.0356, -1.8028, 25.6253, 13.372, 77.5659, -132.379
2.66, -1, -19.1248, -1.83517, 25.638, 13.3759, 77.5329, -132.489
2.663, -1, -19.2139, -1.86753, 25.6508, 13.3798, 77.4999, -132.6
2.668, -1, -19.303, -1.89988, 25.6635, 13.3837, 77.4669, -132.71
2.672, -1, -19.3921, -1.93223, 25.6763, 13.3875, 77.4339, -132.821
2.676, -1, -19.4812, -1.96458, 25.689, 13.3914, 77.4009, -132.931
2.679, -1, -19.5702, -1.99692, 25.7018, 13.3953, 77.3679, -133.041
2.684, -1, -19.6593, -2.02925, 25.7145, 13.3992, 77.3349, -133.152
2.688, -1, -19.7483, -2.06158, 25.7272, 13.4031, 77.302, -133.262
2.692, -1, -19.8374, -2.0939, 25.74, 13.407, 77.269, -133.372
2.696, -1, -19.9264, -2.12622, 25.7527, 13.4109, 77.236, -133.483
2.699, -1, -20.0154, -2.15853, 25.7654, 13.4148, 77.2031, -133.593
2.704, -1, -20.1043, -2.19084, 25.7782, 13.4186, 77.1701, -133.703
2.708, -1, -20.1933, -2.22314, 25.7909, 13.4225, 77.1372, -133.813
2.712, -1, -20.2823, -2.25544, 25.8036, 13.4264, 77.1042, -133.924
2.716, -1, -20.3712, -2.28773, 25.8163, 13.4303, 77.0713, -134.034
2.719, -1, -20.4601, -2.32001, 25.8291, 13.4342, 77.0384, -134.144
2.724, -1, -20.549, -2.3523, 25.8418, 13.4381, 77.0054, -134.254
2.728, -1, -20.6379, -2.38457, 25.8545, 13.4419, 76.9725, -134.364
2.732, -1, -20.7268, -2.41684, 25.8672, 13.4458, 76.9396, -134.474
2.735, -1, -20.8157, -2.44911, 25.8799, 13.4497, 76.9067, -134.584
2.74, -1, -20.9045, -2.48137, 25.8926, 13.4536, 76.8738, -134.695
2.744, -1, -20.9934, -2.51362, 25.9053, 13.4575, 76.8409, -134.805
2.748, -1, -21.0822, -2.54587, 25.918, 13.4613, 76.808, -134.915
2.752, -1, -21.171, -2.57812, 25.9307, 13.4652, 76.7751, -135.025
2.755, -1, -21.2598, -2.61036, 25.9434, 13.4691, 76.7422, -135.135
2.76, -1, -21.3486, -2.6426, 25.9561, 13.473, 76.7093, -135.245
2.764, -1, -21.4373, -2.67483, 25.9688, 13.4768, 76.6764, -135.355
2.768, -1, -21.5261, -2.70705, 25.9815, 13.4807, 76.6436, -135.465
2.772, -1, -21.6148, -2.73927, 25.9942, 13.4846, 76.6107, -135.575
2.775, -1, -21.7036, -2.77149, 26.0069, 13.4885, 76.5779, -135.685
2.78, -1, -21.7923, -2.8037, 26.0196, 13.4923, 76.545, -135.795
2.784, -1, -21.881, -2.8359, 26.0323, 13.4962, 76.5121, -135.904
2.788, -1, -21.9697, -2.8681, 26.045, 13.5001, 76.4793, -136.014
2.791, -1, -22.0583, -2.9003, 26.0577, 13.5039, 76.4465, -136.124
2.796, -1, -22.147, -2.93249, 26.0704, 13.5078, 76.4136, -136.234
2.8, -1, -22.2356, -2.96467, 26.083, 13.5117, 76.3808, -136.344
2.804, -1, -22.3243, -2.99685, 26.0957, 13.5156, 76.348, -136.454
2.808, -1, -22.4129, -3.02903, 26.1084, 13.5194, 76.3152, -136.564
2.811, -1, -22.5015, -3.0612, 26.1211, 13.5233, 76.2823, -136.673
2.816, -1, -22.5901, -3.09337, 26.1337, 13.5272, 76.2495, -136.783
2.82, -1, -22.6786, -3.12553, 26.1464, 13.531, 76.2167, -136.893
2.824, -1, -22.7672, -3.15768, 26.1591, 13.5349, 76.1839, -137.003
2.828, -1, -22.8558, -3.18983, 26.1717, 13.5388, 76.1511, -137.112
2.831, -1, -22.9443, -3.22198, 26.1844, 13.5426, 76.1183, -137.222
2.836, -1, -23.0328, -3.25412, 26.1971, 13.5465, 76.0856, -137.332
2.84, -1, -23.1213, -3.28625, 26.2097, 13.5504, 76.0528, -137.441
2.844, -1, -23.2098, -3.31839, 26.2224, 13.5542, 76.02, -137.551
2.847, -1, -23.2983, -3.35051, 26.2351, 13.5581, 75.9872, -137.661
2.852, -1, -23.3868, -3.38263, 26.2477, 13.5619, 75.9545, -137.77
2.856, -1, -23.4752, -3.41475, 26.2604, 13.5658, 75.9217, -137.88
2.86, -1, -23.5636, -3.44686, 26.273, 13.5697, 75.889, -137.989
2.864, -1, -23.6521, -3.47897, 26.2857, 13.5735, 75.8562, -138.099
2.867, -1, -23.7405, -3.51107, 26.2983, 13.5774, 75.8235, -138.209
2.872, -1, -23.8289, -3.54316, 26.311, 13.5813, 75.7907, -138.318
2.876, -1, -23.9173, -3.57525, 26.3236, 13.5851, 75.758, -138.428
2.88, -1, -24.0056, -3.60734, 26.3362, 13.589, 75.7253, -138.537
2.883, -1, -24.094, -3.63942, 26.3489, 13.5928, 75.6925, -138.647
2.888, -1, -24.1823, -3.6715, 26.3615, 13.5967, 75.6598, -138.756
2.892, -1, -24.2707, -3.70357, 26.3742, 13.6005, 75.6271, -138.866
2.896, -1, -24.359, -3.73564, 26.3868, 13.6044, 75.5944, -138.975
2.9, -1, -24.4473, -3.7677, 26.3994, 13.6083, 75.5617, -139.084
2.903, -1, -24.5356, -3.79976, 26.412, 13.6121, 75.529, -139.194
2.908, -1, -24.6239, -3.83181, 26.4247, 13.616, 75.4963, -139.303
2.912, -1, -24.7121, -3.86385, 26.4373, 13.6198, 75.4636, -139.413
2.916, -1, -24.8004, -3.8959, 26.4499, 13.6237, 75.4309, -139.522
2.92, -1, -24.8886, -3.92793, 26.4625, 13.6275, 75.3983, -139.631
2.923, -1, -24.9768, -3.95996, 26.4752, 13.6314, 75.3656, -139.741
2.928, -1, -25.065, -3.99199, 26.4878, 13.6352, 75.3329, -139.85
2.932, -1, -25.1532, -4.02402, 26.5004, 13.6391, 75.3003, -139.959
2.936, -1, -25.2414, -4.05603, 26.513, 13.6429, 75.2676, -140.068
2.939, -1, -25.3296, -4.08805, 26.5256, 13.6468, 75.2349, -140.178
2.944, -1, -25.4178, -4.12006, 26.5382, 13.6506, 75.2023, -140.287
2.948, -1, -25.5059, -4.15206, 26.5509, 13.6545, 75.1696, -140.396
2.952, -1, -25.594, -4.18406, 26.5635, 13.6583, 75.137, -140.505
2.956, -1, -25.6821, -4.21606, 26.5761, 13.6622, 75.1044, -140.615
2.959, -1, -25.7702, -4.24805, 26.5887, 13.666, 75.0717, -140.724
2.964, -1, -25.8583, -4.28003, 26.6013, 13.6699, 75.0391, -140.833
2.968, -1, -25.9464, -4.31201, 26.6139, 13.6737, 75.0065, -140.942
2.972, -1, -26.0345, -4.34399, 26.6265, 13.6775, 74.9739, -141.051
2.976, -1, -26.1225, -4.37596, 26.6391, 13.6814, 74.9413, -141.16
2.98, -1, -26.2106, -4.40792, 26.6517, 13.6852, 74.9087, -141.269
2.984, -1, -26.2986, -4.43988, 26.6642, 13.6891, 74.8761, -141.378
2.988, -1, -26.3866, -4.47183, 26.6768, 13.6929, 74.8435, -141.487
2.992, -1, -26.4746, -4.50378, 26.6894, 13.6968, 74.8109, -141.596
2.995, -1, -26.5626, -4.53573, 26.702, 13.7006, 74.7783, -141.705
3, -1, -26.6505, -4.56767, 26.7146, 13.7044, 74.7457, -141.814
3.004, -1, -26.7385, -4.59961, 26.7272, 13.7083, 74.7132, -141.923
3.008, -1, -26.8264, -4.63154, 26.7398, 13.7121, 74.6806, -142.032
3.012, -1, -26.9144, -4.66346, 26.7523, 13.716, 74.648, -142.141
3.015, -1, -27.0023, -4.69538, 26.7649, 13.7198, 74.6155, -142.25
3.02, -1, -27.0902, -4.7273, 26.7775, 13.7236, 74.5829, -142.359
3.024, -1, -27.1781, -4.75921, 26.7901, 13.7275, 74.5504, -142.468
3.028, -1, -27.266, -4.79112, 26.8026, 13.7313, 74.5178, -142.577
3.031, -1, -27.3538, -4.82302, 26.8152, 13.7351, 74.4853, -142.686
3.036, -1, -27.4417, -4.85492, 26.8278, 13.739, 74.4527, -142.795
3.04, -1, -27.5295, -4.88681, 26.8403, 13.7428, 74.4202, -142.904
3.044, -1, -27.6173, -4.9187, 26.8529, 13.7467, 74.3877, -143.012
3.048, -1, -27.7051, -4.95058, 26.8655, 13.7505, 74.3552, -143.121
3.051, -1, -27.7929, -4.98246, 26.878, 13.7543, 74.3226, -143.23
3.056, -1, -27.8807, -5.01433, 26.8906, 13.7582, 74.2901, -143.339
3.06, -1, -27.9685, -5.0462, 26.9031, 13.762, 74.2576, -143.448
3.064, -1, -28.0563, -5.07807, 26.9157, 13.7658, 74.2251, -143.556
3.068, -1, -28.144, -5.10993, 26.9282, 13.7696, 74.1926, -143.665
3.071, -1, -28.2317, -5.14178, 26.9408, 13.7735, 74.1601, -143.774
3.076, -1, -28.3195, -5.17363, 26.9533, 13.7773, 74.1276, -143.882
3.08, -1, -28.4072, -5.20547, 26.9659, 13.7811, 74.0952, -143.991
3.084, -1, -28.4949, -5.23732, 26.9784, 13.785, 74.0627, -144.1
3.087, -1, -28.5825, -5.26915, 26.991, 13.7888, 74.0302, -144.208
3.092, -1, -28.6702, -5.30098, 27.0035, 13.7926, 73.9977, -144.317
3.096, -1, -28.7579, -5.33281, 27.0161, 13.7964, 73.9653, -144.426
3.1, -1, -28.8455, -5.36463, 27.0286, 13.8003, 73.9328, -144.534
3.104, -1, -28.9331, -5.39645, 27.0411, 13.8041, 73.9004, -144.643
3.107, -1, -29.0207, -5.42826, 27.0537, 13.8079, 73.8679, -144.751
3.112, -1, -29.1083, -5.46007, 27.0662, 13.8117, 73.8355, -144.86
3.116, -1, -29.1959, -5.49187, 27.0787, 13.8156, 73.803, -144.968
3.12, -1, -29.2835, -5.52366, 27.0912, 13.8194, 73.7706, -145.077
3.124, -1, -29.3711, -5.55546, 27.1038, 13.8232, 73.7382, -145.186
3.128, -1, -29.4586, -5.58725, 27.1163, 13.827, 73.7058, -145.294
3.132, -1, -29.5462, -5.61903, 27.1288, 13.8309, 73.6733, -145.402
3.136, -1, -29.6337, -5.65081, 27.1413, 13.8347, 73.6409, -145.511
3.14, -1, -29.7212, -5.68258, 27.1539, 13.8385, 73.6085, -145.619
3.143, -1, -29.8087, -5.71435, 27.1664, 13.8423, 73.5761, -145.728
3.148, -1, -29.8962, -5.74612, 27.1789, 13.8461, 73.5437, -145.836
3.152, -1, -29.9837, -5.77788, 27.1914, 13.85, 73.5113, -145.945
3.156, -1, -30.0711, -5.80963, 27.2039, 13.8538, 73.4789, -146.053
3.16, -1, -30.1586, -5.84139, 27.2164, 13.8576, 73.4465, -146.161
3.163, -1, -30.246, -5.87313, 27.2289, 13.8614, 73.4142, -146.27
3.168, -1, -30.3334, -5.90488, 27.2414, 13.8652, 73.3818, -146.378
3.172, -1, -30.4208, -5.93661, 27.2539, 13.8691, 73.3494, -146.486
3.176, -1, -30.5082, -5.96835, 27.2664, 13.8729, 73.317, -146.595
3.179, -1, -30.5956, -6.00008, 27.2789, 13.8767, 73.2847, -146.703
3.184, -1, -30.683, -6.0318, 27.2914, 13.8805, 73.2523, -146.811
3.188, -1, -30.7704, -6.06352, 27.3039, 13.8843, 73.22, -146.919
3.192, -1, -30.8577, -6.09524, 27.3164, 13.8881, 73.1876, -147.028
3.196, -1, -30.9451, -6.12695, 27.3289, 13.8919, 73.1553, -147.136
3.199, -1, -31.0324, -6.15866, 27.3414, 13.8958, 73.1229, -147.244
3.204, -1, -31.1197, -6.19036, 27.3539, 13.8996, 73.0906, -147.352
3.208, -1, -31.207, -6.22206, 27.3664, 13.9034, 73.0583, -147.46
3.212, -1, -31.2943, -6.25375, 27.3789, 13.9072, 73.0259, -147.569
3.216, -1, -31.3816, -6.28544, 27.3914, 13.911, 72.9936, -147.677
3.22, -1, -31.4688, -6.31713, 27.4039, 13.9148, 72.9613, -147.785
3.224, -1, -31.5561, -6.34881, 27.4163, 13.9186, 72.929, -147.893
3.228, -1, -31.6433, -6.38049, 27.4288, 13.9224, 72.8967, -148.001
3.232, -1, -31.7306, -6.41216, 27.4413, 13.9262, 72.8643, -148.109
3.235, -1, -31.8178, -6.44383, 27.4538, 13.93, 72.832, -148.217
3.24, -1, -31.905, -6.47549, 27.4663, 13.9338, 72.7997, -148.325
3.244, -1, -31.9922, -6.50715, 27.4787, 13.9377, 72.7674, -148.433
3.248, -1, -32.0794, -6.53881, 27.4912, 13.9415, 72.7352, -148.541
3.252, -1, -32.1665, -6.57046, 27.5037, 13.9453, 72.7029, -148.649
3.255, -1, -32.2537, -6.6021, 27.5161, 13.9491, 72.6706, -148.757
3.26, -1, -32.3408, -6.63375, 27.5286, 13.9529, 72.6383, -148.865
3.264, -1, -32.428, -6.66538, 27.5411, 13.9567, 72.606, -148.973
3.268, -1, -32.5151, -6.69702, 27.5535, 13.9605, 72.5738, -149.081
3.272, -1, -32.6022, -6.72865, 27.566, 13.9643, 72.5415, -149.189
3.276, -1, -32.6893, -6.76027, 27.5784, 13.9681, 72.5093, -149.297
3.28, -1, -32.7764, -6.79189, 27.5909, 13.9719, 72.477, -149.405
3.284, -1, -32.8635, -6.82351, 27.6034, 13.9757, 72.4448, -149.513
3.288, -1, -32.9506, -6.85512, 27.6158, 13.9795, 72.4125, -149.621
3.291, -1, -33.0376, -6.88673, 27.6283, 13.9833, 72.3803, -149.729
3.296, -1, -33.1246, -6.91833, 27.6407, 13.9871, 72.348, -149.837
3.3, -1, -33.2117, -6.94993, 27.6532, 13.9909, 72.3158, -149.944
3.304, -1, -33.2987, -6.98153, 27.6656, 13.9947, 72.2836, -150.052
3.308, -1, -33.3857, -7.01312, 27.6781, 13.9985, 72.2514, -150.16
3.312, -1, -33.4727, -7.04471, 27.6905, 14.0023, 72.2191, -150.268
3.316, -1, -33.5597, -7.07629, 27.703, 14.0061, 72.1869, -150.376
3.32, -1, -33.6466, -7.10787, 27.7154, 14.0099, 72.1547, -150.483
3.324, -1, -33.7336, -7.13944, 27.7278, 14.0137, 72.1225, -150.591
3.328, -1, -33.8206, -7.17101, 27.7403, 14.0175, 72.0903, -150.699
3.332, -1, -33.9075, -7.20258, 27.7527, 14.0213, 72.0581, -150.807
3.336, -1, -33.9944, -7.23414, 27.7651, 14.0251, 72.0259, -150.914
3.34, -1, -34.0813, -7.26569, 27.7776, 14.0289, 71.9937, -151.022
3.344, -1, -34.1682, -7.29725, 27.79, 14.0327, 71.9615, -151.13
3.347, -1, -34.2551, -7.3288, 27.8024, 14.0365, 71.9294, -151.237
3.352, -1, -34.342, -7.36034, 27.8149, 14.0402, 71.8972, -151.345
3.356, -1, -34.4289, -7.39188, 27.8273, 14.044, 71.865, -151.453
3.36, -1, -34.5157, -7.42342, 27.8397, 14.0478, 71.8329, -151.56
3.364, -1, -34.6026, -7.45495, 27.8521, 14.0516, 71.8007, -151.668
3.368, -1, -34.6894, -7.48648, 27.8646, 14.0554, 71.7685, -151.775
3.372, -1, -34.7762, -7.518, 27.877, 14.0592, 71.7364, -151.883
3.376, -1, -34.863, -7.54952, 27.8894, 14.063, 71.7042, -151.991
3.38, -1, -34.9498, -7.58103, 27.9018, 14.0668, 71.6721, -152.098
3.383, -1, -35.0366, -7.61255, 27.9142, 14.0706, 71.6399, -152.206
3.388, -1, -35.1234, -7.64405, 27.9266, 14.0744, 71.6078, -152.313
3.392, -1, -35.2102, -7.67556, 27.9391, 14.0781, 71.5757, -152.421
3.396, -1, -35.2969, -7.70705, 27.9515, 14.0819, 71.5435, -152.528
3.4, -1, -35.3836, -7.73855, 27.9639, 14.0857, 71.5114, -152.636
3.403, -1, -35.4704, -7.77004, 27.9763, 14.0895, 71.4793, -152.743
3.408, -1, -35.5571, -7.80153, 27.9887, 14.0933, 71.4472, -152.851
3.412, -1, -35.6438, -7.83301, 28.0011, 14.0971, 71.4151, -152.958
3.416, -1, -35.7305, -7.86448, 28.0135, 14.1009, 71.383, -153.066
3.42, -1, -35.8172, -7.89596, 28.0259, 14.1047, 71.3509, -153.173
3.424, -1, -35.9038, -7.92743, 28.0383, 14.1084, 71.3188, -153.28
3.428, -1, -35.9905, -7.95889, 28.0507, 14.1122, 71.2867, -153.388
3.432, -1, -36.0772, -7.99036, 28.0631, 14.116, 71.2546, -153.495
3.436, -1, -36.1638, -8.02181, 28.0755, 14.1198, 71.2225, -153.602
3.439, -1, -36.2504, -8.05327, 28.0879, 14.1236, 71.1904, -153.71
3.444, -1, -36.337, -8.08472, 28.1003, 14.1273, 71.1583, -153.817
3.448, -1, -36.4236, -8.11616, 28.1127, 14.1311, 71.1263, -153.924
3.452, -1, -36.5102, -8.1476, 28.125, 14.1349, 71.0942, -154.032
3.456, -1, -36.5968, -8.17904, 28.1374, 14.1387, 71.0621, -154.139
3.46, -1, -36.6834, -8.21047, 28.1498, 14.1425, 71.0301, -154.246
3.464, -1, -36.7699, -8.2419, 28.1622, 14.1462, 70.998, -154.354
3.468, -1, -36.8565, -8.27333, 28.1746, 14.15, 70.9659, -154.461
3.472, -1, -36.943, -8.30475, 28.187, 14.1538, 70.9339, -154.568
3.476, -1, -37.0296, -8.33616, 28.1993, 14.1576, 70.9018, -154.675
3.48, -1, -37.1161, -8.36758, 28.2117, 14.1614, 70.8698, -154.782
3.484, -1, -37.2026, -8.39898, 28.2241, 14.1651, 70.8378, -154.89
3.488, -1, -37.2891, -8.43039, 28.2365, 14.1689, 70.8057, -154.997
3.492, -1, -37.3756, -8.46179, 28.2488, 14.1727, 70.7737, -155.104
3.495, -1, -37.462, -8.49319, 28.2612, 14.1765, 70.7417, -155.211
3.5, -1, -37.5485, -8.52458, 28.2736, 14.1802, 70.7097, -155.318
3.504, -1, -37.6349, -8.55597, 28.2859, 14.184, 70.6777, -155.425
3.508, -1, -37.7214, -8.58735, 28.2983, 14.1878, 70.6456, -155.532
3.512, -1, -37.8078, -8.61873, 28.3107, 14.1916, 70.6136, -155.64
3.516, -1, -37.8942, -8.65011, 28.323, 14.1953, 70.5816, -155.747
3.52, -1, -37.9806, -8.68148, 28.3354, 14.1991, 70.5496, -155.854
3.524, -1, -38.067, -8.71285, 28.3477, 14.2029, 70.5176, -155.961
3.528, -1, -38.1534, -8.74421, 28.3601, 14.2066, 70.4856, -156.068
3.531, -1, -38.2398, -8.77557, 28.3725, 14.2104, 70.4537, -156.175
3.536, -1, -38.3261, -8.80693, 28.3848, 14.2142, 70.4217, -156.282
3.54, -1, -38.4125, -8.83828, 28.3972, 14.218, 70.3897, -156.389
3.544, -1, -38.4988, -8.86963, 28.4095, 14.2217, 70.3577, -156.496
3.548, -1, -38.5851, -8.90097, 28.4219, 14.2255, 70.3257, -156.603
3.552, -1, -38.6715, -8.93231, 28.4342, 14.2293, 70.2938, -156.71
3.556, -1, -38.7578, -8.96365, 28.4466, 14.233, 70.2618, -156.817
3.56, -1, -38.8441, -8.99498, 28.4589, 14.2368, 70.2299, -156.924
3.564, -1, -38.9303, -9.02631, 28.4712, 14.2406, 70.1979, -157.03
3.568, -1, -39.0166, -9.05764, 28.4836, 14.2443, 70.1659, -157.137
3.572, -1, -39.1029, -9.08896, 28.4959, 14.2481, 70.134, -157.244
3.576, -1, -39.1891, -9.12028, 28.5083, 14.2519, 70.1021, -157.351
3.58, -1, -39.2754, -9.15159, 28.5206, 14.2556, 70.0701, -157.458
3.584, -1, -39.3616, -9.1829, 28.5329, 14.2594, 70.0382, -157.565
3.587, -1, -39.4478, -9.21421, 28.5453, 14.2632, 70.0062, -157.672
3.592, -1, -39.534, -9.24551, 28.5576, 14.2669, 69.9743, -157.779
3.596, -1, -39.6202, -9.27681, 28.5699, 14.2707, 69.9424, -157.885
3.6, -1, -39.7064, -9.3081, 28.5823, 14.2745, 69.9105, -157.992
3.604, -1, -39.7926, -9.3394, 28.5946, 14.2782, 69.8786, -158.099
3.608, -1, -39.8788, -9.37068, 28.6069, 14.282, 69.8466, -158.206
3.612, -1, -39.965, -9.40197, 28.6192, 14.2857, 69.8147, -158.312
3.616, -1, -40.0511, -9.43325, 28.6316, 14.2895, 69.7828, -158.419
3.62, -1, -40.1372, -9.46452, 28.6439, 14.2933, 69.7509, -158.526
3.624, -1, -40.2234, -9.4958, 28.6562, 14.297, 69.719, -158.633
3.628, -1, -40.3095, -9.52707, 28.6685, 14.3008, 69.6871, -158.739
3.632, -1, -40.3956, -9.55833, 28.6809, 14.3045, 69.6552, -158.846
3.636, -1, -40.4817, -9.58959, 28.6932, 14.3083, 69.6233, -158.953
3.64, -1, -40.5678, -9.62085, 28.7055, 14.3121, 69.5915, -159.059
3.644, -1, -40.6539, -9.65211, 28.7178, 14.3158, 69.5596, -159.166
3.648, -1, -40.7399, -9.68336, 28.7301, 14.3196, 69.5277, -159.273
3.652, -1, -40.826, -9.71461, 28.7424, 14.3233, 69.4958, -159.379
3.656, -1, -40.9121, -9.74585, 28.7547, 14.3271, 69.464, -159.486
3.66, -1, -40.9981, -9.77709, 28.767, 14.3308, 69.4321, -159.593
3.664, -1, -41.0841, -9.80833, 28.7793, 14.3346, 69.4002, -159.699
3.668, -1, -41.1702, -9.83956, 28.7917, 14.3384, 69.3684, -159.806
3.672, -1, -41.2562, -9.87079, 28.804, 14.3421, 69.3365, -159.912
3.676, -1, -41.3422, -9.90202, 28.8163, 14.3459, 69.3047, -160.019
3.679, -1, -41.4282, -9.93324, 28.8286, 14.3496, 69.2728, -160.126
3.684, -1, -41.5141, -9.96446, 28.8409, 14.3534, 69.241, -160.232
3.688, -1, -41.6001, -9.99567, 28.8532, 14.3571, 69.2091, -160.339
3.692, -1, -41.6861, -10.0269, 28.8655, 14.3609, 69.1773, -160.445
3.696, -1, -41.772, -10.0581, 28.8778, 14.3646, 69.1455, -160.552
3.7, -1, -41.858, -10.0893, 28.89, 14.3684, 69.1136, -160.658
3.704, -1, -41.9439, -10.1205, 28.9023, 14.3721, 69.0818, -160.765
3.708, -1, -42.0298, -10.1517, 28.9146, 14.3759, 69.05, -160.871
3.712, -1, -42.1157, -10.1829, 28.9269, 14.3796, 69.0182, -160.978
3.716, -1, -42.2016, -10.2141, 28.9392, 14.3834, 68.9864, -161.084
3.72, -1, -42.2875, -10.2453, 28.9515, 14.3871, 68.9546, -161.19
3.724, -1, -42.3734, -10.2765, 28.9638, 14.3909, 68.9227, -161.297
3.728, -1, -42.4593, -10.3076, 28.9761, 14.3946, 68.8909, -161.403
3.732, -1, -42.5452, -10.3388, 28.9883, 14.3984, 68.8591, -161.51
3.735, -1, -42.631, -10.37, 29.0006, 14.4021, 68.8273, -161.616
3.74, -1, -42.7169, -10.4012, 29.0129, 14.4059, 68.7956, -161.722
3.744, -1, -42.8027, -10.4323, 29.0252, 14.4096, 68.7638, -161.829
3.748, -1, -42.8885, -10.4635, 29.0375, 14.4134, 68.732, -161.935
3.752, -1, -42.9743, -10.4946, 29.0497, 14.4171, 68.7002, -162.041
3.756, -1, -43.0601, -10.5258, 29.062, 14.4209, 68.6684, -162.148
3.76, -1, -43.1459, -10.5569, 29.0743, 14.4246, 68.6366, -162.254
3.764, -1, -43.2317, -10.5881, 29.0866, 14.4284, 68.6049, -162.36
3.768, -1, -43.3175, -10.6192, 29.0988, 14.4321, 68.5731, -162.467
3.772, -1, -43.4033, -10.6504, 29.1111, 14.4359, 68.5413, -162.573
3.776, -1, -43.489, -10.6815, 29.1234, 14.4396, 68.5096, -162.679
3.78, -1, -43.5748, -10.7127, 29.1356, 14.4433, 68.4778, -162.785
3.784, -1, -43.6605, -10.7438, 29.1479, 14.4471, 68.4461, -162.892
3.788, -1, -43.7463, -10.7749, 29.1602, 14.4508, 68.4143, -162.998
3.792, -1, -43.832, -10.806, 29.1724, 14.4546, 68.3826, -163.104
3.796, -1, -43.9177, -10.8372, 29.1847, 14.4583, 68.3508, -163.21
3.8, -1, -44.0034, -10.8683, 29.197, 14.4621, 68.3191, -163.317
3.804, -1, -44.0891, -10.8994, 29.2092, 14.4658, 68.2873, -163.423
3.808, -1, -44.1748, -10.9305, 29.2215, 14.4695, 68.2556, -163.529
3.812, -1, -44.2604, -10.9616, 29.2337, 14.4733, 68.2239, -163.635
3.816, -1, -44.3461, -10.9927, 29.246, 14.477, 68.1922, -163.741
3.82, -1, -44.4318, -11.0238, 29.2582, 14.4808, 68.1604, -163.847
3.824, -1, -44.5174, -11.0549, 29.2705, 14.4845, 68.1287, -163.953
3.828, -1, -44.6031, -11.086, 29.2827, 14.4882, 68.097, -164.06
3.832, -1, -44.6887, -11.1171, 29.295, 14.492, 68.0653, -164.166
3.836, -1, -44.7743, -11.1482, 29.3072, 14.4957, 68.0336, -164.272
3.84, -1, -44.8599, -11.1793, 29.3195, 14.4995, 68.0019, -164.378
3.844, -1, -44.9455, -11.2104, 29.3317, 14.5032, 67.9702, -164.484
3.848, -1, -45.0311, -11.2414, 29.344, 14.5069, 67.9385, -164.59
3.852, -1, -45.1167, -11.2725, 29.3562, 14.5107, 67.9068, -164.696
3.856, -1, -45.2023, -11.3036, 29.3685, 14.5144, 67.8751, -164.802
3.86, -1, -45.2878, -11.3347, 29.3807, 14.5181, 67.8434, -164.908
3.864, -1, -45.3734, -11.3657, 29.3929, 14.5219, 67.8117, -165.014
3.868, -1, -45.4589, -11.3968, 29.4052, 14.5256, 67.78, -165.12
3.872, -1, -45.5445, -11.4278, 29.4174, 14.5293, 67.7483, -165.226
3.876, -1, -45.63, -11.4589, 29.4296, 14.5331, 67.7167, -165.332
3.88, -1, -45.7155, -11.4899, 29.4419, 14.5368, 67.685, -165.438
3.884, -1, -45.801, -11.521, 29.4541, 14.5405, 67.6533, -165.544
3.888, -1, -45.8866, -11.552, 29.4663, 14.5443, 67.6217, -165.65
3.892, -1, -45.972, -11.5831, 29.4786, 14.548, 67.59, -165.756
3.896, -1, -46.0575, -11.6141, 29.4908, 14.5517, 67.5583, -165.862
3.9, -1, -46.143, -11.6451, 29.503, 14.5555, 67.5267, -165.968
3.904, -1, -46.2283, -11.6761, 29.5153, 14.5592, 67.495, -166.074
3.908, -1, -46.3133, -11.707, 29.5275, 14.5629, 67.4634, -166.18
3.912, -1, -46.3979, -11.7378, 29.5398, 14.5667, 67.4317, -166.285
3.916, -1, -46.4819, -11.7683, 29.5522, 14.5704, 67.4002, -166.391
3.92, -1, -46.565, -11.7985, 29.5645, 14.5742, 67.3687, -166.496
3.924, -1, -46.647, -11.8281, 29.577, 14.5779, 67.3373, -166.601
3.928, -1, -46.7275, -11.8571, 29.5894, 14.5817, 67.3061, -166.706
3.932, -1, -46.8064, -11.8854, 29.6019, 14.5854, 67.2753, -166.809
3.936, -1, -46.8834, -11.9129, 29.6143, 14.589, 67.245, -166.91
3.94, -1, -46.9583, -11.9395, 29.6265, 14.5926, 67.2153, -167.009
3.944, -1, -47.0307, -11.9651, 29.6383, 14.5962, 67.1865, -167.106
3.948, -1, -47.1003, -11.9896, 29.6498, 14.5995, 67.1587, -167.199
3.952, -1, -47.1669, -12.013, 29.6608, 14.6028, 67.1322, -167.287
3.956, -1, -47.2299, -12.0351, 29.6711, 14.6058, 67.1071, -167.371
3.96, -1, -47.2891, -12.056, 29.6808, 14.6087, 67.0837, -167.449
3.964, -1, -47.3442, -12.0754, 29.6896, 14.6113, 67.0621, -167.522
3.968, -1, -47.3952, -12.0935, 29.6975, 14.6137, 67.0424, -167.587
3.972, -1, -47.4419, -12.1103, 29.7044, 14.6158, 67.0248, -167.647
3.976, -1, -47.4845, -12.1258, 29.7104, 14.6176, 67.0092, -167.699
3.98, -1, -47.5229, -12.1399, 29.7153, 14.6191, 66.9956, -167.744
3.984, -1, -47.5572, -12.1528, 29.7193, 14.6204, 66.984, -167.783
3.988, -1, -47.5873, -12.1643, 29.7225, 14.6215, 66.9743, -167.815
3.992, -1, -47.6135, -12.1745, 29.7249, 14.6223, 66.9663, -167.842
3.996, -1, -47.636, -12.1833, 29.7267, 14.623, 66.9598, -167.864
3.999, -1, -47.6549, -12.1908, 29.7279, 14.6235, 66.9546, -167.881
4.004, -1, -47.6708, -12.1971, 29.7288, 14.6239, 66.9506, -167.895
4.008, -1, -47.6839, -12.2023, 29.7293, 14.6241, 66.9475, -167.905
4.012, -1, -47.6948, -12.2066, 29.7295, 14.6243, 66.9452, -167.913
4.016, -1, -47.7036, -12.2101, 29.7296, 14.6244, 66.9436, -167.918
4.02, -1, -47.7107, -12.2128, 29.7296, 14.6245, 66.9424, -167.922
4.024, 2, -47.7162, -12.2149, 29.7296, 14.6246, 66.9416, -167.925
4.028, 2, -47.7202, -12.2164, 29.7295, 14.6246, 66.941, -167.927
4.032, 2, -47.7232, -12.2175, 29.7294, 14.6246, 66.9407, -167.928
4.036, 2, -47.7252, -12.2183, 29.7294, 14.6246, 66.9404, -167.929
4.04, 2, -47.7266, -12.2188, 29.7293, 14.6246, 66.9402, -167.93
4.044, 2, -47.7275, -12.2191, 29.7293, 14.6246, 66.9401, -167.93
4.048, 2, -47.7282, -12.2194, 29.7293, 14.6246, 66.94, -167.93
4.052, 2, -47.7286, -12.2195, 29.7293, 14.6246, 66.9399, -167.93
4.056, 2, -47.7289, -12.2196, 29.7293, 14.6246, 66.9399, -167.931
4.06, 2, -47.7291, -12.2197, 29.7293, 14.6246, 66.9399, -167.931
4.064, 2, -47.7292, -12.2197, 29.7293, 14.6246, 66.9399, -167.931
4.068, 2, -47.7293, -12.2198, 29.7293, 14.6246, 66.9399, -167.931
4.072, 2, -47.7294, -12.2198, 29.7293, 14.6246, 66.9398, -167.931
4.076, 2, -47.7294, -12.2198, 29.7293, 14.6246, 66.9398, -167.931
4.08, 2, -47.7294, -12.2198, 29.7293, 14.6246, 66.9398, -167.931
4.084, 2, -47.7295, -12.2198, 29.7293, 14.6246, 66.9398, -167.931
4.088, 2, -47.7295, -12.2198, 29.7293, 14.6246, 66.9398, -167.931
4.092, 2, -47.7295, -12.2198, 29.7293, 14.6246, 66.9398, -167.931
4.096, 2, -47.7295, -12.2198, 29.7293, 14.6246, 66.9398, -167.931
4.1, 2, -47.7295, -12.2198, 29.7293, 14.6246, 66.9398, -167.931
4.104, 2, -47.7295, -12.2198, 29.7293, 14.6246, 66.9398, -167.931
4.108, 2, -47.7295, -12.2198, 29.7293, 14.6246, 66.9398, -167.931
4.112, 2, -47.7295, -12.2198, 29.7293, 14.6246, 66.9398, -167.931
4.116, 2, -47.7295, -12.2198, 29.7293, 14.6246, 66.9398, -167.931
4.12, 2, -47.7295, -12.2198, 29.7293, 14.6246, 66.9398, -167.931
4.124, 2, -47.7295, -12.2198, 29.7293, 14.6246, 66.9398, -167.931
4.128, 2, -47.7295, -12.2198, 29.7293, 14.6246, 66.9398, -167.931
4.132, 2, -47.7295, -12.2198, 29.7293, 14.6246, 66.9398, -167.931
4.136, 2, -47.7295, -12.2198, 29.7293, 14.6246, 66.9398, -167.931
4.14, 2, -47.7295, -12.2198, 29.7293, 14.6246, 66.9398, -167.931
4.144, 2, -47.7295, -12.2198, 29.7293, 14.6246, 66.9398, -167.931
4.148, 2, -47.7295, -12.2198, 29.7293, 14.6246, 66.9398, -167.931
4.152, 2, -47.7295, -12.2198, 29.7293, 14.6246, 66.9398, -167.931
4.156, 2, -47.7295, -12.2198, 29.7293, 14.6246, 66.9398, -167.931
4.16, 2, -47.7295, -12.2198, 29.7293, 14.6246, 66.9398, -167.931
4.164, 2, -47.7295, -12.2198, 29.7293, 14.6246, 66.9398, -167.931
4.168, 2, -47.7295, -12.2198, 29.7293, 14.6246, 66.9398, -167.931
4.172, 2, -47.7295, -12.2198, 29.7293, 14.6246, 66.9398, -167.931
4.176, 2, -47.7295, -12.2198, 29.7293, 14.6246, 66.9398, -167.931
4.18, 2, -47.7295, -12.2198, 29.7293, 14.6246, 66.9398, -167.931
4.184, 2, -47.7295, -12.2198, 29.7293, 14.6246, 66.9398, -167.931
4.188, 2, -47.7295, -12.2198, 29.7293, 14.6246, 66.9398, -167.931
4.192, 2, -47.7295, -12.2198, 29.7293, 14.6246, 66.9398, -167.931
4.196, 2, -47.7295, -12.2198, 29.7293, 14.6246, 66.9398, -167.931
4.2, 2, -47.7295, -12.2198, 29.7293, 14.6246, 66.9398, -167.931
4.204, 2, -47.7295, -12.2198, 29.7293, 14.6246, 66.9398, -167.931
4.208, 2, -47.7295, -12.2198, 29.7293, 14.6246, 66.9398, -167.931
4.212, 2, -47.7295, -12.2198, 29.7293, 14.6246, 66.9398, -167.931
4.216, 2, -47.7295, -12.2198, 29.7293, 14.6246, 66.9398, -167.931
4.22, 2, -47.7295, -12.2198, 29.7293, 14.6246, 66.9398, -167.931
4.224, 2, -47.7295, -12.2198, 29.7293, 14.6246, 66.9398, -167.931
4.228, 2, -47.7295, -12.2198, 29.7293, 14.6246, 66.9398, -167.931
4.232, 2, -47.7295, -12.2198, 29.7293, 14.6246, 66.9398, -167.931
4.236, 2, -47.7295, -12.2198, 29.7293, 14.6246, 66.9398, -167.931
4.24, 2, -47.7295, -12.2198, 29.7293, 14.6246, 66.9398, -167.931
4.244, 2, -47.7295, -12.2198, 29.7293, 14.6246, 66.9398, -167.931
4.248, 2, -47.7295, -12.2198, 29.7293, 14.6246, 66.9398, -167.931
4.252, 2, -47.7295, -12.2198, 29.7293, 14.6246, 66.9398, -167.931
4.256, 2, -47.7295, -12.2198, 29.7293, 14.6246, 66.9398, -167.931
4.26, 2, -47.7295, -12.2198, 29.7293, 14.6246, 66.9398, -167.931
4.264, 2, -47.7295, -12.2198, 29.7293, 14.6246, 66.9398, -167.931
4.268, 2, -47.7295, -12.2198, 29.7293, 14.6246, 66.9398, -167.931
4.272, 2, -47.7295, -12.2198, 29.7293, 14.6246, 66.9398, -167.931
4.276, 2, -47.7295, -12.2198, 29.7293, 14.6246, 66.9398, -167.931
4.28, 2, -47.7295, -12.2198, 29.7293, 14.6246, 66.9398, -167.931
4.284, 2, -47.7295, -12.2198, 29.7293, 14.6246, 66.9398, -167.931
4.288, 2, -47.7295, -12.2198, 29.7293, 14.6246, 66.9398, -167.931
4.292, 2, -47.7295, -12.2198, 29.7293, 14.6246, 66.9398, -167.931
4.296, 2, -47.7295, -12.2198, 29.7293, 14.6246, 66.9398, -167.931
4.3, 2, -47.7295, -12.2198, 29.7293, 14.6246, 66.9398, -167.931
4.304, 2, -47.7295, -12.2198, 29.7293, 14.6246, 66.9398, -167.931
4.308, 2, -47.7295, -12.2198, 29.7293, 14.6246, 66.9398, -167.931
4.312, 2, -47.7295, -12.2198, 29.7293, 14.6246, 66.9398, -167.931
4.316, 2, -47.7295, -12.2198, 29.7293, 14.6246, 66.9398, -167.931
4.32, 2, -47.7295, -12.2198, 29.7293, 14.6246, 66.9398, -167.931
4.324, 2, -47.7295, -12.2198, 29.7293, 14.6246, 66.9398, -167.931
4.328, 2, -47.7295, -12.2198, 29.7293, 14.6246, 66.9398, -167.931
4.332, 2, -47.7295, -12.2198, 29.7293, 14.6246, 66.9398, -167.931
4.336, 2, -47.7295, -12.2198, 29.7293, 14.6246, 66.9398, -167.931
4.34, 2, -47.7295, -12.2198, 29.7293, 14.6246, 66.9398, -167.931
4.344, 2, -47.7295, -12.2198, 29.7293, 14.6246, 66.9398, -167.931
4.348, 2, -47.7295, -12.2198, 29.7293, 14.6246, 66.9398, -167.931
4.352, 2, -47.7295, -12.2198, 29.7293, 14.6246, 66.9398, -167.931
4.356, 2, -47.7295, -12.2198, 29.7293, 14.6246, 66.9398, -167.931
4.36, 2, -47.7295, -12.2198, 29.7293, 14.6246, 66.9398, -167.931
4.364, 2, -47.7295, -12.2198, 29.7293, 14.6246, 66.9398, -167.931
4.368, 2, -47.7295, -12.2198, 29.7293, 14.6246, 66.9398, -167.931
4.372, 2, -47.7295, -12.2198, 29.7293, 14.6246, 66.9398, -167.931
4.376, 2, -47.7295, -12.2198, 29.7293, 14.6246, 66.9398, -167.931
4.38, 2, -47.7295, -12.2198, 29.7293, 14.6246, 66.9398, -167.931
4.384, 2, -47.7295, -12.2198, 29.7293, 14.6246, 66.9398, -167.931
4.388, 2, -47.7295, -12.2198, 29.7293, 14.6246, 66.9398, -167.931
4.392, 2, -47.7295, -12.2198, 29.7293, 14.6246, 66.9398, -167.931
4.396, 2, -47.7295, -12.2198, 29.7293, 14.6246, 66.9398, -167.931
4.4, 2, -47.7295, -12.2198, 29.7293, 14.6246, 66.9398, -167.931
4.404, 2, -47.7295, -12.2198, 29.7293, 14.6246, 66.9398, -167.931
4.408, 2, -47.7295, -12.2198, 29.7293, 14.6246, 66.9398, -167.931
4.412, 2, -47.7295, -12.2198, 29.7293, 14.6246, 66.9398, -167.931
4.416, 2, -47.7295, -12.2198, 29.7293, 14.6246, 66.9398, -167.931
4.42, 2, -47.7295, -12.2198, 29.7293, 14.6246, 66.9398, -167.931
4.424, 2, -47.7295, -12.2198, 29.7293, 14.6246, 66.9398, -167.931
4.428, 2, -47.7295, -12.2198, 29.7293, 14.6246, 66.9398, -167.931
4.432, 2, -47.7295, -12.2198, 29.7293, 14.6246, 66.9398, -167.931
4.436, 2, -47.7295, -12.2198, 29.7293, 14.6246, 66.9398, -167.931
4.44, 2, -47.7295, -12.2198, 29.7293, 14.6246, 66.9398, -167.931
4.444, 2, -47.7295, -12.2198, 29.7293, 14.6246, 66.9398, -167.931
4.448, 2, -47.7295, -12.2198, 29.7293, 14.6246, 66.9398, -167.931
4.452, 2, -47.7295, -12.2198, 29.7293, 14.6246, 66.9398, -167.931
4.456, 2, -47.7295, -12.2198, 29.7293, 14.6246, 66.9398, -167.931
4.46, 2, -47.7295, -12.2198, 29.7293, 14.6246, 66.9398, -167.931
4.464, 2, -47.7295, -12.2198, 29.7293, 14.6246, 66.9398, -167.931
4.468, 2, -47.7295, -12.2198, 29.7293, 14.6246, 66.9398, -167.931
4.472, 2, -47.7295, -12.2198, 29.7293, 14.6246, 66.9398, -167.931
4.476, 2, -47.7295, -12.2198, 29.7293, 14.6246, 66.9398, -167.931
4.48, 2, -47.7295, -12.2198, 29.7293, 14.6246, 66.9398, -167.931
4.484, 2, -47.7295, -12.2198, 29.7293, 14.6246, 66.9398, -167.931
4.488, 2, -47.7295, -12.2198, 29.7293, 14.6246, 66.9398, -167.931
4.492, 2, -47.7295, -12.2198, 29.7293, 14.6246, 66.9398, -167.931
4.496, 2, -47.7295, -12.2198, 29.7293, 14.6246, 66.9398, -167.931
4.5, 2, -47.7295, -12.2198, 29.7293, 14.6246, 66.9398, -167.931
4.504, 2, -47.7295, -12.2198, 29.7293, 14.6246, 66.9398, -167.931
4.508, 2, -47.7295, -12.2198, 29.7293, 14.6246, 66.9398, -167.931
4.512, 2, -47.7295, -12.2198, 29.7293, 14.6246, 66.9398, -167.931
4.516, 2, -47.7295, -12.2198, 29.7293, 14.6246, 66.9398, -167.931
4.52, 2, -47.7295, -12.2198, 29.7293, 14.6246, 66.9398, -167.931
4.524, 2, -47.7295, -12.2198, 29.7293, 14.6246, 66.9398, -167.931
4.528, 2, -47.7295, -12.2198, 29.7293, 14.6246, 66.9398, -167.931
4.532, 2, -47.7295, -12.2198, 29.7293, 14.6246, 66.9398, -167.931
4.536, 2, -47.7295, -12.2198, 29.7293, 14.6246, 66.9398, -167.931
4.54, 2, -47.7295, -12.2198, 29.7293, 14.6246, 66.9398, -167.931
4.544, 2, -47.7295, -12.2198, 29.7293, 14.6246, 66.9398, -167.931
4.548, 2, -47.7295, -12.2198, 29.7293, 14.6246, 66.9398, -167.931
4.552, 2, -47.7295, -12.2198, 29.7293, 14.6246, 66.9398, -167.931
4.556, 2, -47.7295, -12.2198, 29.7293, 14.6246, 66.9398, -167.931
4.56, 2, -47.7295, -12.2198, 29.7293, 14.6246, 66.9398, -167.931
4.564, 2, -47.7295, -12.2198, 29.7293, 14.6246, 66.9398, -167.931
4.568, 2, -47.7295, -12.2198, 29.7293, 14.6246, 66.9398, -167.931
4.572, 2, -47.7295, -12.2198, 29.7293, 14.6246, 66.9398, -167.931
4.576, 2, -47.7295, -12.2198, 29.7293, 14.6246, 66.9398, -167.931
4.58, 2, -47.7295, -12.2198, 29.7293, 14.6246, 66.9398, -167.931
4.584, 2, -47.7295, -12.2198, 29.7293, 14.6246, 66.9398, -167.931
4.588, 2, -47.7295, -12.2198, 29.7293, 14.6246, 66.9398, -167.931
4.592, 2, -47.7295, -12.2198, 29.7293, 14.6246, 66.9398, -167.931
4.596, 2, -47.7295, -12.2198, 29.7293, 14.6246, 66.9398, -167.931
4.6, 2, -47.7295, -12.2198, 29.7293, 14.6246, 66.9398, -167.931
4.604, 2, -47.7295, -12.2198, 29.7293, 14.6246, 66.9398, -167.931
4.608, 2, -47.7295, -12.2198, 29.7293, 14.6246, 66.9398, -167.931
4.612, 2, -47.7295, -12.2198, 29.7293, 14.6246, 66.9398, -167.931
4.616, 2, -47.7295, -12.2198, 29.7293, 14.6246, 66.9398, -167.931
4.62, 2, -47.7295, -12.2198, 29.7293, 14.6246, 66.9398, -167.931
4.624, 2, -47.7295, -12.2198, 29.7293, 14.6246, 66.9398, -167.931
4.628, 2, -47.7295, -12.2198, 29.7293, 14.6246, 66.9398, -167.931
4.632, 2, -47.7295, -12.2198, 29.7293, 14.6246, 66.9398, -167.931
4.636, 2, -47.7295, -12.2198, 29.7293, 14.6246, 66.9398, -167.931
4.64, 2, -47.7295, -12.2198, 29.7293, 14.6246, 66.9398, -167.931
4.644, 2, -47.7295, -12.2198, 29.7293, 14.6246, 66.9398, -167.931
4.648, 2, -47.7295, -12.2198, 29.7293, 14.6246, 66.9398, -167.931
4.652, 2, -47.7295, -12.2198, 29.7293, 14.6246, 66.9398, -167.931
4.656, 2, -47.7295, -12.2198, 29.7293, 14.6246, 66.9398, -167.931
4.66, 2, -47.7295, -12.2198, 29.7293, 14.6246, 66.9398, -167.931
4.664, 2, -47.7295, -12.2198, 29.7293, 14.6246, 66.9398, -167.931
4.668, 2, -47.7295, -12.2198, 29.7293, 14.6246, 66.9398, -167.931
4.672, 2, -47.7295, -12.2198, 29.7293, 14.6246, 66.9398, -167.931
4.676, 2, -47.7295, -12.2198, 29.7293, 14.6246, 66.9398, -167.931
4.68, 2, -47.7295, -12.2198, 29.7293, 14.6246, 66.9398, -167.931
4.684, 2, -47.7295, -12.2198, 29.7293, 14.6246, 66.9398, -167.931
4.688, 2, -47.7295, -12.2198, 29.7293, 14.6246, 66.9398, -167.931
4.692, 2, -47.7295, -12.2198, 29.7293, 14.6246, 66.9398, -167.931
4.696, 2, -47.7295, -12.2198, 29.7293, 14.6246, 66.9398, -167.931
4.7, 2, -47.7295, -12.2198, 29.7293, 14.6246, 66.9398, -167.931
4.704, 2, -47.7295, -12.2198, 29.7293, 14.6246, 66.9398, -167.931
4.708, 2, -47.7295, -12.2198, 29.7293, 14.6246, 66.9398, -167.931
4.712, 2, -47.7295, -12.2198, 29.7293, 14.6246, 66.9398, -167.931
4.716, 2, -47.7295, -12.2198, 29.7293, 14.6246, 66.9398, -167.931
4.72, 2, -47.7295, -12.2198, 29.7293, 14.6246, 66.9398, -167.931
4.724, 2, -47.7295, -12.2198, 29.7293, 14.6246, 66.9398, -167.931
4.728, 2, -47.7295, -12.2198, 29.7293, 14.6246, 66.9398, -167.931
4.732, 2, -47.7295, -12.2198, 29.7293, 14.6246, 66.9398, -167.931
4.736, 2, -47.7295, -12.2198, 29.7293, 14.6246, 66.9398, -167.931
4.74, 2, -47.7295, -12.2198, 29.7293, 14.6246, 66.9398, -167.931
4.744, 2, -47.7295, -12.2198, 29.7293, 14.6246, 66.9398, -167.931
4.748, 2, -47.7295, -12.2198, 29.7293, 14.6246, 66.9398, -167.931
4.752, 2, -47.7295, -12.2198, 29.7293, 14.6246, 66.9398, -167.931
4.756, 2, -47.7295, -12.2198, 29.7293, 14.6246, 66.9398, -167.931
4.76, 2, -47.7295, -12.2198, 29.7293, 14.6246, 66.9398, -167.931
4.764, 2, -47.7295, -12.2198, 29.7293, 14.6246, 66.9398, -167.931
4.768, 2, -47.7295, -12.2198, 29.7293, 14.6246, 66.9398, -167.931
4.772, 2, -47.7295, -12.2198, 29.7293, 14.6246, 66.9398, -167.931
4.776, 2, -47.7295, -12.2198, 29.7293, 14.6246, 66.9398, -167.931
4.78, 2, -47.7295, -12.2198, 29.7293, 14.6246, 66.9398, -167.931
4.784, 2, -47.7295, -12.2198, 29.7293, 14.6246, 66.9398, -167.931
4.788, 2, -47.7295, -12.2198, 29.7293, 14.6246, 66.9398, -167.931
4.792, 2, -47.7295, -12.2198, 29.7293, 14.6246, 66.9398, -167.931
4.796, 2, -47.7295, -12.2198, 29.7293, 14.6246, 66.9398, -167.931
4.8, 2, -47.7295, -12.2198, 29.7293, 14.6246, 66.9398, -167.931
4.804, 2, -47.7295, -12.2198, 29.7293, 14.6246, 66.9398, -167.931
4.808, 2, -47.7295, -12.2198, 29.7293, 14.6246, 66.9398, -167.931
4.812, 2, -47.7295, -12.2198, 29.7293, 14.6246, 66.9398, -167.931
4.816, 2, -47.7295, -12.2198, 29.7293, 14.6246, 66.9398, -167.931
4.82, 2, -47.7295, -12.2198, 29.7293, 14.6246, 66.9398, -167.931
4.824, 2, -47.7295, -12.2198, 29.7293, 14.6246, 66.9398, -167.931
4.828, 2, -47.7295, -12.2198, 29.7293, 14.6246, 66.9398, -167.931
4.832, 2, -47.7295, -12.2198, 29.7293, 14.6246, 66.9398, -167.931
4.836, 2, -47.7295, -12.2198, 29.7293, 14.6246, 66.9398, -167.931
4.84, 2, -47.7295, -12.2198, 29.7293, 14.6246, 66.9398, -167.931
4.844, 2, -47.7295, -12.2198, 29.7293, 14.6246, 66.9398, -167.931
4.848, 2, -47.7295, -12.2198, 29.7293, 14.6246, 66.9398, -167.931
4.852, 2, -47.7295, -12.2198, 29.7293, 14.6246, 66.9398, -167.931
4.856, 2, -47.7295, -12.2198, 29.7293, 14.6246, 66.9398, -167.931
4.86, 2, -47.7295, -12.2198, 29.7293, 14.6246, 66.9398, -167.931
4.864, 2, -47.7295, -12.2198, 29.7293, 14.6246, 66.9398, -167.931
4.868, 2, -47.7295, -12.2198, 29.7293, 14.6246, 66.9398, -167.931
4.872, 2, -47.7295, -12.2198, 29.7293, 14.6246, 66.9398, -167.931
4.876, 2, -47.7295, -12.2198, 29.7293, 14.6246, 66.9398, -167.931
4.88, 2, -47.7295, -12.2198, 29.7293, 14.6246, 66.9398, -167.931
4.884, 2, -47.7295, -12.2198, 29.7293, 14.6246, 66.9398, -167.931
4.888, 2, -47.7295, -12.2198, 29.7293, 14.6246, 66.9398, -167.931
4.892, 2, -47.7295, -12.2198, 29.7293, 14.6246, 66.9398, -167.931
4.896, 2, -47.7295, -12.2198, 29.7293, 14.6246, 66.9398, -167.931
4.9, 2, -47.7295, -12.2198, 29.7293, 14.6246, 66.9398, -167.931
4.904, 2, -47.7295, -12.2198, 29.7293, 14.6246, 66.9398, -167.931
4.908, 2, -47.7295, -12.2198, 29.7293, 14.6246, 66.9398, -167.931
4.912, 2, -47.7295, -12.2198, 29.7293, 14.6246, 66.9398, -167.931
4.916, 2, -47.7295, -12.2198, 29.7293, 14.6246, 66.9398, -167.931
4.92, 2, -47.7295, -12.2198, 29.7293, 14.6246, 66.9398, -167.931
4.924, 2, -47.7295, -12.2198, 29.7293, 14.6246, 66.9398, -167.931
4.928, 2, -47.7295, -12.2198, 29.7293, 14.6246, 66.9398, -167.931
4.932, 2, -47.7295, -12.2198, 29.7293, 14.6246, 66.9398, -167.931
4.936, 2, -47.7295, -12.2198, 29.7293, 14.6246, 66.9398, -167.931
4.94, 2, -47.7295, -12.2198, 29.7293, 14.6246, 66.9398, -167.931
4.944, 2, -47.7295, -12.2198, 29.7293, 14.6246, 66.9398, -167.931
4.948, 2, -47.7295, -12.2198, 29.7293, 14.6246, 66.9398, -167.931
4.952, 2, -47.7295, -12.2198, 29.7293, 14.6246, 66.9398, -167.931
4.956, 2, -47.7295, -12.2198, 29.7293, 14.6246, 66.9398, -167.931
4.96, 2, -47.7295, -12.2198, 29.7293, 14.6246, 66.9398, -167.931
4.964, 2, -47.7295, -12.2198, 29.7293, 14.6246, 66.9398, -167.931
4.968, 2, -47.7295, -12.2198, 29.7293, 14.6246, 66.9398, -167.931
4.972, 2, -47.7295, -12.2198, 29.7293, 14.6246, 66.9398, -167.931
4.976, 2, -47.7295, -12.2198, 29.7293, 14.6246, 66.9398, -167.931
4.98, 2, -47.7295, -12.2198, 29.7293, 14.6246, 66.9398, -167.931
4.984, 2, -47.7295, -12.2198, 29.7293, 14.6246, 66.9398, -167.931
4.988, 2, -47.7295, -12.2198, 29.7293, 14.6246, 66.9398, -167.931
4.992, 2, -47.7295, -12.2198, 29.7293, 14.6246, 66.9398, -167.931
4.996, 2, -47.7295, -12.2198, 29.7293, 14.6246, 66.9398, -167.931
5, 2, -47.7295, -12.2198, 29.7293, 14.6246, 66.9398, -167.931
5.004, 2, -47.7295, -12.2198, 29.7293, 14.6246, 66.9398, -167.931
5.008, 2, -47.7295, -12.2198, 29.7293, 14.6246, 66.9398, -167.931
5.012, 2, -47.7295, -12.2198, 29.7293, 14.6246, 66.9398, -167.931
5.016, 2, -47.7295, -12.2198, 29.7293, 14.6246, 66.9398, -167.931
5.02, 2, -47.7295, -12.2198, 29.7293, 14.6246, 66.9398, -167.931
5.024, 2, -47.7295, -12.2198, 29.7293, 14.6246, 66.9398, -167.931
5.028, 2, -47.7295, -12.2198, 29.7293, 14.6246, 66.9398, -167.931
5.032, 2, -47.7295, -12.2198, 29.7293, 14.6246, 66.9398, -167.931
5.036, 2, -47.7295, -12.2198, 29.7293, 14.6246, 66.9398, -167.931
5.04, 2, -47.7295, -12.2198, 29.7293, 14.6246, 66.9398, -167.931
5.044, 2, -47.7295, -12.2198, 29.7293, 14.6246, 66.9398, -167.931
5.048, 2, -47.7295, -12.2198, 29.7293, 14.6246, 66.9398, -167.931
5.052, 2, -47.7295, -12.2198, 29.7293, 14.6246, 66.9398, -167.931
5.056, 2, -47.7295, -12.2198, 29.7293, 14.6246, 66.9398, -167.931
5.06, 2, -47.7295, -12.2198, 29.7293, 14.6246, 66.9398, -167.931
5.064, 2, -47.7295, -12.2198, 29.7293, 14.6246, 66.9398, -167.931
5.068, 2, -47.7295, -12.2198, 29.7293, 14.6246, 66.9398, -167.931
5.072, 2, -47.7295, -12.2198, 29.7293, 14.6246, 66.9398, -167.931
5.076, 2, -47.7295, -12.2198, 29.7293, 14.6246, 66.9398, -167.931
5.08, 2, -47.7295, -12.2198, 29.7293, 14.6246, 66.9398, -167.931
5.084, 2, -47.7295, -12.2198, 29.7293, 14.6246, 66.9398, -167.931
5.088, 2, -47.7295, -12.2198, 29.7293, 14.6246, 66.9398, -167.931
5.092, 2, -47.7295, -12.2198, 29.7293, 14.6246, 66.9398, -167.931
5.096, 2, -47.7295, -12.2198, 29.7293, 14.6246, 66.9398, -167.931
5.1, 4, -47.7295, -12.2198, 29.7293, 14.6246, 66.9398, -167.931
5.104, 4, -47.7295, -12.2198, 29.7293, 14.6246, 66.9398, -167.931
5.108, 4, -47.7295, -12.2198, 29.7293, 14.6246, 66.9398, -167.931
5.112, 4, -47.7295, -12.2198, 29.7293, 14.6246, 66.9398, -167.931
5.116, 4, -47.7295, -12.2198, 29.7293, 14.6246, 66.9398, -167.931
5.12, 4, -47.7295, -12.2198, 29.7293, 14.6246, 66.9398, -167.931
5.124, 4, -47.7295, -12.2198, 29.7293, 14.6246, 66.9398, -167.931
5.128, 4, -47.7295, -12.2198, 29.7293, 14.6246, 66.9398, -167.931
5.132, 4, -47.7295, -12.2198, 29.7293, 14.6246, 66.9398, -167.931
5.136, 4, -47.7295, -12.2198, 29.7293, 14.6246, 66.9398, -167.931
5.14, 4, -47.7295, -12.2198, 29.7293, 14.6246, 66.9398, -167.931
5.144, 4, -47.7295, -12.2198, 29.7293, 14.6246, 66.9398, -167.931
5.148, 4, -47.7295, -12.2198, 29.7293, 14.6246, 66.9398, -167.931
5.152, 4, -47.7295, -12.2198, 29.7293, 14.6246, 66.9398, -167.931
5.156, 4, -47.7295, -12.2198, 29.7293, 14.6246, 66.9398, -167.931
5.16, 4, -47.7295, -12.2198, 29.7293, 14.6246, 66.9398, -167.931
5.164, 4, -47.7295, -12.2198, 29.7293, 14.6246, 66.9398, -167.931
5.168, 4, -47.7295, -12.2198, 29.7293, 14.6246, 66.9398, -167.931
5.172, 4, -47.7295, -12.2198, 29.7293, 14.6246, 66.9398, -167.931
5.176, 4, -47.7295, -12.2198, 29.7293, 14.6246, 66.9398, -167.931
5.18, 4, -47.7295, -12.2198, 29.7293, 14.6246, 66.9398, -167.931
5.184, 4, -47.7295, -12.2198, 29.7293, 14.6246, 66.9398, -167.931
5.188, 4, -47.7295, -12.2198, 29.7293, 14.6246, 66.9398, -167.931
5.192, 4, -47.7295, -12.2198, 29.7293, 14.6246, 66.9398, -167.931
5.196, 4, -47.7295, -12.2198, 29.7293, 14.6246, 66.9398, -167.931
5.2, 4, -47.7295, -12.2198, 29.7293, 14.6246, 66.9398, -167.931
5.204, 4, -47.7295, -12.2198, 29.7293, 14.6246, 66.9398, -167.931
5.208, 4, -47.7295, -12.2198, 29.7293, 14.6246, 66.9398, -167.931
5.212, 4, -47.7295, -12.2198, 29.7293, 14.6246, 66.9398, -167.931
5.216, 4, -47.7295, -12.2198, 29.7293, 14.6246, 66.9398, -167.931
5.22, 4, -47.7295, -12.2198, 29.7293, 14.6246, 66.9398, -167.931
5.224, 4, -47.7295, -12.2198, 29.7293, 14.6246, 66.9398, -167.931
5.228, 4, -47.7295, -12.2198, 29.7293, 14.6246, 66.9398, -167.931
5.232, 4, -47.7295, -12.2198, 29.7293, 14.6246, 66.9398, -167.931
5.236, 4, -47.7295, -12.2198, 29.7293, 14.6246, 66.9398, -167.931
5.24, 4, -47.7295, -12.2199, 29.7293, 14.6246, 66.9398, -167.931
5.244, 4, -47.7296, -12.2199, 29.7294, 14.6247, 66.9399, -167.931
5.248, 4, -47.7298, -12.2201, 29.7295, 14.6248, 66.9399, -167.931
5.252, 4, -47.7302, -12.2205, 29.7299, 14.6251, 66.9401, -167.931
5.256, 4, -47.7308, -12.2212, 29.7306, 14.6258, 66.9404, -167.93
5.26, 4, -47.7316, -12.2223, 29.7318, 14.6272, 66.941, -167.93
5.264, 4, -47.7327, -12.2237, 29.7336, 14.6298, 66.942, -167.929
5.268, 4, -47.7341, -12.2256, 29.7363, 14.6342, 66.9437, -167.927
5.272, 4, -47.7357, -12.2279, 29.74, 14.6408, 66.9463, -167.924
5.276, 4, -47.7376, -12.2307, 29.745, 14.6502, 66.9499, -167.92
5.28, 4, -47.7398, -12.234, 29.7514, 14.6631, 66.9547, -167.914
5.284, 5, -47.7422, -12.2379, 29.7594, 14.6797, 66.9609, -167.907
5.288, 5, -47.7451, -12.2425, 29.7692, 14.7005, 66.9686, -167.898
5.292, 5, -47.7484, -12.2478, 29.7809, 14.7256, 66.9779, -167.887
5.296, 5, -47.7521, -12.2538, 29.7944, 14.7551, 66.9888, -167.873
5.3, 5, -47.7562, -12.2604, 29.8099, 14.7892, 67.0013, -167.858
5.304, 5, -47.7607, -12.2677, 29.8273, 14.8275, 67.0153, -167.842
5.308, 5, -47.7655, -12.2756, 29.8463, 14.8698, 67.0308, -167.823
5.312, 5, -47.7706, -12.2841, 29.8669, 14.9158, 67.0476, -167.803
5.316, 5, -47.776, -12.2931, 29.8889, 14.9649, 67.0655, -167.781
5.32, 5, -47.7817, -12.3026, 29.9121, 15.0166, 67.0843, -167.758
5.324, 5, -47.7877, -12.3126, 29.9363, 15.0702, 67.1038, -167.735
5.328, 5, -47.794, -12.3231, 29.9614, 15.1254, 67.1238, -167.71
5.332, 5, -47.8006, -12.3341, 29.9871, 15.1817, 67.1442, -167.686
5.336, 5, -47.8075, -12.3453, 30.0133, 15.2386, 67.1648, -167.661
5.34, 5, -47.8146, -12.3568, 30.0399, 15.2962, 67.1856, -167.635
5.344, 5, -47.8217, -12.3684, 30.0668, 15.354, 67.2065, -167.61
5.348, 5, -47.829, -12.3802, 30.0939, 15.4121, 67.2275, -167.585
5.352, 5, -47.8364, -12.392, 30.1211, 15.4704, 67.2484, -167.559
5.356, 5, -47.8438, -12.4039, 30.1484, 15.5288, 67.2693, -167.534
5.36, 5, -47.8512, -12.4159, 30.1759, 15.5873, 67.2903, -167.508
5.364, 5, -47.8586, -12.4279, 30.2034, 15.6458, 67.3112, -167.483
5.368, 5, -47.8661, -12.4399, 30.231, 15.7044, 67.332, -167.457
5.372, 5, -47.8736, -12.452, 30.2586, 15.763, 67.3529, -167.432
5.376, 5, -47.8812, -12.464, 30.2864, 15.8216, 67.3737, -167.406
5.38, 5, -47.8887, -12.4761, 30.3142, 15.8803, 67.3944, -167.381
5.384, 5, -47.8963, -12.4882, 30.342, 15.939, 67.4151, -167.355
5.388, 5, -47.9039, -12.5004, 30.3699, 15.9977, 67.4358, -167.33
5.392, 5, -47.9114, -12.5125, 30.3979, 16.0564, 67.4564, -167.305
5.396, 5, -47.9191, -12.5247, 30.4259, 16.1151, 67.477, -167.279
5.4, 5, -47.9267, -12.5369, 30.454, 16.1739, 67.4975, -167.254
5.404, 5, -47.9343, -12.5491, 30.4822, 16.2326, 67.518, -167.229
5.408, 5, -47.942, -12.5613, 30.5104, 16.2914, 67.5384, -167.203
5.412, 5, -47.9496, -12.5735, 30.5386, 16.3502, 67.5588, -167.178
5.416, 5, -47.9573, -12.5858, 30.5669, 16.409, 67.5791, -167.153
5.42, 5, -47.965, -12.5981, 30.5953, 16.4678, 67.5994, -167.128
5.424, 5, -47.9727, -12.6103, 30.6237, 16.5266, 67.6197, -167.102
5.428, 5, -47.9804, -12.6226, 30.6522, 16.5854, 67.6399, -167.077
5.432, 5, -47.9881, -12.6349, 30.6807, 16.6443, 67.6601, -167.052
5.436, 5, -47.9959, -12.6473, 30.7093, 16.7031, 67.6802, -167.027
5.44, 5, -48.0036, -12.6596, 30.738, 16.762, 67.7003, -167.002
5.444, 5, -48.0114, -12.672, 30.7667, 16.8209, 67.7203, -166.977
5.448, 5, -48.0192, -12.6844, 30.7954, 16.8798, 67.7403, -166.952
5.452, 5, -48.027, -12.6968, 30.8242, 16.9387, 67.7602, -166.927
5.456, 5, -48.0348, -12.7092, 30.8531, 16.9976, 67.7801, -166.901
5.46, 5, -48.0426, -12.7216, 30.882, 17.0565, 67.7999, -166.876
5.464, 5, -48.0505, -12.7341, 30.911, 17.1154, 67.8197, -166.851
5.468, 5, -48.0583, -12.7465, 30.94, 17.1744, 67.8395, -166.827
5.472, 5, -48.0662, -12.759, 30.9691, 17.2334, 67.8592, -166.802
5.476, 5, -48.074, -12.7715, 30.9983, 17.2923, 67.8789, -166.777
5.48, 5, -48.0819, -12.784, 31.0275, 17.3513, 67.8985, -166.752
5.484, 5, -48.0898, -12.7965, 31.0567, 17.4103, 67.9181, -166.727
5.488, 5, -48.0977, -12.8091, 31.086, 17.4693, 67.9376, -166.702
5.492, 5, -48.1057, -12.8217, 31.1154, 17.5283, 67.9571, -166.677
5.496, 5, -48.1136, -12.8342, 31.1448, 17.5874, 67.9765, -166.652
5.5, 5, -48.1215, -12.8468, 31.1743, 17.6464, 67.9959, -166.628
5.504, 5, -48.1295, -12.8594, 31.2039, 17.7055, 68.0153, -166.603
5.508, 5, -48.1375, -12.8721, 31.2335, 17.7645, 68.0346, -166.578
5.512, 5, -48.1455, -12.8847, 31.2631, 17.8236, 68.0539, -166.553
5.516, 5, -48.1535, -12.8974, 31.2928, 17.8827, 68.0731, -166.529
5.52, 5, -48.1615, -12.9101, 31.3226, 17.9418, 68.0923, -166.504
5.524, 5, -48.1695, -12.9227, 31.3524, 18.0009, 68.1114, -166.479
5.528, 5, -48.1775, -12.9355, 31.3823, 18.06, 68.1305, -166.455
5.532, 5, -48.1856, -12.9482, 31.4122, 18.1191, 68.1496, -166.43
5.536, 5, -48.1936, -12.9609, 31.4422, 18.1783, 68.1686, -166.406
5.54, 5, -48.2017, -12.9737, 31.4722, 18.2375, 68.1876, -166.381
5.544, 5, -48.2098, -12.9865, 31.5023, 18.2966, 68.2065, -166.357
5.548, 5, -48.2179, -12.9993, 31.5324, 18.3558, 68.2254, -166.332
5.552, 5, -48.226, -13.0121, 31.5627, 18.415, 68.2442, -166.308
5.556, 5, -48.2341, -13.0249, 31.5929, 18.4742, 68.263, -166.283
5.56, 5, -48.2423, -13.0377, 31.6232, 18.5334, 68.2817, -166.259
5.564, 5, -48.2504, -13.0506, 31.6536, 18.5926, 68.3005, -166.234
5.568, 5, -48.2586, -13.0635, 31.684, 18.6519, 68.3191, -166.21
5.572, 5, -48.2667, -13.0764, 31.7145, 18.7111, 68.3377, -166.186
5.576, 5, -48.2749, -13.0893, 31.745, 18.7704, 68.3563, -166.161
5.58, 5, -48.2831, -13.1022, 31.7756, 18.8296, 68.3749, -166.137
5.584, 5, -48.2913, -13.1151, 31.8063, 18.8889, 68.3934, -166.113
5.588, 5, -48.2995, -13.1281, 31.837, 18.9482, 68.4118, -166.088
5.592, 5, -48.3078, -13.1411, 31.8677, 19.0075, 68.4302, -166.064
5.596, 5, -48.316, -13.1541, 31.8986, 19.0668, 68.4486, -166.04
5.6, 5, -48.3242, -13.1671, 31.9294, 19.1262, 68.4669, -166.016
5.604, 5, -48.3325, -13.1801, 31.9603, 19.1855, 68.4852, -165.992
5.608, 5, -48.3408, -13.1931, 31.9913, 19.2449, 68.5035, -165.967
5.612, 5, -48.3491, -13.2062, 32.0224, 19.3042, 68.5217, -165.943
5.616, 5, -48.3574, -13.2193, 32.0534, 19.3636, 68.5398, -165.919
5.62, 5, -48.3657, -13.2323, 32.0846, 19.423, 68.5579, -165.895
5.624, 5, -48.374, -13.2455, 32.1158, 19.4824, 68.576, -165.871
5.628, 5, -48.3823, -13.2586, 32.147, 19.5418, 68.594, -165.847
5.632, 5, -48.3906, -13.2717, 32.1784, 19.6012, 68.612, -165.823
5.636, 5, -48.399, -13.2849, 32.2097, 19.6606, 68.63, -165.799
5.64, 5, -48.4074, -13.298, 32.2411, 19.72, 68.6479, -165.775
5.644, 5, -48.4157, -13.3112, 32.2726, 19.7795, 68.6658, -165.751
5.648, 5, -48.4241, -13.3244, 32.3041, 19.839, 68.6836, -165.727
5.652, 5, -48.4325, -13.3377, 32.3357, 19.8984, 68.7014, -165.703
5.656, 5, -48.4409, -13.3509, 32.3674, 19.9579, 68.7192, -165.68
5.66, 5, -48.4493, -13.3642, 32.3991, 20.0174, 68.7369, -165.656
5.664, 5, -48.4578, -13.3774, 32.4308, 20.0769, 68.7545, -165.632
5.668, 5, -48.4662, -13.3907, 32.4626, 20.1364, 68.7721, -165.608
5.672, 5, -48.4746, -13.404, 32.4945, 20.196, 68.7897, -165.584
5.676, 5, -48.4831, -13.4173, 32.5264, 20.2555, 68.8073, -165.561
5.68, 5, -48.4916, -13.4307, 32.5584, 20.315, 68.8248, -165.537
5.684, 5, -48.5, -13.444, 32.5904, 20.3746, 68.8423, -165.513
5.688, 5, -48.5085, -13.4574, 32.6225, 20.4342, 68.8597, -165.49
5.692, 5, -48.517, -13.4708, 32.6546, 20.4938, 68.8771, -165.466
5.696, 5, -48.5256, -13.4842, 32.6868, 20.5534, 68.8944, -165.442
5.7, 5, -48.5341, -13.4976, 32.719, 20.613, 68.9117, -165.419
5.704, 5, -48.5426, -13.5111, 32.7513, 20.6726, 68.929, -165.395
5.708, 5, -48.5511, -13.5245, 32.7837, 20.7322, 68.9462, -165.372
5.712, 5, -48.5597, -13.538, 32.8161, 20.7918, 68.9634, -165.348
5.716, 5, -48.5683, -13.5515, 32.8486, 20.8515, 68.9805, -165.325
5.72, 5, -48.5768, -13.565, 32.8811, 20.9111, 68.9976, -165.301
5.724, 5, -48.5854, -13.5785, 32.9137, 20.9708, 69.0147, -165.278
5.728, 5, -48.594, -13.592, 32.9463, 21.0305, 69.0317, -165.254
5.732, 5, -48.6026, -13.6056, 32.979, 21.0902, 69.0487, -165.231
5.736, 5, -48.6112, -13.6192, 33.0117, 21.1499, 69.0657, -165.208
5.74, 5, -48.6199, -13.6327, 33.0445, 21.2096, 69.0826, -165.184
5.744, 5, -48.6285, -13.6464, 33.0774, 21.2693, 69.0994, -165.161
5.748, 5, -48.6371, -13.66, 33.1103, 21.329, 69.1163, -165.138
5.752, 5, -48.6458, -13.6736, 33.1432, 21.3888, 69.1331, -165.114
5.756, 5, -48.6544, -13.6873, 33.1762, 21.4485, 69.1498, -165.091
5.76, 5, -48.6631, -13.7009, 33.2093, 21.5083, 69.1665, -165.068
5.764, 5, -48.6718, -13.7146, 33.2424, 21.5681, 69.1832, -165.045
5.768, 5, -48.6805, -13.7283, 33.2756, 21.6279, 69.1998, -165.021
5.772, 5, -48.6892, -13.7421, 33.3088, 21.6877, 69.2164, -164.998
5.776, 5, -48.6979, -13.7558, 33.3421, 21.7475, 69.233, -164.975
5.78, 5, -48.7066, -13.7695, 33.3755, 21.8073, 69.2495, -164.952
5.784, 5, -48.7153, -13.7833, 33.4089, 21.8671, 69.266, -164.929
5.788, 5, -48.7241, -13.7971, 33.4423, 21.927, 69.2824, -164.906
5.792, 5, -48.7328, -13.8109, 33.4758, 21.9868, 69.2989, -164.883
5.796, 5, -48.7416, -13.8247, 33.5094, 22.0467, 69.3152, -164.86
5.8, 5, -48.7503, -13.8386, 33.543, 22.1065, 69.3316, -164.837
5.804, 5, -48.759, -13.8524, 33.5767, 22.1664, 69.3478, -164.814
5.808, 5, -48.7676, -13.8662, 33.6104, 22.2263, 69.3641, -164.791
5.812, 5, -48.7762, -13.88, 33.6441, 22.2861, 69.3803, -164.768
5.816, 5, -48.7847, -13.8938, 33.6779, 22.346, 69.3965, -164.745
5.82, 5, -48.793, -13.9076, 33.7117, 22.4057, 69.4127, -164.722
5.824, 5, -48.8012, -13.9213, 33.7454, 22.4653, 69.4289, -164.699
5.828, 5, -48.8093, -13.935, 33.7792, 22.5248, 69.4451, -164.675
5.832, 5, -48.8172, -13.9487, 33.8129, 22.584, 69.4613, -164.651
5.836, 5, -48.8249, -13.9622, 33.8465, 22.643, 69.4776, -164.627
5.84, 5, -48.8325, -13.9757, 33.88, 22.7016, 69.4939, -164.602
5.844, 5, -48.8398, -13.9891, 33.9134, 22.7598, 69.5103, -164.577
5.848, 5, -48.847, -14.0024, 33.9466, 22.8175, 69.5269, -164.551
5.852, 5, -48.8539, -14.0156, 33.9796, 22.8747, 69.5435, -164.524
5.856, 5, -48.8605, -14.0286, 34.0124, 22.9313, 69.5603, -164.496
5.86, 5, -48.8669, -14.0416, 34.0449, 22.9873, 69.5772, -164.467
5.864, 5, -48.8729, -14.0543, 34.0772, 23.0425, 69.5943, -164.437
5.868, 5, -48.8786, -14.0669, 34.1091, 23.097, 69.6116, -164.406
5.872, 5, -48.884, -14.0794, 34.1407, 23.1507, 69.6291, -164.374
5.876, 6, -48.889, -14.0916, 34.172, 23.2037, 69.6468, -164.34
5.88, 6, -48.8936, -14.1037, 34.203, 23.2558, 69.6647, -164.306
5.884, 6, -48.8978, -14.1156, 34.2336, 23.3072, 69.6828, -164.27
5.888, 6, -48.9016, -14.1273, 34.2639, 23.3577, 69.7011, -164.233
5.892, 6, -48.9049, -14.1388, 34.2938, 23.4075, 69.7196, -164.194
5.896, 6, -48.9078, -14.1501, 34.3234, 23.4565, 69.7383, -164.155
5.9, 6, -48.9102, -14.1611, 34.3526, 23.5046, 69.7573, -164.114
5.904, 6, -48.9122, -14.172, 34.3814, 23.552, 69.7764, -164.072
5.908, 6, -48.9138, -14.1827, 34.4099, 23.5986, 69.7957, -164.028
5.912, 6, -48.9149, -14.1932, 34.438, 23.6443, 69.8153, -163.984
5.916, 6, -48.9155, -14.2034, 34.4658, 23.6893, 69.835, -163.938
5.92, 6, -48.9158, -14.2135, 34.4932, 23.7335, 69.855, -163.891
5.924, 6, -48.9156, -14.2233, 34.5202, 23.7769, 69.8751, -163.842
5.928, 6, -48.9149, -14.233, 34.5468, 23.8194, 69.8955, -163.793
5.932, 6, -48.9139, -14.2425, 34.5732, 23.8612, 69.916, -163.742
5.936, 6, -48.9125, -14.2517, 34.5991, 23.9022, 69.9367, -163.69
