rpiRobotics/ARM-21-02-F-19-Robot-Motion-Program/data_performance_abb/curve_1/curve_pose_opt1/greedy0.02/grad_result/sim/curve_exe_v400_z10.csv
# timestamp,cmd_num,J1,J2,J3,J4,J5,J6
2.000000094994902611e-03,-1.000000000000000000e+00,-3.470849609375000000e+01,4.857620239257812500e+01,2.967231178283691406e+01,1.088878021240234375e+02,9.453588867187500000e+01,-2.854433298110961914e+00,6.408341884613037109e+00,1.115394973754882812e+02,-1.746540985107421875e+02,-5.684984588623046875e+01,-6.731024932861328125e+01,1.032029037475585938e+02
4.000000189989805222e-03,1.000000000000000000e+00,-3.470849609375000000e+01,4.857620239257812500e+01,2.967231178283691406e+01,1.088878021240234375e+02,9.453588867187500000e+01,-2.854433298110961914e+00,6.408341884613037109e+00,1.115394973754882812e+02,-1.746540985107421875e+02,-5.684984588623046875e+01,-6.731024932861328125e+01,1.032029037475585938e+02
8.000000379979610443e-03,1.000000000000000000e+00,-3.470849609375000000e+01,4.857620239257812500e+01,2.967231178283691406e+01,1.088878021240234375e+02,9.453588867187500000e+01,-2.854433298110961914e+00,6.408341884613037109e+00,1.115394973754882812e+02,-1.746540985107421875e+02,-5.684984588623046875e+01,-6.731024932861328125e+01,1.032029037475585938e+02
9.999999776482582092e-03,1.000000000000000000e+00,-3.470849609375000000e+01,4.857620239257812500e+01,2.967231178283691406e+01,1.088878021240234375e+02,9.453588867187500000e+01,-2.854433298110961914e+00,6.408341884613037109e+00,1.115394973754882812e+02,-1.746540985107421875e+02,-5.684984588623046875e+01,-6.731024932861328125e+01,1.032029037475585938e+02
1.400000043213367462e-02,1.000000000000000000e+00,-3.470849609375000000e+01,4.857620239257812500e+01,2.967231178283691406e+01,1.088878021240234375e+02,9.453588867187500000e+01,-2.854433298110961914e+00,6.408341884613037109e+00,1.115394973754882812e+02,-1.746540985107421875e+02,-5.684984588623046875e+01,-6.731024932861328125e+01,1.032029037475585938e+02
1.600000075995922089e-02,1.000000000000000000e+00,-3.470849609375000000e+01,4.857620239257812500e+01,2.967231178283691406e+01,1.088878021240234375e+02,9.453588867187500000e+01,-2.854433298110961914e+00,6.408341884613037109e+00,1.115394973754882812e+02,-1.746540985107421875e+02,-5.684984588623046875e+01,-6.731024932861328125e+01,1.032029037475585938e+02
1.999999955296516418e-02,1.000000000000000000e+00,-3.470849609375000000e+01,4.857620239257812500e+01,2.967231178283691406e+01,1.088878021240234375e+02,9.453588867187500000e+01,-2.854433298110961914e+00,6.408341884613037109e+00,1.115394973754882812e+02,-1.746540985107421875e+02,-5.684984588623046875e+01,-6.731024932861328125e+01,1.032029037475585938e+02
2.400000020861625671e-02,1.000000000000000000e+00,-3.470849609375000000e+01,4.857620239257812500e+01,2.967231178283691406e+01,1.088878021240234375e+02,9.453588867187500000e+01,-2.854433298110961914e+00,6.408341884613037109e+00,1.115394973754882812e+02,-1.746540985107421875e+02,-5.684984588623046875e+01,-6.731024932861328125e+01,1.032029037475585938e+02
2.800000086426734924e-02,1.000000000000000000e+00,-3.470849609375000000e+01,4.857620239257812500e+01,2.967231178283691406e+01,1.088878021240234375e+02,9.453588867187500000e+01,-2.854433298110961914e+00,6.408341884613037109e+00,1.115394973754882812e+02,-1.746540985107421875e+02,-5.684984588623046875e+01,-6.731024932861328125e+01,1.032029037475585938e+02
3.200000151991844177e-02,1.000000000000000000e+00,-3.470849609375000000e+01,4.857620239257812500e+01,2.967231178283691406e+01,1.088878021240234375e+02,9.453588867187500000e+01,-2.854433298110961914e+00,6.408341884613037109e+00,1.115394973754882812e+02,-1.746540985107421875e+02,-5.684984588623046875e+01,-6.731024932861328125e+01,1.032029037475585938e+02
3.599999845027923584e-02,1.000000000000000000e+00,-3.470849609375000000e+01,4.857620239257812500e+01,2.967231178283691406e+01,1.088878021240234375e+02,9.453588867187500000e+01,-2.854433298110961914e+00,6.408341884613037109e+00,1.115394973754882812e+02,-1.746540985107421875e+02,-5.684984588623046875e+01,-6.731024932861328125e+01,1.032029037475585938e+02
3.999999910593032837e-02,1.000000000000000000e+00,-3.470849609375000000e+01,4.857620239257812500e+01,2.967231178283691406e+01,1.088878021240234375e+02,9.453588867187500000e+01,-2.854433298110961914e+00,6.408341884613037109e+00,1.115394973754882812e+02,-1.746540985107421875e+02,-5.684984588623046875e+01,-6.731024932861328125e+01,1.032029037475585938e+02
4.399999976158142090e-02,1.000000000000000000e+00,-3.470853042602539062e+01,4.857617950439453125e+01,2.967231178283691406e+01,1.088878021240234375e+02,9.453588867187500000e+01,-2.854433536529541016e+00,6.408341884613037109e+00,1.115394973754882812e+02,-1.746540985107421875e+02,-5.684984588623046875e+01,-6.731024932861328125e+01,1.032029037475585938e+02
4.800000041723251343e-02,1.000000000000000000e+00,-3.470872116088867188e+01,4.857603836059570312e+01,2.967230987548828125e+01,1.088878021240234375e+02,9.453589630126953125e+01,-2.854434490203857422e+00,6.408341884613037109e+00,1.115394973754882812e+02,-1.746540985107421875e+02,-5.684984588623046875e+01,-6.731024932861328125e+01,1.032029037475585938e+02
5.200000107288360596e-02,1.000000000000000000e+00,-3.470923995971679688e+01,4.857559967041015625e+01,2.967230606079101562e+01,1.088877868652343750e+02,9.453592681884765625e+01,-2.854440450668334961e+00,6.408341884613037109e+00,1.115394973754882812e+02,-1.746540985107421875e+02,-5.684984588623046875e+01,-6.731024932861328125e+01,1.032029037475585938e+02
5.600000172853469849e-02,1.000000000000000000e+00,-3.471020126342773438e+01,4.857463073730468750e+01,2.967230224609375000e+01,1.088877182006835938e+02,9.453598022460937500e+01,-2.854460716247558594e+00,6.408341884613037109e+00,1.115394973754882812e+02,-1.746540985107421875e+02,-5.684984588623046875e+01,-6.731024932861328125e+01,1.032029037475585938e+02
5.999999865889549255e-02,1.000000000000000000e+00,-3.471165084838867188e+01,4.857291030883789062e+01,2.967231941223144531e+01,1.088875427246093750e+02,9.453609466552734375e+01,-2.854513645172119141e+00,6.408341884613037109e+00,1.115394973754882812e+02,-1.746540985107421875e+02,-5.684984588623046875e+01,-6.731024932861328125e+01,1.032029037475585938e+02
6.400000303983688354e-02,1.000000000000000000e+00,-3.471356964111328125e+01,4.857019805908203125e+01,2.967238044738769531e+01,1.088871612548828125e+02,9.453629302978515625e+01,-2.854629278182983398e+00,6.408341884613037109e+00,1.115394973754882812e+02,-1.746540985107421875e+02,-5.684984588623046875e+01,-6.731024932861328125e+01,1.032029037475585938e+02
6.800000369548797607e-02,1.000000000000000000e+00,-3.471597290039062500e+01,4.856620788574218750e+01,2.967252731323242188e+01,1.088864517211914062e+02,9.453661346435546875e+01,-2.854849100112915039e+00,6.408341884613037109e+00,1.115394973754882812e+02,-1.746540985107421875e+02,-5.684984588623046875e+01,-6.731024932861328125e+01,1.032029037475585938e+02
7.199999690055847168e-02,1.000000000000000000e+00,-3.471884918212890625e+01,4.856068801879882812e+01,2.967281532287597656e+01,1.088852386474609375e+02,9.453710937500000000e+01,-2.855226993560791016e+00,6.408341884613037109e+00,1.115394973754882812e+02,-1.746540985107421875e+02,-5.684984588623046875e+01,-6.731024932861328125e+01,1.032029037475585938e+02
7.599999755620956421e-02,1.000000000000000000e+00,-3.472220611572265625e+01,4.855347442626953125e+01,2.967330360412597656e+01,1.088833084106445312e+02,9.453782653808593750e+01,-2.855828523635864258e+00,6.408341884613037109e+00,1.115394973754882812e+02,-1.746540985107421875e+02,-5.684984588623046875e+01,-6.731024932861328125e+01,1.032029037475585938e+02
7.999999821186065674e-02,1.000000000000000000e+00,-3.472612762451171875e+01,4.854446792602539062e+01,2.967407417297363281e+01,1.088804321289062500e+02,9.453883361816406250e+01,-2.856731414794921875e+00,6.408341884613037109e+00,1.115394973754882812e+02,-1.746540985107421875e+02,-5.684984588623046875e+01,-6.731024932861328125e+01,1.032029037475585938e+02
8.399999886751174927e-02,1.000000000000000000e+00,-3.473080825805664062e+01,4.853351974487304688e+01,2.967521286010742188e+01,1.088763046264648438e+02,9.454022216796875000e+01,-2.858025550842285156e+00,6.408341884613037109e+00,1.115394973754882812e+02,-1.746540985107421875e+02,-5.684984588623046875e+01,-6.731024932861328125e+01,1.032029037475585938e+02
8.799999952316284180e-02,1.000000000000000000e+00,-3.473648452758789062e+01,4.852045440673828125e+01,2.967681694030761719e+01,1.088706054687500000e+02,9.454208374023437500e+01,-2.859812736511230469e+00,6.408341884613037109e+00,1.115394973754882812e+02,-1.746540985107421875e+02,-5.684984588623046875e+01,-6.731024932861328125e+01,1.032029037475585938e+02
9.200000017881393433e-02,1.000000000000000000e+00,-3.474338150024414062e+01,4.850506210327148438e+01,2.967900276184082031e+01,1.088629837036132812e+02,9.454450988769531250e+01,-2.862206697463989258e+00,6.408341884613037109e+00,1.115394973754882812e+02,-1.746540985107421875e+02,-5.684984588623046875e+01,-6.731024932861328125e+01,1.032029037475585938e+02
9.600000083446502686e-02,1.000000000000000000e+00,-3.475162887573242188e+01,4.848724365234375000e+01,2.968189811706542969e+01,1.088530426025390625e+02,9.454759979248046875e+01,-2.865331411361694336e+00,6.408341884613037109e+00,1.115394973754882812e+02,-1.746540985107421875e+02,-5.684984588623046875e+01,-6.731024932861328125e+01,1.032029037475585938e+02
1.000000014901161194e-01,1.000000000000000000e+00,-3.476128005981445312e+01,4.846694564819335938e+01,2.968564605712890625e+01,1.088403701782226562e+02,9.455144500732421875e+01,-2.869313955307006836e+00,6.408341884613037109e+00,1.115394973754882812e+02,-1.746540985107421875e+02,-5.684984588623046875e+01,-6.731024932861328125e+01,1.032029037475585938e+02
1.040000021457672119e-01,1.000000000000000000e+00,-3.477236557006835938e+01,4.844406509399414062e+01,2.969037246704101562e+01,1.088245849609375000e+02,9.455613708496093750e+01,-2.874278306961059570e+00,6.408341884613037109e+00,1.115394973754882812e+02,-1.746540985107421875e+02,-5.684984588623046875e+01,-6.731024932861328125e+01,1.032029037475585938e+02
1.080000028014183044e-01,1.000000000000000000e+00,-3.478498077392578125e+01,4.841838836669921875e+01,2.969619369506835938e+01,1.088053359985351562e+02,9.456175994873046875e+01,-2.880334138870239258e+00,6.408341884613037109e+00,1.115394973754882812e+02,-1.746540985107421875e+02,-5.684984588623046875e+01,-6.731024932861328125e+01,1.032029037475585938e+02
1.120000034570693970e-01,1.000000000000000000e+00,-3.479926300048828125e+01,4.838961410522460938e+01,2.970320510864257812e+01,1.087823486328125000e+02,9.456838226318359375e+01,-2.887572288513183594e+00,6.408341884613037109e+00,1.115394973754882812e+02,-1.746540985107421875e+02,-5.684984588623046875e+01,-6.731024932861328125e+01,1.032029037475585938e+02
1.159999966621398926e-01,1.000000000000000000e+00,-3.481532287597656250e+01,4.835750579833984375e+01,2.971147346496582031e+01,1.087553863525390625e+02,9.457607269287109375e+01,-2.896061182022094727e+00,6.408341884613037109e+00,1.115394973754882812e+02,-1.746540985107421875e+02,-5.684984588623046875e+01,-6.731024932861328125e+01,1.032029037475585938e+02
1.199999973177909851e-01,1.000000000000000000e+00,-3.483322906494140625e+01,4.832193756103515625e+01,2.972104644775390625e+01,1.087243118286132812e+02,9.458486175537109375e+01,-2.905847549438476562e+00,6.408341884613037109e+00,1.115394973754882812e+02,-1.746540985107421875e+02,-5.684984588623046875e+01,-6.731024932861328125e+01,1.032029037475585938e+02
1.239999979734420776e-01,1.000000000000000000e+00,-3.485298919677734375e+01,4.828289031982421875e+01,2.973193931579589844e+01,1.086890563964843750e+02,9.459477996826171875e+01,-2.916953563690185547e+00,6.408341884613037109e+00,1.115394973754882812e+02,-1.746540985107421875e+02,-5.684984588623046875e+01,-6.731024932861328125e+01,1.032029037475585938e+02
1.280000060796737671e-01,1.000000000000000000e+00,-3.487459182739257812e+01,4.824041366577148438e+01,2.974415588378906250e+01,1.086496200561523438e+02,9.460581970214843750e+01,-2.929377794265747070e+00,6.408341884613037109e+00,1.115394973754882812e+02,-1.746540985107421875e+02,-5.684984588623046875e+01,-6.731024932861328125e+01,1.032029037475585938e+02
1.309999972581863403e-01,1.000000000000000000e+00,-3.489797973632812500e+01,4.819462585449218750e+01,2.975766563415527344e+01,1.086060867309570312e+02,9.461795043945312500e+01,-2.943093299865722656e+00,6.408341884613037109e+00,1.115394973754882812e+02,-1.746540985107421875e+02,-5.684984588623046875e+01,-6.731024932861328125e+01,1.032029037475585938e+02
1.360000073909759521e-01,1.000000000000000000e+00,-3.492305755615234375e+01,4.814570617675781250e+01,2.977241516113281250e+01,1.085586318969726562e+02,9.463113403320312500e+01,-2.958046674728393555e+00,6.408341884613037109e+00,1.115394973754882812e+02,-1.746540985107421875e+02,-5.684984588623046875e+01,-6.731024932861328125e+01,1.032029037475585938e+02
1.389999985694885254e-01,1.000000000000000000e+00,-3.494971466064453125e+01,4.809388732910156250e+01,2.978832244873046875e+01,1.085074996948242188e+02,9.464528656005859375e+01,-2.974159717559814453e+00,6.408341884613037109e+00,1.115394973754882812e+02,-1.746540985107421875e+02,-5.684984588623046875e+01,-6.731024932861328125e+01,1.032029037475585938e+02
1.439999938011169434e-01,1.000000000000000000e+00,-3.497787475585937500e+01,4.803927993774414062e+01,2.980528259277343750e+01,1.084530181884765625e+02,9.466034698486328125e+01,-2.991330862045288086e+00,6.408341884613037109e+00,1.115394973754882812e+02,-1.746540985107421875e+02,-5.684984588623046875e+01,-6.731024932861328125e+01,1.032029037475585938e+02
1.480000019073486328e-01,1.000000000000000000e+00,-3.500751495361328125e+01,4.798192214965820312e+01,2.982316017150878906e+01,1.083955535888671875e+02,9.467622375488281250e+01,-3.009440183639526367e+00,6.408341884613037109e+00,1.115394973754882812e+02,-1.746540985107421875e+02,-5.684984588623046875e+01,-6.731024932861328125e+01,1.032029037475585938e+02
1.519999951124191284e-01,1.000000000000000000e+00,-3.503860092163085938e+01,4.792192077636718750e+01,2.984182357788085938e+01,1.083355178833007812e+02,9.469282531738281250e+01,-3.028361082077026367e+00,6.408341884613037109e+00,1.115394973754882812e+02,-1.746540985107421875e+02,-5.684984588623046875e+01,-6.731024932861328125e+01,1.032029037475585938e+02
1.560000032186508179e-01,1.000000000000000000e+00,-3.507100677490234375e+01,4.785950469970703125e+01,2.986113739013671875e+01,1.082733001708984375e+02,9.471006774902343750e+01,-3.047966480255126953e+00,6.408341884613037109e+00,1.115394973754882812e+02,-1.746540985107421875e+02,-5.684984588623046875e+01,-6.731024932861328125e+01,1.032029037475585938e+02
1.599999964237213135e-01,1.000000000000000000e+00,-3.510449600219726562e+01,4.779498291015625000e+01,2.988098526000976562e+01,1.082092895507812500e+02,9.472783660888671875e+01,-3.068137407302856445e+00,6.408341884613037109e+00,1.115394973754882812e+02,-1.746540985107421875e+02,-5.684984588623046875e+01,-6.731024932861328125e+01,1.032029037475585938e+02
1.640000045299530029e-01,1.000000000000000000e+00,-3.513880157470703125e+01,4.772857284545898438e+01,2.990126037597656250e+01,1.081438293457031250e+02,9.474603271484375000e+01,-3.088765382766723633e+00,6.408341884613037109e+00,1.115394973754882812e+02,-1.746540985107421875e+02,-5.684984588623046875e+01,-6.731024932861328125e+01,1.032029037475585938e+02
1.679999977350234985e-01,1.000000000000000000e+00,-3.517372894287109375e+01,4.766040802001953125e+01,2.992186355590820312e+01,1.080772247314453125e+02,9.476458740234375000e+01,-3.109751224517822266e+00,6.408341884613037109e+00,1.115394973754882812e+02,-1.746540985107421875e+02,-5.684984588623046875e+01,-6.731024932861328125e+01,1.032029037475585938e+02
1.720000058412551880e-01,1.000000000000000000e+00,-3.520918655395507812e+01,4.759056854248046875e+01,2.994271278381347656e+01,1.080097656250000000e+02,9.478340148925781250e+01,-3.131007194519042969e+00,6.408341884613037109e+00,1.115394973754882812e+02,-1.746540985107421875e+02,-5.684984588623046875e+01,-6.731024932861328125e+01,1.032029037475585938e+02
1.759999990463256836e-01,1.000000000000000000e+00,-3.524519729614257812e+01,4.751910018920898438e+01,2.996372985839843750e+01,1.079416809082031250e+02,9.480242156982421875e+01,-3.152458906173706055e+00,6.408341884613037109e+00,1.115394973754882812e+02,-1.746540985107421875e+02,-5.684984588623046875e+01,-6.731024932861328125e+01,1.032029037475585938e+02
1.800000071525573730e-01,1.000000000000000000e+00,-3.528176498413085938e+01,4.744610595703125000e+01,2.998485946655273438e+01,1.078731765747070312e+02,9.482159423828125000e+01,-3.174043893814086914e+00,6.408341884613037109e+00,1.115394973754882812e+02,-1.746540985107421875e+02,-5.684984588623046875e+01,-6.731024932861328125e+01,1.032029037475585938e+02
1.840000003576278687e-01,1.000000000000000000e+00,-3.531889343261718750e+01,4.737178802490234375e+01,3.000605010986328125e+01,1.078043975830078125e+02,9.484087371826171875e+01,-3.195713996887207031e+00,6.408341884613037109e+00,1.115394973754882812e+02,-1.746540985107421875e+02,-5.684984588623046875e+01,-6.731024932861328125e+01,1.032029037475585938e+02
1.879999935626983643e-01,1.000000000000000000e+00,-3.535657882690429688e+01,4.729643630981445312e+01,3.002727317810058594e+01,1.077354507446289062e+02,9.486022949218750000e+01,-3.217434644699096680e+00,6.408341884613037109e+00,1.115394973754882812e+02,-1.746540985107421875e+02,-5.684984588623046875e+01,-6.731024932861328125e+01,1.032029037475585938e+02
1.920000016689300537e-01,1.000000000000000000e+00,-3.539480590820312500e+01,4.722037506103515625e+01,3.004851531982421875e+01,1.076664123535156250e+02,9.487963104248046875e+01,-3.239184141159057617e+00,6.408341884613037109e+00,1.115394973754882812e+02,-1.746540985107421875e+02,-5.684984588623046875e+01,-6.731024932861328125e+01,1.032029037475585938e+02
1.959999948740005493e-01,1.000000000000000000e+00,-3.543342208862304688e+01,4.714389038085937500e+01,3.006976509094238281e+01,1.075973129272460938e+02,9.489906311035156250e+01,-3.260950803756713867e+00,6.408341884613037109e+00,1.115394973754882812e+02,-1.746540985107421875e+02,-5.684984588623046875e+01,-6.731024932861328125e+01,1.032029037475585938e+02
2.000000029802322388e-01,1.000000000000000000e+00,-3.547224807739257812e+01,4.706721496582031250e+01,3.009102439880371094e+01,1.075281753540039062e+02,9.491852569580078125e+01,-3.282730579376220703e+00,6.408341884613037109e+00,1.115394973754882812e+02,-1.746540985107421875e+02,-5.684984588623046875e+01,-6.731024932861328125e+01,1.032029037475585938e+02
2.039999961853027344e-01,1.000000000000000000e+00,-3.551113510131835938e+01,4.699047088623046875e+01,3.011229324340820312e+01,1.074589996337890625e+02,9.493798828125000000e+01,-3.304522275924682617e+00,6.408341884613037109e+00,1.115394973754882812e+02,-1.746540985107421875e+02,-5.684984588623046875e+01,-6.731024932861328125e+01,1.032029037475585938e+02
2.080000042915344238e-01,1.000000000000000000e+00,-3.555004119873046875e+01,4.691368484497070312e+01,3.013357162475585938e+01,1.073897857666015625e+02,9.495747375488281250e+01,-3.326325416564941406e+00,6.408341884613037109e+00,1.115394973754882812e+02,-1.746540985107421875e+02,-5.684984588623046875e+01,-6.731024932861328125e+01,1.032029037475585938e+02
2.119999974966049194e-01,1.000000000000000000e+00,-3.558897399902343750e+01,4.683685302734375000e+01,3.015486526489257812e+01,1.073205337524414062e+02,9.497695922851562500e+01,-3.348140239715576172e+00,6.408341884613037109e+00,1.115394973754882812e+02,-1.746540985107421875e+02,-5.684984588623046875e+01,-6.731024932861328125e+01,1.032029037475585938e+02
2.160000056028366089e-01,1.000000000000000000e+00,-3.562792587280273438e+01,4.675998687744140625e+01,3.017616844177246094e+01,1.072512512207031250e+02,9.499645233154296875e+01,-3.369966745376586914e+00,6.408341884613037109e+00,1.115394973754882812e+02,-1.746540985107421875e+02,-5.684984588623046875e+01,-6.731024932861328125e+01,1.032029037475585938e+02
2.199999988079071045e-01,1.000000000000000000e+00,-3.566690063476562500e+01,4.668307495117187500e+01,3.019748306274414062e+01,1.071819229125976562e+02,9.501596832275390625e+01,-3.391804695129394531e+00,6.408341884613037109e+00,1.115394973754882812e+02,-1.746540985107421875e+02,-5.684984588623046875e+01,-6.731024932861328125e+01,1.032029037475585938e+02
2.240000069141387939e-01,1.000000000000000000e+00,-3.570589447021484375e+01,4.660612487792968750e+01,3.021880912780761719e+01,1.071125640869140625e+02,9.503548431396484375e+01,-3.413654804229736328e+00,6.408341884613037109e+00,1.115394973754882812e+02,-1.746540985107421875e+02,-5.684984588623046875e+01,-6.731024932861328125e+01,1.032029037475585938e+02
2.280000001192092896e-01,1.000000000000000000e+00,-3.574491119384765625e+01,4.652912902832031250e+01,3.024014663696289062e+01,1.070431594848632812e+02,9.505501556396484375e+01,-3.435516357421875000e+00,6.408341884613037109e+00,1.115394973754882812e+02,-1.746540985107421875e+02,-5.684984588623046875e+01,-6.731024932861328125e+01,1.032029037475585938e+02
2.319999933242797852e-01,1.000000000000000000e+00,-3.578394699096679688e+01,4.645209503173828125e+01,3.026149559020996094e+01,1.069737243652343750e+02,9.507455444335937500e+01,-3.457389831542968750e+00,6.408341884613037109e+00,1.115394973754882812e+02,-1.746540985107421875e+02,-5.684984588623046875e+01,-6.731024932861328125e+01,1.032029037475585938e+02
2.360000014305114746e-01,1.000000000000000000e+00,-3.582300567626953125e+01,4.637502288818359375e+01,3.028285598754882812e+01,1.069042587280273438e+02,9.509410095214843750e+01,-3.479274749755859375e+00,6.408341884613037109e+00,1.115394973754882812e+02,-1.746540985107421875e+02,-5.684984588623046875e+01,-6.731024932861328125e+01,1.032029037475585938e+02
2.399999946355819702e-01,1.000000000000000000e+00,-3.586207962036132812e+01,4.629790496826171875e+01,3.030422782897949219e+01,1.068347473144531250e+02,9.511366271972656250e+01,-3.501171827316284180e+00,6.408341884613037109e+00,1.115394973754882812e+02,-1.746540985107421875e+02,-5.684984588623046875e+01,-6.731024932861328125e+01,1.032029037475585938e+02
2.440000027418136597e-01,1.000000000000000000e+00,-3.590118026733398438e+01,4.622074508666992188e+01,3.032561302185058594e+01,1.067652053833007812e+02,9.513323211669921875e+01,-3.523080587387084961e+00,6.408341884613037109e+00,1.115394973754882812e+02,-1.746540985107421875e+02,-5.684984588623046875e+01,-6.731024932861328125e+01,1.032029037475585938e+02
2.479999959468841553e-01,1.000000000000000000e+00,-3.594029998779296875e+01,4.614354324340820312e+01,3.034700965881347656e+01,1.066956176757812500e+02,9.515282440185546875e+01,-3.545001506805419922e+00,6.408341884613037109e+00,1.115394973754882812e+02,-1.746540985107421875e+02,-5.684984588623046875e+01,-6.731024932861328125e+01,1.032029037475585938e+02
2.520000040531158447e-01,1.000000000000000000e+00,-3.597944259643554688e+01,4.606629943847656250e+01,3.036841392517089844e+01,1.066259918212890625e+02,9.517240905761718750e+01,-3.566934108734130859e+00,6.408341884613037109e+00,1.115394973754882812e+02,-1.746540985107421875e+02,-5.684984588623046875e+01,-6.731024932861328125e+01,1.032029037475585938e+02
2.560000121593475342e-01,1.000000000000000000e+00,-3.601860427856445312e+01,4.598901748657226562e+01,3.038983345031738281e+01,1.065563278198242188e+02,9.519201660156250000e+01,-3.588878631591796875e+00,6.408341884613037109e+00,1.115394973754882812e+02,-1.746540985107421875e+02,-5.684984588623046875e+01,-6.731024932861328125e+01,1.032029037475585938e+02
2.599999904632568359e-01,1.000000000000000000e+00,-3.605778884887695312e+01,4.591168975830078125e+01,3.041126441955566406e+01,1.064866256713867188e+02,9.521163177490234375e+01,-3.610835075378417969e+00,6.408341884613037109e+00,1.115394973754882812e+02,-1.746540985107421875e+02,-5.684984588623046875e+01,-6.731024932861328125e+01,1.032029037475585938e+02
2.639999985694885254e-01,1.000000000000000000e+00,-3.609699249267578125e+01,4.583431625366210938e+01,3.043270301818847656e+01,1.064168930053710938e+02,9.523125457763671875e+01,-3.632802963256835938e+00,6.408341884613037109e+00,1.115394973754882812e+02,-1.746540985107421875e+02,-5.684984588623046875e+01,-6.731024932861328125e+01,1.032029037475585938e+02
2.680000066757202148e-01,1.000000000000000000e+00,-3.613621902465820312e+01,4.575690460205078125e+01,3.045415687561035156e+01,1.063471221923828125e+02,9.525089263916015625e+01,-3.654783487319946289e+00,6.408341884613037109e+00,1.115394973754882812e+02,-1.746540985107421875e+02,-5.684984588623046875e+01,-6.731024932861328125e+01,1.032029037475585938e+02
2.720000147819519043e-01,1.000000000000000000e+00,-3.617546463012695312e+01,4.567944717407226562e+01,3.047562408447265625e+01,1.062772979736328125e+02,9.527053070068359375e+01,-3.676775932312011719e+00,6.408341884613037109e+00,1.115394973754882812e+02,-1.746540985107421875e+02,-5.684984588623046875e+01,-6.731024932861328125e+01,1.032029037475585938e+02
2.759999930858612061e-01,1.000000000000000000e+00,-3.621473693847656250e+01,4.560195159912109375e+01,3.049709892272949219e+01,1.062074508666992188e+02,9.529019165039062500e+01,-3.698780059814453125e+00,6.408341884613037109e+00,1.115394973754882812e+02,-1.746540985107421875e+02,-5.684984588623046875e+01,-6.731024932861328125e+01,1.032029037475585938e+02
2.800000011920928955e-01,1.000000000000000000e+00,-3.625402450561523438e+01,4.552441406250000000e+01,3.051859092712402344e+01,1.061375656127929688e+02,9.530986022949218750e+01,-3.720796346664428711e+00,6.408341884613037109e+00,1.115394973754882812e+02,-1.746540985107421875e+02,-5.684984588623046875e+01,-6.731024932861328125e+01,1.032029037475585938e+02
2.840000092983245850e-01,1.000000000000000000e+00,-3.629333877563476562e+01,4.544683074951171875e+01,3.054008865356445312e+01,1.060676345825195312e+02,9.532953643798828125e+01,-3.742824554443359375e+00,6.408341884613037109e+00,1.115394973754882812e+02,-1.746540985107421875e+02,-5.684984588623046875e+01,-6.731024932861328125e+01,1.032029037475585938e+02
2.879999876022338867e-01,1.000000000000000000e+00,-3.633266830444335938e+01,4.536920928955078125e+01,3.056159973144531250e+01,1.059976654052734375e+02,9.534922790527343750e+01,-3.764865159988403320e+00,6.408341884613037109e+00,1.115394973754882812e+02,-1.746540985107421875e+02,-5.684984588623046875e+01,-6.731024932861328125e+01,1.032029037475585938e+02
2.919999957084655762e-01,1.000000000000000000e+00,-3.637202453613281250e+01,4.529154205322265625e+01,3.058312606811523438e+01,1.059276657104492188e+02,9.536892700195312500e+01,-3.786917686462402344e+00,6.408341884613037109e+00,1.115394973754882812e+02,-1.746540985107421875e+02,-5.684984588623046875e+01,-6.731024932861328125e+01,1.032029037475585938e+02
2.960000038146972656e-01,1.000000000000000000e+00,-3.641139984130859375e+01,4.521383285522460938e+01,3.060466003417968750e+01,1.058576202392578125e+02,9.538864135742187500e+01,-3.808982133865356445e+00,6.408341884613037109e+00,1.115394973754882812e+02,-1.746540985107421875e+02,-5.684984588623046875e+01,-6.731024932861328125e+01,1.032029037475585938e+02
3.000000119209289551e-01,1.000000000000000000e+00,-3.645079803466796875e+01,4.513607788085937500e+01,3.062620735168457031e+01,1.057875442504882812e+02,9.540835571289062500e+01,-3.831058740615844727e+00,6.408341884613037109e+00,1.115394973754882812e+02,-1.746540985107421875e+02,-5.684984588623046875e+01,-6.731024932861328125e+01,1.032029037475585938e+02
3.039999902248382568e-01,1.000000000000000000e+00,-3.649021911621093750e+01,4.505828857421875000e+01,3.064776611328125000e+01,1.057174224853515625e+02,9.542809295654296875e+01,-3.853147029876708984e+00,6.408341884613037109e+00,1.115394973754882812e+02,-1.746540985107421875e+02,-5.684984588623046875e+01,-6.731024932861328125e+01,1.032029037475585938e+02
3.079999983310699463e-01,1.000000000000000000e+00,-3.652965927124023438e+01,4.498044967651367188e+01,3.066934013366699219e+01,1.056472625732421875e+02,9.544783782958984375e+01,-3.875247955322265625e+00,6.408341884613037109e+00,1.115394973754882812e+02,-1.746540985107421875e+02,-5.684984588623046875e+01,-6.731024932861328125e+01,1.032029037475585938e+02
3.120000064373016357e-01,1.000000000000000000e+00,-3.656911849975585938e+01,4.490257263183593750e+01,3.069092178344726562e+01,1.055770721435546875e+02,9.546759033203125000e+01,-3.897361040115356445e+00,6.408341884613037109e+00,1.115394973754882812e+02,-1.746540985107421875e+02,-5.684984588623046875e+01,-6.731024932861328125e+01,1.032029037475585938e+02
3.160000145435333252e-01,1.000000000000000000e+00,-3.660860443115234375e+01,4.482464981079101562e+01,3.071251678466796875e+01,1.055068359375000000e+02,9.548735809326171875e+01,-3.919485807418823242e+00,6.408341884613037109e+00,1.115394973754882812e+02,-1.746540985107421875e+02,-5.684984588623046875e+01,-6.731024932861328125e+01,1.032029037475585938e+02
3.199999928474426270e-01,1.000000000000000000e+00,-3.664810943603515625e+01,4.474668502807617188e+01,3.073412322998046875e+01,1.054365615844726562e+02,9.550713348388671875e+01,-3.941622734069824219e+00,6.408341884613037109e+00,1.115394973754882812e+02,-1.746540985107421875e+02,-5.684984588623046875e+01,-6.731024932861328125e+01,1.032029037475585938e+02
3.240000009536743164e-01,1.000000000000000000e+00,-3.668763732910156250e+01,4.466867828369140625e+01,3.075574111938476562e+01,1.053662490844726562e+02,9.552691650390625000e+01,-3.963772296905517578e+00,6.408341884613037109e+00,1.115394973754882812e+02,-1.746540985107421875e+02,-5.684984588623046875e+01,-6.731024932861328125e+01,1.032029037475585938e+02
3.280000090599060059e-01,1.000000000000000000e+00,-3.672718811035156250e+01,4.459062576293945312e+01,3.077737236022949219e+01,1.052958984375000000e+02,9.554671478271484375e+01,-3.985933780670166016e+00,6.408341884613037109e+00,1.115394973754882812e+02,-1.746540985107421875e+02,-5.684984588623046875e+01,-6.731024932861328125e+01,1.032029037475585938e+02
3.319999873638153076e-01,1.000000000000000000e+00,-3.676675796508789062e+01,4.451253509521484375e+01,3.079901313781738281e+01,1.052255096435546875e+02,9.556652832031250000e+01,-4.008107662200927734e+00,6.408341884613037109e+00,1.115394973754882812e+02,-1.746540985107421875e+02,-5.684984588623046875e+01,-6.731024932861328125e+01,1.032029037475585938e+02
3.359999954700469971e-01,1.000000000000000000e+00,-3.680635452270507812e+01,4.443439865112304688e+01,3.082066917419433594e+01,1.051550827026367188e+02,9.558634185791015625e+01,-4.030293464660644531e+00,6.408341884613037109e+00,1.115394973754882812e+02,-1.746540985107421875e+02,-5.684984588623046875e+01,-6.731024932861328125e+01,1.032029037475585938e+02
3.400000035762786865e-01,1.000000000000000000e+00,-3.684596633911132812e+01,4.435622024536132812e+01,3.084233474731445312e+01,1.050846176147460938e+02,9.560617828369140625e+01,-4.052491664886474609e+00,6.408341884613037109e+00,1.115394973754882812e+02,-1.746540985107421875e+02,-5.684984588623046875e+01,-6.731024932861328125e+01,1.032029037475585938e+02
3.440000116825103760e-01,1.000000000000000000e+00,-3.688560485839843750e+01,4.427799606323242188e+01,3.086401367187500000e+01,1.050141143798828125e+02,9.562601470947265625e+01,-4.074702262878417969e+00,6.408341884613037109e+00,1.115394973754882812e+02,-1.746540985107421875e+02,-5.684984588623046875e+01,-6.731024932861328125e+01,1.032029037475585938e+02
3.479999899864196777e-01,1.000000000000000000e+00,-3.692526245117187500e+01,4.419972991943359375e+01,3.088570213317871094e+01,1.049435729980468750e+02,9.564586639404296875e+01,-4.096924781799316406e+00,6.408341884613037109e+00,1.115394973754882812e+02,-1.746540985107421875e+02,-5.684984588623046875e+01,-6.731024932861328125e+01,1.032029037475585938e+02
3.519999980926513672e-01,1.000000000000000000e+00,-3.696494293212890625e+01,4.412142181396484375e+01,3.090740203857421875e+01,1.048729858398437500e+02,9.566572570800781250e+01,-4.119159698486328125e+00,6.408341884613037109e+00,1.115394973754882812e+02,-1.746540985107421875e+02,-5.684984588623046875e+01,-6.731024932861328125e+01,1.032029037475585938e+02
3.560000061988830566e-01,1.000000000000000000e+00,-3.700464248657226562e+01,4.404306793212890625e+01,3.092911911010742188e+01,1.048023605346679688e+02,9.568560028076171875e+01,-4.141406536102294922e+00,6.408341884613037109e+00,1.115394973754882812e+02,-1.746540985107421875e+02,-5.684984588623046875e+01,-6.731024932861328125e+01,1.032029037475585938e+02
3.600000143051147461e-01,1.000000000000000000e+00,-3.704436874389648438e+01,4.396467590332031250e+01,3.095084190368652344e+01,1.047316970825195312e+02,9.570548248291015625e+01,-4.163666248321533203e+00,6.408341884613037109e+00,1.115394973754882812e+02,-1.746540985107421875e+02,-5.684984588623046875e+01,-6.731024932861328125e+01,1.032029037475585938e+02
3.639999926090240479e-01,1.000000000000000000e+00,-3.708411407470703125e+01,4.388623428344726562e+01,3.097258186340332031e+01,1.046609954833984375e+02,9.572537994384765625e+01,-4.185938358306884766e+00,6.408341884613037109e+00,1.115394973754882812e+02,-1.746540985107421875e+02,-5.684984588623046875e+01,-6.731024932861328125e+01,1.032029037475585938e+02
3.680000007152557373e-01,1.000000000000000000e+00,-3.712388229370117188e+01,4.380775070190429688e+01,3.099433326721191406e+01,1.045902557373046875e+02,9.574529266357421875e+01,-4.208222389221191406e+00,6.408341884613037109e+00,1.115394973754882812e+02,-1.746540985107421875e+02,-5.684984588623046875e+01,-6.731024932861328125e+01,1.032029037475585938e+02
3.720000088214874268e-01,1.000000000000000000e+00,-3.716366958618164062e+01,4.372922515869140625e+01,3.101609420776367188e+01,1.045194854736328125e+02,9.576521301269531250e+01,-4.230518817901611328e+00,6.408341884613037109e+00,1.115394973754882812e+02,-1.746540985107421875e+02,-5.684984588623046875e+01,-6.731024932861328125e+01,1.032029037475585938e+02
3.759999871253967285e-01,1.000000000000000000e+00,-3.720348358154296875e+01,4.365065765380859375e+01,3.103786849975585938e+01,1.044486618041992188e+02,9.578514099121093750e+01,-4.252828121185302734e+00,6.408341884613037109e+00,1.115394973754882812e+02,-1.746540985107421875e+02,-5.684984588623046875e+01,-6.731024932861328125e+01,1.032029037475585938e+02
3.799999952316284180e-01,1.000000000000000000e+00,-3.724331665039062500e+01,4.357204055786132812e+01,3.105965423583984375e+01,1.043778076171875000e+02,9.580507659912109375e+01,-4.275148868560791016e+00,6.408341884613037109e+00,1.115394973754882812e+02,-1.746540985107421875e+02,-5.684984588623046875e+01,-6.731024932861328125e+01,1.032029037475585938e+02
3.840000033378601074e-01,1.000000000000000000e+00,-3.728317642211914062e+01,4.349338531494140625e+01,3.108145141601562500e+01,1.043069076538085938e+02,9.582503509521484375e+01,-4.297482967376708984e+00,6.408341884613037109e+00,1.115394973754882812e+02,-1.746540985107421875e+02,-5.684984588623046875e+01,-6.731024932861328125e+01,1.032029037475585938e+02
3.880000114440917969e-01,1.000000000000000000e+00,-3.732305526733398438e+01,4.341468429565429688e+01,3.110326385498046875e+01,1.042359695434570312e+02,9.584499359130859375e+01,-4.319828987121582031e+00,6.408341884613037109e+00,1.115394973754882812e+02,-1.746540985107421875e+02,-5.684984588623046875e+01,-6.731024932861328125e+01,1.032029037475585938e+02
3.919999897480010986e-01,1.000000000000000000e+00,-3.736295700073242188e+01,4.333594131469726562e+01,3.112508773803710938e+01,1.041649932861328125e+02,9.586496734619140625e+01,-4.342187404632568359e+00,6.408341884613037109e+00,1.115394973754882812e+02,-1.746540985107421875e+02,-5.684984588623046875e+01,-6.731024932861328125e+01,1.032029037475585938e+02
3.959999978542327881e-01,1.000000000000000000e+00,-3.740287780761718750e+01,4.325715255737304688e+01,3.114691925048828125e+01,1.040939865112304688e+02,9.588494873046875000e+01,-4.364558219909667969e+00,6.408341884613037109e+00,1.115394973754882812e+02,-1.746540985107421875e+02,-5.684984588623046875e+01,-6.731024932861328125e+01,1.032029037475585938e+02
4.000000059604644775e-01,1.000000000000000000e+00,-3.744282531738281250e+01,4.317832183837890625e+01,3.116876602172851562e+01,1.040229263305664062e+02,9.590494537353515625e+01,-4.386941909790039062e+00,6.408341884613037109e+00,1.115394973754882812e+02,-1.746540985107421875e+02,-5.684984588623046875e+01,-6.731024932861328125e+01,1.032029037475585938e+02
4.040000140666961670e-01,1.000000000000000000e+00,-3.748279190063476562e+01,4.309944534301757812e+01,3.119062614440917969e+01,1.039518356323242188e+02,9.592495727539062500e+01,-4.409337997436523438e+00,6.408341884613037109e+00,1.115394973754882812e+02,-1.746540985107421875e+02,-5.684984588623046875e+01,-6.731024932861328125e+01,1.032029037475585938e+02
4.079999923706054688e-01,1.000000000000000000e+00,-3.752277755737304688e+01,4.302052307128906250e+01,3.121249580383300781e+01,1.038806991577148438e+02,9.594496917724609375e+01,-4.431746006011962891e+00,6.408341884613037109e+00,1.115394973754882812e+02,-1.746540985107421875e+02,-5.684984588623046875e+01,-6.731024932861328125e+01,1.032029037475585938e+02
4.120000004768371582e-01,1.000000000000000000e+00,-3.756279373168945312e+01,4.294155883789062500e+01,3.123438072204589844e+01,1.038095245361328125e+02,9.596499633789062500e+01,-4.454166889190673828e+00,6.408341884613037109e+00,1.115394973754882812e+02,-1.746540985107421875e+02,-5.684984588623046875e+01,-6.731024932861328125e+01,1.032029037475585938e+02
4.160000085830688477e-01,1.000000000000000000e+00,-3.760282516479492188e+01,4.286255264282226562e+01,3.125627708435058594e+01,1.037383041381835938e+02,9.598504638671875000e+01,-4.476600170135498047e+00,6.408341884613037109e+00,1.115394973754882812e+02,-1.746540985107421875e+02,-5.684984588623046875e+01,-6.731024932861328125e+01,1.032029037475585938e+02
4.199999868869781494e-01,1.000000000000000000e+00,-3.764288330078125000e+01,4.278350067138671875e+01,3.127818489074707031e+01,1.036670532226562500e+02,9.600508880615234375e+01,-4.499046325683593750e+00,6.408341884613037109e+00,1.115394973754882812e+02,-1.746540985107421875e+02,-5.684984588623046875e+01,-6.731024932861328125e+01,1.032029037475585938e+02
4.239999949932098389e-01,1.000000000000000000e+00,-3.768296051025390625e+01,4.270440292358398438e+01,3.130010795593261719e+01,1.035957641601562500e+02,9.602516174316406250e+01,-4.521504878997802734e+00,6.408341884613037109e+00,1.115394973754882812e+02,-1.746540985107421875e+02,-5.684984588623046875e+01,-6.731024932861328125e+01,1.032029037475585938e+02
4.280000030994415283e-01,1.000000000000000000e+00,-3.772306442260742188e+01,4.262525939941406250e+01,3.132203865051269531e+01,1.035244369506835938e+02,9.604523468017578125e+01,-4.543975830078125000e+00,6.408341884613037109e+00,1.115394973754882812e+02,-1.746540985107421875e+02,-5.684984588623046875e+01,-6.731024932861328125e+01,1.032029037475585938e+02
4.320000112056732178e-01,1.000000000000000000e+00,-3.776318740844726562e+01,4.254607009887695312e+01,3.134398460388183594e+01,1.034530563354492188e+02,9.606531524658203125e+01,-4.566459655761718750e+00,6.408341884613037109e+00,1.115394973754882812e+02,-1.746540985107421875e+02,-5.684984588623046875e+01,-6.731024932861328125e+01,1.032029037475585938e+02
4.359999895095825195e-01,1.000000000000000000e+00,-3.780333328247070312e+01,4.246684265136718750e+01,3.136594009399414062e+01,1.033816452026367188e+02,9.608541870117187500e+01,-4.588956356048583984e+00,6.408341884613037109e+00,1.115394973754882812e+02,-1.746540985107421875e+02,-5.684984588623046875e+01,-6.731024932861328125e+01,1.032029037475585938e+02
4.399999976158142090e-01,1.000000000000000000e+00,-3.784350204467773438e+01,4.238756561279296875e+01,3.138790893554687500e+01,1.033101882934570312e+02,9.610552215576171875e+01,-4.611464977264404297e+00,6.408341884613037109e+00,1.115394973754882812e+02,-1.746540985107421875e+02,-5.684984588623046875e+01,-6.731024932861328125e+01,1.032029037475585938e+02
4.440000057220458984e-01,1.000000000000000000e+00,-3.788369369506835938e+01,4.230824279785156250e+01,3.140989303588867188e+01,1.032387008666992188e+02,9.612564086914062500e+01,-4.633986473083496094e+00,6.408341884613037109e+00,1.115394973754882812e+02,-1.746540985107421875e+02,-5.684984588623046875e+01,-6.731024932861328125e+01,1.032029037475585938e+02
4.480000138282775879e-01,1.000000000000000000e+00,-3.792390823364257812e+01,4.222888183593750000e+01,3.143188476562500000e+01,1.031671676635742188e+02,9.614577484130859375e+01,-4.656520843505859375e+00,6.408341884613037109e+00,1.115394973754882812e+02,-1.746540985107421875e+02,-5.684984588623046875e+01,-6.731024932861328125e+01,1.032029037475585938e+02
4.519999921321868896e-01,1.000000000000000000e+00,-3.796414566040039062e+01,4.214947128295898438e+01,3.145389175415039062e+01,1.030955963134765625e+02,9.616590881347656250e+01,-4.679067611694335938e+00,6.408341884613037109e+00,1.115394973754882812e+02,-1.746540985107421875e+02,-5.684984588623046875e+01,-6.731024932861328125e+01,1.032029037475585938e+02
4.560000002384185791e-01,1.000000000000000000e+00,-3.800440216064453125e+01,4.207001876831054688e+01,3.147591018676757812e+01,1.030239791870117188e+02,9.618606567382812500e+01,-4.701626777648925781e+00,6.408341884613037109e+00,1.115394973754882812e+02,-1.746540985107421875e+02,-5.684984588623046875e+01,-6.731024932861328125e+01,1.032029037475585938e+02
4.600000083446502686e-01,1.000000000000000000e+00,-3.804468536376953125e+01,4.199051666259765625e+01,3.149794006347656250e+01,1.029523239135742188e+02,9.620623016357421875e+01,-4.724199295043945312e+00,6.408341884613037109e+00,1.115394973754882812e+02,-1.746540985107421875e+02,-5.684984588623046875e+01,-6.731024932861328125e+01,1.032029037475585938e+02
4.639999866485595703e-01,1.000000000000000000e+00,-3.808498764038085938e+01,4.191097259521484375e+01,3.151998519897460938e+01,1.028806304931640625e+02,9.622640228271484375e+01,-4.746784210205078125e+00,6.408341884613037109e+00,1.115394973754882812e+02,-1.746540985107421875e+02,-5.684984588623046875e+01,-6.731024932861328125e+01,1.032029037475585938e+02
4.679999947547912598e-01,1.000000000000000000e+00,-3.812531661987304688e+01,4.183138656616210938e+01,3.154204368591308594e+01,1.028088989257812500e+02,9.624659729003906250e+01,-4.769381999969482422e+00,6.408341884613037109e+00,1.115394973754882812e+02,-1.746540985107421875e+02,-5.684984588623046875e+01,-6.731024932861328125e+01,1.032029037475585938e+02
4.720000028610229492e-01,1.000000000000000000e+00,-3.816566848754882812e+01,4.175175094604492188e+01,3.156411170959472656e+01,1.027371215820312500e+02,9.626679229736328125e+01,-4.791992187500000000e+00,6.408341884613037109e+00,1.115394973754882812e+02,-1.746540985107421875e+02,-5.684984588623046875e+01,-6.731024932861328125e+01,1.032029037475585938e+02
4.760000109672546387e-01,1.000000000000000000e+00,-3.820603942871093750e+01,4.167207336425781250e+01,3.158618927001953125e+01,1.026653060913085938e+02,9.628700256347656250e+01,-4.814615249633789062e+00,6.408341884613037109e+00,1.115394973754882812e+02,-1.746540985107421875e+02,-5.684984588623046875e+01,-6.731024932861328125e+01,1.032029037475585938e+02
4.799999892711639404e-01,1.000000000000000000e+00,-3.824643325805664062e+01,4.159235000610351562e+01,3.160828590393066406e+01,1.025934448242187500e+02,9.630722045898437500e+01,-4.837251663208007812e+00,6.408341884613037109e+00,1.115394973754882812e+02,-1.746540985107421875e+02,-5.684984588623046875e+01,-6.731024932861328125e+01,1.032029037475585938e+02
4.839999973773956299e-01,1.000000000000000000e+00,-3.828685379028320312e+01,4.151258087158203125e+01,3.163039207458496094e+01,1.025215530395507812e+02,9.632745361328125000e+01,-4.859899997711181641e+00,6.408341884613037109e+00,1.115394973754882812e+02,-1.746540985107421875e+02,-5.684984588623046875e+01,-6.731024932861328125e+01,1.032029037475585938e+02
4.880000054836273193e-01,1.000000000000000000e+00,-3.832729721069335938e+01,4.143276977539062500e+01,3.165250778198242188e+01,1.024496154785156250e+02,9.634770202636718750e+01,-4.882561683654785156e+00,6.408341884613037109e+00,1.115394973754882812e+02,-1.746540985107421875e+02,-5.684984588623046875e+01,-6.731024932861328125e+01,1.032029037475585938e+02
4.920000135898590088e-01,1.000000000000000000e+00,-3.836775970458984375e+01,4.135290908813476562e+01,3.167464065551757812e+01,1.023776321411132812e+02,9.636795043945312500e+01,-4.905236244201660156e+00,6.408341884613037109e+00,1.115394973754882812e+02,-1.746540985107421875e+02,-5.684984588623046875e+01,-6.731024932861328125e+01,1.032029037475585938e+02
4.959999918937683105e-01,1.000000000000000000e+00,-3.840824508666992188e+01,4.127300262451171875e+01,3.169678497314453125e+01,1.023056106567382812e+02,9.638822174072265625e+01,-4.927923202514648438e+00,6.408341884613037109e+00,1.115394973754882812e+02,-1.746540985107421875e+02,-5.684984588623046875e+01,-6.731024932861328125e+01,1.032029037475585938e+02
5.000000000000000000e-01,1.000000000000000000e+00,-3.844875335693359375e+01,4.119305419921875000e+01,3.171893692016601562e+01,1.022335586547851562e+02,9.640850067138671875e+01,-4.950623035430908203e+00,6.408341884613037109e+00,1.115394973754882812e+02,-1.746540985107421875e+02,-5.684984588623046875e+01,-6.731024932861328125e+01,1.032029037475585938e+02
5.040000081062316895e-01,1.000000000000000000e+00,-3.848928833007812500e+01,4.111305999755859375e+01,3.174110794067382812e+01,1.021614532470703125e+02,9.642878723144531250e+01,-4.973336219787597656e+00,6.408341884613037109e+00,1.115394973754882812e+02,-1.746540985107421875e+02,-5.684984588623046875e+01,-6.731024932861328125e+01,1.032029037475585938e+02
5.080000162124633789e-01,1.000000000000000000e+00,-3.852984619140625000e+01,4.103302001953125000e+01,3.176329040527343750e+01,1.020893173217773438e+02,9.644909667968750000e+01,-4.996062278747558594e+00,6.408341884613037109e+00,1.115394973754882812e+02,-1.746540985107421875e+02,-5.684984588623046875e+01,-6.731024932861328125e+01,1.032029037475585938e+02
5.120000243186950684e-01,1.000000000000000000e+00,-3.857042312622070312e+01,4.095293426513671875e+01,3.178548049926757812e+01,1.020171279907226562e+02,9.646940612792968750e+01,-5.018800735473632812e+00,6.408341884613037109e+00,1.115394973754882812e+02,-1.746540985107421875e+02,-5.684984588623046875e+01,-6.731024932861328125e+01,1.032029037475585938e+02
5.159999728202819824e-01,1.000000000000000000e+00,-3.861102676391601562e+01,4.087280273437500000e+01,3.180768966674804688e+01,1.019449081420898438e+02,9.648973083496093750e+01,-5.041552543640136719e+00,6.408341884613037109e+00,1.115394973754882812e+02,-1.746540985107421875e+02,-5.684984588623046875e+01,-6.731024932861328125e+01,1.032029037475585938e+02
5.199999809265136719e-01,1.000000000000000000e+00,-3.865165328979492188e+01,4.079262542724609375e+01,3.182990837097167969e+01,1.018726425170898438e+02,9.651007080078125000e+01,-5.064317226409912109e+00,6.408341884613037109e+00,1.115394973754882812e+02,-1.746540985107421875e+02,-5.684984588623046875e+01,-6.731024932861328125e+01,1.032029037475585938e+02
5.239999890327453613e-01,1.000000000000000000e+00,-3.869230270385742188e+01,4.071240234375000000e+01,3.185214042663574219e+01,1.018003387451171875e+02,9.653041839599609375e+01,-5.087094783782958984e+00,6.408341884613037109e+00,1.115394973754882812e+02,-1.746540985107421875e+02,-5.684984588623046875e+01,-6.731024932861328125e+01,1.032029037475585938e+02
5.279999971389770508e-01,1.000000000000000000e+00,-3.873297500610351562e+01,4.063212966918945312e+01,3.187438201904296875e+01,1.017279815673828125e+02,9.655077362060546875e+01,-5.109885215759277344e+00,6.408341884613037109e+00,1.115394973754882812e+02,-1.746540985107421875e+02,-5.684984588623046875e+01,-6.731024932861328125e+01,1.032029037475585938e+02
5.320000052452087402e-01,1.000000000000000000e+00,-3.877367019653320312e+01,4.055181503295898438e+01,3.189664268493652344e+01,1.016556015014648438e+02,9.657114410400390625e+01,-5.132688999176025391e+00,6.408341884613037109e+00,1.115394973754882812e+02,-1.746540985107421875e+02,-5.684984588623046875e+01,-6.731024932861328125e+01,1.032029037475585938e+02
5.360000133514404297e-01,1.000000000000000000e+00,-3.881439208984375000e+01,4.047145462036132812e+01,3.191891288757324219e+01,1.015831680297851562e+02,9.659152221679687500e+01,-5.155505657196044922e+00,6.408341884613037109e+00,1.115394973754882812e+02,-1.746540985107421875e+02,-5.684984588623046875e+01,-6.731024932861328125e+01,1.032029037475585938e+02
5.400000214576721191e-01,1.000000000000000000e+00,-3.885513305664062500e+01,4.039104080200195312e+01,3.194119262695312500e+01,1.015106964111328125e+02,9.661192321777343750e+01,-5.178335666656494141e+00,6.408341884613037109e+00,1.115394973754882812e+02,-1.746540985107421875e+02,-5.684984588623046875e+01,-6.731024932861328125e+01,1.032029037475585938e+02
5.440000295639038086e-01,1.000000000000000000e+00,-3.889590072631835938e+01,4.031058883666992188e+01,3.196348953247070312e+01,1.014381790161132812e+02,9.663233184814453125e+01,-5.201179027557373047e+00,6.408341884613037109e+00,1.115394973754882812e+02,-1.746540985107421875e+02,-5.684984588623046875e+01,-6.731024932861328125e+01,1.032029037475585938e+02
5.479999780654907227e-01,1.000000000000000000e+00,-3.893669128417968750e+01,4.023008346557617188e+01,3.198579597473144531e+01,1.013656311035156250e+02,9.665274810791015625e+01,-5.224034786224365234e+00,6.408341884613037109e+00,1.115394973754882812e+02,-1.746540985107421875e+02,-5.684984588623046875e+01,-6.731024932861328125e+01,1.032029037475585938e+02
5.519999861717224121e-01,1.000000000000000000e+00,-3.897750473022460938e+01,4.014953613281250000e+01,3.200811767578125000e+01,1.012930297851562500e+02,9.667317962646484375e+01,-5.246904373168945312e+00,6.408341884613037109e+00,1.115394973754882812e+02,-1.746540985107421875e+02,-5.684984588623046875e+01,-6.731024932861328125e+01,1.032029037475585938e+02
5.559999942779541016e-01,1.000000000000000000e+00,-3.901834487915039062e+01,4.006893539428710938e+01,3.203045272827148438e+01,1.012203903198242188e+02,9.669361877441406250e+01,-5.269786834716796875e+00,6.408341884613037109e+00,1.115394973754882812e+02,-1.746540985107421875e+02,-5.684984588623046875e+01,-6.731024932861328125e+01,1.032029037475585938e+02
5.600000023841857910e-01,1.000000000000000000e+00,-3.905920410156250000e+01,3.998829269409179688e+01,3.205279922485351562e+01,1.011477050781250000e+02,9.671407318115234375e+01,-5.292683124542236328e+00,6.408341884613037109e+00,1.115394973754882812e+02,-1.746540985107421875e+02,-5.684984588623046875e+01,-6.731024932861328125e+01,1.032029037475585938e+02
5.640000104904174805e-01,1.000000000000000000e+00,-3.910008621215820312e+01,3.990760040283203125e+01,3.207516098022460938e+01,1.010749816894531250e+02,9.673453521728515625e+01,-5.315592288970947266e+00,6.408341884613037109e+00,1.115394973754882812e+02,-1.746540985107421875e+02,-5.684984588623046875e+01,-6.731024932861328125e+01,1.032029037475585938e+02
5.680000185966491699e-01,1.000000000000000000e+00,-3.914099884033203125e+01,3.982686614990234375e+01,3.209753036499023438e+01,1.010022125244140625e+02,9.675501251220703125e+01,-5.338514804840087891e+00,6.408341884613037109e+00,1.115394973754882812e+02,-1.746540985107421875e+02,-5.684984588623046875e+01,-6.731024932861328125e+01,1.032029037475585938e+02
5.720000267028808594e-01,1.000000000000000000e+00,-3.918192672729492188e+01,3.974607849121093750e+01,3.211991882324218750e+01,1.009294128417968750e+02,9.677550506591796875e+01,-5.361450672149658203e+00,6.408341884613037109e+00,1.115394973754882812e+02,-1.746540985107421875e+02,-5.684984588623046875e+01,-6.731024932861328125e+01,1.032029037475585938e+02
5.759999752044677734e-01,1.000000000000000000e+00,-3.922288131713867188e+01,3.966524887084960938e+01,3.214231872558593750e+01,1.008565597534179688e+02,9.679600524902343750e+01,-5.384399414062500000e+00,6.408341884613037109e+00,1.115394973754882812e+02,-1.746540985107421875e+02,-5.684984588623046875e+01,-6.731024932861328125e+01,1.032029037475585938e+02
5.799999833106994629e-01,1.000000000000000000e+00,-3.926386260986328125e+01,3.958437347412109375e+01,3.216473007202148438e+01,1.007836608886718750e+02,9.681652069091796875e+01,-5.407361984252929688e+00,6.408341884613037109e+00,1.115394973754882812e+02,-1.746540985107421875e+02,-5.684984588623046875e+01,-6.731024932861328125e+01,1.032029037475585938e+02
5.839999914169311523e-01,1.000000000000000000e+00,-3.930486297607421875e+01,3.950344467163085938e+01,3.218715286254882812e+01,1.007107315063476562e+02,9.683704376220703125e+01,-5.430337905883789062e+00,6.408341884613037109e+00,1.115394973754882812e+02,-1.746540985107421875e+02,-5.684984588623046875e+01,-6.731024932861328125e+01,1.032029037475585938e+02
5.879999995231628418e-01,1.000000000000000000e+00,-3.934589004516601562e+01,3.942247390747070312e+01,3.220959472656250000e+01,1.006377487182617188e+02,9.685758209228515625e+01,-5.453327655792236328e+00,6.408341884613037109e+00,1.115394973754882812e+02,-1.746540985107421875e+02,-5.684984588623046875e+01,-6.731024932861328125e+01,1.032029037475585938e+02
5.920000076293945312e-01,1.000000000000000000e+00,-3.938694000244140625e+01,3.934145355224609375e+01,3.223204421997070312e+01,1.005647277832031250e+02,9.687812805175781250e+01,-5.476330280303955078e+00,6.408341884613037109e+00,1.115394973754882812e+02,-1.746540985107421875e+02,-5.684984588623046875e+01,-6.731024932861328125e+01,1.032029037475585938e+02
5.960000157356262207e-01,1.000000000000000000e+00,-3.942801666259765625e+01,3.926038360595703125e+01,3.225450897216796875e+01,1.004916687011718750e+02,9.689868927001953125e+01,-5.499346733093261719e+00,6.408341884613037109e+00,1.115394973754882812e+02,-1.746540985107421875e+02,-5.684984588623046875e+01,-6.731024932861328125e+01,1.032029037475585938e+02
6.000000238418579102e-01,1.000000000000000000e+00,-3.946911239624023438e+01,3.917927169799804688e+01,3.227698898315429688e+01,1.004185638427734375e+02,9.691926574707031250e+01,-5.522376060485839844e+00,6.408341884613037109e+00,1.115394973754882812e+02,-1.746540985107421875e+02,-5.684984588623046875e+01,-6.731024932861328125e+01,1.032029037475585938e+02
6.039999723434448242e-01,1.000000000000000000e+00,-3.951023483276367188e+01,3.909810638427734375e+01,3.229947662353515625e+01,1.003454132080078125e+02,9.693984985351562500e+01,-5.545419692993164062e+00,6.408341884613037109e+00,1.115394973754882812e+02,-1.746540985107421875e+02,-5.684984588623046875e+01,-6.731024932861328125e+01,1.032029037475585938e+02
6.079999804496765137e-01,1.000000000000000000e+00,-3.955138397216796875e+01,3.901689529418945312e+01,3.232198333740234375e+01,1.002722167968750000e+02,9.696044158935546875e+01,-5.568476200103759766e+00,6.408341884613037109e+00,1.115394973754882812e+02,-1.746540985107421875e+02,-5.684984588623046875e+01,-6.731024932861328125e+01,1.032029037475585938e+02
6.119999885559082031e-01,1.000000000000000000e+00,-3.959255218505859375e+01,3.893563842773437500e+01,3.234449768066406250e+01,1.001989822387695312e+02,9.698105621337890625e+01,-5.591546058654785156e+00,6.408341884613037109e+00,1.115394973754882812e+02,-1.746540985107421875e+02,-5.684984588623046875e+01,-6.731024932861328125e+01,1.032029037475585938e+02
6.159999966621398926e-01,1.000000000000000000e+00,-3.963374710083007812e+01,3.885433197021484375e+01,3.236703109741210938e+01,1.001257095336914062e+02,9.700167846679687500e+01,-5.614629268646240234e+00,6.408341884613037109e+00,1.115394973754882812e+02,-1.746540985107421875e+02,-5.684984588623046875e+01,-6.731024932861328125e+01,1.032029037475585938e+02
6.200000047683715820e-01,1.000000000000000000e+00,-3.967496490478515625e+01,3.877296829223632812e+01,3.238957214355468750e+01,1.000523910522460938e+02,9.702231597900390625e+01,-5.637726783752441406e+00,6.408341884613037109e+00,1.115394973754882812e+02,-1.746540985107421875e+02,-5.684984588623046875e+01,-6.731024932861328125e+01,1.032029037475585938e+02
6.240000128746032715e-01,1.000000000000000000e+00,-3.971620941162109375e+01,3.869155502319335938e+01,3.241212844848632812e+01,9.997902679443359375e+01,9.704295349121093750e+01,-5.660837173461914062e+00,6.408341884613037109e+00,1.115394973754882812e+02,-1.746540985107421875e+02,-5.684984588623046875e+01,-6.731024932861328125e+01,1.032029037475585938e+02
6.280000209808349609e-01,1.000000000000000000e+00,-3.975747299194335938e+01,3.861008453369140625e+01,3.243470001220703125e+01,9.990562438964843750e+01,9.706361389160156250e+01,-5.683961391448974609e+00,6.408341884613037109e+00,1.115394973754882812e+02,-1.746540985107421875e+02,-5.684984588623046875e+01,-6.731024932861328125e+01,1.032029037475585938e+02
6.320000290870666504e-01,1.000000000000000000e+00,-3.979876327514648438e+01,3.852856445312500000e+01,3.245728302001953125e+01,9.983216857910156250e+01,9.708428192138671875e+01,-5.707098960876464844e+00,6.408341884613037109e+00,1.115394973754882812e+02,-1.746540985107421875e+02,-5.684984588623046875e+01,-6.731024932861328125e+01,1.032029037475585938e+02
6.359999775886535645e-01,1.000000000000000000e+00,-3.984008026123046875e+01,3.844699859619140625e+01,3.247987747192382812e+01,9.975867462158203125e+01,9.710496520996093750e+01,-5.730249881744384766e+00,6.408341884613037109e+00,1.115394973754882812e+02,-1.746540985107421875e+02,-5.684984588623046875e+01,-6.731024932861328125e+01,1.032029037475585938e+02
6.399999856948852539e-01,1.000000000000000000e+00,-3.988142013549804688e+01,3.836538314819335938e+01,3.250248718261718750e+01,9.968514251708984375e+01,9.712566375732421875e+01,-5.753415107727050781e+00,6.408341884613037109e+00,1.115394973754882812e+02,-1.746540985107421875e+02,-5.684984588623046875e+01,-6.731024932861328125e+01,1.032029037475585938e+02
6.439999938011169434e-01,1.000000000000000000e+00,-3.992278289794921875e+01,3.828373336791992188e+01,3.252511215209960938e+01,9.961157226562500000e+01,9.714636230468750000e+01,-5.776593208312988281e+00,6.408341884613037109e+00,1.115394973754882812e+02,-1.746540985107421875e+02,-5.684984588623046875e+01,-6.731024932861328125e+01,1.032029037475585938e+02
6.480000019073486328e-01,1.000000000000000000e+00,-3.996417236328125000e+01,3.820204544067382812e+01,3.254774856567382812e+01,9.953794860839843750e+01,9.716707611083984375e+01,-5.799785137176513672e+00,6.408341884613037109e+00,1.115394973754882812e+02,-1.746540985107421875e+02,-5.684984588623046875e+01,-6.731024932861328125e+01,1.032029037475585938e+02
6.520000100135803223e-01,1.000000000000000000e+00,-4.000558471679687500e+01,3.812031555175781250e+01,3.257039642333984375e+01,9.946427917480468750e+01,9.718781280517578125e+01,-5.822990894317626953e+00,6.408341884613037109e+00,1.115394973754882812e+02,-1.746540985107421875e+02,-5.684984588623046875e+01,-6.731024932861328125e+01,1.032029037475585938e+02
6.560000181198120117e-01,1.000000000000000000e+00,-4.004701995849609375e+01,3.803853988647460938e+01,3.259305953979492188e+01,9.939057159423828125e+01,9.720854949951171875e+01,-5.846210002899169922e+00,6.408341884613037109e+00,1.115394973754882812e+02,-1.746540985107421875e+02,-5.684984588623046875e+01,-6.731024932861328125e+01,1.032029037475585938e+02
6.600000262260437012e-01,1.000000000000000000e+00,-4.008848190307617188e+01,3.795671844482421875e+01,3.261573410034179688e+01,9.931681823730468750e+01,9.722930908203125000e+01,-5.869442939758300781e+00,6.408341884613037109e+00,1.115394973754882812e+02,-1.746540985107421875e+02,-5.684984588623046875e+01,-6.731024932861328125e+01,1.032029037475585938e+02
6.639999747276306152e-01,1.000000000000000000e+00,-4.012996292114257812e+01,3.787484741210937500e+01,3.263842391967773438e+01,9.924302673339843750e+01,9.725007629394531250e+01,-5.892689228057861328e+00,6.408341884613037109e+00,1.115394973754882812e+02,-1.746540985107421875e+02,-5.684984588623046875e+01,-6.731024932861328125e+01,1.032029037475585938e+02
6.679999828338623047e-01,1.000000000000000000e+00,-4.017147445678710938e+01,3.779293060302734375e+01,3.266112899780273438e+01,9.916918945312500000e+01,9.727085876464843750e+01,-5.915949821472167969e+00,6.408341884613037109e+00,1.115394973754882812e+02,-1.746540985107421875e+02,-5.684984588623046875e+01,-6.731024932861328125e+01,1.032029037475585938e+02
6.719999909400939941e-01,1.000000000000000000e+00,-4.021300888061523438e+01,3.771096038818359375e+01,3.268384170532226562e+01,9.909530639648437500e+01,9.729164886474609375e+01,-5.939223289489746094e+00,6.408341884613037109e+00,1.115394973754882812e+02,-1.746540985107421875e+02,-5.684984588623046875e+01,-6.731024932861328125e+01,1.032029037475585938e+02
6.759999990463256836e-01,1.000000000000000000e+00,-4.025456619262695312e+01,3.762894821166992188e+01,3.270657348632812500e+01,9.902138519287109375e+01,9.731245422363281250e+01,-5.962511062622070312e+00,6.408341884613037109e+00,1.115394973754882812e+02,-1.746540985107421875e+02,-5.684984588623046875e+01,-6.731024932861328125e+01,1.032029037475585938e+02
6.800000071525573730e-01,1.000000000000000000e+00,-4.029615020751953125e+01,3.754688644409179688e+01,3.272931289672851562e+01,9.894741821289062500e+01,9.733326721191406250e+01,-5.985812187194824219e+00,6.408341884613037109e+00,1.115394973754882812e+02,-1.746540985107421875e+02,-5.684984588623046875e+01,-6.731024932861328125e+01,1.032029037475585938e+02
6.840000152587890625e-01,1.000000000000000000e+00,-4.033775711059570312e+01,3.746477127075195312e+01,3.275207138061523438e+01,9.887340545654296875e+01,9.735409545898437500e+01,-6.009127616882324219e+00,6.408341884613037109e+00,1.115394973754882812e+02,-1.746540985107421875e+02,-5.684984588623046875e+01,-6.731024932861328125e+01,1.032029037475585938e+02
6.880000233650207520e-01,1.000000000000000000e+00,-4.037939071655273438e+01,3.738261795043945312e+01,3.277484130859375000e+01,9.879934692382812500e+01,9.737493133544921875e+01,-6.032455921173095703e+00,6.408341884613037109e+00,1.115394973754882812e+02,-1.746540985107421875e+02,-5.684984588623046875e+01,-6.731024932861328125e+01,1.032029037475585938e+02
6.919999718666076660e-01,1.000000000000000000e+00,-4.042104721069335938e+01,3.730040740966796875e+01,3.279762268066406250e+01,9.872525024414062500e+01,9.739579010009765625e+01,-6.055798530578613281e+00,6.408341884613037109e+00,1.115394973754882812e+02,-1.746540985107421875e+02,-5.684984588623046875e+01,-6.731024932861328125e+01,1.032029037475585938e+02
6.959999799728393555e-01,1.000000000000000000e+00,-4.046272659301757812e+01,3.721815109252929688e+01,3.282042312622070312e+01,9.865110778808593750e+01,9.741665649414062500e+01,-6.079154968261718750e+00,6.408341884613037109e+00,1.115394973754882812e+02,-1.746540985107421875e+02,-5.684984588623046875e+01,-6.731024932861328125e+01,1.032029037475585938e+02
6.999999880790710449e-01,1.000000000000000000e+00,-4.050443267822265625e+01,3.713584518432617188e+01,3.284323120117187500e+01,9.857691955566406250e+01,9.743752288818359375e+01,-6.102524757385253906e+00,6.408341884613037109e+00,1.115394973754882812e+02,-1.746540985107421875e+02,-5.684984588623046875e+01,-6.731024932861328125e+01,1.032029037475585938e+02
7.039999961853027344e-01,1.000000000000000000e+00,-4.054616165161132812e+01,3.705349349975585938e+01,3.286605453491210938e+01,9.850268554687500000e+01,9.745841979980468750e+01,-6.125908851623535156e+00,6.408341884613037109e+00,1.115394973754882812e+02,-1.746540985107421875e+02,-5.684984588623046875e+01,-6.731024932861328125e+01,1.032029037475585938e+02
7.080000042915344238e-01,1.000000000000000000e+00,-4.058791732788085938e+01,3.697109222412109375e+01,3.288888931274414062e+01,9.842841339111328125e+01,9.747931671142578125e+01,-6.149306297302246094e+00,6.408341884613037109e+00,1.115394973754882812e+02,-1.746540985107421875e+02,-5.684984588623046875e+01,-6.731024932861328125e+01,1.032029037475585938e+02
7.120000123977661133e-01,1.000000000000000000e+00,-4.062969589233398438e+01,3.688864135742187500e+01,3.291174316406250000e+01,9.835409545898437500e+01,9.750023651123046875e+01,-6.172717571258544922e+00,6.408341884613037109e+00,1.115394973754882812e+02,-1.746540985107421875e+02,-5.684984588623046875e+01,-6.731024932861328125e+01,1.032029037475585938e+02
7.160000205039978027e-01,1.000000000000000000e+00,-4.067149734497070312e+01,3.680614089965820312e+01,3.293460464477539062e+01,9.827973175048828125e+01,9.752116394042968750e+01,-6.196143150329589844e+00,6.408341884613037109e+00,1.115394973754882812e+02,-1.746540985107421875e+02,-5.684984588623046875e+01,-6.731024932861328125e+01,1.032029037475585938e+02
7.200000286102294922e-01,1.000000000000000000e+00,-4.071332550048828125e+01,3.672359466552734375e+01,3.295748519897460938e+01,9.820532989501953125e+01,9.754209899902343750e+01,-6.219582080841064453e+00,6.408341884613037109e+00,1.115394973754882812e+02,-1.746540985107421875e+02,-5.684984588623046875e+01,-6.731024932861328125e+01,1.032029037475585938e+02
7.239999771118164062e-01,1.000000000000000000e+00,-4.075518417358398438e+01,3.664099884033203125e+01,3.298036956787109375e+01,9.813088226318359375e+01,9.756304931640625000e+01,-6.243034839630126953e+00,6.408341884613037109e+00,1.115394973754882812e+02,-1.746540985107421875e+02,-5.684984588623046875e+01,-6.731024932861328125e+01,1.032029037475585938e+02
7.279999852180480957e-01,1.000000000000000000e+00,-4.079705810546875000e+01,3.655835342407226562e+01,3.300327682495117188e+01,9.805638122558593750e+01,9.758401489257812500e+01,-6.266501903533935547e+00,6.408341884613037109e+00,1.115394973754882812e+02,-1.746540985107421875e+02,-5.684984588623046875e+01,-6.731024932861328125e+01,1.032029037475585938e+02
7.319999933242797852e-01,1.000000000000000000e+00,-4.083896255493164062e+01,3.647565460205078125e+01,3.302619552612304688e+01,9.798184204101562500e+01,9.760498809814453125e+01,-6.289982795715332031e+00,6.408341884613037109e+00,1.115394973754882812e+02,-1.746540985107421875e+02,-5.684984588623046875e+01,-6.731024932861328125e+01,1.032029037475585938e+02
7.360000014305114746e-01,1.000000000000000000e+00,-4.088089370727539062e+01,3.639291000366210938e+01,3.304912567138671875e+01,9.790726470947265625e+01,9.762597656250000000e+01,-6.313477516174316406e+00,6.408341884613037109e+00,1.115394973754882812e+02,-1.746540985107421875e+02,-5.684984588623046875e+01,-6.731024932861328125e+01,1.032029037475585938e+02
7.400000095367431641e-01,1.000000000000000000e+00,-4.092284393310546875e+01,3.631012344360351562e+01,3.307207107543945312e+01,9.783264160156250000e+01,9.764698028564453125e+01,-6.336986064910888672e+00,6.408341884613037109e+00,1.115394973754882812e+02,-1.746540985107421875e+02,-5.684984588623046875e+01,-6.731024932861328125e+01,1.032029037475585938e+02
7.440000176429748535e-01,1.000000000000000000e+00,-4.096482086181640625e+01,3.622728347778320312e+01,3.309502792358398438e+01,9.775796508789062500e+01,9.766799163818359375e+01,-6.360508441925048828e+00,6.408341884613037109e+00,1.115394973754882812e+02,-1.746540985107421875e+02,-5.684984588623046875e+01,-6.731024932861328125e+01,1.032029037475585938e+02
7.480000257492065430e-01,1.000000000000000000e+00,-4.100682449340820312e+01,3.614439392089843750e+01,3.311800384521484375e+01,9.768325042724609375e+01,9.768901062011718750e+01,-6.384044647216796875e+00,6.408341884613037109e+00,1.115394973754882812e+02,-1.746540985107421875e+02,-5.684984588623046875e+01,-6.731024932861328125e+01,1.032029037475585938e+02
7.519999742507934570e-01,1.000000000000000000e+00,-4.104885101318359375e+01,3.606145858764648438e+01,3.314099121093750000e+01,9.760848999023437500e+01,9.771006011962890625e+01,-6.407595157623291016e+00,6.408341884613037109e+00,1.115394973754882812e+02,-1.746540985107421875e+02,-5.684984588623046875e+01,-6.731024932861328125e+01,1.032029037475585938e+02
7.559999823570251465e-01,1.000000000000000000e+00,-4.109090423583984375e+01,3.597847366333007812e+01,3.316398620605468750e+01,9.753369140625000000e+01,9.773110961914062500e+01,-6.431159496307373047e+00,6.408341884613037109e+00,1.115394973754882812e+02,-1.746540985107421875e+02,-5.684984588623046875e+01,-6.731024932861328125e+01,1.032029037475585938e+02
7.599999904632568359e-01,1.000000000000000000e+00,-4.113297653198242188e+01,3.589543914794921875e+01,3.318700027465820312e+01,9.745884704589843750e+01,9.775216674804687500e+01,-6.454737663269042969e+00,6.408341884613037109e+00,1.115394973754882812e+02,-1.746540985107421875e+02,-5.684984588623046875e+01,-6.731024932861328125e+01,1.032029037475585938e+02
7.639999985694885254e-01,1.000000000000000000e+00,-4.117508316040039062e+01,3.581236648559570312e+01,3.321002960205078125e+01,9.738394927978515625e+01,9.777324676513671875e+01,-6.478330135345458984e+00,6.408341884613037109e+00,1.115394973754882812e+02,-1.746540985107421875e+02,-5.684984588623046875e+01,-6.731024932861328125e+01,1.032029037475585938e+02
7.680000066757202148e-01,1.000000000000000000e+00,-4.121720886230468750e+01,3.572925186157226562e+01,3.323306655883789062e+01,9.730901336669921875e+01,9.779433441162109375e+01,-6.501936435699462891e+00,6.408341884613037109e+00,1.115394973754882812e+02,-1.746540985107421875e+02,-5.684984588623046875e+01,-6.731024932861328125e+01,1.032029037475585938e+02
7.720000147819519043e-01,1.000000000000000000e+00,-4.125936126708984375e+01,3.564609527587890625e+01,3.325612258911132812e+01,9.723402404785156250e+01,9.781543731689453125e+01,-6.525557041168212891e+00,6.408341884613037109e+00,1.115394973754882812e+02,-1.746540985107421875e+02,-5.684984588623046875e+01,-6.731024932861328125e+01,1.032029037475585938e+02
7.760000228881835938e-01,1.000000000000000000e+00,-4.130153656005859375e+01,3.556289672851562500e+01,3.327919387817382812e+01,9.715900421142578125e+01,9.783654785156250000e+01,-6.549190998077392578e+00,6.408341884613037109e+00,1.115394973754882812e+02,-1.746540985107421875e+02,-5.684984588623046875e+01,-6.731024932861328125e+01,1.032029037475585938e+02
7.799999713897705078e-01,1.000000000000000000e+00,-4.134373474121093750e+01,3.547964477539062500e+01,3.330227279663085938e+01,9.708393096923828125e+01,9.785767364501953125e+01,-6.572839736938476562e+00,6.408341884613037109e+00,1.115394973754882812e+02,-1.746540985107421875e+02,-5.684984588623046875e+01,-6.731024932861328125e+01,1.032029037475585938e+02
7.839999794960021973e-01,1.000000000000000000e+00,-4.138596343994140625e+01,3.539634323120117188e+01,3.332536697387695312e+01,9.700881958007812500e+01,9.787881469726562500e+01,-6.596501827239990234e+00,6.408341884613037109e+00,1.115394973754882812e+02,-1.746540985107421875e+02,-5.684984588623046875e+01,-6.731024932861328125e+01,1.032029037475585938e+02
7.879999876022338867e-01,1.000000000000000000e+00,-4.142821502685546875e+01,3.531298446655273438e+01,3.334847640991210938e+01,9.693365478515625000e+01,9.789996337890625000e+01,-6.620178699493408203e+00,6.408341884613037109e+00,1.115394973754882812e+02,-1.746540985107421875e+02,-5.684984588623046875e+01,-6.731024932861328125e+01,1.032029037475585938e+02
7.919999957084655762e-01,1.000000000000000000e+00,-4.147048950195312500e+01,3.522956848144531250e+01,3.337160110473632812e+01,9.685845947265625000e+01,9.792112731933593750e+01,-6.643869400024414062e+00,6.408341884613037109e+00,1.115394973754882812e+02,-1.746540985107421875e+02,-5.684984588623046875e+01,-6.731024932861328125e+01,1.032029037475585938e+02
7.960000038146972656e-01,1.000000000000000000e+00,-4.151279449462890625e+01,3.514609909057617188e+01,3.339473724365234375e+01,9.678321075439453125e+01,9.794230651855468750e+01,-6.667573928833007812e+00,6.408341884613037109e+00,1.115394973754882812e+02,-1.746540985107421875e+02,-5.684984588623046875e+01,-6.731024932861328125e+01,1.032029037475585938e+02
8.000000119209289551e-01,1.000000000000000000e+00,-4.155512237548828125e+01,3.506257629394531250e+01,3.341788482666015625e+01,9.670790863037109375e+01,9.796349334716796875e+01,-6.691293239593505859e+00,6.408341884613037109e+00,1.115394973754882812e+02,-1.746540985107421875e+02,-5.684984588623046875e+01,-6.731024932861328125e+01,1.032029037475585938e+02
8.040000200271606445e-01,1.000000000000000000e+00,-4.159747314453125000e+01,3.497900009155273438e+01,3.344105148315429688e+01,9.663257598876953125e+01,9.798469543457031250e+01,-6.715026378631591797e+00,6.408341884613037109e+00,1.115394973754882812e+02,-1.746540985107421875e+02,-5.684984588623046875e+01,-6.731024932861328125e+01,1.032029037475585938e+02
8.080000281333923340e-01,1.000000000000000000e+00,-4.163985443115234375e+01,3.489537811279296875e+01,3.346422958374023438e+01,9.655718994140625000e+01,9.800590515136718750e+01,-6.738773345947265625e+00,6.408341884613037109e+00,1.115394973754882812e+02,-1.746540985107421875e+02,-5.684984588623046875e+01,-6.731024932861328125e+01,1.032029037475585938e+02
8.119999766349792480e-01,1.000000000000000000e+00,-4.168225860595703125e+01,3.481170654296875000e+01,3.348741912841796875e+01,9.648175811767578125e+01,9.802713775634765625e+01,-6.762534618377685547e+00,6.408341884613037109e+00,1.115394973754882812e+02,-1.746540985107421875e+02,-5.684984588623046875e+01,-6.731024932861328125e+01,1.032029037475585938e+02
8.159999847412109375e-01,1.000000000000000000e+00,-4.172468566894531250e+01,3.472798538208007812e+01,3.351062774658203125e+01,9.640628051757812500e+01,9.804837036132812500e+01,-6.786310195922851562e+00,6.408341884613037109e+00,1.115394973754882812e+02,-1.746540985107421875e+02,-5.684984588623046875e+01,-6.731024932861328125e+01,1.032029037475585938e+02
8.199999928474426270e-01,1.000000000000000000e+00,-4.176713943481445312e+01,3.464421081542968750e+01,3.353384399414062500e+01,9.633077239990234375e+01,9.806962585449218750e+01,-6.810100078582763672e+00,6.408341884613037109e+00,1.115394973754882812e+02,-1.746540985107421875e+02,-5.684984588623046875e+01,-6.731024932861328125e+01,1.032029037475585938e+02
8.240000009536743164e-01,1.000000000000000000e+00,-4.180961990356445312e+01,3.456039047241210938e+01,3.355707931518554688e+01,9.625520324707031250e+01,9.809088897705078125e+01,-6.833903789520263672e+00,6.408341884613037109e+00,1.115394973754882812e+02,-1.746540985107421875e+02,-5.684984588623046875e+01,-6.731024932861328125e+01,1.032029037475585938e+02
8.280000090599060059e-01,1.000000000000000000e+00,-4.185212326049804688e+01,3.447651672363281250e+01,3.358032989501953125e+01,9.617959594726562500e+01,9.811216735839843750e+01,-6.857721805572509766e+00,6.408341884613037109e+00,1.115394973754882812e+02,-1.746540985107421875e+02,-5.684984588623046875e+01,-6.731024932861328125e+01,1.032029037475585938e+02
8.320000171661376953e-01,1.000000000000000000e+00,-4.189465713500976562e+01,3.439259338378906250e+01,3.360358810424804688e+01,9.610393524169921875e+01,9.813345336914062500e+01,-6.881554603576660156e+00,6.408341884613037109e+00,1.115394973754882812e+02,-1.746540985107421875e+02,-5.684984588623046875e+01,-6.731024932861328125e+01,1.032029037475585938e+02
8.360000252723693848e-01,1.000000000000000000e+00,-4.193721008300781250e+01,3.430862045288085938e+01,3.362686157226562500e+01,9.602823638916015625e+01,9.815475463867187500e+01,-6.905400753021240234e+00,6.408341884613037109e+00,1.115394973754882812e+02,-1.746540985107421875e+02,-5.684984588623046875e+01,-6.731024932861328125e+01,1.032029037475585938e+02
8.399999737739562988e-01,1.000000000000000000e+00,-4.197978973388671875e+01,3.422459793090820312e+01,3.365015411376953125e+01,9.595249176025390625e+01,9.817607116699218750e+01,-6.929261684417724609e+00,6.408341884613037109e+00,1.115394973754882812e+02,-1.746540985107421875e+02,-5.684984588623046875e+01,-6.731024932861328125e+01,1.032029037475585938e+02
8.439999818801879883e-01,1.000000000000000000e+00,-4.202239608764648438e+01,3.414052581787109375e+01,3.367345428466796875e+01,9.587670898437500000e+01,9.819740295410156250e+01,-6.953136920928955078e+00,6.408341884613037109e+00,1.115394973754882812e+02,-1.746540985107421875e+02,-5.684984588623046875e+01,-6.731024932861328125e+01,1.032029037475585938e+02
8.479999899864196777e-01,1.000000000000000000e+00,-4.206503295898437500e+01,3.405640411376953125e+01,3.369677352905273438e+01,9.580087280273437500e+01,9.821874237060546875e+01,-6.977026462554931641e+00,6.408341884613037109e+00,1.115394973754882812e+02,-1.746540985107421875e+02,-5.684984588623046875e+01,-6.731024932861328125e+01,1.032029037475585938e+02
8.519999980926513672e-01,1.000000000000000000e+00,-4.210768508911132812e+01,3.397222900390625000e+01,3.372010040283203125e+01,9.572498321533203125e+01,9.824010467529296875e+01,-7.000929832458496094e+00,6.408341884613037109e+00,1.115394973754882812e+02,-1.746540985107421875e+02,-5.684984588623046875e+01,-6.731024932861328125e+01,1.032029037475585938e+02
8.560000061988830566e-01,1.000000000000000000e+00,-4.215037155151367188e+01,3.388800048828125000e+01,3.374344635009765625e+01,9.564906311035156250e+01,9.826146697998046875e+01,-7.024847984313964844e+00,6.408341884613037109e+00,1.115394973754882812e+02,-1.746540985107421875e+02,-5.684984588623046875e+01,-6.731024932861328125e+01,1.032029037475585938e+02
8.600000143051147461e-01,1.000000000000000000e+00,-4.219308090209960938e+01,3.380372619628906250e+01,3.376680755615234375e+01,9.557308959960937500e+01,9.828284454345703125e+01,-7.048780441284179688e+00,6.408341884613037109e+00,1.115394973754882812e+02,-1.746540985107421875e+02,-5.684984588623046875e+01,-6.731024932861328125e+01,1.032029037475585938e+02
8.640000224113464355e-01,1.000000000000000000e+00,-4.223581314086914062e+01,3.371939849853515625e+01,3.379018020629882812e+01,9.549707794189453125e+01,9.830423736572265625e+01,-7.072727203369140625e+00,6.408341884613037109e+00,1.115394973754882812e+02,-1.746540985107421875e+02,-5.684984588623046875e+01,-6.731024932861328125e+01,1.032029037475585938e+02
8.679999709129333496e-01,1.000000000000000000e+00,-4.227857589721679688e+01,3.363501739501953125e+01,3.381356430053710938e+01,9.542100524902343750e+01,9.832564544677734375e+01,-7.096688270568847656e+00,6.408341884613037109e+00,1.115394973754882812e+02,-1.746540985107421875e+02,-5.684984588623046875e+01,-6.731024932861328125e+01,1.032029037475585938e+02
8.719999790191650391e-01,1.000000000000000000e+00,-4.232135772705078125e+01,3.355058670043945312e+01,3.383696746826171875e+01,9.534490203857421875e+01,9.834706115722656250e+01,-7.120663642883300781e+00,6.408341884613037109e+00,1.115394973754882812e+02,-1.746540985107421875e+02,-5.684984588623046875e+01,-6.731024932861328125e+01,1.032029037475585938e+02
8.759999871253967285e-01,1.000000000000000000e+00,-4.236417007446289062e+01,3.346610641479492188e+01,3.386037826538085938e+01,9.526875305175781250e+01,9.836848449707031250e+01,-7.144653320312500000e+00,6.408341884613037109e+00,1.115394973754882812e+02,-1.746540985107421875e+02,-5.684984588623046875e+01,-6.731024932861328125e+01,1.032029037475585938e+02
8.799999952316284180e-01,1.000000000000000000e+00,-4.240700531005859375e+01,3.338157272338867188e+01,3.388381195068359375e+01,9.519254302978515625e+01,9.838993835449218750e+01,-7.168657779693603516e+00,6.408341884613037109e+00,1.115394973754882812e+02,-1.746540985107421875e+02,-5.684984588623046875e+01,-6.731024932861328125e+01,1.032029037475585938e+02
8.840000033378601074e-01,1.000000000000000000e+00,-4.244986724853515625e+01,3.329699325561523438e+01,3.390725326538085938e+01,9.511630249023437500e+01,9.841139221191406250e+01,-7.192676067352294922e+00,6.408341884613037109e+00,1.115394973754882812e+02,-1.746540985107421875e+02,-5.684984588623046875e+01,-6.731024932861328125e+01,1.032029037475585938e+02
8.880000114440917969e-01,1.000000000000000000e+00,-4.249275970458984375e+01,3.321235656738281250e+01,3.393070983886718750e+01,9.504001617431640625e+01,9.843285369873046875e+01,-7.216708660125732422e+00,6.408341884613037109e+00,1.115394973754882812e+02,-1.746540985107421875e+02,-5.684984588623046875e+01,-6.731024932861328125e+01,1.032029037475585938e+02
8.920000195503234863e-01,1.000000000000000000e+00,-4.253567123413085938e+01,3.312767028808593750e+01,3.395418167114257812e+01,9.496367645263671875e+01,9.845434570312500000e+01,-7.240756988525390625e+00,6.408341884613037109e+00,1.115394973754882812e+02,-1.746540985107421875e+02,-5.684984588623046875e+01,-6.731024932861328125e+01,1.032029037475585938e+02
8.960000276565551758e-01,1.000000000000000000e+00,-4.257860946655273438e+01,3.304293441772460938e+01,3.397766494750976562e+01,9.488729095458984375e+01,9.847583770751953125e+01,-7.264819145202636719e+00,6.408341884613037109e+00,1.115394973754882812e+02,-1.746540985107421875e+02,-5.684984588623046875e+01,-6.731024932861328125e+01,1.032029037475585938e+02
8.999999761581420898e-01,1.000000000000000000e+00,-4.262157440185546875e+01,3.295814895629882812e+01,3.400116348266601562e+01,9.481085968017578125e+01,9.849734497070312500e+01,-7.288895130157470703e+00,6.408341884613037109e+00,1.115394973754882812e+02,-1.746540985107421875e+02,-5.684984588623046875e+01,-6.731024932861328125e+01,1.032029037475585938e+02
9.039999842643737793e-01,1.000000000000000000e+00,-4.266456604003906250e+01,3.287331390380859375e+01,3.402468109130859375e+01,9.473439025878906250e+01,9.851886749267578125e+01,-7.312985420227050781e+00,6.408341884613037109e+00,1.115394973754882812e+02,-1.746540985107421875e+02,-5.684984588623046875e+01,-6.731024932861328125e+01,1.032029037475585938e+02
9.079999923706054688e-01,1.000000000000000000e+00,-4.270758056640625000e+01,3.278842544555664062e+01,3.404820632934570312e+01,9.465786743164062500e+01,9.854039764404296875e+01,-7.337090969085693359e+00,6.408341884613037109e+00,1.115394973754882812e+02,-1.746540985107421875e+02,-5.684984588623046875e+01,-6.731024932861328125e+01,1.032029037475585938e+02
9.120000004768371582e-01,1.000000000000000000e+00,-4.275062561035156250e+01,3.270348358154296875e+01,3.407174682617187500e+01,9.458129882812500000e+01,9.856194305419921875e+01,-7.361210823059082031e+00,6.408341884613037109e+00,1.115394973754882812e+02,-1.746540985107421875e+02,-5.684984588623046875e+01,-6.731024932861328125e+01,1.032029037475585938e+02
9.160000085830688477e-01,1.000000000000000000e+00,-4.279370117187500000e+01,3.261849212646484375e+01,3.409530258178710938e+01,9.450468444824218750e+01,9.858351135253906250e+01,-7.385345458984375000e+00,6.408341884613037109e+00,1.115394973754882812e+02,-1.746540985107421875e+02,-5.684984588623046875e+01,-6.731024932861328125e+01,1.032029037475585938e+02
9.200000166893005371e-01,1.000000000000000000e+00,-4.283679580688476562e+01,3.253344345092773438e+01,3.411887359619140625e+01,9.442803192138671875e+01,9.860507965087890625e+01,-7.409494400024414062e+00,6.408341884613037109e+00,1.115394973754882812e+02,-1.746540985107421875e+02,-5.684984588623046875e+01,-6.731024932861328125e+01,1.032029037475585938e+02
9.240000247955322266e-01,1.000000000000000000e+00,-4.287992095947265625e+01,3.244834899902343750e+01,3.414245986938476562e+01,9.435131835937500000e+01,9.862667083740234375e+01,-7.433657646179199219e+00,6.408341884613037109e+00,1.115394973754882812e+02,-1.746540985107421875e+02,-5.684984588623046875e+01,-6.731024932861328125e+01,1.032029037475585938e+02
9.279999732971191406e-01,1.000000000000000000e+00,-4.292307281494140625e+01,3.236319732666015625e+01,3.416605758666992188e+01,9.427456665039062500e+01,9.864826965332031250e+01,-7.457836627960205078e+00,6.408341884613037109e+00,1.115394973754882812e+02,-1.746540985107421875e+02,-5.684984588623046875e+01,-6.731024932861328125e+01,1.032029037475585938e+02
9.319999814033508301e-01,1.000000000000000000e+00,-4.296624374389648438e+01,3.227799987792968750e+01,3.418967056274414062e+01,9.419776916503906250e+01,9.866987609863281250e+01,-7.482029438018798828e+00,6.408341884613037109e+00,1.115394973754882812e+02,-1.746540985107421875e+02,-5.684984588623046875e+01,-6.731024932861328125e+01,1.032029037475585938e+02
9.359999895095825195e-01,1.000000000000000000e+00,-4.300944519042968750e+01,3.219274902343750000e+01,3.421329879760742188e+01,9.412092590332031250e+01,9.869149780273437500e+01,-7.506237030029296875e+00,6.408341884613037109e+00,1.115394973754882812e+02,-1.746540985107421875e+02,-5.684984588623046875e+01,-6.731024932861328125e+01,1.032029037475585938e+02
9.399999976158142090e-01,1.000000000000000000e+00,-4.305267333984375000e+01,3.210744476318359375e+01,3.423693847656250000e+01,9.404402923583984375e+01,9.871314239501953125e+01,-7.530459403991699219e+00,6.408341884613037109e+00,1.115394973754882812e+02,-1.746540985107421875e+02,-5.684984588623046875e+01,-6.731024932861328125e+01,1.032029037475585938e+02
9.440000057220458984e-01,1.000000000000000000e+00,-4.309592819213867188e+01,3.202208709716796875e+01,3.426059341430664062e+01,9.396709442138671875e+01,9.873479461669921875e+01,-7.554696559906005859e+00,6.408341884613037109e+00,1.115394973754882812e+02,-1.746540985107421875e+02,-5.684984588623046875e+01,-6.731024932861328125e+01,1.032029037475585938e+02
9.480000138282775879e-01,1.000000000000000000e+00,-4.313920974731445312e+01,3.193668365478515625e+01,3.428426742553710938e+01,9.389010620117187500e+01,9.875645446777343750e+01,-7.578948974609375000e+00,6.408341884613037109e+00,1.115394973754882812e+02,-1.746540985107421875e+02,-5.684984588623046875e+01,-6.731024932861328125e+01,1.032029037475585938e+02
9.520000219345092773e-01,1.000000000000000000e+00,-4.318251800537109375e+01,3.185122489929199219e+01,3.430795288085937500e+01,9.381307220458984375e+01,9.877813720703125000e+01,-7.603215694427490234e+00,6.408341884613037109e+00,1.115394973754882812e+02,-1.746540985107421875e+02,-5.684984588623046875e+01,-6.731024932861328125e+01,1.032029037475585938e+02
9.559999704360961914e-01,1.000000000000000000e+00,-4.322585296630859375e+01,3.176571464538574219e+01,3.433165359497070312e+01,9.373599243164062500e+01,9.879982757568359375e+01,-7.627497673034667969e+00,6.408341884613037109e+00,1.115394973754882812e+02,-1.746540985107421875e+02,-5.684984588623046875e+01,-6.731024932861328125e+01,1.032029037475585938e+02
9.599999785423278809e-01,1.000000000000000000e+00,-4.326921081542968750e+01,3.168014907836914062e+01,3.435536575317382812e+01,9.365885925292968750e+01,9.882153320312500000e+01,-7.651794433593750000e+00,6.408341884613037109e+00,1.115394973754882812e+02,-1.746540985107421875e+02,-5.684984588623046875e+01,-6.731024932861328125e+01,1.032029037475585938e+02
9.639999866485595703e-01,1.000000000000000000e+00,-4.331259536743164062e+01,3.159453201293945312e+01,3.437909317016601562e+01,9.358168792724609375e+01,9.884325408935546875e+01,-7.676105499267578125e+00,6.408341884613037109e+00,1.115394973754882812e+02,-1.746540985107421875e+02,-5.684984588623046875e+01,-6.731024932861328125e+01,1.032029037475585938e+02
9.679999947547912598e-01,1.000000000000000000e+00,-4.335601425170898438e+01,3.150886535644531250e+01,3.440283584594726562e+01,9.350446319580078125e+01,9.886498260498046875e+01,-7.700432300567626953e+00,6.408341884613037109e+00,1.115394973754882812e+02,-1.746540985107421875e+02,-5.684984588623046875e+01,-6.731024932861328125e+01,1.032029037475585938e+02
9.720000028610229492e-01,1.000000000000000000e+00,-4.339944839477539062e+01,3.142314338684082031e+01,3.442659378051757812e+01,9.342719268798828125e+01,9.888672637939453125e+01,-7.724774360656738281e+00,6.408341884613037109e+00,1.115394973754882812e+02,-1.746540985107421875e+02,-5.684984588623046875e+01,-6.731024932861328125e+01,1.032029037475585938e+02
9.760000109672546387e-01,1.000000000000000000e+00,-4.344291687011718750e+01,3.133736991882324219e+01,3.445036697387695312e+01,9.334987640380859375e+01,9.890848541259765625e+01,-7.749130725860595703e+00,6.408341884613037109e+00,1.115394973754882812e+02,-1.746540985107421875e+02,-5.684984588623046875e+01,-6.731024932861328125e+01,1.032029037475585938e+02
9.800000190734863281e-01,1.000000000000000000e+00,-4.348640823364257812e+01,3.125154495239257812e+01,3.447415924072265625e+01,9.327251434326171875e+01,9.893025970458984375e+01,-7.773501396179199219e+00,6.408341884613037109e+00,1.115394973754882812e+02,-1.746540985107421875e+02,-5.684984588623046875e+01,-6.731024932861328125e+01,1.032029037475585938e+02
9.840000271797180176e-01,1.000000000000000000e+00,-4.352993011474609375e+01,3.116566467285156250e+01,3.449795913696289062e+01,9.319509887695312500e+01,9.895204925537109375e+01,-7.797888755798339844e+00,6.408341884613037109e+00,1.115394973754882812e+02,-1.746540985107421875e+02,-5.684984588623046875e+01,-6.731024932861328125e+01,1.032029037475585938e+02
9.879999756813049316e-01,1.000000000000000000e+00,-4.357347488403320312e+01,3.107973098754882812e+01,3.452177429199218750e+01,9.311763763427734375e+01,9.897383880615234375e+01,-7.822289466857910156e+00,6.408341884613037109e+00,1.115394973754882812e+02,-1.746540985107421875e+02,-5.684984588623046875e+01,-6.731024932861328125e+01,1.032029037475585938e+02
9.919999837875366211e-01,1.000000000000000000e+00,-4.361705017089843750e+01,3.099374580383300781e+01,3.454560470581054688e+01,9.304013061523437500e+01,9.899565887451171875e+01,-7.846706867218017578e+00,6.408341884613037109e+00,1.115394973754882812e+02,-1.746540985107421875e+02,-5.684984588623046875e+01,-6.731024932861328125e+01,1.032029037475585938e+02
9.959999918937683105e-01,1.000000000000000000e+00,-4.366064834594726562e+01,3.090770912170410156e+01,3.456945419311523438e+01,9.296257019042968750e+01,9.901747894287109375e+01,-7.871138095855712891e+00,6.408341884613037109e+00,1.115394973754882812e+02,-1.746540985107421875e+02,-5.684984588623046875e+01,-6.731024932861328125e+01,1.032029037475585938e+02
1.000000000000000000e+00,1.000000000000000000e+00,-4.370427322387695312e+01,3.082161521911621094e+01,3.459331512451171875e+01,9.288496398925781250e+01,9.903931427001953125e+01,-7.895585060119628906e+00,6.408341884613037109e+00,1.115394973754882812e+02,-1.746540985107421875e+02,-5.684984588623046875e+01,-6.731024932861328125e+01,1.032029037475585938e+02
1.003999948501586914e+00,1.000000000000000000e+00,-4.374792861938476562e+01,3.073546981811523438e+01,3.461718750000000000e+01,9.280731201171875000e+01,9.906117248535156250e+01,-7.920046806335449219e+00,6.408341884613037109e+00,1.115394973754882812e+02,-1.746540985107421875e+02,-5.684984588623046875e+01,-6.731024932861328125e+01,1.032029037475585938e+02
1.008000016212463379e+00,1.000000000000000000e+00,-4.379160690307617188e+01,3.064927291870117188e+01,3.464107894897460938e+01,9.272961425781250000e+01,9.908303833007812500e+01,-7.944523334503173828e+00,6.408341884613037109e+00,1.115394973754882812e+02,-1.746540985107421875e+02,-5.684984588623046875e+01,-6.731024932861328125e+01,1.032029037475585938e+02
1.011999964714050293e+00,1.000000000000000000e+00,-4.383531951904296875e+01,3.056302070617675781e+01,3.466498184204101562e+01,9.265186309814453125e+01,9.910491180419921875e+01,-7.969014644622802734e+00,6.408341884613037109e+00,1.115394973754882812e+02,-1.746540985107421875e+02,-5.684984588623046875e+01,-6.731024932861328125e+01,1.032029037475585938e+02
1.016000032424926758e+00,1.000000000000000000e+00,-4.387905120849609375e+01,3.047671508789062500e+01,3.468890380859375000e+01,9.257406616210937500e+01,9.912680816650390625e+01,-7.993521690368652344e+00,6.408341884613037109e+00,1.115394973754882812e+02,-1.746540985107421875e+02,-5.684984588623046875e+01,-6.731024932861328125e+01,1.032029037475585938e+02
1.019999980926513672e+00,1.000000000000000000e+00,-4.392281341552734375e+01,3.039035606384277344e+01,3.471283340454101562e+01,9.249622344970703125e+01,9.914871215820312500e+01,-8.018043518066406250e+00,6.408341884613037109e+00,1.115394973754882812e+02,-1.746540985107421875e+02,-5.684984588623046875e+01,-6.731024932861328125e+01,1.032029037475585938e+02
1.024000048637390137e+00,1.000000000000000000e+00,-4.396660232543945312e+01,3.030394554138183594e+01,3.473678588867187500e+01,9.241833496093750000e+01,9.917063140869140625e+01,-8.042581558227539062e+00,6.408341884613037109e+00,1.115394973754882812e+02,-1.746540985107421875e+02,-5.684984588623046875e+01,-6.731024932861328125e+01,1.032029037475585938e+02
1.026999950408935547e+00,1.000000000000000000e+00,-4.401041793823242188e+01,3.021748161315917969e+01,3.476074981689453125e+01,9.234039306640625000e+01,9.919256591796875000e+01,-8.067132949829101562e+00,6.408341884613037109e+00,1.115394973754882812e+02,-1.746540985107421875e+02,-5.684984588623046875e+01,-6.731024932861328125e+01,1.032029037475585938e+02
1.031999945640563965e+00,1.000000000000000000e+00,-4.405425643920898438e+01,3.013096237182617188e+01,3.478472518920898438e+01,9.226240539550781250e+01,9.921451568603515625e+01,-8.091700553894042969e+00,6.408341884613037109e+00,1.115394973754882812e+02,-1.746540985107421875e+02,-5.684984588623046875e+01,-6.731024932861328125e+01,1.032029037475585938e+02
1.036000013351440430e+00,1.000000000000000000e+00,-4.409812545776367188e+01,3.004439353942871094e+01,3.480871963500976562e+01,9.218437194824218750e+01,9.923647308349609375e+01,-8.116283416748046875e+00,6.408341884613037109e+00,1.115394973754882812e+02,-1.746540985107421875e+02,-5.684984588623046875e+01,-6.731024932861328125e+01,1.032029037475585938e+02
1.039999961853027344e+00,1.000000000000000000e+00,-4.414202117919921875e+01,2.995776939392089844e+01,3.483272933959960938e+01,9.210629272460937500e+01,9.925844573974609375e+01,-8.140880584716796875e+00,6.408341884613037109e+00,1.115394973754882812e+02,-1.746540985107421875e+02,-5.684984588623046875e+01,-6.731024932861328125e+01,1.032029037475585938e+02
1.044000029563903809e+00,1.000000000000000000e+00,-4.418594741821289062e+01,2.987109184265136719e+01,3.485675048828125000e+01,9.202816009521484375e+01,9.928043365478515625e+01,-8.165493965148925781e+00,6.408341884613037109e+00,1.115394973754882812e+02,-1.746540985107421875e+02,-5.684984588623046875e+01,-6.731024932861328125e+01,1.032029037475585938e+02
1.047999978065490723e+00,1.000000000000000000e+00,-4.422989273071289062e+01,2.978435897827148438e+01,3.488079071044921875e+01,9.194998168945312500e+01,9.930243682861328125e+01,-8.190120697021484375e+00,6.408341884613037109e+00,1.115394973754882812e+02,-1.746540985107421875e+02,-5.684984588623046875e+01,-6.731024932861328125e+01,1.032029037475585938e+02
1.052000045776367188e+00,1.000000000000000000e+00,-4.427387237548828125e+01,2.969757843017578125e+01,3.490484237670898438e+01,9.187174987792968750e+01,9.932444763183593750e+01,-8.214764595031738281e+00,6.408341884613037109e+00,1.115394973754882812e+02,-1.746540985107421875e+02,-5.684984588623046875e+01,-6.731024932861328125e+01,1.032029037475585938e+02
1.054999947547912598e+00,1.000000000000000000e+00,-4.431787872314453125e+01,2.961073875427246094e+01,3.492890930175781250e+01,9.179347229003906250e+01,9.934647369384765625e+01,-8.239422798156738281e+00,6.408341884613037109e+00,1.115394973754882812e+02,-1.746540985107421875e+02,-5.684984588623046875e+01,-6.731024932861328125e+01,1.032029037475585938e+02
1.059999942779541016e+00,1.000000000000000000e+00,-4.436190795898437500e+01,2.952384757995605469e+01,3.495299148559570312e+01,9.171515655517578125e+01,9.936851501464843750e+01,-8.264096260070800781e+00,6.408341884613037109e+00,1.115394973754882812e+02,-1.746540985107421875e+02,-5.684984588623046875e+01,-6.731024932861328125e+01,1.032029037475585938e+02
1.064000010490417480e+00,1.000000000000000000e+00,-4.440596771240234375e+01,2.943690299987792969e+01,3.497708892822265625e+01,9.163677978515625000e+01,9.939057159423828125e+01,-8.288784980773925781e+00,6.408341884613037109e+00,1.115394973754882812e+02,-1.746540985107421875e+02,-5.684984588623046875e+01,-6.731024932861328125e+01,1.032029037475585938e+02
1.067999958992004395e+00,1.000000000000000000e+00,-4.445005035400390625e+01,2.934990310668945312e+01,3.500119781494140625e+01,9.155835723876953125e+01,9.941263580322265625e+01,-8.313488960266113281e+00,6.408341884613037109e+00,1.115394973754882812e+02,-1.746540985107421875e+02,-5.684984588623046875e+01,-6.731024932861328125e+01,1.032029037475585938e+02
1.072000026702880859e+00,1.000000000000000000e+00,-4.449416351318359375e+01,2.926285362243652344e+01,3.502532577514648438e+01,9.147988891601562500e+01,9.943472290039062500e+01,-8.338207244873046875e+00,6.408341884613037109e+00,1.115394973754882812e+02,-1.746540985107421875e+02,-5.684984588623046875e+01,-6.731024932861328125e+01,1.032029037475585938e+02
1.075999975204467773e+00,1.000000000000000000e+00,-4.453830337524414062e+01,2.917574691772460938e+01,3.504946899414062500e+01,9.140137481689453125e+01,9.945681762695312500e+01,-8.362941741943359375e+00,6.408341884613037109e+00,1.115394973754882812e+02,-1.746540985107421875e+02,-5.684984588623046875e+01,-6.731024932861328125e+01,1.032029037475585938e+02
1.080000042915344238e+00,1.000000000000000000e+00,-4.458247375488281250e+01,2.908858680725097656e+01,3.507362365722656250e+01,9.132280731201171875e+01,9.947892761230468750e+01,-8.387690544128417969e+00,6.408341884613037109e+00,1.115394973754882812e+02,-1.746540985107421875e+02,-5.684984588623046875e+01,-6.731024932861328125e+01,1.032029037475585938e+02
1.083999991416931152e+00,1.000000000000000000e+00,-4.462666320800781250e+01,2.900137710571289062e+01,3.509779357910156250e+01,9.124419403076171875e+01,9.950105285644531250e+01,-8.412455558776855469e+00,6.408341884613037109e+00,1.115394973754882812e+02,-1.746540985107421875e+02,-5.684984588623046875e+01,-6.731024932861328125e+01,1.032029037475585938e+02
1.088000059127807617e+00,1.000000000000000000e+00,-4.467088699340820312e+01,2.891411018371582031e+01,3.512197875976562500e+01,9.116552734375000000e+01,9.952318572998046875e+01,-8.437235832214355469e+00,6.408341884613037109e+00,1.115394973754882812e+02,-1.746540985107421875e+02,-5.684984588623046875e+01,-6.731024932861328125e+01,1.032029037475585938e+02
1.090999960899353027e+00,1.000000000000000000e+00,-4.471513366699218750e+01,2.882678985595703125e+01,3.514617919921875000e+01,9.108681488037109375e+01,9.954533386230468750e+01,-8.462030410766601562e+00,6.408341884613037109e+00,1.115394973754882812e+02,-1.746540985107421875e+02,-5.684984588623046875e+01,-6.731024932861328125e+01,1.032029037475585938e+02
1.095999956130981445e+00,1.000000000000000000e+00,-4.475941085815429688e+01,2.873941421508789062e+01,3.517039489746093750e+01,9.100805664062500000e+01,9.956749725341796875e+01,-8.486841201782226562e+00,6.408341884613037109e+00,1.115394973754882812e+02,-1.746540985107421875e+02,-5.684984588623046875e+01,-6.731024932861328125e+01,1.032029037475585938e+02
1.100000023841857910e+00,1.000000000000000000e+00,-4.480371093750000000e+01,2.865198898315429688e+01,3.519462585449218750e+01,9.092925262451171875e+01,9.958967590332031250e+01,-8.511667251586914062e+00,6.408341884613037109e+00,1.115394973754882812e+02,-1.746540985107421875e+02,-5.684984588623046875e+01,-6.731024932861328125e+01,1.032029037475585938e+02
1.103999972343444824e+00,1.000000000000000000e+00,-4.484804534912109375e+01,2.856450462341308594e+01,3.521887207031250000e+01,9.085039520263671875e+01,9.961186981201171875e+01,-8.536507606506347656e+00,6.408341884613037109e+00,1.115394973754882812e+02,-1.746540985107421875e+02,-5.684984588623046875e+01,-6.731024932861328125e+01,1.032029037475585938e+02
1.108000040054321289e+00,1.000000000000000000e+00,-4.489240264892578125e+01,2.847697067260742188e+01,3.524312973022460938e+01,9.077149200439453125e+01,9.963407135009765625e+01,-8.561365127563476562e+00,6.408341884613037109e+00,1.115394973754882812e+02,-1.746540985107421875e+02,-5.684984588623046875e+01,-6.731024932861328125e+01,1.032029037475585938e+02
1.111999988555908203e+00,1.000000000000000000e+00,-4.493678665161132812e+01,2.838938140869140625e+01,3.526741027832031250e+01,9.069253540039062500e+01,9.965629577636718750e+01,-8.586236000061035156e+00,6.408341884613037109e+00,1.115394973754882812e+02,-1.746540985107421875e+02,-5.684984588623046875e+01,-6.731024932861328125e+01,1.032029037475585938e+02
1.116000056266784668e+00,1.000000000000000000e+00,-4.498119735717773438e+01,2.830173873901367188e+01,3.529169845581054688e+01,9.061354064941406250e+01,9.967852783203125000e+01,-8.611123085021972656e+00,6.408341884613037109e+00,1.115394973754882812e+02,-1.746540985107421875e+02,-5.684984588623046875e+01,-6.731024932861328125e+01,1.032029037475585938e+02
