rpiRobotics/ARM-21-02-F-19-Robot-Motion-Program/data_performance_abb/curve_1/dual_arm/diffevo_pose2/grad_result/sim/dual_iteration_2.csv
timestamp,cmd_num,J1,J2,J3,J4,J5,J6,J1_2,J2_2,J3_2,J4_2,J5_2,J6_2
0.000000000000000000e+00,-1.000000000000000000e+00,1.761709690093994141e+00,-9.961155891418457031e+00,5.853955841064453125e+01,1.174836502075195312e+02,8.005105590820312500e+01,-1.778525390625000000e+02,1.116664505004882812e+02,-4.885555648803710938e+01,-1.824903717041015625e+02,1.951674957275390625e+02,-4.814797973632812500e+01,-1.383530120849609375e+02
2.000000094994902611e-03,-1.000000000000000000e+00,1.761709690093994141e+00,-9.961155891418457031e+00,5.853955841064453125e+01,1.174836502075195312e+02,8.005105590820312500e+01,-1.778525390625000000e+02,1.116664505004882812e+02,-4.885555648803710938e+01,-1.824903717041015625e+02,1.951674957275390625e+02,-4.814797973632812500e+01,-1.383530120849609375e+02
4.000000189989805222e-03,-1.000000000000000000e+00,1.761709690093994141e+00,-9.961155891418457031e+00,5.853955841064453125e+01,1.174836502075195312e+02,8.005105590820312500e+01,-1.778525390625000000e+02,1.116664505004882812e+02,-4.885555648803710938e+01,-1.824903717041015625e+02,1.951674957275390625e+02,-4.814797973632812500e+01,-1.383530120849609375e+02
9.999999776482582092e-03,-1.000000000000000000e+00,1.761709690093994141e+00,-9.961155891418457031e+00,5.853955841064453125e+01,1.174836502075195312e+02,8.005105590820312500e+01,-1.778525390625000000e+02,1.116664505004882812e+02,-4.885555648803710938e+01,-1.824903717041015625e+02,1.951674957275390625e+02,-4.814797973632812500e+01,-1.383530120849609375e+02
1.200000010430812836e-02,-1.000000000000000000e+00,1.761709690093994141e+00,-9.961155891418457031e+00,5.853955841064453125e+01,1.174836502075195312e+02,8.005105590820312500e+01,-1.778525390625000000e+02,1.116664505004882812e+02,-4.885555648803710938e+01,-1.824903717041015625e+02,1.951674957275390625e+02,-4.814797973632812500e+01,-1.383530120849609375e+02
1.600000075995922089e-02,-1.000000000000000000e+00,1.761709690093994141e+00,-9.961155891418457031e+00,5.853955841064453125e+01,1.174836502075195312e+02,8.005105590820312500e+01,-1.778525390625000000e+02,1.116664505004882812e+02,-4.885555648803710938e+01,-1.824903717041015625e+02,1.951674957275390625e+02,-4.814797973632812500e+01,-1.383530120849609375e+02
1.999999955296516418e-02,-1.000000000000000000e+00,1.761709690093994141e+00,-9.961155891418457031e+00,5.853955841064453125e+01,1.174836502075195312e+02,8.005105590820312500e+01,-1.778525390625000000e+02,1.116664505004882812e+02,-4.885555648803710938e+01,-1.824903717041015625e+02,1.951674957275390625e+02,-4.814797973632812500e+01,-1.383530120849609375e+02
2.400000020861625671e-02,-1.000000000000000000e+00,1.761709690093994141e+00,-9.961155891418457031e+00,5.853955841064453125e+01,1.174836502075195312e+02,8.005105590820312500e+01,-1.778525390625000000e+02,1.116664505004882812e+02,-4.885555648803710938e+01,-1.824903717041015625e+02,1.951674957275390625e+02,-4.814797973632812500e+01,-1.383530120849609375e+02
2.899999916553497314e-02,2.000000000000000000e+00,1.761709690093994141e+00,-9.961155891418457031e+00,5.853955841064453125e+01,1.174836502075195312e+02,8.005105590820312500e+01,-1.778525390625000000e+02,1.116664505004882812e+02,-4.885555648803710938e+01,-1.824903717041015625e+02,1.951674957275390625e+02,-4.814797973632812500e+01,-1.383530120849609375e+02
3.500000014901161194e-02,2.000000000000000000e+00,1.761709690093994141e+00,-9.961155891418457031e+00,5.853955841064453125e+01,1.174836502075195312e+02,8.005105590820312500e+01,-1.778525390625000000e+02,1.116664505004882812e+02,-4.885555648803710938e+01,-1.824903717041015625e+02,1.951674957275390625e+02,-4.814797973632812500e+01,-1.383530120849609375e+02
3.799999877810478210e-02,2.000000000000000000e+00,1.761709690093994141e+00,-9.961155891418457031e+00,5.853955841064453125e+01,1.174836502075195312e+02,8.005105590820312500e+01,-1.778525390625000000e+02,1.116664505004882812e+02,-4.885555648803710938e+01,-1.824903717041015625e+02,1.951674957275390625e+02,-4.814797973632812500e+01,-1.383530120849609375e+02
3.999999910593032837e-02,2.000000000000000000e+00,1.761709690093994141e+00,-9.961155891418457031e+00,5.853955841064453125e+01,1.174836502075195312e+02,8.005105590820312500e+01,-1.778525390625000000e+02,1.116664505004882812e+02,-4.885555648803710938e+01,-1.824903717041015625e+02,1.951674957275390625e+02,-4.814797973632812500e+01,-1.383530120849609375e+02
4.399999976158142090e-02,2.000000000000000000e+00,1.761709690093994141e+00,-9.961155891418457031e+00,5.853955841064453125e+01,1.174836502075195312e+02,8.005105590820312500e+01,-1.778525390625000000e+02,1.116664505004882812e+02,-4.885555648803710938e+01,-1.824903717041015625e+02,1.951674957275390625e+02,-4.814797973632812500e+01,-1.383530120849609375e+02
4.800000041723251343e-02,2.000000000000000000e+00,1.761709690093994141e+00,-9.961155891418457031e+00,5.853955841064453125e+01,1.174836502075195312e+02,8.005105590820312500e+01,-1.778525390625000000e+02,1.116664505004882812e+02,-4.885555648803710938e+01,-1.824903717041015625e+02,1.951674957275390625e+02,-4.814797973632812500e+01,-1.383530120849609375e+02
5.200000107288360596e-02,2.000000000000000000e+00,1.761709690093994141e+00,-9.961155891418457031e+00,5.853955841064453125e+01,1.174836502075195312e+02,8.005105590820312500e+01,-1.778525390625000000e+02,1.116664505004882812e+02,-4.885555648803710938e+01,-1.824903717041015625e+02,1.951674957275390625e+02,-4.814797973632812500e+01,-1.383530120849609375e+02
5.600000172853469849e-02,2.000000000000000000e+00,1.761709690093994141e+00,-9.961155891418457031e+00,5.853955841064453125e+01,1.174836502075195312e+02,8.005105590820312500e+01,-1.778525390625000000e+02,1.116664505004882812e+02,-4.885555648803710938e+01,-1.824903717041015625e+02,1.951674957275390625e+02,-4.814797973632812500e+01,-1.383530120849609375e+02
5.999999865889549255e-02,2.000000000000000000e+00,1.761709690093994141e+00,-9.961155891418457031e+00,5.853955841064453125e+01,1.174836502075195312e+02,8.005105590820312500e+01,-1.778525390625000000e+02,1.116664505004882812e+02,-4.885555648803710938e+01,-1.824903717041015625e+02,1.951674957275390625e+02,-4.814797973632812500e+01,-1.383530120849609375e+02
6.400000303983688354e-02,2.000000000000000000e+00,1.761709690093994141e+00,-9.961155891418457031e+00,5.853955841064453125e+01,1.174836502075195312e+02,8.005105590820312500e+01,-1.778525390625000000e+02,1.116664505004882812e+02,-4.885555648803710938e+01,-1.824903717041015625e+02,1.951674957275390625e+02,-4.814797973632812500e+01,-1.383530120849609375e+02
6.800000369548797607e-02,2.000000000000000000e+00,1.761643290519714355e+00,-9.961127281188964844e+00,5.853955078125000000e+01,1.174836502075195312e+02,8.005105590820312500e+01,-1.778525390625000000e+02,1.116664505004882812e+02,-4.885555648803710938e+01,-1.824903717041015625e+02,1.951674957275390625e+02,-4.814797973632812500e+01,-1.383530120849609375e+02
7.199999690055847168e-02,2.000000000000000000e+00,1.761268138885498047e+00,-9.960958480834960938e+00,5.853948211669921875e+01,1.174836502075195312e+02,8.005104827880859375e+01,-1.778525390625000000e+02,1.116664505004882812e+02,-4.885555648803710938e+01,-1.824903717041015625e+02,1.951674957275390625e+02,-4.814797973632812500e+01,-1.383530120849609375e+02
7.599999755620956421e-02,2.000000000000000000e+00,1.760192751884460449e+00,-9.960431098937988281e+00,5.853928375244140625e+01,1.174836807250976562e+02,8.005102539062500000e+01,-1.778525238037109375e+02,1.116664505004882812e+02,-4.885555648803710938e+01,-1.824903717041015625e+02,1.951674957275390625e+02,-4.814797973632812500e+01,-1.383530120849609375e+02
7.999999821186065674e-02,2.000000000000000000e+00,1.758045434951782227e+00,-9.959298133850097656e+00,5.853883361816406250e+01,1.174837341308593750e+02,8.005100250244140625e+01,-1.778524932861328125e+02,1.116664199829101562e+02,-4.885554885864257812e+01,-1.824903717041015625e+02,1.951675109863281250e+02,-4.814798355102539062e+01,-1.383530120849609375e+02
8.399999886751174927e-02,2.000000000000000000e+00,1.754589080810546875e+00,-9.957345962524414062e+00,5.853802871704101562e+01,1.174838485717773438e+02,8.005095672607421875e+01,-1.778524322509765625e+02,1.116662826538085938e+02,-4.885551834106445312e+01,-1.824903411865234375e+02,1.951675262451171875e+02,-4.814799499511718750e+01,-1.383530120849609375e+02
8.799999952316284180e-02,2.000000000000000000e+00,1.749650359153747559e+00,-9.954401969909667969e+00,5.853675842285156250e+01,1.174840927124023438e+02,8.005093383789062500e+01,-1.778522796630859375e+02,1.116658096313476562e+02,-4.885540771484375000e+01,-1.824902343750000000e+02,1.951675567626953125e+02,-4.814803695678710938e+01,-1.383530273437500000e+02
9.200000017881393433e-02,2.000000000000000000e+00,1.743061184883117676e+00,-9.950302124023437500e+00,5.853488540649414062e+01,1.174844970703125000e+02,8.005094146728515625e+01,-1.778519744873046875e+02,1.116647262573242188e+02,-4.885515975952148438e+01,-1.824899902343750000e+02,1.951676788330078125e+02,-4.814814758300781250e+01,-1.383530578613281250e+02
9.600000083446502686e-02,2.000000000000000000e+00,1.734756708145141602e+00,-9.944946289062500000e+00,5.853229904174804688e+01,1.174851837158203125e+02,8.005104064941406250e+01,-1.778514709472656250e+02,1.116627349853515625e+02,-4.885467529296875000e+01,-1.824895477294921875e+02,1.951679382324218750e+02,-4.814839172363281250e+01,-1.383531188964843750e+02
1.000000014901161194e-01,2.000000000000000000e+00,1.724766373634338379e+00,-9.938306808471679688e+00,5.852887344360351562e+01,1.174862060546875000e+02,8.005126953125000000e+01,-1.778506774902343750e+02,1.116595001220703125e+02,-4.885387039184570312e+01,-1.824887847900390625e+02,1.951684112548828125e+02,-4.814885330200195312e+01,-1.383532867431640625e+02
1.040000021457672119e-01,2.000000000000000000e+00,1.713023900985717773e+00,-9.930349349975585938e+00,5.852450561523437500e+01,1.174876937866210938e+02,8.005168914794921875e+01,-1.778495025634765625e+02,1.116546630859375000e+02,-4.885262298583984375e+01,-1.824876556396484375e+02,1.951691894531250000e+02,-4.814965820312500000e+01,-1.383535766601562500e+02
1.080000028014183044e-01,2.000000000000000000e+00,1.699224352836608887e+00,-9.920926094055175781e+00,5.851901245117187500e+01,1.174897460937500000e+02,8.005236053466796875e+01,-1.778478698730468750e+02,1.116479187011718750e+02,-4.885083007812500000e+01,-1.824860687255859375e+02,1.951704101562500000e+02,-4.815094757080078125e+01,-1.383540954589843750e+02
1.120000034570693970e-01,2.000000000000000000e+00,1.682900786399841309e+00,-9.909793853759765625e+00,5.851220321655273438e+01,1.174924392700195312e+02,8.005330657958984375e+01,-1.778456726074218750e+02,1.116391220092773438e+02,-4.884839630126953125e+01,-1.824839782714843750e+02,1.951721649169921875e+02,-4.815287017822265625e+01,-1.383548889160156250e+02
1.159999966621398926e-01,2.000000000000000000e+00,1.663651704788208008e+00,-9.896734237670898438e+00,5.850391006469726562e+01,1.174958953857421875e+02,8.005459594726562500e+01,-1.778428344726562500e+02,1.116281433105468750e+02,-4.884525680541992188e+01,-1.824813537597656250e+02,1.951745910644531250e+02,-4.815557098388671875e+01,-1.383560638427734375e+02
1.199999973177909851e-01,2.000000000000000000e+00,1.641292691230773926e+00,-9.881678581237792969e+00,5.849402236938476562e+01,1.175001831054687500e+02,8.005624389648437500e+01,-1.778393249511718750e+02,1.116148071289062500e+02,-4.884132766723632812e+01,-1.824781494140625000e+02,1.951777648925781250e+02,-4.815916824340820312e+01,-1.383576660156250000e+02
1.239999979734420776e-01,2.000000000000000000e+00,1.615838289260864258e+00,-9.864693641662597656e+00,5.848247146606445312e+01,1.175053634643554688e+02,8.005831909179687500e+01,-1.778350219726562500e+02,1.115988769531250000e+02,-4.883653259277343750e+01,-1.824742889404296875e+02,1.951817779541015625e+02,-4.816376113891601562e+01,-1.383597564697265625e+02
1.280000060796737671e-01,2.000000000000000000e+00,1.587376475334167480e+00,-9.845881462097167969e+00,5.846926116943359375e+01,1.175114898681640625e+02,8.006084442138671875e+01,-1.778299255371093750e+02,1.115801925659179688e+02,-4.883081817626953125e+01,-1.824697418212890625e+02,1.951866912841796875e+02,-4.816940307617187500e+01,-1.383623504638671875e+02
1.309999972581863403e-01,2.000000000000000000e+00,1.555971145629882812e+00,-9.825304031372070312e+00,5.845438003540039062e+01,1.175185852050781250e+02,8.006382751464843750e+01,-1.778240203857421875e+02,1.115586700439453125e+02,-4.882416534423828125e+01,-1.824645080566406250e+02,1.951924743652343750e+02,-4.817610549926757812e+01,-1.383654479980468750e+02
1.360000073909759521e-01,2.000000000000000000e+00,1.521698236465454102e+00,-9.803009033203125000e+00,5.843785095214843750e+01,1.175266418457031250e+02,8.006727600097656250e+01,-1.778172760009765625e+02,1.115342864990234375e+02,-4.881658554077148438e+01,-1.824585571289062500e+02,1.951991424560546875e+02,-4.818383407592773438e+01,-1.383690338134765625e+02
1.389999985694885254e-01,2.000000000000000000e+00,1.484651684761047363e+00,-9.779039382934570312e+00,5.841973495483398438e+01,1.175356140136718750e+02,8.007116699218750000e+01,-1.778097534179687500e+02,1.115070648193359375e+02,-4.880809783935546875e+01,-1.824519042968750000e+02,1.952066497802734375e+02,-4.819252777099609375e+01,-1.383730773925781250e+02
1.439999938011169434e-01,2.000000000000000000e+00,1.444829940795898438e+00,-9.753340721130371094e+00,5.840008544921875000e+01,1.175454559326171875e+02,8.007546997070312500e+01,-1.778014984130859375e+02,1.114771957397460938e+02,-4.879877471923828125e+01,-1.824446105957031250e+02,1.952148895263671875e+02,-4.820209884643554688e+01,-1.383775329589843750e+02
1.480000019073486328e-01,2.000000000000000000e+00,1.402134537696838379e+00,-9.725771903991699219e+00,5.837894058227539062e+01,1.175560531616210938e+02,8.008011627197265625e+01,-1.777926025390625000e+02,1.114449768066406250e+02,-4.878871536254882812e+01,-1.824367523193359375e+02,1.952238006591796875e+02,-4.821244430541992188e+01,-1.383823547363281250e+02
1.519999951124191284e-01,2.000000000000000000e+00,1.356544256210327148e+00,-9.696248054504394531e+00,5.835636520385742188e+01,1.175673522949218750e+02,8.008504486083984375e+01,-1.777831115722656250e+02,1.114107513427734375e+02,-4.877802658081054688e+01,-1.824283905029296875e+02,1.952332763671875000e+02,-4.822343444824218750e+01,-1.383874664306640625e+02
1.560000032186508179e-01,2.000000000000000000e+00,1.308273196220397949e+00,-9.664866447448730469e+00,5.833251953125000000e+01,1.175792236328125000e+02,8.009021759033203125e+01,-1.777731781005859375e+02,1.113748168945312500e+02,-4.876681518554687500e+01,-1.824196166992187500e+02,1.952431793212890625e+02,-4.823495101928710938e+01,-1.383928222656250000e+02
1.599999964237213135e-01,2.000000000000000000e+00,1.257740139961242676e+00,-9.631864547729492188e+00,5.830758285522460938e+01,1.175915679931640625e+02,8.009557342529296875e+01,-1.777628173828125000e+02,1.113373870849609375e+02,-4.875516510009765625e+01,-1.824104766845703125e+02,1.952534790039062500e+02,-4.824686813354492188e+01,-1.383983459472656250e+02
1.640000045299530029e-01,2.000000000000000000e+00,1.205374717712402344e+00,-9.597484588623046875e+00,5.828175354003906250e+01,1.176043014526367188e+02,8.010108184814453125e+01,-1.777521514892578125e+02,1.112986907958984375e+02,-4.874316406250000000e+01,-1.824010314941406250e+02,1.952640228271484375e+02,-4.825908279418945312e+01,-1.384040222167968750e+02
1.679999977350234985e-01,2.000000000000000000e+00,1.151467442512512207e+00,-9.561911582946777344e+00,5.825518417358398438e+01,1.176173324584960938e+02,8.010668945312500000e+01,-1.777412567138671875e+02,1.112590103149414062e+02,-4.873089218139648438e+01,-1.823913726806640625e+02,1.952747344970703125e+02,-4.827149200439453125e+01,-1.384097595214843750e+02
1.720000058412551880e-01,2.000000000000000000e+00,1.096176624298095703e+00,-9.525293350219726562e+00,5.822800445556640625e+01,1.176305847167968750e+02,8.011236572265625000e+01,-1.777301635742187500e+02,1.112185745239257812e+02,-4.871842956542968750e+01,-1.823815155029296875e+02,1.952855834960937500e+02,-4.828402328491210938e+01,-1.384155426025390625e+02
1.759999990463256836e-01,2.000000000000000000e+00,1.039622426033020020e+00,-9.487776756286621094e+00,5.820035171508789062e+01,1.176439819335937500e+02,8.011809539794921875e+01,-1.777189636230468750e+02,1.111775894165039062e+02,-4.870583343505859375e+01,-1.823715362548828125e+02,1.952965240478515625e+02,-4.829662704467773438e+01,-1.384213562011718750e+02
1.800000071525573730e-01,2.000000000000000000e+00,9.819549918174743652e-01,-9.449509620666503906e+00,5.817232513427734375e+01,1.176574935913085938e+02,8.012383270263671875e+01,-1.777076721191406250e+02,1.111362533569335938e+02,-4.869315338134765625e+01,-1.823614807128906250e+02,1.953074645996093750e+02,-4.830926132202148438e+01,-1.384271697998046875e+02
1.840000003576278687e-01,2.000000000000000000e+00,9.233027696609497070e-01,-9.410620689392089844e+00,5.814401626586914062e+01,1.176710739135742188e+02,8.012957000732421875e+01,-1.776963500976562500e+02,1.110947341918945312e+02,-4.868043518066406250e+01,-1.823513641357421875e+02,1.953184356689453125e+02,-4.832191085815429688e+01,-1.384329986572265625e+02
1.879999935626983643e-01,2.000000000000000000e+00,8.637803792953491211e-01,-9.371235847473144531e+00,5.811549758911132812e+01,1.176846694946289062e+02,8.013529968261718750e+01,-1.776849975585937500e+02,1.110531692504882812e+02,-4.866770553588867188e+01,-1.823412628173828125e+02,1.953294067382812500e+02,-4.833455657958984375e+01,-1.384387969970703125e+02
1.920000016689300537e-01,2.000000000000000000e+00,8.035935759544372559e-01,-9.331507682800292969e+00,5.808685302734375000e+01,1.176982879638671875e+02,8.014101409912109375e+01,-1.776736450195312500e+02,1.110115966796875000e+02,-4.865497589111328125e+01,-1.823311309814453125e+02,1.953403930664062500e+02,-4.834720611572265625e+01,-1.384446105957031250e+02
1.959999948740005493e-01,2.000000000000000000e+00,7.430328726768493652e-01,-9.291608810424804688e+00,5.805813980102539062e+01,1.177119064331054688e+02,8.014672851562500000e+01,-1.776622924804687500e+02,1.109700469970703125e+02,-4.864225006103515625e+01,-1.823210296630859375e+02,1.953513641357421875e+02,-4.835984420776367188e+01,-1.384504241943359375e+02
2.000000029802322388e-01,2.000000000000000000e+00,6.823521256446838379e-01,-9.251659393310546875e+00,5.802941894531250000e+01,1.177255249023437500e+02,8.015243530273437500e+01,-1.776509552001953125e+02,1.109284973144531250e+02,-4.862953186035156250e+01,-1.823109130859375000e+02,1.953623352050781250e+02,-4.837248229980468750e+01,-1.384562377929687500e+02
2.039999961853027344e-01,2.000000000000000000e+00,6.216686964035034180e-01,-9.211713790893554688e+00,5.800069808959960938e+01,1.177391433715820312e+02,8.015813446044921875e+01,-1.776396026611328125e+02,1.108869705200195312e+02,-4.861681365966796875e+01,-1.823008270263671875e+02,1.953732910156250000e+02,-4.838511657714843750e+01,-1.384620513916015625e+02
2.080000042915344238e-01,2.000000000000000000e+00,5.610018968582153320e-01,-9.171780586242675781e+00,5.797198104858398438e+01,1.177527465820312500e+02,8.016384124755859375e+01,-1.776282653808593750e+02,1.108454437255859375e+02,-4.860409927368164062e+01,-1.822907104492187500e+02,1.953842468261718750e+02,-4.839774703979492188e+01,-1.384678497314453125e+02
2.119999974966049194e-01,2.000000000000000000e+00,5.003526210784912109e-01,-9.131856918334960938e+00,5.794327545166015625e+01,1.177663574218750000e+02,8.016954803466796875e+01,-1.776169281005859375e+02,1.108039398193359375e+02,-4.859138870239257812e+01,-1.822806243896484375e+02,1.953952178955078125e+02,-4.841037368774414062e+01,-1.384736633300781250e+02
2.160000056028366089e-01,2.000000000000000000e+00,4.397209286689758301e-01,-9.091946601867675781e+00,5.791458129882812500e+01,1.177799606323242188e+02,8.017523956298828125e+01,-1.776055908203125000e+02,1.107624435424804688e+02,-4.857867813110351562e+01,-1.822705230712890625e+02,1.954061584472656250e+02,-4.842299652099609375e+01,-1.384794616699218750e+02
2.199999988079071045e-01,2.000000000000000000e+00,3.791067600250244141e-01,-9.052046775817871094e+00,5.788589477539062500e+01,1.177935562133789062e+02,8.018093872070312500e+01,-1.775942535400390625e+02,1.107209625244140625e+02,-4.856597900390625000e+01,-1.822604370117187500e+02,1.954171142578125000e+02,-4.843561935424804688e+01,-1.384852752685546875e+02
2.240000069141387939e-01,2.000000000000000000e+00,3.185100853443145752e-01,-9.012159347534179688e+00,5.785721588134765625e+01,1.178071441650390625e+02,8.018663024902343750e+01,-1.775829315185546875e+02,1.106794891357421875e+02,-4.855327606201171875e+01,-1.822503356933593750e+02,1.954280700683593750e+02,-4.844823455810546875e+01,-1.384910736083984375e+02
2.280000001192092896e-01,2.000000000000000000e+00,2.579309046268463135e-01,-8.972283363342285156e+00,5.782854080200195312e+01,1.178207397460937500e+02,8.019232940673828125e+01,-1.775715942382812500e+02,1.106380310058593750e+02,-4.854058074951171875e+01,-1.822402343750000000e+02,1.954390106201171875e+02,-4.846084594726562500e+01,-1.384968719482421875e+02
2.319999933242797852e-01,2.000000000000000000e+00,1.973692774772644043e-01,-8.932417869567871094e+00,5.779988098144531250e+01,1.178343276977539062e+02,8.019802856445312500e+01,-1.775602722167968750e+02,1.105965728759765625e+02,-4.852788925170898438e+01,-1.822301635742187500e+02,1.954499511718750000e+02,-4.847345352172851562e+01,-1.385026702880859375e+02
2.360000014305114746e-01,2.000000000000000000e+00,1.368253082036972046e-01,-8.892565727233886719e+00,5.777122116088867188e+01,1.178479080200195312e+02,8.020371246337890625e+01,-1.775489501953125000e+02,1.105551452636718750e+02,-4.851520156860351562e+01,-1.822200775146484375e+02,1.954608764648437500e+02,-4.848605346679687500e+01,-1.385084686279296875e+02
2.399999946355819702e-01,2.000000000000000000e+00,7.629913836717605591e-02,-8.852723121643066406e+00,5.774257659912109375e+01,1.178614883422851562e+02,8.020940399169921875e+01,-1.775376434326171875e+02,1.105137176513671875e+02,-4.850251770019531250e+01,-1.822099914550781250e+02,1.954718170166015625e+02,-4.849865722656250000e+01,-1.385142517089843750e+02
2.440000027418136597e-01,2.000000000000000000e+00,1.579061895608901978e-02,-8.812892913818359375e+00,5.771394348144531250e+01,1.178750610351562500e+02,8.021509552001953125e+01,-1.775263366699218750e+02,1.104723052978515625e+02,-4.848983764648437500e+01,-1.821999359130859375e+02,1.954827423095703125e+02,-4.851125335693359375e+01,-1.385200500488281250e+02
2.479999959468841553e-01,2.000000000000000000e+00,-4.470049217343330383e-02,-8.773074150085449219e+00,5.768531417846679688e+01,1.178886260986328125e+02,8.022077941894531250e+01,-1.775150146484375000e+02,1.104309082031250000e+02,-4.847715759277343750e+01,-1.821898498535156250e+02,1.954936828613281250e+02,-4.852384948730468750e+01,-1.385258483886718750e+02
2.520000040531158447e-01,2.000000000000000000e+00,-1.051743105053901672e-01,-8.733266830444335938e+00,5.765668869018554688e+01,1.179021911621093750e+02,8.022647094726562500e+01,-1.775037078857421875e+02,1.103895187377929688e+02,-4.846448516845703125e+01,-1.821797790527343750e+02,1.955046081542968750e+02,-4.853643798828125000e+01,-1.385316314697265625e+02
2.560000121593475342e-01,2.000000000000000000e+00,-1.656308025121688843e-01,-8.693471908569335938e+00,5.762807464599609375e+01,1.179157562255859375e+02,8.023214721679687500e+01,-1.774924163818359375e+02,1.103481445312500000e+02,-4.845181655883789062e+01,-1.821697082519531250e+02,1.955155181884765625e+02,-4.854902648925781250e+01,-1.385374145507812500e+02
2.599999904632568359e-01,2.000000000000000000e+00,-2.260698974132537842e-01,-8.653687477111816406e+00,5.759947204589843750e+01,1.179293136596679688e+02,8.023783111572265625e+01,-1.774811096191406250e+02,1.103067779541015625e+02,-4.843914794921875000e+01,-1.821596374511718750e+02,1.955264434814453125e+02,-4.856160736083984375e+01,-1.385431976318359375e+02
2.639999985694885254e-01,2.000000000000000000e+00,-2.864916026592254639e-01,-8.613914489746093750e+00,5.757088088989257812e+01,1.179428710937500000e+02,8.024350738525390625e+01,-1.774698181152343750e+02,1.102654266357421875e+02,-4.842648696899414062e+01,-1.821495971679687500e+02,1.955373687744140625e+02,-4.857418441772460938e+01,-1.385489807128906250e+02
2.680000066757202148e-01,2.000000000000000000e+00,-3.468959033489227295e-01,-8.574153900146484375e+00,5.754228973388671875e+01,1.179564285278320312e+02,8.024918365478515625e+01,-1.774585266113281250e+02,1.102240905761718750e+02,-4.841382598876953125e+01,-1.821395416259765625e+02,1.955482788085937500e+02,-4.858676147460937500e+01,-1.385547790527343750e+02
2.720000147819519043e-01,2.000000000000000000e+00,-4.072828590869903564e-01,-8.534403800964355469e+00,5.751371002197265625e+01,1.179699630737304688e+02,8.025486755371093750e+01,-1.774472351074218750e+02,1.101827621459960938e+02,-4.840117263793945312e+01,-1.821294708251953125e+02,1.955591735839843750e+02,-4.859933471679687500e+01,-1.385605468750000000e+02
2.759999930858612061e-01,2.000000000000000000e+00,-4.676524400711059570e-01,-8.494665145874023438e+00,5.748514175415039062e+01,1.179835128784179688e+02,8.026053619384765625e+01,-1.774359436035156250e+02,1.101414489746093750e+02,-4.838851928710937500e+01,-1.821194305419921875e+02,1.955700988769531250e+02,-4.861190032958984375e+01,-1.385663299560546875e+02
2.800000011920928955e-01,2.000000000000000000e+00,-5.280047655105590820e-01,-8.454938888549804688e+00,5.745657730102539062e+01,1.179970550537109375e+02,8.026621246337890625e+01,-1.774246520996093750e+02,1.101001434326171875e+02,-4.837586975097656250e+01,-1.821093750000000000e+02,1.955809936523437500e+02,-4.862446594238281250e+01,-1.385721130371093750e+02
2.840000092983245850e-01,2.000000000000000000e+00,-5.883396267890930176e-01,-8.415222167968750000e+00,5.742802047729492188e+01,1.180105895996093750e+02,8.027188110351562500e+01,-1.774133911132812500e+02,1.100588455200195312e+02,-4.836322784423828125e+01,-1.820993194580078125e+02,1.955918884277343750e+02,-4.863702774047851562e+01,-1.385778808593750000e+02
2.879999876022338867e-01,2.000000000000000000e+00,-6.486572027206420898e-01,-8.375518798828125000e+00,5.739946746826171875e+01,1.180241165161132812e+02,8.027755737304687500e+01,-1.774020996093750000e+02,1.100175704956054688e+02,-4.835058593750000000e+01,-1.820892791748046875e+02,1.956027984619140625e+02,-4.864958190917968750e+01,-1.385836486816406250e+02
2.919999957084655762e-01,2.000000000000000000e+00,-7.089575529098510742e-01,-8.335825920104980469e+00,5.737093353271484375e+01,1.180376358032226562e+02,8.028321838378906250e+01,-1.773908386230468750e+02,1.099762954711914062e+02,-4.833794784545898438e+01,-1.820792388916015625e+02,1.956136779785156250e+02,-4.866213607788085938e+01,-1.385894317626953125e+02
2.960000038146972656e-01,2.000000000000000000e+00,-7.692404985427856445e-01,-8.296144485473632812e+00,5.734240341186523438e+01,1.180511627197265625e+02,8.028888702392578125e+01,-1.773795623779296875e+02,1.099350433349609375e+02,-4.832531738281250000e+01,-1.820691986083984375e+02,1.956245727539062500e+02,-4.867468643188476562e+01,-1.385951995849609375e+02
3.000000119209289551e-01,2.000000000000000000e+00,-8.295063376426696777e-01,-8.256474494934082031e+00,5.731388092041015625e+01,1.180646820068359375e+02,8.029455566406250000e+01,-1.773683013916015625e+02,1.098937988281250000e+02,-4.831268310546875000e+01,-1.820591735839843750e+02,1.956354522705078125e+02,-4.868723678588867188e+01,-1.386009674072265625e+02
3.039999902248382568e-01,2.000000000000000000e+00,-8.897550106048583984e-01,-8.216814994812011719e+00,5.728536224365234375e+01,1.180782089233398438e+02,8.030021667480468750e+01,-1.773570251464843750e+02,1.098525619506835938e+02,-4.830006027221679688e+01,-1.820491333007812500e+02,1.956463470458984375e+02,-4.869977951049804688e+01,-1.386067352294921875e+02
3.079999983310699463e-01,2.000000000000000000e+00,-9.499864578247070312e-01,-8.177167892456054688e+00,5.725685882568359375e+01,1.180917205810546875e+02,8.030588531494140625e+01,-1.773457641601562500e+02,1.098113403320312500e+02,-4.828743743896484375e+01,-1.820391082763671875e+02,1.956572265625000000e+02,-4.871231842041015625e+01,-1.386125030517578125e+02
3.120000064373016357e-01,2.000000000000000000e+00,-1.010200858116149902e+00,-8.137531280517578125e+00,5.722835922241210938e+01,1.181052246093750000e+02,8.031154632568359375e+01,-1.773345184326171875e+02,1.097701263427734375e+02,-4.827481842041015625e+01,-1.820290832519531250e+02,1.956681060791015625e+02,-4.872485733032226562e+01,-1.386182708740234375e+02
3.160000145435333252e-01,2.000000000000000000e+00,-1.070398211479187012e+00,-8.097906112670898438e+00,5.719986724853515625e+01,1.181187210083007812e+02,8.031719970703125000e+01,-1.773232574462890625e+02,1.097289276123046875e+02,-4.826220321655273438e+01,-1.820190582275390625e+02,1.956789855957031250e+02,-4.873738479614257812e+01,-1.386240386962890625e+02
3.199999928474426270e-01,2.000000000000000000e+00,-1.130578517913818359e+00,-8.058292388916015625e+00,5.717138671875000000e+01,1.181322174072265625e+02,8.032285308837890625e+01,-1.773119964599609375e+02,1.096877441406250000e+02,-4.824959182739257812e+01,-1.820090179443359375e+02,1.956898498535156250e+02,-4.874991607666015625e+01,-1.386297912597656250e+02
3.240000009536743164e-01,2.000000000000000000e+00,-1.190741777420043945e+00,-8.018690109252929688e+00,5.714291000366210938e+01,1.181457214355468750e+02,8.032850646972656250e+01,-1.773007507324218750e+02,1.096465682983398438e+02,-4.823698043823242188e+01,-1.819990081787109375e+02,1.957007293701171875e+02,-4.876244354248046875e+01,-1.386355438232421875e+02
3.280000090599060059e-01,2.000000000000000000e+00,-1.250887870788574219e+00,-7.979097843170166016e+00,5.711444473266601562e+01,1.181592178344726562e+02,8.033416748046875000e+01,-1.772895202636718750e+02,1.096054077148437500e+02,-4.822437667846679688e+01,-1.819889984130859375e+02,1.957115936279296875e+02,-4.877496337890625000e+01,-1.386413116455078125e+02
3.319999873638153076e-01,2.000000000000000000e+00,-1.311017036437988281e+00,-7.939517974853515625e+00,5.708598709106445312e+01,1.181727142333984375e+02,8.033982086181640625e+01,-1.772782745361328125e+02,1.095642547607421875e+02,-4.821177673339843750e+01,-1.819789886474609375e+02,1.957224578857421875e+02,-4.878748321533203125e+01,-1.386470642089843750e+02
3.359999954700469971e-01,2.000000000000000000e+00,-1.371129155158996582e+00,-7.899949073791503906e+00,5.705753707885742188e+01,1.181861953735351562e+02,8.034546661376953125e+01,-1.772670288085937500e+02,1.095231170654296875e+02,-4.819917678833007812e+01,-1.819689788818359375e+02,1.957333221435546875e+02,-4.879999923706054688e+01,-1.386528167724609375e+02
3.400000035762786865e-01,2.000000000000000000e+00,-1.431224107742309570e+00,-7.860391139984130859e+00,5.702909469604492188e+01,1.181996765136718750e+02,8.035111999511718750e+01,-1.772557983398437500e+02,1.094819869995117188e+02,-4.818658065795898438e+01,-1.819589691162109375e+02,1.957441711425781250e+02,-4.881250762939453125e+01,-1.386585693359375000e+02
3.440000116825103760e-01,2.000000000000000000e+00,-1.491302132606506348e+00,-7.820845127105712891e+00,5.700065994262695312e+01,1.182131423950195312e+02,8.035676574707031250e+01,-1.772445526123046875e+02,1.094408645629882812e+02,-4.817399215698242188e+01,-1.819489593505859375e+02,1.957550201416015625e+02,-4.882501220703125000e+01,-1.386643218994140625e+02
3.479999899864196777e-01,2.000000000000000000e+00,-1.551363229751586914e+00,-7.781309127807617188e+00,5.697223281860351562e+01,1.182266311645507812e+02,8.036241149902343750e+01,-1.772333221435546875e+02,1.093997650146484375e+02,-4.816140365600585938e+01,-1.819389648437500000e+02,1.957658691406250000e+02,-4.883752059936523438e+01,-1.386700744628906250e+02
3.519999980926513672e-01,2.000000000000000000e+00,-1.611407279968261719e+00,-7.741784572601318359e+00,5.694381713867187500e+01,1.182400970458984375e+02,8.036805725097656250e+01,-1.772221069335937500e+02,1.093586730957031250e+02,-4.814882278442382812e+01,-1.819289550781250000e+02,1.957767181396484375e+02,-4.885001754760742188e+01,-1.386758117675781250e+02
3.560000061988830566e-01,2.000000000000000000e+00,-1.671434402465820312e+00,-7.702271938323974609e+00,5.691540527343750000e+01,1.182535552978515625e+02,8.037369537353515625e+01,-1.772108917236328125e+02,1.093175888061523438e+02,-4.813624191284179688e+01,-1.819189605712890625e+02,1.957875671386718750e+02,-4.886251831054687500e+01,-1.386815643310546875e+02
3.600000143051147461e-01,2.000000000000000000e+00,-1.731444478034973145e+00,-7.662770748138427734e+00,5.688700866699218750e+01,1.182670211791992188e+02,8.037934112548828125e+01,-1.771996765136718750e+02,1.092765197753906250e+02,-4.812366104125976562e+01,-1.819089813232421875e+02,1.957984161376953125e+02,-4.887501144409179688e+01,-1.386873016357421875e+02
3.639999926090240479e-01,2.000000000000000000e+00,-1.791437625885009766e+00,-7.623279094696044922e+00,5.685861206054687500e+01,1.182804794311523438e+02,8.038497924804687500e+01,-1.771884613037109375e+02,1.092354660034179688e+02,-4.811109161376953125e+01,-1.818989868164062500e+02,1.958092498779296875e+02,-4.888750076293945312e+01,-1.386930541992187500e+02
3.680000007152557373e-01,2.000000000000000000e+00,-1.851413726806640625e+00,-7.583799839019775391e+00,5.683022689819335938e+01,1.182939300537109375e+02,8.039061737060546875e+01,-1.771772460937500000e+02,1.091944122314453125e+02,-4.809852218627929688e+01,-1.818889923095703125e+02,1.958200836181640625e+02,-4.889998626708984375e+01,-1.386987915039062500e+02
3.720000088214874268e-01,2.000000000000000000e+00,-1.911373138427734375e+00,-7.544331550598144531e+00,5.680184936523437500e+01,1.183073883056640625e+02,8.039625549316406250e+01,-1.771660308837890625e+02,1.091533737182617188e+02,-4.808595657348632812e+01,-1.818790130615234375e+02,1.958309173583984375e+02,-4.891247177124023438e+01,-1.387045288085937500e+02
3.759999871253967285e-01,2.000000000000000000e+00,-1.971315383911132812e+00,-7.504874706268310547e+00,5.677347946166992188e+01,1.183208312988281250e+02,8.040188598632812500e+01,-1.771548309326171875e+02,1.091123580932617188e+02,-4.807339096069335938e+01,-1.818690338134765625e+02,1.958417358398437500e+02,-4.892494964599609375e+01,-1.387102661132812500e+02
3.799999952316284180e-01,2.000000000000000000e+00,-2.031240940093994141e+00,-7.465428352355957031e+00,5.674511718750000000e+01,1.183342742919921875e+02,8.040752410888671875e+01,-1.771436157226562500e+02,1.090713424682617188e+02,-4.806083679199218750e+01,-1.818590545654296875e+02,1.958525695800781250e+02,-4.893742370605468750e+01,-1.387160034179687500e+02
3.840000033378601074e-01,2.000000000000000000e+00,-2.091149330139160156e+00,-7.425993442535400391e+00,5.671676635742187500e+01,1.183477172851562500e+02,8.041315460205078125e+01,-1.771324157714843750e+02,1.090303421020507812e+02,-4.804827880859375000e+01,-1.818490753173828125e+02,1.958633880615234375e+02,-4.894989776611328125e+01,-1.387217407226562500e+02
3.880000114440917969e-01,2.000000000000000000e+00,-2.151040792465209961e+00,-7.386569499969482422e+00,5.668841934204101562e+01,1.183611526489257812e+02,8.041878509521484375e+01,-1.771212158203125000e+02,1.089893493652343750e+02,-4.803572845458984375e+01,-1.818391113281250000e+02,1.958742065429687500e+02,-4.896236419677734375e+01,-1.387274780273437500e+02
3.919999897480010986e-01,2.000000000000000000e+00,-2.210915803909301758e+00,-7.347157001495361328e+00,5.666007995605468750e+01,1.183745803833007812e+02,8.042441558837890625e+01,-1.771100311279296875e+02,1.089483718872070312e+02,-4.802318191528320312e+01,-1.818291320800781250e+02,1.958850402832031250e+02,-4.897483062744140625e+01,-1.387332000732421875e+02
3.959999978542327881e-01,2.000000000000000000e+00,-2.270773649215698242e+00,-7.307754516601562500e+00,5.663174819946289062e+01,1.183880081176757812e+02,8.043003845214843750e+01,-1.770988311767578125e+02,1.089074096679687500e+02,-4.801063537597656250e+01,-1.818191528320312500e+02,1.958958587646484375e+02,-4.898729324340820312e+01,-1.387389373779296875e+02
4.000000059604644775e-01,2.000000000000000000e+00,-2.330614566802978516e+00,-7.268363952636718750e+00,5.660342788696289062e+01,1.184014434814453125e+02,8.043566894531250000e+01,-1.770876464843750000e+02,1.088664474487304688e+02,-4.799809265136718750e+01,-1.818092041015625000e+02,1.959066619873046875e+02,-4.899975204467773438e+01,-1.387446594238281250e+02
4.040000140666961670e-01,2.000000000000000000e+00,-2.390438795089721680e+00,-7.228984355926513672e+00,5.657511520385742188e+01,1.184148559570312500e+02,8.044129180908203125e+01,-1.770764617919921875e+02,1.088255081176757812e+02,-4.798555755615234375e+01,-1.817992401123046875e+02,1.959174652099609375e+02,-4.901220703125000000e+01,-1.387503967285156250e+02
4.079999923706054688e-01,2.000000000000000000e+00,-2.450246095657348633e+00,-7.189616203308105469e+00,5.654681015014648438e+01,1.184282684326171875e+02,8.044691467285156250e+01,-1.770652770996093750e+02,1.087845764160156250e+02,-4.797302246093750000e+01,-1.817892913818359375e+02,1.959282684326171875e+02,-4.902465820312500000e+01,-1.387561340332031250e+02
4.120000004768371582e-01,2.000000000000000000e+00,-2.510036468505859375e+00,-7.150259017944335938e+00,5.651851272583007812e+01,1.184416809082031250e+02,8.045252990722656250e+01,-1.770541076660156250e+02,1.087436523437500000e+02,-4.796049118041992188e+01,-1.817793273925781250e+02,1.959390716552734375e+02,-4.903710556030273438e+01,-1.387618560791015625e+02
4.160000085830688477e-01,2.000000000000000000e+00,-2.569810152053833008e+00,-7.110912799835205078e+00,5.649021911621093750e+01,1.184551010131835938e+02,8.045815277099609375e+01,-1.770429382324218750e+02,1.087027511596679688e+02,-4.794796752929687500e+01,-1.817693634033203125e+02,1.959498748779296875e+02,-4.904954910278320312e+01,-1.387675628662109375e+02
4.199999868869781494e-01,2.000000000000000000e+00,-2.629566907882690430e+00,-7.071577548980712891e+00,5.646194076538085938e+01,1.184684982299804688e+02,8.046376800537109375e+01,-1.770317535400390625e+02,1.086618499755859375e+02,-4.793544387817382812e+01,-1.817594299316406250e+02,1.959606628417968750e+02,-4.906198883056640625e+01,-1.387732849121093750e+02
4.239999949932098389e-01,2.000000000000000000e+00,-2.689306974411010742e+00,-7.032253742218017578e+00,5.643366622924804688e+01,1.184819030761718750e+02,8.046938323974609375e+01,-1.770205841064453125e+02,1.086209640502929688e+02,-4.792292022705078125e+01,-1.817494659423828125e+02,1.959714660644531250e+02,-4.907442855834960938e+01,-1.387790069580078125e+02
4.280000030994415283e-01,2.000000000000000000e+00,-2.749030351638793945e+00,-6.992940425872802734e+00,5.640539932250976562e+01,1.184953002929687500e+02,8.047499847412109375e+01,-1.770094299316406250e+02,1.085800933837890625e+02,-4.791040420532226562e+01,-1.817395172119140625e+02,1.959822540283203125e+02,-4.908686447143554688e+01,-1.387847137451171875e+02
4.320000112056732178e-01,2.000000000000000000e+00,-2.808736801147460938e+00,-6.953638553619384766e+00,5.637714004516601562e+01,1.185086975097656250e+02,8.048061370849609375e+01,-1.769982604980468750e+02,1.085392303466796875e+02,-4.789789199829101562e+01,-1.817295837402343750e+02,1.959930267333984375e+02,-4.909929275512695312e+01,-1.387904357910156250e+02
4.359999895095825195e-01,2.000000000000000000e+00,-2.868426561355590820e+00,-6.914347648620605469e+00,5.634889221191406250e+01,1.185220870971679688e+02,8.048622894287109375e+01,-1.769871063232421875e+02,1.084983749389648438e+02,-4.788538360595703125e+01,-1.817196502685546875e+02,1.960038299560546875e+02,-4.911171722412109375e+01,-1.387961578369140625e+02
4.399999976158142090e-01,2.000000000000000000e+00,-2.928099393844604492e+00,-6.875067234039306641e+00,5.632064819335937500e+01,1.185354766845703125e+02,8.049183654785156250e+01,-1.769759368896484375e+02,1.084575347900390625e+02,-4.787287902832031250e+01,-1.817097015380859375e+02,1.960146026611328125e+02,-4.912414169311523438e+01,-1.388018646240234375e+02
4.440000057220458984e-01,2.000000000000000000e+00,-2.987755775451660156e+00,-6.835798740386962891e+00,5.629241561889648438e+01,1.185488510131835938e+02,8.049744415283203125e+01,-1.769647979736328125e+02,1.084167098999023438e+02,-4.786037445068359375e+01,-1.816997680664062500e+02,1.960253753662109375e+02,-4.913656234741210938e+01,-1.388075714111328125e+02
4.480000138282775879e-01,2.000000000000000000e+00,-3.047394990921020508e+00,-6.796540737152099609e+00,5.626419067382812500e+01,1.185622329711914062e+02,8.050305175781250000e+01,-1.769536285400390625e+02,1.083758926391601562e+02,-4.784787750244140625e+01,-1.816898345947265625e+02,1.960361633300781250e+02,-4.914897918701171875e+01,-1.388132781982421875e+02
4.519999921321868896e-01,2.000000000000000000e+00,-3.107017755508422852e+00,-6.757293701171875000e+00,5.623596954345703125e+01,1.185756072998046875e+02,8.050865173339843750e+01,-1.769424896240234375e+02,1.083350830078125000e+02,-4.783538055419921875e+01,-1.816799011230468750e+02,1.960469207763671875e+02,-4.916138839721679688e+01,-1.388190002441406250e+02
4.560000002384185791e-01,2.000000000000000000e+00,-3.166623830795288086e+00,-6.718058109283447266e+00,5.620775985717773438e+01,1.185889816284179688e+02,8.051425933837890625e+01,-1.769313507080078125e+02,1.082942962646484375e+02,-4.782288742065429688e+01,-1.816699829101562500e+02,1.960576934814453125e+02,-4.917380142211914062e+01,-1.388247070312500000e+02
4.600000083446502686e-01,2.000000000000000000e+00,-3.226213216781616211e+00,-6.678833007812500000e+00,5.617955780029296875e+01,1.186023406982421875e+02,8.051985931396484375e+01,-1.769202117919921875e+02,1.082535171508789062e+02,-4.781039810180664062e+01,-1.816600646972656250e+02,1.960684661865234375e+02,-4.918620681762695312e+01,-1.388303985595703125e+02
4.639999866485595703e-01,2.000000000000000000e+00,-3.285785675048828125e+00,-6.639618873596191406e+00,5.615136337280273438e+01,1.186157150268554688e+02,8.052545928955078125e+01,-1.769090728759765625e+02,1.082127380371093750e+02,-4.779791641235351562e+01,-1.816501464843750000e+02,1.960792236328125000e+02,-4.919860839843750000e+01,-1.388361053466796875e+02
4.679999947547912598e-01,2.000000000000000000e+00,-3.345341682434082031e+00,-6.600416183471679688e+00,5.612317657470703125e+01,1.186290740966796875e+02,8.053105163574218750e+01,-1.768979339599609375e+02,1.081719818115234375e+02,-4.778543472290039062e+01,-1.816402282714843750e+02,1.960899810791015625e+02,-4.921100997924804688e+01,-1.388418121337890625e+02
4.720000028610229492e-01,2.000000000000000000e+00,-3.404881000518798828e+00,-6.561223983764648438e+00,5.609499359130859375e+01,1.186424331665039062e+02,8.053665161132812500e+01,-1.768868103027343750e+02,1.081312332153320312e+02,-4.777295684814453125e+01,-1.816303100585937500e+02,1.961007385253906250e+02,-4.922340011596679688e+01,-1.388475036621093750e+02
4.760000109672546387e-01,2.000000000000000000e+00,-3.464403390884399414e+00,-6.522043228149414062e+00,5.606682586669921875e+01,1.186557846069335938e+02,8.054224395751953125e+01,-1.768756713867187500e+02,1.080904998779296875e+02,-4.776047897338867188e+01,-1.816204071044921875e+02,1.961114959716796875e+02,-4.923579406738281250e+01,-1.388532104492187500e+02
4.799999892711639404e-01,2.000000000000000000e+00,-3.523909330368041992e+00,-6.482873439788818359e+00,5.603866195678710938e+01,1.186691284179687500e+02,8.054784393310546875e+01,-1.768645477294921875e+02,1.080497665405273438e+02,-4.774801254272460938e+01,-1.816105041503906250e+02,1.961222381591796875e+02,-4.924818420410156250e+01,-1.388589019775390625e+02
4.839999973773956299e-01,2.000000000000000000e+00,-3.583398580551147461e+00,-6.443714141845703125e+00,5.601050567626953125e+01,1.186824722290039062e+02,8.055343627929687500e+01,-1.768534393310546875e+02,1.080090560913085938e+02,-4.773554229736328125e+01,-1.816005859375000000e+02,1.961329956054687500e+02,-4.926056671142578125e+01,-1.388645935058593750e+02
4.880000054836273193e-01,2.000000000000000000e+00,-3.642871141433715820e+00,-6.404565811157226562e+00,5.598235702514648438e+01,1.186958236694335938e+02,8.055902099609375000e+01,-1.768423156738281250e+02,1.079683532714843750e+02,-4.772307968139648438e+01,-1.815906829833984375e+02,1.961437377929687500e+02,-4.927294921875000000e+01,-1.388702850341796875e+02
4.920000135898590088e-01,2.000000000000000000e+00,-3.702327489852905273e+00,-6.365428447723388672e+00,5.595421981811523438e+01,1.187091522216796875e+02,8.056461334228515625e+01,-1.768311920166015625e+02,1.079276657104492188e+02,-4.771062088012695312e+01,-1.815807800292968750e+02,1.961544799804687500e+02,-4.928532791137695312e+01,-1.388759765625000000e+02
4.959999918937683105e-01,2.000000000000000000e+00,-3.761766910552978516e+00,-6.326302528381347656e+00,5.592608642578125000e+01,1.187224960327148438e+02,8.057020568847656250e+01,-1.768200683593750000e+02,1.078869857788085938e+02,-4.769816207885742188e+01,-1.815708770751953125e+02,1.961652221679687500e+02,-4.929770278930664062e+01,-1.388816680908203125e+02
5.000000000000000000e-01,2.000000000000000000e+00,-3.821189403533935547e+00,-6.287187099456787109e+00,5.589796447753906250e+01,1.187358169555664062e+02,8.057578277587890625e+01,-1.768089752197265625e+02,1.078463134765625000e+02,-4.768571090698242188e+01,-1.815609893798828125e+02,1.961759643554687500e+02,-4.931007385253906250e+01,-1.388873596191406250e+02
5.040000081062316895e-01,2.000000000000000000e+00,-3.880595922470092773e+00,-6.248083114624023438e+00,5.586985015869140625e+01,1.187491531372070312e+02,8.058136749267578125e+01,-1.767978668212890625e+02,1.078056564331054688e+02,-4.767325973510742188e+01,-1.815510864257812500e+02,1.961866760253906250e+02,-4.932244110107421875e+01,-1.388930511474609375e+02
5.080000162124633789e-01,2.000000000000000000e+00,-3.939985275268554688e+00,-6.208989620208740234e+00,5.584173965454101562e+01,1.187624664306640625e+02,8.058695220947265625e+01,-1.767867584228515625e+02,1.077650146484375000e+02,-4.766081237792968750e+01,-1.815411987304687500e+02,1.961974182128906250e+02,-4.933480453491210938e+01,-1.388987274169921875e+02
5.120000243186950684e-01,2.000000000000000000e+00,-3.999358415603637695e+00,-6.169906616210937500e+00,5.581364059448242188e+01,1.187757873535156250e+02,8.059253692626953125e+01,-1.767756652832031250e+02,1.077243804931640625e+02,-4.764836883544921875e+01,-1.815313262939453125e+02,1.962081451416015625e+02,-4.934716796875000000e+01,-1.389044036865234375e+02
5.159999728202819824e-01,2.000000000000000000e+00,-4.058714866638183594e+00,-6.130835056304931641e+00,5.578554534912109375e+01,1.187891082763671875e+02,8.059812164306640625e+01,-1.767645568847656250e+02,1.076837539672851562e+02,-4.763592910766601562e+01,-1.815214385986328125e+02,1.962188720703125000e+02,-4.935952377319335938e+01,-1.389100952148437500e+02
5.199999809265136719e-01,2.000000000000000000e+00,-4.118055343627929688e+00,-6.091774463653564453e+00,5.575746536254882812e+01,1.188024291992187500e+02,8.060369110107421875e+01,-1.767534637451171875e+02,1.076431427001953125e+02,-4.762349319458007812e+01,-1.815115509033203125e+02,1.962295837402343750e+02,-4.937187957763671875e+01,-1.389157714843750000e+02
5.239999890327453613e-01,2.000000000000000000e+00,-4.177378177642822266e+00,-6.052724838256835938e+00,5.572938537597656250e+01,1.188157348632812500e+02,8.060926818847656250e+01,-1.767423706054687500e+02,1.076025390625000000e+02,-4.761106109619140625e+01,-1.815016784667968750e+02,1.962402954101562500e+02,-4.938422775268554688e+01,-1.389214630126953125e+02
5.279999971389770508e-01,2.000000000000000000e+00,-4.236685276031494141e+00,-6.013685226440429688e+00,5.570131683349609375e+01,1.188290405273437500e+02,8.061484527587890625e+01,-1.767312774658203125e+02,1.075619506835937500e+02,-4.759863281250000000e+01,-1.814918060302734375e+02,1.962510223388671875e+02,-4.939657592773437500e+01,-1.389271392822265625e+02
5.320000052452087402e-01,2.000000000000000000e+00,-4.295975685119628906e+00,-5.974657058715820312e+00,5.567325592041015625e+01,1.188423309326171875e+02,8.062042236328125000e+01,-1.767201995849609375e+02,1.075213699340820312e+02,-4.758620834350585938e+01,-1.814819183349609375e+02,1.962617340087890625e+02,-4.940892028808593750e+01,-1.389328155517578125e+02
5.360000133514404297e-01,2.000000000000000000e+00,-4.355249404907226562e+00,-5.935640335083007812e+00,5.564520263671875000e+01,1.188556365966796875e+02,8.062599182128906250e+01,-1.767091217041015625e+02,1.074808044433593750e+02,-4.757378387451171875e+01,-1.814720458984375000e+02,1.962724456787109375e+02,-4.942126083374023438e+01,-1.389384765625000000e+02
5.400000214576721191e-01,2.000000000000000000e+00,-4.414506912231445312e+00,-5.896633625030517578e+00,5.561715698242187500e+01,1.188689270019531250e+02,8.063156127929687500e+01,-1.766980438232421875e+02,1.074402465820312500e+02,-4.756136703491210938e+01,-1.814621887207031250e+02,1.962831420898437500e+02,-4.943359756469726562e+01,-1.389441680908203125e+02
5.440000295639038086e-01,2.000000000000000000e+00,-4.473747253417968750e+00,-5.857638359069824219e+00,5.558911895751953125e+01,1.188822174072265625e+02,8.063713073730468750e+01,-1.766869659423828125e+02,1.073997039794921875e+02,-4.754895019531250000e+01,-1.814523162841796875e+02,1.962938537597656250e+02,-4.944593048095703125e+01,-1.389498291015625000e+02
5.479999780654907227e-01,2.000000000000000000e+00,-4.532971858978271484e+00,-5.818653583526611328e+00,5.556108856201171875e+01,1.188954925537109375e+02,8.064270019531250000e+01,-1.766758880615234375e+02,1.073591766357421875e+02,-4.753654098510742188e+01,-1.814424591064453125e+02,1.963045501708984375e+02,-4.945825958251953125e+01,-1.389555053710937500e+02
5.519999861717224121e-01,2.000000000000000000e+00,-4.592179775238037109e+00,-5.779679775238037109e+00,5.553306961059570312e+01,1.189087829589843750e+02,8.064826202392578125e+01,-1.766648254394531250e+02,1.073186492919921875e+02,-4.752412796020507812e+01,-1.814326019287109375e+02,1.963152465820312500e+02,-4.947058486938476562e+01,-1.389611663818359375e+02
5.559999942779541016e-01,2.000000000000000000e+00,-4.651371479034423828e+00,-5.740716934204101562e+00,5.550505447387695312e+01,1.189220657348632812e+02,8.065382385253906250e+01,-1.766537628173828125e+02,1.072781448364257812e+02,-4.751172637939453125e+01,-1.814227447509765625e+02,1.963259277343750000e+02,-4.948291015625000000e+01,-1.389668426513671875e+02
5.600000023841857910e-01,2.000000000000000000e+00,-4.710546493530273438e+00,-5.701764583587646484e+00,5.547704696655273438e+01,1.189353408813476562e+02,8.065939331054687500e+01,-1.766427001953125000e+02,1.072376480102539062e+02,-4.749932479858398438e+01,-1.814128875732421875e+02,1.963366241455078125e+02,-4.949522781372070312e+01,-1.389724884033203125e+02
5.640000104904174805e-01,2.000000000000000000e+00,-4.769704818725585938e+00,-5.662823200225830078e+00,5.544904708862304688e+01,1.189486083984375000e+02,8.066495513916015625e+01,-1.766316375732421875e+02,1.071971588134765625e+02,-4.748692321777343750e+01,-1.814030303955078125e+02,1.963473205566406250e+02,-4.950754928588867188e+01,-1.389781646728515625e+02
5.680000185966491699e-01,2.000000000000000000e+00,-4.828846931457519531e+00,-5.623892307281494141e+00,5.542105865478515625e+01,1.189618682861328125e+02,8.067050933837890625e+01,-1.766205749511718750e+02,1.071566772460937500e+02,-4.747453308105468750e+01,-1.813931884765625000e+02,1.963580017089843750e+02,-4.951985931396484375e+01,-1.389838256835937500e+02
5.720000267028808594e-01,2.000000000000000000e+00,-4.887972354888916016e+00,-5.584972858428955078e+00,5.539307403564453125e+01,1.189751358032226562e+02,8.067607116699218750e+01,-1.766095275878906250e+02,1.071162185668945312e+02,-4.746214294433593750e+01,-1.813833465576171875e+02,1.963686828613281250e+02,-4.953216552734375000e+01,-1.389894866943359375e+02
5.759999752044677734e-01,2.000000000000000000e+00,-4.947081565856933594e+00,-5.546063899993896484e+00,5.536509704589843750e+01,1.189883956909179688e+02,8.068162536621093750e+01,-1.765984802246093750e+02,1.070757598876953125e+02,-4.744975280761718750e+01,-1.813735046386718750e+02,1.963793640136718750e+02,-4.954447555541992188e+01,-1.389951477050781250e+02
5.799999833106994629e-01,2.000000000000000000e+00,-5.006174564361572266e+00,-5.507165908813476562e+00,5.533713150024414062e+01,1.190016632080078125e+02,8.068718719482421875e+01,-1.765874328613281250e+02,1.070353240966796875e+02,-4.743737030029296875e+01,-1.813636627197265625e+02,1.963900299072265625e+02,-4.955677795410156250e+01,-1.390007934570312500e+02
5.839999914169311523e-01,2.000000000000000000e+00,-5.065250873565673828e+00,-5.468278408050537109e+00,5.530917358398437500e+01,1.190149154663085938e+02,8.069273376464843750e+01,-1.765763854980468750e+02,1.069948883056640625e+02,-4.742498779296875000e+01,-1.813538208007812500e+02,1.964007110595703125e+02,-4.956907653808593750e+01,-1.390064544677734375e+02
5.879999995231628418e-01,2.000000000000000000e+00,-5.124310970306396484e+00,-5.429401874542236328e+00,5.528121948242187500e+01,1.190281677246093750e+02,8.069828796386718750e+01,-1.765653381347656250e+02,1.069544677734375000e+02,-4.741260910034179688e+01,-1.813439788818359375e+02,1.964113769531250000e+02,-4.958137130737304688e+01,-1.390121154785156250e+02
5.920000076293945312e-01,2.000000000000000000e+00,-5.183354854583740234e+00,-5.390535831451416016e+00,5.525327301025390625e+01,1.190414047241210938e+02,8.070383453369140625e+01,-1.765543060302734375e+02,1.069140625000000000e+02,-4.740023803710937500e+01,-1.813341674804687500e+02,1.964220428466796875e+02,-4.959366226196289062e+01,-1.390177612304687500e+02
5.960000157356262207e-01,2.000000000000000000e+00,-5.242382526397705078e+00,-5.351681232452392578e+00,5.522533798217773438e+01,1.190546493530273438e+02,8.070938873291015625e+01,-1.765432586669921875e+02,1.068736572265625000e+02,-4.738786697387695312e+01,-1.813243255615234375e+02,1.964327087402343750e+02,-4.960595321655273438e+01,-1.390234069824218750e+02
6.000000238418579102e-01,2.000000000000000000e+00,-5.301393032073974609e+00,-5.312836647033691406e+00,5.519741058349609375e+01,1.190678863525390625e+02,8.071493530273437500e+01,-1.765322418212890625e+02,1.068332748413085938e+02,-4.737549591064453125e+01,-1.813144989013671875e+02,1.964433746337890625e+02,-4.961823654174804688e+01,-1.390290679931640625e+02
6.039999723434448242e-01,2.000000000000000000e+00,-5.360387802124023438e+00,-5.274003028869628906e+00,5.516948699951171875e+01,1.190811233520507812e+02,8.072048187255859375e+01,-1.765211944580078125e+02,1.067929000854492188e+02,-4.736313629150390625e+01,-1.813046875000000000e+02,1.964540252685546875e+02,-4.963051986694335938e+01,-1.390346984863281250e+02
6.079999804496765137e-01,2.000000000000000000e+00,-5.419366359710693359e+00,-5.235180377960205078e+00,5.514157104492187500e+01,1.190943527221679688e+02,8.072602081298828125e+01,-1.765101776123046875e+02,1.067525329589843750e+02,-4.735077667236328125e+01,-1.812948608398437500e+02,1.964646911621093750e+02,-4.964279937744140625e+01,-1.390403594970703125e+02
6.119999885559082031e-01,2.000000000000000000e+00,-5.478328227996826172e+00,-5.196368694305419922e+00,5.511366653442382812e+01,1.191075744628906250e+02,8.073156738281250000e+01,-1.764991455078125000e+02,1.067121810913085938e+02,-4.733841705322265625e+01,-1.812850341796875000e+02,1.964753417968750000e+02,-4.965507125854492188e+01,-1.390460052490234375e+02
6.159999966621398926e-01,2.000000000000000000e+00,-5.537274360656738281e+00,-5.157567024230957031e+00,5.508576965332031250e+01,1.191207962036132812e+02,8.073710632324218750e+01,-1.764881286621093750e+02,1.066718368530273438e+02,-4.732606506347656250e+01,-1.812752227783203125e+02,1.964859771728515625e+02,-4.966734695434570312e+01,-1.390516357421875000e+02
6.200000047683715820e-01,2.000000000000000000e+00,-5.596203327178955078e+00,-5.118776798248291016e+00,5.505788040161132812e+01,1.191340179443359375e+02,8.074264526367187500e+01,-1.764771118164062500e+02,1.066315078735351562e+02,-4.731371307373046875e+01,-1.812654113769531250e+02,1.964966278076171875e+02,-4.967961502075195312e+01,-1.390572814941406250e+02
6.240000128746032715e-01,2.000000000000000000e+00,-5.655116558074951172e+00,-5.079996585845947266e+00,5.502999877929687500e+01,1.191472396850585938e+02,8.074818420410156250e+01,-1.764660949707031250e+02,1.065911865234375000e+02,-4.730136489868164062e+01,-1.812555999755859375e+02,1.965072784423828125e+02,-4.969187927246093750e+01,-1.390629272460937500e+02
6.280000209808349609e-01,2.000000000000000000e+00,-5.714013576507568359e+00,-5.041227817535400391e+00,5.500212097167968750e+01,1.191604537963867188e+02,8.075372314453125000e+01,-1.764550781250000000e+02,1.065508804321289062e+02,-4.728902435302734375e+01,-1.812457885742187500e+02,1.965179138183593750e+02,-4.970413970947265625e+01,-1.390685577392578125e+02
6.320000290870666504e-01,2.000000000000000000e+00,-5.772894382476806641e+00,-5.002470016479492188e+00,5.497425460815429688e+01,1.191736602783203125e+02,8.075925445556640625e+01,-1.764440917968750000e+02,1.065105895996093750e+02,-4.727668380737304688e+01,-1.812359771728515625e+02,1.965285644531250000e+02,-4.971640014648437500e+01,-1.390742034912109375e+02
6.359999775886535645e-01,2.000000000000000000e+00,-5.831758975982666016e+00,-4.963722229003906250e+00,5.494639587402343750e+01,1.191868591308593750e+02,8.076478576660156250e+01,-1.764330749511718750e+02,1.064702911376953125e+02,-4.726435089111328125e+01,-1.812261962890625000e+02,1.965391845703125000e+02,-4.972865295410156250e+01,-1.390798339843750000e+02
6.399999856948852539e-01,2.000000000000000000e+00,-5.890606880187988281e+00,-4.924984931945800781e+00,5.491854476928710938e+01,1.192000656127929688e+02,8.077032470703125000e+01,-1.764220733642578125e+02,1.064300231933593750e+02,-4.725201416015625000e+01,-1.812163848876953125e+02,1.965498199462890625e+02,-4.974090957641601562e+01,-1.390854644775390625e+02
6.439999938011169434e-01,2.000000000000000000e+00,-5.949439525604248047e+00,-4.886258602142333984e+00,5.489070129394531250e+01,1.192132644653320312e+02,8.077585601806640625e+01,-1.764110717773437500e+02,1.063897628784179688e+02,-4.723968505859375000e+01,-1.812065887451171875e+02,1.965604400634765625e+02,-4.975315475463867188e+01,-1.390910949707031250e+02
6.480000019073486328e-01,2.000000000000000000e+00,-6.008255004882812500e+00,-4.847542285919189453e+00,5.486286163330078125e+01,1.192264556884765625e+02,8.078137969970703125e+01,-1.764000701904296875e+02,1.063495025634765625e+02,-4.722735977172851562e+01,-1.811967926025390625e+02,1.965710754394531250e+02,-4.976539993286132812e+01,-1.390967254638671875e+02
6.520000100135803223e-01,2.000000000000000000e+00,-6.067055225372314453e+00,-4.808836936950683594e+00,5.483503341674804688e+01,1.192396545410156250e+02,8.078691101074218750e+01,-1.763890838623046875e+02,1.063092651367187500e+02,-4.721503448486328125e+01,-1.811869964599609375e+02,1.965816955566406250e+02,-4.977764129638671875e+01,-1.391023559570312500e+02
6.560000181198120117e-01,2.000000000000000000e+00,-6.125838756561279297e+00,-4.770142078399658203e+00,5.480721282958984375e+01,1.192528381347656250e+02,8.079243469238281250e+01,-1.763780975341796875e+02,1.062690277099609375e+02,-4.720271682739257812e+01,-1.811772155761718750e+02,1.965923156738281250e+02,-4.978987884521484375e+01,-1.391079711914062500e+02
6.600000262260437012e-01,2.000000000000000000e+00,-6.184606552124023438e+00,-4.731458187103271484e+00,5.477939987182617188e+01,1.192660217285156250e+02,8.079795837402343750e+01,-1.763671112060546875e+02,1.062288131713867188e+02,-4.719040298461914062e+01,-1.811674194335937500e+02,1.966029357910156250e+02,-4.980211257934570312e+01,-1.391136016845703125e+02
6.639999747276306152e-01,2.000000000000000000e+00,-6.243358135223388672e+00,-4.692784786224365234e+00,5.475159454345703125e+01,1.192791976928710938e+02,8.080348205566406250e+01,-1.763561248779296875e+02,1.061886062622070312e+02,-4.717808914184570312e+01,-1.811576385498046875e+02,1.966135559082031250e+02,-4.981434631347656250e+01,-1.391192321777343750e+02
6.679999828338623047e-01,2.000000000000000000e+00,-6.302093982696533203e+00,-4.654121875762939453e+00,5.472379302978515625e+01,1.192923660278320312e+02,8.080899810791015625e+01,-1.763451385498046875e+02,1.061484069824218750e+02,-4.716577911376953125e+01,-1.811478576660156250e+02,1.966241607666015625e+02,-4.982657241821289062e+01,-1.391248626708984375e+02
6.719999909400939941e-01,2.000000000000000000e+00,-6.360813617706298828e+00,-4.615469455718994141e+00,5.469600677490234375e+01,1.193055496215820312e+02,8.081452941894531250e+01,-1.763341674804687500e+02,1.061082229614257812e+02,-4.715347290039062500e+01,-1.811380767822265625e+02,1.966347656250000000e+02,-4.983879852294921875e+01,-1.391304779052734375e+02
6.759999990463256836e-01,2.000000000000000000e+00,-6.419517517089843750e+00,-4.576827526092529297e+00,5.466822052001953125e+01,1.193187179565429688e+02,8.082003784179687500e+01,-1.763231964111328125e+02,1.060680465698242188e+02,-4.714117050170898438e+01,-1.811283111572265625e+02,1.966453704833984375e+02,-4.985102081298828125e+01,-1.391360931396484375e+02
6.800000071525573730e-01,2.000000000000000000e+00,-6.478205204010009766e+00,-4.538196086883544922e+00,5.464044570922851562e+01,1.193318862915039062e+02,8.082555389404296875e+01,-1.763122253417968750e+02,1.060278778076171875e+02,-4.712887191772460938e+01,-1.811185302734375000e+02,1.966559753417968750e+02,-4.986323547363281250e+01,-1.391417236328125000e+02
6.840000152587890625e-01,2.000000000000000000e+00,-6.536877155303955078e+00,-4.499575138092041016e+00,5.461267852783203125e+01,1.193450469970703125e+02,8.083107757568359375e+01,-1.763012542724609375e+02,1.059877243041992188e+02,-4.711657333374023438e+01,-1.811087646484375000e+02,1.966665649414062500e+02,-4.987545394897460938e+01,-1.391473388671875000e+02
6.880000233650207520e-01,2.000000000000000000e+00,-6.595532894134521484e+00,-4.460964202880859375e+00,5.458491516113281250e+01,1.193582000732421875e+02,8.083658599853515625e+01,-1.762902832031250000e+02,1.059475784301757812e+02,-4.710428237915039062e+01,-1.810989990234375000e+02,1.966771697998046875e+02,-4.988766479492187500e+01,-1.391529541015625000e+02
6.919999718666076660e-01,2.000000000000000000e+00,-6.654173374176025391e+00,-4.422364234924316406e+00,5.455715942382812500e+01,1.193713531494140625e+02,8.084210205078125000e+01,-1.762793121337890625e+02,1.059074478149414062e+02,-4.709199142456054688e+01,-1.810892333984375000e+02,1.966877746582031250e+02,-4.989987182617187500e+01,-1.391585693359375000e+02
6.959999799728393555e-01,2.000000000000000000e+00,-6.712797641754150391e+00,-4.383774757385253906e+00,5.452941513061523438e+01,1.193845062255859375e+02,8.084761047363281250e+01,-1.762683563232421875e+02,1.058673248291015625e+02,-4.707970428466796875e+01,-1.810794830322265625e+02,1.966983642578125000e+02,-4.991207504272460938e+01,-1.391641845703125000e+02
6.999999880790710449e-01,2.000000000000000000e+00,-6.771405696868896484e+00,-4.345195770263671875e+00,5.450167465209960938e+01,1.193976669311523438e+02,8.085312652587890625e+01,-1.762574005126953125e+02,1.058272094726562500e+02,-4.706742477416992188e+01,-1.810697174072265625e+02,1.967089385986328125e+02,-4.992427825927734375e+01,-1.391697845458984375e+02
7.039999961853027344e-01,2.000000000000000000e+00,-6.829998493194580078e+00,-4.306626796722412109e+00,5.447394561767578125e+01,1.194108047485351562e+02,8.085862731933593750e+01,-1.762464447021484375e+02,1.057871093750000000e+02,-4.705514526367187500e+01,-1.810599517822265625e+02,1.967195281982421875e+02,-4.993647766113281250e+01,-1.391753997802734375e+02
7.080000042915344238e-01,2.000000000000000000e+00,-6.888575077056884766e+00,-4.268068313598632812e+00,5.444622039794921875e+01,1.194239501953125000e+02,8.086413574218750000e+01,-1.762354888916015625e+02,1.057470245361328125e+02,-4.704286956787109375e+01,-1.810502014160156250e+02,1.967301177978515625e+02,-4.994867324829101562e+01,-1.391809997558593750e+02
7.120000123977661133e-01,2.000000000000000000e+00,-6.947136402130126953e+00,-4.229519844055175781e+00,5.441850662231445312e+01,1.194370727539062500e+02,8.086963653564453125e+01,-1.762245483398437500e+02,1.057069473266601562e+02,-4.703059768676757812e+01,-1.810404510498046875e+02,1.967406921386718750e+02,-4.996086502075195312e+01,-1.391866149902343750e+02
7.160000205039978027e-01,2.000000000000000000e+00,-7.005681037902832031e+00,-4.190982341766357422e+00,5.439079666137695312e+01,1.194502182006835938e+02,8.087514495849609375e+01,-1.762135925292968750e+02,1.056668777465820312e+02,-4.701832580566406250e+01,-1.810307006835937500e+02,1.967512664794921875e+02,-4.997305297851562500e+01,-1.391922149658203125e+02
7.200000286102294922e-01,2.000000000000000000e+00,-7.064210891723632812e+00,-4.152454376220703125e+00,5.436309814453125000e+01,1.194633407592773438e+02,8.088064575195312500e+01,-1.762026519775390625e+02,1.056268234252929688e+02,-4.700605773925781250e+01,-1.810209503173828125e+02,1.967618560791015625e+02,-4.998523712158203125e+01,-1.391978149414062500e+02
7.239999771118164062e-01,2.000000000000000000e+00,-7.122725009918212891e+00,-4.113937377929687500e+00,5.433540725708007812e+01,1.194764709472656250e+02,8.088614654541015625e+01,-1.761917266845703125e+02,1.055867767333984375e+02,-4.699379730224609375e+01,-1.810112152099609375e+02,1.967724151611328125e+02,-4.999741744995117188e+01,-1.392034149169921875e+02
7.279999852180480957e-01,2.000000000000000000e+00,-7.181223392486572266e+00,-4.075430870056152344e+00,5.430772018432617188e+01,1.194896011352539062e+02,8.089164733886718750e+01,-1.761807861328125000e+02,1.055467376708984375e+02,-4.698153686523437500e+01,-1.810014801025390625e+02,1.967829895019531250e+02,-5.000959777832031250e+01,-1.392090148925781250e+02
7.319999933242797852e-01,2.000000000000000000e+00,-7.239706039428710938e+00,-4.036934375762939453e+00,5.428004074096679688e+01,1.195027160644531250e+02,8.089714050292968750e+01,-1.761698455810546875e+02,1.055067138671875000e+02,-4.696928024291992188e+01,-1.809917297363281250e+02,1.967935638427734375e+02,-5.002177429199218750e+01,-1.392146148681640625e+02
7.360000014305114746e-01,2.000000000000000000e+00,-7.298172473907470703e+00,-3.998448371887207031e+00,5.425236892700195312e+01,1.195158233642578125e+02,8.090264129638671875e+01,-1.761589202880859375e+02,1.054666976928710938e+02,-4.695702743530273438e+01,-1.809819946289062500e+02,1.968041229248046875e+02,-5.003394699096679688e+01,-1.392202148437500000e+02
7.400000095367431641e-01,2.000000000000000000e+00,-7.356623649597167969e+00,-3.959972143173217773e+00,5.422470092773437500e+01,1.195289382934570312e+02,8.090813446044921875e+01,-1.761479797363281250e+02,1.054266967773437500e+02,-4.694477844238281250e+01,-1.809722595214843750e+02,1.968146820068359375e+02,-5.004611587524414062e+01,-1.392258148193359375e+02
7.440000176429748535e-01,2.000000000000000000e+00,-7.415059089660644531e+00,-3.921506643295288086e+00,5.419704437255859375e+01,1.195420532226562500e+02,8.091362762451171875e+01,-1.761370697021484375e+02,1.053866958618164062e+02,-4.693253326416015625e+01,-1.809625244140625000e+02,1.968252410888671875e+02,-5.005828094482421875e+01,-1.392313995361328125e+02
7.480000257492065430e-01,2.000000000000000000e+00,-7.473479747772216797e+00,-3.883051395416259766e+00,5.416939926147460938e+01,1.195551528930664062e+02,8.091911315917968750e+01,-1.761261444091796875e+02,1.053467178344726562e+02,-4.692028808593750000e+01,-1.809528045654296875e+02,1.968357849121093750e+02,-5.007044219970703125e+01,-1.392369842529296875e+02
7.519999742507934570e-01,2.000000000000000000e+00,-7.531883716583251953e+00,-3.844606399536132812e+00,5.414175415039062500e+01,1.195682525634765625e+02,8.092460632324218750e+01,-1.761152343750000000e+02,1.053067474365234375e+02,-4.690805053710937500e+01,-1.809430847167968750e+02,1.968463439941406250e+02,-5.008260345458984375e+01,-1.392425842285156250e+02
7.559999823570251465e-01,2.000000000000000000e+00,-7.590272426605224609e+00,-3.806171655654907227e+00,5.411412048339843750e+01,1.195813522338867188e+02,8.093009948730468750e+01,-1.761043090820312500e+02,1.052667846679687500e+02,-4.689581298828125000e+01,-1.809333496093750000e+02,1.968568878173828125e+02,-5.009476089477539062e+01,-1.392481689453125000e+02
7.599999904632568359e-01,2.000000000000000000e+00,-7.648645877838134766e+00,-3.767747163772583008e+00,5.408649444580078125e+01,1.195944519042968750e+02,8.093558502197265625e+01,-1.760933990478515625e+02,1.052268371582031250e+02,-4.688357543945312500e+01,-1.809236450195312500e+02,1.968674316406250000e+02,-5.010691070556640625e+01,-1.392537689208984375e+02
7.639999985694885254e-01,2.000000000000000000e+00,-7.707002639770507812e+00,-3.729332923889160156e+00,5.405887603759765625e+01,1.196075439453125000e+02,8.094107055664062500e+01,-1.760824890136718750e+02,1.051868972778320312e+02,-4.687134552001953125e+01,-1.809139099121093750e+02,1.968779754638671875e+02,-5.011906051635742188e+01,-1.392593536376953125e+02
7.680000066757202148e-01,2.000000000000000000e+00,-7.765344619750976562e+00,-3.690928936004638672e+00,5.403126144409179688e+01,1.196206283569335938e+02,8.094655609130859375e+01,-1.760715637207031250e+02,1.051469650268554688e+02,-4.685911941528320312e+01,-1.809042053222656250e+02,1.968885040283203125e+02,-5.013121032714843750e+01,-1.392649383544921875e+02
7.720000147819519043e-01,2.000000000000000000e+00,-7.823670864105224609e+00,-3.652534961700439453e+00,5.400365447998046875e+01,1.196337127685546875e+02,8.095204162597656250e+01,-1.760606689453125000e+02,1.051070480346679688e+02,-4.684689712524414062e+01,-1.808944854736328125e+02,1.968990631103515625e+02,-5.014334869384765625e+01,-1.392705230712890625e+02
7.760000228881835938e-01,2.000000000000000000e+00,-7.881981849670410156e+00,-3.614151954650878906e+00,5.397605895996093750e+01,1.196468048095703125e+02,8.095751953125000000e+01,-1.760497741699218750e+02,1.050671386718750000e+02,-4.683467483520507812e+01,-1.808847808837890625e+02,1.969095916748046875e+02,-5.015549087524414062e+01,-1.392760925292968750e+02
7.799999713897705078e-01,2.000000000000000000e+00,-7.940277576446533203e+00,-3.575778722763061523e+00,5.394846725463867188e+01,1.196598739624023438e+02,8.096299743652343750e+01,-1.760388641357421875e+02,1.050272445678710938e+02,-4.682246017456054688e+01,-1.808750762939453125e+02,1.969201202392578125e+02,-5.016762924194335938e+01,-1.392816772460937500e+02
7.839999794960021973e-01,2.000000000000000000e+00,-7.998557090759277344e+00,-3.537415742874145508e+00,5.392088317871093750e+01,1.196729507446289062e+02,8.096847534179687500e+01,-1.760279846191406250e+02,1.049873580932617188e+02,-4.681024551391601562e+01,-1.808653717041015625e+02,1.969306488037109375e+02,-5.017975997924804688e+01,-1.392872619628906250e+02
7.879999876022338867e-01,2.000000000000000000e+00,-8.056820869445800781e+00,-3.499062776565551758e+00,5.389331054687500000e+01,1.196860198974609375e+02,8.097395324707031250e+01,-1.760170745849609375e+02,1.049474868774414062e+02,-4.679803466796875000e+01,-1.808556671142578125e+02,1.969411773681640625e+02,-5.019188690185546875e+01,-1.392928314208984375e+02
7.919999957084655762e-01,2.000000000000000000e+00,-8.115070343017578125e+00,-3.460720300674438477e+00,5.386574172973632812e+01,1.196990966796875000e+02,8.097943115234375000e+01,-1.760061950683593750e+02,1.049076232910156250e+02,-4.678582763671875000e+01,-1.808459625244140625e+02,1.969517059326171875e+02,-5.020401382446289062e+01,-1.392984161376953125e+02
7.960000038146972656e-01,2.000000000000000000e+00,-8.173303604125976562e+00,-3.422388076782226562e+00,5.383818054199218750e+01,1.197121505737304688e+02,8.098490142822265625e+01,-1.759953002929687500e+02,1.048677597045898438e+02,-4.677362442016601562e+01,-1.808362731933593750e+02,1.969622192382812500e+02,-5.021613693237304688e+01,-1.393039855957031250e+02
8.000000119209289551e-01,2.000000000000000000e+00,-8.231520652770996094e+00,-3.384065866470336914e+00,5.381062698364257812e+01,1.197252120971679688e+02,8.099037933349609375e+01,-1.759844207763671875e+02,1.048279190063476562e+02,-4.676142120361328125e+01,-1.808265686035156250e+02,1.969727478027343750e+02,-5.022826004028320312e+01,-1.393095703125000000e+02
8.040000200271606445e-01,2.000000000000000000e+00,-8.289723396301269531e+00,-3.345753908157348633e+00,5.378308105468750000e+01,1.197382736206054688e+02,8.099584960937500000e+01,-1.759735412597656250e+02,1.047880859375000000e+02,-4.674922561645507812e+01,-1.808168792724609375e+02,1.969832458496093750e+02,-5.024037933349609375e+01,-1.393151397705078125e+02
8.080000281333923340e-01,2.000000000000000000e+00,-8.347908973693847656e+00,-3.307452440261840820e+00,5.375554275512695312e+01,1.197513198852539062e+02,8.100131988525390625e+01,-1.759626617431640625e+02,1.047482681274414062e+02,-4.673703002929687500e+01,-1.808071899414062500e+02,1.969937591552734375e+02,-5.025249099731445312e+01,-1.393206939697265625e+02
8.119999766349792480e-01,2.000000000000000000e+00,-8.406080245971679688e+00,-3.269160747528076172e+00,5.372801208496093750e+01,1.197643737792968750e+02,8.100679016113281250e+01,-1.759517822265625000e+02,1.047084503173828125e+02,-4.672483825683593750e+01,-1.807975006103515625e+02,1.970042724609375000e+02,-5.026460266113281250e+01,-1.393262786865234375e+02
8.159999847412109375e-01,2.000000000000000000e+00,-8.464236259460449219e+00,-3.230879306793212891e+00,5.370048904418945312e+01,1.197774200439453125e+02,8.101225280761718750e+01,-1.759409027099609375e+02,1.046686553955078125e+02,-4.671265029907226562e+01,-1.807878112792968750e+02,1.970147705078125000e+02,-5.027671051025390625e+01,-1.393318328857421875e+02
8.199999928474426270e-01,2.000000000000000000e+00,-8.522376060485839844e+00,-3.192608356475830078e+00,5.367296981811523438e+01,1.197904663085937500e+02,8.101771545410156250e+01,-1.759300537109375000e+02,1.046288604736328125e+02,-4.670046615600585938e+01,-1.807781372070312500e+02,1.970252838134765625e+02,-5.028881454467773438e+01,-1.393374023437500000e+02
8.240000009536743164e-01,2.000000000000000000e+00,-8.580501556396484375e+00,-3.154347181320190430e+00,5.364546203613281250e+01,1.198034973144531250e+02,8.102317810058593750e+01,-1.759191741943359375e+02,1.045890808105468750e+02,-4.668828582763671875e+01,-1.807684631347656250e+02,1.970357818603515625e+02,-5.030091476440429688e+01,-1.393429565429687500e+02
8.280000090599060059e-01,2.000000000000000000e+00,-8.638610839843750000e+00,-3.116096496582031250e+00,5.361795806884765625e+01,1.198165359497070312e+02,8.102864837646484375e+01,-1.759083099365234375e+02,1.045493087768554688e+02,-4.667610549926757812e+01,-1.807587890625000000e+02,1.970462951660156250e+02,-5.031301116943359375e+01,-1.393485260009765625e+02
8.320000171661376953e-01,2.000000000000000000e+00,-8.696704864501953125e+00,-3.077855825424194336e+00,5.359046554565429688e+01,1.198295669555664062e+02,8.103411102294921875e+01,-1.758974609375000000e+02,1.045095520019531250e+02,-4.666393280029296875e+01,-1.807491149902343750e+02,1.970567779541015625e+02,-5.032510757446289062e+01,-1.393540954589843750e+02
8.360000252723693848e-01,2.000000000000000000e+00,-8.754782676696777344e+00,-3.039625167846679688e+00,5.356297683715820312e+01,1.198425979614257812e+02,8.103956604003906250e+01,-1.758865966796875000e+02,1.044698028564453125e+02,-4.665176010131835938e+01,-1.807394409179687500e+02,1.970672760009765625e+02,-5.033720016479492188e+01,-1.393596496582031250e+02
8.399999737739562988e-01,2.000000000000000000e+00,-8.812846183776855469e+00,-3.001404762268066406e+00,5.353549575805664062e+01,1.198556289672851562e+02,8.104502105712890625e+01,-1.758757324218750000e+02,1.044300613403320312e+02,-4.663959121704101562e+01,-1.807297668457031250e+02,1.970777587890625000e+02,-5.034928512573242188e+01,-1.393652038574218750e+02
8.439999818801879883e-01,2.000000000000000000e+00,-8.870893478393554688e+00,-2.963194608688354492e+00,5.350802230834960938e+01,1.198686447143554688e+02,8.105048370361328125e+01,-1.758648834228515625e+02,1.043903350830078125e+02,-4.662742614746093750e+01,-1.807200927734375000e+02,1.970882568359375000e+02,-5.036137390136718750e+01,-1.393707580566406250e+02
8.479999899864196777e-01,2.000000000000000000e+00,-8.928926467895507812e+00,-2.924994468688964844e+00,5.348055648803710938e+01,1.198816680908203125e+02,8.105593872070312500e+01,-1.758540344238281250e+02,1.043506240844726562e+02,-4.661526489257812500e+01,-1.807104492187500000e+02,1.970987243652343750e+02,-5.037345504760742188e+01,-1.393763275146484375e+02
8.519999980926513672e-01,2.000000000000000000e+00,-8.986942291259765625e+00,-2.886804342269897461e+00,5.345309829711914062e+01,1.198946838378906250e+02,8.106138610839843750e+01,-1.758431854248046875e+02,1.043109130859375000e+02,-4.660310363769531250e+01,-1.807007904052734375e+02,1.971092071533203125e+02,-5.038553237915039062e+01,-1.393818817138671875e+02
8.560000061988830566e-01,2.000000000000000000e+00,-9.044944763183593750e+00,-2.848624467849731445e+00,5.342564773559570312e+01,1.199076843261718750e+02,8.106684875488281250e+01,-1.758323516845703125e+02,1.042712173461914062e+02,-4.659095001220703125e+01,-1.806911163330078125e+02,1.971197052001953125e+02,-5.039760589599609375e+01,-1.393874359130859375e+02
8.600000143051147461e-01,2.000000000000000000e+00,-9.102930068969726562e+00,-2.810454607009887695e+00,5.339820480346679688e+01,1.199207077026367188e+02,8.107229614257812500e+01,-1.758215026855468750e+02,1.042315368652343750e+02,-4.657880020141601562e+01,-1.806814727783203125e+02,1.971301574707031250e+02,-5.040967941284179688e+01,-1.393929748535156250e+02
8.640000224113464355e-01,2.000000000000000000e+00,-9.160902023315429688e+00,-2.772294998168945312e+00,5.337076568603515625e+01,1.199337081909179688e+02,8.107775115966796875e+01,-1.758106536865234375e+02,1.041918563842773438e+02,-4.656665039062500000e+01,-1.806718139648437500e+02,1.971406402587890625e+02,-5.042174911499023438e+01,-1.393985290527343750e+02
8.679999709129333496e-01,2.000000000000000000e+00,-9.218856811523437500e+00,-2.734145402908325195e+00,5.334333801269531250e+01,1.199467010498046875e+02,8.108319091796875000e+01,-1.757998199462890625e+02,1.041521987915039062e+02,-4.655450439453125000e+01,-1.806621551513671875e+02,1.971511230468750000e+02,-5.043381500244140625e+01,-1.394040832519531250e+02
8.719999790191650391e-01,2.000000000000000000e+00,-9.276797294616699219e+00,-2.696006059646606445e+00,5.331591415405273438e+01,1.199597091674804688e+02,8.108863830566406250e+01,-1.757889862060546875e+02,1.041125411987304688e+02,-4.654236221313476562e+01,-1.806525115966796875e+02,1.971615753173828125e+02,-5.044587707519531250e+01,-1.394096221923828125e+02
8.759999871253967285e-01,2.000000000000000000e+00,-9.334722518920898438e+00,-2.657876491546630859e+00,5.328850173950195312e+01,1.199726943969726562e+02,8.109408569335937500e+01,-1.757781677246093750e+02,1.040728988647460938e+02,-4.653022003173828125e+01,-1.806428680419921875e+02,1.971720428466796875e+02,-5.045793914794921875e+01,-1.394151763916015625e+02
8.799999952316284180e-01,2.000000000000000000e+00,-9.392631530761718750e+00,-2.619757175445556641e+00,5.326109313964843750e+01,1.199856872558593750e+02,8.109953308105468750e+01,-1.757673339843750000e+02,1.040332641601562500e+02,-4.651808547973632812e+01,-1.806332244873046875e+02,1.971825103759765625e+02,-5.046999359130859375e+01,-1.394207153320312500e+02
8.840000033378601074e-01,2.000000000000000000e+00,-9.450525283813476562e+00,-2.581648111343383789e+00,5.323369216918945312e+01,1.199986801147460938e+02,8.110497283935546875e+01,-1.757565155029296875e+02,1.039936370849609375e+02,-4.650595092773437500e+01,-1.806235809326171875e+02,1.971929779052734375e+02,-5.048204421997070312e+01,-1.394262542724609375e+02
8.880000114440917969e-01,2.000000000000000000e+00,-9.508404731750488281e+00,-2.543549060821533203e+00,5.320629882812500000e+01,1.200116577148437500e+02,8.111041259765625000e+01,-1.757456817626953125e+02,1.039540328979492188e+02,-4.649382400512695312e+01,-1.806139526367187500e+02,1.972034301757812500e+02,-5.049409484863281250e+01,-1.394317932128906250e+02
8.920000195503234863e-01,2.000000000000000000e+00,-9.566267967224121094e+00,-2.505459785461425781e+00,5.317891311645507812e+01,1.200246505737304688e+02,8.111585235595703125e+01,-1.757348785400390625e+02,1.039144287109375000e+02,-4.648169708251953125e+01,-1.806042938232421875e+02,1.972138671875000000e+02,-5.050614166259765625e+01,-1.394373321533203125e+02
8.960000276565551758e-01,2.000000000000000000e+00,-9.624116897583007812e+00,-2.467381000518798828e+00,5.315153503417968750e+01,1.200376281738281250e+02,8.112129211425781250e+01,-1.757240600585937500e+02,1.038748397827148438e+02,-4.646957015991210938e+01,-1.805946655273437500e+02,1.972243194580078125e+02,-5.051818847656250000e+01,-1.394428710937500000e+02
8.999999761581420898e-01,2.000000000000000000e+00,-9.681949615478515625e+00,-2.429311752319335938e+00,5.312416458129882812e+01,1.200505905151367188e+02,8.112672424316406250e+01,-1.757132415771484375e+02,1.038352584838867188e+02,-4.645745086669921875e+01,-1.805850372314453125e+02,1.972347717285156250e+02,-5.053022384643554688e+01,-1.394484100341796875e+02
9.039999842643737793e-01,2.000000000000000000e+00,-9.739768028259277344e+00,-2.391252994537353516e+00,5.309679794311523438e+01,1.200635681152343750e+02,8.113216400146484375e+01,-1.757024383544921875e+02,1.037956848144531250e+02,-4.644533538818359375e+01,-1.805754089355468750e+02,1.972452239990234375e+02,-5.054226303100585938e+01,-1.394539337158203125e+02
9.079999923706054688e-01,2.000000000000000000e+00,-9.797570228576660156e+00,-2.353204011917114258e+00,5.306943893432617188e+01,1.200765304565429688e+02,8.113759613037109375e+01,-1.756916351318359375e+02,1.037561264038085938e+02,-4.643321990966796875e+01,-1.805657958984375000e+02,1.972556610107421875e+02,-5.055429840087890625e+01,-1.394594726562500000e+02
9.120000004768371582e-01,2.000000000000000000e+00,-9.855358123779296875e+00,-2.315165042877197266e+00,5.304209136962890625e+01,1.200894927978515625e+02,8.114302062988281250e+01,-1.756808319091796875e+02,1.037165832519531250e+02,-4.642110824584960938e+01,-1.805561676025390625e+02,1.972661132812500000e+02,-5.056632995605468750e+01,-1.394650115966796875e+02
9.160000085830688477e-01,2.000000000000000000e+00,-9.913128852844238281e+00,-2.277136325836181641e+00,5.301474761962890625e+01,1.201024551391601562e+02,8.114846038818359375e+01,-1.756700286865234375e+02,1.036770401000976562e+02,-4.640900039672851562e+01,-1.805465393066406250e+02,1.972765502929687500e+02,-5.057835388183593750e+01,-1.394705352783203125e+02
9.200000166893005371e-01,2.000000000000000000e+00,-9.970886230468750000e+00,-2.239117145538330078e+00,5.298741149902343750e+01,1.201154098510742188e+02,8.115388488769531250e+01,-1.756592254638671875e+02,1.036375045776367188e+02,-4.639690017700195312e+01,-1.805369262695312500e+02,1.972869873046875000e+02,-5.059037780761718750e+01,-1.394760742187500000e+02
9.240000247955322266e-01,2.000000000000000000e+00,-1.002862739562988281e+01,-2.201108455657958984e+00,5.296008682250976562e+01,1.201283721923828125e+02,8.115931701660156250e+01,-1.756484375000000000e+02,1.035979919433593750e+02,-4.638479614257812500e+01,-1.805273132324218750e+02,1.972974090576171875e+02,-5.060239791870117188e+01,-1.394815826416015625e+02
9.279999732971191406e-01,2.000000000000000000e+00,-1.008635520935058594e+01,-2.163109540939331055e+00,5.293276596069335938e+01,1.201413192749023438e+02,8.116474151611328125e+01,-1.756376342773437500e+02,1.035584793090820312e+02,-4.637269973754882812e+01,-1.805177154541015625e+02,1.973078460693359375e+02,-5.061442184448242188e+01,-1.394871215820312500e+02
9.319999814033508301e-01,2.000000000000000000e+00,-1.014406585693359375e+01,-2.125120878219604492e+00,5.290544891357421875e+01,1.201542587280273438e+02,8.117016601562500000e+01,-1.756268615722656250e+02,1.035189895629882812e+02,-4.636060333251953125e+01,-1.805080871582031250e+02,1.973182678222656250e+02,-5.062643432617187500e+01,-1.394926452636718750e+02
9.359999895095825195e-01,2.000000000000000000e+00,-1.020176219940185547e+01,-2.087142229080200195e+00,5.287814331054687500e+01,1.201672058105468750e+02,8.117559051513671875e+01,-1.756160583496093750e+02,1.034794998168945312e+02,-4.634851455688476562e+01,-1.804984893798828125e+02,1.973286895751953125e+02,-5.063844680786132812e+01,-1.394981689453125000e+02
9.399999976158142090e-01,2.000000000000000000e+00,-1.025944328308105469e+01,-2.049173116683959961e+00,5.285084152221679688e+01,1.201801452636718750e+02,8.118101501464843750e+01,-1.756052856445312500e+02,1.034400253295898438e+02,-4.633642578125000000e+01,-1.804888916015625000e+02,1.973391113281250000e+02,-5.065045166015625000e+01,-1.395036926269531250e+02
9.440000057220458984e-01,2.000000000000000000e+00,-1.031710815429687500e+01,-2.011214256286621094e+00,5.282355499267578125e+01,1.201930770874023438e+02,8.118643951416015625e+01,-1.755944976806640625e+02,1.034005584716796875e+02,-4.632433700561523438e+01,-1.804792785644531250e+02,1.973495178222656250e+02,-5.066246032714843750e+01,-1.395092163085937500e+02
9.480000138282775879e-01,2.000000000000000000e+00,-1.037475967407226562e+01,-1.973265409469604492e+00,5.279626846313476562e+01,1.202060165405273438e+02,8.119185638427734375e+01,-1.755837097167968750e+02,1.033611068725585938e+02,-4.631225585937500000e+01,-1.804696807861328125e+02,1.973599395751953125e+02,-5.067446136474609375e+01,-1.395147247314453125e+02
9.520000219345092773e-01,2.000000000000000000e+00,-1.043239402770996094e+01,-1.935326457023620605e+00,5.276898956298828125e+01,1.202189407348632812e+02,8.119726562500000000e+01,-1.755729370117187500e+02,1.033216629028320312e+02,-4.630017852783203125e+01,-1.804600677490234375e+02,1.973703460693359375e+02,-5.068646240234375000e+01,-1.395202484130859375e+02
9.559999704360961914e-01,2.000000000000000000e+00,-1.049001502990722656e+01,-1.897397518157958984e+00,5.274171829223632812e+01,1.202318725585937500e+02,8.120268249511718750e+01,-1.755621795654296875e+02,1.032822189331054688e+02,-4.628810501098632812e+01,-1.804504852294921875e+02,1.973807678222656250e+02,-5.069845581054687500e+01,-1.395257720947265625e+02
9.599999785423278809e-01,2.000000000000000000e+00,-1.054762077331542969e+01,-1.859478473663330078e+00,5.271445465087890625e+01,1.202447967529296875e+02,8.120809936523437500e+01,-1.755513916015625000e+02,1.032427978515625000e+02,-4.627603149414062500e+01,-1.804409027099609375e+02,1.973911743164062500e+02,-5.071044921875000000e+01,-1.395312652587890625e+02
9.639999866485595703e-01,2.000000000000000000e+00,-1.060521030426025391e+01,-1.821569442749023438e+00,5.268719863891601562e+01,1.202577056884765625e+02,8.121351623535156250e+01,-1.755406341552734375e+02,1.032033843994140625e+02,-4.626395797729492188e+01,-1.804313049316406250e+02,1.974015808105468750e+02,-5.072243881225585938e+01,-1.395367889404296875e+02
9.679999947547912598e-01,2.000000000000000000e+00,-1.066278553009033203e+01,-1.783670425415039062e+00,5.265995025634765625e+01,1.202706298828125000e+02,8.121892547607421875e+01,-1.755298614501953125e+02,1.031639785766601562e+02,-4.625189208984375000e+01,-1.804217224121093750e+02,1.974119720458984375e+02,-5.073442840576171875e+01,-1.395423126220703125e+02
9.720000028610229492e-01,2.000000000000000000e+00,-1.072034454345703125e+01,-1.745781183242797852e+00,5.263270568847656250e+01,1.202835388183593750e+02,8.122433471679687500e+01,-1.755191192626953125e+02,1.031245880126953125e+02,-4.623983001708984375e+01,-1.804121246337890625e+02,1.974223785400390625e+02,-5.074641036987304688e+01,-1.395478210449218750e+02
9.760000109672546387e-01,2.000000000000000000e+00,-1.077789020538330078e+01,-1.707901954650878906e+00,5.260547256469726562e+01,1.202964477539062500e+02,8.122974395751953125e+01,-1.755083465576171875e+02,1.030852050781250000e+02,-4.622777175903320312e+01,-1.804025573730468750e+02,1.974327697753906250e+02,-5.075839233398437500e+01,-1.395533142089843750e+02
9.800000190734863281e-01,2.000000000000000000e+00,-1.083541965484619141e+01,-1.670032739639282227e+00,5.257824325561523438e+01,1.203093566894531250e+02,8.123515319824218750e+01,-1.754976043701171875e+02,1.030458297729492188e+02,-4.621571350097656250e+01,-1.803929595947265625e+02,1.974431610107421875e+02,-5.077036666870117188e+01,-1.395588226318359375e+02
9.840000271797180176e-01,2.000000000000000000e+00,-1.089293479919433594e+01,-1.632173299789428711e+00,5.255102157592773438e+01,1.203222656250000000e+02,8.124056243896484375e+01,-1.754868316650390625e+02,1.030064697265625000e+02,-4.620366287231445312e+01,-1.803833923339843750e+02,1.974535522460937500e+02,-5.078234100341796875e+01,-1.395643310546875000e+02
9.879999756813049316e-01,2.000000000000000000e+00,-1.095043468475341797e+01,-1.594323754310607910e+00,5.252381134033203125e+01,1.203351593017578125e+02,8.124597167968750000e+01,-1.754760894775390625e+02,1.029671173095703125e+02,-4.619160842895507812e+01,-1.803738098144531250e+02,1.974639434814453125e+02,-5.079431152343750000e+01,-1.395698394775390625e+02
9.919999837875366211e-01,2.000000000000000000e+00,-1.100791835784912109e+01,-1.556484222412109375e+00,5.249660110473632812e+01,1.203480606079101562e+02,8.125137329101562500e+01,-1.754653472900390625e+02,1.029277725219726562e+02,-4.617956161499023438e+01,-1.803642425537109375e+02,1.974743347167968750e+02,-5.080628204345703125e+01,-1.395753479003906250e+02
9.959999918937683105e-01,2.000000000000000000e+00,-1.106538772583007812e+01,-1.518654584884643555e+00,5.246940612792968750e+01,1.203609542846679688e+02,8.125677490234375000e+01,-1.754546051025390625e+02,1.028884429931640625e+02,-4.616751861572265625e+01,-1.803546752929687500e+02,1.974847106933593750e+02,-5.081824493408203125e+01,-1.395808410644531250e+02
1.000000000000000000e+00,2.000000000000000000e+00,-1.112284183502197266e+01,-1.480834722518920898e+00,5.244221115112304688e+01,1.203738327026367188e+02,8.126217651367187500e+01,-1.754438629150390625e+02,1.028491210937500000e+02,-4.615547943115234375e+01,-1.803451080322265625e+02,1.974951019287109375e+02,-5.083020782470703125e+01,-1.395863494873046875e+02
1.003999948501586914e+00,2.000000000000000000e+00,-1.118028259277343750e+01,-1.443024873733520508e+00,5.241502761840820312e+01,1.203867187500000000e+02,8.126757812500000000e+01,-1.754331207275390625e+02,1.028098144531250000e+02,-4.614344024658203125e+01,-1.803355407714843750e+02,1.975054626464843750e+02,-5.084216308593750000e+01,-1.395918426513671875e+02
1.008000016212463379e+00,2.000000000000000000e+00,-1.123770618438720703e+01,-1.405224919319152832e+00,5.238784790039062500e+01,1.203996124267578125e+02,8.127297210693359375e+01,-1.754223937988281250e+02,1.027705078125000000e+02,-4.613140487670898438e+01,-1.803259735107421875e+02,1.975158538818359375e+02,-5.085411834716796875e+01,-1.395973510742187500e+02
1.011999964714050293e+00,2.000000000000000000e+00,-1.129511547088623047e+01,-1.367434859275817871e+00,5.236067962646484375e+01,1.204124832153320312e+02,8.127837371826171875e+01,-1.754116516113281250e+02,1.027312164306640625e+02,-4.611937332153320312e+01,-1.803164215087890625e+02,1.975262145996093750e+02,-5.086607360839843750e+01,-1.396028442382812500e+02
1.016000032424926758e+00,2.000000000000000000e+00,-1.135250949859619141e+01,-1.329654455184936523e+00,5.233351135253906250e+01,1.204253616333007812e+02,8.128376770019531250e+01,-1.754009246826171875e+02,1.026919326782226562e+02,-4.610734558105468750e+01,-1.803068542480468750e+02,1.975365905761718750e+02,-5.087802124023437500e+01,-1.396083374023437500e+02
1.019999980926513672e+00,2.000000000000000000e+00,-1.140988922119140625e+01,-1.291884183883666992e+00,5.230635452270507812e+01,1.204382324218750000e+02,8.128916168212890625e+01,-1.753901824951171875e+02,1.026526718139648438e+02,-4.609532165527343750e+01,-1.802973022460937500e+02,1.975469512939453125e+02,-5.088996887207031250e+01,-1.396138153076171875e+02
1.024000048637390137e+00,2.000000000000000000e+00,-1.146725463867187500e+01,-1.254123568534851074e+00,5.227920913696289062e+01,1.204510955810546875e+02,8.129454803466796875e+01,-1.753794708251953125e+02,1.026134109497070312e+02,-4.608329772949218750e+01,-1.802877502441406250e+02,1.975573272705078125e+02,-5.090190887451171875e+01,-1.396193084716796875e+02
1.026999950408935547e+00,2.000000000000000000e+00,-1.152460289001464844e+01,-1.216372966766357422e+00,5.225206375122070312e+01,1.204639663696289062e+02,8.129994201660156250e+01,-1.753687438964843750e+02,1.025741577148437500e+02,-4.607127761840820312e+01,-1.802781982421875000e+02,1.975676727294921875e+02,-5.091384887695312500e+01,-1.396248016357421875e+02
1.031999945640563965e+00,2.000000000000000000e+00,-1.158193778991699219e+01,-1.178632020950317383e+00,5.222492980957031250e+01,1.204768371582031250e+02,8.130533599853515625e+01,-1.753580322265625000e+02,1.025349197387695312e+02,-4.605926513671875000e+01,-1.802686462402343750e+02,1.975780334472656250e+02,-5.092578506469726562e+01,-1.396302947998046875e+02
1.036000013351440430e+00,2.000000000000000000e+00,-1.163925743103027344e+01,-1.140901207923889160e+00,5.219779968261718750e+01,1.204896850585937500e+02,8.131072235107421875e+01,-1.753473052978515625e+02,1.024956893920898438e+02,-4.604725265502929688e+01,-1.802591094970703125e+02,1.975883789062500000e+02,-5.093771743774414062e+01,-1.396357879638671875e+02
1.039999961853027344e+00,2.000000000000000000e+00,-1.169656276702880859e+01,-1.103179931640625000e+00,5.217068099975585938e+01,1.205025405883789062e+02,8.131610870361328125e+01,-1.753365936279296875e+02,1.024564743041992188e+02,-4.603524398803710938e+01,-1.802495727539062500e+02,1.975987396240234375e+02,-5.094964981079101562e+01,-1.396412658691406250e+02
1.044000029563903809e+00,2.000000000000000000e+00,-1.175385189056396484e+01,-1.065468668937683105e+00,5.214356231689453125e+01,1.205153961181640625e+02,8.132149505615234375e+01,-1.753258972167968750e+02,1.024172592163085938e+02,-4.602323532104492188e+01,-1.802400360107421875e+02,1.976091003417968750e+02,-5.096157455444335938e+01,-1.396467590332031250e+02
1.047999978065490723e+00,2.000000000000000000e+00,-1.181112575531005859e+01,-1.027767181396484375e+00,5.211645889282226562e+01,1.205282363891601562e+02,8.132688140869140625e+01,-1.753151855468750000e+02,1.023780593872070312e+02,-4.601123046875000000e+01,-1.802304840087890625e+02,1.976194305419921875e+02,-5.097349929809570312e+01,-1.396522369384765625e+02
1.052000045776367188e+00,2.000000000000000000e+00,-1.186838626861572266e+01,-9.900754094123840332e-01,5.208935546875000000e+01,1.205410919189453125e+02,8.133226013183593750e+01,-1.753044738769531250e+02,1.023388748168945312e+02,-4.599922943115234375e+01,-1.802209472656250000e+02,1.976297912597656250e+02,-5.098542404174804688e+01,-1.396577148437500000e+02
1.054999947547912598e+00,2.000000000000000000e+00,-1.192563152313232422e+01,-9.523935914039611816e-01,5.206226348876953125e+01,1.205539321899414062e+02,8.133764648437500000e+01,-1.752937774658203125e+02,1.022996978759765625e+02,-4.598723220825195312e+01,-1.802114257812500000e+02,1.976401367187500000e+02,-5.099733734130859375e+01,-1.396631927490234375e+02
1.059999942779541016e+00,2.000000000000000000e+00,-1.198286056518554688e+01,-9.147215485572814941e-01,5.203517913818359375e+01,1.205667724609375000e+02,8.134302520751953125e+01,-1.752830657958984375e+02,1.022605285644531250e+02,-4.597523880004882812e+01,-1.802018890380859375e+02,1.976504669189453125e+02,-5.100925445556640625e+01,-1.396686706542968750e+02
1.064000010490417480e+00,2.000000000000000000e+00,-1.204007625579833984e+01,-8.770592808723449707e-01,5.200809860229492188e+01,1.205795974731445312e+02,8.134840393066406250e+01,-1.752723693847656250e+02,1.022213668823242188e+02,-4.596324920654296875e+01,-1.801923522949218750e+02,1.976607971191406250e+02,-5.102116394042968750e+01,-1.396741485595703125e+02
1.067999958992004395e+00,2.000000000000000000e+00,-1.209727668762207031e+01,-8.394067883491516113e-01,5.198102569580078125e+01,1.205924453735351562e+02,8.135377502441406250e+01,-1.752616729736328125e+02,1.021822204589843750e+02,-4.595126342773437500e+01,-1.801828308105468750e+02,1.976711425781250000e+02,-5.103307342529296875e+01,-1.396796264648437500e+02
1.072000026702880859e+00,2.000000000000000000e+00,-1.215446281433105469e+01,-8.017640709877014160e-01,5.195396041870117188e+01,1.206052703857421875e+02,8.135915374755859375e+01,-1.752509918212890625e+02,1.021430816650390625e+02,-4.593927764892578125e+01,-1.801733093261718750e+02,1.976814727783203125e+02,-5.104497909545898438e+01,-1.396851043701171875e+02
1.075999975204467773e+00,2.000000000000000000e+00,-1.221163272857666016e+01,-7.641311287879943848e-01,5.192690277099609375e+01,1.206180953979492188e+02,8.136452484130859375e+01,-1.752402954101562500e+02,1.021039581298828125e+02,-4.592729568481445312e+01,-1.801637878417968750e+02,1.976918029785156250e+02,-5.105688476562500000e+01,-1.396905822753906250e+02
1.080000042915344238e+00,2.000000000000000000e+00,-1.226878929138183594e+01,-7.265080213546752930e-01,5.189985275268554688e+01,1.206309127807617188e+02,8.136990356445312500e+01,-1.752296142578125000e+02,1.020648422241210938e+02,-4.591531753540039062e+01,-1.801542663574218750e+02,1.977021179199218750e+02,-5.106878280639648438e+01,-1.396960449218750000e+02
1.083999991416931152e+00,2.000000000000000000e+00,-1.232592964172363281e+01,-6.888946294784545898e-01,5.187280654907226562e+01,1.206437377929687500e+02,8.137527465820312500e+01,-1.752189331054687500e+02,1.020257339477539062e+02,-4.590334320068359375e+01,-1.801447601318359375e+02,1.977124481201171875e+02,-5.108067703247070312e+01,-1.397015228271484375e+02
1.088000059127807617e+00,2.000000000000000000e+00,-1.238305568695068359e+01,-6.512910127639770508e-01,5.184577178955078125e+01,1.206565475463867188e+02,8.138063812255859375e+01,-1.752082519531250000e+02,1.019866409301757812e+02,-4.589137268066406250e+01,-1.801352386474609375e+02,1.977227630615234375e+02,-5.109257125854492188e+01,-1.397069854736328125e+02
1.090999960899353027e+00,2.000000000000000000e+00,-1.244016647338867188e+01,-6.136971712112426758e-01,5.181874084472656250e+01,1.206693649291992188e+02,8.138600921630859375e+01,-1.751975708007812500e+02,1.019475479125976562e+02,-4.587940216064453125e+01,-1.801257324218750000e+02,1.977330932617187500e+02,-5.110445785522460938e+01,-1.397124481201171875e+02
1.095999956130981445e+00,2.000000000000000000e+00,-1.249726295471191406e+01,-5.761131048202514648e-01,5.179172134399414062e+01,1.206821594238281250e+02,8.139137268066406250e+01,-1.751868896484375000e+02,1.019084701538085938e+02,-4.586743545532226562e+01,-1.801162261962890625e+02,1.977434082031250000e+02,-5.111634826660156250e+01,-1.397179107666015625e+02
1.100000023841857910e+00,2.000000000000000000e+00,-1.255434417724609375e+01,-5.385387539863586426e-01,5.176470184326171875e+01,1.206949768066406250e+02,8.139674377441406250e+01,-1.751762237548828125e+02,1.018694076538085938e+02,-4.585547256469726562e+01,-1.801067199707031250e+02,1.977537231445312500e+02,-5.112823104858398438e+01,-1.397233734130859375e+02
1.103999972343444824e+00,2.000000000000000000e+00,-1.261141204833984375e+01,-5.009741783142089844e-01,5.173769378662109375e+01,1.207077789306640625e+02,8.140210723876953125e+01,-1.751655578613281250e+02,1.018303527832031250e+02,-4.584351348876953125e+01,-1.800972290039062500e+02,1.977640380859375000e+02,-5.114011383056640625e+01,-1.397288360595703125e+02
1.108000040054321289e+00,2.000000000000000000e+00,-1.266846370697021484e+01,-4.634192585945129395e-01,5.171069335937500000e+01,1.207205734252929688e+02,8.140747833251953125e+01,-1.751548919677734375e+02,1.017913055419921875e+02,-4.583155822753906250e+01,-1.800877227783203125e+02,1.977743377685546875e+02,-5.115198898315429688e+01,-1.397343139648437500e+02
1.111999988555908203e+00,2.000000000000000000e+00,-1.272550106048583984e+01,-4.258741140365600586e-01,5.168369674682617188e+01,1.207333755493164062e+02,8.141283416748046875e+01,-1.751442260742187500e+02,1.017522735595703125e+02,-4.581960296630859375e+01,-1.800782318115234375e+02,1.977846374511718750e+02,-5.116386413574218750e+01,-1.397397766113281250e+02
