rpiRobotics/ARM-21-02-F-19-Robot-Motion-Program/data_performance_abb/curve_1/dual_arm/diffevo_pose2/grad_result/sim/dual_iteration_3.csv
timestamp,cmd_num,J1,J2,J3,J4,J5,J6,J1_2,J2_2,J3_2,J4_2,J5_2,J6_2
0.000000000000000000e+00,-1.000000000000000000e+00,1.761650562286376953e+00,-1.012679672241210938e+01,5.846680831909179688e+01,1.172820281982421875e+02,7.976488494873046875e+01,-1.775131835937500000e+02,1.117126007080078125e+02,-4.889786148071289062e+01,-1.824561767578125000e+02,1.952265319824218750e+02,-4.816334915161132812e+01,-1.383874969482421875e+02
2.000000094994902611e-03,-1.000000000000000000e+00,1.761650562286376953e+00,-1.012679672241210938e+01,5.846680831909179688e+01,1.172820281982421875e+02,7.976488494873046875e+01,-1.775131835937500000e+02,1.117126007080078125e+02,-4.889786148071289062e+01,-1.824561767578125000e+02,1.952265319824218750e+02,-4.816334915161132812e+01,-1.383874969482421875e+02
4.000000189989805222e-03,-1.000000000000000000e+00,1.761650562286376953e+00,-1.012679672241210938e+01,5.846680831909179688e+01,1.172820281982421875e+02,7.976488494873046875e+01,-1.775131835937500000e+02,1.117126007080078125e+02,-4.889786148071289062e+01,-1.824561767578125000e+02,1.952265319824218750e+02,-4.816334915161132812e+01,-1.383874969482421875e+02
9.999999776482582092e-03,-1.000000000000000000e+00,1.761650562286376953e+00,-1.012679672241210938e+01,5.846680831909179688e+01,1.172820281982421875e+02,7.976488494873046875e+01,-1.775131835937500000e+02,1.117126007080078125e+02,-4.889786148071289062e+01,-1.824561767578125000e+02,1.952265319824218750e+02,-4.816334915161132812e+01,-1.383874969482421875e+02
1.200000010430812836e-02,-1.000000000000000000e+00,1.761650562286376953e+00,-1.012679672241210938e+01,5.846680831909179688e+01,1.172820281982421875e+02,7.976488494873046875e+01,-1.775131835937500000e+02,1.117126007080078125e+02,-4.889786148071289062e+01,-1.824561767578125000e+02,1.952265319824218750e+02,-4.816334915161132812e+01,-1.383874969482421875e+02
1.600000075995922089e-02,-1.000000000000000000e+00,1.761650562286376953e+00,-1.012679672241210938e+01,5.846680831909179688e+01,1.172820281982421875e+02,7.976488494873046875e+01,-1.775131835937500000e+02,1.117126007080078125e+02,-4.889786148071289062e+01,-1.824561767578125000e+02,1.952265319824218750e+02,-4.816334915161132812e+01,-1.383874969482421875e+02
1.999999955296516418e-02,-1.000000000000000000e+00,1.761650562286376953e+00,-1.012679672241210938e+01,5.846680831909179688e+01,1.172820281982421875e+02,7.976488494873046875e+01,-1.775131835937500000e+02,1.117126007080078125e+02,-4.889786148071289062e+01,-1.824561767578125000e+02,1.952265319824218750e+02,-4.816334915161132812e+01,-1.383874969482421875e+02
2.400000020861625671e-02,-1.000000000000000000e+00,1.761650562286376953e+00,-1.012679672241210938e+01,5.846680831909179688e+01,1.172820281982421875e+02,7.976488494873046875e+01,-1.775131835937500000e+02,1.117126007080078125e+02,-4.889786148071289062e+01,-1.824561767578125000e+02,1.952265319824218750e+02,-4.816334915161132812e+01,-1.383874969482421875e+02
2.899999916553497314e-02,2.000000000000000000e+00,1.761650562286376953e+00,-1.012679672241210938e+01,5.846680831909179688e+01,1.172820281982421875e+02,7.976488494873046875e+01,-1.775131835937500000e+02,1.117126007080078125e+02,-4.889786148071289062e+01,-1.824561767578125000e+02,1.952265319824218750e+02,-4.816334915161132812e+01,-1.383874969482421875e+02
3.500000014901161194e-02,2.000000000000000000e+00,1.761650562286376953e+00,-1.012679672241210938e+01,5.846680831909179688e+01,1.172820281982421875e+02,7.976488494873046875e+01,-1.775131835937500000e+02,1.117126007080078125e+02,-4.889786148071289062e+01,-1.824561767578125000e+02,1.952265319824218750e+02,-4.816334915161132812e+01,-1.383874969482421875e+02
3.900000080466270447e-02,2.000000000000000000e+00,1.761650562286376953e+00,-1.012679672241210938e+01,5.846680831909179688e+01,1.172820281982421875e+02,7.976488494873046875e+01,-1.775131835937500000e+02,1.117126007080078125e+02,-4.889786148071289062e+01,-1.824561767578125000e+02,1.952265319824218750e+02,-4.816334915161132812e+01,-1.383874969482421875e+02
4.100000113248825073e-02,2.000000000000000000e+00,1.761650562286376953e+00,-1.012679672241210938e+01,5.846680831909179688e+01,1.172820281982421875e+02,7.976488494873046875e+01,-1.775131835937500000e+02,1.117126007080078125e+02,-4.889786148071289062e+01,-1.824561767578125000e+02,1.952265319824218750e+02,-4.816334915161132812e+01,-1.383874969482421875e+02
4.600000008940696716e-02,2.000000000000000000e+00,1.761650562286376953e+00,-1.012679672241210938e+01,5.846680831909179688e+01,1.172820281982421875e+02,7.976488494873046875e+01,-1.775131835937500000e+02,1.117126007080078125e+02,-4.889786148071289062e+01,-1.824561767578125000e+02,1.952265319824218750e+02,-4.816334915161132812e+01,-1.383874969482421875e+02
4.800000041723251343e-02,2.000000000000000000e+00,1.761650562286376953e+00,-1.012679672241210938e+01,5.846680831909179688e+01,1.172820281982421875e+02,7.976488494873046875e+01,-1.775131835937500000e+02,1.117126007080078125e+02,-4.889786148071289062e+01,-1.824561767578125000e+02,1.952265319824218750e+02,-4.816334915161132812e+01,-1.383874969482421875e+02
5.200000107288360596e-02,2.000000000000000000e+00,1.761650562286376953e+00,-1.012679672241210938e+01,5.846680831909179688e+01,1.172820281982421875e+02,7.976488494873046875e+01,-1.775131835937500000e+02,1.117126007080078125e+02,-4.889786148071289062e+01,-1.824561767578125000e+02,1.952265319824218750e+02,-4.816334915161132812e+01,-1.383874969482421875e+02
5.600000172853469849e-02,2.000000000000000000e+00,1.761650562286376953e+00,-1.012679672241210938e+01,5.846680831909179688e+01,1.172820281982421875e+02,7.976488494873046875e+01,-1.775131835937500000e+02,1.117126007080078125e+02,-4.889786148071289062e+01,-1.824561767578125000e+02,1.952265319824218750e+02,-4.816334915161132812e+01,-1.383874969482421875e+02
5.999999865889549255e-02,2.000000000000000000e+00,1.761650562286376953e+00,-1.012679672241210938e+01,5.846680831909179688e+01,1.172820281982421875e+02,7.976488494873046875e+01,-1.775131835937500000e+02,1.117126007080078125e+02,-4.889786148071289062e+01,-1.824561767578125000e+02,1.952265319824218750e+02,-4.816334915161132812e+01,-1.383874969482421875e+02
6.400000303983688354e-02,2.000000000000000000e+00,1.761650562286376953e+00,-1.012679672241210938e+01,5.846680831909179688e+01,1.172820281982421875e+02,7.976488494873046875e+01,-1.775131835937500000e+02,1.117126007080078125e+02,-4.889786148071289062e+01,-1.824561767578125000e+02,1.952265319824218750e+02,-4.816334915161132812e+01,-1.383874969482421875e+02
6.800000369548797607e-02,2.000000000000000000e+00,1.761650562286376953e+00,-1.012679672241210938e+01,5.846680831909179688e+01,1.172820281982421875e+02,7.976488494873046875e+01,-1.775131835937500000e+02,1.117126007080078125e+02,-4.889786148071289062e+01,-1.824561767578125000e+02,1.952265319824218750e+02,-4.816334915161132812e+01,-1.383874969482421875e+02
7.199999690055847168e-02,2.000000000000000000e+00,1.761584281921386719e+00,-1.012676906585693359e+01,5.846680068969726562e+01,1.172820281982421875e+02,7.976487731933593750e+01,-1.775131835937500000e+02,1.117126007080078125e+02,-4.889786148071289062e+01,-1.824561767578125000e+02,1.952265319824218750e+02,-4.816334915161132812e+01,-1.383874969482421875e+02
7.599999755620956421e-02,2.000000000000000000e+00,1.761209011077880859e+00,-1.012659740447998047e+01,5.846673583984375000e+01,1.172820281982421875e+02,7.976486968994140625e+01,-1.775131835937500000e+02,1.117126007080078125e+02,-4.889786148071289062e+01,-1.824561767578125000e+02,1.952265319824218750e+02,-4.816334915161132812e+01,-1.383874969482421875e+02
7.999999821186065674e-02,2.000000000000000000e+00,1.760133147239685059e+00,-1.012606430053710938e+01,5.846653747558593750e+01,1.172820510864257812e+02,7.976485443115234375e+01,-1.775131835937500000e+02,1.117126007080078125e+02,-4.889786148071289062e+01,-1.824561767578125000e+02,1.952265319824218750e+02,-4.816334915161132812e+01,-1.383874969482421875e+02
8.399999886751174927e-02,2.000000000000000000e+00,1.757984399795532227e+00,-1.012491893768310547e+01,5.846608352661132812e+01,1.172821121215820312e+02,7.976482391357421875e+01,-1.775131530761718750e+02,1.117125778198242188e+02,-4.889785385131835938e+01,-1.824561767578125000e+02,1.952265319824218750e+02,-4.816335296630859375e+01,-1.383874969482421875e+02
8.799999952316284180e-02,2.000000000000000000e+00,1.754524946212768555e+00,-1.012294769287109375e+01,5.846528625488281250e+01,1.172822341918945312e+02,7.976478576660156250e+01,-1.775130767822265625e+02,1.117124328613281250e+02,-4.889782333374023438e+01,-1.824561614990234375e+02,1.952265472412109375e+02,-4.816336441040039062e+01,-1.383874969482421875e+02
9.200000017881393433e-02,2.000000000000000000e+00,1.749580979347229004e+00,-1.011997222900390625e+01,5.846401596069335938e+01,1.172824630737304688e+02,7.976477050781250000e+01,-1.775129394531250000e+02,1.117119598388671875e+02,-4.889771652221679688e+01,-1.824560546875000000e+02,1.952266082763671875e+02,-4.816340255737304688e+01,-1.383875122070312500e+02
9.600000083446502686e-02,2.000000000000000000e+00,1.742984294891357422e+00,-1.011583042144775391e+01,5.846215057373046875e+01,1.172828903198242188e+02,7.976478576660156250e+01,-1.775126495361328125e+02,1.117108764648437500e+02,-4.889746093750000000e+01,-1.824557952880859375e+02,1.952267303466796875e+02,-4.816351699829101562e+01,-1.383875427246093750e+02
1.000000014901161194e-01,2.000000000000000000e+00,1.734669566154479980e+00,-1.011041927337646484e+01,5.845957565307617188e+01,1.172835845947265625e+02,7.976490783691406250e+01,-1.775121917724609375e+02,1.117088699340820312e+02,-4.889698028564453125e+01,-1.824553527832031250e+02,1.952269897460937500e+02,-4.816375732421875000e+01,-1.383876190185546875e+02
1.040000021457672119e-01,2.000000000000000000e+00,1.724667429924011230e+00,-1.010371398925781250e+01,5.845616912841796875e+01,1.172846527099609375e+02,7.976517486572265625e+01,-1.775114440917968750e+02,1.117056274414062500e+02,-4.889616775512695312e+01,-1.824546051025390625e+02,1.952274322509765625e+02,-4.816422271728515625e+01,-1.383877563476562500e+02
1.080000028014183044e-01,2.000000000000000000e+00,1.712911963462829590e+00,-1.009567928314208984e+01,5.845180511474609375e+01,1.172861785888671875e+02,7.976565551757812500e+01,-1.775103302001953125e+02,1.117007751464843750e+02,-4.889490890502929688e+01,-1.824534759521484375e+02,1.952282104492187500e+02,-4.816502761840820312e+01,-1.383880615234375000e+02
1.120000034570693970e-01,2.000000000000000000e+00,1.699098348617553711e+00,-1.008616733551025391e+01,5.844633865356445312e+01,1.172882843017578125e+02,7.976639556884765625e+01,-1.775087738037109375e+02,1.116940078735351562e+02,-4.889310455322265625e+01,-1.824518890380859375e+02,1.952294311523437500e+02,-4.816632080078125000e+01,-1.383885650634765625e+02
1.159999966621398926e-01,2.000000000000000000e+00,1.682759404182434082e+00,-1.007493209838867188e+01,5.843956375122070312e+01,1.172910690307617188e+02,7.976745605468750000e+01,-1.775067138671875000e+02,1.116851882934570312e+02,-4.889065170288085938e+01,-1.824497985839843750e+02,1.952311859130859375e+02,-4.816824340820312500e+01,-1.383893737792968750e+02
1.199999973177909851e-01,2.000000000000000000e+00,1.663493156433105469e+00,-1.006175613403320312e+01,5.843130493164062500e+01,1.172946243286132812e+02,7.976888275146484375e+01,-1.775040435791015625e+02,1.116741714477539062e+02,-4.888748931884765625e+01,-1.824471893310546875e+02,1.952335815429687500e+02,-4.817094039916992188e+01,-1.383905334472656250e+02
1.239999979734420776e-01,2.000000000000000000e+00,1.641116380691528320e+00,-1.004656600952148438e+01,5.842145156860351562e+01,1.172990341186523438e+02,7.977071380615234375e+01,-1.775007324218750000e+02,1.116608047485351562e+02,-4.888353347778320312e+01,-1.824439849853515625e+02,1.952367401123046875e+02,-4.817453765869140625e+01,-1.383921356201171875e+02
1.280000060796737671e-01,2.000000000000000000e+00,1.615644812583923340e+00,-1.002943325042724609e+01,5.840995407104492188e+01,1.173043746948242188e+02,7.977300262451171875e+01,-1.774966888427734375e+02,1.116448287963867188e+02,-4.887870407104492188e+01,-1.824401397705078125e+02,1.952407226562500000e+02,-4.817913055419921875e+01,-1.383942108154296875e+02
1.309999972581863403e-01,2.000000000000000000e+00,1.587166666984558105e+00,-1.001045894622802734e+01,5.839680480957031250e+01,1.173106994628906250e+02,7.977577972412109375e+01,-1.774918975830078125e+02,1.116260986328125000e+02,-4.887294769287109375e+01,-1.824356384277343750e+02,1.952455902099609375e+02,-4.818476867675781250e+01,-1.383967742919921875e+02
1.360000073909759521e-01,2.000000000000000000e+00,1.555745363235473633e+00,-9.989705085754394531e+00,5.838199234008789062e+01,1.173180084228515625e+02,7.977906036376953125e+01,-1.774863128662109375e+02,1.116045303344726562e+02,-4.886624908447265625e+01,-1.824304199218750000e+02,1.952513427734375000e+02,-4.819146347045898438e+01,-1.383998565673828125e+02
1.389999985694885254e-01,2.000000000000000000e+00,1.521456003189086914e+00,-9.967222213745117188e+00,5.836554336547851562e+01,1.173263015747070312e+02,7.978285217285156250e+01,-1.774799804687500000e+02,1.115800857543945312e+02,-4.885861968994140625e+01,-1.824244995117187500e+02,1.952579650878906250e+02,-4.819918060302734375e+01,-1.384034118652343750e+02
1.439999938011169434e-01,2.000000000000000000e+00,1.484393239021301270e+00,-9.943052291870117188e+00,5.834751510620117188e+01,1.173355484008789062e+02,7.978712463378906250e+01,-1.774728851318359375e+02,1.115528106689453125e+02,-4.885007476806640625e+01,-1.824178924560546875e+02,1.952654113769531250e+02,-4.820786666870117188e+01,-1.384074401855468750e+02
1.480000019073486328e-01,2.000000000000000000e+00,1.444556832313537598e+00,-9.917141914367675781e+00,5.832795715332031250e+01,1.173456802368164062e+02,7.979183197021484375e+01,-1.774651184082031250e+02,1.115228652954101562e+02,-4.884069061279296875e+01,-1.824106445312500000e+02,1.952735900878906250e+02,-4.821742630004882812e+01,-1.384118499755859375e+02
1.519999951124191284e-01,2.000000000000000000e+00,1.401847481727600098e+00,-9.889348030090332031e+00,5.830691528320312500e+01,1.173566131591796875e+02,7.979692840576171875e+01,-1.774567260742187500e+02,1.114905776977539062e+02,-4.883055877685546875e+01,-1.824028320312500000e+02,1.952824401855468750e+02,-4.822775650024414062e+01,-1.384166259765625000e+02
1.560000032186508179e-01,2.000000000000000000e+00,1.356243252754211426e+00,-9.859583854675292969e+00,5.828445816040039062e+01,1.173682479858398438e+02,7.980233001708984375e+01,-1.774478149414062500e+02,1.114562835693359375e+02,-4.881980514526367188e+01,-1.823945007324218750e+02,1.952918243408203125e+02,-4.823873138427734375e+01,-1.384217071533203125e+02
1.599999964237213135e-01,2.000000000000000000e+00,1.307958722114562988e+00,-9.827944755554199219e+00,5.826072692871093750e+01,1.173804779052734375e+02,7.980799865722656250e+01,-1.774384460449218750e+02,1.114202728271484375e+02,-4.880851745605468750e+01,-1.823857879638671875e+02,1.953016662597656250e+02,-4.825022888183593750e+01,-1.384270172119140625e+02
1.640000045299530029e-01,2.000000000000000000e+00,1.257413148880004883e+00,-9.794672966003417969e+00,5.823591995239257812e+01,1.173931961059570312e+02,7.981387329101562500e+01,-1.774286956787109375e+02,1.113827667236328125e+02,-4.879679489135742188e+01,-1.823767089843750000e+02,1.953118591308593750e+02,-4.826212692260742188e+01,-1.384325103759765625e+02
1.679999977350234985e-01,2.000000000000000000e+00,1.205036044120788574e+00,-9.760011672973632812e+00,5.821022033691406250e+01,1.174063110351562500e+02,7.981991577148437500e+01,-1.774186553955078125e+02,1.113440017700195312e+02,-4.878471374511718750e+01,-1.823673248291015625e+02,1.953223266601562500e+02,-4.827431869506835938e+01,-1.384381256103515625e+02
1.720000058412551880e-01,2.000000000000000000e+00,1.151116967201232910e+00,-9.724146842956542969e+00,5.818378829956054688e+01,1.174197387695312500e+02,7.982606506347656250e+01,-1.774084014892578125e+02,1.113042373657226562e+02,-4.877236938476562500e+01,-1.823577117919921875e+02,1.953329620361328125e+02,-4.828670883178710938e+01,-1.384438171386718750e+02
1.759999990463256836e-01,2.000000000000000000e+00,1.095813989639282227e+00,-9.687231063842773438e+00,5.815675354003906250e+01,1.174333801269531250e+02,7.983229827880859375e+01,-1.773979644775390625e+02,1.112637329101562500e+02,-4.875983047485351562e+01,-1.823479156494140625e+02,1.953437194824218750e+02,-4.829922103881835938e+01,-1.384495544433593750e+02
1.800000071525573730e-01,2.000000000000000000e+00,1.039247989654541016e+00,-9.649408340454101562e+00,5.812923431396484375e+01,1.174471969604492188e+02,7.983857727050781250e+01,-1.773874206542968750e+02,1.112226791381835938e+02,-4.874715423583984375e+01,-1.823379974365234375e+02,1.953545532226562500e+02,-4.831180191040039062e+01,-1.384553222656250000e+02
1.840000003576278687e-01,2.000000000000000000e+00,9.815702438354492188e-01,-9.610832214355468750e+00,5.810135269165039062e+01,1.174610977172851562e+02,7.984487915039062500e+01,-1.773767852783203125e+02,1.111812591552734375e+02,-4.873439788818359375e+01,-1.823279876708984375e+02,1.953654327392578125e+02,-4.832441711425781250e+01,-1.384610900878906250e+02
1.879999935626983643e-01,2.000000000000000000e+00,9.229104518890380859e-01,-9.571629524230957031e+00,5.807319259643554688e+01,1.174750747680664062e+02,7.985118103027343750e+01,-1.773661346435546875e+02,1.111396713256835938e+02,-4.872159957885742188e+01,-1.823179473876953125e+02,1.953763275146484375e+02,-4.833704376220703125e+01,-1.384668731689453125e+02
1.920000016689300537e-01,2.000000000000000000e+00,8.633828163146972656e-01,-9.531925201416015625e+00,5.804482650756835938e+01,1.174890747070312500e+02,7.985747528076171875e+01,-1.773554534912109375e+02,1.110980300903320312e+02,-4.870878601074218750e+01,-1.823079071044921875e+02,1.953872070312500000e+02,-4.834967041015625000e+01,-1.384726409912109375e+02
1.959999948740005493e-01,2.000000000000000000e+00,8.031923174858093262e-01,-9.491878509521484375e+00,5.801632308959960938e+01,1.175031051635742188e+02,7.986375427246093750e+01,-1.773447723388671875e+02,1.110563888549804688e+02,-4.869598007202148438e+01,-1.822978515625000000e+02,1.953981018066406250e+02,-4.836229705810546875e+01,-1.384783935546875000e+02
2.000000029802322388e-01,2.000000000000000000e+00,7.426285743713378906e-01,-9.451657295227050781e+00,5.798776626586914062e+01,1.175171356201171875e+02,7.987003326416015625e+01,-1.773340911865234375e+02,1.110147628784179688e+02,-4.868317794799804688e+01,-1.822877960205078125e+02,1.954089660644531250e+02,-4.837491607666015625e+01,-1.384841766357421875e+02
2.039999961853027344e-01,2.000000000000000000e+00,6.819451451301574707e-01,-9.411386489868164062e+00,5.795919036865234375e+01,1.175311508178710938e+02,7.987630462646484375e+01,-1.773234100341796875e+02,1.109731369018554688e+02,-4.867037582397460938e+01,-1.822777557373046875e+02,1.954198608398437500e+02,-4.838753128051757812e+01,-1.384899291992187500e+02
2.080000042915344238e-01,2.000000000000000000e+00,6.212592124938964844e-01,-9.371119499206542969e+00,5.793061828613281250e+01,1.175451660156250000e+02,7.988257598876953125e+01,-1.773127441406250000e+02,1.109315338134765625e+02,-4.865757751464843750e+01,-1.822677001953125000e+02,1.954307250976562500e+02,-4.840014266967773438e+01,-1.384956970214843750e+02
2.119999974966049194e-01,2.000000000000000000e+00,5.605901479721069336e-01,-9.330863952636718750e+00,5.790205383300781250e+01,1.175591812133789062e+02,7.988883972167968750e+01,-1.773020477294921875e+02,1.108899383544921875e+02,-4.864478683471679688e+01,-1.822576599121093750e+02,1.954416046142578125e+02,-4.841275024414062500e+01,-1.385014648437500000e+02
2.160000056028366089e-01,2.000000000000000000e+00,4.999387562274932861e-01,-9.290620803833007812e+00,5.787349700927734375e+01,1.175731964111328125e+02,7.989510345458984375e+01,-1.772913818359375000e+02,1.108483657836914062e+02,-4.863199615478515625e+01,-1.822476196289062500e+02,1.954524688720703125e+02,-4.842535400390625000e+01,-1.385072174072265625e+02
2.199999988079071045e-01,2.000000000000000000e+00,4.393050074577331543e-01,-9.250388145446777344e+00,5.784495544433593750e+01,1.175871963500976562e+02,7.990136718750000000e+01,-1.772807159423828125e+02,1.108067855834960938e+02,-4.861921310424804688e+01,-1.822375793457031250e+02,1.954633331298828125e+02,-4.843795776367187500e+01,-1.385129699707031250e+02
2.240000069141387939e-01,2.000000000000000000e+00,3.786890506744384766e-01,-9.210167884826660156e+00,5.781641769409179688e+01,1.176012039184570312e+02,7.990763092041015625e+01,-1.772700500488281250e+02,1.107652359008789062e+02,-4.860643005371093750e+01,-1.822275543212890625e+02,1.954741973876953125e+02,-4.845055389404296875e+01,-1.385187377929687500e+02
2.280000001192092896e-01,2.000000000000000000e+00,3.180907070636749268e-01,-9.169959068298339844e+00,5.778788757324218750e+01,1.176152038574218750e+02,7.991388702392578125e+01,-1.772593994140625000e+02,1.107236938476562500e+02,-4.859365081787109375e+01,-1.822175292968750000e+02,1.954850616455078125e+02,-4.846315002441406250e+01,-1.385244903564453125e+02
2.319999933242797852e-01,2.000000000000000000e+00,2.575100362300872803e-01,-9.129763603210449219e+00,5.775936508178710938e+01,1.176291885375976562e+02,7.992014312744140625e+01,-1.772487335205078125e+02,1.106821594238281250e+02,-4.858087921142578125e+01,-1.822075042724609375e+02,1.954959106445312500e+02,-4.847574234008789062e+01,-1.385302429199218750e+02
2.360000014305114746e-01,2.000000000000000000e+00,1.969470530748367310e-01,-9.089579582214355469e+00,5.773085784912109375e+01,1.176431808471679688e+02,7.992640686035156250e+01,-1.772380828857421875e+02,1.106406402587890625e+02,-4.856810760498046875e+01,-1.821974639892578125e+02,1.955067749023437500e+02,-4.848832702636718750e+01,-1.385359954833984375e+02
2.399999946355819702e-01,2.000000000000000000e+00,1.364019364118576050e-01,-9.049406051635742188e+00,5.770235443115234375e+01,1.176571655273437500e+02,7.993265533447265625e+01,-1.772274322509765625e+02,1.105991287231445312e+02,-4.855533981323242188e+01,-1.821874389648437500e+02,1.955176239013671875e+02,-4.850091171264648438e+01,-1.385417480468750000e+02
2.440000027418136597e-01,2.000000000000000000e+00,7.587474584579467773e-02,-9.009243965148925781e+00,5.767385864257812500e+01,1.176711425781250000e+02,7.993890380859375000e+01,-1.772167663574218750e+02,1.105576400756835938e+02,-4.854257965087890625e+01,-1.821774291992187500e+02,1.955284729003906250e+02,-4.851348876953125000e+01,-1.385474853515625000e+02
2.479999959468841553e-01,2.000000000000000000e+00,1.536537799984216690e-02,-8.969093322753906250e+00,5.764537048339843750e+01,1.176851196289062500e+02,7.994515991210937500e+01,-1.772061309814453125e+02,1.105161514282226562e+02,-4.852981948852539062e+01,-1.821674041748046875e+02,1.955393218994140625e+02,-4.852606201171875000e+01,-1.385532379150390625e+02
2.520000040531158447e-01,2.000000000000000000e+00,-4.512641951441764832e-02,-8.928956031799316406e+00,5.761688613891601562e+01,1.176990890502929688e+02,7.995140075683593750e+01,-1.771954956054687500e+02,1.104746780395507812e+02,-4.851706314086914062e+01,-1.821573944091796875e+02,1.955501556396484375e+02,-4.853863906860351562e+01,-1.385589752197265625e+02
2.560000121593475342e-01,2.000000000000000000e+00,-1.056007742881774902e-01,-8.888829231262207031e+00,5.758842086791992188e+01,1.177130661010742188e+02,7.995764923095703125e+01,-1.771848449707031250e+02,1.104332199096679688e+02,-4.850431060791015625e+01,-1.821473846435546875e+02,1.955609893798828125e+02,-4.855120468139648438e+01,-1.385647125244140625e+02
2.599999904632568359e-01,2.000000000000000000e+00,-1.660576462745666504e-01,-8.848714828491210938e+00,5.755995941162109375e+01,1.177270278930664062e+02,7.996389770507812500e+01,-1.771742095947265625e+02,1.103917694091796875e+02,-4.849156188964843750e+01,-1.821373748779296875e+02,1.955718231201171875e+02,-4.856377029418945312e+01,-1.385704498291015625e+02
2.639999985694885254e-01,2.000000000000000000e+00,-2.264969795942306519e-01,-8.808611869812011719e+00,5.753150177001953125e+01,1.177409896850585938e+02,7.997013854980468750e+01,-1.771635742187500000e+02,1.103503341674804688e+02,-4.847881698608398438e+01,-1.821273803710937500e+02,1.955826568603515625e+02,-4.857632827758789062e+01,-1.385761871337890625e+02
2.680000066757202148e-01,2.000000000000000000e+00,-2.869187295436859131e-01,-8.768521308898925781e+00,5.750305557250976562e+01,1.177549514770507812e+02,7.997637939453125000e+01,-1.771529388427734375e+02,1.103089141845703125e+02,-4.846607971191406250e+01,-1.821173858642578125e+02,1.955934753417968750e+02,-4.858888626098632812e+01,-1.385819244384765625e+02
2.720000147819519043e-01,2.000000000000000000e+00,-3.473229408264160156e-01,-8.728441238403320312e+00,5.747461318969726562e+01,1.177688980102539062e+02,7.998261260986328125e+01,-1.771423034667968750e+02,1.102675018310546875e+02,-4.845334243774414062e+01,-1.821073760986328125e+02,1.956043090820312500e+02,-4.860144042968750000e+01,-1.385876617431640625e+02
2.759999930858612061e-01,2.000000000000000000e+00,-4.077096581459045410e-01,-8.688372611999511719e+00,5.744618606567382812e+01,1.177828445434570312e+02,7.998885345458984375e+01,-1.771316986083984375e+02,1.102261047363281250e+02,-4.844060897827148438e+01,-1.820973815917968750e+02,1.956151275634765625e+02,-4.861398696899414062e+01,-1.385933990478515625e+02
2.800000011920928955e-01,2.000000000000000000e+00,-4.680788516998291016e-01,-8.648317337036132812e+00,5.741776657104492188e+01,1.177967910766601562e+02,7.999508666992187500e+01,-1.771210632324218750e+02,1.101847152709960938e+02,-4.842787933349609375e+01,-1.820873870849609375e+02,1.956259460449218750e+02,-4.862653350830078125e+01,-1.385991363525390625e+02
2.840000092983245850e-01,2.000000000000000000e+00,-5.284305810928344727e-01,-8.608271598815917969e+00,5.738935470581054688e+01,1.178107376098632812e+02,8.000131988525390625e+01,-1.771104583740234375e+02,1.101433486938476562e+02,-4.841515350341796875e+01,-1.820773925781250000e+02,1.956367645263671875e+02,-4.863908004760742188e+01,-1.386048736572265625e+02
2.879999876022338867e-01,2.000000000000000000e+00,-5.887647271156311035e-01,-8.568239212036132812e+00,5.736094665527343750e+01,1.178246688842773438e+02,8.000755310058593750e+01,-1.770998382568359375e+02,1.101019821166992188e+02,-4.840243148803710938e+01,-1.820674133300781250e+02,1.956475677490234375e+02,-4.865161514282226562e+01,-1.386106109619140625e+02
2.919999957084655762e-01,2.000000000000000000e+00,-6.490814089775085449e-01,-8.528218269348144531e+00,5.733255386352539062e+01,1.178386077880859375e+02,8.001378631591796875e+01,-1.770892333984375000e+02,1.100606307983398438e+02,-4.838971328735351562e+01,-1.820574188232421875e+02,1.956583862304687500e+02,-4.866415405273437500e+01,-1.386163330078125000e+02
2.960000038146972656e-01,2.000000000000000000e+00,-7.093806862831115723e-01,-8.488207817077636719e+00,5.730416870117187500e+01,1.178525238037109375e+02,8.002001190185546875e+01,-1.770786132812500000e+02,1.100192871093750000e+02,-4.837699890136718750e+01,-1.820474548339843750e+02,1.956692047119140625e+02,-4.867668151855468750e+01,-1.386220550537109375e+02
3.000000119209289551e-01,2.000000000000000000e+00,-7.696625590324401855e-01,-8.448208808898925781e+00,5.727578353881835938e+01,1.178664550781250000e+02,8.002623748779296875e+01,-1.770680084228515625e+02,1.099779586791992188e+02,-4.836428833007812500e+01,-1.820374603271484375e+02,1.956800079345703125e+02,-4.868921279907226562e+01,-1.386277770996093750e+02
3.039999902248382568e-01,2.000000000000000000e+00,-8.299270272254943848e-01,-8.408222198486328125e+00,5.724741363525390625e+01,1.178803787231445312e+02,8.003246307373046875e+01,-1.770574035644531250e+02,1.099366455078125000e+02,-4.835157775878906250e+01,-1.820274963378906250e+02,1.956907958984375000e+02,-4.870173645019531250e+01,-1.386334991455078125e+02
3.079999983310699463e-01,2.000000000000000000e+00,-8.901742100715637207e-01,-8.368246078491210938e+00,5.721905136108398438e+01,1.178942871093750000e+02,8.003868865966796875e+01,-1.770468139648437500e+02,1.098953399658203125e+02,-4.833887481689453125e+01,-1.820175170898437500e+02,1.957015991210937500e+02,-4.871426010131835938e+01,-1.386392211914062500e+02
3.120000064373016357e-01,2.000000000000000000e+00,-9.504041075706481934e-01,-8.328282356262207031e+00,5.719069290161132812e+01,1.179082031250000000e+02,8.004490661621093750e+01,-1.770362091064453125e+02,1.098540496826171875e+02,-4.832617568969726562e+01,-1.820075531005859375e+02,1.957123870849609375e+02,-4.872677612304687500e+01,-1.386449432373046875e+02
3.160000145435333252e-01,2.000000000000000000e+00,-1.010616660118103027e+00,-8.288330078125000000e+00,5.716234588623046875e+01,1.179221115112304688e+02,8.005113220214843750e+01,-1.770256042480468750e+02,1.098127670288085938e+02,-4.831348037719726562e+01,-1.819975738525390625e+02,1.957231903076171875e+02,-4.873928833007812500e+01,-1.386506500244140625e+02
3.199999928474426270e-01,2.000000000000000000e+00,-1.070812106132507324e+00,-8.248388290405273438e+00,5.713400650024414062e+01,1.179360198974609375e+02,8.005734252929687500e+01,-1.770150299072265625e+02,1.097714996337890625e+02,-4.830078506469726562e+01,-1.819876251220703125e+02,1.957339630126953125e+02,-4.875179672241210938e+01,-1.386563873291015625e+02
3.240000009536743164e-01,2.000000000000000000e+00,-1.130990266799926758e+00,-8.208458900451660156e+00,5.710567474365234375e+01,1.179499130249023438e+02,8.006356048583984375e+01,-1.770044403076171875e+02,1.097302474975585938e+02,-4.828809738159179688e+01,-1.819776611328125000e+02,1.957447509765625000e+02,-4.876430511474609375e+01,-1.386620941162109375e+02
3.280000090599060059e-01,2.000000000000000000e+00,-1.191151142120361328e+00,-8.168540954589843750e+00,5.707735061645507812e+01,1.179638137817382812e+02,8.006977844238281250e+01,-1.769938507080078125e+02,1.096890029907226562e+02,-4.827541351318359375e+01,-1.819676971435546875e+02,1.957555389404296875e+02,-4.877680969238281250e+01,-1.386678009033203125e+02
3.319999873638153076e-01,2.000000000000000000e+00,-1.251294970512390137e+00,-8.128633499145507812e+00,5.704903793334960938e+01,1.179777069091796875e+02,8.007598876953125000e+01,-1.769832611083984375e+02,1.096477661132812500e+02,-4.826272964477539062e+01,-1.819577484130859375e+02,1.957663116455078125e+02,-4.878931045532226562e+01,-1.386735076904296875e+02
3.359999954700469971e-01,2.000000000000000000e+00,-1.311421513557434082e+00,-8.088738441467285156e+00,5.702072906494140625e+01,1.179915847778320312e+02,8.008219909667968750e+01,-1.769726867675781250e+02,1.096065444946289062e+02,-4.825005340576171875e+01,-1.819477996826171875e+02,1.957770843505859375e+02,-4.880180358886718750e+01,-1.386792144775390625e+02
3.400000035762786865e-01,2.000000000000000000e+00,-1.371530771255493164e+00,-8.048854827880859375e+00,5.699243164062500000e+01,1.180054779052734375e+02,8.008840942382812500e+01,-1.769621124267578125e+02,1.095653381347656250e+02,-4.823737335205078125e+01,-1.819378356933593750e+02,1.957878723144531250e+02,-4.881429672241210938e+01,-1.386849365234375000e+02
3.440000116825103760e-01,2.000000000000000000e+00,-1.431622982025146484e+00,-8.008981704711914062e+00,5.696414184570312500e+01,1.180193557739257812e+02,8.009461975097656250e+01,-1.769515380859375000e+02,1.095241394042968750e+02,-4.822470474243164062e+01,-1.819279022216796875e+02,1.957986297607421875e+02,-4.882678222656250000e+01,-1.386906433105468750e+02
3.479999899864196777e-01,2.000000000000000000e+00,-1.491698026657104492e+00,-7.969120979309082031e+00,5.693585586547851562e+01,1.180332412719726562e+02,8.010082244873046875e+01,-1.769409637451171875e+02,1.094829559326171875e+02,-4.821203994750976562e+01,-1.819179534912109375e+02,1.958094024658203125e+02,-4.883926773071289062e+01,-1.386963348388671875e+02
3.519999980926513672e-01,2.000000000000000000e+00,-1.551755905151367188e+00,-7.929269790649414062e+00,5.690758132934570312e+01,1.180471038818359375e+02,8.010701751708984375e+01,-1.769304046630859375e+02,1.094417800903320312e+02,-4.819937515258789062e+01,-1.819080047607421875e+02,1.958201599121093750e+02,-4.885174942016601562e+01,-1.387020416259765625e+02
3.560000061988830566e-01,2.000000000000000000e+00,-1.611796736717224121e+00,-7.889431953430175781e+00,5.687931442260742188e+01,1.180609664916992188e+02,8.011322021484375000e+01,-1.769198303222656250e+02,1.094006195068359375e+02,-4.818671035766601562e+01,-1.818980712890625000e+02,1.958309173583984375e+02,-4.886422729492187500e+01,-1.387077484130859375e+02
3.600000143051147461e-01,2.000000000000000000e+00,-1.671820282936096191e+00,-7.849604606628417969e+00,5.685105514526367188e+01,1.180748367309570312e+02,8.011942291259765625e+01,-1.769092712402343750e+02,1.093594665527343750e+02,-4.817405700683593750e+01,-1.818881378173828125e+02,1.958416748046875000e+02,-4.887670516967773438e+01,-1.387134552001953125e+02
3.639999926090240479e-01,2.000000000000000000e+00,-1.731826782226562500e+00,-7.809788703918457031e+00,5.682280731201171875e+01,1.180886993408203125e+02,8.012562561035156250e+01,-1.768987121582031250e+02,1.093183288574218750e+02,-4.816140365600585938e+01,-1.818782043457031250e+02,1.958524322509765625e+02,-4.888917160034179688e+01,-1.387191467285156250e+02
3.680000007152557373e-01,2.000000000000000000e+00,-1.791816234588623047e+00,-7.769984245300292969e+00,5.679456329345703125e+01,1.181025543212890625e+02,8.013182067871093750e+01,-1.768881530761718750e+02,1.092771987915039062e+02,-4.814875411987304688e+01,-1.818682708740234375e+02,1.958631744384765625e+02,-4.890164184570312500e+01,-1.387248382568359375e+02
3.720000088214874268e-01,2.000000000000000000e+00,-1.851788520812988281e+00,-7.730191230773925781e+00,5.676632690429687500e+01,1.181164169311523438e+02,8.013801574707031250e+01,-1.768776092529296875e+02,1.092360839843750000e+02,-4.813610839843750000e+01,-1.818583526611328125e+02,1.958739318847656250e+02,-4.891410827636718750e+01,-1.387305450439453125e+02
3.759999871253967285e-01,2.000000000000000000e+00,-1.911743760108947754e+00,-7.690409660339355469e+00,5.673810195922851562e+01,1.181302566528320312e+02,8.014420318603515625e+01,-1.768670654296875000e+02,1.091949768066406250e+02,-4.812346267700195312e+01,-1.818484191894531250e+02,1.958846740722656250e+02,-4.892656326293945312e+01,-1.387362213134765625e+02
3.799999952316284180e-01,2.000000000000000000e+00,-1.971681833267211914e+00,-7.650639057159423828e+00,5.670988464355468750e+01,1.181441040039062500e+02,8.015039825439453125e+01,-1.768565216064453125e+02,1.091538925170898438e+02,-4.811082839965820312e+01,-1.818385009765625000e+02,1.958954162597656250e+02,-4.893902206420898438e+01,-1.387419281005859375e+02
3.840000033378601074e-01,2.000000000000000000e+00,-2.031602859497070312e+00,-7.610879898071289062e+00,5.668167495727539062e+01,1.181579437255859375e+02,8.015658569335937500e+01,-1.768459777832031250e+02,1.091128158569335938e+02,-4.809819412231445312e+01,-1.818285827636718750e+02,1.959061584472656250e+02,-4.895147323608398438e+01,-1.387476196289062500e+02
3.880000114440917969e-01,2.000000000000000000e+00,-2.091506719589233398e+00,-7.571131706237792969e+00,5.665347290039062500e+01,1.181717834472656250e+02,8.016277313232421875e+01,-1.768354339599609375e+02,1.090717391967773438e+02,-4.808555984497070312e+01,-1.818186645507812500e+02,1.959168853759765625e+02,-4.896392440795898438e+01,-1.387532958984375000e+02
3.919999897480010986e-01,2.000000000000000000e+00,-2.151393890380859375e+00,-7.531395435333251953e+00,5.662527847290039062e+01,1.181856231689453125e+02,8.016896057128906250e+01,-1.768249053955078125e+02,1.090306854248046875e+02,-4.807292938232421875e+01,-1.818087463378906250e+02,1.959276275634765625e+02,-4.897637176513671875e+01,-1.387589874267578125e+02
3.959999978542327881e-01,2.000000000000000000e+00,-2.211263656616210938e+00,-7.491670131683349609e+00,5.659708786010742188e+01,1.181994476318359375e+02,8.017514801025390625e+01,-1.768143615722656250e+02,1.089896392822265625e+02,-4.806031036376953125e+01,-1.817988433837890625e+02,1.959383544921875000e+02,-4.898881530761718750e+01,-1.387646636962890625e+02
4.000000059604644775e-01,2.000000000000000000e+00,-2.271116733551025391e+00,-7.451956748962402344e+00,5.656891250610351562e+01,1.182132644653320312e+02,8.018132781982421875e+01,-1.768038330078125000e+02,1.089486083984375000e+02,-4.804768753051757812e+01,-1.817889404296875000e+02,1.959490661621093750e+02,-4.900125122070312500e+01,-1.387703552246093750e+02
4.040000140666961670e-01,2.000000000000000000e+00,-2.330952644348144531e+00,-7.412253856658935547e+00,5.654074478149414062e+01,1.182270889282226562e+02,8.018750762939453125e+01,-1.767933044433593750e+02,1.089075851440429688e+02,-4.803507232666015625e+01,-1.817790374755859375e+02,1.959597930908203125e+02,-4.901368713378906250e+01,-1.387760314941406250e+02
4.079999923706054688e-01,2.000000000000000000e+00,-2.390771627426147461e+00,-7.372562408447265625e+00,5.651258087158203125e+01,1.182409057617187500e+02,8.019368743896484375e+01,-1.767827758789062500e+02,1.088665771484375000e+02,-4.802245712280273438e+01,-1.817691345214843750e+02,1.959705200195312500e+02,-4.902612304687500000e+01,-1.387817077636718750e+02
4.120000004768371582e-01,2.000000000000000000e+00,-2.450573444366455078e+00,-7.332882404327392578e+00,5.648442459106445312e+01,1.182547302246093750e+02,8.019986724853515625e+01,-1.767722625732421875e+02,1.088255767822265625e+02,-4.800984573364257812e+01,-1.817592315673828125e+02,1.959812469482421875e+02,-4.903854751586914062e+01,-1.387873992919921875e+02
4.160000085830688477e-01,2.000000000000000000e+00,-2.510358333587646484e+00,-7.293213844299316406e+00,5.645627975463867188e+01,1.182685241699218750e+02,8.020603942871093750e+01,-1.767617340087890625e+02,1.087845916748046875e+02,-4.799724197387695312e+01,-1.817493438720703125e+02,1.959919586181640625e+02,-4.905097198486328125e+01,-1.387930755615234375e+02
4.199999868869781494e-01,2.000000000000000000e+00,-2.570126295089721680e+00,-7.253555774688720703e+00,5.642814254760742188e+01,1.182823333740234375e+02,8.021221160888671875e+01,-1.767512207031250000e+02,1.087436141967773438e+02,-4.798463821411132812e+01,-1.817394409179687500e+02,1.960026550292968750e+02,-4.906339263916015625e+01,-1.387987518310546875e+02
4.239999949932098389e-01,2.000000000000000000e+00,-2.629877328872680664e+00,-7.213909149169921875e+00,5.640001296997070312e+01,1.182961349487304688e+02,8.021838378906250000e+01,-1.767407073974609375e+02,1.087026519775390625e+02,-4.797203826904296875e+01,-1.817295532226562500e+02,1.960133666992187500e+02,-4.907580947875976562e+01,-1.388044128417968750e+02
4.280000030994415283e-01,2.000000000000000000e+00,-2.689611434936523438e+00,-7.174274444580078125e+00,5.637188720703125000e+01,1.183099441528320312e+02,8.022455596923828125e+01,-1.767302093505859375e+02,1.086616973876953125e+02,-4.795944595336914062e+01,-1.817196655273437500e+02,1.960240783691406250e+02,-4.908823013305664062e+01,-1.388101043701171875e+02
4.320000112056732178e-01,2.000000000000000000e+00,-2.749328613281250000e+00,-7.134650707244873047e+00,5.634377288818359375e+01,1.183237228393554688e+02,8.023072052001953125e+01,-1.767196960449218750e+02,1.086207580566406250e+02,-4.794684982299804688e+01,-1.817097778320312500e+02,1.960347747802734375e+02,-4.910063934326171875e+01,-1.388157653808593750e+02
4.359999895095825195e-01,2.000000000000000000e+00,-2.809028863906860352e+00,-7.095037937164306641e+00,5.631567001342773438e+01,1.183375244140625000e+02,8.023689270019531250e+01,-1.767091979980468750e+02,1.085798339843750000e+02,-4.793426132202148438e+01,-1.816999053955078125e+02,1.960454711914062500e+02,-4.911304473876953125e+01,-1.388214416503906250e+02
4.399999976158142090e-01,2.000000000000000000e+00,-2.868712186813354492e+00,-7.055436611175537109e+00,5.628757095336914062e+01,1.183513031005859375e+02,8.024304962158203125e+01,-1.766986846923828125e+02,1.085389099121093750e+02,-4.792167663574218750e+01,-1.816900177001953125e+02,1.960561676025390625e+02,-4.912545013427734375e+01,-1.388271026611328125e+02
4.440000057220458984e-01,2.000000000000000000e+00,-2.928378582000732422e+00,-7.015846252441406250e+00,5.625947952270507812e+01,1.183650894165039062e+02,8.024922180175781250e+01,-1.766881866455078125e+02,1.084980087280273438e+02,-4.790909576416015625e+01,-1.816801452636718750e+02,1.960668640136718750e+02,-4.913785171508789062e+01,-1.388327636718750000e+02
4.480000138282775879e-01,2.000000000000000000e+00,-2.988028049468994141e+00,-6.976267337799072266e+00,5.623139953613281250e+01,1.183788757324218750e+02,8.025537872314453125e+01,-1.766776885986328125e+02,1.084571151733398438e+02,-4.789651870727539062e+01,-1.816702728271484375e+02,1.960775604248046875e+02,-4.915024566650390625e+01,-1.388384246826171875e+02
4.519999921321868896e-01,2.000000000000000000e+00,-3.047660827636718750e+00,-6.936699867248535156e+00,5.620332336425781250e+01,1.183926391601562500e+02,8.026154327392578125e+01,-1.766672058105468750e+02,1.084162292480468750e+02,-4.788394165039062500e+01,-1.816604003906250000e+02,1.960882415771484375e+02,-4.916263961791992188e+01,-1.388441009521484375e+02
4.560000002384185791e-01,2.000000000000000000e+00,-3.107276439666748047e+00,-6.897142887115478516e+00,5.617525482177734375e+01,1.184064102172851562e+02,8.026769256591796875e+01,-1.766567077636718750e+02,1.083753585815429688e+02,-4.787137222290039062e+01,-1.816505432128906250e+02,1.960989227294921875e+02,-4.917502975463867188e+01,-1.388497619628906250e+02
4.600000083446502686e-01,2.000000000000000000e+00,-3.166875362396240234e+00,-6.857597351074218750e+00,5.614719390869140625e+01,1.184201812744140625e+02,8.027384948730468750e+01,-1.766462402343750000e+02,1.083344955444335938e+02,-4.785880661010742188e+01,-1.816406555175781250e+02,1.961096038818359375e+02,-4.918741226196289062e+01,-1.388554077148437500e+02
4.639999866485595703e-01,2.000000000000000000e+00,-3.226457357406616211e+00,-6.818063735961914062e+00,5.611914825439453125e+01,1.184339370727539062e+02,8.027999877929687500e+01,-1.766357421875000000e+02,1.082936553955078125e+02,-4.784624481201171875e+01,-1.816308135986328125e+02,1.961202850341796875e+02,-4.919979476928710938e+01,-1.388610687255859375e+02
4.679999947547912598e-01,2.000000000000000000e+00,-3.286022663116455078e+00,-6.778540134429931641e+00,5.609110260009765625e+01,1.184476928710937500e+02,8.028615570068359375e+01,-1.766252593994140625e+02,1.082528152465820312e+02,-4.783368301391601562e+01,-1.816209411621093750e+02,1.961309661865234375e+02,-4.921217727661132812e+01,-1.388667297363281250e+02
4.720000028610229492e-01,2.000000000000000000e+00,-3.345571041107177734e+00,-6.739028453826904297e+00,5.606306838989257812e+01,1.184614486694335938e+02,8.029231262207031250e+01,-1.766147918701171875e+02,1.082119903564453125e+02,-4.782112503051757812e+01,-1.816110839843750000e+02,1.961416320800781250e+02,-4.922455215454101562e+01,-1.388723754882812500e+02
4.760000109672546387e-01,2.000000000000000000e+00,-3.405102491378784180e+00,-6.699527740478515625e+00,5.603504180908203125e+01,1.184752044677734375e+02,8.029845428466796875e+01,-1.766043090820312500e+02,1.081711730957031250e+02,-4.780857086181640625e+01,-1.816012420654296875e+02,1.961522979736328125e+02,-4.923692703247070312e+01,-1.388780364990234375e+02
4.799999892711639404e-01,2.000000000000000000e+00,-3.464617252349853516e+00,-6.660037994384765625e+00,5.600702285766601562e+01,1.184889450073242188e+02,8.030460357666015625e+01,-1.765938415527343750e+02,1.081303787231445312e+02,-4.779602432250976562e+01,-1.815913848876953125e+02,1.961629638671875000e+02,-4.924929428100585938e+01,-1.388836822509765625e+02
4.839999973773956299e-01,2.000000000000000000e+00,-3.524115324020385742e+00,-6.620559692382812500e+00,5.597901153564453125e+01,1.185026931762695312e+02,8.031075286865234375e+01,-1.765833740234375000e+02,1.080895919799804688e+02,-4.778347778320312500e+01,-1.815815429687500000e+02,1.961736297607421875e+02,-4.926165771484375000e+01,-1.388893432617187500e+02
4.880000054836273193e-01,2.000000000000000000e+00,-3.583596706390380859e+00,-6.581092834472656250e+00,5.595100784301757812e+01,1.185164337158203125e+02,8.031689453125000000e+01,-1.765729064941406250e+02,1.080488052368164062e+02,-4.777093505859375000e+01,-1.815716857910156250e+02,1.961842956542968750e+02,-4.927402114868164062e+01,-1.388949890136718750e+02
4.920000135898590088e-01,2.000000000000000000e+00,-3.643060684204101562e+00,-6.541636466979980469e+00,5.592301177978515625e+01,1.185301742553710938e+02,8.032303619384765625e+01,-1.765624389648437500e+02,1.080080413818359375e+02,-4.775839614868164062e+01,-1.815618438720703125e+02,1.961949462890625000e+02,-4.928638076782226562e+01,-1.389006347656250000e+02
4.959999918937683105e-01,2.000000000000000000e+00,-3.702508449554443359e+00,-6.502191066741943359e+00,5.589502334594726562e+01,1.185439071655273438e+02,8.032917785644531250e+01,-1.765519866943359375e+02,1.079672851562500000e+02,-4.774586105346679688e+01,-1.815520019531250000e+02,1.962055969238281250e+02,-4.929873657226562500e+01,-1.389062805175781250e+02
5.000000000000000000e-01,2.000000000000000000e+00,-3.761939287185668945e+00,-6.462757587432861328e+00,5.586704635620117188e+01,1.185576324462890625e+02,8.033531188964843750e+01,-1.765415344238281250e+02,1.079265365600585938e+02,-4.773332977294921875e+01,-1.815421752929687500e+02,1.962162628173828125e+02,-4.931108474731445312e+01,-1.389119262695312500e+02
5.040000081062316895e-01,2.000000000000000000e+00,-3.821353435516357422e+00,-6.423334598541259766e+00,5.583907318115234375e+01,1.185713500976562500e+02,8.034145355224609375e+01,-1.765310821533203125e+02,1.078858108520507812e+02,-4.772080230712890625e+01,-1.815323333740234375e+02,1.962268981933593750e+02,-4.932343292236328125e+01,-1.389175720214843750e+02
5.080000162124633789e-01,2.000000000000000000e+00,-3.880750894546508789e+00,-6.383922576904296875e+00,5.581110763549804688e+01,1.185850753784179688e+02,8.034758758544921875e+01,-1.765206298828125000e+02,1.078450851440429688e+02,-4.770827865600585938e+01,-1.815224914550781250e+02,1.962375488281250000e+02,-4.933577346801757812e+01,-1.389232025146484375e+02
5.120000243186950684e-01,2.000000000000000000e+00,-3.940131664276123047e+00,-6.344522476196289062e+00,5.578315353393554688e+01,1.185987930297851562e+02,8.035372161865234375e+01,-1.765101776123046875e+02,1.078043823242187500e+02,-4.769575500488281250e+01,-1.815126800537109375e+02,1.962481994628906250e+02,-4.934811782836914062e+01,-1.389288482666015625e+02
5.159999728202819824e-01,2.000000000000000000e+00,-3.999495744705200195e+00,-6.305132389068603516e+00,5.575520706176757812e+01,1.186125030517578125e+02,8.035985565185546875e+01,-1.764997253417968750e+02,1.077636795043945312e+02,-4.768323898315429688e+01,-1.815028381347656250e+02,1.962588195800781250e+02,-4.936045455932617188e+01,-1.389344787597656250e+02
5.199999809265136719e-01,2.000000000000000000e+00,-4.058843135833740234e+00,-6.265754222869873047e+00,5.572726440429687500e+01,1.186262054443359375e+02,8.036598205566406250e+01,-1.764892883300781250e+02,1.077229919433593750e+02,-4.767072677612304688e+01,-1.814930114746093750e+02,1.962694702148437500e+02,-4.937278747558593750e+01,-1.389401245117187500e+02
5.239999890327453613e-01,2.000000000000000000e+00,-4.118173599243164062e+00,-6.226387023925781250e+00,5.569933319091796875e+01,1.186399078369140625e+02,8.037211608886718750e+01,-1.764788513183593750e+02,1.076823196411132812e+02,-4.765821075439453125e+01,-1.814832000732421875e+02,1.962800903320312500e+02,-4.938512039184570312e+01,-1.389457550048828125e+02
5.279999971389770508e-01,2.000000000000000000e+00,-4.177487373352050781e+00,-6.187030315399169922e+00,5.567140579223632812e+01,1.186536102294921875e+02,8.037823486328125000e+01,-1.764684143066406250e+02,1.076416549682617188e+02,-4.764570617675781250e+01,-1.814733886718750000e+02,1.962907257080078125e+02,-4.939744567871093750e+01,-1.389513702392578125e+02
5.320000052452087402e-01,2.000000000000000000e+00,-4.236784934997558594e+00,-6.147685050964355469e+00,5.564349365234375000e+01,1.186673126220703125e+02,8.038436126708984375e+01,-1.764579772949218750e+02,1.076009979248046875e+02,-4.763320541381835938e+01,-1.814635620117187500e+02,1.963013610839843750e+02,-4.940977096557617188e+01,-1.389570159912109375e+02
5.360000133514404297e-01,2.000000000000000000e+00,-4.296065330505371094e+00,-6.108350753784179688e+00,5.561558532714843750e+01,1.186810150146484375e+02,8.039048767089843750e+01,-1.764475555419921875e+02,1.075603561401367188e+02,-4.762070465087890625e+01,-1.814537658691406250e+02,1.963119812011718750e+02,-4.942208862304687500e+01,-1.389626464843750000e+02
5.400000214576721191e-01,2.000000000000000000e+00,-4.355329513549804688e+00,-6.069027900695800781e+00,5.558768463134765625e+01,1.186947021484375000e+02,8.039660644531250000e+01,-1.764371185302734375e+02,1.075197296142578125e+02,-4.760820388793945312e+01,-1.814439544677734375e+02,1.963226013183593750e+02,-4.943440628051757812e+01,-1.389682769775390625e+02
5.440000295639038086e-01,2.000000000000000000e+00,-4.414576530456542969e+00,-6.029716014862060547e+00,5.555978775024414062e+01,1.187083740234375000e+02,8.040272521972656250e+01,-1.764266967773437500e+02,1.074791107177734375e+02,-4.759571456909179688e+01,-1.814341430664062500e+02,1.963332214355468750e+02,-4.944672012329101562e+01,-1.389739074707031250e+02
5.479999780654907227e-01,2.000000000000000000e+00,-4.473807334899902344e+00,-5.990414619445800781e+00,5.553190612792968750e+01,1.187220611572265625e+02,8.040884399414062500e+01,-1.764162750244140625e+02,1.074385070800781250e+02,-4.758322525024414062e+01,-1.814243316650390625e+02,1.963438262939453125e+02,-4.945903015136718750e+01,-1.389795227050781250e+02
5.519999861717224121e-01,2.000000000000000000e+00,-4.533020973205566406e+00,-5.951124668121337891e+00,5.550402832031250000e+01,1.187357330322265625e+02,8.041496276855468750e+01,-1.764058685302734375e+02,1.073979110717773438e+02,-4.757073974609375000e+01,-1.814145355224609375e+02,1.963544464111328125e+02,-4.947133255004882812e+01,-1.389851379394531250e+02
5.559999942779541016e-01,2.000000000000000000e+00,-4.592218875885009766e+00,-5.911845684051513672e+00,5.547615814208984375e+01,1.187494125366210938e+02,8.042107391357421875e+01,-1.763954467773437500e+02,1.073573226928710938e+02,-4.755825424194335938e+01,-1.814047241210937500e+02,1.963650512695312500e+02,-4.948363876342773438e+01,-1.389907531738281250e+02
5.600000023841857910e-01,2.000000000000000000e+00,-4.651400089263916016e+00,-5.872577667236328125e+00,5.544829177856445312e+01,1.187630844116210938e+02,8.042718505859375000e+01,-1.763850402832031250e+02,1.073167495727539062e+02,-4.754577636718750000e+01,-1.813949432373046875e+02,1.963756561279296875e+02,-4.949593734741210938e+01,-1.389963836669921875e+02
5.640000104904174805e-01,2.000000000000000000e+00,-4.710563659667968750e+00,-5.833320617675781250e+00,5.542044067382812500e+01,1.187767486572265625e+02,8.043329620361328125e+01,-1.763746185302734375e+02,1.072761917114257812e+02,-4.753330230712890625e+01,-1.813851470947265625e+02,1.963862609863281250e+02,-4.950823593139648438e+01,-1.390019989013671875e+02
5.680000185966491699e-01,2.000000000000000000e+00,-4.769711494445800781e+00,-5.794074535369873047e+00,5.539259338378906250e+01,1.187904205322265625e+02,8.043941497802734375e+01,-1.763642120361328125e+02,1.072356414794921875e+02,-4.752082824707031250e+01,-1.813753509521484375e+02,1.963968658447265625e+02,-4.952052307128906250e+01,-1.390076141357421875e+02
5.720000267028808594e-01,2.000000000000000000e+00,-4.828842639923095703e+00,-5.754839420318603516e+00,5.536475753784179688e+01,1.188040695190429688e+02,8.044551849365234375e+01,-1.763538055419921875e+02,1.071950988769531250e+02,-4.750836181640625000e+01,-1.813655700683593750e+02,1.964074554443359375e+02,-4.953281402587890625e+01,-1.390132293701171875e+02
5.759999752044677734e-01,2.000000000000000000e+00,-4.887957572937011719e+00,-5.715615272521972656e+00,5.533692550659179688e+01,1.188177261352539062e+02,8.045162200927734375e+01,-1.763434143066406250e+02,1.071545791625976562e+02,-4.749589538574218750e+01,-1.813557891845703125e+02,1.964180450439453125e+02,-4.954510116577148438e+01,-1.390188446044921875e+02
5.799999833106994629e-01,2.000000000000000000e+00,-4.947055339813232422e+00,-5.676402091979980469e+00,5.530910110473632812e+01,1.188313751220703125e+02,8.045772552490234375e+01,-1.763330078125000000e+02,1.071140594482421875e+02,-4.748343658447265625e+01,-1.813460083007812500e+02,1.964286499023437500e+02,-4.955738449096679688e+01,-1.390244598388671875e+02
5.839999914169311523e-01,2.000000000000000000e+00,-5.006136894226074219e+00,-5.637200355529785156e+00,5.528128814697265625e+01,1.188450164794921875e+02,8.046382904052734375e+01,-1.763226165771484375e+02,1.070735549926757812e+02,-4.747097778320312500e+01,-1.813362274169921875e+02,1.964392395019531250e+02,-4.956966018676757812e+01,-1.390300750732421875e+02
5.879999995231628418e-01,2.000000000000000000e+00,-5.065201759338378906e+00,-5.598009109497070312e+00,5.525347900390625000e+01,1.188586654663085938e+02,8.046993255615234375e+01,-1.763122253417968750e+02,1.070330581665039062e+02,-4.745852279663085938e+01,-1.813264465332031250e+02,1.964498138427734375e+02,-4.958193588256835938e+01,-1.390356750488281250e+02
5.920000076293945312e-01,2.000000000000000000e+00,-5.124250411987304688e+00,-5.558828830718994141e+00,5.522568130493164062e+01,1.188723144531250000e+02,8.047602844238281250e+01,-1.763018493652343750e+02,1.069925765991210938e+02,-4.744607162475585938e+01,-1.813166656494140625e+02,1.964603881835937500e+02,-4.959420776367187500e+01,-1.390412902832031250e+02
5.960000157356262207e-01,2.000000000000000000e+00,-5.183282375335693359e+00,-5.519659519195556641e+00,5.519788742065429688e+01,1.188859481811523438e+02,8.048212432861328125e+01,-1.762914428710937500e+02,1.069521102905273438e+02,-4.743362045288085938e+01,-1.813069000244140625e+02,1.964709777832031250e+02,-4.960647583007812500e+01,-1.390468902587890625e+02
6.000000238418579102e-01,2.000000000000000000e+00,-5.242298126220703125e+00,-5.480501174926757812e+00,5.517010116577148438e+01,1.188995819091796875e+02,8.048822021484375000e+01,-1.762810668945312500e+02,1.069116439819335938e+02,-4.742117691040039062e+01,-1.812971343994140625e+02,1.964815521240234375e+02,-4.961874389648437500e+01,-1.390524902343750000e+02
6.039999723434448242e-01,2.000000000000000000e+00,-5.301297187805175781e+00,-5.441353797912597656e+00,5.514232635498046875e+01,1.189132003784179688e+02,8.049431610107421875e+01,-1.762706756591796875e+02,1.068712005615234375e+02,-4.740873718261718750e+01,-1.812873687744140625e+02,1.964921264648437500e+02,-4.963100433349609375e+01,-1.390581054687500000e+02
6.079999804496765137e-01,2.000000000000000000e+00,-5.360279560089111328e+00,-5.402217388153076172e+00,5.511455917358398438e+01,1.189268341064453125e+02,8.050040435791015625e+01,-1.762602996826171875e+02,1.068307647705078125e+02,-4.739629745483398438e+01,-1.812775878906250000e+02,1.965027008056640625e+02,-4.964326095581054688e+01,-1.390637054443359375e+02
6.119999885559082031e-01,2.000000000000000000e+00,-5.419245243072509766e+00,-5.363091945648193359e+00,5.508679962158203125e+01,1.189404525756835938e+02,8.050650024414062500e+01,-1.762499389648437500e+02,1.067903366088867188e+02,-4.738386917114257812e+01,-1.812678375244140625e+02,1.965132598876953125e+02,-4.965551757812500000e+01,-1.390692901611328125e+02
6.159999966621398926e-01,2.000000000000000000e+00,-5.478195190429687500e+00,-5.323976993560791016e+00,5.505904769897460938e+01,1.189540557861328125e+02,8.051258850097656250e+01,-1.762395629882812500e+02,1.067499237060546875e+02,-4.737143707275390625e+01,-1.812580871582031250e+02,1.965238342285156250e+02,-4.966776657104492188e+01,-1.390748901367187500e+02
6.200000047683715820e-01,2.000000000000000000e+00,-5.537127971649169922e+00,-5.284873485565185547e+00,5.503129959106445312e+01,1.189676742553710938e+02,8.051867675781250000e+01,-1.762292022705078125e+02,1.067095184326171875e+02,-4.735900878906250000e+01,-1.812483215332031250e+02,1.965343933105468750e+02,-4.968001556396484375e+01,-1.390804901123046875e+02
6.240000128746032715e-01,2.000000000000000000e+00,-5.596045017242431641e+00,-5.245780944824218750e+00,5.500356292724609375e+01,1.189812850952148438e+02,8.052476501464843750e+01,-1.762188262939453125e+02,1.066691284179687500e+02,-4.734658432006835938e+01,-1.812385864257812500e+02,1.965449523925781250e+02,-4.969226074218750000e+01,-1.390860900878906250e+02
6.280000209808349609e-01,2.000000000000000000e+00,-5.654945373535156250e+00,-5.206698894500732422e+00,5.497583007812500000e+01,1.189948883056640625e+02,8.053084564208984375e+01,-1.762084655761718750e+02,1.066287460327148438e+02,-4.733416748046875000e+01,-1.812288208007812500e+02,1.965555114746093750e+02,-4.970449829101562500e+01,-1.390916748046875000e+02
6.320000290870666504e-01,2.000000000000000000e+00,-5.713829517364501953e+00,-5.167628288269042969e+00,5.494811248779296875e+01,1.190084915161132812e+02,8.053692626953125000e+01,-1.761981048583984375e+02,1.065883789062500000e+02,-4.732175064086914062e+01,-1.812190704345703125e+02,1.965660552978515625e+02,-4.971673965454101562e+01,-1.390972747802734375e+02
6.359999775886535645e-01,2.000000000000000000e+00,-5.772697448730468750e+00,-5.128568172454833984e+00,5.492039871215820312e+01,1.190220870971679688e+02,8.054300689697265625e+01,-1.761877441406250000e+02,1.065480194091796875e+02,-4.730933761596679688e+01,-1.812093353271484375e+02,1.965765991210937500e+02,-4.972897338867187500e+01,-1.391028594970703125e+02
6.399999856948852539e-01,2.000000000000000000e+00,-5.831548690795898438e+00,-5.089519023895263672e+00,5.489269256591796875e+01,1.190356750488281250e+02,8.054908752441406250e+01,-1.761773834228515625e+02,1.065076751708984375e+02,-4.729692459106445312e+01,-1.811996002197265625e+02,1.965871582031250000e+02,-4.974120330810546875e+01,-1.391084594726562500e+02
6.439999938011169434e-01,2.000000000000000000e+00,-5.890383243560791016e+00,-5.050480365753173828e+00,5.486499023437500000e+01,1.190492706298828125e+02,8.055516052246093750e+01,-1.761670379638671875e+02,1.064673385620117188e+02,-4.728452301025390625e+01,-1.811898498535156250e+02,1.965977020263671875e+02,-4.975342941284179688e+01,-1.391140441894531250e+02
6.480000019073486328e-01,2.000000000000000000e+00,-5.949202060699462891e+00,-5.011452198028564453e+00,5.483729934692382812e+01,1.190628585815429688e+02,8.056124114990234375e+01,-1.761566925048828125e+02,1.064270172119140625e+02,-4.727211761474609375e+01,-1.811801147460937500e+02,1.966082458496093750e+02,-4.976565551757812500e+01,-1.391196136474609375e+02
6.520000100135803223e-01,2.000000000000000000e+00,-6.008004188537597656e+00,-4.972435474395751953e+00,5.480961608886718750e+01,1.190764389038085938e+02,8.056731414794921875e+01,-1.761463470458984375e+02,1.063867034912109375e+02,-4.725971984863281250e+01,-1.811703948974609375e+02,1.966187896728515625e+02,-4.977787780761718750e+01,-1.391251983642578125e+02
6.560000181198120117e-01,2.000000000000000000e+00,-6.066791057586669922e+00,-4.933429241180419922e+00,5.478194046020507812e+01,1.190900192260742188e+02,8.057338714599609375e+01,-1.761360015869140625e+02,1.063464050292968750e+02,-4.724732589721679688e+01,-1.811606445312500000e+02,1.966293182373046875e+02,-4.979009246826171875e+01,-1.391307983398437500e+02
6.600000262260437012e-01,2.000000000000000000e+00,-6.125560760498046875e+00,-4.894433975219726562e+00,5.475426864624023438e+01,1.191035995483398438e+02,8.057946014404296875e+01,-1.761256713867187500e+02,1.063061141967773438e+02,-4.723493194580078125e+01,-1.811509246826171875e+02,1.966398468017578125e+02,-4.980230712890625000e+01,-1.391363677978515625e+02
6.639999747276306152e-01,2.000000000000000000e+00,-6.184314727783203125e+00,-4.855449199676513672e+00,5.472661209106445312e+01,1.191171646118164062e+02,8.058552551269531250e+01,-1.761153259277343750e+02,1.062658309936523438e+02,-4.722254180908203125e+01,-1.811411895751953125e+02,1.966503753662109375e+02,-4.981451797485351562e+01,-1.391419525146484375e+02
6.679999828338623047e-01,2.000000000000000000e+00,-6.243052005767822266e+00,-4.816475391387939453e+00,5.469895553588867188e+01,1.191307373046875000e+02,8.059159088134765625e+01,-1.761049804687500000e+02,1.062255630493164062e+02,-4.721015930175781250e+01,-1.811314849853515625e+02,1.966609039306640625e+02,-4.982672119140625000e+01,-1.391475219726562500e+02
6.719999909400939941e-01,2.000000000000000000e+00,-6.301774024963378906e+00,-4.777512073516845703e+00,5.467131042480468750e+01,1.191443023681640625e+02,8.059765625000000000e+01,-1.760946502685546875e+02,1.061853027343750000e+02,-4.719777679443359375e+01,-1.811217498779296875e+02,1.966714324951171875e+02,-4.983892822265625000e+01,-1.391530914306640625e+02
6.759999990463256836e-01,2.000000000000000000e+00,-6.360479354858398438e+00,-4.738559246063232422e+00,5.464367675781250000e+01,1.191578598022460938e+02,8.060372161865234375e+01,-1.760843353271484375e+02,1.061450576782226562e+02,-4.718539428710937500e+01,-1.811120452880859375e+02,1.966819458007812500e+02,-4.985112762451171875e+01,-1.391586761474609375e+02
6.800000071525573730e-01,2.000000000000000000e+00,-6.419168472290039062e+00,-4.699617385864257812e+00,5.461604309082031250e+01,1.191714172363281250e+02,8.060978698730468750e+01,-1.760740051269531250e+02,1.061048278808593750e+02,-4.717302322387695312e+01,-1.811023254394531250e+02,1.966924743652343750e+02,-4.986332702636718750e+01,-1.391642456054687500e+02
6.840000152587890625e-01,2.000000000000000000e+00,-6.477841854095458984e+00,-4.660686492919921875e+00,5.458842086791992188e+01,1.191849746704101562e+02,8.061584472656250000e+01,-1.760636749267578125e+02,1.060645980834960938e+02,-4.716064834594726562e+01,-1.810926208496093750e+02,1.967029724121093750e+02,-4.987551879882812500e+01,-1.391698150634765625e+02
6.880000233650207520e-01,2.000000000000000000e+00,-6.536499023437500000e+00,-4.621765613555908203e+00,5.456080627441406250e+01,1.191985244750976562e+02,8.062190246582031250e+01,-1.760533599853515625e+02,1.060243835449218750e+02,-4.714828109741210938e+01,-1.810829010009765625e+02,1.967135009765625000e+02,-4.988771057128906250e+01,-1.391753997802734375e+02
6.919999718666076660e-01,2.000000000000000000e+00,-6.595140457153320312e+00,-4.582855701446533203e+00,5.453319931030273438e+01,1.192120590209960938e+02,8.062796020507812500e+01,-1.760430297851562500e+02,1.059841842651367188e+02,-4.713591384887695312e+01,-1.810731964111328125e+02,1.967239990234375000e+02,-4.989989852905273438e+01,-1.391809692382812500e+02
6.959999799728393555e-01,2.000000000000000000e+00,-6.653765678405761719e+00,-4.543956756591796875e+00,5.450559616088867188e+01,1.192256011962890625e+02,8.063401031494140625e+01,-1.760327148437500000e+02,1.059439849853515625e+02,-4.712355422973632812e+01,-1.810634918212890625e+02,1.967344970703125000e+02,-4.991207885742187500e+01,-1.391865234375000000e+02
6.999999880790710449e-01,2.000000000000000000e+00,-6.712374687194824219e+00,-4.505067825317382812e+00,5.447800445556640625e+01,1.192391357421875000e+02,8.064006805419921875e+01,-1.760224151611328125e+02,1.059038085937500000e+02,-4.711119461059570312e+01,-1.810538024902343750e+02,1.967450103759765625e+02,-4.992425918579101562e+01,-1.391920928955078125e+02
7.039999961853027344e-01,2.000000000000000000e+00,-6.770967483520507812e+00,-4.466189384460449219e+00,5.445042037963867188e+01,1.192526702880859375e+02,8.064611816406250000e+01,-1.760121002197265625e+02,1.058636398315429688e+02,-4.709883880615234375e+01,-1.810440979003906250e+02,1.967555084228515625e+02,-4.993643951416015625e+01,-1.391976623535156250e+02
7.080000042915344238e-01,2.000000000000000000e+00,-6.829545021057128906e+00,-4.427321910858154297e+00,5.442284393310546875e+01,1.192662124633789062e+02,8.065217590332031250e+01,-1.760017852783203125e+02,1.058234786987304688e+02,-4.708648681640625000e+01,-1.810343933105468750e+02,1.967660064697265625e+02,-4.994861221313476562e+01,-1.392032165527343750e+02
7.120000123977661133e-01,2.000000000000000000e+00,-6.888106346130371094e+00,-4.388464927673339844e+00,5.439527130126953125e+01,1.192797317504882812e+02,8.065821838378906250e+01,-1.759914855957031250e+02,1.057833328247070312e+02,-4.707413864135742188e+01,-1.810247039794921875e+02,1.967765045166015625e+02,-4.996078109741210938e+01,-1.392087707519531250e+02
7.160000205039978027e-01,2.000000000000000000e+00,-6.946651935577392578e+00,-4.349617958068847656e+00,5.436771011352539062e+01,1.192932586669921875e+02,8.066426849365234375e+01,-1.759811859130859375e+02,1.057431945800781250e+02,-4.706179809570312500e+01,-1.810150146484375000e+02,1.967870025634765625e+02,-4.997294998168945312e+01,-1.392143402099609375e+02
7.200000286102294922e-01,2.000000000000000000e+00,-7.005181789398193359e+00,-4.310781955718994141e+00,5.434015274047851562e+01,1.193067779541015625e+02,8.067031097412109375e+01,-1.759708862304687500e+02,1.057030639648437500e+02,-4.704945373535156250e+01,-1.810053253173828125e+02,1.967974853515625000e+02,-4.998511505126953125e+01,-1.392198944091796875e+02
7.239999771118164062e-01,2.000000000000000000e+00,-7.063695430755615234e+00,-4.271956920623779297e+00,5.431260681152343750e+01,1.193202896118164062e+02,8.067636108398437500e+01,-1.759605865478515625e+02,1.056629562377929688e+02,-4.703711700439453125e+01,-1.809956512451171875e+02,1.968079681396484375e+02,-4.999727630615234375e+01,-1.392254638671875000e+02
7.279999852180480957e-01,2.000000000000000000e+00,-7.122193336486816406e+00,-4.233141899108886719e+00,5.428506851196289062e+01,1.193338012695312500e+02,8.068239593505859375e+01,-1.759503021240234375e+02,1.056228485107421875e+02,-4.702478027343750000e+01,-1.809859619140625000e+02,1.968184661865234375e+02,-5.000943374633789062e+01,-1.392310028076171875e+02
7.319999933242797852e-01,2.000000000000000000e+00,-7.180675983428955078e+00,-4.194337368011474609e+00,5.425753021240234375e+01,1.193473129272460938e+02,8.068843841552734375e+01,-1.759400177001953125e+02,1.055827560424804688e+02,-4.701244735717773438e+01,-1.809762725830078125e+02,1.968289337158203125e+02,-5.002158355712890625e+01,-1.392365570068359375e+02
7.360000014305114746e-01,2.000000000000000000e+00,-7.239142417907714844e+00,-4.155542850494384766e+00,5.423000717163085938e+01,1.193608245849609375e+02,8.069448089599609375e+01,-1.759297332763671875e+02,1.055426712036132812e+02,-4.700012207031250000e+01,-1.809665985107421875e+02,1.968394165039062500e+02,-5.003373336791992188e+01,-1.392421112060546875e+02
7.400000095367431641e-01,2.000000000000000000e+00,-7.297592639923095703e+00,-4.116759300231933594e+00,5.420249176025390625e+01,1.193743209838867188e+02,8.070051574707031250e+01,-1.759194488525390625e+02,1.055026016235351562e+02,-4.698779678344726562e+01,-1.809569244384765625e+02,1.968498992919921875e+02,-5.004588317871093750e+01,-1.392476654052734375e+02
7.440000176429748535e-01,2.000000000000000000e+00,-7.356027603149414062e+00,-4.077986240386962891e+00,5.417497634887695312e+01,1.193878173828125000e+02,8.070655059814453125e+01,-1.759091644287109375e+02,1.054625396728515625e+02,-4.697547531127929688e+01,-1.809472503662109375e+02,1.968603515625000000e+02,-5.005802917480468750e+01,-1.392532196044921875e+02
7.480000257492065430e-01,2.000000000000000000e+00,-7.414446830749511719e+00,-4.039223194122314453e+00,5.414747238159179688e+01,1.194013137817382812e+02,8.071258544921875000e+01,-1.758988952636718750e+02,1.054224853515625000e+02,-4.696315383911132812e+01,-1.809375915527343750e+02,1.968708343505859375e+02,-5.007017135620117188e+01,-1.392587585449218750e+02
7.519999742507934570e-01,2.000000000000000000e+00,-7.472850322723388672e+00,-4.000471115112304688e+00,5.411997604370117188e+01,1.194148101806640625e+02,8.071861267089843750e+01,-1.758886108398437500e+02,1.053824539184570312e+02,-4.695083999633789062e+01,-1.809279174804687500e+02,1.968813018798828125e+02,-5.008230972290039062e+01,-1.392643127441406250e+02
7.559999823570251465e-01,2.000000000000000000e+00,-7.531238079071044922e+00,-3.961729288101196289e+00,5.409249114990234375e+01,1.194282913208007812e+02,8.072464752197265625e+01,-1.758783416748046875e+02,1.053424148559570312e+02,-4.693852996826171875e+01,-1.809182434082031250e+02,1.968917694091796875e+02,-5.009444046020507812e+01,-1.392698516845703125e+02
7.599999904632568359e-01,2.000000000000000000e+00,-7.589609622955322266e+00,-3.922998189926147461e+00,5.406501007080078125e+01,1.194417724609375000e+02,8.073068237304687500e+01,-1.758680725097656250e+02,1.053023986816406250e+02,-4.692621994018554688e+01,-1.809085845947265625e+02,1.969022216796875000e+02,-5.010657119750976562e+01,-1.392754058837890625e+02
7.639999985694885254e-01,2.000000000000000000e+00,-7.647965908050537109e+00,-3.884276866912841797e+00,5.403753280639648438e+01,1.194552536010742188e+02,8.073670196533203125e+01,-1.758578033447265625e+02,1.052623977661132812e+02,-4.691391372680664062e+01,-1.808989257812500000e+02,1.969126892089843750e+02,-5.011870193481445312e+01,-1.392809295654296875e+02
7.680000066757202148e-01,2.000000000000000000e+00,-7.706305980682373047e+00,-3.845566511154174805e+00,5.401007080078125000e+01,1.194687271118164062e+02,8.074273681640625000e+01,-1.758475341796875000e+02,1.052223968505859375e+02,-4.690161132812500000e+01,-1.808892669677734375e+02,1.969231414794921875e+02,-5.013082504272460938e+01,-1.392864837646484375e+02
7.720000147819519043e-01,2.000000000000000000e+00,-7.764631748199462891e+00,-3.806866645812988281e+00,5.398260879516601562e+01,1.194821929931640625e+02,8.074875640869140625e+01,-1.758372650146484375e+02,1.051824111938476562e+02,-4.688931274414062500e+01,-1.808796081542968750e+02,1.969335937500000000e+02,-5.014294815063476562e+01,-1.392920074462890625e+02
7.760000228881835938e-01,2.000000000000000000e+00,-7.822940349578857422e+00,-3.768176555633544922e+00,5.395515823364257812e+01,1.194956665039062500e+02,8.075477600097656250e+01,-1.758270111083984375e+02,1.051424407958984375e+02,-4.687701797485351562e+01,-1.808699645996093750e+02,1.969440460205078125e+02,-5.015506744384765625e+01,-1.392975616455078125e+02
7.799999713897705078e-01,2.000000000000000000e+00,-7.881234169006347656e+00,-3.729497671127319336e+00,5.392771530151367188e+01,1.195091323852539062e+02,8.076080322265625000e+01,-1.758167572021484375e+02,1.051024703979492188e+02,-4.686472702026367188e+01,-1.808603057861328125e+02,1.969544830322265625e+02,-5.016717910766601562e+01,-1.393030853271484375e+02
7.839999794960021973e-01,2.000000000000000000e+00,-7.939511775970458984e+00,-3.690828561782836914e+00,5.390027618408203125e+01,1.195225982666015625e+02,8.076681518554687500e+01,-1.758065032958984375e+02,1.050625152587890625e+02,-4.685243606567382812e+01,-1.808506622314453125e+02,1.969649200439453125e+02,-5.017929458618164062e+01,-1.393086242675781250e+02
7.879999876022338867e-01,2.000000000000000000e+00,-7.997773170471191406e+00,-3.652170181274414062e+00,5.387284851074218750e+01,1.195360565185546875e+02,8.077283477783203125e+01,-1.757962646484375000e+02,1.050225753784179688e+02,-4.684015274047851562e+01,-1.808410186767578125e+02,1.969753723144531250e+02,-5.019139862060546875e+01,-1.393141479492187500e+02
7.919999957084655762e-01,2.000000000000000000e+00,-8.056019783020019531e+00,-3.613521814346313477e+00,5.384542846679687500e+01,1.195495147705078125e+02,8.077885437011718750e+01,-1.757859954833984375e+02,1.049826431274414062e+02,-4.682786941528320312e+01,-1.808313751220703125e+02,1.969858093261718750e+02,-5.020350646972656250e+01,-1.393196868896484375e+02
7.960000038146972656e-01,2.000000000000000000e+00,-8.114250183105468750e+00,-3.574884414672851562e+00,5.381801223754882812e+01,1.195629577636718750e+02,8.078486633300781250e+01,-1.757757568359375000e+02,1.049427261352539062e+02,-4.681559371948242188e+01,-1.808217468261718750e+02,1.969962463378906250e+02,-5.021560668945312500e+01,-1.393252258300781250e+02
8.000000119209289551e-01,2.000000000000000000e+00,-8.172465324401855469e+00,-3.536256790161132812e+00,5.379060745239257812e+01,1.195764083862304688e+02,8.079087829589843750e+01,-1.757655029296875000e+02,1.049028091430664062e+02,-4.680331802368164062e+01,-1.808121032714843750e+02,1.970066833496093750e+02,-5.022770690917968750e+01,-1.393307342529296875e+02
8.040000200271606445e-01,2.000000000000000000e+00,-8.230665206909179688e+00,-3.497639894485473633e+00,5.376320648193359375e+01,1.195898513793945312e+02,8.079689025878906250e+01,-1.757552795410156250e+02,1.048629150390625000e+02,-4.679104614257812500e+01,-1.808024749755859375e+02,1.970171051025390625e+02,-5.023980331420898438e+01,-1.393362731933593750e+02
8.080000281333923340e-01,2.000000000000000000e+00,-8.288848876953125000e+00,-3.459033250808715820e+00,5.373580932617187500e+01,1.196032943725585938e+02,8.080290222167968750e+01,-1.757450256347656250e+02,1.048230209350585938e+02,-4.677877807617187500e+01,-1.807928466796875000e+02,1.970275268554687500e+02,-5.025189590454101562e+01,-1.393417968750000000e+02
8.119999766349792480e-01,2.000000000000000000e+00,-8.347017288208007812e+00,-3.420436859130859375e+00,5.370842742919921875e+01,1.196167221069335938e+02,8.080891418457031250e+01,-1.757348022460937500e+02,1.047831420898437500e+02,-4.676651000976562500e+01,-1.807832183837890625e+02,1.970379638671875000e+02,-5.026398086547851562e+01,-1.393473205566406250e+02
8.159999847412109375e-01,2.000000000000000000e+00,-8.405170440673828125e+00,-3.381850957870483398e+00,5.368104934692382812e+01,1.196301498413085938e+02,8.081491851806640625e+01,-1.757245635986328125e+02,1.047432708740234375e+02,-4.675424575805664062e+01,-1.807735900878906250e+02,1.970483856201171875e+02,-5.027606582641601562e+01,-1.393528442382812500e+02
8.199999928474426270e-01,2.000000000000000000e+00,-8.463307380676269531e+00,-3.343275308609008789e+00,5.365367889404296875e+01,1.196435928344726562e+02,8.082092285156250000e+01,-1.757143402099609375e+02,1.047034225463867188e+02,-4.674198913574218750e+01,-1.807639617919921875e+02,1.970588073730468750e+02,-5.028815078735351562e+01,-1.393583526611328125e+02
8.240000009536743164e-01,2.000000000000000000e+00,-8.521429061889648438e+00,-3.304710149765014648e+00,5.362631607055664062e+01,1.196570053100585938e+02,8.082691955566406250e+01,-1.757041168212890625e+02,1.046635742187500000e+02,-4.672973251342773438e+01,-1.807543487548828125e+02,1.970692291259765625e+02,-5.030022811889648438e+01,-1.393638763427734375e+02
8.280000090599060059e-01,2.000000000000000000e+00,-8.579534530639648438e+00,-3.266155242919921875e+00,5.359896087646484375e+01,1.196704330444335938e+02,8.083292388916015625e+01,-1.756938934326171875e+02,1.046237335205078125e+02,-4.671747970581054688e+01,-1.807447357177734375e+02,1.970796356201171875e+02,-5.031230545043945312e+01,-1.393694000244140625e+02
8.320000171661376953e-01,2.000000000000000000e+00,-8.637625694274902344e+00,-3.227610588073730469e+00,5.357160949707031250e+01,1.196838455200195312e+02,8.083892822265625000e+01,-1.756836700439453125e+02,1.045839157104492188e+02,-4.670523452758789062e+01,-1.807351074218750000e+02,1.970900421142578125e+02,-5.032437896728515625e+01,-1.393749084472656250e+02
8.360000252723693848e-01,2.000000000000000000e+00,-8.695699691772460938e+00,-3.189076423645019531e+00,5.354426956176757812e+01,1.196972656250000000e+02,8.084492492675781250e+01,-1.756734466552734375e+02,1.045440902709960938e+02,-4.669298553466796875e+01,-1.807254943847656250e+02,1.971004486083984375e+02,-5.033644866943359375e+01,-1.393804321289062500e+02
8.399999737739562988e-01,2.000000000000000000e+00,-8.753759384155273438e+00,-3.150552511215209961e+00,5.351693725585937500e+01,1.197106781005859375e+02,8.085092163085937500e+01,-1.756632385253906250e+02,1.045042953491210938e+02,-4.668074417114257812e+01,-1.807158966064453125e+02,1.971108551025390625e+02,-5.034851455688476562e+01,-1.393859405517578125e+02
8.439999818801879883e-01,2.000000000000000000e+00,-8.811802864074707031e+00,-3.112038612365722656e+00,5.348960876464843750e+01,1.197240753173828125e+02,8.085691833496093750e+01,-1.756530303955078125e+02,1.044645004272460938e+02,-4.666850280761718750e+01,-1.807062835693359375e+02,1.971212615966796875e+02,-5.036057662963867188e+01,-1.393914642333984375e+02
8.479999899864196777e-01,2.000000000000000000e+00,-8.869831085205078125e+00,-3.073535442352294922e+00,5.346228790283203125e+01,1.197374954223632812e+02,8.086290740966796875e+01,-1.756428070068359375e+02,1.044247131347656250e+02,-4.665626907348632812e+01,-1.806966705322265625e+02,1.971316528320312500e+02,-5.037263488769531250e+01,-1.393969573974609375e+02
8.519999980926513672e-01,2.000000000000000000e+00,-8.927845001220703125e+00,-3.035042285919189453e+00,5.343497848510742188e+01,1.197508926391601562e+02,8.086890411376953125e+01,-1.756326141357421875e+02,1.043849411010742188e+02,-4.664403533935546875e+01,-1.806870727539062500e+02,1.971420593261718750e+02,-5.038469314575195312e+01,-1.394024658203125000e+02
8.560000061988830566e-01,2.000000000000000000e+00,-8.985841751098632812e+00,-2.996559381484985352e+00,5.340767288208007812e+01,1.197642822265625000e+02,8.087490081787109375e+01,-1.756224060058593750e+02,1.043451843261718750e+02,-4.663180541992187500e+01,-1.806774597167968750e+02,1.971524353027343750e+02,-5.039674758911132812e+01,-1.394079742431640625e+02
8.600000143051147461e-01,2.000000000000000000e+00,-9.043823242187500000e+00,-2.958086967468261719e+00,5.338037490844726562e+01,1.197776794433593750e+02,8.088088226318359375e+01,-1.756121978759765625e+02,1.043054351806640625e+02,-4.661957931518554688e+01,-1.806678771972656250e+02,1.971628417968750000e+02,-5.040879821777343750e+01,-1.394134826660156250e+02
8.640000224113464355e-01,2.000000000000000000e+00,-9.101789474487304688e+00,-2.919624567031860352e+00,5.335308456420898438e+01,1.197910690307617188e+02,8.088687133789062500e+01,-1.756020050048828125e+02,1.042656936645507812e+02,-4.660735702514648438e+01,-1.806582946777343750e+02,1.971732330322265625e+02,-5.042084121704101562e+01,-1.394189910888671875e+02
8.679999709129333496e-01,2.000000000000000000e+00,-9.159740447998046875e+00,-2.881172657012939453e+00,5.332580184936523438e+01,1.198044586181640625e+02,8.089285278320312500e+01,-1.755917968750000000e+02,1.042259597778320312e+02,-4.659513854980468750e+01,-1.806486816406250000e+02,1.971836090087890625e+02,-5.043288803100585938e+01,-1.394244842529296875e+02
8.719999790191650391e-01,2.000000000000000000e+00,-9.217676162719726562e+00,-2.842730760574340820e+00,5.329852676391601562e+01,1.198178329467773438e+02,8.089884185791015625e+01,-1.755816192626953125e+02,1.041862487792968750e+02,-4.658292388916015625e+01,-1.806390991210937500e+02,1.971940002441406250e+02,-5.044493103027343750e+01,-1.394299926757812500e+02
8.759999871253967285e-01,2.000000000000000000e+00,-9.275595664978027344e+00,-2.804299116134643555e+00,5.327125930786132812e+01,1.198312149047851562e+02,8.090482330322265625e+01,-1.755714263916015625e+02,1.041465377807617188e+02,-4.657070922851562500e+01,-1.806295013427734375e+02,1.972043762207031250e+02,-5.045696258544921875e+01,-1.394355010986328125e+02
8.799999952316284180e-01,2.000000000000000000e+00,-9.333500862121582031e+00,-2.765877962112426758e+00,5.324399948120117188e+01,1.198445892333984375e+02,8.091080474853515625e+01,-1.755612335205078125e+02,1.041068344116210938e+02,-4.655849838256835938e+01,-1.806199340820312500e+02,1.972147521972656250e+02,-5.046899795532226562e+01,-1.394409942626953125e+02
8.840000033378601074e-01,2.000000000000000000e+00,-9.391389846801757812e+00,-2.727466821670532227e+00,5.321674346923828125e+01,1.198579635620117188e+02,8.091678619384765625e+01,-1.755510559082031250e+02,1.040671463012695312e+02,-4.654629135131835938e+01,-1.806103363037109375e+02,1.972251281738281250e+02,-5.048102951049804688e+01,-1.394465026855468750e+02
8.880000114440917969e-01,2.000000000000000000e+00,-9.449262619018554688e+00,-2.689065933227539062e+00,5.318949890136718750e+01,1.198713226318359375e+02,8.092276763916015625e+01,-1.755408630371093750e+02,1.040274734497070312e+02,-4.653408813476562500e+01,-1.806007690429687500e+02,1.972355041503906250e+02,-5.049305725097656250e+01,-1.394519805908203125e+02
8.920000195503234863e-01,2.000000000000000000e+00,-9.507121086120605469e+00,-2.650675535202026367e+00,5.316225814819335938e+01,1.198846969604492188e+02,8.092874145507812500e+01,-1.755306854248046875e+02,1.039878082275390625e+02,-4.652188873291015625e+01,-1.805911865234375000e+02,1.972458648681640625e+02,-5.050508499145507812e+01,-1.394574737548828125e+02
8.960000276565551758e-01,2.000000000000000000e+00,-9.564964294433593750e+00,-2.612295150756835938e+00,5.313502883911132812e+01,1.198980560302734375e+02,8.093470764160156250e+01,-1.755205078125000000e+02,1.039481506347656250e+02,-4.650969314575195312e+01,-1.805816040039062500e+02,1.972562408447265625e+02,-5.051710510253906250e+01,-1.394629669189453125e+02
8.999999761581420898e-01,2.000000000000000000e+00,-9.622791290283203125e+00,-2.573925018310546875e+00,5.310780334472656250e+01,1.199114151000976562e+02,8.094068908691406250e+01,-1.755103302001953125e+02,1.039085006713867188e+02,-4.649749755859375000e+01,-1.805720367431640625e+02,1.972666015625000000e+02,-5.052912139892578125e+01,-1.394684600830078125e+02
9.039999842643737793e-01,2.000000000000000000e+00,-9.680603981018066406e+00,-2.535564899444580078e+00,5.308058166503906250e+01,1.199247665405273438e+02,8.094665527343750000e+01,-1.755001678466796875e+02,1.038688735961914062e+02,-4.648530960083007812e+01,-1.805624694824218750e+02,1.972769622802734375e+02,-5.054113769531250000e+01,-1.394739532470703125e+02
9.079999923706054688e-01,2.000000000000000000e+00,-9.738401412963867188e+00,-2.497215270996093750e+00,5.305337142944335938e+01,1.199381256103515625e+02,8.095262908935546875e+01,-1.754899902343750000e+02,1.038292465209960938e+02,-4.647312164306640625e+01,-1.805529174804687500e+02,1.972873077392578125e+02,-5.055315017700195312e+01,-1.394794464111328125e+02
9.120000004768371582e-01,2.000000000000000000e+00,-9.796181678771972656e+00,-2.458875656127929688e+00,5.302617263793945312e+01,1.199514694213867188e+02,8.095859527587890625e+01,-1.754798278808593750e+02,1.037896347045898438e+02,-4.646093368530273438e+01,-1.805433349609375000e+02,1.972976684570312500e+02,-5.056515884399414062e+01,-1.394849243164062500e+02
9.160000085830688477e-01,2.000000000000000000e+00,-9.853948593139648438e+00,-2.420546293258666992e+00,5.299897384643554688e+01,1.199648056030273438e+02,8.096456146240234375e+01,-1.754696655273437500e+02,1.037500305175781250e+02,-4.644875717163085938e+01,-1.805337677001953125e+02,1.973080139160156250e+02,-5.057716369628906250e+01,-1.394904174804687500e+02
9.200000166893005371e-01,2.000000000000000000e+00,-9.911699295043945312e+00,-2.382226943969726562e+00,5.297178649902343750e+01,1.199781494140625000e+02,8.097052764892578125e+01,-1.754595031738281250e+02,1.037104415893554688e+02,-4.643657684326171875e+01,-1.805242309570312500e+02,1.973183746337890625e+02,-5.058916473388671875e+01,-1.394958953857421875e+02
9.240000247955322266e-01,2.000000000000000000e+00,-9.969434738159179688e+00,-2.343917846679687500e+00,5.294460296630859375e+01,1.199914779663085938e+02,8.097649383544921875e+01,-1.754493408203125000e+02,1.036708602905273438e+02,-4.642440414428710938e+01,-1.805146636962890625e+02,1.973287200927734375e+02,-5.060116195678710938e+01,-1.395013885498046875e+02
9.279999732971191406e-01,2.000000000000000000e+00,-1.002715396881103516e+01,-2.305619239807128906e+00,5.291743087768554688e+01,1.200048141479492188e+02,8.098245239257812500e+01,-1.754391937255859375e+02,1.036312866210937500e+02,-4.641223144531250000e+01,-1.805051116943359375e+02,1.973390655517578125e+02,-5.061315917968750000e+01,-1.395068664550781250e+02
9.319999814033508301e-01,2.000000000000000000e+00,-1.008485889434814453e+01,-2.267330408096313477e+00,5.289026260375976562e+01,1.200181427001953125e+02,8.098841857910156250e+01,-1.754290466308593750e+02,1.035917282104492188e+02,-4.640006256103515625e+01,-1.804955444335937500e+02,1.973494110107421875e+02,-5.062515258789062500e+01,-1.395123443603515625e+02
9.359999895095825195e-01,2.000000000000000000e+00,-1.014254856109619141e+01,-2.229051589965820312e+00,5.286310195922851562e+01,1.200314636230468750e+02,8.099436950683593750e+01,-1.754188842773437500e+02,1.035521697998046875e+02,-4.638790130615234375e+01,-1.804860076904296875e+02,1.973597564697265625e+02,-5.063714218139648438e+01,-1.395178222656250000e+02
9.399999976158142090e-01,2.000000000000000000e+00,-1.020022296905517578e+01,-2.190783500671386719e+00,5.283594894409179688e+01,1.200447998046875000e+02,8.100032806396484375e+01,-1.754087371826171875e+02,1.035126342773437500e+02,-4.637574005126953125e+01,-1.804764556884765625e+02,1.973700866699218750e+02,-5.064912796020507812e+01,-1.395233001708984375e+02
9.440000057220458984e-01,2.000000000000000000e+00,-1.025788116455078125e+01,-2.152524948120117188e+00,5.280880737304687500e+01,1.200581130981445312e+02,8.100628662109375000e+01,-1.753985900878906250e+02,1.034731063842773438e+02,-4.636358261108398438e+01,-1.804669189453125000e+02,1.973804168701171875e+02,-5.066111373901367188e+01,-1.395287780761718750e+02
9.480000138282775879e-01,2.000000000000000000e+00,-1.031552600860595703e+01,-2.114276885986328125e+00,5.278166580200195312e+01,1.200714187622070312e+02,8.101223754882812500e+01,-1.753884582519531250e+02,1.034335861206054688e+02,-4.635142517089843750e+01,-1.804573669433593750e+02,1.973907470703125000e+02,-5.067309188842773438e+01,-1.395342559814453125e+02
9.520000219345092773e-01,2.000000000000000000e+00,-1.037315368652343750e+01,-2.076038837432861328e+00,5.275453948974609375e+01,1.200847396850585938e+02,8.101818847656250000e+01,-1.753783111572265625e+02,1.033940811157226562e+02,-4.633927536010742188e+01,-1.804478302001953125e+02,1.974010772705078125e+02,-5.068507003784179688e+01,-1.395397186279296875e+02
9.559999704360961914e-01,2.000000000000000000e+00,-1.043076705932617188e+01,-2.037810802459716797e+00,5.272741317749023438e+01,1.200980453491210938e+02,8.102414703369140625e+01,-1.753681640625000000e+02,1.033545837402343750e+02,-4.632712554931640625e+01,-1.804382934570312500e+02,1.974114074707031250e+02,-5.069704055786132812e+01,-1.395451965332031250e+02
9.599999785423278809e-01,2.000000000000000000e+00,-1.048836421966552734e+01,-1.999593138694763184e+00,5.270029449462890625e+01,1.201113510131835938e+02,8.103009033203125000e+01,-1.753580474853515625e+02,1.033150939941406250e+02,-4.631497955322265625e+01,-1.804287719726562500e+02,1.974217224121093750e+02,-5.070901107788085938e+01,-1.395506591796875000e+02
9.639999866485595703e-01,2.000000000000000000e+00,-1.054594707489013672e+01,-1.961385488510131836e+00,5.267318725585937500e+01,1.201246566772460938e+02,8.103604125976562500e+01,-1.753479156494140625e+02,1.032756195068359375e+02,-4.630284118652343750e+01,-1.804192352294921875e+02,1.974320373535156250e+02,-5.072097778320312500e+01,-1.395561218261718750e+02
9.679999947547912598e-01,2.000000000000000000e+00,-1.060351467132568359e+01,-1.923187971115112305e+00,5.264608383178710938e+01,1.201379470825195312e+02,8.104198455810546875e+01,-1.753377685546875000e+02,1.032361450195312500e+02,-4.629069900512695312e+01,-1.804097137451171875e+02,1.974423522949218750e+02,-5.073294067382812500e+01,-1.395615997314453125e+02
9.720000028610229492e-01,2.000000000000000000e+00,-1.066106605529785156e+01,-1.885000348091125488e+00,5.261898803710937500e+01,1.201512374877929688e+02,8.104792785644531250e+01,-1.753276519775390625e+02,1.031966934204101562e+02,-4.627856445312500000e+01,-1.804001770019531250e+02,1.974526672363281250e+02,-5.074490356445312500e+01,-1.395670623779296875e+02
9.760000109672546387e-01,2.000000000000000000e+00,-1.071860408782958984e+01,-1.846822977066040039e+00,5.259189987182617188e+01,1.201645278930664062e+02,8.105387878417968750e+01,-1.753175354003906250e+02,1.031572418212890625e+02,-4.626642990112304688e+01,-1.803906555175781250e+02,1.974629821777343750e+02,-5.075686264038085938e+01,-1.395725250244140625e+02
9.800000190734863281e-01,2.000000000000000000e+00,-1.077612495422363281e+01,-1.808655619621276855e+00,5.256481933593750000e+01,1.201778182983398438e+02,8.105981445312500000e+01,-1.753074035644531250e+02,1.031178131103515625e+02,-4.625430297851562500e+01,-1.803811340332031250e+02,1.974732971191406250e+02,-5.076881790161132812e+01,-1.395779876708984375e+02
9.840000271797180176e-01,2.000000000000000000e+00,-1.083363246917724609e+01,-1.770498394966125488e+00,5.253774642944335938e+01,1.201911010742187500e+02,8.106575775146484375e+01,-1.752972869873046875e+02,1.030783920288085938e+02,-4.624217605590820312e+01,-1.803716125488281250e+02,1.974835968017578125e+02,-5.078076553344726562e+01,-1.395834350585937500e+02
9.879999756813049316e-01,2.000000000000000000e+00,-1.089112377166748047e+01,-1.732351183891296387e+00,5.251068115234375000e+01,1.202043762207031250e+02,8.107169342041015625e+01,-1.752871704101562500e+02,1.030389709472656250e+02,-4.623005294799804688e+01,-1.803621063232421875e+02,1.974938964843750000e+02,-5.079271697998046875e+01,-1.395889129638671875e+02
9.919999837875366211e-01,2.000000000000000000e+00,-1.094859981536865234e+01,-1.694213986396789551e+00,5.248361968994140625e+01,1.202176589965820312e+02,8.107762908935546875e+01,-1.752770690917968750e+02,1.029995651245117188e+02,-4.621793365478515625e+01,-1.803525848388671875e+02,1.975041961669921875e+02,-5.080466079711914062e+01,-1.395943603515625000e+02
9.959999918937683105e-01,2.000000000000000000e+00,-1.100606155395507812e+01,-1.656086921691894531e+00,5.245656585693359375e+01,1.202309341430664062e+02,8.108356475830078125e+01,-1.752669525146484375e+02,1.029601745605468750e+02,-4.620581817626953125e+01,-1.803430786132812500e+02,1.975144958496093750e+02,-5.081660079956054688e+01,-1.395998229980468750e+02
1.000000000000000000e+00,2.000000000000000000e+00,-1.106350708007812500e+01,-1.617969870567321777e+00,5.242952346801757812e+01,1.202441940307617188e+02,8.108949279785156250e+01,-1.752568511962890625e+02,1.029207916259765625e+02,-4.619370269775390625e+01,-1.803335723876953125e+02,1.975247955322265625e+02,-5.082854080200195312e+01,-1.396052703857421875e+02
1.003999948501586914e+00,2.000000000000000000e+00,-1.112093830108642578e+01,-1.579862952232360840e+00,5.240248489379882812e+01,1.202574615478515625e+02,8.109542846679687500e+01,-1.752467346191406250e+02,1.028814163208007812e+02,-4.618159484863281250e+01,-1.803240661621093750e+02,1.975350799560546875e+02,-5.084047698974609375e+01,-1.396107177734375000e+02
1.008000016212463379e+00,2.000000000000000000e+00,-1.117835330963134766e+01,-1.541766047477722168e+00,5.237545013427734375e+01,1.202707290649414062e+02,8.110135650634765625e+01,-1.752366333007812500e+02,1.028420562744140625e+02,-4.616948699951171875e+01,-1.803145446777343750e+02,1.975453796386718750e+02,-5.085240936279296875e+01,-1.396161804199218750e+02
1.011999964714050293e+00,2.000000000000000000e+00,-1.123575401306152344e+01,-1.503679037094116211e+00,5.234842681884765625e+01,1.202839889526367188e+02,8.110729217529296875e+01,-1.752265319824218750e+02,1.028027038574218750e+02,-4.615738296508789062e+01,-1.803050537109375000e+02,1.975556640625000000e+02,-5.086433792114257812e+01,-1.396216430664062500e+02
1.016000032424926758e+00,2.000000000000000000e+00,-1.129313945770263672e+01,-1.465602278709411621e+00,5.232141113281250000e+01,1.202972412109375000e+02,8.111322021484375000e+01,-1.752164459228515625e+02,1.027633590698242188e+02,-4.614528274536132812e+01,-1.802955474853515625e+02,1.975659484863281250e+02,-5.087626647949218750e+01,-1.396270904541015625e+02
1.019999980926513672e+00,2.000000000000000000e+00,-1.135050964355468750e+01,-1.427535414695739746e+00,5.229440307617187500e+01,1.203104934692382812e+02,8.111914825439453125e+01,-1.752063446044921875e+02,1.027240295410156250e+02,-4.613318634033203125e+01,-1.802860565185546875e+02,1.975762329101562500e+02,-5.088818740844726562e+01,-1.396325225830078125e+02
1.024000048637390137e+00,2.000000000000000000e+00,-1.140786457061767578e+01,-1.389478564262390137e+00,5.226740264892578125e+01,1.203237457275390625e+02,8.112506866455078125e+01,-1.751962585449218750e+02,1.026847076416015625e+02,-4.612109375000000000e+01,-1.802765655517578125e+02,1.975865173339843750e+02,-5.090010833740234375e+01,-1.396379699707031250e+02
1.026999950408935547e+00,2.000000000000000000e+00,-1.146520519256591797e+01,-1.351431727409362793e+00,5.224040603637695312e+01,1.203369903564453125e+02,8.113098907470703125e+01,-1.751861724853515625e+02,1.026453933715820312e+02,-4.610900115966796875e+01,-1.802670745849609375e+02,1.975967864990234375e+02,-5.091202545166015625e+01,-1.396434173583984375e+02
1.031999945640563965e+00,2.000000000000000000e+00,-1.152253055572509766e+01,-1.313394784927368164e+00,5.221341705322265625e+01,1.203502273559570312e+02,8.113690948486328125e+01,-1.751760711669921875e+02,1.026060943603515625e+02,-4.609691238403320312e+01,-1.802575836181640625e+02,1.976070556640625000e+02,-5.092393875122070312e+01,-1.396488647460937500e+02
1.036000013351440430e+00,2.000000000000000000e+00,-1.157984066009521484e+01,-1.275367975234985352e+00,5.218643569946289062e+01,1.203634643554687500e+02,8.114282989501953125e+01,-1.751660003662109375e+02,1.025668106079101562e+02,-4.608483123779296875e+01,-1.802480926513671875e+02,1.976173400878906250e+02,-5.093584823608398438e+01,-1.396542968750000000e+02
1.039999961853027344e+00,2.000000000000000000e+00,-1.163713550567626953e+01,-1.237351059913635254e+00,5.215946197509765625e+01,1.203767013549804688e+02,8.114875030517578125e+01,-1.751559143066406250e+02,1.025275268554687500e+02,-4.607274627685546875e+01,-1.802386169433593750e+02,1.976275939941406250e+02,-5.094775772094726562e+01,-1.396597442626953125e+02
1.044000029563903809e+00,2.000000000000000000e+00,-1.169441509246826172e+01,-1.199344158172607422e+00,5.213249588012695312e+01,1.203899230957031250e+02,8.115467071533203125e+01,-1.751458435058593750e+02,1.024882507324218750e+02,-4.606066894531250000e+01,-1.802291259765625000e+02,1.976378631591796875e+02,-5.095965957641601562e+01,-1.396651916503906250e+02
1.047999978065490723e+00,2.000000000000000000e+00,-1.175168037414550781e+01,-1.161347270011901855e+00,5.210553741455078125e+01,1.204031600952148438e+02,8.116058349609375000e+01,-1.751357574462890625e+02,1.024489898681640625e+02,-4.604859161376953125e+01,-1.802196502685546875e+02,1.976481170654296875e+02,-5.097156143188476562e+01,-1.396706237792968750e+02
1.052000045776367188e+00,2.000000000000000000e+00,-1.180893039703369141e+01,-1.123360395431518555e+00,5.207858276367187500e+01,1.204163894653320312e+02,8.116649627685546875e+01,-1.751257019042968750e+02,1.024097442626953125e+02,-4.603652572631835938e+01,-1.802101745605468750e+02,1.976583862304687500e+02,-5.098345947265625000e+01,-1.396760559082031250e+02
1.054999947547912598e+00,2.000000000000000000e+00,-1.186616516113281250e+01,-1.085383296012878418e+00,5.205163574218750000e+01,1.204296112060546875e+02,8.117240905761718750e+01,-1.751156158447265625e+02,1.023705062866210938e+02,-4.602445602416992188e+01,-1.802006988525390625e+02,1.976686401367187500e+02,-5.099535369873046875e+01,-1.396814880371093750e+02
1.059999942779541016e+00,2.000000000000000000e+00,-1.192338562011718750e+01,-1.047416329383850098e+00,5.202469635009765625e+01,1.204428176879882812e+02,8.117831420898437500e+01,-1.751055450439453125e+02,1.023312835693359375e+02,-4.601239013671875000e+01,-1.801912231445312500e+02,1.976788940429687500e+02,-5.100724411010742188e+01,-1.396869354248046875e+02
1.064000010490417480e+00,2.000000000000000000e+00,-1.198058986663818359e+01,-1.009459257125854492e+00,5.199776458740234375e+01,1.204560317993164062e+02,8.118422698974609375e+01,-1.750954895019531250e+02,1.022920608520507812e+02,-4.600032806396484375e+01,-1.801817626953125000e+02,1.976891479492187500e+02,-5.101913833618164062e+01,-1.396923522949218750e+02
1.067999958992004395e+00,2.000000000000000000e+00,-1.203777980804443359e+01,-9.715121388435363770e-01,5.197084045410156250e+01,1.204692382812500000e+02,8.119013214111328125e+01,-1.750854339599609375e+02,1.022528533935546875e+02,-4.598826599121093750e+01,-1.801722869873046875e+02,1.976994018554687500e+02,-5.103102111816406250e+01,-1.396977996826171875e+02
1.072000026702880859e+00,2.000000000000000000e+00,-1.209495449066162109e+01,-9.335749149322509766e-01,5.194392395019531250e+01,1.204824447631835938e+02,8.119603729248046875e+01,-1.750753784179687500e+02,1.022136611938476562e+02,-4.597621154785156250e+01,-1.801628265380859375e+02,1.977096557617187500e+02,-5.104290390014648438e+01,-1.397032165527343750e+02
1.075999975204467773e+00,2.000000000000000000e+00,-1.215211486816406250e+01,-8.956477046012878418e-01,5.191701126098632812e+01,1.204956588745117188e+02,8.120194244384765625e+01,-1.750653076171875000e+02,1.021744689941406250e+02,-4.596415710449218750e+01,-1.801533660888671875e+02,1.977198944091796875e+02,-5.105478286743164062e+01,-1.397086486816406250e+02
1.080000042915344238e+00,2.000000000000000000e+00,-1.220925998687744141e+01,-8.577303886413574219e-01,5.189011001586914062e+01,1.205088500976562500e+02,8.120783996582031250e+01,-1.750552520751953125e+02,1.021352920532226562e+02,-4.595210647583007812e+01,-1.801439056396484375e+02,1.977301330566406250e+02,-5.106665802001953125e+01,-1.397140808105468750e+02
1.083999991416931152e+00,2.000000000000000000e+00,-1.226638984680175781e+01,-8.198229074478149414e-01,5.186321640014648438e+01,1.205220489501953125e+02,8.121374511718750000e+01,-1.750451965332031250e+02,1.020961227416992188e+02,-4.594005966186523438e+01,-1.801344451904296875e+02,1.977403717041015625e+02,-5.107853317260742188e+01,-1.397194976806640625e+02
1.088000059127807617e+00,2.000000000000000000e+00,-1.232350444793701172e+01,-7.819254398345947266e-01,5.183632278442382812e+01,1.205352478027343750e+02,8.121964263916015625e+01,-1.750351562500000000e+02,1.020569686889648438e+02,-4.592801666259765625e+01,-1.801250000000000000e+02,1.977506103515625000e+02,-5.109040451049804688e+01,-1.397249145507812500e+02
1.090999960899353027e+00,2.000000000000000000e+00,-1.238060474395751953e+01,-7.440378665924072266e-01,5.180944061279296875e+01,1.205484313964843750e+02,8.122554779052734375e+01,-1.750251007080078125e+02,1.020178222656250000e+02,-4.591597747802734375e+01,-1.801155395507812500e+02,1.977608337402343750e+02,-5.110227203369140625e+01,-1.397303466796875000e+02
1.095999956130981445e+00,2.000000000000000000e+00,-1.243769073486328125e+01,-7.061601281166076660e-01,5.178256607055664062e+01,1.205616226196289062e+02,8.123143768310546875e+01,-1.750150604248046875e+02,1.019786834716796875e+02,-4.590393829345703125e+01,-1.801060943603515625e+02,1.977710723876953125e+02,-5.111413574218750000e+01,-1.397357635498046875e+02
1.100000023841857910e+00,2.000000000000000000e+00,-1.249476051330566406e+01,-6.682923436164855957e-01,5.175569915771484375e+01,1.205748062133789062e+02,8.123733520507812500e+01,-1.750050201416015625e+02,1.019395599365234375e+02,-4.589190673828125000e+01,-1.800966491699218750e+02,1.977812957763671875e+02,-5.112599563598632812e+01,-1.397411956787109375e+02
1.103999972343444824e+00,2.000000000000000000e+00,-1.255181694030761719e+01,-6.304343938827514648e-01,5.172883605957031250e+01,1.205879745483398438e+02,8.124323272705078125e+01,-1.749949798583984375e+02,1.019004440307617188e+02,-4.587987518310546875e+01,-1.800872192382812500e+02,1.977915191650390625e+02,-5.113785171508789062e+01,-1.397465972900390625e+02
1.108000040054321289e+00,2.000000000000000000e+00,-1.260885715484619141e+01,-5.925863385200500488e-01,5.170198059082031250e+01,1.206011581420898438e+02,8.124911499023437500e+01,-1.749849548339843750e+02,1.018613357543945312e+02,-4.586784744262695312e+01,-1.800777587890625000e+02,1.978017425537109375e+02,-5.114970779418945312e+01,-1.397520294189453125e+02
1.111999988555908203e+00,2.000000000000000000e+00,-1.266588211059570312e+01,-5.547482371330261230e-01,5.167513656616210938e+01,1.206143264770507812e+02,8.125501251220703125e+01,-1.749749145507812500e+02,1.018222427368164062e+02,-4.585582351684570312e+01,-1.800683288574218750e+02,1.978119659423828125e+02,-5.116155624389648438e+01,-1.397574310302734375e+02
