rpiRobotics/ARM-21-02-F-19-Robot-Motion-Program/data_performance_abb/curve_1/dual_arm/diffevo_pose2/grad_result/sim/dual_iteration_4.csv
timestamp,cmd_num,J1,J2,J3,J4,J5,J6,J1_2,J2_2,J3_2,J4_2,J5_2,J6_2
0.000000000000000000e+00,-1.000000000000000000e+00,1.764750957489013672e+00,-1.042208862304687500e+01,5.833644104003906250e+01,1.169278793334960938e+02,7.926481628417968750e+01,-1.769106445312500000e+02,1.117980270385742188e+02,-4.899029922485351562e+01,-1.823925476074218750e+02,1.953325042724609375e+02,-4.820517730712890625e+01,-1.384463348388671875e+02
2.000000094994902611e-03,-1.000000000000000000e+00,1.764750957489013672e+00,-1.042208862304687500e+01,5.833644104003906250e+01,1.169278793334960938e+02,7.926481628417968750e+01,-1.769106445312500000e+02,1.117980270385742188e+02,-4.899029922485351562e+01,-1.823925476074218750e+02,1.953325042724609375e+02,-4.820517730712890625e+01,-1.384463348388671875e+02
4.000000189989805222e-03,-1.000000000000000000e+00,1.764750957489013672e+00,-1.042208862304687500e+01,5.833644104003906250e+01,1.169278793334960938e+02,7.926481628417968750e+01,-1.769106445312500000e+02,1.117980270385742188e+02,-4.899029922485351562e+01,-1.823925476074218750e+02,1.953325042724609375e+02,-4.820517730712890625e+01,-1.384463348388671875e+02
9.999999776482582092e-03,-1.000000000000000000e+00,1.764750957489013672e+00,-1.042208862304687500e+01,5.833644104003906250e+01,1.169278793334960938e+02,7.926481628417968750e+01,-1.769106445312500000e+02,1.117980270385742188e+02,-4.899029922485351562e+01,-1.823925476074218750e+02,1.953325042724609375e+02,-4.820517730712890625e+01,-1.384463348388671875e+02
1.200000010430812836e-02,-1.000000000000000000e+00,1.764750957489013672e+00,-1.042208862304687500e+01,5.833644104003906250e+01,1.169278793334960938e+02,7.926481628417968750e+01,-1.769106445312500000e+02,1.117980270385742188e+02,-4.899029922485351562e+01,-1.823925476074218750e+02,1.953325042724609375e+02,-4.820517730712890625e+01,-1.384463348388671875e+02
1.600000075995922089e-02,-1.000000000000000000e+00,1.764750957489013672e+00,-1.042208862304687500e+01,5.833644104003906250e+01,1.169278793334960938e+02,7.926481628417968750e+01,-1.769106445312500000e+02,1.117980270385742188e+02,-4.899029922485351562e+01,-1.823925476074218750e+02,1.953325042724609375e+02,-4.820517730712890625e+01,-1.384463348388671875e+02
1.999999955296516418e-02,-1.000000000000000000e+00,1.764750957489013672e+00,-1.042208862304687500e+01,5.833644104003906250e+01,1.169278793334960938e+02,7.926481628417968750e+01,-1.769106445312500000e+02,1.117980270385742188e+02,-4.899029922485351562e+01,-1.823925476074218750e+02,1.953325042724609375e+02,-4.820517730712890625e+01,-1.384463348388671875e+02
2.400000020861625671e-02,-1.000000000000000000e+00,1.764750957489013672e+00,-1.042208862304687500e+01,5.833644104003906250e+01,1.169278793334960938e+02,7.926481628417968750e+01,-1.769106445312500000e+02,1.117980270385742188e+02,-4.899029922485351562e+01,-1.823925476074218750e+02,1.953325042724609375e+02,-4.820517730712890625e+01,-1.384463348388671875e+02
2.899999916553497314e-02,2.000000000000000000e+00,1.764750957489013672e+00,-1.042208862304687500e+01,5.833644104003906250e+01,1.169278793334960938e+02,7.926481628417968750e+01,-1.769106445312500000e+02,1.117980270385742188e+02,-4.899029922485351562e+01,-1.823925476074218750e+02,1.953325042724609375e+02,-4.820517730712890625e+01,-1.384463348388671875e+02
3.500000014901161194e-02,2.000000000000000000e+00,1.764750957489013672e+00,-1.042208862304687500e+01,5.833644104003906250e+01,1.169278793334960938e+02,7.926481628417968750e+01,-1.769106445312500000e+02,1.117980270385742188e+02,-4.899029922485351562e+01,-1.823925476074218750e+02,1.953325042724609375e+02,-4.820517730712890625e+01,-1.384463348388671875e+02
3.900000080466270447e-02,2.000000000000000000e+00,1.764750957489013672e+00,-1.042208862304687500e+01,5.833644104003906250e+01,1.169278793334960938e+02,7.926481628417968750e+01,-1.769106445312500000e+02,1.117980270385742188e+02,-4.899029922485351562e+01,-1.823925476074218750e+02,1.953325042724609375e+02,-4.820517730712890625e+01,-1.384463348388671875e+02
4.100000113248825073e-02,2.000000000000000000e+00,1.764750957489013672e+00,-1.042208862304687500e+01,5.833644104003906250e+01,1.169278793334960938e+02,7.926481628417968750e+01,-1.769106445312500000e+02,1.117980270385742188e+02,-4.899029922485351562e+01,-1.823925476074218750e+02,1.953325042724609375e+02,-4.820517730712890625e+01,-1.384463348388671875e+02
4.600000008940696716e-02,2.000000000000000000e+00,1.764750957489013672e+00,-1.042208862304687500e+01,5.833644104003906250e+01,1.169278793334960938e+02,7.926481628417968750e+01,-1.769106445312500000e+02,1.117980270385742188e+02,-4.899029922485351562e+01,-1.823925476074218750e+02,1.953325042724609375e+02,-4.820517730712890625e+01,-1.384463348388671875e+02
4.800000041723251343e-02,2.000000000000000000e+00,1.764750957489013672e+00,-1.042208862304687500e+01,5.833644104003906250e+01,1.169278793334960938e+02,7.926481628417968750e+01,-1.769106445312500000e+02,1.117980270385742188e+02,-4.899029922485351562e+01,-1.823925476074218750e+02,1.953325042724609375e+02,-4.820517730712890625e+01,-1.384463348388671875e+02
5.200000107288360596e-02,2.000000000000000000e+00,1.764750957489013672e+00,-1.042208862304687500e+01,5.833644104003906250e+01,1.169278793334960938e+02,7.926481628417968750e+01,-1.769106445312500000e+02,1.117980270385742188e+02,-4.899029922485351562e+01,-1.823925476074218750e+02,1.953325042724609375e+02,-4.820517730712890625e+01,-1.384463348388671875e+02
5.600000172853469849e-02,2.000000000000000000e+00,1.764750957489013672e+00,-1.042208862304687500e+01,5.833644104003906250e+01,1.169278793334960938e+02,7.926481628417968750e+01,-1.769106445312500000e+02,1.117980270385742188e+02,-4.899029922485351562e+01,-1.823925476074218750e+02,1.953325042724609375e+02,-4.820517730712890625e+01,-1.384463348388671875e+02
5.999999865889549255e-02,2.000000000000000000e+00,1.764750957489013672e+00,-1.042208862304687500e+01,5.833644104003906250e+01,1.169278793334960938e+02,7.926481628417968750e+01,-1.769106445312500000e+02,1.117980270385742188e+02,-4.899029922485351562e+01,-1.823925476074218750e+02,1.953325042724609375e+02,-4.820517730712890625e+01,-1.384463348388671875e+02
6.400000303983688354e-02,2.000000000000000000e+00,1.764750957489013672e+00,-1.042208862304687500e+01,5.833644104003906250e+01,1.169278793334960938e+02,7.926481628417968750e+01,-1.769106445312500000e+02,1.117980270385742188e+02,-4.899029922485351562e+01,-1.823925476074218750e+02,1.953325042724609375e+02,-4.820517730712890625e+01,-1.384463348388671875e+02
6.800000369548797607e-02,2.000000000000000000e+00,1.764750957489013672e+00,-1.042208862304687500e+01,5.833644104003906250e+01,1.169278793334960938e+02,7.926481628417968750e+01,-1.769106445312500000e+02,1.117980270385742188e+02,-4.899029922485351562e+01,-1.823925476074218750e+02,1.953325042724609375e+02,-4.820517730712890625e+01,-1.384463348388671875e+02
7.199999690055847168e-02,2.000000000000000000e+00,1.764684677124023438e+00,-1.042205905914306641e+01,5.833642959594726562e+01,1.169278793334960938e+02,7.926481628417968750e+01,-1.769106445312500000e+02,1.117980270385742188e+02,-4.899029922485351562e+01,-1.823925476074218750e+02,1.953325042724609375e+02,-4.820517730712890625e+01,-1.384463348388671875e+02
7.599999755620956421e-02,2.000000000000000000e+00,1.764309406280517578e+00,-1.042188549041748047e+01,5.833636474609375000e+01,1.169278793334960938e+02,7.926480865478515625e+01,-1.769106445312500000e+02,1.117980270385742188e+02,-4.899029922485351562e+01,-1.823925476074218750e+02,1.953325042724609375e+02,-4.820517730712890625e+01,-1.384463348388671875e+02
7.999999821186065674e-02,2.000000000000000000e+00,1.763232827186584473e+00,-1.042134189605712891e+01,5.833616638183593750e+01,1.169279098510742188e+02,7.926479339599609375e+01,-1.769106445312500000e+02,1.117980270385742188e+02,-4.899029922485351562e+01,-1.823925476074218750e+02,1.953325042724609375e+02,-4.820517730712890625e+01,-1.384463348388671875e+02
8.399999886751174927e-02,2.000000000000000000e+00,1.761081337928771973e+00,-1.042017555236816406e+01,5.833571624755859375e+01,1.169279632568359375e+02,7.926476287841796875e+01,-1.769106140136718750e+02,1.117979965209960938e+02,-4.899029541015625000e+01,-1.823925323486328125e+02,1.953325042724609375e+02,-4.820518112182617188e+01,-1.384463348388671875e+02
8.799999952316284180e-02,2.000000000000000000e+00,1.757616400718688965e+00,-1.041816711425781250e+01,5.833492660522460938e+01,1.169280853271484375e+02,7.926473236083984375e+01,-1.769105682373046875e+02,1.117978591918945312e+02,-4.899026489257812500e+01,-1.823925018310546875e+02,1.953325042724609375e+02,-4.820519256591796875e+01,-1.384463348388671875e+02
9.200000017881393433e-02,2.000000000000000000e+00,1.752663373947143555e+00,-1.041513633728027344e+01,5.833366012573242188e+01,1.169283294677734375e+02,7.926472473144531250e+01,-1.769104309082031250e+02,1.117973785400390625e+02,-4.899015045166015625e+01,-1.823923950195312500e+02,1.953325653076171875e+02,-4.820523071289062500e+01,-1.384463500976562500e+02
9.600000083446502686e-02,2.000000000000000000e+00,1.746053338050842285e+00,-1.041091823577880859e+01,5.833180999755859375e+01,1.169287796020507812e+02,7.926477050781250000e+01,-1.769101867675781250e+02,1.117962875366210938e+02,-4.898989486694335938e+01,-1.823921508789062500e+02,1.953326873779296875e+02,-4.820534515380859375e+01,-1.384463806152343750e+02
1.000000014901161194e-01,2.000000000000000000e+00,1.737720727920532227e+00,-1.040540885925292969e+01,5.832925033569335938e+01,1.169295043945312500e+02,7.926492309570312500e+01,-1.769097595214843750e+02,1.117942733764648438e+02,-4.898940277099609375e+01,-1.823916931152343750e+02,1.953329315185546875e+02,-4.820558547973632812e+01,-1.384464416503906250e+02
1.040000021457672119e-01,2.000000000000000000e+00,1.727696537971496582e+00,-1.039858531951904297e+01,5.832586288452148438e+01,1.169306106567382812e+02,7.926525878906250000e+01,-1.769090881347656250e+02,1.117910079956054688e+02,-4.898857498168945312e+01,-1.823909454345703125e+02,1.953334045410156250e+02,-4.820605087280273438e+01,-1.384465942382812500e+02
1.080000028014183044e-01,2.000000000000000000e+00,1.715916156768798828e+00,-1.039041137695312500e+01,5.832152938842773438e+01,1.169322280883789062e+02,7.926583862304687500e+01,-1.769080963134765625e+02,1.117861251831054688e+02,-4.898730087280273438e+01,-1.823898162841796875e+02,1.953341674804687500e+02,-4.820685577392578125e+01,-1.384468994140625000e+02
1.120000034570693970e-01,2.000000000000000000e+00,1.702075600624084473e+00,-1.038074111938476562e+01,5.831610107421875000e+01,1.169344406127929688e+02,7.926672363281250000e+01,-1.769067230224609375e+02,1.117793197631835938e+02,-4.898546218872070312e+01,-1.823882446289062500e+02,1.953353729248046875e+02,-4.820814514160156250e+01,-1.384473876953125000e+02
1.159999966621398926e-01,2.000000000000000000e+00,1.685708999633789062e+00,-1.036932277679443359e+01,5.830937194824218750e+01,1.169373626708984375e+02,7.926798248291015625e+01,-1.769048767089843750e+02,1.117704391479492188e+02,-4.898297500610351562e+01,-1.823861846923828125e+02,1.953370819091796875e+02,-4.821006011962890625e+01,-1.384481811523437500e+02
1.199999973177909851e-01,2.000000000000000000e+00,1.666414976119995117e+00,-1.035593414306640625e+01,5.830118560791015625e+01,1.169410934448242188e+02,7.926964569091796875e+01,-1.769024963378906250e+02,1.117593688964843750e+02,-4.897975921630859375e+01,-1.823835754394531250e+02,1.953394622802734375e+02,-4.821275329589843750e+01,-1.384493255615234375e+02
1.239999979734420776e-01,2.000000000000000000e+00,1.644009232521057129e+00,-1.034050464630126953e+01,5.829140472412109375e+01,1.169457321166992188e+02,7.927178192138671875e+01,-1.768995513916015625e+02,1.117459182739257812e+02,-4.897573852539062500e+01,-1.823804168701171875e+02,1.953425598144531250e+02,-4.821633529663085938e+01,-1.384508972167968750e+02
1.280000060796737671e-01,2.000000000000000000e+00,1.618505954742431641e+00,-1.032310295104980469e+01,5.827999496459960938e+01,1.169513473510742188e+02,7.927444458007812500e+01,-1.768959503173828125e+02,1.117298583984375000e+02,-4.897083663940429688e+01,-1.823766174316406250e+02,1.953464965820312500e+02,-4.822090911865234375e+01,-1.384529418945312500e+02
1.309999972581863403e-01,2.000000000000000000e+00,1.589992761611938477e+00,-1.030383586883544922e+01,5.826695251464843750e+01,1.169579849243164062e+02,7.927767181396484375e+01,-1.768916625976562500e+02,1.117110290527343750e+02,-4.896498870849609375e+01,-1.823721466064453125e+02,1.953512878417968750e+02,-4.822652435302734375e+01,-1.384554595947265625e+02
1.360000073909759521e-01,2.000000000000000000e+00,1.558534741401672363e+00,-1.028276634216308594e+01,5.825225830078125000e+01,1.169656829833984375e+02,7.928147888183593750e+01,-1.768867187500000000e+02,1.116893539428710938e+02,-4.895818710327148438e+01,-1.823669891357421875e+02,1.953569488525390625e+02,-4.823318862915039062e+01,-1.384584960937500000e+02
1.389999985694885254e-01,2.000000000000000000e+00,1.524210095405578613e+00,-1.025994491577148438e+01,5.823594284057617188e+01,1.169744110107421875e+02,7.928585815429687500e+01,-1.768810729980468750e+02,1.116647872924804688e+02,-4.895043563842773438e+01,-1.823611450195312500e+02,1.953634490966796875e+02,-4.824087142944335938e+01,-1.384619903564453125e+02
1.439999938011169434e-01,2.000000000000000000e+00,1.487114787101745605e+00,-1.023541545867919922e+01,5.821806716918945312e+01,1.169841232299804688e+02,7.929079437255859375e+01,-1.768747558593750000e+02,1.116373901367187500e+02,-4.894176483154296875e+01,-1.823546142578125000e+02,1.953707580566406250e+02,-4.824951553344726562e+01,-1.384659423828125000e+02
1.480000019073486328e-01,2.000000000000000000e+00,1.447248697280883789e+00,-1.020912361145019531e+01,5.819867706298828125e+01,1.169947738647460938e+02,7.929622650146484375e+01,-1.768678436279296875e+02,1.116073150634765625e+02,-4.893223571777343750e+01,-1.823474578857421875e+02,1.953787994384765625e+02,-4.825902938842773438e+01,-1.384702911376953125e+02
1.519999951124191284e-01,2.000000000000000000e+00,1.404511928558349609e+00,-1.018092346191406250e+01,5.817781066894531250e+01,1.170062637329101562e+02,7.930210113525390625e+01,-1.768603820800781250e+02,1.115748672485351562e+02,-4.892195892333984375e+01,-1.823397369384765625e+02,1.953874969482421875e+02,-4.826930236816406250e+01,-1.384749755859375000e+02
1.560000032186508179e-01,2.000000000000000000e+00,1.358881473541259766e+00,-1.015072441101074219e+01,5.815555191040039062e+01,1.170184936523437500e+02,7.930834197998046875e+01,-1.768524475097656250e+02,1.115404281616210938e+02,-4.891104125976562500e+01,-1.823315277099609375e+02,1.953967285156250000e+02,-4.828021621704101562e+01,-1.384799499511718750e+02
1.599999964237213135e-01,2.000000000000000000e+00,1.310570359230041504e+00,-1.011862277984619141e+01,5.813202667236328125e+01,1.170313415527343750e+02,7.931488037109375000e+01,-1.768441162109375000e+02,1.115042572021484375e+02,-4.889959335327148438e+01,-1.823229064941406250e+02,1.954064025878906250e+02,-4.829165267944335938e+01,-1.384851684570312500e+02
1.640000045299530029e-01,2.000000000000000000e+00,1.259996414184570312e+00,-1.008486366271972656e+01,5.810743331909179688e+01,1.170447082519531250e+02,7.932165527343750000e+01,-1.768354492187500000e+02,1.114665908813476562e+02,-4.888769531250000000e+01,-1.823139495849609375e+02,1.954164123535156250e+02,-4.830348205566406250e+01,-1.384905700683593750e+02
1.679999977350234985e-01,2.000000000000000000e+00,1.207588076591491699e+00,-1.004969501495361328e+01,5.808196258544921875e+01,1.170584869384765625e+02,7.932862854003906250e+01,-1.768265228271484375e+02,1.114276657104492188e+02,-4.887544250488281250e+01,-1.823046875000000000e+02,1.954266815185546875e+02,-4.831560516357421875e+01,-1.384960937500000000e+02
1.720000058412551880e-01,2.000000000000000000e+00,1.153636693954467773e+00,-1.001330661773681641e+01,5.805576324462890625e+01,1.170725860595703125e+02,7.933573913574218750e+01,-1.768173828125000000e+02,1.113877410888671875e+02,-4.886291503906250000e+01,-1.822951965332031250e+02,1.954371337890625000e+02,-4.832792282104492188e+01,-1.385016784667968750e+02
1.759999990463256836e-01,2.000000000000000000e+00,1.098303079605102539e+00,-9.975852012634277344e+00,5.802896499633789062e+01,1.170869293212890625e+02,7.934293365478515625e+01,-1.768081054687500000e+02,1.113470764160156250e+02,-4.885019683837890625e+01,-1.822855224609375000e+02,1.954477081298828125e+02,-4.834036254882812500e+01,-1.385073242187500000e+02
1.800000071525573730e-01,2.000000000000000000e+00,1.041710853576660156e+00,-9.937479019165039062e+00,5.800169372558593750e+01,1.171014251708984375e+02,7.935018920898437500e+01,-1.767987365722656250e+02,1.113058547973632812e+02,-4.883733749389648438e+01,-1.822757263183593750e+02,1.954583435058593750e+02,-4.835287094116210938e+01,-1.385129699707031250e+02
1.840000003576278687e-01,2.000000000000000000e+00,9.840108752250671387e-01,-9.898342132568359375e+00,5.797406768798828125e+01,1.171160430908203125e+02,7.935746765136718750e+01,-1.767892913818359375e+02,1.112642822265625000e+02,-4.882439804077148438e+01,-1.822658538818359375e+02,1.954690399169921875e+02,-4.836541366577148438e+01,-1.385186462402343750e+02
1.879999935626983643e-01,2.000000000000000000e+00,9.253315329551696777e-01,-9.858571052551269531e+00,5.794615936279296875e+01,1.171307067871093750e+02,7.936475372314453125e+01,-1.767798004150390625e+02,1.112225265502929688e+02,-4.881141662597656250e+01,-1.822559356689453125e+02,1.954797210693359375e+02,-4.837796401977539062e+01,-1.385243072509765625e+02
1.920000016689300537e-01,2.000000000000000000e+00,8.657866120338439941e-01,-9.818293571472167969e+00,5.791804504394531250e+01,1.171454238891601562e+02,7.937203979492187500e+01,-1.767703094482421875e+02,1.111807174682617188e+02,-4.879842758178710938e+01,-1.822460174560546875e+02,1.954904174804687500e+02,-4.839051818847656250e+01,-1.385299682617187500e+02
1.959999948740005493e-01,2.000000000000000000e+00,8.055806159973144531e-01,-9.777667999267578125e+00,5.788980102539062500e+01,1.171601486206054688e+02,7.937930297851562500e+01,-1.767608184814453125e+02,1.111389236450195312e+02,-4.878543472290039062e+01,-1.822360839843750000e+02,1.955011138916015625e+02,-4.840306854248046875e+01,-1.385356292724609375e+02
2.000000029802322388e-01,2.000000000000000000e+00,7.450029253959655762e-01,-9.736865997314453125e+00,5.786149597167968750e+01,1.171748733520507812e+02,7.938657379150390625e+01,-1.767513275146484375e+02,1.110971298217773438e+02,-4.877245330810546875e+01,-1.822261505126953125e+02,1.955118103027343750e+02,-4.841561126708984375e+01,-1.385412902832031250e+02
2.039999961853027344e-01,2.000000000000000000e+00,6.843063831329345703e-01,-9.696015357971191406e+00,5.783317947387695312e+01,1.171895980834960938e+02,7.939382934570312500e+01,-1.767418212890625000e+02,1.110553436279296875e+02,-4.875946807861328125e+01,-1.822162322998046875e+02,1.955224914550781250e+02,-4.842815399169921875e+01,-1.385469665527343750e+02
2.080000042915344238e-01,2.000000000000000000e+00,6.236076354980468750e-01,-9.655167579650878906e+00,5.780486679077148438e+01,1.172043228149414062e+02,7.940107727050781250e+01,-1.767323150634765625e+02,1.110135803222656250e+02,-4.874649047851562500e+01,-1.822063140869140625e+02,1.955331726074218750e+02,-4.844069671630859375e+01,-1.385526123046875000e+02
2.119999974966049194e-01,2.000000000000000000e+00,5.629260540008544922e-01,-9.614332199096679688e+00,5.777656555175781250e+01,1.172190399169921875e+02,7.940833282470703125e+01,-1.767228393554687500e+02,1.109718246459960938e+02,-4.873351669311523438e+01,-1.821963958740234375e+02,1.955438537597656250e+02,-4.845322799682617188e+01,-1.385582733154296875e+02
2.160000056028366089e-01,2.000000000000000000e+00,5.022624731063842773e-01,-9.573508262634277344e+00,5.774827194213867188e+01,1.172337493896484375e+02,7.941558074951171875e+01,-1.767133483886718750e+02,1.109300842285156250e+02,-4.872054290771484375e+01,-1.821864929199218750e+02,1.955545349121093750e+02,-4.846576309204101562e+01,-1.385639190673828125e+02
2.199999988079071045e-01,2.000000000000000000e+00,4.416169226169586182e-01,-9.532696723937988281e+00,5.771998214721679688e+01,1.172484512329101562e+02,7.942282867431640625e+01,-1.767038726806640625e+02,1.108883514404296875e+02,-4.870757675170898438e+01,-1.821765747070312500e+02,1.955652008056640625e+02,-4.847829055786132812e+01,-1.385695800781250000e+02
2.240000069141387939e-01,2.000000000000000000e+00,3.809894025325775146e-01,-9.491897583007812500e+00,5.769170761108398438e+01,1.172631607055664062e+02,7.943007659912109375e+01,-1.766943664550781250e+02,1.108466339111328125e+02,-4.869461441040039062e+01,-1.821666717529296875e+02,1.955758666992187500e+02,-4.849081420898437500e+01,-1.385752258300781250e+02
2.280000001192092896e-01,2.000000000000000000e+00,3.203798830509185791e-01,-9.451110839843750000e+00,5.766343688964843750e+01,1.172778625488281250e+02,7.943732452392578125e+01,-1.766848907470703125e+02,1.108049392700195312e+02,-4.868165588378906250e+01,-1.821567687988281250e+02,1.955865325927734375e+02,-4.850333404541015625e+01,-1.385808715820312500e+02
2.319999933242797852e-01,2.000000000000000000e+00,2.597883045673370361e-01,-9.410335540771484375e+00,5.763517379760742188e+01,1.172925415039062500e+02,7.944455718994140625e+01,-1.766754302978515625e+02,1.107632369995117188e+02,-4.866869735717773438e+01,-1.821468658447265625e+02,1.955972137451171875e+02,-4.851585006713867188e+01,-1.385865173339843750e+02
2.360000014305114746e-01,2.000000000000000000e+00,1.992147266864776611e-01,-9.369573593139648438e+00,5.760692214965820312e+01,1.173072280883789062e+02,7.945179748535156250e+01,-1.766659393310546875e+02,1.107215652465820312e+02,-4.865574645996093750e+01,-1.821369476318359375e+02,1.956078643798828125e+02,-4.852836227416992188e+01,-1.385921783447265625e+02
2.399999946355819702e-01,2.000000000000000000e+00,1.386593282222747803e-01,-9.328823089599609375e+00,5.757867431640625000e+01,1.173219146728515625e+02,7.945903015136718750e+01,-1.766564788818359375e+02,1.106799011230468750e+02,-4.864279937744140625e+01,-1.821270599365234375e+02,1.956185150146484375e+02,-4.854087066650390625e+01,-1.385978240966796875e+02
2.440000027418136597e-01,2.000000000000000000e+00,7.812218368053436279e-02,-9.288084030151367188e+00,5.755043792724609375e+01,1.173366012573242188e+02,7.946627044677734375e+01,-1.766470184326171875e+02,1.106382369995117188e+02,-4.862985610961914062e+01,-1.821171569824218750e+02,1.956291809082031250e+02,-4.855337524414062500e+01,-1.386034545898437500e+02
2.479999959468841553e-01,2.000000000000000000e+00,1.760318316519260406e-02,-9.247357368469238281e+00,5.752220916748046875e+01,1.173512725830078125e+02,7.947350311279296875e+01,-1.766375427246093750e+02,1.105965957641601562e+02,-4.861691665649414062e+01,-1.821072692871093750e+02,1.956398315429687500e+02,-4.856587600708007812e+01,-1.386091003417968750e+02
2.520000040531158447e-01,2.000000000000000000e+00,-4.289793968200683594e-02,-9.206642150878906250e+00,5.749399185180664062e+01,1.173659439086914062e+02,7.948073577880859375e+01,-1.766280822753906250e+02,1.105549697875976562e+02,-4.860397720336914062e+01,-1.820973968505859375e+02,1.956504821777343750e+02,-4.857837677001953125e+01,-1.386147460937500000e+02
2.560000121593475342e-01,2.000000000000000000e+00,-1.033813208341598511e-01,-9.165939331054687500e+00,5.746577835083007812e+01,1.173806152343750000e+02,7.948796081542968750e+01,-1.766186065673828125e+02,1.105133514404296875e+02,-4.859104919433593750e+01,-1.820875091552734375e+02,1.956611328125000000e+02,-4.859086608886718750e+01,-1.386203918457031250e+02
2.599999904632568359e-01,2.000000000000000000e+00,-1.638469099998474121e-01,-9.125249862670898438e+00,5.743757629394531250e+01,1.173952713012695312e+02,7.949518585205078125e+01,-1.766091613769531250e+02,1.104717483520507812e+02,-4.857812118530273438e+01,-1.820776214599609375e+02,1.956717681884765625e+02,-4.860335922241210938e+01,-1.386260070800781250e+02
2.639999985694885254e-01,2.000000000000000000e+00,-2.242946624755859375e-01,-9.084571838378906250e+00,5.740937805175781250e+01,1.174099426269531250e+02,7.950241088867187500e+01,-1.765997009277343750e+02,1.104301528930664062e+02,-4.856519317626953125e+01,-1.820677337646484375e+02,1.956824035644531250e+02,-4.861584472656250000e+01,-1.386316528320312500e+02
2.680000066757202148e-01,2.000000000000000000e+00,-2.847245335578918457e-01,-9.043905258178710938e+00,5.738119888305664062e+01,1.174245834350585938e+02,7.950962829589843750e+01,-1.765902557373046875e+02,1.103885726928710938e+02,-4.855227279663085938e+01,-1.820578765869140625e+02,1.956930541992187500e+02,-4.862832641601562500e+01,-1.386372833251953125e+02
2.720000147819519043e-01,2.000000000000000000e+00,-3.451365530490875244e-01,-9.003251075744628906e+00,5.735301589965820312e+01,1.174392471313476562e+02,7.951685333251953125e+01,-1.765807952880859375e+02,1.103470077514648438e+02,-4.853935623168945312e+01,-1.820480041503906250e+02,1.957036743164062500e+02,-4.864080810546875000e+01,-1.386429138183593750e+02
2.759999930858612061e-01,2.000000000000000000e+00,-4.055307805538177490e-01,-8.962609291076660156e+00,5.732484817504882812e+01,1.174538879394531250e+02,7.952407073974609375e+01,-1.765713653564453125e+02,1.103054428100585938e+02,-4.852644348144531250e+01,-1.820381164550781250e+02,1.957143096923828125e+02,-4.865328216552734375e+01,-1.386485443115234375e+02
2.800000011920928955e-01,2.000000000000000000e+00,-4.659071564674377441e-01,-8.921978950500488281e+00,5.729668807983398438e+01,1.174685287475585938e+02,7.953128051757812500e+01,-1.765619049072265625e+02,1.102639083862304688e+02,-4.851353454589843750e+01,-1.820282592773437500e+02,1.957249298095703125e+02,-4.866575241088867188e+01,-1.386541595458984375e+02
2.840000092983245850e-01,2.000000000000000000e+00,-5.262657403945922852e-01,-8.881361007690429688e+00,5.726853561401367188e+01,1.174831619262695312e+02,7.953849792480468750e+01,-1.765524749755859375e+02,1.102223739624023438e+02,-4.850062561035156250e+01,-1.820184020996093750e+02,1.957355651855468750e+02,-4.867822265625000000e+01,-1.386597900390625000e+02
2.879999876022338867e-01,2.000000000000000000e+00,-5.866065621376037598e-01,-8.840754508972167969e+00,5.724039077758789062e+01,1.174977951049804688e+02,7.954570770263671875e+01,-1.765430297851562500e+02,1.101808547973632812e+02,-4.848772811889648438e+01,-1.820085296630859375e+02,1.957461700439453125e+02,-4.869068908691406250e+01,-1.386654205322265625e+02
2.919999957084655762e-01,2.000000000000000000e+00,-6.469295620918273926e-01,-8.800161361694335938e+00,5.721225357055664062e+01,1.175124206542968750e+02,7.955292510986328125e+01,-1.765335998535156250e+02,1.101393508911132812e+02,-4.847483062744140625e+01,-1.819986724853515625e+02,1.957567901611328125e+02,-4.870314788818359375e+01,-1.386710510253906250e+02
2.960000038146972656e-01,2.000000000000000000e+00,-7.072347998619079590e-01,-8.759578704833984375e+00,5.718412399291992188e+01,1.175270538330078125e+02,7.956012725830078125e+01,-1.765241699218750000e+02,1.100978546142578125e+02,-4.846193313598632812e+01,-1.819888153076171875e+02,1.957674102783203125e+02,-4.871560287475585938e+01,-1.386766662597656250e+02
3.000000119209289551e-01,2.000000000000000000e+00,-7.675222754478454590e-01,-8.719008445739746094e+00,5.715600204467773438e+01,1.175416717529296875e+02,7.956733703613281250e+01,-1.765147399902343750e+02,1.100563659667968750e+02,-4.844904708862304688e+01,-1.819789733886718750e+02,1.957780151367187500e+02,-4.872805786132812500e+01,-1.386822814941406250e+02
3.039999902248382568e-01,2.000000000000000000e+00,-8.277921676635742188e-01,-8.678449630737304688e+00,5.712789535522460938e+01,1.175562896728515625e+02,7.957453155517578125e+01,-1.765053100585937500e+02,1.100149002075195312e+02,-4.843615722656250000e+01,-1.819691162109375000e+02,1.957886352539062500e+02,-4.874050903320312500e+01,-1.386879119873046875e+02
3.079999983310699463e-01,2.000000000000000000e+00,-8.880444169044494629e-01,-8.637902259826660156e+00,5.709979248046875000e+01,1.175708923339843750e+02,7.958173370361328125e+01,-1.764958953857421875e+02,1.099734420776367188e+02,-4.842327499389648438e+01,-1.819592742919921875e+02,1.957992248535156250e+02,-4.875295639038085938e+01,-1.386935272216796875e+02
3.120000064373016357e-01,2.000000000000000000e+00,-9.482790231704711914e-01,-8.597367286682128906e+00,5.707169723510742188e+01,1.175855026245117188e+02,7.958892822265625000e+01,-1.764864654541015625e+02,1.099319915771484375e+02,-4.841039657592773438e+01,-1.819494323730468750e+02,1.958098297119140625e+02,-4.876539993286132812e+01,-1.386991424560546875e+02
3.160000145435333252e-01,2.000000000000000000e+00,-1.008496284484863281e+00,-8.556843757629394531e+00,5.704360580444335938e+01,1.176001052856445312e+02,7.959613037109375000e+01,-1.764770507812500000e+02,1.098905563354492188e+02,-4.839751815795898438e+01,-1.819395904541015625e+02,1.958204345703125000e+02,-4.877783584594726562e+01,-1.387047576904296875e+02
3.199999928474426270e-01,2.000000000000000000e+00,-1.068695783615112305e+00,-8.516333580017089844e+00,5.701552581787109375e+01,1.176147003173828125e+02,7.960332489013671875e+01,-1.764676208496093750e+02,1.098491363525390625e+02,-4.838464736938476562e+01,-1.819297332763671875e+02,1.958310394287109375e+02,-4.879027175903320312e+01,-1.387103729248046875e+02
3.240000009536743164e-01,2.000000000000000000e+00,-1.128877758979797363e+00,-8.475833892822265625e+00,5.698745727539062500e+01,1.176293029785156250e+02,7.961051177978515625e+01,-1.764582061767578125e+02,1.098077316284179688e+02,-4.837178039550781250e+01,-1.819199066162109375e+02,1.958416137695312500e+02,-4.880270385742187500e+01,-1.387159729003906250e+02
3.280000090599060059e-01,2.000000000000000000e+00,-1.189042329788208008e+00,-8.435345649719238281e+00,5.695939636230468750e+01,1.176438903808593750e+02,7.961770629882812500e+01,-1.764488067626953125e+02,1.097663345336914062e+02,-4.835891723632812500e+01,-1.819100799560546875e+02,1.958522033691406250e+02,-4.881513214111328125e+01,-1.387215881347656250e+02
3.319999873638153076e-01,2.000000000000000000e+00,-1.249189376831054688e+00,-8.394869804382324219e+00,5.693134307861328125e+01,1.176584625244140625e+02,7.962489318847656250e+01,-1.764394073486328125e+02,1.097249374389648438e+02,-4.834605789184570312e+01,-1.819002532958984375e+02,1.958627929687500000e+02,-4.882755661010742188e+01,-1.387271881103515625e+02
3.359999954700469971e-01,2.000000000000000000e+00,-1.309319019317626953e+00,-8.354405403137207031e+00,5.690329360961914062e+01,1.176730575561523438e+02,7.963208007812500000e+01,-1.764299926757812500e+02,1.096835708618164062e+02,-4.833319854736328125e+01,-1.818904266357421875e+02,1.958733825683593750e+02,-4.883997726440429688e+01,-1.387328033447265625e+02
3.400000035762786865e-01,2.000000000000000000e+00,-1.369431018829345703e+00,-8.313953399658203125e+00,5.687525558471679688e+01,1.176876296997070312e+02,7.963925933837890625e+01,-1.764205932617187500e+02,1.096422042846679688e+02,-4.832034683227539062e+01,-1.818805999755859375e+02,1.958839569091796875e+02,-4.885239410400390625e+01,-1.387384033203125000e+02
3.440000116825103760e-01,2.000000000000000000e+00,-1.429525613784790039e+00,-8.273512840270996094e+00,5.684722900390625000e+01,1.177022094726562500e+02,7.964644622802734375e+01,-1.764111938476562500e+02,1.096008605957031250e+02,-4.830749511718750000e+01,-1.818707885742187500e+02,1.958945465087890625e+02,-4.886481094360351562e+01,-1.387440032958984375e+02
3.479999899864196777e-01,2.000000000000000000e+00,-1.489602804183959961e+00,-8.233083724975585938e+00,5.681920242309570312e+01,1.177167663574218750e+02,7.965362548828125000e+01,-1.764017944335937500e+02,1.095595245361328125e+02,-4.829465103149414062e+01,-1.818609619140625000e+02,1.959051208496093750e+02,-4.887722015380859375e+01,-1.387496032714843750e+02
3.519999980926513672e-01,2.000000000000000000e+00,-1.549662470817565918e+00,-8.192667007446289062e+00,5.679119110107421875e+01,1.177313308715820312e+02,7.966080474853515625e+01,-1.763923950195312500e+02,1.095181884765625000e+02,-4.828181076049804688e+01,-1.818511352539062500e+02,1.959156799316406250e+02,-4.888962554931640625e+01,-1.387552032470703125e+02
3.560000061988830566e-01,2.000000000000000000e+00,-1.609704732894897461e+00,-8.152260780334472656e+00,5.676318740844726562e+01,1.177458953857421875e+02,7.966797637939453125e+01,-1.763830108642578125e+02,1.094768753051757812e+02,-4.826897048950195312e+01,-1.818413238525390625e+02,1.959262390136718750e+02,-4.890202713012695312e+01,-1.387607879638671875e+02
3.600000143051147461e-01,2.000000000000000000e+00,-1.669729590415954590e+00,-8.111867904663085938e+00,5.673518753051757812e+01,1.177604522705078125e+02,7.967515563964843750e+01,-1.763736267089843750e+02,1.094355697631835938e+02,-4.825613784790039062e+01,-1.818315277099609375e+02,1.959368133544921875e+02,-4.891442871093750000e+01,-1.387663879394531250e+02
3.639999926090240479e-01,2.000000000000000000e+00,-1.729737043380737305e+00,-8.071485519409179688e+00,5.670719909667968750e+01,1.177750015258789062e+02,7.968232727050781250e+01,-1.763642425537109375e+02,1.093942871093750000e+02,-4.824330520629882812e+01,-1.818217163085937500e+02,1.959473724365234375e+02,-4.892682266235351562e+01,-1.387719726562500000e+02
3.680000007152557373e-01,2.000000000000000000e+00,-1.789727091789245605e+00,-8.031114578247070312e+00,5.667921829223632812e+01,1.177895507812500000e+02,7.968949127197265625e+01,-1.763548583984375000e+02,1.093530120849609375e+02,-4.823048019409179688e+01,-1.818119049072265625e+02,1.959579315185546875e+02,-4.893921279907226562e+01,-1.387775726318359375e+02
3.720000088214874268e-01,2.000000000000000000e+00,-1.849699735641479492e+00,-7.990756034851074219e+00,5.665124511718750000e+01,1.178041000366210938e+02,7.969666290283203125e+01,-1.763454742431640625e+02,1.093117446899414062e+02,-4.821765518188476562e+01,-1.818021087646484375e+02,1.959684906005859375e+02,-4.895160293579101562e+01,-1.387831573486328125e+02
3.759999871253967285e-01,2.000000000000000000e+00,-1.909654974937438965e+00,-7.950409412384033203e+00,5.662327957153320312e+01,1.178186340332031250e+02,7.970382690429687500e+01,-1.763360900878906250e+02,1.092704849243164062e+02,-4.820483779907226562e+01,-1.817923126220703125e+02,1.959790496826171875e+02,-4.896398925781250000e+01,-1.387887420654296875e+02
3.799999952316284180e-01,2.000000000000000000e+00,-1.969592809677124023e+00,-7.910074710845947266e+00,5.659532546997070312e+01,1.178331680297851562e+02,7.971098327636718750e+01,-1.763267211914062500e+02,1.092292480468750000e+02,-4.819202423095703125e+01,-1.817825164794921875e+02,1.959895935058593750e+02,-4.897637176513671875e+01,-1.387943420410156250e+02
3.840000033378601074e-01,2.000000000000000000e+00,-2.029513359069824219e+00,-7.869750976562500000e+00,5.656737518310546875e+01,1.178477020263671875e+02,7.971814727783203125e+01,-1.763173522949218750e+02,1.091880111694335938e+02,-4.817921066284179688e+01,-1.817727355957031250e+02,1.960001373291015625e+02,-4.898874664306640625e+01,-1.387999267578125000e+02
3.880000114440917969e-01,2.000000000000000000e+00,-2.089416742324829102e+00,-7.829439163208007812e+00,5.653943252563476562e+01,1.178622207641601562e+02,7.972531127929687500e+01,-1.763079681396484375e+02,1.091467895507812500e+02,-4.816640090942382812e+01,-1.817629394531250000e+02,1.960106811523437500e+02,-4.900112152099609375e+01,-1.388055114746093750e+02
3.919999897480010986e-01,2.000000000000000000e+00,-2.149302721023559570e+00,-7.789138317108154297e+00,5.651150131225585938e+01,1.178767471313476562e+02,7.973246765136718750e+01,-1.762986145019531250e+02,1.091055831909179688e+02,-4.815359878540039062e+01,-1.817531585693359375e+02,1.960212249755859375e+02,-4.901349258422851562e+01,-1.388110809326171875e+02
3.959999978542327881e-01,2.000000000000000000e+00,-2.209171056747436523e+00,-7.748849868774414062e+00,5.648357391357421875e+01,1.178912658691406250e+02,7.973961639404296875e+01,-1.762892456054687500e+02,1.090643920898437500e+02,-4.814079666137695312e+01,-1.817433624267578125e+02,1.960317535400390625e+02,-4.902585983276367188e+01,-1.388166656494140625e+02
4.000000059604644775e-01,2.000000000000000000e+00,-2.269022464752197266e+00,-7.708572864532470703e+00,5.645566177368164062e+01,1.179057693481445312e+02,7.974677276611328125e+01,-1.762798919677734375e+02,1.090232162475585938e+02,-4.812799835205078125e+01,-1.817335815429687500e+02,1.960422973632812500e+02,-4.903822326660156250e+01,-1.388222503662109375e+02
4.040000140666961670e-01,2.000000000000000000e+00,-2.328856229782104492e+00,-7.668308258056640625e+00,5.642775344848632812e+01,1.179202957153320312e+02,7.975392150878906250e+01,-1.762705383300781250e+02,1.089820404052734375e+02,-4.811520767211914062e+01,-1.817238006591796875e+02,1.960528259277343750e+02,-4.905058288574218750e+01,-1.388278198242187500e+02
4.079999923706054688e-01,2.000000000000000000e+00,-2.388673067092895508e+00,-7.628054618835449219e+00,5.639984893798828125e+01,1.179347839355468750e+02,7.976107025146484375e+01,-1.762611694335937500e+02,1.089408798217773438e+02,-4.810241699218750000e+01,-1.817140350341796875e+02,1.960633544921875000e+02,-4.906293869018554688e+01,-1.388334045410156250e+02
4.120000004768371582e-01,2.000000000000000000e+00,-2.448472499847412109e+00,-7.587811946868896484e+00,5.637195968627929688e+01,1.179492950439453125e+02,7.976821899414062500e+01,-1.762518157958984375e+02,1.088997344970703125e+02,-4.808963012695312500e+01,-1.817042541503906250e+02,1.960738677978515625e+02,-4.907529067993164062e+01,-1.388389739990234375e+02
4.160000085830688477e-01,2.000000000000000000e+00,-2.508254766464233398e+00,-7.547582149505615234e+00,5.634407424926757812e+01,1.179637908935546875e+02,7.977536010742187500e+01,-1.762424774169921875e+02,1.088585968017578125e+02,-4.807684707641601562e+01,-1.816944885253906250e+02,1.960844116210937500e+02,-4.908764266967773438e+01,-1.388445587158203125e+02
4.199999868869781494e-01,2.000000000000000000e+00,-2.568019390106201172e+00,-7.507362365722656250e+00,5.631619644165039062e+01,1.179782791137695312e+02,7.978250122070312500e+01,-1.762331237792968750e+02,1.088174743652343750e+02,-4.806406784057617188e+01,-1.816847076416015625e+02,1.960949249267578125e+02,-4.909998703002929688e+01,-1.388501129150390625e+02
4.239999949932098389e-01,2.000000000000000000e+00,-2.627767086029052734e+00,-7.467155456542968750e+00,5.628833007812500000e+01,1.179927749633789062e+02,7.978964233398437500e+01,-1.762237701416015625e+02,1.087763671875000000e+02,-4.805129241943359375e+01,-1.816749420166015625e+02,1.961054229736328125e+02,-4.911232757568359375e+01,-1.388556823730468750e+02
4.280000030994415283e-01,2.000000000000000000e+00,-2.687497615814208984e+00,-7.426959991455078125e+00,5.626047134399414062e+01,1.180072555541992188e+02,7.979678344726562500e+01,-1.762144317626953125e+02,1.087352676391601562e+02,-4.803852462768554688e+01,-1.816651916503906250e+02,1.961159515380859375e+02,-4.912466812133789062e+01,-1.388612518310546875e+02
4.320000112056732178e-01,2.000000000000000000e+00,-2.747210979461669922e+00,-7.386776447296142578e+00,5.623261642456054688e+01,1.180217361450195312e+02,7.980391693115234375e+01,-1.762050781250000000e+02,1.086941757202148438e+02,-4.802575683593750000e+01,-1.816554260253906250e+02,1.961264495849609375e+02,-4.913700485229492188e+01,-1.388668212890625000e+02
4.359999895095825195e-01,2.000000000000000000e+00,-2.806906938552856445e+00,-7.346603870391845703e+00,5.620477294921875000e+01,1.180362167358398438e+02,7.981105804443359375e+01,-1.761957550048828125e+02,1.086530990600585938e+02,-4.801299285888671875e+01,-1.816456756591796875e+02,1.961369781494140625e+02,-4.914933395385742188e+01,-1.388723907470703125e+02
4.399999976158142090e-01,2.000000000000000000e+00,-2.866585731506347656e+00,-7.306442260742187500e+00,5.617693710327148438e+01,1.180506820678710938e+02,7.981818389892578125e+01,-1.761864318847656250e+02,1.086120376586914062e+02,-4.800022888183593750e+01,-1.816359252929687500e+02,1.961474609375000000e+02,-4.916166305541992188e+01,-1.388779449462890625e+02
4.440000057220458984e-01,2.000000000000000000e+00,-2.926247358322143555e+00,-7.266293525695800781e+00,5.614911270141601562e+01,1.180651473999023438e+02,7.982531738281250000e+01,-1.761770782470703125e+02,1.085709838867187500e+02,-4.798747634887695312e+01,-1.816261596679687500e+02,1.961579742431640625e+02,-4.917398452758789062e+01,-1.388835144042968750e+02
4.480000138282775879e-01,2.000000000000000000e+00,-2.985891819000244141e+00,-7.226155757904052734e+00,5.612129211425781250e+01,1.180796127319335938e+02,7.983245086669921875e+01,-1.761677703857421875e+02,1.085299453735351562e+02,-4.797472000122070312e+01,-1.816164245605468750e+02,1.961684722900390625e+02,-4.918630599975585938e+01,-1.388890686035156250e+02
4.519999921321868896e-01,2.000000000000000000e+00,-3.045519351959228516e+00,-7.186029434204101562e+00,5.609347915649414062e+01,1.180940780639648438e+02,7.983956909179687500e+01,-1.761584320068359375e+02,1.084889144897460938e+02,-4.796197128295898438e+01,-1.816066894531250000e+02,1.961789703369140625e+02,-4.919862365722656250e+01,-1.388946380615234375e+02
4.560000002384185791e-01,2.000000000000000000e+00,-3.105129241943359375e+00,-7.145914554595947266e+00,5.606567382812500000e+01,1.181085357666015625e+02,7.984669494628906250e+01,-1.761491088867187500e+02,1.084478988647460938e+02,-4.794922637939453125e+01,-1.815969390869140625e+02,1.961894531250000000e+02,-4.921094131469726562e+01,-1.389001770019531250e+02
4.600000083446502686e-01,2.000000000000000000e+00,-3.164722442626953125e+00,-7.105811119079589844e+00,5.603787612915039062e+01,1.181229858398437500e+02,7.985382080078125000e+01,-1.761397857666015625e+02,1.084068908691406250e+02,-4.793648529052734375e+01,-1.815871887207031250e+02,1.961999511718750000e+02,-4.922324752807617188e+01,-1.389057312011718750e+02
4.639999866485595703e-01,2.000000000000000000e+00,-3.224298477172851562e+00,-7.065719604492187500e+00,5.601008987426757812e+01,1.181374282836914062e+02,7.986093902587890625e+01,-1.761304779052734375e+02,1.083659057617187500e+02,-4.792374801635742188e+01,-1.815774688720703125e+02,1.962104187011718750e+02,-4.923555755615234375e+01,-1.389113006591796875e+02
4.679999947547912598e-01,2.000000000000000000e+00,-3.283857345581054688e+00,-7.025639533996582031e+00,5.598231124877929688e+01,1.181518783569335938e+02,7.986804962158203125e+01,-1.761211547851562500e+02,1.083249206542968750e+02,-4.791101074218750000e+01,-1.815677337646484375e+02,1.962209167480468750e+02,-4.924785614013671875e+01,-1.389168395996093750e+02
4.720000028610229492e-01,2.000000000000000000e+00,-3.343398809432983398e+00,-6.985570907592773438e+00,5.595454025268554688e+01,1.181663208007812500e+02,7.987516784667968750e+01,-1.761118469238281250e+02,1.082839508056640625e+02,-4.789828109741210938e+01,-1.815579986572265625e+02,1.962313842773437500e+02,-4.926015853881835938e+01,-1.389223937988281250e+02
4.760000109672546387e-01,2.000000000000000000e+00,-3.402923345565795898e+00,-6.945514202117919922e+00,5.592677307128906250e+01,1.181807403564453125e+02,7.988227844238281250e+01,-1.761025390625000000e+02,1.082429962158203125e+02,-4.788555145263671875e+01,-1.815482788085937500e+02,1.962418670654296875e+02,-4.927245330810546875e+01,-1.389279479980468750e+02
4.799999892711639404e-01,2.000000000000000000e+00,-3.462430953979492188e+00,-6.905467987060546875e+00,5.589901733398437500e+01,1.181951828002929688e+02,7.988939666748046875e+01,-1.760932159423828125e+02,1.082020492553710938e+02,-4.787282943725585938e+01,-1.815385437011718750e+02,1.962523498535156250e+02,-4.928474807739257812e+01,-1.389334869384765625e+02
4.839999973773956299e-01,2.000000000000000000e+00,-3.521921634674072266e+00,-6.865433692932128906e+00,5.587126922607421875e+01,1.182096099853515625e+02,7.989650726318359375e+01,-1.760839233398437500e+02,1.081611175537109375e+02,-4.786011123657226562e+01,-1.815288238525390625e+02,1.962628173828125000e+02,-4.929703521728515625e+01,-1.389390411376953125e+02
4.880000054836273193e-01,2.000000000000000000e+00,-3.581394910812377930e+00,-6.825411319732666016e+00,5.584352874755859375e+01,1.182240295410156250e+02,7.990361022949218750e+01,-1.760746154785156250e+02,1.081201858520507812e+02,-4.784739685058593750e+01,-1.815191040039062500e+02,1.962732696533203125e+02,-4.930932235717773438e+01,-1.389445800781250000e+02
4.920000135898590088e-01,2.000000000000000000e+00,-3.640851259231567383e+00,-6.785400390625000000e+00,5.581579589843750000e+01,1.182384414672851562e+02,7.991072082519531250e+01,-1.760653076171875000e+02,1.080792770385742188e+02,-4.783468246459960938e+01,-1.815093841552734375e+02,1.962837524414062500e+02,-4.932160186767578125e+01,-1.389501190185546875e+02
4.959999918937683105e-01,2.000000000000000000e+00,-3.700290441513061523e+00,-6.745400428771972656e+00,5.578807449340820312e+01,1.182528533935546875e+02,7.991782379150390625e+01,-1.760560302734375000e+02,1.080383758544921875e+02,-4.782197189331054688e+01,-1.814996643066406250e+02,1.962942047119140625e+02,-4.933388137817382812e+01,-1.389556579589843750e+02
5.000000000000000000e-01,2.000000000000000000e+00,-3.759712696075439453e+00,-6.705412387847900391e+00,5.576035690307617188e+01,1.182672653198242188e+02,7.992491912841796875e+01,-1.760467224121093750e+02,1.079974899291992188e+02,-4.780926513671875000e+01,-1.814899597167968750e+02,1.963046722412109375e+02,-4.934615707397460938e+01,-1.389611968994140625e+02
5.040000081062316895e-01,2.000000000000000000e+00,-3.819118261337280273e+00,-6.665435314178466797e+00,5.573264694213867188e+01,1.182816772460937500e+02,7.993202209472656250e+01,-1.760374298095703125e+02,1.079566116333007812e+02,-4.779656600952148438e+01,-1.814802551269531250e+02,1.963151092529296875e+02,-4.935842895507812500e+01,-1.389667510986328125e+02
5.080000162124633789e-01,2.000000000000000000e+00,-3.878506422042846680e+00,-6.625470161437988281e+00,5.570494842529296875e+01,1.182960739135742188e+02,7.993911743164062500e+01,-1.760281372070312500e+02,1.079157562255859375e+02,-4.778386688232421875e+01,-1.814705505371093750e+02,1.963255767822265625e+02,-4.937069320678710938e+01,-1.389722747802734375e+02
5.120000243186950684e-01,2.000000000000000000e+00,-3.937877655029296875e+00,-6.585515975952148438e+00,5.567725372314453125e+01,1.183104782104492188e+02,7.994622039794921875e+01,-1.760188598632812500e+02,1.078748931884765625e+02,-4.777117156982421875e+01,-1.814608459472656250e+02,1.963360290527343750e+02,-4.938295745849609375e+01,-1.389778137207031250e+02
5.159999728202819824e-01,2.000000000000000000e+00,-3.997232198715209961e+00,-6.545573711395263672e+00,5.564957046508789062e+01,1.183248748779296875e+02,7.995330810546875000e+01,-1.760095825195312500e+02,1.078340606689453125e+02,-4.775848007202148438e+01,-1.814511566162109375e+02,1.963464660644531250e+02,-4.939521789550781250e+01,-1.389833374023437500e+02
5.199999809265136719e-01,2.000000000000000000e+00,-4.056569576263427734e+00,-6.505641937255859375e+00,5.562189102172851562e+01,1.183392562866210938e+02,7.996039581298828125e+01,-1.760002899169921875e+02,1.077932281494140625e+02,-4.774579238891601562e+01,-1.814414520263671875e+02,1.963569183349609375e+02,-4.940747833251953125e+01,-1.389888763427734375e+02
5.239999890327453613e-01,2.000000000000000000e+00,-4.115890026092529297e+00,-6.465722560882568359e+00,5.559422302246093750e+01,1.183536453247070312e+02,7.996748352050781250e+01,-1.759910125732421875e+02,1.077524108886718750e+02,-4.773310852050781250e+01,-1.814317474365234375e+02,1.963673553466796875e+02,-4.941973114013671875e+01,-1.389944000244140625e+02
5.279999971389770508e-01,2.000000000000000000e+00,-4.175193309783935547e+00,-6.425814151763916016e+00,5.556656265258789062e+01,1.183680267333984375e+02,7.997457885742187500e+01,-1.759817352294921875e+02,1.077116088867187500e+02,-4.772042846679687500e+01,-1.814220733642578125e+02,1.963777923583984375e+02,-4.943198013305664062e+01,-1.389999237060546875e+02
5.320000052452087402e-01,2.000000000000000000e+00,-4.234479904174804688e+00,-6.385917663574218750e+00,5.553890991210937500e+01,1.183824005126953125e+02,7.998165893554687500e+01,-1.759724578857421875e+02,1.076708068847656250e+02,-4.770775222778320312e+01,-1.814123687744140625e+02,1.963882293701171875e+02,-4.944422912597656250e+01,-1.390054626464843750e+02
5.360000133514404297e-01,2.000000000000000000e+00,-4.293749332427978516e+00,-6.346031665802001953e+00,5.551126480102539062e+01,1.183967666625976562e+02,7.998873901367187500e+01,-1.759631958007812500e+02,1.076300277709960938e+02,-4.769508361816406250e+01,-1.814026794433593750e+02,1.963986663818359375e+02,-4.945647048950195312e+01,-1.390109710693359375e+02
5.400000214576721191e-01,2.000000000000000000e+00,-4.353002071380615234e+00,-6.306158065795898438e+00,5.548362731933593750e+01,1.184111404418945312e+02,7.999582672119140625e+01,-1.759539184570312500e+02,1.075892562866210938e+02,-4.768241119384765625e+01,-1.813929901123046875e+02,1.964090881347656250e+02,-4.946871185302734375e+01,-1.390165100097656250e+02
5.440000295639038086e-01,2.000000000000000000e+00,-4.412237644195556641e+00,-6.266294956207275391e+00,5.545599746704101562e+01,1.184255065917968750e+02,8.000290679931640625e+01,-1.759446716308593750e+02,1.075485000610351562e+02,-4.766974639892578125e+01,-1.813833312988281250e+02,1.964195098876953125e+02,-4.948094558715820312e+01,-1.390220336914062500e+02
5.479999780654907227e-01,2.000000000000000000e+00,-4.471457004547119141e+00,-6.226443767547607422e+00,5.542837524414062500e+01,1.184398651123046875e+02,8.000998687744140625e+01,-1.759354095458984375e+02,1.075077514648437500e+02,-4.765708541870117188e+01,-1.813736419677734375e+02,1.964299316406250000e+02,-4.949317932128906250e+01,-1.390275421142578125e+02
5.519999861717224121e-01,2.000000000000000000e+00,-4.530658721923828125e+00,-6.186603546142578125e+00,5.540076446533203125e+01,1.184542236328125000e+02,8.001705932617187500e+01,-1.759261474609375000e+02,1.074670181274414062e+02,-4.764442443847656250e+01,-1.813639678955078125e+02,1.964403533935546875e+02,-4.950540924072265625e+01,-1.390330657958984375e+02
5.559999942779541016e-01,2.000000000000000000e+00,-4.589844226837158203e+00,-6.146775245666503906e+00,5.537315750122070312e+01,1.184685821533203125e+02,8.002413177490234375e+01,-1.759168853759765625e+02,1.074262924194335938e+02,-4.763177108764648438e+01,-1.813542938232421875e+02,1.964507751464843750e+02,-4.951763534545898438e+01,-1.390385894775390625e+02
5.600000023841857910e-01,2.000000000000000000e+00,-4.649012088775634766e+00,-6.106957435607910156e+00,5.534555816650390625e+01,1.184829254150390625e+02,8.003119659423828125e+01,-1.759076232910156250e+02,1.073855819702148438e+02,-4.761912155151367188e+01,-1.813446197509765625e+02,1.964611816406250000e+02,-4.952985763549804688e+01,-1.390440826416015625e+02
5.640000104904174805e-01,2.000000000000000000e+00,-4.708163738250732422e+00,-6.067151069641113281e+00,5.531797027587890625e+01,1.184972686767578125e+02,8.003826904296875000e+01,-1.758983764648437500e+02,1.073448791503906250e+02,-4.760647201538085938e+01,-1.813349609375000000e+02,1.964716033935546875e+02,-4.954207611083984375e+01,-1.390496063232421875e+02
5.680000185966491699e-01,2.000000000000000000e+00,-4.767298221588134766e+00,-6.027356624603271484e+00,5.529039001464843750e+01,1.185116119384765625e+02,8.004533386230468750e+01,-1.758891143798828125e+02,1.073041839599609375e+02,-4.759382629394531250e+01,-1.813253021240234375e+02,1.964820098876953125e+02,-4.955429458618164062e+01,-1.390551300048828125e+02
5.720000267028808594e-01,2.000000000000000000e+00,-4.826416015625000000e+00,-5.987573623657226562e+00,5.526281356811523438e+01,1.185259399414062500e+02,8.005239868164062500e+01,-1.758798675537109375e+02,1.072635116577148438e+02,-4.758118820190429688e+01,-1.813156433105468750e+02,1.964924163818359375e+02,-4.956650161743164062e+01,-1.390606384277343750e+02
5.759999752044677734e-01,2.000000000000000000e+00,-4.885517120361328125e+00,-5.947801589965820312e+00,5.523524475097656250e+01,1.185402679443359375e+02,8.005947113037109375e+01,-1.758706359863281250e+02,1.072228469848632812e+02,-4.756855392456054688e+01,-1.813059844970703125e+02,1.965028076171875000e+02,-4.957871246337890625e+01,-1.390661315917968750e+02
5.799999833106994629e-01,2.000000000000000000e+00,-4.944601058959960938e+00,-5.908040523529052734e+00,5.520768737792968750e+01,1.185546035766601562e+02,8.006652832031250000e+01,-1.758613891601562500e+02,1.071821823120117188e+02,-4.755591583251953125e+01,-1.812963256835937500e+02,1.965132141113281250e+02,-4.959091567993164062e+01,-1.390716400146484375e+02
5.839999914169311523e-01,2.000000000000000000e+00,-5.003668785095214844e+00,-5.868290901184082031e+00,5.518013763427734375e+01,1.185689315795898438e+02,8.007358551025390625e+01,-1.758521575927734375e+02,1.071415481567382812e+02,-4.754328918457031250e+01,-1.812866668701171875e+02,1.965236206054687500e+02,-4.960311889648437500e+01,-1.390771484375000000e+02
5.879999995231628418e-01,2.000000000000000000e+00,-5.062719345092773438e+00,-5.828553199768066406e+00,5.515259170532226562e+01,1.185832443237304688e+02,8.008064270019531250e+01,-1.758429260253906250e+02,1.071009140014648438e+02,-4.753066253662109375e+01,-1.812770233154296875e+02,1.965340118408203125e+02,-4.961531829833984375e+01,-1.390826568603515625e+02
5.920000076293945312e-01,2.000000000000000000e+00,-5.121753215789794922e+00,-5.788825988769531250e+00,5.512505722045898438e+01,1.185975646972656250e+02,8.008769989013671875e+01,-1.758336944580078125e+02,1.070602951049804688e+02,-4.751803970336914062e+01,-1.812673645019531250e+02,1.965443878173828125e+02,-4.962751388549804688e+01,-1.390881500244140625e+02
5.960000157356262207e-01,2.000000000000000000e+00,-5.180770397186279297e+00,-5.749110221862792969e+00,5.509753036499023438e+01,1.186118774414062500e+02,8.009475708007812500e+01,-1.758244476318359375e+02,1.070196838378906250e+02,-4.750542068481445312e+01,-1.812577209472656250e+02,1.965547943115234375e+02,-4.963970184326171875e+01,-1.390936584472656250e+02
6.000000238418579102e-01,2.000000000000000000e+00,-5.239770889282226562e+00,-5.709405899047851562e+00,5.507001113891601562e+01,1.186261825561523438e+02,8.010179901123046875e+01,-1.758152313232421875e+02,1.069790878295898438e+02,-4.749280548095703125e+01,-1.812480773925781250e+02,1.965651702880859375e+02,-4.965188980102539062e+01,-1.390991668701171875e+02
6.039999723434448242e-01,2.000000000000000000e+00,-5.298754215240478516e+00,-5.669713020324707031e+00,5.504249954223632812e+01,1.186404800415039062e+02,8.010884857177734375e+01,-1.758059997558593750e+02,1.069385070800781250e+02,-4.748019409179687500e+01,-1.812384490966796875e+02,1.965755462646484375e+02,-4.966407394409179688e+01,-1.391046600341796875e+02
6.079999804496765137e-01,2.000000000000000000e+00,-5.357720851898193359e+00,-5.630031108856201172e+00,5.501499557495117188e+01,1.186547851562500000e+02,8.011589813232421875e+01,-1.757967834472656250e+02,1.068979263305664062e+02,-4.746758651733398438e+01,-1.812288055419921875e+02,1.965859375000000000e+02,-4.967625808715820312e+01,-1.391101531982421875e+02
6.119999885559082031e-01,2.000000000000000000e+00,-5.416671276092529297e+00,-5.590360641479492188e+00,5.498749923706054688e+01,1.186690750122070312e+02,8.012294006347656250e+01,-1.757875518798828125e+02,1.068573608398437500e+02,-4.745497894287109375e+01,-1.812191619873046875e+02,1.965962982177734375e+02,-4.968843078613281250e+01,-1.391156616210937500e+02
6.159999966621398926e-01,2.000000000000000000e+00,-5.475605010986328125e+00,-5.550701618194580078e+00,5.496001434326171875e+01,1.186833801269531250e+02,8.012998199462890625e+01,-1.757783355712890625e+02,1.068168106079101562e+02,-4.744238281250000000e+01,-1.812095336914062500e+02,1.966066741943359375e+02,-4.970060729980468750e+01,-1.391211395263671875e+02
6.200000047683715820e-01,2.000000000000000000e+00,-5.534521579742431641e+00,-5.511053562164306641e+00,5.493252944946289062e+01,1.186976623535156250e+02,8.013702392578125000e+01,-1.757691345214843750e+02,1.067762756347656250e+02,-4.742978286743164062e+01,-1.811999053955078125e+02,1.966170501708984375e+02,-4.971277618408203125e+01,-1.391266326904296875e+02
6.240000128746032715e-01,2.000000000000000000e+00,-5.593421459197998047e+00,-5.471416473388671875e+00,5.490505599975585938e+01,1.187119369506835938e+02,8.014406585693359375e+01,-1.757599029541015625e+02,1.067357406616210938e+02,-4.741719055175781250e+01,-1.811902770996093750e+02,1.966274108886718750e+02,-4.972494506835937500e+01,-1.391321258544921875e+02
6.280000209808349609e-01,2.000000000000000000e+00,-5.652305126190185547e+00,-5.431790828704833984e+00,5.487759399414062500e+01,1.187262191772460938e+02,8.015110015869140625e+01,-1.757507019042968750e+02,1.066952285766601562e+02,-4.740460205078125000e+01,-1.811806640625000000e+02,1.966377716064453125e+02,-4.973710632324218750e+01,-1.391376190185546875e+02
6.320000290870666504e-01,2.000000000000000000e+00,-5.711172580718994141e+00,-5.392177104949951172e+00,5.485013580322265625e+01,1.187404937744140625e+02,8.015813446044921875e+01,-1.757415008544921875e+02,1.066547241210937500e+02,-4.739201354980468750e+01,-1.811710357666015625e+02,1.966481475830078125e+02,-4.974926757812500000e+01,-1.391430969238281250e+02
6.359999775886535645e-01,2.000000000000000000e+00,-5.770022869110107422e+00,-5.352573871612548828e+00,5.482268905639648438e+01,1.187547683715820312e+02,8.016517639160156250e+01,-1.757322845458984375e+02,1.066142272949218750e+02,-4.737942886352539062e+01,-1.811614227294921875e+02,1.966584930419921875e+02,-4.976142501831054688e+01,-1.391485900878906250e+02
6.399999856948852539e-01,2.000000000000000000e+00,-5.828856468200683594e+00,-5.312981605529785156e+00,5.479524612426757812e+01,1.187690429687500000e+02,8.017220306396484375e+01,-1.757230987548828125e+02,1.065737457275390625e+02,-4.736685180664062500e+01,-1.811518096923828125e+02,1.966688537597656250e+02,-4.977357482910156250e+01,-1.391540679931640625e+02
6.439999938011169434e-01,2.000000000000000000e+00,-5.887673377990722656e+00,-5.273400783538818359e+00,5.476781082153320312e+01,1.187833023071289062e+02,8.017922973632812500e+01,-1.757138824462890625e+02,1.065332794189453125e+02,-4.735427093505859375e+01,-1.811421966552734375e+02,1.966791992187500000e+02,-4.978572845458984375e+01,-1.391595611572265625e+02
6.480000019073486328e-01,2.000000000000000000e+00,-5.946474075317382812e+00,-5.233830928802490234e+00,5.474038314819335938e+01,1.187975616455078125e+02,8.018625640869140625e+01,-1.757046966552734375e+02,1.064928131103515625e+02,-4.734170150756835938e+01,-1.811325836181640625e+02,1.966895446777343750e+02,-4.979787445068359375e+01,-1.391650390625000000e+02
6.520000100135803223e-01,2.000000000000000000e+00,-6.005258083343505859e+00,-5.194272041320800781e+00,5.471296310424804688e+01,1.188118133544921875e+02,8.019328308105468750e+01,-1.756954956054687500e+02,1.064523620605468750e+02,-4.732913208007812500e+01,-1.811229705810546875e+02,1.966999053955078125e+02,-4.981001663208007812e+01,-1.391705169677734375e+02
6.560000181198120117e-01,2.000000000000000000e+00,-6.064025402069091797e+00,-5.154724121093750000e+00,5.468555450439453125e+01,1.188260574340820312e+02,8.020030975341796875e+01,-1.756863098144531250e+02,1.064119338989257812e+02,-4.731656646728515625e+01,-1.811133728027343750e+02,1.967102355957031250e+02,-4.982215499877929688e+01,-1.391759948730468750e+02
6.600000262260437012e-01,2.000000000000000000e+00,-6.122776508331298828e+00,-5.115187644958496094e+00,5.465815353393554688e+01,1.188403091430664062e+02,8.020732879638671875e+01,-1.756771087646484375e+02,1.063715057373046875e+02,-4.730400466918945312e+01,-1.811037597656250000e+02,1.967205810546875000e+02,-4.983429336547851562e+01,-1.391814727783203125e+02
6.639999747276306152e-01,2.000000000000000000e+00,-6.181511878967285156e+00,-5.075662136077880859e+00,5.463075637817382812e+01,1.188545532226562500e+02,8.021434783935546875e+01,-1.756679382324218750e+02,1.063310852050781250e+02,-4.729144668579101562e+01,-1.810941772460937500e+02,1.967309265136718750e+02,-4.984642410278320312e+01,-1.391869506835937500e+02
6.679999828338623047e-01,2.000000000000000000e+00,-6.240230083465576172e+00,-5.036147594451904297e+00,5.460336685180664062e+01,1.188687896728515625e+02,8.022136688232421875e+01,-1.756587371826171875e+02,1.062906875610351562e+02,-4.727889251708984375e+01,-1.810845794677734375e+02,1.967412567138671875e+02,-4.985855484008789062e+01,-1.391924133300781250e+02
6.719999909400939941e-01,2.000000000000000000e+00,-6.298932075500488281e+00,-4.996644020080566406e+00,5.457598876953125000e+01,1.188830261230468750e+02,8.022837829589843750e+01,-1.756495666503906250e+02,1.062502975463867188e+02,-4.726634216308593750e+01,-1.810749816894531250e+02,1.967515869140625000e+02,-4.987068176269531250e+01,-1.391978912353515625e+02
6.759999990463256836e-01,2.000000000000000000e+00,-6.357617378234863281e+00,-4.957151412963867188e+00,5.454861831665039062e+01,1.188972549438476562e+02,8.023539733886718750e+01,-1.756403808593750000e+02,1.062099151611328125e+02,-4.725379180908203125e+01,-1.810653991699218750e+02,1.967619171142578125e+02,-4.988280105590820312e+01,-1.392033538818359375e+02
6.800000071525573730e-01,2.000000000000000000e+00,-6.416286945343017578e+00,-4.917670249938964844e+00,5.452125167846679688e+01,1.189114913940429688e+02,8.024240112304687500e+01,-1.756311950683593750e+02,1.061695480346679688e+02,-4.724124908447265625e+01,-1.810558013916015625e+02,1.967722473144531250e+02,-4.989492034912109375e+01,-1.392088317871093750e+02
6.840000152587890625e-01,2.000000000000000000e+00,-6.474939823150634766e+00,-4.878199577331542969e+00,5.449389266967773438e+01,1.189257125854492188e+02,8.024942016601562500e+01,-1.756220397949218750e+02,1.061291885375976562e+02,-4.722871017456054688e+01,-1.810462188720703125e+02,1.967825622558593750e+02,-4.990703964233398438e+01,-1.392142944335937500e+02
6.880000233650207520e-01,2.000000000000000000e+00,-6.533576488494873047e+00,-4.838739871978759766e+00,5.446654129028320312e+01,1.189399337768554688e+02,8.025642395019531250e+01,-1.756128692626953125e+02,1.060888442993164062e+02,-4.721617126464843750e+01,-1.810366363525390625e+02,1.967928924560546875e+02,-4.991915130615234375e+01,-1.392197570800781250e+02
6.919999718666076660e-01,2.000000000000000000e+00,-6.592196941375732422e+00,-4.799291610717773438e+00,5.443920135498046875e+01,1.189541397094726562e+02,8.026342773437500000e+01,-1.756036834716796875e+02,1.060485076904296875e+02,-4.720363616943359375e+01,-1.810270690917968750e+02,1.968032073974609375e+02,-4.993125915527343750e+01,-1.392252197265625000e+02
6.959999799728393555e-01,2.000000000000000000e+00,-6.650801181793212891e+00,-4.759853363037109375e+00,5.441186523437500000e+01,1.189683609008789062e+02,8.027043151855468750e+01,-1.755945281982421875e+02,1.060081863403320312e+02,-4.719110488891601562e+01,-1.810174713134765625e+02,1.968135223388671875e+02,-4.994336318969726562e+01,-1.392306823730468750e+02
6.999999880790710449e-01,2.000000000000000000e+00,-6.709388732910156250e+00,-4.720426559448242188e+00,5.438453674316406250e+01,1.189825668334960938e+02,8.027743530273437500e+01,-1.755853576660156250e+02,1.059678649902343750e+02,-4.717858123779296875e+01,-1.810079040527343750e+02,1.968238220214843750e+02,-4.995546722412109375e+01,-1.392361602783203125e+02
7.039999961853027344e-01,2.000000000000000000e+00,-6.767960548400878906e+00,-4.681010723114013672e+00,5.435721588134765625e+01,1.189967575073242188e+02,8.028443145751953125e+01,-1.755762023925781250e+02,1.059275665283203125e+02,-4.716605758666992188e+01,-1.809983367919921875e+02,1.968341369628906250e+02,-4.996756744384765625e+01,-1.392416076660156250e+02
7.080000042915344238e-01,2.000000000000000000e+00,-6.826516151428222656e+00,-4.641605854034423828e+00,5.432990646362304688e+01,1.190109634399414062e+02,8.029142761230468750e+01,-1.755670318603515625e+02,1.058872756958007812e+02,-4.715353775024414062e+01,-1.809887542724609375e+02,1.968444366455078125e+02,-4.997966384887695312e+01,-1.392470703125000000e+02
7.120000123977661133e-01,2.000000000000000000e+00,-6.885055541992187500e+00,-4.602211475372314453e+00,5.430260467529296875e+01,1.190251617431640625e+02,8.029842376708984375e+01,-1.755578918457031250e+02,1.058469924926757812e+02,-4.714102172851562500e+01,-1.809792022705078125e+02,1.968547363281250000e+02,-4.999175643920898438e+01,-1.392525177001953125e+02
7.160000205039978027e-01,2.000000000000000000e+00,-6.943578720092773438e+00,-4.562828063964843750e+00,5.427530670166015625e+01,1.190393524169921875e+02,8.030541992187500000e+01,-1.755487365722656250e+02,1.058067245483398438e+02,-4.712850570678710938e+01,-1.809696350097656250e+02,1.968650360107421875e+02,-5.000384140014648438e+01,-1.392579803466796875e+02
7.200000286102294922e-01,2.000000000000000000e+00,-7.002086162567138672e+00,-4.523455619812011719e+00,5.424801635742187500e+01,1.190535430908203125e+02,8.031240844726562500e+01,-1.755395812988281250e+02,1.057664718627929688e+02,-4.711599349975585938e+01,-1.809600677490234375e+02,1.968753356933593750e+02,-5.001593017578125000e+01,-1.392634277343750000e+02
7.239999771118164062e-01,2.000000000000000000e+00,-7.060577392578125000e+00,-4.484093666076660156e+00,5.422073364257812500e+01,1.190677261352539062e+02,8.031940460205078125e+01,-1.755304260253906250e+02,1.057262191772460938e+02,-4.710348892211914062e+01,-1.809505157470703125e+02,1.968856353759765625e+02,-5.002801132202148438e+01,-1.392688903808593750e+02
7.279999852180480957e-01,2.000000000000000000e+00,-7.119052886962890625e+00,-4.444742679595947266e+00,5.419345855712890625e+01,1.190819015502929688e+02,8.032639312744140625e+01,-1.755212860107421875e+02,1.056859817504882812e+02,-4.709098434448242188e+01,-1.809409484863281250e+02,1.968959350585937500e+02,-5.004009246826171875e+01,-1.392743377685546875e+02
7.319999933242797852e-01,2.000000000000000000e+00,-7.177512168884277344e+00,-4.405402183532714844e+00,5.416619110107421875e+01,1.190960845947265625e+02,8.033338165283203125e+01,-1.755121307373046875e+02,1.056457595825195312e+02,-4.707848739624023438e+01,-1.809313964843750000e+02,1.969062347412109375e+02,-5.005216598510742188e+01,-1.392797851562500000e+02
7.360000014305114746e-01,2.000000000000000000e+00,-7.235954761505126953e+00,-4.366073131561279297e+00,5.413893127441406250e+01,1.191102523803710938e+02,8.034036254882812500e+01,-1.755029907226562500e+02,1.056055450439453125e+02,-4.706599044799804688e+01,-1.809218444824218750e+02,1.969165191650390625e+02,-5.006423950195312500e+01,-1.392852325439453125e+02
7.400000095367431641e-01,2.000000000000000000e+00,-7.294381618499755859e+00,-4.326754093170166016e+00,5.411167907714843750e+01,1.191244125366210938e+02,8.034735107421875000e+01,-1.754938507080078125e+02,1.055653457641601562e+02,-4.705349731445312500e+01,-1.809123077392578125e+02,1.969267883300781250e+02,-5.007631301879882812e+01,-1.392906646728515625e+02
7.440000176429748535e-01,2.000000000000000000e+00,-7.352793693542480469e+00,-4.287446498870849609e+00,5.408443450927734375e+01,1.191385803222656250e+02,8.035433197021484375e+01,-1.754847259521484375e+02,1.055251541137695312e+02,-4.704100799560546875e+01,-1.809027557373046875e+02,1.969370727539062500e+02,-5.008837509155273438e+01,-1.392961273193359375e+02
7.480000257492065430e-01,2.000000000000000000e+00,-7.411188125610351562e+00,-4.248149394989013672e+00,5.405719757080078125e+01,1.191527481079101562e+02,8.036130523681640625e+01,-1.754756011962890625e+02,1.054849700927734375e+02,-4.702852249145507812e+01,-1.808932037353515625e+02,1.969473419189453125e+02,-5.010043716430664062e+01,-1.393015747070312500e+02
7.519999742507934570e-01,2.000000000000000000e+00,-7.469567298889160156e+00,-4.208862781524658203e+00,5.402996444702148438e+01,1.191669006347656250e+02,8.036828613281250000e+01,-1.754664611816406250e+02,1.054448013305664062e+02,-4.701604080200195312e+01,-1.808836669921875000e+02,1.969576263427734375e+02,-5.011249923706054688e+01,-1.393070068359375000e+02
7.559999823570251465e-01,2.000000000000000000e+00,-7.527930736541748047e+00,-4.169587135314941406e+00,5.400274276733398438e+01,1.191810531616210938e+02,8.037525939941406250e+01,-1.754573364257812500e+02,1.054046401977539062e+02,-4.700356292724609375e+01,-1.808741302490234375e+02,1.969679107666015625e+02,-5.012455368041992188e+01,-1.393124542236328125e+02
7.599999904632568359e-01,2.000000000000000000e+00,-7.586277484893798828e+00,-4.130321979522705078e+00,5.397552871704101562e+01,1.191952056884765625e+02,8.038223266601562500e+01,-1.754482116699218750e+02,1.053644943237304688e+02,-4.699108886718750000e+01,-1.808645935058593750e+02,1.969781646728515625e+02,-5.013660812377929688e+01,-1.393178863525390625e+02
7.639999985694885254e-01,2.000000000000000000e+00,-7.644608974456787109e+00,-4.091068267822265625e+00,5.394832229614257812e+01,1.192093582153320312e+02,8.038919830322265625e+01,-1.754390869140625000e+02,1.053243560791015625e+02,-4.697861099243164062e+01,-1.808550720214843750e+02,1.969884338378906250e+02,-5.014865493774414062e+01,-1.393233184814453125e+02
7.680000066757202148e-01,2.000000000000000000e+00,-7.702923297882080078e+00,-4.051825046539306641e+00,5.392112350463867188e+01,1.192234954833984375e+02,8.039617156982421875e+01,-1.754299621582031250e+02,1.052842330932617188e+02,-4.696614456176757812e+01,-1.808455352783203125e+02,1.969986877441406250e+02,-5.016070175170898438e+01,-1.393287506103515625e+02
7.720000147819519043e-01,2.000000000000000000e+00,-7.761223316192626953e+00,-4.012591838836669922e+00,5.389392852783203125e+01,1.192376327514648438e+02,8.040313720703125000e+01,-1.754208374023437500e+02,1.052441177368164062e+02,-4.695367813110351562e+01,-1.808360137939453125e+02,1.970089569091796875e+02,-5.017274475097656250e+01,-1.393341979980468750e+02
7.760000228881835938e-01,2.000000000000000000e+00,-7.819506168365478516e+00,-3.973370075225830078e+00,5.386674499511718750e+01,1.192517700195312500e+02,8.041010284423828125e+01,-1.754117279052734375e+02,1.052040100097656250e+02,-4.694121551513671875e+01,-1.808264923095703125e+02,1.970192108154296875e+02,-5.018478393554687500e+01,-1.393396301269531250e+02
7.799999713897705078e-01,2.000000000000000000e+00,-7.877773761749267578e+00,-3.934158802032470703e+00,5.383956909179687500e+01,1.192658996582031250e+02,8.041706085205078125e+01,-1.754026031494140625e+02,1.051639175415039062e+02,-4.692875671386718750e+01,-1.808169555664062500e+02,1.970294647216796875e+02,-5.019681930541992188e+01,-1.393450469970703125e+02
7.839999794960021973e-01,2.000000000000000000e+00,-7.936026096343994141e+00,-3.894958019256591797e+00,5.381239700317382812e+01,1.192800216674804688e+02,8.042402648925781250e+01,-1.753934936523437500e+02,1.051238403320312500e+02,-4.691630172729492188e+01,-1.808074493408203125e+02,1.970397338867187500e+02,-5.020885467529296875e+01,-1.393504943847656250e+02
7.879999876022338867e-01,2.000000000000000000e+00,-7.994260787963867188e+00,-3.855768680572509766e+00,5.378523254394531250e+01,1.192941436767578125e+02,8.043098449707031250e+01,-1.753843994140625000e+02,1.050837631225585938e+02,-4.690385055541992188e+01,-1.807979278564453125e+02,1.970499725341796875e+02,-5.022088241577148438e+01,-1.393559112548828125e+02
7.919999957084655762e-01,2.000000000000000000e+00,-8.052481651306152344e+00,-3.816589355468750000e+00,5.375807571411132812e+01,1.193082580566406250e+02,8.043794250488281250e+01,-1.753752899169921875e+02,1.050437088012695312e+02,-4.689140319824218750e+01,-1.807884063720703125e+02,1.970602264404296875e+02,-5.023291015625000000e+01,-1.393613433837890625e+02
7.960000038146972656e-01,2.000000000000000000e+00,-8.110685348510742188e+00,-3.777420759201049805e+00,5.373093032836914062e+01,1.193223800659179688e+02,8.044489288330078125e+01,-1.753661956787109375e+02,1.050036544799804688e+02,-4.687895965576171875e+01,-1.807789001464843750e+02,1.970704650878906250e+02,-5.024493408203125000e+01,-1.393667755126953125e+02
8.000000119209289551e-01,2.000000000000000000e+00,-8.168872833251953125e+00,-3.738262891769409180e+00,5.370378875732421875e+01,1.193364791870117188e+02,8.045185852050781250e+01,-1.753570709228515625e+02,1.049636154174804688e+02,-4.686651992797851562e+01,-1.807693939208984375e+02,1.970807189941406250e+02,-5.025695419311523438e+01,-1.393721923828125000e+02
8.040000200271606445e-01,2.000000000000000000e+00,-8.227045059204101562e+00,-3.699115753173828125e+00,5.367665863037109375e+01,1.193505935668945312e+02,8.045880126953125000e+01,-1.753479766845703125e+02,1.049235916137695312e+02,-4.685408020019531250e+01,-1.807598724365234375e+02,1.970909423828125000e+02,-5.026897048950195312e+01,-1.393776245117187500e+02
8.080000281333923340e-01,2.000000000000000000e+00,-8.285201072692871094e+00,-3.659979104995727539e+00,5.364953231811523438e+01,1.193647003173828125e+02,8.046575927734375000e+01,-1.753388824462890625e+02,1.048835754394531250e+02,-4.684164428710937500e+01,-1.807503662109375000e+02,1.971011962890625000e+02,-5.028098297119140625e+01,-1.393830413818359375e+02
8.119999766349792480e-01,2.000000000000000000e+00,-8.343342781066894531e+00,-3.620853185653686523e+00,5.362241363525390625e+01,1.193787994384765625e+02,8.047270202636718750e+01,-1.753298034667968750e+02,1.048435668945312500e+02,-4.682921218872070312e+01,-1.807408752441406250e+02,1.971114196777343750e+02,-5.029299163818359375e+01,-1.393884582519531250e+02
8.159999847412109375e-01,2.000000000000000000e+00,-8.401466369628906250e+00,-3.581737995147705078e+00,5.359529876708984375e+01,1.193928833007812500e+02,8.047965240478515625e+01,-1.753206939697265625e+02,1.048035736083984375e+02,-4.681678390502929688e+01,-1.807313690185546875e+02,1.971216583251953125e+02,-5.030500030517578125e+01,-1.393938751220703125e+02
8.199999928474426270e-01,2.000000000000000000e+00,-8.459576606750488281e+00,-3.542633771896362305e+00,5.356819915771484375e+01,1.194069824218750000e+02,8.048659515380859375e+01,-1.753116149902343750e+02,1.047635879516601562e+02,-4.680435943603515625e+01,-1.807218780517578125e+02,1.971318664550781250e+02,-5.031700515747070312e+01,-1.393992919921875000e+02
8.240000009536743164e-01,2.000000000000000000e+00,-8.517668724060058594e+00,-3.503539800643920898e+00,5.354109954833984375e+01,1.194210662841796875e+02,8.049353790283203125e+01,-1.753025360107421875e+02,1.047236175537109375e+02,-4.679193878173828125e+01,-1.807123870849609375e+02,1.971421051025390625e+02,-5.032900238037109375e+01,-1.394047088623046875e+02
8.280000090599060059e-01,2.000000000000000000e+00,-8.575746536254882812e+00,-3.464456319808959961e+00,5.351401138305664062e+01,1.194351501464843750e+02,8.050048065185546875e+01,-1.752934417724609375e+02,1.046836547851562500e+02,-4.677952194213867188e+01,-1.807028808593750000e+02,1.971523132324218750e+02,-5.034099960327148438e+01,-1.394101257324218750e+02
8.320000171661376953e-01,2.000000000000000000e+00,-8.633807182312011719e+00,-3.425383567810058594e+00,5.348692703247070312e+01,1.194492340087890625e+02,8.050742340087890625e+01,-1.752843627929687500e+02,1.046437072753906250e+02,-4.676710510253906250e+01,-1.806934051513671875e+02,1.971625366210937500e+02,-5.035299682617187500e+01,-1.394155273437500000e+02
8.360000252723693848e-01,2.000000000000000000e+00,-8.691853523254394531e+00,-3.386321544647216797e+00,5.345985412597656250e+01,1.194633026123046875e+02,8.051435089111328125e+01,-1.752752838134765625e+02,1.046037597656250000e+02,-4.675469589233398438e+01,-1.806839141845703125e+02,1.971727600097656250e+02,-5.036498641967773438e+01,-1.394209442138671875e+02
8.399999737739562988e-01,2.000000000000000000e+00,-8.749883651733398438e+00,-3.347270250320434570e+00,5.343278884887695312e+01,1.194773864746093750e+02,8.052129364013671875e+01,-1.752662048339843750e+02,1.045638351440429688e+02,-4.674228668212890625e+01,-1.806744384765625000e+02,1.971829681396484375e+02,-5.037697219848632812e+01,-1.394263458251953125e+02
8.439999818801879883e-01,2.000000000000000000e+00,-8.807897567749023438e+00,-3.308229207992553711e+00,5.340572738647460938e+01,1.194914398193359375e+02,8.052822875976562500e+01,-1.752571258544921875e+02,1.045239181518554688e+02,-4.672988510131835938e+01,-1.806649475097656250e+02,1.971931762695312500e+02,-5.038895797729492188e+01,-1.394317626953125000e+02
8.479999899864196777e-01,2.000000000000000000e+00,-8.865896224975585938e+00,-3.269198894500732422e+00,5.337867736816406250e+01,1.195055160522460938e+02,8.053514862060546875e+01,-1.752480468750000000e+02,1.044840087890625000e+02,-4.671748352050781250e+01,-1.806554718017578125e+02,1.972033996582031250e+02,-5.040093612670898438e+01,-1.394371643066406250e+02
8.519999980926513672e-01,2.000000000000000000e+00,-8.923879623413085938e+00,-3.230179309844970703e+00,5.335163116455078125e+01,1.195195693969726562e+02,8.054208374023437500e+01,-1.752389831542968750e+02,1.044441146850585938e+02,-4.670508193969726562e+01,-1.806459960937500000e+02,1.972136077880859375e+02,-5.041291809082031250e+01,-1.394425811767578125e+02
8.560000061988830566e-01,2.000000000000000000e+00,-8.981846809387207031e+00,-3.191169977188110352e+00,5.332459259033203125e+01,1.195336227416992188e+02,8.054901123046875000e+01,-1.752299194335937500e+02,1.044042205810546875e+02,-4.669269180297851562e+01,-1.806365203857421875e+02,1.972238006591796875e+02,-5.042488861083984375e+01,-1.394479675292968750e+02
8.600000143051147461e-01,2.000000000000000000e+00,-9.039797782897949219e+00,-3.152171611785888672e+00,5.329756164550781250e+01,1.195476837158203125e+02,8.055593872070312500e+01,-1.752208557128906250e+02,1.043643493652343750e+02,-4.668030166625976562e+01,-1.806270446777343750e+02,1.972339935302734375e+02,-5.043685913085937500e+01,-1.394533843994140625e+02
8.640000224113464355e-01,2.000000000000000000e+00,-9.097733497619628906e+00,-3.113183498382568359e+00,5.327054214477539062e+01,1.195617370605468750e+02,8.056285858154296875e+01,-1.752117919921875000e+02,1.043244781494140625e+02,-4.666791152954101562e+01,-1.806175842285156250e+02,1.972442016601562500e+02,-5.044882965087890625e+01,-1.394587707519531250e+02
8.679999709129333496e-01,2.000000000000000000e+00,-9.155653953552246094e+00,-3.074206113815307617e+00,5.324352264404296875e+01,1.195757827758789062e+02,8.056977844238281250e+01,-1.752027435302734375e+02,1.042846298217773438e+02,-4.665552520751953125e+01,-1.806081085205078125e+02,1.972543945312500000e+02,-5.046079254150390625e+01,-1.394641723632812500e+02
8.719999790191650391e-01,2.000000000000000000e+00,-9.213558197021484375e+00,-3.035239219665527344e+00,5.321651458740234375e+01,1.195898208618164062e+02,8.057670593261718750e+01,-1.751936798095703125e+02,1.042447891235351562e+02,-4.664314651489257812e+01,-1.805986633300781250e+02,1.972645874023437500e+02,-5.047275543212890625e+01,-1.394695739746093750e+02
8.759999871253967285e-01,2.000000000000000000e+00,-9.271446228027343750e+00,-2.996282815933227539e+00,5.318951416015625000e+01,1.196038513183593750e+02,8.058361816406250000e+01,-1.751846313476562500e+02,1.042049560546875000e+02,-4.663076782226562500e+01,-1.805891876220703125e+02,1.972747650146484375e+02,-5.048471069335937500e+01,-1.394749603271484375e+02
8.799999952316284180e-01,2.000000000000000000e+00,-9.329319953918457031e+00,-2.957337141036987305e+00,5.316252136230468750e+01,1.196178970336914062e+02,8.059053802490234375e+01,-1.751755676269531250e+02,1.041651306152343750e+02,-4.661839294433593750e+01,-1.805797424316406250e+02,1.972849578857421875e+02,-5.049666976928710938e+01,-1.394803619384765625e+02
8.840000033378601074e-01,2.000000000000000000e+00,-9.387177467346191406e+00,-2.918401718139648438e+00,5.313553619384765625e+01,1.196319274902343750e+02,8.059745025634765625e+01,-1.751665344238281250e+02,1.041253204345703125e+02,-4.660602569580078125e+01,-1.805702667236328125e+02,1.972951354980468750e+02,-5.050861740112304688e+01,-1.394857635498046875e+02
8.880000114440917969e-01,2.000000000000000000e+00,-9.445018768310546875e+00,-2.879477024078369141e+00,5.310855484008789062e+01,1.196459579467773438e+02,8.060436248779296875e+01,-1.751574707031250000e+02,1.040855178833007812e+02,-4.659365463256835938e+01,-1.805608215332031250e+02,1.973053131103515625e+02,-5.052056884765625000e+01,-1.394911499023437500e+02
8.920000195503234863e-01,2.000000000000000000e+00,-9.502844810485839844e+00,-2.840562582015991211e+00,5.308158493041992188e+01,1.196599731445312500e+02,8.061127471923828125e+01,-1.751484222412109375e+02,1.040457382202148438e+02,-4.658129119873046875e+01,-1.805513763427734375e+02,1.973154907226562500e+02,-5.053251266479492188e+01,-1.394965362548828125e+02
8.960000276565551758e-01,2.000000000000000000e+00,-9.560655593872070312e+00,-2.801658868789672852e+00,5.305461883544921875e+01,1.196739883422851562e+02,8.061818695068359375e+01,-1.751393890380859375e+02,1.040059585571289062e+02,-4.656893157958984375e+01,-1.805419311523437500e+02,1.973256683349609375e+02,-5.054445648193359375e+01,-1.395019226074218750e+02
8.999999761581420898e-01,2.000000000000000000e+00,-9.618450164794921875e+00,-2.762765645980834961e+00,5.302766036987304688e+01,1.196880035400390625e+02,8.062509155273437500e+01,-1.751303558349609375e+02,1.039661865234375000e+02,-4.655657577514648438e+01,-1.805324859619140625e+02,1.973358459472656250e+02,-5.055639266967773438e+01,-1.395073089599609375e+02
9.039999842643737793e-01,2.000000000000000000e+00,-9.676230430603027344e+00,-2.723882913589477539e+00,5.300070953369140625e+01,1.197020187377929688e+02,8.063199615478515625e+01,-1.751213073730468750e+02,1.039264221191406250e+02,-4.654421997070312500e+01,-1.805230407714843750e+02,1.973460083007812500e+02,-5.056832885742187500e+01,-1.395126953125000000e+02
9.079999923706054688e-01,2.000000000000000000e+00,-9.733993530273437500e+00,-2.685010671615600586e+00,5.297377014160156250e+01,1.197160339355468750e+02,8.063890075683593750e+01,-1.751122894287109375e+02,1.038866806030273438e+02,-4.653186798095703125e+01,-1.805135955810546875e+02,1.973561859130859375e+02,-5.058026123046875000e+01,-1.395180969238281250e+02
9.120000004768371582e-01,2.000000000000000000e+00,-9.791741371154785156e+00,-2.646148681640625000e+00,5.294683074951171875e+01,1.197300338745117188e+02,8.064579772949218750e+01,-1.751032409667968750e+02,1.038469467163085938e+02,-4.651951980590820312e+01,-1.805041503906250000e+02,1.973663482666015625e+02,-5.059218978881835938e+01,-1.395234680175781250e+02
9.160000085830688477e-01,2.000000000000000000e+00,-9.849473953247070312e+00,-2.607297420501708984e+00,5.291990280151367188e+01,1.197440338134765625e+02,8.065269470214843750e+01,-1.750942077636718750e+02,1.038072204589843750e+02,-4.650717544555664062e+01,-1.804947357177734375e+02,1.973765106201171875e+02,-5.060411834716796875e+01,-1.395288543701171875e+02
9.200000166893005371e-01,2.000000000000000000e+00,-9.907191276550292969e+00,-2.568456411361694336e+00,5.289298248291015625e+01,1.197580261230468750e+02,8.065959930419921875e+01,-1.750851745605468750e+02,1.037675094604492188e+02,-4.649483489990234375e+01,-1.804852905273437500e+02,1.973866577148437500e+02,-5.061603927612304688e+01,-1.395342254638671875e+02
9.240000247955322266e-01,2.000000000000000000e+00,-9.964892387390136719e+00,-2.529626131057739258e+00,5.286606597900390625e+01,1.197720108032226562e+02,8.066649627685546875e+01,-1.750761718750000000e+02,1.037278060913085938e+02,-4.648249816894531250e+01,-1.804758605957031250e+02,1.973968200683593750e+02,-5.062795639038085938e+01,-1.395396118164062500e+02
9.279999732971191406e-01,2.000000000000000000e+00,-1.002257919311523438e+01,-2.490806102752685547e+00,5.283916473388671875e+01,1.197860183715820312e+02,8.067338562011718750e+01,-1.750671386718750000e+02,1.036881103515625000e+02,-4.647016143798828125e+01,-1.804664459228515625e+02,1.974069824218750000e+02,-5.063987350463867188e+01,-1.395449829101562500e+02
9.319999814033508301e-01,2.000000000000000000e+00,-1.008024978637695312e+01,-2.451996564865112305e+00,5.281226348876953125e+01,1.197999877929687500e+02,8.068027496337890625e+01,-1.750581207275390625e+02,1.036484298706054688e+02,-4.645783233642578125e+01,-1.804570159912109375e+02,1.974171295166015625e+02,-5.065178680419921875e+01,-1.395503540039062500e+02
9.359999895095825195e-01,2.000000000000000000e+00,-1.013790416717529297e+01,-2.413197517395019531e+00,5.278537368774414062e+01,1.198139801025390625e+02,8.068717193603515625e+01,-1.750491027832031250e+02,1.036087570190429688e+02,-4.644550704956054688e+01,-1.804475860595703125e+02,1.974272766113281250e+02,-5.066369628906250000e+01,-1.395557403564453125e+02
9.399999976158142090e-01,2.000000000000000000e+00,-1.019554424285888672e+01,-2.374408721923828125e+00,5.275848388671875000e+01,1.198279495239257812e+02,8.069405364990234375e+01,-1.750400848388671875e+02,1.035690994262695312e+02,-4.643318176269531250e+01,-1.804381561279296875e+02,1.974374237060546875e+02,-5.067560195922851562e+01,-1.395611114501953125e+02
9.440000057220458984e-01,2.000000000000000000e+00,-1.025316715240478516e+01,-2.335630655288696289e+00,5.273160934448242188e+01,1.198419265747070312e+02,8.070094299316406250e+01,-1.750310668945312500e+02,1.035294494628906250e+02,-4.642086029052734375e+01,-1.804287567138671875e+02,1.974475555419921875e+02,-5.068750762939453125e+01,-1.395664825439453125e+02
9.480000138282775879e-01,2.000000000000000000e+00,-1.031077575683593750e+01,-2.296862602233886719e+00,5.270473861694335938e+01,1.198559036254882812e+02,8.070783233642578125e+01,-1.750220489501953125e+02,1.034898071289062500e+02,-4.640854263305664062e+01,-1.804193420410156250e+02,1.974577026367187500e+02,-5.069940567016601562e+01,-1.395718383789062500e+02
9.520000219345092773e-01,2.000000000000000000e+00,-1.036836910247802734e+01,-2.258105278015136719e+00,5.267787551879882812e+01,1.198698654174804688e+02,8.071470642089843750e+01,-1.750130462646484375e+02,1.034501724243164062e+02,-4.639622879028320312e+01,-1.804099273681640625e+02,1.974678344726562500e+02,-5.071130371093750000e+01,-1.395772094726562500e+02
9.559999704360961914e-01,2.000000000000000000e+00,-1.042594623565673828e+01,-2.219358444213867188e+00,5.265102005004882812e+01,1.198838195800781250e+02,8.072159576416015625e+01,-1.750040588378906250e+02,1.034105606079101562e+02,-4.638391876220703125e+01,-1.804005126953125000e+02,1.974779663085937500e+02,-5.072319793701171875e+01,-1.395825805664062500e+02
9.599999785423278809e-01,2.000000000000000000e+00,-1.048350906372070312e+01,-2.180621623992919922e+00,5.262416839599609375e+01,1.198977813720703125e+02,8.072846984863281250e+01,-1.749950561523437500e+02,1.033709564208984375e+02,-4.637160873413085938e+01,-1.803910980224609375e+02,1.974880981445312500e+02,-5.073508834838867188e+01,-1.395879516601562500e+02
9.639999866485595703e-01,2.000000000000000000e+00,-1.054105567932128906e+01,-2.141895532608032227e+00,5.259732818603515625e+01,1.199117431640625000e+02,8.073535156250000000e+01,-1.749860534667968750e+02,1.033313522338867188e+02,-4.635930633544921875e+01,-1.803816986083984375e+02,1.974982299804687500e+02,-5.074697494506835938e+01,-1.395933227539062500e+02
9.679999947547912598e-01,2.000000000000000000e+00,-1.059858608245849609e+01,-2.103179693222045898e+00,5.257049560546875000e+01,1.199256896972656250e+02,8.074222564697265625e+01,-1.749770507812500000e+02,1.032917633056640625e+02,-4.634700393676757812e+01,-1.803723144531250000e+02,1.975083618164062500e+02,-5.075885772705078125e+01,-1.395986785888671875e+02
9.720000028610229492e-01,2.000000000000000000e+00,-1.065610313415527344e+01,-2.064474105834960938e+00,5.254366683959960938e+01,1.199396362304687500e+02,8.074909973144531250e+01,-1.749680480957031250e+02,1.032521896362304688e+02,-4.633470535278320312e+01,-1.803629150390625000e+02,1.975184936523437500e+02,-5.077074050903320312e+01,-1.396040344238281250e+02
9.760000109672546387e-01,2.000000000000000000e+00,-1.071360301971435547e+01,-2.025779008865356445e+00,5.251684570312500000e+01,1.199535903930664062e+02,8.075597381591796875e+01,-1.749590606689453125e+02,1.032126312255859375e+02,-4.632241058349609375e+01,-1.803535156250000000e+02,1.975286102294921875e+02,-5.078261947631835938e+01,-1.396093902587890625e+02
9.800000190734863281e-01,2.000000000000000000e+00,-1.077108764648437500e+01,-1.987094402313232422e+00,5.249003601074218750e+01,1.199675216674804688e+02,8.076284027099609375e+01,-1.749500732421875000e+02,1.031730651855468750e+02,-4.631011962890625000e+01,-1.803441162109375000e+02,1.975387115478515625e+02,-5.079449462890625000e+01,-1.396147460937500000e+02
9.840000271797180176e-01,2.000000000000000000e+00,-1.082855796813964844e+01,-1.948419928550720215e+00,5.246323013305664062e+01,1.199814529418945312e+02,8.076970672607421875e+01,-1.749410705566406250e+02,1.031335296630859375e+02,-4.629783248901367188e+01,-1.803347167968750000e+02,1.975488433837890625e+02,-5.080636596679687500e+01,-1.396201171875000000e+02
9.879999756813049316e-01,2.000000000000000000e+00,-1.088601207733154297e+01,-1.909755945205688477e+00,5.243642807006835938e+01,1.199953842163085938e+02,8.077658081054687500e+01,-1.749320831298828125e+02,1.030939941406250000e+02,-4.628554916381835938e+01,-1.803253326416015625e+02,1.975589447021484375e+02,-5.081823348999023438e+01,-1.396254730224609375e+02
9.919999837875366211e-01,2.000000000000000000e+00,-1.094345092773437500e+01,-1.871102213859558105e+00,5.240964126586914062e+01,1.200093231201171875e+02,8.078343963623046875e+01,-1.749230957031250000e+02,1.030544662475585938e+02,-4.627326583862304688e+01,-1.803159484863281250e+02,1.975690612792968750e+02,-5.083009719848632812e+01,-1.396308288574218750e+02
9.959999918937683105e-01,2.000000000000000000e+00,-1.100087451934814453e+01,-1.832458853721618652e+00,5.238285446166992188e+01,1.200232391357421875e+02,8.079029846191406250e+01,-1.749141235351562500e+02,1.030149536132812500e+02,-4.626098632812500000e+01,-1.803065643310546875e+02,1.975791625976562500e+02,-5.084196090698242188e+01,-1.396361694335937500e+02
1.000000000000000000e+00,2.000000000000000000e+00,-1.105828285217285156e+01,-1.793825864791870117e+00,5.235607910156250000e+01,1.200371627807617188e+02,8.079716491699218750e+01,-1.749051361083984375e+02,1.029754562377929688e+02,-4.624871444702148438e+01,-1.802971801757812500e+02,1.975892791748046875e+02,-5.085381698608398438e+01,-1.396415252685546875e+02
1.003999948501586914e+00,2.000000000000000000e+00,-1.111567497253417969e+01,-1.755203127861022949e+00,5.232930755615234375e+01,1.200510787963867188e+02,8.080402374267578125e+01,-1.748961639404296875e+02,1.029359664916992188e+02,-4.623643875122070312e+01,-1.802877960205078125e+02,1.975993652343750000e+02,-5.086567687988281250e+01,-1.396468811035156250e+02
1.008000016212463379e+00,2.000000000000000000e+00,-1.117305278778076172e+01,-1.716590642929077148e+00,5.230254745483398438e+01,1.200650024414062500e+02,8.081087493896484375e+01,-1.748871917724609375e+02,1.028964843750000000e+02,-4.622417449951171875e+01,-1.802784118652343750e+02,1.976094665527343750e+02,-5.087752532958984375e+01,-1.396522216796875000e+02
1.011999964714050293e+00,2.000000000000000000e+00,-1.123041534423828125e+01,-1.677988648414611816e+00,5.227578735351562500e+01,1.200789108276367188e+02,8.081773376464843750e+01,-1.748782196044921875e+02,1.028570175170898438e+02,-4.621191024780273438e+01,-1.802690429687500000e+02,1.976195526123046875e+02,-5.088937759399414062e+01,-1.396575775146484375e+02
1.016000032424926758e+00,2.000000000000000000e+00,-1.128776168823242188e+01,-1.639396905899047852e+00,5.224904251098632812e+01,1.200928115844726562e+02,8.082458496093750000e+01,-1.748692474365234375e+02,1.028175582885742188e+02,-4.619964599609375000e+01,-1.802596740722656250e+02,1.976296539306640625e+02,-5.090122222900390625e+01,-1.396629180908203125e+02
1.019999980926513672e+00,2.000000000000000000e+00,-1.134509372711181641e+01,-1.600815415382385254e+00,5.222229766845703125e+01,1.201067199707031250e+02,8.083143615722656250e+01,-1.748602752685546875e+02,1.027781066894531250e+02,-4.618738937377929688e+01,-1.802503051757812500e+02,1.976397552490234375e+02,-5.091306686401367188e+01,-1.396682586669921875e+02
1.024000048637390137e+00,2.000000000000000000e+00,-1.140241050720214844e+01,-1.562244176864624023e+00,5.219556427001953125e+01,1.201206130981445312e+02,8.083828735351562500e+01,-1.748513183593750000e+02,1.027386703491210938e+02,-4.617513275146484375e+01,-1.802409362792968750e+02,1.976498260498046875e+02,-5.092490768432617188e+01,-1.396735992431640625e+02
1.026999950408935547e+00,2.000000000000000000e+00,-1.145971107482910156e+01,-1.523683309555053711e+00,5.216883850097656250e+01,1.201345214843750000e+02,8.084513854980468750e+01,-1.748423461914062500e+02,1.026992340087890625e+02,-4.616288375854492188e+01,-1.802315673828125000e+02,1.976599273681640625e+02,-5.093674468994140625e+01,-1.396789398193359375e+02
1.031999945640563965e+00,2.000000000000000000e+00,-1.151699638366699219e+01,-1.485132694244384766e+00,5.214212036132812500e+01,1.201483993530273438e+02,8.085198211669921875e+01,-1.748333892822265625e+02,1.026598205566406250e+02,-4.615063095092773438e+01,-1.802222137451171875e+02,1.976700134277343750e+02,-5.094857788085937500e+01,-1.396842803955078125e+02
1.036000013351440430e+00,2.000000000000000000e+00,-1.157426738739013672e+01,-1.446592211723327637e+00,5.211540603637695312e+01,1.201622924804687500e+02,8.085882568359375000e+01,-1.748244323730468750e+02,1.026204147338867188e+02,-4.613838577270507812e+01,-1.802128448486328125e+02,1.976800842285156250e+02,-5.096040725708007812e+01,-1.396896209716796875e+02
1.039999961853027344e+00,2.000000000000000000e+00,-1.163152313232421875e+01,-1.408062219619750977e+00,5.208869934082031250e+01,1.201761856079101562e+02,8.086566925048828125e+01,-1.748154907226562500e+02,1.025810241699218750e+02,-4.612614440917968750e+01,-1.802034912109375000e+02,1.976901550292968750e+02,-5.097223281860351562e+01,-1.396949615478515625e+02
1.044000029563903809e+00,2.000000000000000000e+00,-1.168876266479492188e+01,-1.369542241096496582e+00,5.206200027465820312e+01,1.201900634765625000e+02,8.087250518798828125e+01,-1.748065185546875000e+02,1.025416336059570312e+02,-4.611390686035156250e+01,-1.801941375732421875e+02,1.977002410888671875e+02,-5.098405838012695312e+01,-1.397002868652343750e+02
1.047999978065490723e+00,2.000000000000000000e+00,-1.174598789215087891e+01,-1.331032752990722656e+00,5.203531265258789062e+01,1.202039413452148438e+02,8.087934875488281250e+01,-1.747975769042968750e+02,1.025022583007812500e+02,-4.610166931152343750e+01,-1.801847839355468750e+02,1.977103118896484375e+02,-5.099588012695312500e+01,-1.397056274414062500e+02
1.052000045776367188e+00,2.000000000000000000e+00,-1.180319690704345703e+01,-1.292533397674560547e+00,5.200862503051757812e+01,1.202178039550781250e+02,8.088618469238281250e+01,-1.747886199951171875e+02,1.024628906250000000e+02,-4.608943557739257812e+01,-1.801754302978515625e+02,1.977203674316406250e+02,-5.100769805908203125e+01,-1.397109680175781250e+02
1.054999947547912598e+00,2.000000000000000000e+00,-1.186039161682128906e+01,-1.254044175148010254e+00,5.198194885253906250e+01,1.202316741943359375e+02,8.089302062988281250e+01,-1.747796783447265625e+02,1.024235382080078125e+02,-4.607720947265625000e+01,-1.801660919189453125e+02,1.977304382324218750e+02,-5.101951217651367188e+01,-1.397162933349609375e+02
1.059999942779541016e+00,2.000000000000000000e+00,-1.191757011413574219e+01,-1.215565323829650879e+00,5.195528030395507812e+01,1.202455368041992188e+02,8.089985656738281250e+01,-1.747707519531250000e+02,1.023841934204101562e+02,-4.606498336791992188e+01,-1.801567535400390625e+02,1.977405090332031250e+02,-5.103132247924804688e+01,-1.397216339111328125e+02
1.064000010490417480e+00,2.000000000000000000e+00,-1.197473430633544922e+01,-1.177096724510192871e+00,5.192861557006835938e+01,1.202593994140625000e+02,8.090668487548828125e+01,-1.747617950439453125e+02,1.023448638916015625e+02,-4.605276107788085938e+01,-1.801473999023437500e+02,1.977505798339843750e+02,-5.104313278198242188e+01,-1.397269592285156250e+02
1.067999958992004395e+00,2.000000000000000000e+00,-1.203188323974609375e+01,-1.138638257980346680e+00,5.190195846557617188e+01,1.202732696533203125e+02,8.091351318359375000e+01,-1.747528686523437500e+02,1.023055419921875000e+02,-4.604053878784179688e+01,-1.801380615234375000e+02,1.977606353759765625e+02,-5.105493545532226562e+01,-1.397322845458984375e+02
1.072000026702880859e+00,2.000000000000000000e+00,-1.208901691436767578e+01,-1.100189924240112305e+00,5.187531280517578125e+01,1.202871170043945312e+02,8.092034912109375000e+01,-1.747439117431640625e+02,1.022662277221679688e+02,-4.602832412719726562e+01,-1.801287231445312500e+02,1.977706909179687500e+02,-5.106673812866210938e+01,-1.397376098632812500e+02
1.075999975204467773e+00,2.000000000000000000e+00,-1.214613533020019531e+01,-1.061751961708068848e+00,5.184867095947265625e+01,1.203009719848632812e+02,8.092716979980468750e+01,-1.747349853515625000e+02,1.022269210815429688e+02,-4.601611328125000000e+01,-1.801193847656250000e+02,1.977807312011718750e+02,-5.107854080200195312e+01,-1.397429199218750000e+02
1.080000042915344238e+00,2.000000000000000000e+00,-1.220323753356933594e+01,-1.023324012756347656e+00,5.182203292846679688e+01,1.203148193359375000e+02,8.093399047851562500e+01,-1.747260589599609375e+02,1.021876296997070312e+02,-4.600390243530273438e+01,-1.801100616455078125e+02,1.977907867431640625e+02,-5.109033584594726562e+01,-1.397482604980468750e+02
1.083999991416931152e+00,2.000000000000000000e+00,-1.226032638549804688e+01,-9.849063754081726074e-01,5.179540634155273438e+01,1.203286590576171875e+02,8.094081878662109375e+01,-1.747171325683593750e+02,1.021483459472656250e+02,-4.599169921875000000e+01,-1.801007232666015625e+02,1.978008270263671875e+02,-5.110212707519531250e+01,-1.397535705566406250e+02
1.088000059127807617e+00,2.000000000000000000e+00,-1.231739902496337891e+01,-9.464989304542541504e-01,5.176878356933593750e+01,1.203424987792968750e+02,8.094763946533203125e+01,-1.747081909179687500e+02,1.021090774536132812e+02,-4.597949218750000000e+01,-1.800914001464843750e+02,1.978108825683593750e+02,-5.111391448974609375e+01,-1.397588958740234375e+02
1.090999960899353027e+00,2.000000000000000000e+00,-1.237445735931396484e+01,-9.081016182899475098e-01,5.174217224121093750e+01,1.203563385009765625e+02,8.095445251464843750e+01,-1.746992797851562500e+02,1.020698165893554688e+02,-4.596729278564453125e+01,-1.800820770263671875e+02,1.978209228515625000e+02,-5.112570190429687500e+01,-1.397642059326171875e+02
1.095999956130981445e+00,2.000000000000000000e+00,-1.243150043487548828e+01,-8.697144389152526855e-01,5.171556854248046875e+01,1.203701705932617188e+02,8.096127319335937500e+01,-1.746903533935546875e+02,1.020305633544921875e+02,-4.595509719848632812e+01,-1.800727539062500000e+02,1.978309631347656250e+02,-5.113748550415039062e+01,-1.397695312500000000e+02
1.100000023841857910e+00,2.000000000000000000e+00,-1.248852825164794922e+01,-8.313375115394592285e-01,5.168896484375000000e+01,1.203839950561523438e+02,8.096808624267578125e+01,-1.746814270019531250e+02,1.019913253784179688e+02,-4.594290161132812500e+01,-1.800634307861328125e+02,1.978410034179687500e+02,-5.114926528930664062e+01,-1.397748565673828125e+02
1.103999972343444824e+00,2.000000000000000000e+00,-1.254554080963134766e+01,-7.929707169532775879e-01,5.166237258911132812e+01,1.203978195190429688e+02,8.097490692138671875e+01,-1.746725158691406250e+02,1.019520950317382812e+02,-4.593071365356445312e+01,-1.800541229248046875e+02,1.978510284423828125e+02,-5.116104507446289062e+01,-1.397801666259765625e+02
1.108000040054321289e+00,2.000000000000000000e+00,-1.260253715515136719e+01,-7.546140551567077637e-01,5.163578796386718750e+01,1.204116439819335938e+02,8.098171234130859375e+01,-1.746636047363281250e+02,1.019128799438476562e+02,-4.591852569580078125e+01,-1.800447998046875000e+02,1.978610687255859375e+02,-5.117281723022460938e+01,-1.397854766845703125e+02
1.111999988555908203e+00,2.000000000000000000e+00,-1.265952014923095703e+01,-7.162675261497497559e-01,5.160921096801757812e+01,1.204254684448242188e+02,8.098852539062500000e+01,-1.746546936035156250e+02,1.018736648559570312e+02,-4.590634155273437500e+01,-1.800354766845703125e+02,1.978711090087890625e+02,-5.118458938598632812e+01,-1.397907714843750000e+02
