rpiRobotics/ARM-21-02-F-19-Robot-Motion-Program/data_performance_abb/curve_1/dual_arm/diffevo_pose2/grad_result/sim/dual_iteration_0.csv
timestamp,cmd_num,J1,J2,J3,J4,J5,J6,J1_2,J2_2,J3_2,J4_2,J5_2,J6_2
0.000000000000000000e+00,-1.000000000000000000e+00,1.757990956306457520e+00,-1.121353816986083984e+01,5.794412231445312500e+01,1.158701324462890625e+02,7.787394714355468750e+01,-1.751847076416015625e+02,1.119927291870117188e+02,-4.919245529174804688e+01,-1.822588806152343750e+02,1.955728759765625000e+02,-4.830354690551757812e+01,-1.385787506103515625e+02
2.000000094994902611e-03,-1.000000000000000000e+00,1.757990956306457520e+00,-1.121353816986083984e+01,5.794412231445312500e+01,1.158701324462890625e+02,7.787394714355468750e+01,-1.751847076416015625e+02,1.119927291870117188e+02,-4.919245529174804688e+01,-1.822588806152343750e+02,1.955728759765625000e+02,-4.830354690551757812e+01,-1.385787506103515625e+02
4.000000189989805222e-03,-1.000000000000000000e+00,1.757990956306457520e+00,-1.121353816986083984e+01,5.794412231445312500e+01,1.158701324462890625e+02,7.787394714355468750e+01,-1.751847076416015625e+02,1.119927291870117188e+02,-4.919245529174804688e+01,-1.822588806152343750e+02,1.955728759765625000e+02,-4.830354690551757812e+01,-1.385787506103515625e+02
9.999999776482582092e-03,-1.000000000000000000e+00,1.757990956306457520e+00,-1.121353816986083984e+01,5.794412231445312500e+01,1.158701324462890625e+02,7.787394714355468750e+01,-1.751847076416015625e+02,1.119927291870117188e+02,-4.919245529174804688e+01,-1.822588806152343750e+02,1.955728759765625000e+02,-4.830354690551757812e+01,-1.385787506103515625e+02
1.200000010430812836e-02,-1.000000000000000000e+00,1.757990956306457520e+00,-1.121353816986083984e+01,5.794412231445312500e+01,1.158701324462890625e+02,7.787394714355468750e+01,-1.751847076416015625e+02,1.119927291870117188e+02,-4.919245529174804688e+01,-1.822588806152343750e+02,1.955728759765625000e+02,-4.830354690551757812e+01,-1.385787506103515625e+02
1.600000075995922089e-02,-1.000000000000000000e+00,1.757990956306457520e+00,-1.121353816986083984e+01,5.794412231445312500e+01,1.158701324462890625e+02,7.787394714355468750e+01,-1.751847076416015625e+02,1.119927291870117188e+02,-4.919245529174804688e+01,-1.822588806152343750e+02,1.955728759765625000e+02,-4.830354690551757812e+01,-1.385787506103515625e+02
1.999999955296516418e-02,-1.000000000000000000e+00,1.757990956306457520e+00,-1.121353816986083984e+01,5.794412231445312500e+01,1.158701324462890625e+02,7.787394714355468750e+01,-1.751847076416015625e+02,1.119927291870117188e+02,-4.919245529174804688e+01,-1.822588806152343750e+02,1.955728759765625000e+02,-4.830354690551757812e+01,-1.385787506103515625e+02
2.400000020861625671e-02,-1.000000000000000000e+00,1.757990956306457520e+00,-1.121353816986083984e+01,5.794412231445312500e+01,1.158701324462890625e+02,7.787394714355468750e+01,-1.751847076416015625e+02,1.119927291870117188e+02,-4.919245529174804688e+01,-1.822588806152343750e+02,1.955728759765625000e+02,-4.830354690551757812e+01,-1.385787506103515625e+02
2.800000086426734924e-02,-1.000000000000000000e+00,1.757990956306457520e+00,-1.121353816986083984e+01,5.794412231445312500e+01,1.158701324462890625e+02,7.787394714355468750e+01,-1.751847076416015625e+02,1.119927291870117188e+02,-4.919245529174804688e+01,-1.822588806152343750e+02,1.955728759765625000e+02,-4.830354690551757812e+01,-1.385787506103515625e+02
3.200000151991844177e-02,2.000000000000000000e+00,1.757990956306457520e+00,-1.121353816986083984e+01,5.794412231445312500e+01,1.158701324462890625e+02,7.787394714355468750e+01,-1.751847076416015625e+02,1.119927291870117188e+02,-4.919245529174804688e+01,-1.822588806152343750e+02,1.955728759765625000e+02,-4.830354690551757812e+01,-1.385787506103515625e+02
3.700000047683715820e-02,2.000000000000000000e+00,1.757990956306457520e+00,-1.121353816986083984e+01,5.794412231445312500e+01,1.158701324462890625e+02,7.787394714355468750e+01,-1.751847076416015625e+02,1.119927291870117188e+02,-4.919245529174804688e+01,-1.822588806152343750e+02,1.955728759765625000e+02,-4.830354690551757812e+01,-1.385787506103515625e+02
4.300000146031379700e-02,2.000000000000000000e+00,1.757990956306457520e+00,-1.121353816986083984e+01,5.794412231445312500e+01,1.158701324462890625e+02,7.787394714355468750e+01,-1.751847076416015625e+02,1.119927291870117188e+02,-4.919245529174804688e+01,-1.822588806152343750e+02,1.955728759765625000e+02,-4.830354690551757812e+01,-1.385787506103515625e+02
4.399999976158142090e-02,2.000000000000000000e+00,1.757990956306457520e+00,-1.121353816986083984e+01,5.794412231445312500e+01,1.158701324462890625e+02,7.787394714355468750e+01,-1.751847076416015625e+02,1.119927291870117188e+02,-4.919245529174804688e+01,-1.822588806152343750e+02,1.955728759765625000e+02,-4.830354690551757812e+01,-1.385787506103515625e+02
5.000000074505805969e-02,2.000000000000000000e+00,1.757990956306457520e+00,-1.121353816986083984e+01,5.794412231445312500e+01,1.158701324462890625e+02,7.787394714355468750e+01,-1.751847076416015625e+02,1.119927291870117188e+02,-4.919245529174804688e+01,-1.822588806152343750e+02,1.955728759765625000e+02,-4.830354690551757812e+01,-1.385787506103515625e+02
5.200000107288360596e-02,2.000000000000000000e+00,1.757990956306457520e+00,-1.121353816986083984e+01,5.794412231445312500e+01,1.158701324462890625e+02,7.787394714355468750e+01,-1.751847076416015625e+02,1.119927291870117188e+02,-4.919245529174804688e+01,-1.822588806152343750e+02,1.955728759765625000e+02,-4.830354690551757812e+01,-1.385787506103515625e+02
5.600000172853469849e-02,2.000000000000000000e+00,1.757990956306457520e+00,-1.121353816986083984e+01,5.794412231445312500e+01,1.158701324462890625e+02,7.787394714355468750e+01,-1.751847076416015625e+02,1.119927291870117188e+02,-4.919245529174804688e+01,-1.822588806152343750e+02,1.955728759765625000e+02,-4.830354690551757812e+01,-1.385787506103515625e+02
5.999999865889549255e-02,2.000000000000000000e+00,1.757990956306457520e+00,-1.121353816986083984e+01,5.794412231445312500e+01,1.158701324462890625e+02,7.787394714355468750e+01,-1.751847076416015625e+02,1.119927291870117188e+02,-4.919245529174804688e+01,-1.822588806152343750e+02,1.955728759765625000e+02,-4.830354690551757812e+01,-1.385787506103515625e+02
6.400000303983688354e-02,2.000000000000000000e+00,1.757990956306457520e+00,-1.121353816986083984e+01,5.794412231445312500e+01,1.158701324462890625e+02,7.787394714355468750e+01,-1.751847076416015625e+02,1.119927291870117188e+02,-4.919245529174804688e+01,-1.822588806152343750e+02,1.955728759765625000e+02,-4.830354690551757812e+01,-1.385787506103515625e+02
6.800000369548797607e-02,2.000000000000000000e+00,1.757990956306457520e+00,-1.121353816986083984e+01,5.794412231445312500e+01,1.158701324462890625e+02,7.787394714355468750e+01,-1.751847076416015625e+02,1.119927291870117188e+02,-4.919245529174804688e+01,-1.822588806152343750e+02,1.955728759765625000e+02,-4.830354690551757812e+01,-1.385787506103515625e+02
7.199999690055847168e-02,2.000000000000000000e+00,1.757990956306457520e+00,-1.121353816986083984e+01,5.794412231445312500e+01,1.158701324462890625e+02,7.787394714355468750e+01,-1.751847076416015625e+02,1.119927291870117188e+02,-4.919245529174804688e+01,-1.822588806152343750e+02,1.955728759765625000e+02,-4.830354690551757812e+01,-1.385787506103515625e+02
7.599999755620956421e-02,2.000000000000000000e+00,1.757924675941467285e+00,-1.121350860595703125e+01,5.794410705566406250e+01,1.158701324462890625e+02,7.787394714355468750e+01,-1.751847076416015625e+02,1.119927291870117188e+02,-4.919245529174804688e+01,-1.822588806152343750e+02,1.955728759765625000e+02,-4.830354690551757812e+01,-1.385787506103515625e+02
7.999999821186065674e-02,2.000000000000000000e+00,1.757549047470092773e+00,-1.121332454681396484e+01,5.794404602050781250e+01,1.158701324462890625e+02,7.787393951416015625e+01,-1.751847076416015625e+02,1.119927291870117188e+02,-4.919245529174804688e+01,-1.822588806152343750e+02,1.955728759765625000e+02,-4.830354690551757812e+01,-1.385787506103515625e+02
8.399999886751174927e-02,2.000000000000000000e+00,1.756470084190368652e+00,-1.121275424957275391e+01,5.794384765625000000e+01,1.158701553344726562e+02,7.787392425537109375e+01,-1.751847076416015625e+02,1.119927291870117188e+02,-4.919245529174804688e+01,-1.822588806152343750e+02,1.955728759765625000e+02,-4.830354690551757812e+01,-1.385787506103515625e+02
8.799999952316284180e-02,2.000000000000000000e+00,1.754311800003051758e+00,-1.121152877807617188e+01,5.794341278076171875e+01,1.158702163696289062e+02,7.787389373779296875e+01,-1.751846771240234375e+02,1.119927062988281250e+02,-4.919245147705078125e+01,-1.822588653564453125e+02,1.955728759765625000e+02,-4.830355072021484375e+01,-1.385787506103515625e+02
9.200000017881393433e-02,2.000000000000000000e+00,1.750832319259643555e+00,-1.120941925048828125e+01,5.794262695312500000e+01,1.158703460693359375e+02,7.787387847900390625e+01,-1.751846618652343750e+02,1.119925613403320312e+02,-4.919241714477539062e+01,-1.822588348388671875e+02,1.955728912353515625e+02,-4.830355834960937500e+01,-1.385787506103515625e+02
9.600000083446502686e-02,2.000000000000000000e+00,1.745854973793029785e+00,-1.120623779296875000e+01,5.794139099121093750e+01,1.158706359863281250e+02,7.787389373779296875e+01,-1.751845550537109375e+02,1.119920806884765625e+02,-4.919230270385742188e+01,-1.822587280273437500e+02,1.955729522705078125e+02,-4.830360412597656250e+01,-1.385787658691406250e+02
1.000000014901161194e-01,2.000000000000000000e+00,1.739208817481994629e+00,-1.120181083679199219e+01,5.793957519531250000e+01,1.158711242675781250e+02,7.787400817871093750e+01,-1.751844024658203125e+02,1.119909667968750000e+02,-4.919203567504882812e+01,-1.822584838867187500e+02,1.955730743408203125e+02,-4.830371475219726562e+01,-1.385787963867187500e+02
1.040000021457672119e-01,2.000000000000000000e+00,1.730828285217285156e+00,-1.119603252410888672e+01,5.793706130981445312e+01,1.158719482421875000e+02,7.787427520751953125e+01,-1.751841430664062500e+02,1.119889144897460938e+02,-4.919152450561523438e+01,-1.822580261230468750e+02,1.955733184814453125e+02,-4.830395507812500000e+01,-1.385788421630859375e+02
1.080000028014183044e-01,2.000000000000000000e+00,1.720746278762817383e+00,-1.118888378143310547e+01,5.793373870849609375e+01,1.158732070922851562e+02,7.787479400634765625e+01,-1.751837005615234375e+02,1.119855957031250000e+02,-4.919067001342773438e+01,-1.822572937011718750e+02,1.955737609863281250e+02,-4.830442047119140625e+01,-1.385789947509765625e+02
1.120000034570693970e-01,2.000000000000000000e+00,1.708900809288024902e+00,-1.118033123016357422e+01,5.792949295043945312e+01,1.158750381469726562e+02,7.787564849853515625e+01,-1.751830596923828125e+02,1.119806213378906250e+02,-4.918935012817382812e+01,-1.822561645507812500e+02,1.955745239257812500e+02,-4.830522155761718750e+01,-1.385792846679687500e+02
1.159999966621398926e-01,2.000000000000000000e+00,1.694990038871765137e+00,-1.117022418975830078e+01,5.792417907714843750e+01,1.158775634765625000e+02,7.787692260742187500e+01,-1.751821594238281250e+02,1.119737091064453125e+02,-4.918744277954101562e+01,-1.822546081542968750e+02,1.955756683349609375e+02,-4.830650329589843750e+01,-1.385797576904296875e+02
1.199999973177909851e-01,2.000000000000000000e+00,1.678548097610473633e+00,-1.115830135345458984e+01,5.791759490966796875e+01,1.158808975219726562e+02,7.787870025634765625e+01,-1.751809692382812500e+02,1.119646911621093750e+02,-4.918486404418945312e+01,-1.822525634765625000e+02,1.955773468017578125e+02,-4.830840682983398438e+01,-1.385805053710937500e+02
1.239999979734420776e-01,2.000000000000000000e+00,1.659173727035522461e+00,-1.114433097839355469e+01,5.790957641601562500e+01,1.158851699829101562e+02,7.788105773925781250e+01,-1.751794281005859375e+02,1.119534454345703125e+02,-4.918153381347656250e+01,-1.822500152587890625e+02,1.955796203613281250e+02,-4.831107330322265625e+01,-1.385816040039062500e+02
1.280000060796737671e-01,2.000000000000000000e+00,1.636682629585266113e+00,-1.112823867797851562e+01,5.790002059936523438e+01,1.158904724121093750e+02,7.788404846191406250e+01,-1.751775054931640625e+02,1.119397964477539062e+02,-4.917736816406250000e+01,-1.822468872070312500e+02,1.955826263427734375e+02,-4.831462097167968750e+01,-1.385830993652343750e+02
1.309999972581863403e-01,2.000000000000000000e+00,1.611088871955871582e+00,-1.111010074615478516e+01,5.788886642456054688e+01,1.158968887329101562e+02,7.788774871826171875e+01,-1.751751708984375000e+02,1.119235076904296875e+02,-4.917228698730468750e+01,-1.822431640625000000e+02,1.955863800048828125e+02,-4.831914901733398438e+01,-1.385850524902343750e+02
1.360000073909759521e-01,2.000000000000000000e+00,1.582481622695922852e+00,-1.109002876281738281e+01,5.787612152099609375e+01,1.159044876098632812e+02,7.789221191406250000e+01,-1.751724090576171875e+02,1.119044113159179688e+02,-4.916624069213867188e+01,-1.822388000488281250e+02,1.955909729003906250e+02,-4.832469940185546875e+01,-1.385874633789062500e+02
1.389999985694885254e-01,2.000000000000000000e+00,1.550927281379699707e+00,-1.106808948516845703e+01,5.786176300048828125e+01,1.159132843017578125e+02,7.789745330810546875e+01,-1.751691894531250000e+02,1.118824386596679688e+02,-4.915920257568359375e+01,-1.822337646484375000e+02,1.955963745117187500e+02,-4.833128356933593750e+01,-1.385903472900390625e+02
1.439999938011169434e-01,2.000000000000000000e+00,1.516506433486938477e+00,-1.104433727264404297e+01,5.784583663940429688e+01,1.159232711791992188e+02,7.790348052978515625e+01,-1.751655273437500000e+02,1.118575592041015625e+02,-4.915118408203125000e+01,-1.822280731201171875e+02,1.956025848388671875e+02,-4.833887100219726562e+01,-1.385936889648437500e+02
1.480000019073486328e-01,2.000000000000000000e+00,1.479318618774414062e+00,-1.101882171630859375e+01,5.782838439941406250e+01,1.159344024658203125e+02,7.791024017333984375e+01,-1.751614532470703125e+02,1.118298034667968750e+02,-4.914221572875976562e+01,-1.822217102050781250e+02,1.956095733642578125e+02,-4.834740066528320312e+01,-1.385974426269531250e+02
1.519999951124191284e-01,2.000000000000000000e+00,1.439364552497863770e+00,-1.099148273468017578e+01,5.780945968627929688e+01,1.159465866088867188e+02,7.791768646240234375e+01,-1.751569824218750000e+02,1.117993469238281250e+02,-4.913236618041992188e+01,-1.822147216796875000e+02,1.956172637939453125e+02,-4.835678863525390625e+01,-1.386015930175781250e+02
1.560000032186508179e-01,2.000000000000000000e+00,1.396543025970458984e+00,-1.096216392517089844e+01,5.778909683227539062e+01,1.159597396850585938e+02,7.792572784423828125e+01,-1.751521453857421875e+02,1.117664947509765625e+02,-4.912174224853515625e+01,-1.822071990966796875e+02,1.956255340576171875e+02,-4.836691665649414062e+01,-1.386060485839843750e+02
1.599999964237213135e-01,2.000000000000000000e+00,1.350827097892761230e+00,-1.093076896667480469e+01,5.776738357543945312e+01,1.159737167358398438e+02,7.793426513671875000e+01,-1.751470031738281250e+02,1.117316284179687500e+02,-4.911046218872070312e+01,-1.821992034912109375e+02,1.956343383789062500e+02,-4.837767410278320312e+01,-1.386107940673828125e+02
1.640000045299530029e-01,2.000000000000000000e+00,1.302427649497985840e+00,-1.089739418029785156e+01,5.774443435668945312e+01,1.159884185791015625e+02,7.794320678710937500e+01,-1.751416320800781250e+02,1.116950225830078125e+02,-4.909863281250000000e+01,-1.821908111572265625e+02,1.956435546875000000e+02,-4.838893508911132812e+01,-1.386157684326171875e+02
1.679999977350234985e-01,2.000000000000000000e+00,1.251762032508850098e+00,-1.086229419708251953e+01,5.772045516967773438e+01,1.160036849975585938e+02,7.795249176025390625e+01,-1.751360168457031250e+02,1.116569061279296875e+02,-4.908634948730468750e+01,-1.821820678710937500e+02,1.956531066894531250e+02,-4.840059280395507812e+01,-1.386208953857421875e+02
1.720000058412551880e-01,2.000000000000000000e+00,1.199258804321289062e+00,-1.082572746276855469e+01,5.769561386108398438e+01,1.160194396972656250e+02,7.796203613281250000e+01,-1.751302490234375000e+02,1.116175308227539062e+02,-4.907369613647460938e+01,-1.821730651855468750e+02,1.956629028320312500e+02,-4.841253280639648438e+01,-1.386261291503906250e+02
1.759999990463256836e-01,2.000000000000000000e+00,1.145210385322570801e+00,-1.078789329528808594e+01,5.767005920410156250e+01,1.160355300903320312e+02,7.797177124023437500e+01,-1.751243438720703125e+02,1.115771484375000000e+02,-4.906076812744140625e+01,-1.821638031005859375e+02,1.956728668212890625e+02,-4.842466735839843750e+01,-1.386314544677734375e+02
1.800000071525573730e-01,2.000000000000000000e+00,1.089780926704406738e+00,-1.074895095825195312e+01,5.764393615722656250e+01,1.160519104003906250e+02,7.798164367675781250e+01,-1.751183471679687500e+02,1.115360183715820312e+02,-4.904764175415039062e+01,-1.821543884277343750e+02,1.956829528808593750e+02,-4.843691635131835938e+01,-1.386368255615234375e+02
1.840000003576278687e-01,2.000000000000000000e+00,1.033098101615905762e+00,-1.070905876159667969e+01,5.761735916137695312e+01,1.160684661865234375e+02,7.799159240722656250e+01,-1.751122894287109375e+02,1.114943389892578125e+02,-4.903437423706054688e+01,-1.821448364257812500e+02,1.956930847167968750e+02,-4.844923400878906250e+01,-1.386421813964843750e+02
1.879999935626983643e-01,2.000000000000000000e+00,9.753151535987854004e-01,-1.066837692260742188e+01,5.759041976928710938e+01,1.160851440429687500e+02,7.800158691406250000e+01,-1.751061859130859375e+02,1.114523086547851562e+02,-4.902101898193359375e+01,-1.821352081298828125e+02,1.957032775878906250e+02,-4.846158599853515625e+01,-1.386475830078125000e+02
1.920000016689300537e-01,2.000000000000000000e+00,9.165602922439575195e-01,-1.062703990936279297e+01,5.756321716308593750e+01,1.161019058227539062e+02,7.801160430908203125e+01,-1.751000518798828125e+02,1.114100952148437500e+02,-4.900762176513671875e+01,-1.821255493164062500e+02,1.957134704589843750e+02,-4.847394943237304688e+01,-1.386529693603515625e+02
1.959999948740005493e-01,2.000000000000000000e+00,8.569463491439819336e-01,-1.058517837524414062e+01,5.753582000732421875e+01,1.161186828613281250e+02,7.802160644531250000e+01,-1.750939178466796875e+02,1.113678283691406250e+02,-4.899421691894531250e+01,-1.821158599853515625e+02,1.957236785888671875e+02,-4.848631286621093750e+01,-1.386583404541015625e+02
2.000000029802322388e-01,2.000000000000000000e+00,7.966760993003845215e-01,-1.054295444488525391e+01,5.750829315185546875e+01,1.161354827880859375e+02,7.803160095214843750e+01,-1.750877838134765625e+02,1.113255615234375000e+02,-4.898081207275390625e+01,-1.821061859130859375e+02,1.957338867187500000e+02,-4.849867248535156250e+01,-1.386637268066406250e+02
2.039999961853027344e-01,2.000000000000000000e+00,7.360366582870483398e-01,-1.050054931640625000e+01,5.748070907592773438e+01,1.161522979736328125e+02,7.804158782958984375e+01,-1.750816497802734375e+02,1.112833099365234375e+02,-4.896741104125976562e+01,-1.820965118408203125e+02,1.957440643310546875e+02,-4.851102828979492188e+01,-1.386691131591796875e+02
2.080000042915344238e-01,2.000000000000000000e+00,6.752796769142150879e-01,-1.045809268951416016e+01,5.745311355590820312e+01,1.161690902709960938e+02,7.805157470703125000e+01,-1.750755157470703125e+02,1.112410736083984375e+02,-4.895401763916015625e+01,-1.820868377685546875e+02,1.957542572021484375e+02,-4.852338027954101562e+01,-1.386744995117187500e+02
2.119999974966049194e-01,2.000000000000000000e+00,6.145215034484863281e-01,-1.041564083099365234e+01,5.742551803588867188e+01,1.161858901977539062e+02,7.806154632568359375e+01,-1.750693817138671875e+02,1.111988449096679688e+02,-4.894062805175781250e+01,-1.820771636962890625e+02,1.957644500732421875e+02,-4.853572845458984375e+01,-1.386798706054687500e+02
2.160000056028366089e-01,2.000000000000000000e+00,5.537816882133483887e-01,-1.037320137023925781e+01,5.739793395996093750e+01,1.162026824951171875e+02,7.807152557373046875e+01,-1.750632629394531250e+02,1.111566314697265625e+02,-4.892724227905273438e+01,-1.820675048828125000e+02,1.957746429443359375e+02,-4.854806900024414062e+01,-1.386852416992187500e+02
2.199999988079071045e-01,2.000000000000000000e+00,4.930610656738281250e-01,-1.033077526092529297e+01,5.737035751342773438e+01,1.162194671630859375e+02,7.808148956298828125e+01,-1.750571289062500000e+02,1.111144332885742188e+02,-4.891385650634765625e+01,-1.820578308105468750e+02,1.957848205566406250e+02,-4.856041336059570312e+01,-1.386906280517578125e+02
2.240000069141387939e-01,2.000000000000000000e+00,4.323598146438598633e-01,-1.028836250305175781e+01,5.734279251098632812e+01,1.162362442016601562e+02,7.809146118164062500e+01,-1.750509948730468750e+02,1.110722503662109375e+02,-4.890047836303710938e+01,-1.820481719970703125e+02,1.957949981689453125e+02,-4.857274627685546875e+01,-1.386959991455078125e+02
2.280000001192092896e-01,2.000000000000000000e+00,3.716775774955749512e-01,-1.024596309661865234e+01,5.731523132324218750e+01,1.162530212402343750e+02,7.810142517089843750e+01,-1.750448760986328125e+02,1.110300750732421875e+02,-4.888710403442382812e+01,-1.820385131835937500e+02,1.958051757812500000e+02,-4.858507919311523438e+01,-1.387013702392578125e+02
2.319999933242797852e-01,2.000000000000000000e+00,3.110141158103942871e-01,-1.020357704162597656e+01,5.728768539428710938e+01,1.162697906494140625e+02,7.811138153076171875e+01,-1.750387420654296875e+02,1.109879150390625000e+02,-4.887373352050781250e+01,-1.820288696289062500e+02,1.958153533935546875e+02,-4.859740829467773438e+01,-1.387067260742187500e+02
2.360000014305114746e-01,2.000000000000000000e+00,2.503693103790283203e-01,-1.016120529174804688e+01,5.726014328002929688e+01,1.162865524291992188e+02,7.812133789062500000e+01,-1.750326080322265625e+02,1.109457778930664062e+02,-4.886036682128906250e+01,-1.820192108154296875e+02,1.958255157470703125e+02,-4.860973358154296875e+01,-1.387120971679687500e+02
2.399999946355819702e-01,2.000000000000000000e+00,1.897434443235397339e-01,-1.011884689331054688e+01,5.723261260986328125e+01,1.163033142089843750e+02,7.813130187988281250e+01,-1.750264892578125000e+02,1.109036407470703125e+02,-4.884700775146484375e+01,-1.820095672607421875e+02,1.958356781005859375e+02,-4.862205505371093750e+01,-1.387174682617187500e+02
2.440000027418136597e-01,2.000000000000000000e+00,1.291365474462509155e-01,-1.007650089263916016e+01,5.720508956909179688e+01,1.163200607299804688e+02,7.814125061035156250e+01,-1.750203704833984375e+02,1.108615264892578125e+02,-4.883364868164062500e+01,-1.819999237060546875e+02,1.958458404541015625e+02,-4.863436889648437500e+01,-1.387228393554687500e+02
2.479999959468841553e-01,2.000000000000000000e+00,6.854869425296783447e-02,-1.003416919708251953e+01,5.717757797241210938e+01,1.163368072509765625e+02,7.815119934082031250e+01,-1.750142669677734375e+02,1.108194198608398438e+02,-4.882029342651367188e+01,-1.819902801513671875e+02,1.958560028076171875e+02,-4.864668273925781250e+01,-1.387281951904296875e+02
2.520000040531158447e-01,2.000000000000000000e+00,7.979935035109519958e-03,-9.991850852966308594e+00,5.715007019042968750e+01,1.163535614013671875e+02,7.816114044189453125e+01,-1.750081481933593750e+02,1.107773208618164062e+02,-4.880694580078125000e+01,-1.819806365966796875e+02,1.958661499023437500e+02,-4.865899276733398438e+01,-1.387335662841796875e+02
2.560000121593475342e-01,2.000000000000000000e+00,-5.256968364119529724e-02,-9.949544906616210938e+00,5.712257385253906250e+01,1.163702926635742188e+02,7.817108917236328125e+01,-1.750020446777343750e+02,1.107352523803710938e+02,-4.879360198974609375e+01,-1.819710083007812500e+02,1.958763122558593750e+02,-4.867129516601562500e+01,-1.387389221191406250e+02
2.599999904632568359e-01,2.000000000000000000e+00,-1.131001934409141541e-01,-9.907252311706542969e+00,5.709508514404296875e+01,1.163870239257812500e+02,7.818102264404296875e+01,-1.749959259033203125e+02,1.106931838989257812e+02,-4.878025817871093750e+01,-1.819613800048828125e+02,1.958864746093750000e+02,-4.868359756469726562e+01,-1.387442779541015625e+02
2.639999985694885254e-01,2.000000000000000000e+00,-1.736117154359817505e-01,-9.864974021911621094e+00,5.706760406494140625e+01,1.164037475585937500e+02,7.819096374511718750e+01,-1.749898223876953125e+02,1.106511306762695312e+02,-4.876692199707031250e+01,-1.819517517089843750e+02,1.958966064453125000e+02,-4.869589614868164062e+01,-1.387496185302734375e+02
2.680000066757202148e-01,2.000000000000000000e+00,-2.341042608022689819e-01,-9.822708129882812500e+00,5.704013442993164062e+01,1.164204635620117188e+02,7.820088958740234375e+01,-1.749837036132812500e+02,1.106090850830078125e+02,-4.875358963012695312e+01,-1.819421234130859375e+02,1.959067535400390625e+02,-4.870819091796875000e+01,-1.387549743652343750e+02
2.720000147819519043e-01,2.000000000000000000e+00,-2.945779263973236084e-01,-9.780454635620117188e+00,5.701266860961914062e+01,1.164371871948242188e+02,7.821082305908203125e+01,-1.749776000976562500e+02,1.105670623779296875e+02,-4.874026107788085938e+01,-1.819324951171875000e+02,1.959168853759765625e+02,-4.872048187255859375e+01,-1.387603302001953125e+02
2.759999930858612061e-01,2.000000000000000000e+00,-3.550327420234680176e-01,-9.738214492797851562e+00,5.698521423339843750e+01,1.164538955688476562e+02,7.822074890136718750e+01,-1.749714965820312500e+02,1.105250473022460938e+02,-4.872694015502929688e+01,-1.819228668212890625e+02,1.959270324707031250e+02,-4.873276519775390625e+01,-1.387656860351562500e+02
2.800000011920928955e-01,2.000000000000000000e+00,-4.154686629772186279e-01,-9.695988655090332031e+00,5.695777130126953125e+01,1.164705963134765625e+02,7.823067474365234375e+01,-1.749654083251953125e+02,1.104830474853515625e+02,-4.871361923217773438e+01,-1.819132537841796875e+02,1.959371643066406250e+02,-4.874504852294921875e+01,-1.387710266113281250e+02
2.840000092983245850e-01,2.000000000000000000e+00,-4.758857488632202148e-01,-9.653776168823242188e+00,5.693033599853515625e+01,1.164873046875000000e+02,7.824059295654296875e+01,-1.749593048095703125e+02,1.104410629272460938e+02,-4.870030212402343750e+01,-1.819036560058593750e+02,1.959472961425781250e+02,-4.875732803344726562e+01,-1.387763824462890625e+02
2.879999876022338867e-01,2.000000000000000000e+00,-5.362839698791503906e-01,-9.611575126647949219e+00,5.690290451049804688e+01,1.165039978027343750e+02,7.825051116943359375e+01,-1.749532012939453125e+02,1.103990936279296875e+02,-4.868699264526367188e+01,-1.818940277099609375e+02,1.959574127197265625e+02,-4.876959991455078125e+01,-1.387817230224609375e+02
2.919999957084655762e-01,2.000000000000000000e+00,-5.966634154319763184e-01,-9.569388389587402344e+00,5.687548446655273438e+01,1.165206909179687500e+02,7.826042175292968750e+01,-1.749471130371093750e+02,1.103571319580078125e+02,-4.867368316650390625e+01,-1.818844299316406250e+02,1.959675445556640625e+02,-4.878187179565429688e+01,-1.387870635986328125e+02
2.960000038146972656e-01,2.000000000000000000e+00,-6.570240259170532227e-01,-9.527215003967285156e+00,5.684807586669921875e+01,1.165373687744140625e+02,7.827033996582031250e+01,-1.749410095214843750e+02,1.103151855468750000e+02,-4.866037750244140625e+01,-1.818748168945312500e+02,1.959776611328125000e+02,-4.879413604736328125e+01,-1.387924194335937500e+02
3.000000119209289551e-01,2.000000000000000000e+00,-7.173658609390258789e-01,-9.485054016113281250e+00,5.682067108154296875e+01,1.165540542602539062e+02,7.828024291992187500e+01,-1.749349365234375000e+02,1.102732467651367188e+02,-4.864707946777343750e+01,-1.818652038574218750e+02,1.959877929687500000e+02,-4.880640029907226562e+01,-1.387977600097656250e+02
3.039999902248382568e-01,2.000000000000000000e+00,-7.776890397071838379e-01,-9.442906379699707031e+00,5.679327774047851562e+01,1.165707321166992188e+02,7.829014587402343750e+01,-1.749288330078125000e+02,1.102313232421875000e+02,-4.863378524780273438e+01,-1.818556213378906250e+02,1.959978942871093750e+02,-4.881866073608398438e+01,-1.388030853271484375e+02
3.079999983310699463e-01,2.000000000000000000e+00,-8.379934430122375488e-01,-9.400772094726562500e+00,5.676589202880859375e+01,1.165873947143554688e+02,7.830005645751953125e+01,-1.749227447509765625e+02,1.101894226074218750e+02,-4.862049484252929688e+01,-1.818460235595703125e+02,1.960080108642578125e+02,-4.883091354370117188e+01,-1.388084259033203125e+02
3.120000064373016357e-01,2.000000000000000000e+00,-8.982793688774108887e-01,-9.358650207519531250e+00,5.673851013183593750e+01,1.166040649414062500e+02,7.830995941162109375e+01,-1.749166717529296875e+02,1.101475219726562500e+02,-4.860720825195312500e+01,-1.818364257812500000e+02,1.960181274414062500e+02,-4.884317016601562500e+01,-1.388137817382812500e+02
3.160000145435333252e-01,2.000000000000000000e+00,-9.585466384887695312e-01,-9.316541671752929688e+00,5.671114349365234375e+01,1.166207122802734375e+02,7.831984710693359375e+01,-1.749105682373046875e+02,1.101056442260742188e+02,-4.859392547607421875e+01,-1.818268432617187500e+02,1.960282135009765625e+02,-4.885541534423828125e+01,-1.388191070556640625e+02
3.199999928474426270e-01,2.000000000000000000e+00,-1.018795371055603027e+00,-9.274444580078125000e+00,5.668378067016601562e+01,1.166373825073242188e+02,7.832974243164062500e+01,-1.749044952392578125e+02,1.100637664794921875e+02,-4.858064651489257812e+01,-1.818172454833984375e+02,1.960383300781250000e+02,-4.886766052246093750e+01,-1.388244476318359375e+02
3.240000009536743164e-01,2.000000000000000000e+00,-1.079025626182556152e+00,-9.232362747192382812e+00,5.665642929077148438e+01,1.166540145874023438e+02,7.833963775634765625e+01,-1.748984222412109375e+02,1.100219116210937500e+02,-4.856737136840820312e+01,-1.818076629638671875e+02,1.960484313964843750e+02,-4.887990188598632812e+01,-1.388297729492187500e+02
3.280000090599060059e-01,2.000000000000000000e+00,-1.139237284660339355e+00,-9.190293312072753906e+00,5.662908554077148438e+01,1.166706695556640625e+02,7.834951782226562500e+01,-1.748923339843750000e+02,1.099800720214843750e+02,-4.855410003662109375e+01,-1.817980804443359375e+02,1.960585174560546875e+02,-4.889213562011718750e+01,-1.388350982666015625e+02
3.319999873638153076e-01,2.000000000000000000e+00,-1.199430465698242188e+00,-9.148236274719238281e+00,5.660174942016601562e+01,1.166873092651367188e+02,7.835940551757812500e+01,-1.748862609863281250e+02,1.099382324218750000e+02,-4.854083251953125000e+01,-1.817884979248046875e+02,1.960686187744140625e+02,-4.890436935424804688e+01,-1.388404235839843750e+02
3.359999954700469971e-01,2.000000000000000000e+00,-1.259605169296264648e+00,-9.106191635131835938e+00,5.657442474365234375e+01,1.167039489746093750e+02,7.836928558349609375e+01,-1.748801727294921875e+02,1.098964233398437500e+02,-4.852757263183593750e+01,-1.817789154052734375e+02,1.960787048339843750e+02,-4.891659927368164062e+01,-1.388457489013671875e+02
3.400000035762786865e-01,2.000000000000000000e+00,-1.319761276245117188e+00,-9.064160346984863281e+00,5.654710769653320312e+01,1.167205734252929688e+02,7.837915802001953125e+01,-1.748741149902343750e+02,1.098546142578125000e+02,-4.851431655883789062e+01,-1.817693481445312500e+02,1.960887908935546875e+02,-4.892882537841796875e+01,-1.388510742187500000e+02
3.440000116825103760e-01,2.000000000000000000e+00,-1.379899024963378906e+00,-9.022142410278320312e+00,5.651979446411132812e+01,1.167371978759765625e+02,7.838903808593750000e+01,-1.748680419921875000e+02,1.098128204345703125e+02,-4.850105667114257812e+01,-1.817597808837890625e+02,1.960988922119140625e+02,-4.894104385375976562e+01,-1.388563995361328125e+02
3.479999899864196777e-01,2.000000000000000000e+00,-1.440018296241760254e+00,-8.980136871337890625e+00,5.649249267578125000e+01,1.167538070678710938e+02,7.839891052246093750e+01,-1.748619689941406250e+02,1.097710418701171875e+02,-4.848781204223632812e+01,-1.817502136230468750e+02,1.961089630126953125e+02,-4.895326232910156250e+01,-1.388617248535156250e+02
3.519999980926513672e-01,2.000000000000000000e+00,-1.500119090080261230e+00,-8.938144683837890625e+00,5.646519851684570312e+01,1.167704162597656250e+02,7.840877532958984375e+01,-1.748559112548828125e+02,1.097292709350585938e+02,-4.847456359863281250e+01,-1.817406463623046875e+02,1.961190338134765625e+02,-4.896547698974609375e+01,-1.388670349121093750e+02
3.560000061988830566e-01,2.000000000000000000e+00,-1.560201406478881836e+00,-8.896164894104003906e+00,5.643791580200195312e+01,1.167870254516601562e+02,7.841864776611328125e+01,-1.748498382568359375e+02,1.096875152587890625e+02,-4.846131896972656250e+01,-1.817310943603515625e+02,1.961291198730468750e+02,-4.897768783569335938e+01,-1.388723602294921875e+02
3.600000143051147461e-01,2.000000000000000000e+00,-1.620265364646911621e+00,-8.854198455810546875e+00,5.641064071655273438e+01,1.168036422729492188e+02,7.842850494384765625e+01,-1.748437805175781250e+02,1.096457824707031250e+02,-4.844808197021484375e+01,-1.817215270996093750e+02,1.961391906738281250e+02,-4.898989486694335938e+01,-1.388776855468750000e+02
3.639999926090240479e-01,2.000000000000000000e+00,-1.680310964584350586e+00,-8.812244415283203125e+00,5.638336944580078125e+01,1.168202362060546875e+02,7.843836212158203125e+01,-1.748377075195312500e+02,1.096040496826171875e+02,-4.843484878540039062e+01,-1.817119598388671875e+02,1.961492462158203125e+02,-4.900209808349609375e+01,-1.388829956054687500e+02
3.680000007152557373e-01,2.000000000000000000e+00,-1.740338087081909180e+00,-8.770303726196289062e+00,5.635610961914062500e+01,1.168368225097656250e+02,7.844822692871093750e+01,-1.748316650390625000e+02,1.095623245239257812e+02,-4.842161941528320312e+01,-1.817024230957031250e+02,1.961593170166015625e+02,-4.901429748535156250e+01,-1.388883056640625000e+02
3.720000088214874268e-01,2.000000000000000000e+00,-1.800346970558166504e+00,-8.728375434875488281e+00,5.632885742187500000e+01,1.168534164428710938e+02,7.845807647705078125e+01,-1.748255920410156250e+02,1.095206298828125000e+02,-4.840839385986328125e+01,-1.816928710937500000e+02,1.961693878173828125e+02,-4.902649307250976562e+01,-1.388936157226562500e+02
3.759999871253967285e-01,2.000000000000000000e+00,-1.860337376594543457e+00,-8.686460494995117188e+00,5.630161666870117188e+01,1.168700027465820312e+02,7.846792602539062500e+01,-1.748195343017578125e+02,1.094789352416992188e+02,-4.839516830444335938e+01,-1.816833190917968750e+02,1.961794433593750000e+02,-4.903868484497070312e+01,-1.388989257812500000e+02
3.799999952316284180e-01,2.000000000000000000e+00,-1.920309424400329590e+00,-8.644557952880859375e+00,5.627437973022460938e+01,1.168865737915039062e+02,7.847777557373046875e+01,-1.748134765625000000e+02,1.094372634887695312e+02,-4.838195419311523438e+01,-1.816737670898437500e+02,1.961894989013671875e+02,-4.905087280273437500e+01,-1.389042358398437500e+02
3.840000033378601074e-01,2.000000000000000000e+00,-1.980263113975524902e+00,-8.602668762207031250e+00,5.624715042114257812e+01,1.169031448364257812e+02,7.848762512207031250e+01,-1.748074188232421875e+02,1.093955993652343750e+02,-4.836874008178710938e+01,-1.816642303466796875e+02,1.961995544433593750e+02,-4.906305694580078125e+01,-1.389095306396484375e+02
3.880000114440917969e-01,2.000000000000000000e+00,-2.040198564529418945e+00,-8.560791015625000000e+00,5.621993255615234375e+01,1.169197158813476562e+02,7.849746704101562500e+01,-1.748013763427734375e+02,1.093539352416992188e+02,-4.835552978515625000e+01,-1.816547088623046875e+02,1.962096099853515625e+02,-4.907523727416992188e+01,-1.389148406982421875e+02
3.919999897480010986e-01,2.000000000000000000e+00,-2.100115537643432617e+00,-8.518926620483398438e+00,5.619272613525390625e+01,1.169362792968750000e+02,7.850730133056640625e+01,-1.747953338623046875e+02,1.093123016357421875e+02,-4.834232330322265625e+01,-1.816451721191406250e+02,1.962196502685546875e+02,-4.908741378784179688e+01,-1.389201507568359375e+02
3.959999978542327881e-01,2.000000000000000000e+00,-2.160014390945434570e+00,-8.477075576782226562e+00,5.616551971435546875e+01,1.169528350830078125e+02,7.851713562011718750e+01,-1.747892761230468750e+02,1.092706756591796875e+02,-4.832912063598632812e+01,-1.816356353759765625e+02,1.962296905517578125e+02,-4.909958648681640625e+01,-1.389254455566406250e+02
4.000000059604644775e-01,2.000000000000000000e+00,-2.219895124435424805e+00,-8.435237884521484375e+00,5.613832855224609375e+01,1.169693832397460938e+02,7.852696990966796875e+01,-1.747832336425781250e+02,1.092290649414062500e+02,-4.831592559814453125e+01,-1.816260986328125000e+02,1.962397308349609375e+02,-4.911175537109375000e+01,-1.389307556152343750e+02
4.040000140666961670e-01,2.000000000000000000e+00,-2.279757261276245117e+00,-8.393411636352539062e+00,5.611114120483398438e+01,1.169859390258789062e+02,7.853680419921875000e+01,-1.747771911621093750e+02,1.091874618530273438e+02,-4.830273056030273438e+01,-1.816165771484375000e+02,1.962497711181640625e+02,-4.912392425537109375e+01,-1.389360504150390625e+02
4.079999923706054688e-01,2.000000000000000000e+00,-2.339601516723632812e+00,-8.351598739624023438e+00,5.608396530151367188e+01,1.170024795532226562e+02,7.854662322998046875e+01,-1.747711486816406250e+02,1.091458740234375000e+02,-4.828953933715820312e+01,-1.816070556640625000e+02,1.962598114013671875e+02,-4.913608551025390625e+01,-1.389413452148437500e+02
4.120000004768371582e-01,2.000000000000000000e+00,-2.399427175521850586e+00,-8.309798240661621094e+00,5.605679702758789062e+01,1.170190124511718750e+02,7.855644989013671875e+01,-1.747651214599609375e+02,1.091042938232421875e+02,-4.827635574340820312e+01,-1.815975341796875000e+02,1.962698364257812500e+02,-4.914824295043945312e+01,-1.389466400146484375e+02
4.160000085830688477e-01,2.000000000000000000e+00,-2.459234714508056641e+00,-8.268011093139648438e+00,5.602963638305664062e+01,1.170355529785156250e+02,7.856627655029296875e+01,-1.747590789794921875e+02,1.090627365112304688e+02,-4.826317214965820312e+01,-1.815880126953125000e+02,1.962798767089843750e+02,-4.916039657592773438e+01,-1.389519348144531250e+02
4.199999868869781494e-01,2.000000000000000000e+00,-2.519024133682250977e+00,-8.226236343383789062e+00,5.600248336791992188e+01,1.170520706176757812e+02,7.857608795166015625e+01,-1.747530364990234375e+02,1.090211791992187500e+02,-4.824999618530273438e+01,-1.815785064697265625e+02,1.962898864746093750e+02,-4.917254638671875000e+01,-1.389572296142578125e+02
4.239999949932098389e-01,2.000000000000000000e+00,-2.578795433044433594e+00,-8.184473991394042969e+00,5.597534179687500000e+01,1.170685958862304688e+02,7.858590698242187500e+01,-1.747470092773437500e+02,1.089796447753906250e+02,-4.823682022094726562e+01,-1.815689849853515625e+02,1.962999114990234375e+02,-4.918469619750976562e+01,-1.389625244140625000e+02
4.280000030994415283e-01,2.000000000000000000e+00,-2.638548135757446289e+00,-8.142724990844726562e+00,5.594820404052734375e+01,1.170851135253906250e+02,7.859571075439453125e+01,-1.747409820556640625e+02,1.089381179809570312e+02,-4.822365188598632812e+01,-1.815594787597656250e+02,1.963099365234375000e+02,-4.919683837890625000e+01,-1.389678039550781250e+02
4.320000112056732178e-01,2.000000000000000000e+00,-2.698283195495605469e+00,-8.100987434387207031e+00,5.592107772827148438e+01,1.171016311645507812e+02,7.860552978515625000e+01,-1.747349395751953125e+02,1.088966064453125000e+02,-4.821048736572265625e+01,-1.815499725341796875e+02,1.963199462890625000e+02,-4.920897674560546875e+01,-1.389730987548828125e+02
4.359999895095825195e-01,2.000000000000000000e+00,-2.757999897003173828e+00,-8.059264183044433594e+00,5.589395904541015625e+01,1.171181259155273438e+02,7.861532592773437500e+01,-1.747289123535156250e+02,1.088551025390625000e+02,-4.819732666015625000e+01,-1.815404815673828125e+02,1.963299713134765625e+02,-4.922111511230468750e+01,-1.389783782958984375e+02
4.399999976158142090e-01,2.000000000000000000e+00,-2.817698240280151367e+00,-8.017552375793457031e+00,5.586684799194335938e+01,1.171346282958984375e+02,7.862512969970703125e+01,-1.747229003906250000e+02,1.088136138916015625e+02,-4.818416595458984375e+01,-1.815309600830078125e+02,1.963399810791015625e+02,-4.923324584960937500e+01,-1.389836730957031250e+02
4.440000057220458984e-01,2.000000000000000000e+00,-2.877378702163696289e+00,-7.975853443145751953e+00,5.583974456787109375e+01,1.171511306762695312e+02,7.863493347167968750e+01,-1.747168731689453125e+02,1.087721405029296875e+02,-4.817101669311523438e+01,-1.815214691162109375e+02,1.963499755859375000e+02,-4.924537277221679688e+01,-1.389889373779296875e+02
4.480000138282775879e-01,2.000000000000000000e+00,-2.937041044235229492e+00,-7.934168338775634766e+00,5.581265258789062500e+01,1.171676177978515625e+02,7.864472961425781250e+01,-1.747108459472656250e+02,1.087306747436523438e+02,-4.815786361694335938e+01,-1.815119781494140625e+02,1.963599853515625000e+02,-4.925749969482421875e+01,-1.389942321777343750e+02
4.519999921321868896e-01,2.000000000000000000e+00,-2.996685028076171875e+00,-7.892494678497314453e+00,5.578556442260742188e+01,1.171841125488281250e+02,7.865451812744140625e+01,-1.747048187255859375e+02,1.086892318725585938e+02,-4.814471817016601562e+01,-1.815024871826171875e+02,1.963699951171875000e+02,-4.926962280273437500e+01,-1.389994964599609375e+02
4.560000002384185791e-01,2.000000000000000000e+00,-3.056311130523681641e+00,-7.850833892822265625e+00,5.575848388671875000e+01,1.172005996704101562e+02,7.866431427001953125e+01,-1.746987915039062500e+02,1.086477966308593750e+02,-4.813158035278320312e+01,-1.814929962158203125e+02,1.963799896240234375e+02,-4.928173828125000000e+01,-1.390047912597656250e+02
4.600000083446502686e-01,2.000000000000000000e+00,-3.115919351577758789e+00,-7.809185981750488281e+00,5.573141860961914062e+01,1.172170715332031250e+02,7.867410278320312500e+01,-1.746927795410156250e+02,1.086063690185546875e+02,-4.811844253540039062e+01,-1.814835052490234375e+02,1.963899688720703125e+02,-4.929384994506835938e+01,-1.390100555419921875e+02
4.639999866485595703e-01,2.000000000000000000e+00,-3.175509214401245117e+00,-7.767549991607666016e+00,5.570435714721679688e+01,1.172335433959960938e+02,7.868389129638671875e+01,-1.746867675781250000e+02,1.085649566650390625e+02,-4.810530471801757812e+01,-1.814740295410156250e+02,1.963999786376953125e+02,-4.930596542358398438e+01,-1.390153350830078125e+02
4.679999947547912598e-01,2.000000000000000000e+00,-3.235081195831298828e+00,-7.725926876068115234e+00,5.567730331420898438e+01,1.172500076293945312e+02,7.869367218017578125e+01,-1.746807556152343750e+02,1.085235519409179688e+02,-4.809217834472656250e+01,-1.814645538330078125e+02,1.964099578857421875e+02,-4.931806945800781250e+01,-1.390205993652343750e+02
4.720000028610229492e-01,2.000000000000000000e+00,-3.294635057449340820e+00,-7.684317111968994141e+00,5.565025711059570312e+01,1.172664642333984375e+02,7.870344543457031250e+01,-1.746747436523437500e+02,1.084821701049804688e+02,-4.807905197143554688e+01,-1.814550628662109375e+02,1.964199523925781250e+02,-4.933017349243164062e+01,-1.390258789062500000e+02
4.760000109672546387e-01,2.000000000000000000e+00,-3.354170799255371094e+00,-7.642718791961669922e+00,5.562322235107421875e+01,1.172829284667968750e+02,7.871322631835937500e+01,-1.746687316894531250e+02,1.084407882690429688e+02,-4.806592941284179688e+01,-1.814455871582031250e+02,1.964299316406250000e+02,-4.934226989746093750e+01,-1.390311584472656250e+02
4.799999892711639404e-01,2.000000000000000000e+00,-3.413688659667968750e+00,-7.601133823394775391e+00,5.559619140625000000e+01,1.172993774414062500e+02,7.872299957275390625e+01,-1.746627197265625000e+02,1.083994369506835938e+02,-4.805281448364257812e+01,-1.814361267089843750e+02,1.964399108886718750e+02,-4.935436630249023438e+01,-1.390364074707031250e+02
4.839999973773956299e-01,2.000000000000000000e+00,-3.473188638687133789e+00,-7.559561252593994141e+00,5.556916809082031250e+01,1.173158187866210938e+02,7.873276519775390625e+01,-1.746567077636718750e+02,1.083580856323242188e+02,-4.803969955444335938e+01,-1.814266510009765625e+02,1.964498901367187500e+02,-4.936645889282226562e+01,-1.390416870117187500e+02
4.880000054836273193e-01,2.000000000000000000e+00,-3.532670259475708008e+00,-7.518001079559326172e+00,5.554216003417968750e+01,1.173322677612304688e+02,7.874253082275390625e+01,-1.746507110595703125e+02,1.083167419433593750e+02,-4.802658843994140625e+01,-1.814171905517578125e+02,1.964598541259765625e+02,-4.937854766845703125e+01,-1.390469512939453125e+02
4.920000135898590088e-01,2.000000000000000000e+00,-3.592134475708007812e+00,-7.476454257965087891e+00,5.551515197753906250e+01,1.173487014770507812e+02,7.875230407714843750e+01,-1.746446990966796875e+02,1.082754211425781250e+02,-4.801348495483398438e+01,-1.814077301025390625e+02,1.964698333740234375e+02,-4.939063262939453125e+01,-1.390522155761718750e+02
4.959999918937683105e-01,2.000000000000000000e+00,-3.651580095291137695e+00,-7.434918880462646484e+00,5.548815536499023438e+01,1.173651351928710938e+02,7.876206207275390625e+01,-1.746387023925781250e+02,1.082341079711914062e+02,-4.800038146972656250e+01,-1.813982696533203125e+02,1.964798126220703125e+02,-4.940271377563476562e+01,-1.390574798583984375e+02
5.000000000000000000e-01,2.000000000000000000e+00,-3.711008310317993164e+00,-7.393396377563476562e+00,5.546117019653320312e+01,1.173815689086914062e+02,7.877182006835937500e+01,-1.746327056884765625e+02,1.081928100585937500e+02,-4.798728561401367188e+01,-1.813888092041015625e+02,1.964897613525390625e+02,-4.941479110717773438e+01,-1.390627288818359375e+02
5.040000081062316895e-01,2.000000000000000000e+00,-3.770418167114257812e+00,-7.351886749267578125e+00,5.543419265747070312e+01,1.173979873657226562e+02,7.878157806396484375e+01,-1.746267089843750000e+02,1.081515197753906250e+02,-4.797418975830078125e+01,-1.813793487548828125e+02,1.964997253417968750e+02,-4.942686462402343750e+01,-1.390679931640625000e+02
5.080000162124633789e-01,2.000000000000000000e+00,-3.829810380935668945e+00,-7.310389995574951172e+00,5.540721893310546875e+01,1.174144058227539062e+02,7.879132843017578125e+01,-1.746207122802734375e+02,1.081102447509765625e+02,-4.796110153198242188e+01,-1.813699035644531250e+02,1.965096740722656250e+02,-4.943893432617187500e+01,-1.390732574462890625e+02
5.120000243186950684e-01,2.000000000000000000e+00,-3.889184951782226562e+00,-7.268905162811279297e+00,5.538025283813476562e+01,1.174308166503906250e+02,7.880107879638671875e+01,-1.746147155761718750e+02,1.080689849853515625e+02,-4.794801330566406250e+01,-1.813604583740234375e+02,1.965196380615234375e+02,-4.945100021362304688e+01,-1.390785064697265625e+02
5.159999728202819824e-01,2.000000000000000000e+00,-3.948540925979614258e+00,-7.227432250976562500e+00,5.535329818725585938e+01,1.174472198486328125e+02,7.881082153320312500e+01,-1.746087188720703125e+02,1.080277328491210938e+02,-4.793492889404296875e+01,-1.813509979248046875e+02,1.965296020507812500e+02,-4.946306610107421875e+01,-1.390837554931640625e+02
5.199999809265136719e-01,2.000000000000000000e+00,-4.007879257202148438e+00,-7.185973167419433594e+00,5.532635498046875000e+01,1.174636306762695312e+02,7.882057189941406250e+01,-1.746027374267578125e+02,1.079864959716796875e+02,-4.792185592651367188e+01,-1.813415679931640625e+02,1.965395355224609375e+02,-4.947512435913085938e+01,-1.390890045166015625e+02
5.239999890327453613e-01,2.000000000000000000e+00,-4.067200183868408203e+00,-7.144525051116943359e+00,5.529941177368164062e+01,1.174800186157226562e+02,7.883030700683593750e+01,-1.745967407226562500e+02,1.079452667236328125e+02,-4.790877914428710938e+01,-1.813321228027343750e+02,1.965494842529296875e+02,-4.948717880249023438e+01,-1.390942687988281250e+02
5.279999971389770508e-01,2.000000000000000000e+00,-4.126503467559814453e+00,-7.103090286254882812e+00,5.527248001098632812e+01,1.174964141845703125e+02,7.884004211425781250e+01,-1.745907592773437500e+02,1.079040603637695312e+02,-4.789570999145507812e+01,-1.813226928710937500e+02,1.965594329833984375e+02,-4.949923324584960938e+01,-1.390995025634765625e+02
5.320000052452087402e-01,2.000000000000000000e+00,-4.185788154602050781e+00,-7.061668395996093750e+00,5.524555969238281250e+01,1.175128021240234375e+02,7.884978485107421875e+01,-1.745847778320312500e+02,1.078628540039062500e+02,-4.788264083862304688e+01,-1.813132476806640625e+02,1.965693817138671875e+02,-4.951128005981445312e+01,-1.391047515869140625e+02
5.360000133514404297e-01,2.000000000000000000e+00,-4.245055198669433594e+00,-7.020257949829101562e+00,5.521864318847656250e+01,1.175291824340820312e+02,7.885951232910156250e+01,-1.745787963867187500e+02,1.078216705322265625e+02,-4.786957931518554688e+01,-1.813038177490234375e+02,1.965793151855468750e+02,-4.952332687377929688e+01,-1.391100006103515625e+02
5.400000214576721191e-01,2.000000000000000000e+00,-4.304304599761962891e+00,-6.978860855102539062e+00,5.519173812866210938e+01,1.175455627441406250e+02,7.886923980712890625e+01,-1.745727996826171875e+02,1.077804946899414062e+02,-4.785652160644531250e+01,-1.812944030761718750e+02,1.965892486572265625e+02,-4.953536605834960938e+01,-1.391152496337890625e+02
5.440000295639038086e-01,2.000000000000000000e+00,-4.363535881042480469e+00,-6.937475204467773438e+00,5.516483688354492188e+01,1.175619430541992188e+02,7.887896728515625000e+01,-1.745668182373046875e+02,1.077393264770507812e+02,-4.784346771240234375e+01,-1.812849731445312500e+02,1.965991821289062500e+02,-4.954740142822265625e+01,-1.391204986572265625e+02
5.479999780654907227e-01,2.000000000000000000e+00,-4.422749996185302734e+00,-6.896102905273437500e+00,5.513794708251953125e+01,1.175783081054687500e+02,7.888869476318359375e+01,-1.745608520507812500e+02,1.076981811523437500e+02,-4.783041381835937500e+01,-1.812755432128906250e+02,1.966091156005859375e+02,-4.955943679809570312e+01,-1.391257324218750000e+02
5.519999861717224121e-01,2.000000000000000000e+00,-4.481945991516113281e+00,-6.854742527008056641e+00,5.511106491088867188e+01,1.175946731567382812e+02,7.889841461181640625e+01,-1.745548706054687500e+02,1.076570434570312500e+02,-4.781737136840820312e+01,-1.812661132812500000e+02,1.966190490722656250e+02,-4.957146835327148438e+01,-1.391309661865234375e+02
5.559999942779541016e-01,2.000000000000000000e+00,-4.541123867034912109e+00,-6.813394546508789062e+00,5.508419036865234375e+01,1.176110229492187500e+02,7.890812683105468750e+01,-1.745489044189453125e+02,1.076159133911132812e+02,-4.780432891845703125e+01,-1.812567138671875000e+02,1.966289672851562500e+02,-4.958349227905273438e+01,-1.391362152099609375e+02
5.600000023841857910e-01,2.000000000000000000e+00,-4.600284576416015625e+00,-6.772059440612792969e+00,5.505732345581054688e+01,1.176273880004882812e+02,7.891784667968750000e+01,-1.745429382324218750e+02,1.075748062133789062e+02,-4.779129028320312500e+01,-1.812472991943359375e+02,1.966388854980468750e+02,-4.959551620483398438e+01,-1.391414489746093750e+02
5.640000104904174805e-01,2.000000000000000000e+00,-4.659427165985107422e+00,-6.730736255645751953e+00,5.503046417236328125e+01,1.176437225341796875e+02,7.892755889892578125e+01,-1.745369567871093750e+02,1.075336990356445312e+02,-4.777825164794921875e+01,-1.812378845214843750e+02,1.966488037109375000e+02,-4.960753631591796875e+01,-1.391466827392578125e+02
5.680000185966491699e-01,2.000000000000000000e+00,-4.718552112579345703e+00,-6.689425468444824219e+00,5.500361251831054688e+01,1.176600799560546875e+02,7.893726348876953125e+01,-1.745309906005859375e+02,1.074926071166992188e+02,-4.776522064208984375e+01,-1.812284698486328125e+02,1.966587219238281250e+02,-4.961955261230468750e+01,-1.391519165039062500e+02
5.720000267028808594e-01,2.000000000000000000e+00,-4.777659893035888672e+00,-6.648127079010009766e+00,5.497677230834960938e+01,1.176764144897460938e+02,7.894696807861328125e+01,-1.745250244140625000e+02,1.074515304565429688e+02,-4.775219726562500000e+01,-1.812190551757812500e+02,1.966686248779296875e+02,-4.963156509399414062e+01,-1.391571350097656250e+02
5.759999752044677734e-01,2.000000000000000000e+00,-4.836749076843261719e+00,-6.606841087341308594e+00,5.494993972778320312e+01,1.176927566528320312e+02,7.895667266845703125e+01,-1.745190582275390625e+02,1.074104690551757812e+02,-4.773917007446289062e+01,-1.812096557617187500e+02,1.966785430908203125e+02,-4.964357376098632812e+01,-1.391623687744140625e+02
5.799999833106994629e-01,2.000000000000000000e+00,-4.895821094512939453e+00,-6.565567493438720703e+00,5.492311096191406250e+01,1.177090759277343750e+02,7.896636962890625000e+01,-1.745130920410156250e+02,1.073694152832031250e+02,-4.772615051269531250e+01,-1.812002563476562500e+02,1.966884460449218750e+02,-4.965557861328125000e+01,-1.391676025390625000e+02
5.839999914169311523e-01,2.000000000000000000e+00,-4.954875469207763672e+00,-6.524306297302246094e+00,5.489629364013671875e+01,1.177254028320312500e+02,7.897606658935546875e+01,-1.745071258544921875e+02,1.073283767700195312e+02,-4.771313858032226562e+01,-1.811908569335937500e+02,1.966983489990234375e+02,-4.966757965087890625e+01,-1.391728210449218750e+02
5.879999995231628418e-01,2.000000000000000000e+00,-5.013912200927734375e+00,-6.483057498931884766e+00,5.486948013305664062e+01,1.177417144775390625e+02,7.898576354980468750e+01,-1.745011749267578125e+02,1.072873458862304688e+02,-4.770012664794921875e+01,-1.811814727783203125e+02,1.967082366943359375e+02,-4.967957687377929688e+01,-1.391780548095703125e+02
5.920000076293945312e-01,2.000000000000000000e+00,-5.072930812835693359e+00,-6.441820621490478516e+00,5.484268188476562500e+01,1.177580337524414062e+02,7.899545288085937500e+01,-1.744952087402343750e+02,1.072463302612304688e+02,-4.768711853027343750e+01,-1.811720733642578125e+02,1.967181396484375000e+02,-4.969157028198242188e+01,-1.391832733154296875e+02
5.960000157356262207e-01,2.000000000000000000e+00,-5.131932735443115234e+00,-6.400596618652343750e+00,5.481588363647460938e+01,1.177743453979492188e+02,7.900514221191406250e+01,-1.744892578125000000e+02,1.072053298950195312e+02,-4.767411422729492188e+01,-1.811626892089843750e+02,1.967280273437500000e+02,-4.970356369018554688e+01,-1.391885070800781250e+02
6.000000238418579102e-01,2.000000000000000000e+00,-5.190916061401367188e+00,-6.359384536743164062e+00,5.478910064697265625e+01,1.177906417846679688e+02,7.901482391357421875e+01,-1.744833068847656250e+02,1.071643371582031250e+02,-4.766110992431640625e+01,-1.811533050537109375e+02,1.967379150390625000e+02,-4.971554946899414062e+01,-1.391937255859375000e+02
6.039999723434448242e-01,2.000000000000000000e+00,-5.249882221221923828e+00,-6.318184852600097656e+00,5.476232147216796875e+01,1.178069381713867188e+02,7.902451324462890625e+01,-1.744773406982421875e+02,1.071233596801757812e+02,-4.764811706542968750e+01,-1.811439208984375000e+02,1.967478027343750000e+02,-4.972753524780273438e+01,-1.391989440917968750e+02
6.079999804496765137e-01,2.000000000000000000e+00,-5.308831214904785156e+00,-6.276997089385986328e+00,5.473555374145507812e+01,1.178232345581054688e+02,7.903418731689453125e+01,-1.744713897705078125e+02,1.070823974609375000e+02,-4.763512420654296875e+01,-1.811345214843750000e+02,1.967577056884765625e+02,-4.973951339721679688e+01,-1.392041625976562500e+02
6.119999885559082031e-01,2.000000000000000000e+00,-5.367762088775634766e+00,-6.235822200775146484e+00,5.470878982543945312e+01,1.178395309448242188e+02,7.904386901855468750e+01,-1.744654541015625000e+02,1.070414428710937500e+02,-4.762213516235351562e+01,-1.811251525878906250e+02,1.967675781250000000e+02,-4.975148773193359375e+01,-1.392093811035156250e+02
6.159999966621398926e-01,2.000000000000000000e+00,-5.426675319671630859e+00,-6.194659233093261719e+00,5.468203353881835938e+01,1.178558197021484375e+02,7.905354309082031250e+01,-1.744595031738281250e+02,1.070004959106445312e+02,-4.760914993286132812e+01,-1.811157684326171875e+02,1.967774505615234375e+02,-4.976346206665039062e+01,-1.392145843505859375e+02
6.200000047683715820e-01,2.000000000000000000e+00,-5.485571861267089844e+00,-6.153508663177490234e+00,5.465528869628906250e+01,1.178721008300781250e+02,7.906320953369140625e+01,-1.744535522460937500e+02,1.069595718383789062e+02,-4.759616851806640625e+01,-1.811063995361328125e+02,1.967873229980468750e+02,-4.977543258666992188e+01,-1.392198028564453125e+02
6.240000128746032715e-01,2.000000000000000000e+00,-5.544450283050537109e+00,-6.112370491027832031e+00,5.462855148315429688e+01,1.178883666992187500e+02,7.907287597656250000e+01,-1.744476165771484375e+02,1.069186477661132812e+02,-4.758319473266601562e+01,-1.810970306396484375e+02,1.967972106933593750e+02,-4.978739929199218750e+01,-1.392250213623046875e+02
6.280000209808349609e-01,2.000000000000000000e+00,-5.603311061859130859e+00,-6.071244716644287109e+00,5.460182189941406250e+01,1.179046401977539062e+02,7.908255004882812500e+01,-1.744416656494140625e+02,1.068777389526367188e+02,-4.757022094726562500e+01,-1.810876770019531250e+02,1.968070678710937500e+02,-4.979936218261718750e+01,-1.392302246093750000e+02
6.320000290870666504e-01,2.000000000000000000e+00,-5.662154674530029297e+00,-6.030131340026855469e+00,5.457509613037109375e+01,1.179209060668945312e+02,7.909220123291015625e+01,-1.744357299804687500e+02,1.068368530273437500e+02,-4.755725097656250000e+01,-1.810783081054687500e+02,1.968169403076171875e+02,-4.981131744384765625e+01,-1.392354278564453125e+02
6.359999775886535645e-01,2.000000000000000000e+00,-5.720980644226074219e+00,-5.989029884338378906e+00,5.454838180541992188e+01,1.179371643066406250e+02,7.910186004638671875e+01,-1.744297943115234375e+02,1.067959747314453125e+02,-4.754428863525390625e+01,-1.810689392089843750e+02,1.968268127441406250e+02,-4.982327270507812500e+01,-1.392406311035156250e+02
6.399999856948852539e-01,2.000000000000000000e+00,-5.779789447784423828e+00,-5.947939872741699219e+00,5.452167510986328125e+01,1.179534225463867188e+02,7.911151885986328125e+01,-1.744238586425781250e+02,1.067550964355468750e+02,-4.753132629394531250e+01,-1.810595855712890625e+02,1.968366699218750000e+02,-4.983522415161132812e+01,-1.392458343505859375e+02
6.439999938011169434e-01,2.000000000000000000e+00,-5.838580131530761719e+00,-5.906862258911132812e+00,5.449497604370117188e+01,1.179696731567382812e+02,7.912117767333984375e+01,-1.744179077148437500e+02,1.067142410278320312e+02,-4.751836776733398438e+01,-1.810502319335937500e+02,1.968465118408203125e+02,-4.984717178344726562e+01,-1.392510375976562500e+02
6.480000019073486328e-01,2.000000000000000000e+00,-5.897353649139404297e+00,-5.865797042846679688e+00,5.446828842163085938e+01,1.179859161376953125e+02,7.913082885742187500e+01,-1.744119873046875000e+02,1.066734008789062500e+02,-4.750541305541992188e+01,-1.810408782958984375e+02,1.968563842773437500e+02,-4.985911941528320312e+01,-1.392562408447265625e+02
6.520000100135803223e-01,2.000000000000000000e+00,-5.956110000610351562e+00,-5.824743747711181641e+00,5.444160079956054688e+01,1.180021591186523438e+02,7.914047241210937500e+01,-1.744060516357421875e+02,1.066325683593750000e+02,-4.749246597290039062e+01,-1.810315246582031250e+02,1.968662261962890625e+02,-4.987105560302734375e+01,-1.392614593505859375e+02
6.560000181198120117e-01,2.000000000000000000e+00,-6.014849185943603516e+00,-5.783702373504638672e+00,5.441492843627929688e+01,1.180184020996093750e+02,7.915011596679687500e+01,-1.744001312255859375e+02,1.065917510986328125e+02,-4.747951889038085938e+01,-1.810221710205078125e+02,1.968760833740234375e+02,-4.988299560546875000e+01,-1.392666625976562500e+02
6.600000262260437012e-01,2.000000000000000000e+00,-6.073570728302001953e+00,-5.742673397064208984e+00,5.438825988769531250e+01,1.180346298217773438e+02,7.915975952148437500e+01,-1.743941955566406250e+02,1.065509414672851562e+02,-4.746657943725585938e+01,-1.810128326416015625e+02,1.968859252929687500e+02,-4.989492797851562500e+01,-1.392718505859375000e+02
6.639999747276306152e-01,2.000000000000000000e+00,-6.132275581359863281e+00,-5.701656341552734375e+00,5.436160278320312500e+01,1.180508575439453125e+02,7.916940307617187500e+01,-1.743882751464843750e+02,1.065101394653320312e+02,-4.745363616943359375e+01,-1.810034790039062500e+02,1.968957672119140625e+02,-4.990685653686523438e+01,-1.392770385742187500e+02
6.679999828338623047e-01,2.000000000000000000e+00,-6.190962791442871094e+00,-5.660651683807373047e+00,5.433494949340820312e+01,1.180670852661132812e+02,7.917903900146484375e+01,-1.743823394775390625e+02,1.064693603515625000e+02,-4.744070434570312500e+01,-1.809941558837890625e+02,1.969056091308593750e+02,-4.991878509521484375e+01,-1.392822418212890625e+02
6.719999909400939941e-01,2.000000000000000000e+00,-6.249633312225341797e+00,-5.619658470153808594e+00,5.430830764770507812e+01,1.180833053588867188e+02,7.918867492675781250e+01,-1.743764190673828125e+02,1.064285812377929688e+02,-4.742777252197265625e+01,-1.809848175048828125e+02,1.969154510498046875e+02,-4.993070983886718750e+01,-1.392874298095703125e+02
6.759999990463256836e-01,2.000000000000000000e+00,-6.308286190032958984e+00,-5.578677654266357422e+00,5.428166961669921875e+01,1.180995178222656250e+02,7.919830322265625000e+01,-1.743704986572265625e+02,1.063878173828125000e+02,-4.741484451293945312e+01,-1.809754791259765625e+02,1.969252777099609375e+02,-4.994262695312500000e+01,-1.392926330566406250e+02
6.800000071525573730e-01,2.000000000000000000e+00,-6.366922378540039062e+00,-5.537709236145019531e+00,5.425504302978515625e+01,1.181157226562500000e+02,7.920793151855468750e+01,-1.743645782470703125e+02,1.063470687866210938e+02,-4.740192413330078125e+01,-1.809661560058593750e+02,1.969351196289062500e+02,-4.995454406738281250e+01,-1.392978210449218750e+02
6.840000152587890625e-01,2.000000000000000000e+00,-6.425540924072265625e+00,-5.496752262115478516e+00,5.422842025756835938e+01,1.181319198608398438e+02,7.921755981445312500e+01,-1.743586730957031250e+02,1.063063354492187500e+02,-4.738900375366210938e+01,-1.809568176269531250e+02,1.969449462890625000e+02,-4.996645736694335938e+01,-1.393030090332031250e+02
6.880000233650207520e-01,2.000000000000000000e+00,-6.484142303466796875e+00,-5.455807209014892578e+00,5.420180892944335938e+01,1.181481246948242188e+02,7.922717285156250000e+01,-1.743527526855468750e+02,1.062656097412109375e+02,-4.737608718872070312e+01,-1.809474945068359375e+02,1.969547729492187500e+02,-4.997836685180664062e+01,-1.393081817626953125e+02
6.919999718666076660e-01,2.000000000000000000e+00,-6.542726993560791016e+00,-5.414874076843261719e+00,5.417520141601562500e+01,1.181643218994140625e+02,7.923680114746093750e+01,-1.743468322753906250e+02,1.062248992919921875e+02,-4.736317443847656250e+01,-1.809381713867187500e+02,1.969645996093750000e+02,-4.999027633666992188e+01,-1.393133697509765625e+02
6.959999799728393555e-01,2.000000000000000000e+00,-6.601294517517089844e+00,-5.373952865600585938e+00,5.414860534667968750e+01,1.181805114746093750e+02,7.924641418457031250e+01,-1.743409271240234375e+02,1.061841964721679688e+02,-4.735026550292968750e+01,-1.809288482666015625e+02,1.969744262695312500e+02,-5.000217437744140625e+01,-1.393185577392578125e+02
6.999999880790710449e-01,2.000000000000000000e+00,-6.659844875335693359e+00,-5.333043575286865234e+00,5.412201690673828125e+01,1.181967010498046875e+02,7.925603485107421875e+01,-1.743350067138671875e+02,1.061435012817382812e+02,-4.733736419677734375e+01,-1.809195251464843750e+02,1.969842224121093750e+02,-5.001407623291015625e+01,-1.393237457275390625e+02
7.039999961853027344e-01,2.000000000000000000e+00,-6.718378067016601562e+00,-5.292146205902099609e+00,5.409543228149414062e+01,1.182128753662109375e+02,7.926564025878906250e+01,-1.743291015625000000e+02,1.061028289794921875e+02,-4.732446289062500000e+01,-1.809102172851562500e+02,1.969940490722656250e+02,-5.002597045898437500e+01,-1.393289184570312500e+02
7.080000042915344238e-01,2.000000000000000000e+00,-6.776895046234130859e+00,-5.251260757446289062e+00,5.406885910034179688e+01,1.182290496826171875e+02,7.927525329589843750e+01,-1.743231964111328125e+02,1.060621643066406250e+02,-4.731156539916992188e+01,-1.809009094238281250e+02,1.970038604736328125e+02,-5.003786468505859375e+01,-1.393340911865234375e+02
7.120000123977661133e-01,2.000000000000000000e+00,-6.835394382476806641e+00,-5.210386753082275391e+00,5.404229354858398438e+01,1.182452163696289062e+02,7.928485870361328125e+01,-1.743172912597656250e+02,1.060215072631835938e+02,-4.729867172241210938e+01,-1.808915863037109375e+02,1.970136718750000000e+02,-5.004975128173828125e+01,-1.393392791748046875e+02
7.160000205039978027e-01,2.000000000000000000e+00,-6.893877029418945312e+00,-5.169524669647216797e+00,5.401573562622070312e+01,1.182613830566406250e+02,7.929446411132812500e+01,-1.743113861083984375e+02,1.059808654785156250e+02,-4.728578186035156250e+01,-1.808822937011718750e+02,1.970234680175781250e+02,-5.006163787841796875e+01,-1.393444519042968750e+02
7.200000286102294922e-01,2.000000000000000000e+00,-6.952342987060546875e+00,-5.128674507141113281e+00,5.398918533325195312e+01,1.182775421142578125e+02,7.930406188964843750e+01,-1.743054809570312500e+02,1.059402313232421875e+02,-4.727289581298828125e+01,-1.808729858398437500e+02,1.970332794189453125e+02,-5.007351684570312500e+01,-1.393496246337890625e+02
7.239999771118164062e-01,2.000000000000000000e+00,-7.010791301727294922e+00,-5.087836742401123047e+00,5.396264266967773438e+01,1.182937011718750000e+02,7.931365966796875000e+01,-1.742995910644531250e+02,1.058996124267578125e+02,-4.726001739501953125e+01,-1.808636779785156250e+02,1.970430755615234375e+02,-5.008539581298828125e+01,-1.393548126220703125e+02
7.279999852180480957e-01,2.000000000000000000e+00,-7.069223880767822266e+00,-5.047009944915771484e+00,5.393610382080078125e+01,1.183098602294921875e+02,7.932324981689453125e+01,-1.742936859130859375e+02,1.058590087890625000e+02,-4.724713897705078125e+01,-1.808543853759765625e+02,1.970528869628906250e+02,-5.009727478027343750e+01,-1.393599700927734375e+02
7.319999933242797852e-01,2.000000000000000000e+00,-7.127638816833496094e+00,-5.006195068359375000e+00,5.390957641601562500e+01,1.183260040283203125e+02,7.933284759521484375e+01,-1.742877807617187500e+02,1.058184051513671875e+02,-4.723426437377929688e+01,-1.808450927734375000e+02,1.970626831054687500e+02,-5.010914230346679688e+01,-1.393651428222656250e+02
7.360000014305114746e-01,2.000000000000000000e+00,-7.186037063598632812e+00,-4.965391635894775391e+00,5.388305664062500000e+01,1.183421401977539062e+02,7.934243774414062500e+01,-1.742818756103515625e+02,1.057778244018554688e+02,-4.722138977050781250e+01,-1.808357849121093750e+02,1.970724639892578125e+02,-5.012100982666015625e+01,-1.393703155517578125e+02
7.400000095367431641e-01,2.000000000000000000e+00,-7.244419097900390625e+00,-4.924600601196289062e+00,5.385654449462890625e+01,1.183582839965820312e+02,7.935202026367187500e+01,-1.742760009765625000e+02,1.057372512817382812e+02,-4.720852279663085938e+01,-1.808265075683593750e+02,1.970822601318359375e+02,-5.013287353515625000e+01,-1.393754882812500000e+02
7.440000176429748535e-01,2.000000000000000000e+00,-7.302783489227294922e+00,-4.883821010589599609e+00,5.383003997802734375e+01,1.183744201660156250e+02,7.936161041259765625e+01,-1.742701110839843750e+02,1.056966934204101562e+02,-4.719565963745117188e+01,-1.808172149658203125e+02,1.970920562744140625e+02,-5.014473724365234375e+01,-1.393806457519531250e+02
7.480000257492065430e-01,2.000000000000000000e+00,-7.361131668090820312e+00,-4.843053340911865234e+00,5.380354309082031250e+01,1.183905410766601562e+02,7.937118530273437500e+01,-1.742642059326171875e+02,1.056561431884765625e+02,-4.718280029296875000e+01,-1.808079376220703125e+02,1.971018371582031250e+02,-5.015659713745117188e+01,-1.393858184814453125e+02
7.519999742507934570e-01,2.000000000000000000e+00,-7.419463157653808594e+00,-4.802297115325927734e+00,5.377705001831054688e+01,1.184066696166992188e+02,7.938076782226562500e+01,-1.742583160400390625e+02,1.056156082153320312e+02,-4.716994094848632812e+01,-1.807986450195312500e+02,1.971116180419921875e+02,-5.016844940185546875e+01,-1.393909759521484375e+02
7.559999823570251465e-01,2.000000000000000000e+00,-7.477776527404785156e+00,-4.761552333831787109e+00,5.375057220458984375e+01,1.184227905273437500e+02,7.939034271240234375e+01,-1.742524261474609375e+02,1.055750808715820312e+02,-4.715709304809570312e+01,-1.807893676757812500e+02,1.971213989257812500e+02,-5.018030166625976562e+01,-1.393961486816406250e+02
7.599999904632568359e-01,2.000000000000000000e+00,-7.536074638366699219e+00,-4.720819950103759766e+00,5.372409439086914062e+01,1.184388961791992188e+02,7.939990997314453125e+01,-1.742465515136718750e+02,1.055345687866210938e+02,-4.714424133300781250e+01,-1.807800903320312500e+02,1.971311645507812500e+02,-5.019214630126953125e+01,-1.394012908935546875e+02
7.639999985694885254e-01,2.000000000000000000e+00,-7.594355106353759766e+00,-4.680099010467529297e+00,5.369762802124023438e+01,1.184550170898437500e+02,7.940947723388671875e+01,-1.742406616210937500e+02,1.054940643310546875e+02,-4.713139724731445312e+01,-1.807708282470703125e+02,1.971409454345703125e+02,-5.020399475097656250e+01,-1.394064636230468750e+02
7.680000066757202148e-01,2.000000000000000000e+00,-7.652619838714599609e+00,-4.639389514923095703e+00,5.367116546630859375e+01,1.184711227416992188e+02,7.941905212402343750e+01,-1.742347869873046875e+02,1.054535751342773438e+02,-4.711855697631835938e+01,-1.807615509033203125e+02,1.971507110595703125e+02,-5.021583557128906250e+01,-1.394116058349609375e+02
7.720000147819519043e-01,2.000000000000000000e+00,-7.710866928100585938e+00,-4.598691940307617188e+00,5.364471435546875000e+01,1.184872131347656250e+02,7.942861175537109375e+01,-1.742289123535156250e+02,1.054130935668945312e+02,-4.710571670532226562e+01,-1.807522735595703125e+02,1.971604766845703125e+02,-5.022767257690429688e+01,-1.394167785644531250e+02
7.760000228881835938e-01,2.000000000000000000e+00,-7.769097805023193359e+00,-4.558005809783935547e+00,5.361827468872070312e+01,1.185033187866210938e+02,7.943817138671875000e+01,-1.742230224609375000e+02,1.053726196289062500e+02,-4.709288406372070312e+01,-1.807430114746093750e+02,1.971702423095703125e+02,-5.023950576782226562e+01,-1.394219207763671875e+02
7.799999713897705078e-01,2.000000000000000000e+00,-7.827311515808105469e+00,-4.517331600189208984e+00,5.359183502197265625e+01,1.185194091796875000e+02,7.944773864746093750e+01,-1.742171478271484375e+02,1.053321685791015625e+02,-4.708005523681640625e+01,-1.807337493896484375e+02,1.971799926757812500e+02,-5.025133514404296875e+01,-1.394270782470703125e+02
7.839999794960021973e-01,2.000000000000000000e+00,-7.885509014129638672e+00,-4.476669311523437500e+00,5.356540298461914062e+01,1.185354919433593750e+02,7.945729064941406250e+01,-1.742112731933593750e+02,1.052917251586914062e+02,-4.706722640991210938e+01,-1.807244873046875000e+02,1.971897583007812500e+02,-5.026316452026367188e+01,-1.394322204589843750e+02
7.879999876022338867e-01,2.000000000000000000e+00,-7.943690299987792969e+00,-4.436017990112304688e+00,5.353898620605468750e+01,1.185515823364257812e+02,7.946685028076171875e+01,-1.742053985595703125e+02,1.052512893676757812e+02,-4.705440139770507812e+01,-1.807152252197265625e+02,1.971995239257812500e+02,-5.027498626708984375e+01,-1.394373779296875000e+02
7.919999957084655762e-01,2.000000000000000000e+00,-8.001853942871093750e+00,-4.395378589630126953e+00,5.351256942749023438e+01,1.185676574707031250e+02,7.947639465332031250e+01,-1.741995239257812500e+02,1.052108688354492188e+02,-4.704158401489257812e+01,-1.807059631347656250e+02,1.972092742919921875e+02,-5.028680801391601562e+01,-1.394425201416015625e+02
7.960000038146972656e-01,2.000000000000000000e+00,-8.060001373291015625e+00,-4.354751110076904297e+00,5.348616409301757812e+01,1.185837249755859375e+02,7.948594665527343750e+01,-1.741936645507812500e+02,1.051704635620117188e+02,-4.702877044677734375e+01,-1.806967163085937500e+02,1.972190093994140625e+02,-5.029862594604492188e+01,-1.394476776123046875e+02
8.000000119209289551e-01,2.000000000000000000e+00,-8.118132591247558594e+00,-4.314135074615478516e+00,5.345976638793945312e+01,1.185998001098632812e+02,7.949548339843750000e+01,-1.741877899169921875e+02,1.051300582885742188e+02,-4.701595687866210938e+01,-1.806874694824218750e+02,1.972287597656250000e+02,-5.031044006347656250e+01,-1.394528198242187500e+02
8.040000200271606445e-01,2.000000000000000000e+00,-8.176246643066406250e+00,-4.273530483245849609e+00,5.343337249755859375e+01,1.186158676147460938e+02,7.950503540039062500e+01,-1.741819152832031250e+02,1.050896759033203125e+02,-4.700315093994140625e+01,-1.806782226562500000e+02,1.972385101318359375e+02,-5.032225036621093750e+01,-1.394579620361328125e+02
8.080000281333923340e-01,2.000000000000000000e+00,-8.234343528747558594e+00,-4.232937335968017578e+00,5.340698623657226562e+01,1.186319198608398438e+02,7.951457214355468750e+01,-1.741760559082031250e+02,1.050493011474609375e+02,-4.699034118652343750e+01,-1.806689758300781250e+02,1.972482604980468750e+02,-5.033405685424804688e+01,-1.394631042480468750e+02
8.119999766349792480e-01,2.000000000000000000e+00,-8.292424201965332031e+00,-4.192356109619140625e+00,5.338061141967773438e+01,1.186479797363281250e+02,7.952410888671875000e+01,-1.741701965332031250e+02,1.050089340209960938e+02,-4.697754287719726562e+01,-1.806597290039062500e+02,1.972579956054687500e+02,-5.034585952758789062e+01,-1.394682464599609375e+02
8.159999847412109375e-01,2.000000000000000000e+00,-8.350489616394042969e+00,-4.151786327362060547e+00,5.335424423217773438e+01,1.186640319824218750e+02,7.953364562988281250e+01,-1.741643371582031250e+02,1.049685821533203125e+02,-4.696474456787109375e+01,-1.806504821777343750e+02,1.972677154541015625e+02,-5.035765838623046875e+01,-1.394733734130859375e+02
8.199999928474426270e-01,2.000000000000000000e+00,-8.408536911010742188e+00,-4.111228466033935547e+00,5.332788467407226562e+01,1.186800689697265625e+02,7.954317474365234375e+01,-1.741584777832031250e+02,1.049282455444335938e+02,-4.695195007324218750e+01,-1.806412506103515625e+02,1.972774658203125000e+02,-5.036945724487304688e+01,-1.394785156250000000e+02
8.240000009536743164e-01,2.000000000000000000e+00,-8.466567993164062500e+00,-4.070681571960449219e+00,5.330152893066406250e+01,1.186961059570312500e+02,7.955270385742187500e+01,-1.741526184082031250e+02,1.048879165649414062e+02,-4.693915939331054688e+01,-1.806320037841796875e+02,1.972871856689453125e+02,-5.038125228881835938e+01,-1.394836578369140625e+02
8.280000090599060059e-01,2.000000000000000000e+00,-8.524582862854003906e+00,-4.030146598815917969e+00,5.327518081665039062e+01,1.187121429443359375e+02,7.956223297119140625e+01,-1.741467590332031250e+02,1.048475952148437500e+02,-4.692637634277343750e+01,-1.806227874755859375e+02,1.972969207763671875e+02,-5.039303970336914062e+01,-1.394887847900390625e+02
8.320000171661376953e-01,2.000000000000000000e+00,-8.582580566406250000e+00,-3.989623308181762695e+00,5.324884414672851562e+01,1.187281799316406250e+02,7.957175445556640625e+01,-1.741408996582031250e+02,1.048072967529296875e+02,-4.691359329223632812e+01,-1.806135559082031250e+02,1.973066406250000000e+02,-5.040483093261718750e+01,-1.394939270019531250e+02
8.360000252723693848e-01,2.000000000000000000e+00,-8.640562057495117188e+00,-3.949111223220825195e+00,5.322251129150390625e+01,1.187442092895507812e+02,7.958127593994140625e+01,-1.741350402832031250e+02,1.047669982910156250e+02,-4.690081405639648438e+01,-1.806043090820312500e+02,1.973163604736328125e+02,-5.041661071777343750e+01,-1.394990539550781250e+02
8.399999737739562988e-01,2.000000000000000000e+00,-8.698527336120605469e+00,-3.908610820770263672e+00,5.319618606567382812e+01,1.187602310180664062e+02,7.959079742431640625e+01,-1.741291961669921875e+02,1.047267074584960938e+02,-4.688803863525390625e+01,-1.805950927734375000e+02,1.973260803222656250e+02,-5.042839050292968750e+01,-1.395041809082031250e+02
8.439999818801879883e-01,2.000000000000000000e+00,-8.756476402282714844e+00,-3.868121862411499023e+00,5.316987228393554688e+01,1.187762527465820312e+02,7.960031127929687500e+01,-1.741233367919921875e+02,1.046864395141601562e+02,-4.687526321411132812e+01,-1.805858764648437500e+02,1.973358001708984375e+02,-5.044017028808593750e+01,-1.395093231201171875e+02
8.479999899864196777e-01,2.000000000000000000e+00,-8.814408302307128906e+00,-3.827644824981689453e+00,5.314356613159179688e+01,1.187922668457031250e+02,7.960982513427734375e+01,-1.741174926757812500e+02,1.046461868286132812e+02,-4.686249923706054688e+01,-1.805766601562500000e+02,1.973455200195312500e+02,-5.045194244384765625e+01,-1.395144500732421875e+02
8.519999980926513672e-01,2.000000000000000000e+00,-8.872324943542480469e+00,-3.787178993225097656e+00,5.311725997924804688e+01,1.188082733154296875e+02,7.961933135986328125e+01,-1.741116485595703125e+02,1.046059341430664062e+02,-4.684973144531250000e+01,-1.805674438476562500e+02,1.973552246093750000e+02,-5.046371078491210938e+01,-1.395195770263671875e+02
8.560000061988830566e-01,2.000000000000000000e+00,-8.930223464965820312e+00,-3.746724605560302734e+00,5.309096908569335938e+01,1.188242797851562500e+02,7.962883758544921875e+01,-1.741058044433593750e+02,1.045656967163085938e+02,-4.683697128295898438e+01,-1.805582275390625000e+02,1.973649444580078125e+02,-5.047547912597656250e+01,-1.395247039794921875e+02
8.600000143051147461e-01,2.000000000000000000e+00,-8.988106727600097656e+00,-3.706281900405883789e+00,5.306468200683593750e+01,1.188402786254882812e+02,7.963834381103515625e+01,-1.740999603271484375e+02,1.045254669189453125e+02,-4.682421493530273438e+01,-1.805490112304687500e+02,1.973746490478515625e+02,-5.048724365234375000e+01,-1.395298309326171875e+02
8.640000224113464355e-01,2.000000000000000000e+00,-9.045972824096679688e+00,-3.665850400924682617e+00,5.303840255737304688e+01,1.188562774658203125e+02,7.964785003662109375e+01,-1.740941162109375000e+02,1.044852600097656250e+02,-4.681145858764648438e+01,-1.805398101806640625e+02,1.973843383789062500e+02,-5.049900054931640625e+01,-1.395349426269531250e+02
8.679999709129333496e-01,2.000000000000000000e+00,-9.103822708129882812e+00,-3.625430822372436523e+00,5.301213073730468750e+01,1.188722686767578125e+02,7.965734863281250000e+01,-1.740882720947265625e+02,1.044450531005859375e+02,-4.679870986938476562e+01,-1.805306091308593750e+02,1.973940582275390625e+02,-5.051075744628906250e+01,-1.395400695800781250e+02
8.719999790191650391e-01,2.000000000000000000e+00,-9.161655426025390625e+00,-3.585021972656250000e+00,5.298587036132812500e+01,1.188882522583007812e+02,7.966683959960937500e+01,-1.740824432373046875e+02,1.044048614501953125e+02,-4.678596496582031250e+01,-1.805213928222656250e+02,1.974037322998046875e+02,-5.052251434326171875e+01,-1.395451812744140625e+02
8.759999871253967285e-01,2.000000000000000000e+00,-9.219472885131835938e+00,-3.544625043869018555e+00,5.295960998535156250e+01,1.189042358398437500e+02,7.967633819580078125e+01,-1.740766143798828125e+02,1.043646774291992188e+02,-4.677322006225585938e+01,-1.805121917724609375e+02,1.974134368896484375e+02,-5.053425979614257812e+01,-1.395503082275390625e+02
8.799999952316284180e-01,2.000000000000000000e+00,-9.277273178100585938e+00,-3.504239797592163086e+00,5.293336105346679688e+01,1.189202041625976562e+02,7.968582153320312500e+01,-1.740707702636718750e+02,1.043245086669921875e+02,-4.676048278808593750e+01,-1.805029907226562500e+02,1.974231414794921875e+02,-5.054600906372070312e+01,-1.395554046630859375e+02
8.840000033378601074e-01,2.000000000000000000e+00,-9.335058212280273438e+00,-3.463865518569946289e+00,5.290711975097656250e+01,1.189361877441406250e+02,7.969532012939453125e+01,-1.740649414062500000e+02,1.042843551635742188e+02,-4.674774551391601562e+01,-1.804938049316406250e+02,1.974328155517578125e+02,-5.055775451660156250e+01,-1.395605316162109375e+02
8.880000114440917969e-01,2.000000000000000000e+00,-9.392826080322265625e+00,-3.423502922058105469e+00,5.288088607788085938e+01,1.189521560668945312e+02,7.970479583740234375e+01,-1.740591125488281250e+02,1.042442092895507812e+02,-4.673501205444335938e+01,-1.804846038818359375e+02,1.974425048828125000e+02,-5.056949234008789062e+01,-1.395656433105468750e+02
8.920000195503234863e-01,2.000000000000000000e+00,-9.450577735900878906e+00,-3.383151769638061523e+00,5.285466003417968750e+01,1.189681167602539062e+02,7.971428680419921875e+01,-1.740532684326171875e+02,1.042040710449218750e+02,-4.672228622436523438e+01,-1.804754180908203125e+02,1.974521942138671875e+02,-5.058123016357421875e+01,-1.395707550048828125e+02
8.960000276565551758e-01,2.000000000000000000e+00,-9.508312225341796875e+00,-3.342812061309814453e+00,5.282844161987304688e+01,1.189840850830078125e+02,7.972376251220703125e+01,-1.740474395751953125e+02,1.041639480590820312e+02,-4.670956039428710938e+01,-1.804662170410156250e+02,1.974618835449218750e+02,-5.059296417236328125e+01,-1.395758666992187500e+02
8.999999761581420898e-01,2.000000000000000000e+00,-9.566031455993652344e+00,-3.302483558654785156e+00,5.280223083496093750e+01,1.190000381469726562e+02,7.973324584960937500e+01,-1.740416259765625000e+02,1.041238403320312500e+02,-4.669683837890625000e+01,-1.804570465087890625e+02,1.974715423583984375e+02,-5.060469055175781250e+01,-1.395809631347656250e+02
9.039999842643737793e-01,2.000000000000000000e+00,-9.623734474182128906e+00,-3.262166738510131836e+00,5.277602386474609375e+01,1.190159759521484375e+02,7.974272155761718750e+01,-1.740357971191406250e+02,1.040837402343750000e+02,-4.668412017822265625e+01,-1.804478607177734375e+02,1.974812316894531250e+02,-5.061641693115234375e+01,-1.395860748291015625e+02
9.079999923706054688e-01,2.000000000000000000e+00,-9.681420326232910156e+00,-3.221861124038696289e+00,5.274982833862304688e+01,1.190319366455078125e+02,7.975218963623046875e+01,-1.740299682617187500e+02,1.040436477661132812e+02,-4.667140579223632812e+01,-1.804386901855468750e+02,1.974909057617187500e+02,-5.062814331054687500e+01,-1.395911865234375000e+02
9.120000004768371582e-01,2.000000000000000000e+00,-9.739089965820312500e+00,-3.181566715240478516e+00,5.272363662719726562e+01,1.190478744506835938e+02,7.976165771484375000e+01,-1.740241546630859375e+02,1.040035705566406250e+02,-4.665869522094726562e+01,-1.804295043945312500e+02,1.975005798339843750e+02,-5.063986206054687500e+01,-1.395962982177734375e+02
9.160000085830688477e-01,2.000000000000000000e+00,-9.796744346618652344e+00,-3.141283988952636719e+00,5.269745254516601562e+01,1.190638046264648438e+02,7.977112579345703125e+01,-1.740183258056640625e+02,1.039635009765625000e+02,-4.664599227905273438e+01,-1.804203186035156250e+02,1.975102386474609375e+02,-5.065158081054687500e+01,-1.396013946533203125e+02
9.200000166893005371e-01,2.000000000000000000e+00,-9.854381561279296875e+00,-3.101012706756591797e+00,5.267127990722656250e+01,1.190797424316406250e+02,7.978059387207031250e+01,-1.740125122070312500e+02,1.039234466552734375e+02,-4.663328933715820312e+01,-1.804111633300781250e+02,1.975199127197265625e+02,-5.066329574584960938e+01,-1.396065063476562500e+02
9.240000247955322266e-01,2.000000000000000000e+00,-9.912003517150878906e+00,-3.060752630233764648e+00,5.264511108398437500e+01,1.190956573486328125e+02,7.979005432128906250e+01,-1.740066986083984375e+02,1.038833999633789062e+02,-4.662058639526367188e+01,-1.804019927978515625e+02,1.975295715332031250e+02,-5.067500305175781250e+01,-1.396116027832031250e+02
9.279999732971191406e-01,2.000000000000000000e+00,-9.969608306884765625e+00,-3.020503759384155273e+00,5.261894989013671875e+01,1.191115875244140625e+02,7.979951477050781250e+01,-1.740008697509765625e+02,1.038433685302734375e+02,-4.660789108276367188e+01,-1.803928070068359375e+02,1.975392303466796875e+02,-5.068671035766601562e+01,-1.396166839599609375e+02
9.319999814033508301e-01,2.000000000000000000e+00,-1.002719688415527344e+01,-2.980266332626342773e+00,5.259280014038085938e+01,1.191275024414062500e+02,7.980896759033203125e+01,-1.739950561523437500e+02,1.038033447265625000e+02,-4.659519958496093750e+01,-1.803836517333984375e+02,1.975488739013671875e+02,-5.069841384887695312e+01,-1.396217956542968750e+02
9.359999895095825195e-01,2.000000000000000000e+00,-1.008476924896240234e+01,-2.940040349960327148e+00,5.256665420532226562e+01,1.191434326171875000e+02,7.981842803955078125e+01,-1.739892425537109375e+02,1.037633438110351562e+02,-4.658250808715820312e+01,-1.803744964599609375e+02,1.975585327148437500e+02,-5.071011352539062500e+01,-1.396268920898437500e+02
9.399999976158142090e-01,2.000000000000000000e+00,-1.014232540130615234e+01,-2.899825572967529297e+00,5.254051589965820312e+01,1.191593322753906250e+02,7.982787322998046875e+01,-1.739834442138671875e+02,1.037233352661132812e+02,-4.656982421875000000e+01,-1.803653259277343750e+02,1.975681762695312500e+02,-5.072181320190429688e+01,-1.396319885253906250e+02
9.440000057220458984e-01,2.000000000000000000e+00,-1.019986534118652344e+01,-2.859622240066528320e+00,5.251438522338867188e+01,1.191752471923828125e+02,7.983732604980468750e+01,-1.739776306152343750e+02,1.036833496093750000e+02,-4.655714035034179688e+01,-1.803561706542968750e+02,1.975778350830078125e+02,-5.073350524902343750e+01,-1.396370697021484375e+02
9.480000138282775879e-01,2.000000000000000000e+00,-1.025738906860351562e+01,-2.819429874420166016e+00,5.248826217651367188e+01,1.191911468505859375e+02,7.984677124023437500e+01,-1.739718170166015625e+02,1.036433715820312500e+02,-4.654446411132812500e+01,-1.803470153808593750e+02,1.975874786376953125e+02,-5.074519348144531250e+01,-1.396421661376953125e+02
9.520000219345092773e-01,2.000000000000000000e+00,-1.031489753723144531e+01,-2.779249191284179688e+00,5.246214675903320312e+01,1.192070312500000000e+02,7.985620880126953125e+01,-1.739660186767578125e+02,1.036034088134765625e+02,-4.653178787231445312e+01,-1.803378753662109375e+02,1.975971221923828125e+02,-5.075688552856445312e+01,-1.396472625732421875e+02
9.559999704360961914e-01,2.000000000000000000e+00,-1.037238883972167969e+01,-2.739079713821411133e+00,5.243603897094726562e+01,1.192229309082031250e+02,7.986564636230468750e+01,-1.739602050781250000e+02,1.035634536743164062e+02,-4.651911926269531250e+01,-1.803287200927734375e+02,1.976067657470703125e+02,-5.076856613159179688e+01,-1.396523437500000000e+02
9.599999785423278809e-01,2.000000000000000000e+00,-1.042986392974853516e+01,-2.698921442031860352e+00,5.240993881225585938e+01,1.192388229370117188e+02,7.987509155273437500e+01,-1.739544219970703125e+02,1.035235137939453125e+02,-4.650645065307617188e+01,-1.803195800781250000e+02,1.976164093017578125e+02,-5.078024673461914062e+01,-1.396574401855468750e+02
9.639999866485595703e-01,2.000000000000000000e+00,-1.048732280731201172e+01,-2.658774614334106445e+00,5.238384246826171875e+01,1.192546920776367188e+02,7.988452148437500000e+01,-1.739486083984375000e+02,1.034835815429687500e+02,-4.649378967285156250e+01,-1.803104248046875000e+02,1.976260375976562500e+02,-5.079192352294921875e+01,-1.396625213623046875e+02
9.679999947547912598e-01,2.000000000000000000e+00,-1.054476642608642578e+01,-2.618638753890991211e+00,5.235775375366210938e+01,1.192705841064453125e+02,7.989395141601562500e+01,-1.739428100585937500e+02,1.034436569213867188e+02,-4.648112487792968750e+01,-1.803012847900390625e+02,1.976356658935546875e+02,-5.080360031127929688e+01,-1.396676025390625000e+02
9.720000028610229492e-01,2.000000000000000000e+00,-1.060219383239746094e+01,-2.578514575958251953e+00,5.233167648315429688e+01,1.192864532470703125e+02,7.990338897705078125e+01,-1.739370117187500000e+02,1.034037475585937500e+02,-4.646846771240234375e+01,-1.802921447753906250e+02,1.976452941894531250e+02,-5.081526947021484375e+01,-1.396726837158203125e+02
9.760000109672546387e-01,2.000000000000000000e+00,-1.065960407257080078e+01,-2.538401126861572266e+00,5.230560302734375000e+01,1.193023300170898438e+02,7.991281127929687500e+01,-1.739312133789062500e+02,1.033638458251953125e+02,-4.645581436157226562e+01,-1.802830047607421875e+02,1.976549224853515625e+02,-5.082693862915039062e+01,-1.396777648925781250e+02
9.800000190734863281e-01,2.000000000000000000e+00,-1.071699905395507812e+01,-2.498299121856689453e+00,5.227953720092773438e+01,1.193181915283203125e+02,7.992223358154296875e+01,-1.739254302978515625e+02,1.033239669799804688e+02,-4.644316482543945312e+01,-1.802738800048828125e+02,1.976645355224609375e+02,-5.083860015869140625e+01,-1.396828460693359375e+02
9.840000271797180176e-01,2.000000000000000000e+00,-1.077437782287597656e+01,-2.458208560943603516e+00,5.225348281860351562e+01,1.193340454101562500e+02,7.993166351318359375e+01,-1.739196319580078125e+02,1.032840957641601562e+02,-4.643051910400390625e+01,-1.802647399902343750e+02,1.976741790771484375e+02,-5.085026550292968750e+01,-1.396879272460937500e+02
9.879999756813049316e-01,2.000000000000000000e+00,-1.083174037933349609e+01,-2.418128967285156250e+00,5.222743225097656250e+01,1.193499069213867188e+02,7.994107818603515625e+01,-1.739138488769531250e+02,1.032442245483398438e+02,-4.641787719726562500e+01,-1.802556152343750000e+02,1.976837921142578125e+02,-5.086191940307617188e+01,-1.396930084228515625e+02
9.919999837875366211e-01,2.000000000000000000e+00,-1.088908767700195312e+01,-2.378060817718505859e+00,5.220138931274414062e+01,1.193657531738281250e+02,7.995049285888671875e+01,-1.739080505371093750e+02,1.032043685913085938e+02,-4.640523910522460938e+01,-1.802464904785156250e+02,1.976934051513671875e+02,-5.087357711791992188e+01,-1.396980743408203125e+02
9.959999918937683105e-01,2.000000000000000000e+00,-1.094641685485839844e+01,-2.338003873825073242e+00,5.217535400390625000e+01,1.193815994262695312e+02,7.995991516113281250e+01,-1.739022674560546875e+02,1.031645278930664062e+02,-4.639260101318359375e+01,-1.802373657226562500e+02,1.977030181884765625e+02,-5.088522720336914062e+01,-1.397031555175781250e+02
1.000000000000000000e+00,2.000000000000000000e+00,-1.100373172760009766e+01,-2.297957897186279297e+00,5.214932632446289062e+01,1.193974456787109375e+02,7.996931457519531250e+01,-1.738964843750000000e+02,1.031246948242187500e+02,-4.637997055053710938e+01,-1.802282409667968750e+02,1.977126312255859375e+02,-5.089687347412109375e+01,-1.397082214355468750e+02
1.003999948501586914e+00,2.000000000000000000e+00,-1.106103038787841797e+01,-2.257923364639282227e+00,5.212330627441406250e+01,1.194132919311523438e+02,7.997872924804687500e+01,-1.738906860351562500e+02,1.030848770141601562e+02,-4.636734008789062500e+01,-1.802191314697265625e+02,1.977222442626953125e+02,-5.090851974487304688e+01,-1.397133026123046875e+02
1.008000016212463379e+00,2.000000000000000000e+00,-1.111831378936767578e+01,-2.217899799346923828e+00,5.209729003906250000e+01,1.194291229248046875e+02,7.998813629150390625e+01,-1.738849182128906250e+02,1.030450744628906250e+02,-4.635471343994140625e+01,-1.802100067138671875e+02,1.977318420410156250e+02,-5.092016220092773438e+01,-1.397183685302734375e+02
1.011999964714050293e+00,2.000000000000000000e+00,-1.117558002471923828e+01,-2.177887678146362305e+00,5.207128143310546875e+01,1.194449539184570312e+02,7.999754333496093750e+01,-1.738791351318359375e+02,1.030052719116210938e+02,-4.634209823608398438e+01,-1.802008972167968750e+02,1.977414550781250000e+02,-5.093180084228515625e+01,-1.397234497070312500e+02
1.016000032424926758e+00,2.000000000000000000e+00,-1.123283004760742188e+01,-2.137886285781860352e+00,5.204528427124023438e+01,1.194607772827148438e+02,8.000693511962890625e+01,-1.738733367919921875e+02,1.029654846191406250e+02,-4.632947921752929688e+01,-1.801917877197265625e+02,1.977510375976562500e+02,-5.094343566894531250e+01,-1.397285003662109375e+02
1.019999980926513672e+00,2.000000000000000000e+00,-1.129006481170654297e+01,-2.097896575927734375e+00,5.201929092407226562e+01,1.194765930175781250e+02,8.001633453369140625e+01,-1.738675689697265625e+02,1.029257125854492188e+02,-4.631686401367187500e+01,-1.801826782226562500e+02,1.977606506347656250e+02,-5.095506668090820312e+01,-1.397335662841796875e+02
1.024000048637390137e+00,2.000000000000000000e+00,-1.134728336334228516e+01,-2.057917594909667969e+00,5.199330520629882812e+01,1.194924087524414062e+02,8.002573394775390625e+01,-1.738618011474609375e+02,1.028859481811523438e+02,-4.630424880981445312e+01,-1.801735687255859375e+02,1.977702331542968750e+02,-5.096669387817382812e+01,-1.397386322021484375e+02
1.026999950408935547e+00,2.000000000000000000e+00,-1.140448570251464844e+01,-2.017950057983398438e+00,5.196733093261718750e+01,1.195082321166992188e+02,8.003512573242187500e+01,-1.738560180664062500e+02,1.028461990356445312e+02,-4.629164505004882812e+01,-1.801644744873046875e+02,1.977798156738281250e+02,-5.097832107543945312e+01,-1.397436981201171875e+02
1.031999945640563965e+00,2.000000000000000000e+00,-1.146167182922363281e+01,-1.977993607521057129e+00,5.194136047363281250e+01,1.195240325927734375e+02,8.004451751708984375e+01,-1.738502349853515625e+02,1.028064498901367188e+02,-4.627904129028320312e+01,-1.801553649902343750e+02,1.977894134521484375e+02,-5.098994064331054688e+01,-1.397487640380859375e+02
1.036000013351440430e+00,2.000000000000000000e+00,-1.151884365081787109e+01,-1.938048243522644043e+00,5.191539764404296875e+01,1.195398406982421875e+02,8.005390167236328125e+01,-1.738444824218750000e+02,1.027667236328125000e+02,-4.626643753051757812e+01,-1.801462707519531250e+02,1.977989959716796875e+02,-5.100156021118164062e+01,-1.397538299560546875e+02
1.039999961853027344e+00,2.000000000000000000e+00,-1.157599830627441406e+01,-1.898113846778869629e+00,5.188944244384765625e+01,1.195556335449218750e+02,8.006328582763671875e+01,-1.738386993408203125e+02,1.027270050048828125e+02,-4.625384521484375000e+01,-1.801371765136718750e+02,1.978085937500000000e+02,-5.101317214965820312e+01,-1.397588806152343750e+02
1.044000029563903809e+00,2.000000000000000000e+00,-1.163313770294189453e+01,-1.858190774917602539e+00,5.186349105834960938e+01,1.195714263916015625e+02,8.007266998291015625e+01,-1.738329315185546875e+02,1.026872940063476562e+02,-4.624124908447265625e+01,-1.801280822753906250e+02,1.978181610107421875e+02,-5.102478408813476562e+01,-1.397639312744140625e+02
1.047999978065490723e+00,2.000000000000000000e+00,-1.169025993347167969e+01,-1.818278789520263672e+00,5.183755111694335938e+01,1.195872116088867188e+02,8.008204650878906250e+01,-1.738271636962890625e+02,1.026475982666015625e+02,-4.622866058349609375e+01,-1.801189880371093750e+02,1.978277435302734375e+02,-5.103639602661132812e+01,-1.397689971923828125e+02
1.052000045776367188e+00,2.000000000000000000e+00,-1.174736690521240234e+01,-1.778377771377563477e+00,5.181161499023437500e+01,1.196030044555664062e+02,8.009143066406250000e+01,-1.738214111328125000e+02,1.026079025268554688e+02,-4.621607208251953125e+01,-1.801099090576171875e+02,1.978373260498046875e+02,-5.104800033569335938e+01,-1.397740478515625000e+02
1.054999947547912598e+00,2.000000000000000000e+00,-1.180445861816406250e+01,-1.738487958908081055e+00,5.178569030761718750e+01,1.196187820434570312e+02,8.010080718994140625e+01,-1.738156433105468750e+02,1.025682296752929688e+02,-4.620349121093750000e+01,-1.801008148193359375e+02,1.978468933105468750e+02,-5.105960083007812500e+01,-1.397790985107421875e+02
1.059999942779541016e+00,2.000000000000000000e+00,-1.186153411865234375e+01,-1.698609113693237305e+00,5.175977325439453125e+01,1.196345596313476562e+02,8.011017608642578125e+01,-1.738098754882812500e+02,1.025285644531250000e+02,-4.619091033935546875e+01,-1.800917358398437500e+02,1.978564758300781250e+02,-5.107120513916015625e+01,-1.397841491699218750e+02
1.064000010490417480e+00,2.000000000000000000e+00,-1.191859340667724609e+01,-1.658741593360900879e+00,5.173385620117187500e+01,1.196503372192382812e+02,8.011954498291015625e+01,-1.738041229248046875e+02,1.024889068603515625e+02,-4.617833709716796875e+01,-1.800826568603515625e+02,1.978660278320312500e+02,-5.108279800415039062e+01,-1.397892150878906250e+02
1.067999958992004395e+00,2.000000000000000000e+00,-1.197563743591308594e+01,-1.618884921073913574e+00,5.170795440673828125e+01,1.196661071777343750e+02,8.012891387939453125e+01,-1.737983551025390625e+02,1.024492645263671875e+02,-4.616576004028320312e+01,-1.800735778808593750e+02,1.978755950927734375e+02,-5.109439086914062500e+01,-1.397942657470703125e+02
1.072000026702880859e+00,2.000000000000000000e+00,-1.203266525268554688e+01,-1.579039335250854492e+00,5.168205261230468750e+01,1.196818695068359375e+02,8.013827514648437500e+01,-1.737925872802734375e+02,1.024096374511718750e+02,-4.615319442749023438e+01,-1.800644989013671875e+02,1.978851623535156250e+02,-5.110598373413085938e+01,-1.397993011474609375e+02
1.075999975204467773e+00,2.000000000000000000e+00,-1.208967781066894531e+01,-1.539204835891723633e+00,5.165616607666015625e+01,1.196976318359375000e+02,8.014763641357421875e+01,-1.737868499755859375e+02,1.023700180053710938e+02,-4.614062500000000000e+01,-1.800554199218750000e+02,1.978947143554687500e+02,-5.111756515502929688e+01,-1.398043365478515625e+02
1.080000042915344238e+00,2.000000000000000000e+00,-1.214667320251464844e+01,-1.499381422996520996e+00,5.163028335571289062e+01,1.197133789062500000e+02,8.015699768066406250e+01,-1.737810974121093750e+02,1.023304061889648438e+02,-4.612806701660156250e+01,-1.800463562011718750e+02,1.979042816162109375e+02,-5.112915039062500000e+01,-1.398094024658203125e+02
1.083999991416931152e+00,2.000000000000000000e+00,-1.220365333557128906e+01,-1.459568977355957031e+00,5.160440063476562500e+01,1.197291336059570312e+02,8.016635131835937500e+01,-1.737753448486328125e+02,1.022908096313476562e+02,-4.611550903320312500e+01,-1.800372924804687500e+02,1.979138336181640625e+02,-5.114073181152343750e+01,-1.398144378662109375e+02
1.088000059127807617e+00,2.000000000000000000e+00,-1.226061820983886719e+01,-1.419767498970031738e+00,5.157853317260742188e+01,1.197448806762695312e+02,8.017570495605468750e+01,-1.737695922851562500e+02,1.022512207031250000e+02,-4.610295104980468750e+01,-1.800282287597656250e+02,1.979234008789062500e+02,-5.115230941772460938e+01,-1.398194732666015625e+02
1.090999960899353027e+00,2.000000000000000000e+00,-1.231756782531738281e+01,-1.379977107048034668e+00,5.155267333984375000e+01,1.197606201171875000e+02,8.018506622314453125e+01,-1.737638397216796875e+02,1.022116470336914062e+02,-4.609040069580078125e+01,-1.800191650390625000e+02,1.979329376220703125e+02,-5.116388320922851562e+01,-1.398245239257812500e+02
1.095999956130981445e+00,2.000000000000000000e+00,-1.237450027465820312e+01,-1.340197801589965820e+00,5.152681732177734375e+01,1.197763595581054688e+02,8.019440460205078125e+01,-1.737580871582031250e+02,1.021720733642578125e+02,-4.607785415649414062e+01,-1.800101013183593750e+02,1.979424896240234375e+02,-5.117545318603515625e+01,-1.398295593261718750e+02
1.100000023841857910e+00,2.000000000000000000e+00,-1.243141841888427734e+01,-1.300429344177246094e+00,5.150096893310546875e+01,1.197920913696289062e+02,8.020375823974609375e+01,-1.737523498535156250e+02,1.021325225830078125e+02,-4.606530761718750000e+01,-1.800010528564453125e+02,1.979520263671875000e+02,-5.118701934814453125e+01,-1.398345947265625000e+02
1.103999972343444824e+00,2.000000000000000000e+00,-1.248831939697265625e+01,-1.260672092437744141e+00,5.147512817382812500e+01,1.198078155517578125e+02,8.021310424804687500e+01,-1.737465972900390625e+02,1.020929794311523438e+02,-4.605276489257812500e+01,-1.799919891357421875e+02,1.979615783691406250e+02,-5.119858169555664062e+01,-1.398396301269531250e+02
1.108000040054321289e+00,2.000000000000000000e+00,-1.254520606994628906e+01,-1.220925688743591309e+00,5.144929504394531250e+01,1.198235549926757812e+02,8.022243499755859375e+01,-1.737408599853515625e+02,1.020534439086914062e+02,-4.604022979736328125e+01,-1.799829254150390625e+02,1.979711151123046875e+02,-5.121014404296875000e+01,-1.398446655273437500e+02
1.111999988555908203e+00,2.000000000000000000e+00,-1.260207557678222656e+01,-1.181190252304077148e+00,5.142346572875976562e+01,1.198392639160156250e+02,8.023177337646484375e+01,-1.737351074218750000e+02,1.020139236450195312e+02,-4.602769470214843750e+01,-1.799738922119140625e+02,1.979806518554687500e+02,-5.122170257568359375e+01,-1.398497161865234375e+02
