rpiRobotics/ARM-21-02-F-19-Robot-Motion-Program/data_performance_abb/curve_1/dual_arm/diffevo_pose2/grad_result/sim/dual_iteration_1.csv
timestamp,cmd_num,J1,J2,J3,J4,J5,J6,J1_2,J2_2,J3_2,J4_2,J5_2,J6_2
0.000000000000000000e+00,-1.000000000000000000e+00,1.757971048355102539e+00,-9.710965156555175781e+00,5.861933517456054688e+01,1.177401657104492188e+02,8.042877197265625000e+01,-1.783062591552734375e+02,1.115702667236328125e+02,-4.877959442138671875e+01,-1.825154876708984375e+02,1.950522308349609375e+02,-4.808320999145507812e+01,-1.382928619384765625e+02
2.000000094994902611e-03,-1.000000000000000000e+00,1.757971048355102539e+00,-9.710965156555175781e+00,5.861933517456054688e+01,1.177401657104492188e+02,8.042877197265625000e+01,-1.783062591552734375e+02,1.115702667236328125e+02,-4.877959442138671875e+01,-1.825154876708984375e+02,1.950522308349609375e+02,-4.808320999145507812e+01,-1.382928619384765625e+02
4.000000189989805222e-03,-1.000000000000000000e+00,1.757971048355102539e+00,-9.710965156555175781e+00,5.861933517456054688e+01,1.177401657104492188e+02,8.042877197265625000e+01,-1.783062591552734375e+02,1.115702667236328125e+02,-4.877959442138671875e+01,-1.825154876708984375e+02,1.950522308349609375e+02,-4.808320999145507812e+01,-1.382928619384765625e+02
9.999999776482582092e-03,-1.000000000000000000e+00,1.757971048355102539e+00,-9.710965156555175781e+00,5.861933517456054688e+01,1.177401657104492188e+02,8.042877197265625000e+01,-1.783062591552734375e+02,1.115702667236328125e+02,-4.877959442138671875e+01,-1.825154876708984375e+02,1.950522308349609375e+02,-4.808320999145507812e+01,-1.382928619384765625e+02
1.200000010430812836e-02,-1.000000000000000000e+00,1.757971048355102539e+00,-9.710965156555175781e+00,5.861933517456054688e+01,1.177401657104492188e+02,8.042877197265625000e+01,-1.783062591552734375e+02,1.115702667236328125e+02,-4.877959442138671875e+01,-1.825154876708984375e+02,1.950522308349609375e+02,-4.808320999145507812e+01,-1.382928619384765625e+02
1.600000075995922089e-02,-1.000000000000000000e+00,1.757971048355102539e+00,-9.710965156555175781e+00,5.861933517456054688e+01,1.177401657104492188e+02,8.042877197265625000e+01,-1.783062591552734375e+02,1.115702667236328125e+02,-4.877959442138671875e+01,-1.825154876708984375e+02,1.950522308349609375e+02,-4.808320999145507812e+01,-1.382928619384765625e+02
1.999999955296516418e-02,-1.000000000000000000e+00,1.757971048355102539e+00,-9.710965156555175781e+00,5.861933517456054688e+01,1.177401657104492188e+02,8.042877197265625000e+01,-1.783062591552734375e+02,1.115702667236328125e+02,-4.877959442138671875e+01,-1.825154876708984375e+02,1.950522308349609375e+02,-4.808320999145507812e+01,-1.382928619384765625e+02
2.400000020861625671e-02,-1.000000000000000000e+00,1.757971048355102539e+00,-9.710965156555175781e+00,5.861933517456054688e+01,1.177401657104492188e+02,8.042877197265625000e+01,-1.783062591552734375e+02,1.115702667236328125e+02,-4.877959442138671875e+01,-1.825154876708984375e+02,1.950522308349609375e+02,-4.808320999145507812e+01,-1.382928619384765625e+02
2.800000086426734924e-02,-1.000000000000000000e+00,1.757971048355102539e+00,-9.710965156555175781e+00,5.861933517456054688e+01,1.177401657104492188e+02,8.042877197265625000e+01,-1.783062591552734375e+02,1.115702667236328125e+02,-4.877959442138671875e+01,-1.825154876708984375e+02,1.950522308349609375e+02,-4.808320999145507812e+01,-1.382928619384765625e+02
3.200000151991844177e-02,2.000000000000000000e+00,1.757971048355102539e+00,-9.710965156555175781e+00,5.861933517456054688e+01,1.177401657104492188e+02,8.042877197265625000e+01,-1.783062591552734375e+02,1.115702667236328125e+02,-4.877959442138671875e+01,-1.825154876708984375e+02,1.950522308349609375e+02,-4.808320999145507812e+01,-1.382928619384765625e+02
3.700000047683715820e-02,2.000000000000000000e+00,1.757971048355102539e+00,-9.710965156555175781e+00,5.861933517456054688e+01,1.177401657104492188e+02,8.042877197265625000e+01,-1.783062591552734375e+02,1.115702667236328125e+02,-4.877959442138671875e+01,-1.825154876708984375e+02,1.950522308349609375e+02,-4.808320999145507812e+01,-1.382928619384765625e+02
4.300000146031379700e-02,2.000000000000000000e+00,1.757971048355102539e+00,-9.710965156555175781e+00,5.861933517456054688e+01,1.177401657104492188e+02,8.042877197265625000e+01,-1.783062591552734375e+02,1.115702667236328125e+02,-4.877959442138671875e+01,-1.825154876708984375e+02,1.950522308349609375e+02,-4.808320999145507812e+01,-1.382928619384765625e+02
4.399999976158142090e-02,2.000000000000000000e+00,1.757971048355102539e+00,-9.710965156555175781e+00,5.861933517456054688e+01,1.177401657104492188e+02,8.042877197265625000e+01,-1.783062591552734375e+02,1.115702667236328125e+02,-4.877959442138671875e+01,-1.825154876708984375e+02,1.950522308349609375e+02,-4.808320999145507812e+01,-1.382928619384765625e+02
5.000000074505805969e-02,2.000000000000000000e+00,1.757971048355102539e+00,-9.710965156555175781e+00,5.861933517456054688e+01,1.177401657104492188e+02,8.042877197265625000e+01,-1.783062591552734375e+02,1.115702667236328125e+02,-4.877959442138671875e+01,-1.825154876708984375e+02,1.950522308349609375e+02,-4.808320999145507812e+01,-1.382928619384765625e+02
5.200000107288360596e-02,2.000000000000000000e+00,1.757971048355102539e+00,-9.710965156555175781e+00,5.861933517456054688e+01,1.177401657104492188e+02,8.042877197265625000e+01,-1.783062591552734375e+02,1.115702667236328125e+02,-4.877959442138671875e+01,-1.825154876708984375e+02,1.950522308349609375e+02,-4.808320999145507812e+01,-1.382928619384765625e+02
5.600000172853469849e-02,2.000000000000000000e+00,1.757971048355102539e+00,-9.710965156555175781e+00,5.861933517456054688e+01,1.177401657104492188e+02,8.042877197265625000e+01,-1.783062591552734375e+02,1.115702667236328125e+02,-4.877959442138671875e+01,-1.825154876708984375e+02,1.950522308349609375e+02,-4.808320999145507812e+01,-1.382928619384765625e+02
5.999999865889549255e-02,2.000000000000000000e+00,1.757971048355102539e+00,-9.710965156555175781e+00,5.861933517456054688e+01,1.177401657104492188e+02,8.042877197265625000e+01,-1.783062591552734375e+02,1.115702667236328125e+02,-4.877959442138671875e+01,-1.825154876708984375e+02,1.950522308349609375e+02,-4.808320999145507812e+01,-1.382928619384765625e+02
6.400000303983688354e-02,2.000000000000000000e+00,1.757971048355102539e+00,-9.710965156555175781e+00,5.861933517456054688e+01,1.177401657104492188e+02,8.042877197265625000e+01,-1.783062591552734375e+02,1.115702667236328125e+02,-4.877959442138671875e+01,-1.825154876708984375e+02,1.950522308349609375e+02,-4.808320999145507812e+01,-1.382928619384765625e+02
6.800000369548797607e-02,2.000000000000000000e+00,1.757971048355102539e+00,-9.710965156555175781e+00,5.861933517456054688e+01,1.177401657104492188e+02,8.042877197265625000e+01,-1.783062591552734375e+02,1.115702667236328125e+02,-4.877959442138671875e+01,-1.825154876708984375e+02,1.950522308349609375e+02,-4.808320999145507812e+01,-1.382928619384765625e+02
7.199999690055847168e-02,2.000000000000000000e+00,1.757971048355102539e+00,-9.710965156555175781e+00,5.861933517456054688e+01,1.177401657104492188e+02,8.042877197265625000e+01,-1.783062591552734375e+02,1.115702667236328125e+02,-4.877959442138671875e+01,-1.825154876708984375e+02,1.950522308349609375e+02,-4.808320999145507812e+01,-1.382928619384765625e+02
7.599999755620956421e-02,2.000000000000000000e+00,1.757904648780822754e+00,-9.710937500000000000e+00,5.861932754516601562e+01,1.177401657104492188e+02,8.042877197265625000e+01,-1.783062591552734375e+02,1.115702667236328125e+02,-4.877959442138671875e+01,-1.825154876708984375e+02,1.950522308349609375e+02,-4.808320999145507812e+01,-1.382928619384765625e+02
7.999999821186065674e-02,2.000000000000000000e+00,1.757529735565185547e+00,-9.710771560668945312e+00,5.861925888061523438e+01,1.177401809692382812e+02,8.042876434326171875e+01,-1.783062591552734375e+02,1.115702667236328125e+02,-4.877959442138671875e+01,-1.825154876708984375e+02,1.950522308349609375e+02,-4.808320999145507812e+01,-1.382928619384765625e+02
8.399999886751174927e-02,2.000000000000000000e+00,1.756455063819885254e+00,-9.710251808166503906e+00,5.861906051635742188e+01,1.177401962280273438e+02,8.042874145507812500e+01,-1.783062438964843750e+02,1.115702667236328125e+02,-4.877959442138671875e+01,-1.825154876708984375e+02,1.950522308349609375e+02,-4.808320999145507812e+01,-1.382928619384765625e+02
8.799999952316284180e-02,2.000000000000000000e+00,1.754310131072998047e+00,-9.709136009216308594e+00,5.861861038208007812e+01,1.177402496337890625e+02,8.042871856689453125e+01,-1.783062133789062500e+02,1.115702438354492188e+02,-4.877959442138671875e+01,-1.825154876708984375e+02,1.950522460937500000e+02,-4.808320999145507812e+01,-1.382928619384765625e+02
9.200000017881393433e-02,2.000000000000000000e+00,1.750858545303344727e+00,-9.707216262817382812e+00,5.861780548095703125e+01,1.177403717041015625e+02,8.042866516113281250e+01,-1.783061370849609375e+02,1.115701065063476562e+02,-4.877956390380859375e+01,-1.825154418945312500e+02,1.950522613525390625e+02,-4.808322525024414062e+01,-1.382928619384765625e+02
9.600000083446502686e-02,2.000000000000000000e+00,1.745927691459655762e+00,-9.704318046569824219e+00,5.861652755737304688e+01,1.177405929565429688e+02,8.042863464355468750e+01,-1.783059692382812500e+02,1.115696411132812500e+02,-4.877945709228515625e+01,-1.825153503417968750e+02,1.950522918701171875e+02,-4.808326721191406250e+01,-1.382928771972656250e+02
1.000000014901161194e-01,2.000000000000000000e+00,1.739350795745849609e+00,-9.700283050537109375e+00,5.861464691162109375e+01,1.177410049438476562e+02,8.042863464355468750e+01,-1.783056488037109375e+02,1.115685577392578125e+02,-4.877920532226562500e+01,-1.825151062011718750e+02,1.950524139404296875e+02,-4.808337402343750000e+01,-1.382929077148437500e+02
1.040000021457672119e-01,2.000000000000000000e+00,1.731062412261962891e+00,-9.695008277893066406e+00,5.861205291748046875e+01,1.177416458129882812e+02,8.042869567871093750e+01,-1.783051147460937500e+02,1.115665817260742188e+02,-4.877873229980468750e+01,-1.825146484375000000e+02,1.950526733398437500e+02,-4.808361816406250000e+01,-1.382929687500000000e+02
1.080000028014183044e-01,2.000000000000000000e+00,1.721091389656066895e+00,-9.688468933105468750e+00,5.860862350463867188e+01,1.177426376342773438e+02,8.042887878417968750e+01,-1.783042449951171875e+02,1.115633621215820312e+02,-4.877793884277343750e+01,-1.825139007568359375e+02,1.950531463623046875e+02,-4.808408355712890625e+01,-1.382931365966796875e+02
1.120000034570693970e-01,2.000000000000000000e+00,1.709369897842407227e+00,-9.680625915527343750e+00,5.860423278808593750e+01,1.177440719604492188e+02,8.042922210693359375e+01,-1.783029937744140625e+02,1.115585632324218750e+02,-4.877671051025390625e+01,-1.825127716064453125e+02,1.950539398193359375e+02,-4.808489608764648438e+01,-1.382934417724609375e+02
1.159999966621398926e-01,2.000000000000000000e+00,1.695591807365417480e+00,-9.671337127685546875e+00,5.859871292114257812e+01,1.177460403442382812e+02,8.042977905273437500e+01,-1.783012237548828125e+02,1.115518646240234375e+02,-4.877493667602539062e+01,-1.825111846923828125e+02,1.950551605224609375e+02,-4.808619308471679688e+01,-1.382939605712890625e+02
1.199999973177909851e-01,2.000000000000000000e+00,1.679290056228637695e+00,-9.660358428955078125e+00,5.859188461303710938e+01,1.177486495971679688e+02,8.043059539794921875e+01,-1.782988739013671875e+02,1.115431213378906250e+02,-4.877254104614257812e+01,-1.825090942382812500e+02,1.950569610595703125e+02,-4.808812713623046875e+01,-1.382947692871093750e+02
1.239999979734420776e-01,2.000000000000000000e+00,1.660063862800598145e+00,-9.647477149963378906e+00,5.858355712890625000e+01,1.177519683837890625e+02,8.043169403076171875e+01,-1.782958221435546875e+02,1.115322189331054688e+02,-4.876944351196289062e+01,-1.825064697265625000e+02,1.950594177246093750e+02,-4.809084320068359375e+01,-1.382959747314453125e+02
1.280000060796737671e-01,2.000000000000000000e+00,1.637730121612548828e+00,-9.632621765136718750e+00,5.857361984252929688e+01,1.177560806274414062e+02,8.043311309814453125e+01,-1.782920227050781250e+02,1.115189590454101562e+02,-4.876556777954101562e+01,-1.825032501220703125e+02,1.950626525878906250e+02,-4.809447097778320312e+01,-1.382976226806640625e+02
1.309999972581863403e-01,2.000000000000000000e+00,1.612303256988525391e+00,-9.615860939025878906e+00,5.856202316284179688e+01,1.177610855102539062e+02,8.043490600585937500e+01,-1.782873992919921875e+02,1.115031280517578125e+02,-4.876083374023437500e+01,-1.824993591308593750e+02,1.950667419433593750e+02,-4.809910202026367188e+01,-1.382997283935546875e+02
1.360000073909759521e-01,2.000000000000000000e+00,1.583869814872741699e+00,-9.597294807434082031e+00,5.854875183105468750e+01,1.177669677734375000e+02,8.043709564208984375e+01,-1.782819213867187500e+02,1.114845428466796875e+02,-4.875519561767578125e+01,-1.824947967529296875e+02,1.950717315673828125e+02,-4.810478973388671875e+01,-1.383023681640625000e+02
1.389999985694885254e-01,2.000000000000000000e+00,1.552491784095764160e+00,-9.576982498168945312e+00,5.853379821777343750e+01,1.177738037109375000e+02,8.043968963623046875e+01,-1.782755432128906250e+02,1.114631347656250000e+02,-4.874862670898437500e+01,-1.824895477294921875e+02,1.950776519775390625e+02,-4.811154937744140625e+01,-1.383055267333984375e+02
1.439999938011169434e-01,2.000000000000000000e+00,1.518243670463562012e+00,-9.554971694946289062e+00,5.851719665527343750e+01,1.177815475463867188e+02,8.044269561767578125e+01,-1.782682800292968750e+02,1.114388732910156250e+02,-4.874114227294921875e+01,-1.824835662841796875e+02,1.950844573974609375e+02,-4.811934280395507812e+01,-1.383091888427734375e+02
1.480000019073486328e-01,2.000000000000000000e+00,1.481219172477722168e+00,-9.531303405761718750e+00,5.849899291992187500e+01,1.177901763916015625e+02,8.044609069824218750e+01,-1.782601776123046875e+02,1.114117965698242188e+02,-4.873276519775390625e+01,-1.824768981933593750e+02,1.950920867919921875e+02,-4.812812042236328125e+01,-1.383132934570312500e+02
1.519999951124191284e-01,2.000000000000000000e+00,1.441416740417480469e+00,-9.505925178527832031e+00,5.847924041748046875e+01,1.177996444702148438e+02,8.044985198974609375e+01,-1.782512817382812500e+02,1.113820800781250000e+02,-4.872355651855468750e+01,-1.824695587158203125e+02,1.951005096435546875e+02,-4.813777923583984375e+01,-1.383178558349609375e+02
1.560000032186508179e-01,2.000000000000000000e+00,1.398738622665405273e+00,-9.478698730468750000e+00,5.845798492431640625e+01,1.178098526000976562e+02,8.045390319824218750e+01,-1.782416839599609375e+02,1.113500213623046875e+02,-4.871361923217773438e+01,-1.824616546630859375e+02,1.951096038818359375e+02,-4.814822387695312500e+01,-1.383227539062500000e+02
1.599999964237213135e-01,2.000000000000000000e+00,1.353165030479431152e+00,-9.449539184570312500e+00,5.843530273437500000e+01,1.178207092285156250e+02,8.045821380615234375e+01,-1.782314605712890625e+02,1.113159713745117188e+02,-4.870306396484375000e+01,-1.824532470703125000e+02,1.951192626953125000e+02,-4.815932083129882812e+01,-1.383279724121093750e+02
1.640000045299530029e-01,2.000000000000000000e+00,1.304911136627197266e+00,-9.418544769287109375e+00,5.841132736206054688e+01,1.178321456909179688e+02,8.046273040771484375e+01,-1.782207489013671875e+02,1.112802047729492188e+02,-4.869198989868164062e+01,-1.824444274902343750e+02,1.951293792724609375e+02,-4.817094802856445312e+01,-1.383334350585937500e+02
1.679999977350234985e-01,2.000000000000000000e+00,1.254396796226501465e+00,-9.385950088500976562e+00,5.838626098632812500e+01,1.178440246582031250e+02,8.046739959716796875e+01,-1.782095794677734375e+02,1.112429504394531250e+02,-4.868048095703125000e+01,-1.824352264404296875e+02,1.951398925781250000e+02,-4.818298721313476562e+01,-1.383390808105468750e+02
1.720000058412551880e-01,2.000000000000000000e+00,1.202050209045410156e+00,-9.351995468139648438e+00,5.836029434204101562e+01,1.178562850952148438e+02,8.047221374511718750e+01,-1.781980743408203125e+02,1.112044448852539062e+02,-4.866862106323242188e+01,-1.824257507324218750e+02,1.951506347656250000e+02,-4.819532012939453125e+01,-1.383448486328125000e+02
1.759999990463256836e-01,2.000000000000000000e+00,1.148160099983215332e+00,-9.316862106323242188e+00,5.833358001708984375e+01,1.178688201904296875e+02,8.047710418701171875e+01,-1.781863250732421875e+02,1.111649398803710938e+02,-4.865649414062500000e+01,-1.824160156250000000e+02,1.951615905761718750e+02,-4.820785903930664062e+01,-1.383507080078125000e+02
1.800000071525573730e-01,2.000000000000000000e+00,1.092883467674255371e+00,-9.280694961547851562e+00,5.830625152587890625e+01,1.178815917968750000e+02,8.048206329345703125e+01,-1.781743621826171875e+02,1.111246795654296875e+02,-4.864418029785156250e+01,-1.824061126708984375e+02,1.951726684570312500e+02,-4.822051620483398438e+01,-1.383566131591796875e+02
1.840000003576278687e-01,2.000000000000000000e+00,1.036340594291687012e+00,-9.243638038635253906e+00,5.827844619750976562e+01,1.178945007324218750e+02,8.048704528808593750e+01,-1.781622772216796875e+02,1.110838775634765625e+02,-4.863173294067382812e+01,-1.823960723876953125e+02,1.951838226318359375e+02,-4.823324584960937500e+01,-1.383625488281250000e+02
1.879999935626983643e-01,2.000000000000000000e+00,9.786816239356994629e-01,-9.205838203430175781e+00,5.825026321411132812e+01,1.179075088500976562e+02,8.049205017089843750e+01,-1.781501007080078125e+02,1.110427246093750000e+02,-4.861920166015625000e+01,-1.823859710693359375e+02,1.951949920654296875e+02,-4.824600982666015625e+01,-1.383684844970703125e+02
1.920000016689300537e-01,2.000000000000000000e+00,9.200354814529418945e-01,-9.167423248291015625e+00,5.822179794311523438e+01,1.179205780029296875e+02,8.049704742431640625e+01,-1.781378936767578125e+02,1.110013885498046875e+02,-4.860663604736328125e+01,-1.823758239746093750e+02,1.952061920166015625e+02,-4.825878524780273438e+01,-1.383744201660156250e+02
1.959999948740005493e-01,2.000000000000000000e+00,8.605164289474487305e-01,-9.128514289855957031e+00,5.819312286376953125e+01,1.179336776733398438e+02,8.050203704833984375e+01,-1.781256561279296875e+02,1.109599990844726562e+02,-4.859405517578125000e+01,-1.823656463623046875e+02,1.952173919677734375e+02,-4.827156066894531250e+01,-1.383803558349609375e+02
2.000000029802322388e-01,2.000000000000000000e+00,8.003304004669189453e-01,-9.089268684387207031e+00,5.816431427001953125e+01,1.179467926025390625e+02,8.050701904296875000e+01,-1.781134185791015625e+02,1.109186096191406250e+02,-4.858147430419921875e+01,-1.823554840087890625e+02,1.952285919189453125e+02,-4.828433227539062500e+01,-1.383862915039062500e+02
2.039999961853027344e-01,2.000000000000000000e+00,7.397686839103698730e-01,-9.049850463867187500e+00,5.813543701171875000e+01,1.179599227905273438e+02,8.051198577880859375e+01,-1.781011810302734375e+02,1.108772354125976562e+02,-4.856889343261718750e+01,-1.823453216552734375e+02,1.952397918701171875e+02,-4.829710006713867188e+01,-1.383922119140625000e+02
2.080000042915344238e-01,2.000000000000000000e+00,6.790862083435058594e-01,-9.010385513305664062e+00,5.810655212402343750e+01,1.179730377197265625e+02,8.051694488525390625e+01,-1.780889282226562500e+02,1.108358688354492188e+02,-4.855632400512695312e+01,-1.823351593017578125e+02,1.952509918212890625e+02,-4.830986404418945312e+01,-1.383981475830078125e+02
2.119999974966049194e-01,2.000000000000000000e+00,6.184008121490478516e-01,-8.970923423767089844e+00,5.807766723632812500e+01,1.179861526489257812e+02,8.052191162109375000e+01,-1.780766906738281250e+02,1.107945251464843750e+02,-4.854375457763671875e+01,-1.823249969482421875e+02,1.952621765136718750e+02,-4.832262420654296875e+01,-1.384040679931640625e+02
2.160000056028366089e-01,2.000000000000000000e+00,5.577317476272583008e-01,-8.931471824645996094e+00,5.804878616333007812e+01,1.179992523193359375e+02,8.052687072753906250e+01,-1.780644531250000000e+02,1.107531814575195312e+02,-4.853118896484375000e+01,-1.823148193359375000e+02,1.952733612060546875e+02,-4.833538436889648438e+01,-1.384100036621093750e+02
2.199999988079071045e-01,2.000000000000000000e+00,4.970800876617431641e-01,-8.892031669616699219e+00,5.801992416381835938e+01,1.180123672485351562e+02,8.053183746337890625e+01,-1.780522308349609375e+02,1.107118530273437500e+02,-4.851862716674804688e+01,-1.823046722412109375e+02,1.952845458984375000e+02,-4.834813690185546875e+01,-1.384159088134765625e+02
2.240000069141387939e-01,2.000000000000000000e+00,4.364457130432128906e-01,-8.852603912353515625e+00,5.799106597900390625e+01,1.180254669189453125e+02,8.053679656982421875e+01,-1.780400085449218750e+02,1.106705398559570312e+02,-4.850606918334960938e+01,-1.822945251464843750e+02,1.952957305908203125e+02,-4.836088943481445312e+01,-1.384218444824218750e+02
2.280000001192092896e-01,2.000000000000000000e+00,3.758286535739898682e-01,-8.813185691833496094e+00,5.796221542358398438e+01,1.180385665893554688e+02,8.054175567626953125e+01,-1.780277709960937500e+02,1.106292343139648438e+02,-4.849351501464843750e+01,-1.822843780517578125e+02,1.953069152832031250e+02,-4.837363433837890625e+01,-1.384277648925781250e+02
2.319999933242797852e-01,2.000000000000000000e+00,3.152289092540740967e-01,-8.773780822753906250e+00,5.793337249755859375e+01,1.180516510009765625e+02,8.054671478271484375e+01,-1.780155639648437500e+02,1.105879440307617188e+02,-4.848096466064453125e+01,-1.822742462158203125e+02,1.953180694580078125e+02,-4.838637542724609375e+01,-1.384336853027343750e+02
2.360000014305114746e-01,2.000000000000000000e+00,2.546464800834655762e-01,-8.734386444091796875e+00,5.790454101562500000e+01,1.180647506713867188e+02,8.055166625976562500e+01,-1.780033416748046875e+02,1.105466613769531250e+02,-4.846841812133789062e+01,-1.822640991210937500e+02,1.953292541503906250e+02,-4.839911651611328125e+01,-1.384396057128906250e+02
2.399999946355819702e-01,2.000000000000000000e+00,1.940813362598419189e-01,-8.695003509521484375e+00,5.787570953369140625e+01,1.180778427124023438e+02,8.055661773681640625e+01,-1.779911193847656250e+02,1.105053939819335938e+02,-4.845587158203125000e+01,-1.822539520263671875e+02,1.953404235839843750e+02,-4.841185379028320312e+01,-1.384455108642578125e+02
2.440000027418136597e-01,2.000000000000000000e+00,1.335336714982986450e-01,-8.655631065368652344e+00,5.784689331054687500e+01,1.180909118652343750e+02,8.056157684326171875e+01,-1.779789276123046875e+02,1.104641342163085938e+02,-4.844333267211914062e+01,-1.822438201904296875e+02,1.953515777587890625e+02,-4.842458343505859375e+01,-1.384514312744140625e+02
2.479999959468841553e-01,2.000000000000000000e+00,7.300355285406112671e-02,-8.616270065307617188e+00,5.781809234619140625e+01,1.181039962768554688e+02,8.056652832031250000e+01,-1.779667205810546875e+02,1.104228897094726562e+02,-4.843079376220703125e+01,-1.822336883544921875e+02,1.953627471923828125e+02,-4.843731307983398438e+01,-1.384573516845703125e+02
2.520000040531158447e-01,2.000000000000000000e+00,1.249087974429130554e-02,-8.576919555664062500e+00,5.778928756713867188e+01,1.181170730590820312e+02,8.057147216796875000e+01,-1.779545135498046875e+02,1.103816604614257812e+02,-4.841826248168945312e+01,-1.822235412597656250e+02,1.953739013671875000e+02,-4.845003509521484375e+01,-1.384632568359375000e+02
2.560000121593475342e-01,2.000000000000000000e+00,-4.800458624958992004e-02,-8.537581443786621094e+00,5.776049423217773438e+01,1.181301422119140625e+02,8.057642364501953125e+01,-1.779423217773437500e+02,1.103404388427734375e+02,-4.840573120117187500e+01,-1.822134246826171875e+02,1.953850555419921875e+02,-4.846275711059570312e+01,-1.384691619873046875e+02
2.599999904632568359e-01,2.000000000000000000e+00,-1.084829717874526978e-01,-8.498253822326660156e+00,5.773170852661132812e+01,1.181432037353515625e+02,8.058136749267578125e+01,-1.779301147460937500e+02,1.102992248535156250e+02,-4.839320755004882812e+01,-1.822033081054687500e+02,1.953962097167968750e+02,-4.847547531127929688e+01,-1.384750671386718750e+02
2.639999985694885254e-01,2.000000000000000000e+00,-1.689442396163940430e-01,-8.458937644958496094e+00,5.770293426513671875e+01,1.181562805175781250e+02,8.058631896972656250e+01,-1.779179382324218750e+02,1.102580261230468750e+02,-4.838068389892578125e+01,-1.821931762695312500e+02,1.954073638916015625e+02,-4.848818969726562500e+01,-1.384809875488281250e+02
2.680000066757202148e-01,2.000000000000000000e+00,-2.293883115053176880e-01,-8.419632911682128906e+00,5.767416763305664062e+01,1.181693344116210938e+02,8.059126281738281250e+01,-1.779057464599609375e+02,1.102168350219726562e+02,-4.836816787719726562e+01,-1.821830596923828125e+02,1.954185028076171875e+02,-4.850089645385742188e+01,-1.384868774414062500e+02
2.720000147819519043e-01,2.000000000000000000e+00,-2.898151874542236328e-01,-8.380339622497558594e+00,5.764541244506835938e+01,1.181823959350585938e+02,8.059620666503906250e+01,-1.778935699462890625e+02,1.101756668090820312e+02,-4.835564804077148438e+01,-1.821729431152343750e+02,1.954296417236328125e+02,-4.851360321044921875e+01,-1.384927825927734375e+02
2.759999930858612061e-01,2.000000000000000000e+00,-3.502248525619506836e-01,-8.341056823730468750e+00,5.761665725708007812e+01,1.181954421997070312e+02,8.060114288330078125e+01,-1.778813781738281250e+02,1.101345062255859375e+02,-4.834313583374023438e+01,-1.821628265380859375e+02,1.954407806396484375e+02,-4.852630615234375000e+01,-1.384986877441406250e+02
2.800000011920928955e-01,2.000000000000000000e+00,-4.106174111366271973e-01,-8.301786422729492188e+00,5.758791351318359375e+01,1.182085037231445312e+02,8.060607910156250000e+01,-1.778692016601562500e+02,1.100933532714843750e+02,-4.833063125610351562e+01,-1.821527252197265625e+02,1.954519195556640625e+02,-4.853900527954101562e+01,-1.385045928955078125e+02
2.840000092983245850e-01,2.000000000000000000e+00,-4.709928333759307861e-01,-8.262526512145996094e+00,5.755918121337890625e+01,1.182215499877929688e+02,8.061102294921875000e+01,-1.778570251464843750e+02,1.100522155761718750e+02,-4.831812667846679688e+01,-1.821426086425781250e+02,1.954630432128906250e+02,-4.855170059204101562e+01,-1.385104675292968750e+02
2.879999876022338867e-01,2.000000000000000000e+00,-5.313510894775390625e-01,-8.223277091979980469e+00,5.753045272827148438e+01,1.182345809936523438e+02,8.061595916748046875e+01,-1.778448486328125000e+02,1.100110855102539062e+02,-4.830562591552734375e+01,-1.821325225830078125e+02,1.954741668701171875e+02,-4.856439590454101562e+01,-1.385163726806640625e+02
2.919999957084655762e-01,2.000000000000000000e+00,-5.916922688484191895e-01,-8.184039115905761719e+00,5.750173187255859375e+01,1.182476272583007812e+02,8.062089538574218750e+01,-1.778326873779296875e+02,1.099699707031250000e+02,-4.829312515258789062e+01,-1.821224060058593750e+02,1.954853057861328125e+02,-4.857707977294921875e+01,-1.385222625732421875e+02
2.960000038146972656e-01,2.000000000000000000e+00,-6.520162820816040039e-01,-8.144812583923339844e+00,5.747302246093750000e+01,1.182606582641601562e+02,8.062583160400390625e+01,-1.778205261230468750e+02,1.099288635253906250e+02,-4.828063201904296875e+01,-1.821123046875000000e+02,1.954964294433593750e+02,-4.858976364135742188e+01,-1.385281677246093750e+02
3.000000119209289551e-01,2.000000000000000000e+00,-7.123231291770935059e-01,-8.105597496032714844e+00,5.744432449340820312e+01,1.182736892700195312e+02,8.063076019287109375e+01,-1.778083648681640625e+02,1.098877716064453125e+02,-4.826814651489257812e+01,-1.821022186279296875e+02,1.955075378417968750e+02,-4.860244750976562500e+01,-1.385340576171875000e+02
3.039999902248382568e-01,2.000000000000000000e+00,-7.726130485534667969e-01,-8.066392898559570312e+00,5.741562271118164062e+01,1.182867050170898438e+02,8.063568878173828125e+01,-1.777962036132812500e+02,1.098466873168945312e+02,-4.825565719604492188e+01,-1.820921173095703125e+02,1.955186614990234375e+02,-4.861512374877929688e+01,-1.385399322509765625e+02
3.079999983310699463e-01,2.000000000000000000e+00,-8.328858613967895508e-01,-8.027199745178222656e+00,5.738694381713867188e+01,1.182997360229492188e+02,8.064062500000000000e+01,-1.777840576171875000e+02,1.098056182861328125e+02,-4.824317550659179688e+01,-1.820820312500000000e+02,1.955297851562500000e+02,-4.862779998779296875e+01,-1.385458221435546875e+02
3.120000064373016357e-01,2.000000000000000000e+00,-8.931417465209960938e-01,-7.988016605377197266e+00,5.735826110839843750e+01,1.183127593994140625e+02,8.064555358886718750e+01,-1.777718963623046875e+02,1.097645645141601562e+02,-4.823069381713867188e+01,-1.820719451904296875e+02,1.955408935546875000e+02,-4.864046859741210938e+01,-1.385517120361328125e+02
3.160000145435333252e-01,2.000000000000000000e+00,-9.533806443214416504e-01,-7.948845386505126953e+00,5.732958984375000000e+01,1.183257751464843750e+02,8.065048217773437500e+01,-1.777597656250000000e+02,1.097235183715820312e+02,-4.821821594238281250e+01,-1.820618591308593750e+02,1.955519866943359375e+02,-4.865313720703125000e+01,-1.385575866699218750e+02
3.199999928474426270e-01,2.000000000000000000e+00,-1.013602733612060547e+00,-7.909684658050537109e+00,5.730093002319335938e+01,1.183387832641601562e+02,8.065540313720703125e+01,-1.777476196289062500e+02,1.096824874877929688e+02,-4.820574569702148438e+01,-1.820517730712890625e+02,1.955630950927734375e+02,-4.866579818725585938e+01,-1.385634765625000000e+02
3.240000009536743164e-01,2.000000000000000000e+00,-1.073807954788208008e+00,-7.870535373687744141e+00,5.727227401733398438e+01,1.183517990112304688e+02,8.066033172607421875e+01,-1.777354736328125000e+02,1.096414566040039062e+02,-4.819327545166015625e+01,-1.820417022705078125e+02,1.955742034912109375e+02,-4.867846298217773438e+01,-1.385693511962890625e+02
3.280000090599060059e-01,2.000000000000000000e+00,-1.133996248245239258e+00,-7.831396579742431641e+00,5.724362945556640625e+01,1.183647994995117188e+02,8.066525268554687500e+01,-1.777233428955078125e+02,1.096004486083984375e+02,-4.818080902099609375e+01,-1.820316162109375000e+02,1.955852966308593750e+02,-4.869111633300781250e+01,-1.385752410888671875e+02
3.319999873638153076e-01,2.000000000000000000e+00,-1.194167733192443848e+00,-7.792269229888916016e+00,5.721498870849609375e+01,1.183778076171875000e+02,8.067017364501953125e+01,-1.777112121582031250e+02,1.095594482421875000e+02,-4.816834640502929688e+01,-1.820215454101562500e+02,1.955963897705078125e+02,-4.870376586914062500e+01,-1.385811157226562500e+02
3.359999954700469971e-01,2.000000000000000000e+00,-1.254322290420532227e+00,-7.753152847290039062e+00,5.718635940551757812e+01,1.183908004760742188e+02,8.067509460449218750e+01,-1.776990814208984375e+02,1.095184555053710938e+02,-4.815588760375976562e+01,-1.820114746093750000e+02,1.956074829101562500e+02,-4.871641540527343750e+01,-1.385869903564453125e+02
3.400000035762786865e-01,2.000000000000000000e+00,-1.314460158348083496e+00,-7.714046478271484375e+00,5.715773773193359375e+01,1.184037857055664062e+02,8.068001556396484375e+01,-1.776869506835937500e+02,1.094774780273437500e+02,-4.814343261718750000e+01,-1.820014038085937500e+02,1.956185760498046875e+02,-4.872906494140625000e+01,-1.385928649902343750e+02
3.440000116825103760e-01,2.000000000000000000e+00,-1.374580979347229004e+00,-7.674952030181884766e+00,5.712912368774414062e+01,1.184167785644531250e+02,8.068493652343750000e+01,-1.776748352050781250e+02,1.094365158081054688e+02,-4.813098144531250000e+01,-1.819913482666015625e+02,1.956296539306640625e+02,-4.874170684814453125e+01,-1.385987396240234375e+02
3.479999899864196777e-01,2.000000000000000000e+00,-1.434685111045837402e+00,-7.635868072509765625e+00,5.710051727294921875e+01,1.184297714233398438e+02,8.068984985351562500e+01,-1.776627044677734375e+02,1.093955535888671875e+02,-4.811853408813476562e+01,-1.819812774658203125e+02,1.956407470703125000e+02,-4.875434494018554688e+01,-1.386046142578125000e+02
3.519999980926513672e-01,2.000000000000000000e+00,-1.494772434234619141e+00,-7.596795082092285156e+00,5.707192230224609375e+01,1.184427490234375000e+02,8.069476318359375000e+01,-1.776506042480468750e+02,1.093546142578125000e+02,-4.810608673095703125e+01,-1.819712219238281250e+02,1.956518249511718750e+02,-4.876697921752929688e+01,-1.386104736328125000e+02
3.560000061988830566e-01,2.000000000000000000e+00,-1.554842948913574219e+00,-7.557733535766601562e+00,5.704333114624023438e+01,1.184557418823242188e+02,8.069967651367187500e+01,-1.776384887695312500e+02,1.093136825561523438e+02,-4.809364700317382812e+01,-1.819611663818359375e+02,1.956629028320312500e+02,-4.877960968017578125e+01,-1.386163482666015625e+02
3.600000143051147461e-01,2.000000000000000000e+00,-1.614896655082702637e+00,-7.518682479858398438e+00,5.701474761962890625e+01,1.184687194824218750e+02,8.070459747314453125e+01,-1.776263732910156250e+02,1.092727584838867188e+02,-4.808121109008789062e+01,-1.819511108398437500e+02,1.956739654541015625e+02,-4.879224014282226562e+01,-1.386222076416015625e+02
3.639999926090240479e-01,2.000000000000000000e+00,-1.674933552742004395e+00,-7.479641914367675781e+00,5.698617553710937500e+01,1.184816818237304688e+02,8.070950317382812500e+01,-1.776142578125000000e+02,1.092318572998046875e+02,-4.806877136230468750e+01,-1.819410705566406250e+02,1.956850280761718750e+02,-4.880486297607421875e+01,-1.386280822753906250e+02
3.680000007152557373e-01,2.000000000000000000e+00,-1.734953761100769043e+00,-7.440612792968750000e+00,5.695760726928710938e+01,1.184946594238281250e+02,8.071440887451171875e+01,-1.776021575927734375e+02,1.091909561157226562e+02,-4.805633926391601562e+01,-1.819310150146484375e+02,1.956961059570312500e+02,-4.881748199462890625e+01,-1.386339416503906250e+02
3.720000088214874268e-01,2.000000000000000000e+00,-1.794957041740417480e+00,-7.401594161987304688e+00,5.692905044555664062e+01,1.185076217651367188e+02,8.071932220458984375e+01,-1.775900573730468750e+02,1.091500701904296875e+02,-4.804391479492187500e+01,-1.819209747314453125e+02,1.957071685791015625e+02,-4.883010101318359375e+01,-1.386398010253906250e+02
3.759999871253967285e-01,2.000000000000000000e+00,-1.854943871498107910e+00,-7.362586975097656250e+00,5.690050125122070312e+01,1.185205841064453125e+02,8.072422027587890625e+01,-1.775779724121093750e+02,1.091091918945312500e+02,-4.803149032592773438e+01,-1.819109344482421875e+02,1.957182312011718750e+02,-4.884271621704101562e+01,-1.386456604003906250e+02
3.799999952316284180e-01,2.000000000000000000e+00,-1.914913535118103027e+00,-7.323591232299804688e+00,5.687195587158203125e+01,1.185335388183593750e+02,8.072912597656250000e+01,-1.775658721923828125e+02,1.090683364868164062e+02,-4.801906967163085938e+01,-1.819008941650390625e+02,1.957292938232421875e+02,-4.885532760620117188e+01,-1.386515197753906250e+02
3.840000033378601074e-01,2.000000000000000000e+00,-1.974866867065429688e+00,-7.284605026245117188e+00,5.684342193603515625e+01,1.185465011596679688e+02,8.073403167724609375e+01,-1.775537872314453125e+02,1.090274810791015625e+02,-4.800665283203125000e+01,-1.818908538818359375e+02,1.957403411865234375e+02,-4.886793518066406250e+01,-1.386573638916015625e+02
3.880000114440917969e-01,2.000000000000000000e+00,-2.034803152084350586e+00,-7.245630264282226562e+00,5.681489562988281250e+01,1.185594482421875000e+02,8.073893737792968750e+01,-1.775417022705078125e+02,1.089866409301757812e+02,-4.799423980712890625e+01,-1.818808135986328125e+02,1.957513885498046875e+02,-4.888053512573242188e+01,-1.386632232666015625e+02
3.919999897480010986e-01,2.000000000000000000e+00,-2.094722986221313477e+00,-7.206665992736816406e+00,5.678637695312500000e+01,1.185723876953125000e+02,8.074384307861328125e+01,-1.775296173095703125e+02,1.089458084106445312e+02,-4.798183059692382812e+01,-1.818707885742187500e+02,1.957624511718750000e+02,-4.889313888549804688e+01,-1.386690673828125000e+02
3.959999978542327881e-01,2.000000000000000000e+00,-2.154626131057739258e+00,-7.167713165283203125e+00,5.675786972045898438e+01,1.185853347778320312e+02,8.074874114990234375e+01,-1.775175323486328125e+02,1.089049911499023438e+02,-4.796942138671875000e+01,-1.818607482910156250e+02,1.957734832763671875e+02,-4.890573120117187500e+01,-1.386749267578125000e+02
4.000000059604644775e-01,2.000000000000000000e+00,-2.214512586593627930e+00,-7.128770828247070312e+00,5.672936630249023438e+01,1.185982742309570312e+02,8.075363159179687500e+01,-1.775054626464843750e+02,1.088641891479492188e+02,-4.795701980590820312e+01,-1.818507232666015625e+02,1.957845306396484375e+02,-4.891832351684570312e+01,-1.386807708740234375e+02
4.040000140666961670e-01,2.000000000000000000e+00,-2.274382114410400391e+00,-7.089839935302734375e+00,5.670087051391601562e+01,1.186112060546875000e+02,8.075852966308593750e+01,-1.774933929443359375e+02,1.088233871459960938e+02,-4.794461822509765625e+01,-1.818406982421875000e+02,1.957955780029296875e+02,-4.893091583251953125e+01,-1.386866302490234375e+02
4.079999923706054688e-01,2.000000000000000000e+00,-2.334235191345214844e+00,-7.050919055938720703e+00,5.667238616943359375e+01,1.186241455078125000e+02,8.076342773437500000e+01,-1.774813232421875000e+02,1.087826080322265625e+02,-4.793222427368164062e+01,-1.818306884765625000e+02,1.958066101074218750e+02,-4.894350051879882812e+01,-1.386924743652343750e+02
4.120000004768371582e-01,2.000000000000000000e+00,-2.394071340560913086e+00,-7.012009143829345703e+00,5.664390563964843750e+01,1.186370697021484375e+02,8.076832580566406250e+01,-1.774692535400390625e+02,1.087418365478515625e+02,-4.791983032226562500e+01,-1.818206787109375000e+02,1.958176269531250000e+02,-4.895608139038085938e+01,-1.386983184814453125e+02
4.160000085830688477e-01,2.000000000000000000e+00,-2.453891277313232422e+00,-6.973110675811767578e+00,5.661543655395507812e+01,1.186500015258789062e+02,8.077321624755859375e+01,-1.774571990966796875e+02,1.087010726928710938e+02,-4.790744018554687500e+01,-1.818106536865234375e+02,1.958286743164062500e+02,-4.896866226196289062e+01,-1.387041473388671875e+02
4.199999868869781494e-01,2.000000000000000000e+00,-2.513694286346435547e+00,-6.934222221374511719e+00,5.658697509765625000e+01,1.186629257202148438e+02,8.077810668945312500e+01,-1.774451293945312500e+02,1.086603240966796875e+02,-4.789505386352539062e+01,-1.818006439208984375e+02,1.958396911621093750e+02,-4.898123550415039062e+01,-1.387099914550781250e+02
4.239999949932098389e-01,2.000000000000000000e+00,-2.573480606079101562e+00,-6.895345211029052734e+00,5.655851745605468750e+01,1.186758346557617188e+02,8.078299713134765625e+01,-1.774330902099609375e+02,1.086195831298828125e+02,-4.788267135620117188e+01,-1.817906341552734375e+02,1.958507232666015625e+02,-4.899380874633789062e+01,-1.387158355712890625e+02
4.280000030994415283e-01,2.000000000000000000e+00,-2.633250474929809570e+00,-6.856478691101074219e+00,5.653007125854492188e+01,1.186887588500976562e+02,8.078788757324218750e+01,-1.774210205078125000e+02,1.085788650512695312e+02,-4.787029266357421875e+01,-1.817806243896484375e+02,1.958617401123046875e+02,-4.900637435913085938e+01,-1.387216796875000000e+02
4.320000112056732178e-01,2.000000000000000000e+00,-2.693003892898559570e+00,-6.817623138427734375e+00,5.650162887573242188e+01,1.187016677856445312e+02,8.079277801513671875e+01,-1.774089813232421875e+02,1.085381469726562500e+02,-4.785791778564453125e+01,-1.817706298828125000e+02,1.958727569580078125e+02,-4.901894378662109375e+01,-1.387275085449218750e+02
4.359999895095825195e-01,2.000000000000000000e+00,-2.752740383148193359e+00,-6.778778553009033203e+00,5.647320175170898438e+01,1.187145767211914062e+02,8.079766082763671875e+01,-1.773969421386718750e+02,1.084974365234375000e+02,-4.784554290771484375e+01,-1.817606201171875000e+02,1.958837738037109375e+02,-4.903150558471679688e+01,-1.387333374023437500e+02
4.399999976158142090e-01,2.000000000000000000e+00,-2.812460422515869141e+00,-6.739943981170654297e+00,5.644477462768554688e+01,1.187274703979492188e+02,8.080254364013671875e+01,-1.773848876953125000e+02,1.084567489624023438e+02,-4.783317565917968750e+01,-1.817506256103515625e+02,1.958947906494140625e+02,-4.904405975341796875e+01,-1.387391815185546875e+02
4.440000057220458984e-01,2.000000000000000000e+00,-2.872163772583007812e+00,-6.701120853424072266e+00,5.641636276245117188e+01,1.187403793334960938e+02,8.080742645263671875e+01,-1.773728637695312500e+02,1.084160690307617188e+02,-4.782080841064453125e+01,-1.817406311035156250e+02,1.959057922363281250e+02,-4.905661392211914062e+01,-1.387450103759765625e+02
4.480000138282775879e-01,2.000000000000000000e+00,-2.931850671768188477e+00,-6.662308216094970703e+00,5.638795471191406250e+01,1.187532730102539062e+02,8.081230926513671875e+01,-1.773608245849609375e+02,1.083753967285156250e+02,-4.780844879150390625e+01,-1.817306365966796875e+02,1.959167938232421875e+02,-4.906916427612304688e+01,-1.387508392333984375e+02
4.519999921321868896e-01,2.000000000000000000e+00,-2.991521120071411133e+00,-6.623507022857666016e+00,5.635955429077148438e+01,1.187661743164062500e+02,8.081719970703125000e+01,-1.773487854003906250e+02,1.083347396850585938e+02,-4.779608917236328125e+01,-1.817206573486328125e+02,1.959278106689453125e+02,-4.908171081542968750e+01,-1.387566680908203125e+02
4.560000002384185791e-01,2.000000000000000000e+00,-3.051174640655517578e+00,-6.584715843200683594e+00,5.633116149902343750e+01,1.187790527343750000e+02,8.082207489013671875e+01,-1.773367614746093750e+02,1.082940902709960938e+02,-4.778373336791992188e+01,-1.817106628417968750e+02,1.959387969970703125e+02,-4.909425735473632812e+01,-1.387624969482421875e+02
4.600000083446502686e-01,2.000000000000000000e+00,-3.110811948776245117e+00,-6.545935630798339844e+00,5.630278015136718750e+01,1.187919464111328125e+02,8.082695007324218750e+01,-1.773247375488281250e+02,1.082534484863281250e+02,-4.777138137817382812e+01,-1.817006835937500000e+02,1.959497985839843750e+02,-4.910679626464843750e+01,-1.387683105468750000e+02
4.639999866485595703e-01,2.000000000000000000e+00,-3.170432806015014648e+00,-6.507165908813476562e+00,5.627440261840820312e+01,1.188048324584960938e+02,8.083182525634765625e+01,-1.773127136230468750e+02,1.082128295898437500e+02,-4.775903320312500000e+01,-1.816907043457031250e+02,1.959608001708984375e+02,-4.911933517456054688e+01,-1.387741394042968750e+02
4.679999947547912598e-01,2.000000000000000000e+00,-3.230036735534667969e+00,-6.468407154083251953e+00,5.624603652954101562e+01,1.188177108764648438e+02,8.083670043945312500e+01,-1.773006896972656250e+02,1.081722106933593750e+02,-4.774668884277343750e+01,-1.816807250976562500e+02,1.959717712402343750e+02,-4.913186645507812500e+01,-1.387799682617187500e+02
4.720000028610229492e-01,2.000000000000000000e+00,-3.289624452590942383e+00,-6.429659366607666016e+00,5.621767425537109375e+01,1.188305816650390625e+02,8.084158325195312500e+01,-1.772886810302734375e+02,1.081316070556640625e+02,-4.773434829711914062e+01,-1.816707458496093750e+02,1.959827575683593750e+02,-4.914439773559570312e+01,-1.387857818603515625e+02
4.760000109672546387e-01,2.000000000000000000e+00,-3.349195718765258789e+00,-6.390922069549560547e+00,5.618932342529296875e+01,1.188434524536132812e+02,8.084645080566406250e+01,-1.772766571044921875e+02,1.080910186767578125e+02,-4.772201156616210938e+01,-1.816607666015625000e+02,1.959937591552734375e+02,-4.915692138671875000e+01,-1.387916107177734375e+02
4.799999892711639404e-01,2.000000000000000000e+00,-3.408750534057617188e+00,-6.352195739746093750e+00,5.616098022460937500e+01,1.188563156127929688e+02,8.085132598876953125e+01,-1.772646484375000000e+02,1.080504379272460938e+02,-4.770967483520507812e+01,-1.816508026123046875e+02,1.960047302246093750e+02,-4.916944503784179688e+01,-1.387974243164062500e+02
4.839999973773956299e-01,2.000000000000000000e+00,-3.468288660049438477e+00,-6.313479423522949219e+00,5.613264083862304688e+01,1.188691864013671875e+02,8.085619354248046875e+01,-1.772526550292968750e+02,1.080098648071289062e+02,-4.769734191894531250e+01,-1.816408386230468750e+02,1.960157012939453125e+02,-4.918196487426757812e+01,-1.388032226562500000e+02
4.880000054836273193e-01,2.000000000000000000e+00,-3.527810335159301758e+00,-6.274774551391601562e+00,5.610431289672851562e+01,1.188820495605468750e+02,8.086106109619140625e+01,-1.772406463623046875e+02,1.079693069458007812e+02,-4.768501663208007812e+01,-1.816308593750000000e+02,1.960266723632812500e+02,-4.919448089599609375e+01,-1.388090515136718750e+02
4.920000135898590088e-01,2.000000000000000000e+00,-3.587315797805786133e+00,-6.236080169677734375e+00,5.607598876953125000e+01,1.188949050903320312e+02,8.086592864990234375e+01,-1.772286529541015625e+02,1.079287643432617188e+02,-4.767269134521484375e+01,-1.816209106445312500e+02,1.960376586914062500e+02,-4.920699691772460938e+01,-1.388148498535156250e+02
4.959999918937683105e-01,2.000000000000000000e+00,-3.646804571151733398e+00,-6.197396278381347656e+00,5.604767990112304688e+01,1.189077606201171875e+02,8.087079620361328125e+01,-1.772166442871093750e+02,1.078882293701171875e+02,-4.766036987304687500e+01,-1.816109466552734375e+02,1.960486297607421875e+02,-4.921950531005859375e+01,-1.388206787109375000e+02
5.000000000000000000e-01,2.000000000000000000e+00,-3.706276655197143555e+00,-6.158723354339599609e+00,5.601937103271484375e+01,1.189206161499023438e+02,8.087566375732421875e+01,-1.772046661376953125e+02,1.078477020263671875e+02,-4.764805221557617188e+01,-1.816009826660156250e+02,1.960595855712890625e+02,-4.923200988769531250e+01,-1.388264770507812500e+02
5.040000081062316895e-01,2.000000000000000000e+00,-3.765732526779174805e+00,-6.120060920715332031e+00,5.599107360839843750e+01,1.189334564208984375e+02,8.088052368164062500e+01,-1.771926727294921875e+02,1.078071899414062500e+02,-4.763573837280273438e+01,-1.815910491943359375e+02,1.960705566406250000e+02,-4.924451446533203125e+01,-1.388322906494140625e+02
5.080000162124633789e-01,2.000000000000000000e+00,-3.825172424316406250e+00,-6.081409454345703125e+00,5.596278762817382812e+01,1.189462966918945312e+02,8.088539123535156250e+01,-1.771806945800781250e+02,1.077666931152343750e+02,-4.762342834472656250e+01,-1.815810852050781250e+02,1.960815124511718750e+02,-4.925701141357421875e+01,-1.388380889892578125e+02
5.120000243186950684e-01,2.000000000000000000e+00,-3.884595394134521484e+00,-6.042768478393554688e+00,5.593450164794921875e+01,1.189591369628906250e+02,8.089024353027343750e+01,-1.771687011718750000e+02,1.077261962890625000e+02,-4.761112213134765625e+01,-1.815711364746093750e+02,1.960924682617187500e+02,-4.926950836181640625e+01,-1.388439025878906250e+02
5.159999728202819824e-01,2.000000000000000000e+00,-3.944002389907836914e+00,-6.004137992858886719e+00,5.590623092651367188e+01,1.189719772338867188e+02,8.089511108398437500e+01,-1.771567382812500000e+02,1.076857223510742188e+02,-4.759881591796875000e+01,-1.815612030029296875e+02,1.961034240722656250e+02,-4.928200149536132812e+01,-1.388497009277343750e+02
5.199999809265136719e-01,2.000000000000000000e+00,-4.003392696380615234e+00,-5.965517997741699219e+00,5.587796401977539062e+01,1.189848098754882812e+02,8.089996337890625000e+01,-1.771447601318359375e+02,1.076452484130859375e+02,-4.758651733398437500e+01,-1.815512542724609375e+02,1.961143798828125000e+02,-4.929448699951171875e+01,-1.388554992675781250e+02
5.239999890327453613e-01,2.000000000000000000e+00,-4.062766551971435547e+00,-5.926908969879150391e+00,5.584970474243164062e+01,1.189976501464843750e+02,8.090482330322265625e+01,-1.771327819824218750e+02,1.076047973632812500e+02,-4.757421875000000000e+01,-1.815413055419921875e+02,1.961253204345703125e+02,-4.930697250366210938e+01,-1.388612976074218750e+02
5.279999971389770508e-01,2.000000000000000000e+00,-4.122123718261718750e+00,-5.888310909271240234e+00,5.582145309448242188e+01,1.190104598999023438e+02,8.090967559814453125e+01,-1.771208038330078125e+02,1.075643463134765625e+02,-4.756192398071289062e+01,-1.815313720703125000e+02,1.961362609863281250e+02,-4.931945419311523438e+01,-1.388670959472656250e+02
5.320000052452087402e-01,2.000000000000000000e+00,-4.181465148925781250e+00,-5.849723339080810547e+00,5.579320907592773438e+01,1.190232849121093750e+02,8.091452789306640625e+01,-1.771088409423828125e+02,1.075239105224609375e+02,-4.754963684082031250e+01,-1.815214385986328125e+02,1.961472015380859375e+02,-4.933193206787109375e+01,-1.388728942871093750e+02
5.360000133514404297e-01,2.000000000000000000e+00,-4.240790367126464844e+00,-5.811145782470703125e+00,5.576497268676757812e+01,1.190361175537109375e+02,8.091938018798828125e+01,-1.770968933105468750e+02,1.074834899902343750e+02,-4.753734970092773438e+01,-1.815115203857421875e+02,1.961581420898437500e+02,-4.934440994262695312e+01,-1.388786926269531250e+02
5.400000214576721191e-01,2.000000000000000000e+00,-4.300098419189453125e+00,-5.772579193115234375e+00,5.573674774169921875e+01,1.190489273071289062e+02,8.092423248291015625e+01,-1.770849304199218750e+02,1.074430770874023438e+02,-4.752506637573242188e+01,-1.815015869140625000e+02,1.961690826416015625e+02,-4.935688018798828125e+01,-1.388844757080078125e+02
5.440000295639038086e-01,2.000000000000000000e+00,-4.359390735626220703e+00,-5.734023571014404297e+00,5.570853042602539062e+01,1.190617446899414062e+02,8.092908477783203125e+01,-1.770729675292968750e+02,1.074026794433593750e+02,-4.751278305053710938e+01,-1.814916534423828125e+02,1.961800079345703125e+02,-4.936934661865234375e+01,-1.388902740478515625e+02
5.479999780654907227e-01,2.000000000000000000e+00,-4.418666839599609375e+00,-5.695478439331054688e+00,5.568031692504882812e+01,1.190745391845703125e+02,8.093392944335937500e+01,-1.770610198974609375e+02,1.073622817993164062e+02,-4.750050735473632812e+01,-1.814817352294921875e+02,1.961909484863281250e+02,-4.938180923461914062e+01,-1.388960723876953125e+02
5.519999861717224121e-01,2.000000000000000000e+00,-4.477926254272460938e+00,-5.656943798065185547e+00,5.565211105346679688e+01,1.190873413085937500e+02,8.093878173828125000e+01,-1.770490722656250000e+02,1.073218994140625000e+02,-4.748823165893554688e+01,-1.814718017578125000e+02,1.962018737792968750e+02,-4.939427185058593750e+01,-1.389018402099609375e+02
5.559999942779541016e-01,2.000000000000000000e+00,-4.537168979644775391e+00,-5.618419647216796875e+00,5.562391662597656250e+01,1.191001510620117188e+02,8.094362640380859375e+01,-1.770371246337890625e+02,1.072815399169921875e+02,-4.747596359252929688e+01,-1.814618835449218750e+02,1.962127990722656250e+02,-4.940673065185546875e+01,-1.389076385498046875e+02
5.600000023841857910e-01,2.000000000000000000e+00,-4.596396446228027344e+00,-5.579905986785888672e+00,5.559572982788085938e+01,1.191129379272460938e+02,8.094847106933593750e+01,-1.770251922607421875e+02,1.072411804199218750e+02,-4.746369552612304688e+01,-1.814519805908203125e+02,1.962237091064453125e+02,-4.941918563842773438e+01,-1.389134216308593750e+02
5.640000104904174805e-01,2.000000000000000000e+00,-4.655606746673583984e+00,-5.541403293609619141e+00,5.556754684448242188e+01,1.191257400512695312e+02,8.095331573486328125e+01,-1.770132446289062500e+02,1.072008285522460938e+02,-4.745143127441406250e+01,-1.814420623779296875e+02,1.962346343994140625e+02,-4.943163299560546875e+01,-1.389192047119140625e+02
5.680000185966491699e-01,2.000000000000000000e+00,-4.714801311492919922e+00,-5.502911090850830078e+00,5.553937149047851562e+01,1.191385269165039062e+02,8.095816040039062500e+01,-1.770013122558593750e+02,1.071604995727539062e+02,-4.743917083740234375e+01,-1.814321441650390625e+02,1.962455444335937500e+02,-4.944408035278320312e+01,-1.389249877929687500e+02
5.720000267028808594e-01,2.000000000000000000e+00,-4.773979663848876953e+00,-5.464429378509521484e+00,5.551120758056640625e+01,1.191513137817382812e+02,8.096299743652343750e+01,-1.769893646240234375e+02,1.071201705932617188e+02,-4.742691421508789062e+01,-1.814222412109375000e+02,1.962564544677734375e+02,-4.945652770996093750e+01,-1.389307556152343750e+02
5.759999752044677734e-01,2.000000000000000000e+00,-4.833141326904296875e+00,-5.425958156585693359e+00,5.548305130004882812e+01,1.191641006469726562e+02,8.096783447265625000e+01,-1.769774475097656250e+02,1.070798645019531250e+02,-4.741466140747070312e+01,-1.814123382568359375e+02,1.962673797607421875e+02,-4.946896743774414062e+01,-1.389365386962890625e+02
5.799999833106994629e-01,2.000000000000000000e+00,-4.892286777496337891e+00,-5.387497425079345703e+00,5.545490264892578125e+01,1.191768875122070312e+02,8.097267150878906250e+01,-1.769655151367187500e+02,1.070395660400390625e+02,-4.740241241455078125e+01,-1.814024353027343750e+02,1.962782745361328125e+02,-4.948140335083007812e+01,-1.389423217773437500e+02
5.839999914169311523e-01,2.000000000000000000e+00,-4.951416492462158203e+00,-5.349047183990478516e+00,5.542676162719726562e+01,1.191896591186523438e+02,8.097750854492187500e+01,-1.769535980224609375e+02,1.069992752075195312e+02,-4.739016342163085938e+01,-1.813925476074218750e+02,1.962891693115234375e+02,-4.949383544921875000e+01,-1.389480895996093750e+02
5.879999995231628418e-01,2.000000000000000000e+00,-5.010529518127441406e+00,-5.310607910156250000e+00,5.539862442016601562e+01,1.192024307250976562e+02,8.098234558105468750e+01,-1.769416809082031250e+02,1.069589843750000000e+02,-4.737792205810546875e+01,-1.813826446533203125e+02,1.963000793457031250e+02,-4.950626754760742188e+01,-1.389538726806640625e+02
5.920000076293945312e-01,2.000000000000000000e+00,-5.069626331329345703e+00,-5.272179126739501953e+00,5.537049484252929688e+01,1.192152023315429688e+02,8.098718261718750000e+01,-1.769297485351562500e+02,1.069187240600585938e+02,-4.736568069458007812e+01,-1.813727569580078125e+02,1.963109741210937500e+02,-4.951869583129882812e+01,-1.389596405029296875e+02
5.960000157356262207e-01,2.000000000000000000e+00,-5.128707408905029297e+00,-5.233760356903076172e+00,5.534238052368164062e+01,1.192279586791992188e+02,8.099201202392578125e+01,-1.769178466796875000e+02,1.068784637451171875e+02,-4.735344696044921875e+01,-1.813628692626953125e+02,1.963218688964843750e+02,-4.953112030029296875e+01,-1.389654235839843750e+02
6.000000238418579102e-01,2.000000000000000000e+00,-5.187772274017333984e+00,-5.195352554321289062e+00,5.531426620483398438e+01,1.192407302856445312e+02,8.099684143066406250e+01,-1.769059295654296875e+02,1.068382186889648438e+02,-4.734121322631835938e+01,-1.813529663085937500e+02,1.963327636718750000e+02,-4.954354095458984375e+01,-1.389711761474609375e+02
6.039999723434448242e-01,2.000000000000000000e+00,-5.246820449829101562e+00,-5.156955718994140625e+00,5.528616333007812500e+01,1.192534942626953125e+02,8.100167083740234375e+01,-1.768940277099609375e+02,1.067979812622070312e+02,-4.732898330688476562e+01,-1.813430786132812500e+02,1.963436584472656250e+02,-4.955595397949218750e+01,-1.389769439697265625e+02
6.079999804496765137e-01,2.000000000000000000e+00,-5.305852413177490234e+00,-5.118568420410156250e+00,5.525806808471679688e+01,1.192662353515625000e+02,8.100650024414062500e+01,-1.768821258544921875e+02,1.067577590942382812e+02,-4.731675720214843750e+01,-1.813332061767578125e+02,1.963545227050781250e+02,-4.956836700439453125e+01,-1.389827117919921875e+02
6.119999885559082031e-01,2.000000000000000000e+00,-5.364868640899658203e+00,-5.080192089080810547e+00,5.522998046875000000e+01,1.192789993286132812e+02,8.101132965087890625e+01,-1.768702239990234375e+02,1.067175445556640625e+02,-4.730453491210937500e+01,-1.813233337402343750e+02,1.963654174804687500e+02,-4.958077621459960938e+01,-1.389884796142578125e+02
6.159999966621398926e-01,2.000000000000000000e+00,-5.423868656158447266e+00,-5.041826725006103516e+00,5.520190048217773438e+01,1.192917404174804688e+02,8.101615142822265625e+01,-1.768583221435546875e+02,1.066773452758789062e+02,-4.729231643676757812e+01,-1.813134460449218750e+02,1.963762817382812500e+02,-4.959318542480468750e+01,-1.389942474365234375e+02
6.200000047683715820e-01,2.000000000000000000e+00,-5.482851982116699219e+00,-5.003471374511718750e+00,5.517382812500000000e+01,1.193044891357421875e+02,8.102098083496093750e+01,-1.768464355468750000e+02,1.066371459960937500e+02,-4.728010177612304688e+01,-1.813035736083984375e+02,1.963871765136718750e+02,-4.960558700561523438e+01,-1.390000000000000000e+02
6.240000128746032715e-01,2.000000000000000000e+00,-5.541819572448730469e+00,-4.965126514434814453e+00,5.514576339721679688e+01,1.193172302246093750e+02,8.102580261230468750e+01,-1.768345489501953125e+02,1.065969772338867188e+02,-4.726788330078125000e+01,-1.812937011718750000e+02,1.963980407714843750e+02,-4.961798477172851562e+01,-1.390057678222656250e+02
6.280000209808349609e-01,2.000000000000000000e+00,-5.600771427154541016e+00,-4.926792144775390625e+00,5.511770629882812500e+01,1.193299636840820312e+02,8.103062438964843750e+01,-1.768226623535156250e+02,1.065568008422851562e+02,-4.725567626953125000e+01,-1.812838439941406250e+02,1.964089050292968750e+02,-4.963038253784179688e+01,-1.390115203857421875e+02
6.320000290870666504e-01,2.000000000000000000e+00,-5.659706592559814453e+00,-4.888468265533447266e+00,5.508965301513671875e+01,1.193427047729492188e+02,8.103544616699218750e+01,-1.768107757568359375e+02,1.065166473388671875e+02,-4.724346923828125000e+01,-1.812739562988281250e+02,1.964197845458984375e+02,-4.964277648925781250e+01,-1.390172729492187500e+02
6.359999775886535645e-01,2.000000000000000000e+00,-5.718626499176025391e+00,-4.850155353546142578e+00,5.506161117553710938e+01,1.193554382324218750e+02,8.104026031494140625e+01,-1.767988891601562500e+02,1.064764938354492188e+02,-4.723126602172851562e+01,-1.812640991210937500e+02,1.964306488037109375e+02,-4.965516662597656250e+01,-1.390230407714843750e+02
6.399999856948852539e-01,2.000000000000000000e+00,-5.777529239654541016e+00,-4.811852455139160156e+00,5.503357696533203125e+01,1.193681564331054688e+02,8.104508209228515625e+01,-1.767870178222656250e+02,1.064363632202148438e+02,-4.721906661987304688e+01,-1.812542419433593750e+02,1.964414978027343750e+02,-4.966755294799804688e+01,-1.390287933349609375e+02
6.439999938011169434e-01,2.000000000000000000e+00,-5.836416721343994141e+00,-4.773560047149658203e+00,5.500555038452148438e+01,1.193808898925781250e+02,8.104990386962890625e+01,-1.767751464843750000e+02,1.063962326049804688e+02,-4.720687103271484375e+01,-1.812443847656250000e+02,1.964523620605468750e+02,-4.967993545532226562e+01,-1.390345458984375000e+02
6.480000019073486328e-01,2.000000000000000000e+00,-5.895287990570068359e+00,-4.735278129577636719e+00,5.497753143310546875e+01,1.193936080932617188e+02,8.105471801757812500e+01,-1.767632751464843750e+02,1.063561248779296875e+02,-4.719467926025390625e+01,-1.812345275878906250e+02,1.964632263183593750e+02,-4.969231414794921875e+01,-1.390402984619140625e+02
6.520000100135803223e-01,2.000000000000000000e+00,-5.954142570495605469e+00,-4.697006225585937500e+00,5.494952011108398438e+01,1.194063262939453125e+02,8.105953216552734375e+01,-1.767514038085937500e+02,1.063160171508789062e+02,-4.718248748779296875e+01,-1.812246704101562500e+02,1.964740753173828125e+02,-4.970468902587890625e+01,-1.390460357666015625e+02
6.560000181198120117e-01,2.000000000000000000e+00,-6.012982368469238281e+00,-4.658744812011718750e+00,5.492151641845703125e+01,1.194190444946289062e+02,8.106433868408203125e+01,-1.767395324707031250e+02,1.062759246826171875e+02,-4.717029953002929688e+01,-1.812148284912109375e+02,1.964849090576171875e+02,-4.971706008911132812e+01,-1.390517730712890625e+02
6.600000262260437012e-01,2.000000000000000000e+00,-6.071805000305175781e+00,-4.620493888854980469e+00,5.489352035522460938e+01,1.194317474365234375e+02,8.106915283203125000e+01,-1.767276763916015625e+02,1.062358398437500000e+02,-4.715811920166015625e+01,-1.812049713134765625e+02,1.964957580566406250e+02,-4.972943115234375000e+01,-1.390575256347656250e+02
6.639999747276306152e-01,2.000000000000000000e+00,-6.130612850189208984e+00,-4.582253456115722656e+00,5.486553192138671875e+01,1.194444503784179688e+02,8.107396697998046875e+01,-1.767158203125000000e+02,1.061957702636718750e+02,-4.714593887329101562e+01,-1.811951293945312500e+02,1.965066070556640625e+02,-4.974179458618164062e+01,-1.390632629394531250e+02
6.679999828338623047e-01,2.000000000000000000e+00,-6.189404487609863281e+00,-4.544023513793945312e+00,5.483755111694335938e+01,1.194571533203125000e+02,8.107877349853515625e+01,-1.767039642333984375e+02,1.061557083129882812e+02,-4.713376235961914062e+01,-1.811852874755859375e+02,1.965174407958984375e+02,-4.975415802001953125e+01,-1.390690155029296875e+02
6.719999909400939941e-01,2.000000000000000000e+00,-6.248179912567138672e+00,-4.505803108215332031e+00,5.480957794189453125e+01,1.194698562622070312e+02,8.108358001708984375e+01,-1.766921234130859375e+02,1.061156616210937500e+02,-4.712158966064453125e+01,-1.811754608154296875e+02,1.965282897949218750e+02,-4.976651763916015625e+01,-1.390747528076171875e+02
6.759999990463256836e-01,2.000000000000000000e+00,-6.306939601898193359e+00,-4.467594146728515625e+00,5.478161239624023438e+01,1.194825515747070312e+02,8.108838653564453125e+01,-1.766802673339843750e+02,1.060756225585937500e+02,-4.710942077636718750e+01,-1.811656036376953125e+02,1.965391235351562500e+02,-4.977887344360351562e+01,-1.390804901123046875e+02
6.800000071525573730e-01,2.000000000000000000e+00,-6.365683555603027344e+00,-4.429394245147705078e+00,5.475365066528320312e+01,1.194952545166015625e+02,8.109319305419921875e+01,-1.766684112548828125e+02,1.060355911254882812e+02,-4.709725189208984375e+01,-1.811557769775390625e+02,1.965499572753906250e+02,-4.979122543334960938e+01,-1.390862274169921875e+02
6.840000152587890625e-01,2.000000000000000000e+00,-6.424411773681640625e+00,-4.391205310821533203e+00,5.472570037841796875e+01,1.195079421997070312e+02,8.109799957275390625e+01,-1.766565704345703125e+02,1.059955825805664062e+02,-4.708508682250976562e+01,-1.811459503173828125e+02,1.965607910156250000e+02,-4.980357360839843750e+01,-1.390919647216796875e+02
6.880000233650207520e-01,2.000000000000000000e+00,-6.483123779296875000e+00,-4.353026390075683594e+00,5.469775772094726562e+01,1.195206222534179688e+02,8.110279846191406250e+01,-1.766447448730468750e+02,1.059555740356445312e+02,-4.707292938232421875e+01,-1.811361083984375000e+02,1.965716094970703125e+02,-4.981592178344726562e+01,-1.390977020263671875e+02
6.919999718666076660e-01,2.000000000000000000e+00,-6.541820526123046875e+00,-4.314857959747314453e+00,5.466982269287109375e+01,1.195333099365234375e+02,8.110760498046875000e+01,-1.766329040527343750e+02,1.059155807495117188e+02,-4.706077194213867188e+01,-1.811262969970703125e+02,1.965824279785156250e+02,-4.982826232910156250e+01,-1.391034393310546875e+02
6.959999799728393555e-01,2.000000000000000000e+00,-6.600501537322998047e+00,-4.276700019836425781e+00,5.464189147949218750e+01,1.195459899902343750e+02,8.111239624023437500e+01,-1.766210784912109375e+02,1.058755874633789062e+02,-4.704861831665039062e+01,-1.811164703369140625e+02,1.965932464599609375e+02,-4.984060287475585938e+01,-1.391091613769531250e+02
6.999999880790710449e-01,2.000000000000000000e+00,-6.659166336059570312e+00,-4.238551616668701172e+00,5.461397171020507812e+01,1.195586624145507812e+02,8.111720275878906250e+01,-1.766092376708984375e+02,1.058356170654296875e+02,-4.703646850585937500e+01,-1.811066436767578125e+02,1.966040649414062500e+02,-4.985293960571289062e+01,-1.391148986816406250e+02
7.039999961853027344e-01,2.000000000000000000e+00,-6.717815876007080078e+00,-4.200414180755615234e+00,5.458605575561523438e+01,1.195713424682617188e+02,8.112199401855468750e+01,-1.765974273681640625e+02,1.057956542968750000e+02,-4.702432250976562500e+01,-1.810968322753906250e+02,1.966148834228515625e+02,-4.986527252197265625e+01,-1.391206207275390625e+02
7.080000042915344238e-01,2.000000000000000000e+00,-6.776449203491210938e+00,-4.162286281585693359e+00,5.455815124511718750e+01,1.195840072631835938e+02,8.112679290771484375e+01,-1.765856018066406250e+02,1.057557067871093750e+02,-4.701218032836914062e+01,-1.810870208740234375e+02,1.966256866455078125e+02,-4.987760162353515625e+01,-1.391263580322265625e+02
7.120000123977661133e-01,2.000000000000000000e+00,-6.835067749023437500e+00,-4.124168395996093750e+00,5.453025436401367188e+01,1.195966720581054688e+02,8.113159179687500000e+01,-1.765737762451171875e+02,1.057157669067382812e+02,-4.700003814697265625e+01,-1.810771942138671875e+02,1.966365051269531250e+02,-4.988992691040039062e+01,-1.391320800781250000e+02
7.160000205039978027e-01,2.000000000000000000e+00,-6.893670082092285156e+00,-4.086061477661132812e+00,5.450236129760742188e+01,1.196093292236328125e+02,8.113637542724609375e+01,-1.765619659423828125e+02,1.056758270263671875e+02,-4.698789978027343750e+01,-1.810673828125000000e+02,1.966473083496093750e+02,-4.990225219726562500e+01,-1.391378021240234375e+02
7.200000286102294922e-01,2.000000000000000000e+00,-6.952256679534912109e+00,-4.047963619232177734e+00,5.447447967529296875e+01,1.196219940185546875e+02,8.114117431640625000e+01,-1.765501403808593750e+02,1.056359100341796875e+02,-4.697576522827148438e+01,-1.810575866699218750e+02,1.966580963134765625e+02,-4.991456985473632812e+01,-1.391435241699218750e+02
7.239999771118164062e-01,2.000000000000000000e+00,-7.010828018188476562e+00,-4.009876251220703125e+00,5.444660186767578125e+01,1.196346435546875000e+02,8.114596557617187500e+01,-1.765383300781250000e+02,1.055959930419921875e+02,-4.696363449096679688e+01,-1.810477752685546875e+02,1.966688995361328125e+02,-4.992688751220703125e+01,-1.391492462158203125e+02
7.279999852180480957e-01,2.000000000000000000e+00,-7.069383621215820312e+00,-3.971799373626708984e+00,5.441873168945312500e+01,1.196473083496093750e+02,8.115075683593750000e+01,-1.765265350341796875e+02,1.055560989379882812e+02,-4.695150756835937500e+01,-1.810379791259765625e+02,1.966797027587890625e+02,-4.993919754028320312e+01,-1.391549682617187500e+02
7.319999933242797852e-01,2.000000000000000000e+00,-7.127923965454101562e+00,-3.933732748031616211e+00,5.439086914062500000e+01,1.196599578857421875e+02,8.115554046630859375e+01,-1.765147247314453125e+02,1.055162048339843750e+02,-4.693938446044921875e+01,-1.810281677246093750e+02,1.966904907226562500e+02,-4.995151138305664062e+01,-1.391606750488281250e+02
7.360000014305114746e-01,2.000000000000000000e+00,-7.186448574066162109e+00,-3.895675659179687500e+00,5.436301803588867188e+01,1.196725921630859375e+02,8.116033172607421875e+01,-1.765029296875000000e+02,1.054763336181640625e+02,-4.692725753784179688e+01,-1.810183715820312500e+02,1.967012786865234375e+02,-4.996381378173828125e+01,-1.391663970947265625e+02
7.400000095367431641e-01,2.000000000000000000e+00,-7.244957447052001953e+00,-3.857629060745239258e+00,5.433517074584960938e+01,1.196852416992187500e+02,8.116511535644531250e+01,-1.764911193847656250e+02,1.054364624023437500e+02,-4.691514205932617188e+01,-1.810085754394531250e+02,1.967120666503906250e+02,-4.997611999511718750e+01,-1.391721191406250000e+02
7.440000176429748535e-01,2.000000000000000000e+00,-7.303451538085937500e+00,-3.819591999053955078e+00,5.430733108520507812e+01,1.196978759765625000e+02,8.116989898681640625e+01,-1.764793243408203125e+02,1.053965988159179688e+02,-4.690303039550781250e+01,-1.809987792968750000e+02,1.967228698730468750e+02,-4.998841857910156250e+01,-1.391778259277343750e+02
7.480000257492065430e-01,2.000000000000000000e+00,-7.361929893493652344e+00,-3.781565427780151367e+00,5.427949523925781250e+01,1.197105102539062500e+02,8.117468261718750000e+01,-1.764675445556640625e+02,1.053567581176757812e+02,-4.689091491699218750e+01,-1.809889984130859375e+02,1.967336425781250000e+02,-5.000071334838867188e+01,-1.391835479736328125e+02
7.519999742507934570e-01,2.000000000000000000e+00,-7.420392513275146484e+00,-3.743549108505249023e+00,5.425167083740234375e+01,1.197231521606445312e+02,8.117946624755859375e+01,-1.764557495117187500e+02,1.053169250488281250e+02,-4.687880706787109375e+01,-1.809792175292968750e+02,1.967444152832031250e+02,-5.001300811767578125e+01,-1.391892547607421875e+02
7.559999823570251465e-01,2.000000000000000000e+00,-7.478839397430419922e+00,-3.705542564392089844e+00,5.422385406494140625e+01,1.197357711791992188e+02,8.118424224853515625e+01,-1.764439697265625000e+02,1.052770919799804688e+02,-4.686670303344726562e+01,-1.809694366455078125e+02,1.967552032470703125e+02,-5.002529907226562500e+01,-1.391949462890625000e+02
7.599999904632568359e-01,2.000000000000000000e+00,-7.537271976470947266e+00,-3.667546033859252930e+00,5.419604492187500000e+01,1.197484054565429688e+02,8.118902587890625000e+01,-1.764321899414062500e+02,1.052372817993164062e+02,-4.685459899902343750e+01,-1.809596405029296875e+02,1.967659759521484375e+02,-5.003758239746093750e+01,-1.392006683349609375e+02
7.639999985694885254e-01,2.000000000000000000e+00,-7.595687866210937500e+00,-3.629559516906738281e+00,5.416823959350585938e+01,1.197610321044921875e+02,8.119380950927734375e+01,-1.764203948974609375e+02,1.051974716186523438e+02,-4.684249877929687500e+01,-1.809498748779296875e+02,1.967767486572265625e+02,-5.004986953735351562e+01,-1.392063751220703125e+02
7.680000066757202148e-01,2.000000000000000000e+00,-7.654088497161865234e+00,-3.591583251953125000e+00,5.414044570922851562e+01,1.197736358642578125e+02,8.119857788085937500e+01,-1.764086303710937500e+02,1.051576843261718750e+02,-4.683040618896484375e+01,-1.809400939941406250e+02,1.967875213623046875e+02,-5.006214904785156250e+01,-1.392120819091796875e+02
7.720000147819519043e-01,2.000000000000000000e+00,-7.712473869323730469e+00,-3.553616762161254883e+00,5.411265945434570312e+01,1.197862625122070312e+02,8.120335388183593750e+01,-1.763968505859375000e+02,1.051178970336914062e+02,-4.681831359863281250e+01,-1.809303131103515625e+02,1.967982788085937500e+02,-5.007442474365234375e+01,-1.392177734375000000e+02
7.760000228881835938e-01,2.000000000000000000e+00,-7.770843982696533203e+00,-3.515660524368286133e+00,5.408487701416015625e+01,1.197988662719726562e+02,8.120812988281250000e+01,-1.763850860595703125e+02,1.050781250000000000e+02,-4.680622482299804688e+01,-1.809205322265625000e+02,1.968090515136718750e+02,-5.008670043945312500e+01,-1.392234802246093750e+02
7.799999713897705078e-01,2.000000000000000000e+00,-7.829198360443115234e+00,-3.477714300155639648e+00,5.405710220336914062e+01,1.198114776611328125e+02,8.121290588378906250e+01,-1.763733062744140625e+02,1.050383605957031250e+02,-4.679413986206054688e+01,-1.809107666015625000e+02,1.968197937011718750e+02,-5.009896850585937500e+01,-1.392291870117187500e+02
7.839999794960021973e-01,2.000000000000000000e+00,-7.887537479400634766e+00,-3.439777851104736328e+00,5.402933883666992188e+01,1.198240890502929688e+02,8.121767425537109375e+01,-1.763615570068359375e+02,1.049986038208007812e+02,-4.678205490112304688e+01,-1.809010009765625000e+02,1.968305664062500000e+02,-5.011123657226562500e+01,-1.392348785400390625e+02
7.879999876022338867e-01,2.000000000000000000e+00,-7.945861339569091797e+00,-3.401851654052734375e+00,5.400157928466796875e+01,1.198366928100585938e+02,8.122244262695312500e+01,-1.763497924804687500e+02,1.049588699340820312e+02,-4.676997375488281250e+01,-1.808912353515625000e+02,1.968413085937500000e+02,-5.012350463867187500e+01,-1.392405853271484375e+02
7.919999957084655762e-01,2.000000000000000000e+00,-8.004169464111328125e+00,-3.363935470581054688e+00,5.397382354736328125e+01,1.198492889404296875e+02,8.122721862792968750e+01,-1.763380432128906250e+02,1.049191360473632812e+02,-4.675789642333984375e+01,-1.808814849853515625e+02,1.968520660400390625e+02,-5.013576507568359375e+01,-1.392462768554687500e+02
7.960000038146972656e-01,2.000000000000000000e+00,-8.062462806701660156e+00,-3.326029062271118164e+00,5.394608306884765625e+01,1.198618850708007812e+02,8.123198699951171875e+01,-1.763262786865234375e+02,1.048794174194335938e+02,-4.674582672119140625e+01,-1.808717193603515625e+02,1.968628082275390625e+02,-5.014802169799804688e+01,-1.392519683837890625e+02
8.000000119209289551e-01,2.000000000000000000e+00,-8.120740890502929688e+00,-3.288132905960083008e+00,5.391834640502929688e+01,1.198744812011718750e+02,8.123675537109375000e+01,-1.763145294189453125e+02,1.048397064208984375e+02,-4.673375701904296875e+01,-1.808619689941406250e+02,1.968735656738281250e+02,-5.016027832031250000e+01,-1.392576599121093750e+02
8.040000200271606445e-01,2.000000000000000000e+00,-8.179002761840820312e+00,-3.250246763229370117e+00,5.389061737060546875e+01,1.198870620727539062e+02,8.124151611328125000e+01,-1.763027801513671875e+02,1.048000030517578125e+02,-4.672168731689453125e+01,-1.808522033691406250e+02,1.968843078613281250e+02,-5.017252731323242188e+01,-1.392633514404296875e+02
8.080000281333923340e-01,2.000000000000000000e+00,-8.237250328063964844e+00,-3.212370395660400391e+00,5.386289215087890625e+01,1.198996582031250000e+02,8.124628448486328125e+01,-1.762910308837890625e+02,1.047603149414062500e+02,-4.670962524414062500e+01,-1.808424530029296875e+02,1.968950347900390625e+02,-5.018477630615234375e+01,-1.392690277099609375e+02
8.119999766349792480e-01,2.000000000000000000e+00,-8.295481681823730469e+00,-3.174504041671752930e+00,5.383517837524414062e+01,1.199122390747070312e+02,8.125104522705078125e+01,-1.762792968750000000e+02,1.047206420898437500e+02,-4.669756317138671875e+01,-1.808327026367187500e+02,1.969057769775390625e+02,-5.019702148437500000e+01,-1.392747344970703125e+02
8.159999847412109375e-01,2.000000000000000000e+00,-8.353697776794433594e+00,-3.136647701263427734e+00,5.380747222900390625e+01,1.199248199462890625e+02,8.125581359863281250e+01,-1.762675476074218750e+02,1.046809692382812500e+02,-4.668550491333007812e+01,-1.808229675292968750e+02,1.969165191650390625e+02,-5.020926284790039062e+01,-1.392804107666015625e+02
8.199999928474426270e-01,2.000000000000000000e+00,-8.411898612976074219e+00,-3.098801374435424805e+00,5.377977371215820312e+01,1.199373855590820312e+02,8.126057434082031250e+01,-1.762558135986328125e+02,1.046413116455078125e+02,-4.667345428466796875e+01,-1.808132171630859375e+02,1.969272460937500000e+02,-5.022150039672851562e+01,-1.392861022949218750e+02
8.240000009536743164e-01,2.000000000000000000e+00,-8.470084190368652344e+00,-3.060964822769165039e+00,5.375207901000976562e+01,1.199499664306640625e+02,8.126532745361328125e+01,-1.762440795898437500e+02,1.046016616821289062e+02,-4.666139984130859375e+01,-1.808034820556640625e+02,1.969379730224609375e+02,-5.023373794555664062e+01,-1.392917785644531250e+02
8.280000090599060059e-01,2.000000000000000000e+00,-8.528254508972167969e+00,-3.023138523101806641e+00,5.372439193725585938e+01,1.199625320434570312e+02,8.127008819580078125e+01,-1.762323608398437500e+02,1.045620269775390625e+02,-4.664935302734375000e+01,-1.807937469482421875e+02,1.969486999511718750e+02,-5.024596786499023438e+01,-1.392974548339843750e+02
8.320000171661376953e-01,2.000000000000000000e+00,-8.586409568786621094e+00,-2.985321998596191406e+00,5.369671630859375000e+01,1.199751052856445312e+02,8.127484893798828125e+01,-1.762206268310546875e+02,1.045223999023437500e+02,-4.663730621337890625e+01,-1.807839965820312500e+02,1.969594268798828125e+02,-5.025819396972656250e+01,-1.393031463623046875e+02
8.360000252723693848e-01,2.000000000000000000e+00,-8.644549369812011719e+00,-2.947515487670898438e+00,5.366904067993164062e+01,1.199876556396484375e+02,8.127960205078125000e+01,-1.762089080810546875e+02,1.044827880859375000e+02,-4.662526702880859375e+01,-1.807742767333984375e+02,1.969701385498046875e+02,-5.027042007446289062e+01,-1.393088226318359375e+02
8.399999737739562988e-01,2.000000000000000000e+00,-8.702673912048339844e+00,-2.909718751907348633e+00,5.364138031005859375e+01,1.200002212524414062e+02,8.128435516357421875e+01,-1.761971893310546875e+02,1.044431762695312500e+02,-4.661322784423828125e+01,-1.807645416259765625e+02,1.969808502197265625e+02,-5.028264617919921875e+01,-1.393144989013671875e+02
8.439999818801879883e-01,2.000000000000000000e+00,-8.760783195495605469e+00,-2.871932029724121094e+00,5.361372375488281250e+01,1.200127792358398438e+02,8.128910827636718750e+01,-1.761854705810546875e+02,1.044035797119140625e+02,-4.660119247436523438e+01,-1.807548065185546875e+02,1.969915771484375000e+02,-5.029486465454101562e+01,-1.393201751708984375e+02
8.479999899864196777e-01,2.000000000000000000e+00,-8.818876266479492188e+00,-2.834155321121215820e+00,5.358607101440429688e+01,1.200253295898437500e+02,8.129386138916015625e+01,-1.761737670898437500e+02,1.043639984130859375e+02,-4.658916091918945312e+01,-1.807450866699218750e+02,1.970022888183593750e+02,-5.030707931518554688e+01,-1.393258514404296875e+02
8.519999980926513672e-01,2.000000000000000000e+00,-8.876955032348632812e+00,-2.796388387680053711e+00,5.355842971801757812e+01,1.200378875732421875e+02,8.129860687255859375e+01,-1.761620483398437500e+02,1.043244171142578125e+02,-4.657712936401367188e+01,-1.807353515625000000e+02,1.970130004882812500e+02,-5.031929016113281250e+01,-1.393315124511718750e+02
8.560000061988830566e-01,2.000000000000000000e+00,-8.935018539428710938e+00,-2.758631229400634766e+00,5.353079605102539062e+01,1.200504226684570312e+02,8.130335235595703125e+01,-1.761503295898437500e+02,1.042848587036132812e+02,-4.656510543823242188e+01,-1.807256469726562500e+02,1.970237121582031250e+02,-5.033150100708007812e+01,-1.393371887207031250e+02
8.600000143051147461e-01,2.000000000000000000e+00,-8.993066787719726562e+00,-2.720884323120117188e+00,5.350316619873046875e+01,1.200629653930664062e+02,8.130811309814453125e+01,-1.761386413574218750e+02,1.042453079223632812e+02,-4.655308532714843750e+01,-1.807159271240234375e+02,1.970344085693359375e+02,-5.034370803833007812e+01,-1.393428649902343750e+02
8.640000224113464355e-01,2.000000000000000000e+00,-9.051100730895996094e+00,-2.683147192001342773e+00,5.347554779052734375e+01,1.200755081176757812e+02,8.131285858154296875e+01,-1.761269378662109375e+02,1.042057571411132812e+02,-4.654106140136718750e+01,-1.807062072753906250e+02,1.970451049804687500e+02,-5.035591125488281250e+01,-1.393485260009765625e+02
8.679999709129333496e-01,2.000000000000000000e+00,-9.109117507934570312e+00,-2.645419836044311523e+00,5.344793319702148438e+01,1.200880432128906250e+02,8.131759643554687500e+01,-1.761152343750000000e+02,1.041662292480468750e+02,-4.652904891967773438e+01,-1.806965026855468750e+02,1.970558166503906250e+02,-5.036811065673828125e+01,-1.393541870117187500e+02
8.719999790191650391e-01,2.000000000000000000e+00,-9.167120933532714844e+00,-2.607702493667602539e+00,5.342033004760742188e+01,1.201005706787109375e+02,8.132234191894531250e+01,-1.761035308837890625e+02,1.041267089843750000e+02,-4.651703643798828125e+01,-1.806867828369140625e+02,1.970664978027343750e+02,-5.038031005859375000e+01,-1.393598632812500000e+02
8.759999871253967285e-01,2.000000000000000000e+00,-9.225108146667480469e+00,-2.569994926452636719e+00,5.339273071289062500e+01,1.201131134033203125e+02,8.132708740234375000e+01,-1.760918426513671875e+02,1.040871963500976562e+02,-4.650502395629882812e+01,-1.806770782470703125e+02,1.970771942138671875e+02,-5.039250183105468750e+01,-1.393655242919921875e+02
8.799999952316284180e-01,2.000000000000000000e+00,-9.283080101013183594e+00,-2.532297372817993164e+00,5.336513900756835938e+01,1.201256408691406250e+02,8.133183288574218750e+01,-1.760801544189453125e+02,1.040476913452148438e+02,-4.649301528930664062e+01,-1.806673736572265625e+02,1.970878906250000000e+02,-5.040469360351562500e+01,-1.393711853027343750e+02
8.840000033378601074e-01,2.000000000000000000e+00,-9.341036796569824219e+00,-2.494609355926513672e+00,5.333755493164062500e+01,1.201381530761718750e+02,8.133657073974609375e+01,-1.760684661865234375e+02,1.040081939697265625e+02,-4.648101043701171875e+01,-1.806576690673828125e+02,1.970985717773437500e+02,-5.041687774658203125e+01,-1.393768615722656250e+02
8.880000114440917969e-01,2.000000000000000000e+00,-9.398979187011718750e+00,-2.456931591033935547e+00,5.330997848510742188e+01,1.201506805419921875e+02,8.134130859375000000e+01,-1.760567932128906250e+02,1.039687194824218750e+02,-4.646901321411132812e+01,-1.806479797363281250e+02,1.971092529296875000e+02,-5.042906188964843750e+01,-1.393825073242187500e+02
8.920000195503234863e-01,2.000000000000000000e+00,-9.456906318664550781e+00,-2.419263601303100586e+00,5.328240966796875000e+01,1.201631927490234375e+02,8.134605407714843750e+01,-1.760451049804687500e+02,1.039292449951171875e+02,-4.645701599121093750e+01,-1.806382751464843750e+02,1.971199340820312500e+02,-5.044124603271484375e+01,-1.393881683349609375e+02
8.960000276565551758e-01,2.000000000000000000e+00,-9.514817237854003906e+00,-2.381605148315429688e+00,5.325484466552734375e+01,1.201757049560546875e+02,8.135078430175781250e+01,-1.760334320068359375e+02,1.038897857666015625e+02,-4.644501876831054688e+01,-1.806285705566406250e+02,1.971306152343750000e+02,-5.045342254638671875e+01,-1.393938140869140625e+02
8.999999761581420898e-01,2.000000000000000000e+00,-9.572713851928710938e+00,-2.343956947326660156e+00,5.322728729248046875e+01,1.201882171630859375e+02,8.135551452636718750e+01,-1.760217437744140625e+02,1.038503341674804688e+02,-4.643302917480468750e+01,-1.806188964843750000e+02,1.971412811279296875e+02,-5.046559524536132812e+01,-1.393994750976562500e+02
9.039999842643737793e-01,2.000000000000000000e+00,-9.630595207214355469e+00,-2.306318521499633789e+00,5.319974136352539062e+01,1.202007293701171875e+02,8.136026000976562500e+01,-1.760100860595703125e+02,1.038108901977539062e+02,-4.642104339599609375e+01,-1.806091918945312500e+02,1.971519470214843750e+02,-5.047776412963867188e+01,-1.394051361083984375e+02
9.079999923706054688e-01,2.000000000000000000e+00,-9.688461303710937500e+00,-2.268689870834350586e+00,5.317219924926757812e+01,1.202132263183593750e+02,8.136499023437500000e+01,-1.759984130859375000e+02,1.037714614868164062e+02,-4.640905761718750000e+01,-1.805995025634765625e+02,1.971626281738281250e+02,-5.048993301391601562e+01,-1.394107818603515625e+02
9.120000004768371582e-01,2.000000000000000000e+00,-9.746312141418457031e+00,-2.231070756912231445e+00,5.314466857910156250e+01,1.202257308959960938e+02,8.136972045898437500e+01,-1.759867553710937500e+02,1.037320480346679688e+02,-4.639707565307617188e+01,-1.805898284912109375e+02,1.971732940673828125e+02,-5.050209808349609375e+01,-1.394164276123046875e+02
9.160000085830688477e-01,2.000000000000000000e+00,-9.804148674011230469e+00,-2.193461894989013672e+00,5.311714172363281250e+01,1.202382278442382812e+02,8.137445068359375000e+01,-1.759750823974609375e+02,1.036926345825195312e+02,-4.638509750366210938e+01,-1.805801391601562500e+02,1.971839599609375000e+02,-5.051426315307617188e+01,-1.394220886230468750e+02
9.200000166893005371e-01,2.000000000000000000e+00,-9.861968994140625000e+00,-2.155862569808959961e+00,5.308961868286132812e+01,1.202507171630859375e+02,8.137918090820312500e+01,-1.759634399414062500e+02,1.036532363891601562e+02,-4.637312316894531250e+01,-1.805704650878906250e+02,1.971946258544921875e+02,-5.052642059326171875e+01,-1.394277191162109375e+02
9.240000247955322266e-01,2.000000000000000000e+00,-9.919775009155273438e+00,-2.118273258209228516e+00,5.306210708618164062e+01,1.202632141113281250e+02,8.138391113281250000e+01,-1.759517669677734375e+02,1.036138458251953125e+02,-4.636114883422851562e+01,-1.805607757568359375e+02,1.972052764892578125e+02,-5.053857421875000000e+01,-1.394333801269531250e+02
9.279999732971191406e-01,2.000000000000000000e+00,-9.977564811706542969e+00,-2.080693483352661133e+00,5.303460311889648438e+01,1.202756958007812500e+02,8.138864135742187500e+01,-1.759401092529296875e+02,1.035744705200195312e+02,-4.634917831420898438e+01,-1.805511016845703125e+02,1.972159423828125000e+02,-5.055072402954101562e+01,-1.394390258789062500e+02
9.319999814033508301e-01,2.000000000000000000e+00,-1.003534126281738281e+01,-2.043123722076416016e+00,5.300710296630859375e+01,1.202881851196289062e+02,8.139336395263671875e+01,-1.759284820556640625e+02,1.035351028442382812e+02,-4.633721160888671875e+01,-1.805414428710937500e+02,1.972265930175781250e+02,-5.056287765502929688e+01,-1.394446716308593750e+02
9.359999895095825195e-01,2.000000000000000000e+00,-1.009310150146484375e+01,-2.005563735961914062e+00,5.297961807250976562e+01,1.203006591796875000e+02,8.139809417724609375e+01,-1.759168243408203125e+02,1.034957427978515625e+02,-4.632524871826171875e+01,-1.805317687988281250e+02,1.972372283935546875e+02,-5.057501983642578125e+01,-1.394503021240234375e+02
9.399999976158142090e-01,2.000000000000000000e+00,-1.015084743499755859e+01,-1.968013405799865723e+00,5.295213317871093750e+01,1.203131408691406250e+02,8.140280914306640625e+01,-1.759051818847656250e+02,1.034563980102539062e+02,-4.631328964233398438e+01,-1.805220947265625000e+02,1.972478942871093750e+02,-5.058716583251953125e+01,-1.394559478759765625e+02
9.440000057220458984e-01,2.000000000000000000e+00,-1.020857715606689453e+01,-1.930472970008850098e+00,5.292465209960937500e+01,1.203256149291992188e+02,8.140753173828125000e+01,-1.758935394287109375e+02,1.034170532226562500e+02,-4.630133438110351562e+01,-1.805124359130859375e+02,1.972585296630859375e+02,-5.059930419921875000e+01,-1.394615936279296875e+02
9.480000138282775879e-01,2.000000000000000000e+00,-1.026629257202148438e+01,-1.892942309379577637e+00,5.289718627929687500e+01,1.203380889892578125e+02,8.141225433349609375e+01,-1.758819122314453125e+02,1.033777313232421875e+02,-4.628937911987304688e+01,-1.805027770996093750e+02,1.972691650390625000e+02,-5.061143875122070312e+01,-1.394672241210937500e+02
9.520000219345092773e-01,2.000000000000000000e+00,-1.032399368286132812e+01,-1.855421304702758789e+00,5.286972427368164062e+01,1.203505554199218750e+02,8.141697692871093750e+01,-1.758702697753906250e+02,1.033384170532226562e+02,-4.627742767333984375e+01,-1.804931182861328125e+02,1.972798156738281250e+02,-5.062357330322265625e+01,-1.394728546142578125e+02
9.559999704360961914e-01,2.000000000000000000e+00,-1.038167953491210938e+01,-1.817910194396972656e+00,5.284226608276367188e+01,1.203630142211914062e+02,8.142169189453125000e+01,-1.758586273193359375e+02,1.032991027832031250e+02,-4.626548385620117188e+01,-1.804834594726562500e+02,1.972904510498046875e+02,-5.063570404052734375e+01,-1.394784851074218750e+02
9.599999785423278809e-01,2.000000000000000000e+00,-1.043934917449951172e+01,-1.780408620834350586e+00,5.281481933593750000e+01,1.203754730224609375e+02,8.142640686035156250e+01,-1.758470001220703125e+02,1.032598114013671875e+02,-4.625353622436523438e+01,-1.804738006591796875e+02,1.973010864257812500e+02,-5.064783096313476562e+01,-1.394841308593750000e+02
9.639999866485595703e-01,2.000000000000000000e+00,-1.049700450897216797e+01,-1.742917060852050781e+00,5.278738021850585938e+01,1.203879318237304688e+02,8.143112945556640625e+01,-1.758353881835937500e+02,1.032205276489257812e+02,-4.624159622192382812e+01,-1.804641418457031250e+02,1.973117065429687500e+02,-5.065995407104492188e+01,-1.394897613525390625e+02
9.679999947547912598e-01,2.000000000000000000e+00,-1.055464553833007812e+01,-1.705435156822204590e+00,5.275994873046875000e+01,1.204003906250000000e+02,8.143584442138671875e+01,-1.758237609863281250e+02,1.031812515258789062e+02,-4.622965621948242188e+01,-1.804544982910156250e+02,1.973223419189453125e+02,-5.067207336425781250e+01,-1.394953918457031250e+02
9.720000028610229492e-01,2.000000000000000000e+00,-1.061227035522460938e+01,-1.667962908744812012e+00,5.273252105712890625e+01,1.204128494262695312e+02,8.144055175781250000e+01,-1.758121490478515625e+02,1.031419830322265625e+02,-4.621772384643554688e+01,-1.804448547363281250e+02,1.973329620361328125e+02,-5.068419265747070312e+01,-1.395010070800781250e+02
9.760000109672546387e-01,2.000000000000000000e+00,-1.066988086700439453e+01,-1.630500555038452148e+00,5.270510101318359375e+01,1.204252929687500000e+02,8.144526672363281250e+01,-1.758005218505859375e+02,1.031027221679687500e+02,-4.620579147338867188e+01,-1.804352111816406250e+02,1.973435974121093750e+02,-5.069630813598632812e+01,-1.395066375732421875e+02
9.800000190734863281e-01,2.000000000000000000e+00,-1.072747611999511719e+01,-1.593047738075256348e+00,5.267768859863281250e+01,1.204377365112304688e+02,8.144998168945312500e+01,-1.757889099121093750e+02,1.030634765625000000e+02,-4.619385910034179688e+01,-1.804255676269531250e+02,1.973542022705078125e+02,-5.070841598510742188e+01,-1.395122680664062500e+02
9.840000271797180176e-01,2.000000000000000000e+00,-1.078505706787109375e+01,-1.555604696273803711e+00,5.265028381347656250e+01,1.204501800537109375e+02,8.145468902587890625e+01,-1.757772979736328125e+02,1.030242462158203125e+02,-4.618193435668945312e+01,-1.804159240722656250e+02,1.973648223876953125e+02,-5.072052383422851562e+01,-1.395178985595703125e+02
9.879999756813049316e-01,2.000000000000000000e+00,-1.084262275695800781e+01,-1.518171429634094238e+00,5.262288665771484375e+01,1.204626159667968750e+02,8.145939636230468750e+01,-1.757656860351562500e+02,1.029850234985351562e+02,-4.617001342773437500e+01,-1.804062957763671875e+02,1.973754272460937500e+02,-5.073263168334960938e+01,-1.395235137939453125e+02
9.919999837875366211e-01,2.000000000000000000e+00,-1.090017318725585938e+01,-1.480747938156127930e+00,5.259549713134765625e+01,1.204750595092773438e+02,8.146410369873046875e+01,-1.757540893554687500e+02,1.029458084106445312e+02,-4.615809631347656250e+01,-1.803966522216796875e+02,1.973860473632812500e+02,-5.074473571777343750e+01,-1.395291442871093750e+02
9.959999918937683105e-01,2.000000000000000000e+00,-1.095770931243896484e+01,-1.443333983421325684e+00,5.256811141967773438e+01,1.204874877929687500e+02,8.146881103515625000e+01,-1.757424926757812500e+02,1.029066009521484375e+02,-4.614617538452148438e+01,-1.803870239257812500e+02,1.973966674804687500e+02,-5.075682830810546875e+01,-1.395347595214843750e+02
1.000000000000000000e+00,2.000000000000000000e+00,-1.101523017883300781e+01,-1.405929803848266602e+00,5.254073715209960938e+01,1.204999084472656250e+02,8.147351837158203125e+01,-1.757308807373046875e+02,1.028674011230468750e+02,-4.613426208496093750e+01,-1.803773956298828125e+02,1.974072570800781250e+02,-5.076892471313476562e+01,-1.395403747558593750e+02
1.003999948501586914e+00,2.000000000000000000e+00,-1.107273674011230469e+01,-1.368535280227661133e+00,5.251336288452148438e+01,1.205123367309570312e+02,8.147822570800781250e+01,-1.757192993164062500e+02,1.028282165527343750e+02,-4.612235260009765625e+01,-1.803677520751953125e+02,1.974178619384765625e+02,-5.078102111816406250e+01,-1.395460052490234375e+02
1.008000016212463379e+00,2.000000000000000000e+00,-1.113022804260253906e+01,-1.331150531768798828e+00,5.248600006103515625e+01,1.205247573852539062e+02,8.148291778564453125e+01,-1.757077026367187500e+02,1.027890472412109375e+02,-4.611044692993164062e+01,-1.803581390380859375e+02,1.974284667968750000e+02,-5.079310989379882812e+01,-1.395516052246093750e+02
1.011999964714050293e+00,2.000000000000000000e+00,-1.118770408630371094e+01,-1.293775320053100586e+00,5.245864868164062500e+01,1.205371856689453125e+02,8.148761749267578125e+01,-1.756961212158203125e+02,1.027498855590820312e+02,-4.609854125976562500e+01,-1.803485260009765625e+02,1.974390716552734375e+02,-5.080519485473632812e+01,-1.395572204589843750e+02
1.016000032424926758e+00,2.000000000000000000e+00,-1.124516582489013672e+01,-1.256409883499145508e+00,5.243129730224609375e+01,1.205496063232421875e+02,8.149232482910156250e+01,-1.756845092773437500e+02,1.027107315063476562e+02,-4.608663940429687500e+01,-1.803388977050781250e+02,1.974496612548828125e+02,-5.081727600097656250e+01,-1.395628204345703125e+02
1.019999980926513672e+00,2.000000000000000000e+00,-1.130261135101318359e+01,-1.219054102897644043e+00,5.240395736694335938e+01,1.205620040893554688e+02,8.149702453613281250e+01,-1.756729278564453125e+02,1.026715850830078125e+02,-4.607474136352539062e+01,-1.803292694091796875e+02,1.974602508544921875e+02,-5.082935714721679688e+01,-1.395684356689453125e+02
1.024000048637390137e+00,2.000000000000000000e+00,-1.136004352569580078e+01,-1.181707978248596191e+00,5.237662506103515625e+01,1.205744247436523438e+02,8.150171661376953125e+01,-1.756613616943359375e+02,1.026324539184570312e+02,-4.606284713745117188e+01,-1.803196563720703125e+02,1.974708404541015625e+02,-5.084143066406250000e+01,-1.395740509033203125e+02
1.026999950408935547e+00,2.000000000000000000e+00,-1.141745948791503906e+01,-1.144371509552001953e+00,5.234929656982421875e+01,1.205868301391601562e+02,8.150641632080078125e+01,-1.756497802734375000e+02,1.025933303833007812e+02,-4.605095672607421875e+01,-1.803100585937500000e+02,1.974814453125000000e+02,-5.085350799560546875e+01,-1.395796508789062500e+02
1.031999945640563965e+00,2.000000000000000000e+00,-1.147486209869384766e+01,-1.107044696807861328e+00,5.232197570800781250e+01,1.205992279052734375e+02,8.151110839843750000e+01,-1.756382141113281250e+02,1.025542144775390625e+02,-4.603907012939453125e+01,-1.803004455566406250e+02,1.974920196533203125e+02,-5.086557769775390625e+01,-1.395852661132812500e+02
1.036000013351440430e+00,2.000000000000000000e+00,-1.153224849700927734e+01,-1.069727540016174316e+00,5.229466629028320312e+01,1.206116333007812500e+02,8.151580810546875000e+01,-1.756266326904296875e+02,1.025151062011718750e+02,-4.602717971801757812e+01,-1.802908325195312500e+02,1.975025939941406250e+02,-5.087764739990234375e+01,-1.395908660888671875e+02
1.039999961853027344e+00,2.000000000000000000e+00,-1.158962154388427734e+01,-1.032419919967651367e+00,5.226735687255859375e+01,1.206240234375000000e+02,8.152050018310546875e+01,-1.756150665283203125e+02,1.024760208129882812e+02,-4.601530075073242188e+01,-1.802812347412109375e+02,1.975131683349609375e+02,-5.088970947265625000e+01,-1.395964660644531250e+02
1.044000029563903809e+00,2.000000000000000000e+00,-1.164697837829589844e+01,-9.951220750808715820e-01,5.224005889892578125e+01,1.206364135742187500e+02,8.152519226074218750e+01,-1.756035003662109375e+02,1.024369354248046875e+02,-4.600341796875000000e+01,-1.802716369628906250e+02,1.975237579345703125e+02,-5.090177154541015625e+01,-1.396020812988281250e+02
1.047999978065490723e+00,2.000000000000000000e+00,-1.170432186126708984e+01,-9.578337073326110840e-01,5.221276855468750000e+01,1.206488037109375000e+02,8.152987670898437500e+01,-1.755919342041015625e+02,1.023978652954101562e+02,-4.599154281616210938e+01,-1.802620239257812500e+02,1.975343322753906250e+02,-5.091382980346679688e+01,-1.396076812744140625e+02
1.052000045776367188e+00,2.000000000000000000e+00,-1.176164913177490234e+01,-9.205550551414489746e-01,5.218548202514648438e+01,1.206611938476562500e+02,8.153456878662109375e+01,-1.755803833007812500e+02,1.023588027954101562e+02,-4.597966766357421875e+01,-1.802524414062500000e+02,1.975448913574218750e+02,-5.092588424682617188e+01,-1.396132812500000000e+02
1.054999947547912598e+00,2.000000000000000000e+00,-1.181896209716796875e+01,-8.832860589027404785e-01,5.215820312500000000e+01,1.206735839843750000e+02,8.153925323486328125e+01,-1.755688323974609375e+02,1.023197479248046875e+02,-4.596780014038085938e+01,-1.802428283691406250e+02,1.975554656982421875e+02,-5.093793106079101562e+01,-1.396188812255859375e+02
1.059999942779541016e+00,2.000000000000000000e+00,-1.187626075744628906e+01,-8.460265994071960449e-01,5.213093566894531250e+01,1.206859588623046875e+02,8.154394531250000000e+01,-1.755572662353515625e+02,1.022807006835937500e+02,-4.595593261718750000e+01,-1.802332458496093750e+02,1.975660247802734375e+02,-5.094998550415039062e+01,-1.396244812011718750e+02
1.064000010490417480e+00,2.000000000000000000e+00,-1.193354415893554688e+01,-8.087767958641052246e-01,5.210366821289062500e+01,1.206983337402343750e+02,8.154863739013671875e+01,-1.755457153320312500e+02,1.022416687011718750e+02,-4.594406890869140625e+01,-1.802236480712890625e+02,1.975765991210937500e+02,-5.096202850341796875e+01,-1.396300659179687500e+02
1.067999958992004395e+00,2.000000000000000000e+00,-1.199081325531005859e+01,-7.715365886688232422e-01,5.207641220092773438e+01,1.207107162475585938e+02,8.155331420898437500e+01,-1.755341644287109375e+02,1.022026519775390625e+02,-4.593220520019531250e+01,-1.802140655517578125e+02,1.975871582031250000e+02,-5.097407150268554688e+01,-1.396356658935546875e+02
1.072000026702880859e+00,2.000000000000000000e+00,-1.204806709289550781e+01,-7.343059778213500977e-01,5.204916381835937500e+01,1.207230911254882812e+02,8.155799865722656250e+01,-1.755226287841796875e+02,1.021636352539062500e+02,-4.592034912109375000e+01,-1.802044830322265625e+02,1.975977020263671875e+02,-5.098611068725585938e+01,-1.396412506103515625e+02
1.075999975204467773e+00,2.000000000000000000e+00,-1.210530567169189453e+01,-6.970849037170410156e-01,5.202192306518554688e+01,1.207354507446289062e+02,8.156268310546875000e+01,-1.755110778808593750e+02,1.021246337890625000e+02,-4.590849304199218750e+01,-1.801949005126953125e+02,1.976082611083984375e+02,-5.099814605712890625e+01,-1.396468505859375000e+02
1.080000042915344238e+00,2.000000000000000000e+00,-1.216253089904785156e+01,-6.598734259605407715e-01,5.199468612670898438e+01,1.207478179931640625e+02,8.156735992431640625e+01,-1.754995422363281250e+02,1.020856399536132812e+02,-4.589664077758789062e+01,-1.801853179931640625e+02,1.976188049316406250e+02,-5.101017761230468750e+01,-1.396524353027343750e+02
1.083999991416931152e+00,2.000000000000000000e+00,-1.221974086761474609e+01,-6.226715445518493652e-01,5.196745681762695312e+01,1.207601776123046875e+02,8.157204437255859375e+01,-1.754880065917968750e+02,1.020466537475585938e+02,-4.588479232788085938e+01,-1.801757507324218750e+02,1.976293640136718750e+02,-5.102220916748046875e+01,-1.396580200195312500e+02
1.088000059127807617e+00,2.000000000000000000e+00,-1.227693557739257812e+01,-5.854792594909667969e-01,5.194023513793945312e+01,1.207725372314453125e+02,8.157672119140625000e+01,-1.754764709472656250e+02,1.020076828002929688e+02,-4.587294387817382812e+01,-1.801661682128906250e+02,1.976399078369140625e+02,-5.103423309326171875e+01,-1.396636199951171875e+02
1.090999960899353027e+00,2.000000000000000000e+00,-1.233411502838134766e+01,-5.482965111732482910e-01,5.191302108764648438e+01,1.207848892211914062e+02,8.158139801025390625e+01,-1.754649353027343750e+02,1.019687194824218750e+02,-4.586110305786132812e+01,-1.801566009521484375e+02,1.976504516601562500e+02,-5.104626083374023438e+01,-1.396692047119140625e+02
1.095999956130981445e+00,2.000000000000000000e+00,-1.239128112792968750e+01,-5.111232995986938477e-01,5.188581085205078125e+01,1.207972488403320312e+02,8.158606719970703125e+01,-1.754534301757812500e+02,1.019297714233398438e+02,-4.584926223754882812e+01,-1.801470184326171875e+02,1.976609954833984375e+02,-5.105828094482421875e+01,-1.396747741699218750e+02
1.100000023841857910e+00,2.000000000000000000e+00,-1.244843196868896484e+01,-4.739596247673034668e-01,5.185861206054687500e+01,1.208096008300781250e+02,8.159075164794921875e+01,-1.754418945312500000e+02,1.018908233642578125e+02,-4.583742904663085938e+01,-1.801374511718750000e+02,1.976715393066406250e+02,-5.107029724121093750e+01,-1.396803588867187500e+02
1.103999972343444824e+00,2.000000000000000000e+00,-1.250556850433349609e+01,-4.368055164813995361e-01,5.183142089843750000e+01,1.208219375610351562e+02,8.159542083740234375e+01,-1.754303741455078125e+02,1.018518905639648438e+02,-4.582559204101562500e+01,-1.801278991699218750e+02,1.976820678710937500e+02,-5.108231353759765625e+01,-1.396859436035156250e+02
1.108000040054321289e+00,2.000000000000000000e+00,-1.256268978118896484e+01,-3.996609747409820557e-01,5.180423355102539062e+01,1.208342819213867188e+02,8.160009002685546875e+01,-1.754188537597656250e+02,1.018129730224609375e+02,-4.581376266479492188e+01,-1.801183319091796875e+02,1.976925964355468750e+02,-5.109432220458984375e+01,-1.396915283203125000e+02
1.111999988555908203e+00,2.000000000000000000e+00,-1.261979770660400391e+01,-3.625259399414062500e-01,5.177705383300781250e+01,1.208466186523437500e+02,8.160476684570312500e+01,-1.754073486328125000e+02,1.017740631103515625e+02,-4.580193328857421875e+01,-1.801087646484375000e+02,1.977031402587890625e+02,-5.110633468627929688e+01,-1.396970977783203125e+02
