rpiRobotics/ARM-21-02-F-19-Robot-Motion-Program/data_performance_abb/curve_2/curve_pose_opt2/greedy0.02/grad_result/sim/curve_exe_v1200_z10.csv
# timestamp,cmd_num,J1,J2,J3,J4,J5,J6
0.000000000000000000e+00,-1.000000000000000000e+00,8.921294212341308594e+00,-1.060477638244628906e+01,3.657351970672607422e+00,-2.087528839111328125e+02,-1.018927841186523438e+02,-1.811889038085937500e+02,1.166222991943359375e+02,8.770228385925292969e+00,3.480780029296875000e+01,-1.537292938232421875e+02,6.622257232666015625e+01,1.191414108276367188e+02
4.000000189989805222e-03,1.000000000000000000e+00,8.921294212341308594e+00,-1.060477638244628906e+01,3.657351970672607422e+00,-2.087528839111328125e+02,-1.018927841186523438e+02,-1.811889038085937500e+02,1.166222991943359375e+02,8.770228385925292969e+00,3.480780029296875000e+01,-1.537292938232421875e+02,6.622257232666015625e+01,1.191414108276367188e+02
6.000000052154064178e-03,1.000000000000000000e+00,8.921294212341308594e+00,-1.060477638244628906e+01,3.657351970672607422e+00,-2.087528839111328125e+02,-1.018927841186523438e+02,-1.811889038085937500e+02,1.166222991943359375e+02,8.770228385925292969e+00,3.480780029296875000e+01,-1.537292938232421875e+02,6.622257232666015625e+01,1.191414108276367188e+02
9.999999776482582092e-03,1.000000000000000000e+00,8.921294212341308594e+00,-1.060477638244628906e+01,3.657351970672607422e+00,-2.087528839111328125e+02,-1.018927841186523438e+02,-1.811889038085937500e+02,1.166222991943359375e+02,8.770228385925292969e+00,3.480780029296875000e+01,-1.537292938232421875e+02,6.622257232666015625e+01,1.191414108276367188e+02
1.200000010430812836e-02,1.000000000000000000e+00,8.921294212341308594e+00,-1.060477638244628906e+01,3.657351970672607422e+00,-2.087528839111328125e+02,-1.018927841186523438e+02,-1.811889038085937500e+02,1.166222991943359375e+02,8.770228385925292969e+00,3.480780029296875000e+01,-1.537292938232421875e+02,6.622257232666015625e+01,1.191414108276367188e+02
1.600000075995922089e-02,1.000000000000000000e+00,8.921294212341308594e+00,-1.060477638244628906e+01,3.657351970672607422e+00,-2.087528839111328125e+02,-1.018927841186523438e+02,-1.811889038085937500e+02,1.166222991943359375e+02,8.770228385925292969e+00,3.480780029296875000e+01,-1.537292938232421875e+02,6.622257232666015625e+01,1.191414108276367188e+02
1.999999955296516418e-02,1.000000000000000000e+00,8.921294212341308594e+00,-1.060477638244628906e+01,3.657351970672607422e+00,-2.087528839111328125e+02,-1.018927841186523438e+02,-1.811889038085937500e+02,1.166222991943359375e+02,8.770228385925292969e+00,3.480780029296875000e+01,-1.537292938232421875e+02,6.622257232666015625e+01,1.191414108276367188e+02
2.400000020861625671e-02,1.000000000000000000e+00,8.921294212341308594e+00,-1.060477638244628906e+01,3.657351970672607422e+00,-2.087528839111328125e+02,-1.018927841186523438e+02,-1.811889038085937500e+02,1.166222991943359375e+02,8.770228385925292969e+00,3.480780029296875000e+01,-1.537292938232421875e+02,6.622257232666015625e+01,1.191414108276367188e+02
2.800000086426734924e-02,1.000000000000000000e+00,8.921294212341308594e+00,-1.060477638244628906e+01,3.657351970672607422e+00,-2.087528839111328125e+02,-1.018927841186523438e+02,-1.811889038085937500e+02,1.166222991943359375e+02,8.770228385925292969e+00,3.480780029296875000e+01,-1.537292938232421875e+02,6.622257232666015625e+01,1.191414108276367188e+02
3.200000151991844177e-02,1.000000000000000000e+00,8.921294212341308594e+00,-1.060477638244628906e+01,3.657351970672607422e+00,-2.087528839111328125e+02,-1.018927841186523438e+02,-1.811889038085937500e+02,1.166222991943359375e+02,8.770228385925292969e+00,3.480780029296875000e+01,-1.537292938232421875e+02,6.622257232666015625e+01,1.191414108276367188e+02
3.599999845027923584e-02,1.000000000000000000e+00,8.921294212341308594e+00,-1.060477638244628906e+01,3.657351970672607422e+00,-2.087528839111328125e+02,-1.018927841186523438e+02,-1.811889038085937500e+02,1.166222991943359375e+02,8.770228385925292969e+00,3.480780029296875000e+01,-1.537292938232421875e+02,6.622257232666015625e+01,1.191414108276367188e+02
3.999999910593032837e-02,1.000000000000000000e+00,8.921294212341308594e+00,-1.060477638244628906e+01,3.657351970672607422e+00,-2.087528839111328125e+02,-1.018927841186523438e+02,-1.811889038085937500e+02,1.166222991943359375e+02,8.770228385925292969e+00,3.480780029296875000e+01,-1.537292938232421875e+02,6.622257232666015625e+01,1.191414108276367188e+02
4.399999976158142090e-02,1.000000000000000000e+00,8.921257972717285156e+00,-1.060475063323974609e+01,3.657354116439819336e+00,-2.087528839111328125e+02,-1.018927841186523438e+02,-1.811889038085937500e+02,1.166222991943359375e+02,8.770228385925292969e+00,3.480780029296875000e+01,-1.537292938232421875e+02,6.622257232666015625e+01,1.191414108276367188e+02
4.800000041723251343e-02,1.000000000000000000e+00,8.921030998229980469e+00,-1.060459709167480469e+01,3.657367467880249023e+00,-2.087528839111328125e+02,-1.018927688598632812e+02,-1.811889038085937500e+02,1.166222991943359375e+02,8.770228385925292969e+00,3.480780029296875000e+01,-1.537292938232421875e+02,6.622257232666015625e+01,1.191414108276367188e+02
5.200000107288360596e-02,1.000000000000000000e+00,8.920354843139648438e+00,-1.060412025451660156e+01,3.657407999038696289e+00,-2.087528686523437500e+02,-1.018927307128906250e+02,-1.811888885498046875e+02,1.166222991943359375e+02,8.770228385925292969e+00,3.480780029296875000e+01,-1.537292938232421875e+02,6.622257232666015625e+01,1.191414108276367188e+02
5.600000172853469849e-02,1.000000000000000000e+00,8.918974876403808594e+00,-1.060310840606689453e+01,3.657496690750122070e+00,-2.087528076171875000e+02,-1.018926086425781250e+02,-1.811888122558593750e+02,1.166222991943359375e+02,8.770228385925292969e+00,3.480780029296875000e+01,-1.537292938232421875e+02,6.622257232666015625e+01,1.191414108276367188e+02
5.999999865889549255e-02,1.000000000000000000e+00,8.916735649108886719e+00,-1.060139274597167969e+01,3.657651185989379883e+00,-2.087526702880859375e+02,-1.018923339843750000e+02,-1.811886444091796875e+02,1.166222991943359375e+02,8.770228385925292969e+00,3.480780029296875000e+01,-1.537292938232421875e+02,6.622257232666015625e+01,1.191414108276367188e+02
6.400000303983688354e-02,1.000000000000000000e+00,8.913562774658203125e+00,-1.059885787963867188e+01,3.657887458801269531e+00,-2.087523651123046875e+02,-1.018917922973632812e+02,-1.811882476806640625e+02,1.166222991943359375e+02,8.770228385925292969e+00,3.480780029296875000e+01,-1.537292938232421875e+02,6.622257232666015625e+01,1.191414108276367188e+02
6.800000369548797607e-02,1.000000000000000000e+00,8.909365653991699219e+00,-1.059538555145263672e+01,3.658223867416381836e+00,-2.087517242431640625e+02,-1.018908233642578125e+02,-1.811875152587890625e+02,1.166222991943359375e+02,8.770228385925292969e+00,3.480780029296875000e+01,-1.537292938232421875e+02,6.622257232666015625e+01,1.191414108276367188e+02
7.199999690055847168e-02,1.000000000000000000e+00,8.904030799865722656e+00,-1.059082412719726562e+01,3.658684253692626953e+00,-2.087506408691406250e+02,-1.018892288208007812e+02,-1.811862487792968750e+02,1.166222991943359375e+02,8.770228385925292969e+00,3.480780029296875000e+01,-1.537292938232421875e+02,6.622257232666015625e+01,1.191414108276367188e+02
7.599999755620956421e-02,1.000000000000000000e+00,8.897420883178710938e+00,-1.058496379852294922e+01,3.659298658370971680e+00,-2.087488708496093750e+02,-1.018867492675781250e+02,-1.811842346191406250e+02,1.166222991943359375e+02,8.770228385925292969e+00,3.480780029296875000e+01,-1.537292938232421875e+02,6.622257232666015625e+01,1.191414108276367188e+02
7.999999821186065674e-02,1.000000000000000000e+00,8.889326095581054688e+00,-1.057746791839599609e+01,3.660100460052490234e+00,-2.087462158203125000e+02,-1.018830947875976562e+02,-1.811812133789062500e+02,1.166222991943359375e+02,8.770228385925292969e+00,3.480780029296875000e+01,-1.537292938232421875e+02,6.622257232666015625e+01,1.191414108276367188e+02
8.399999886751174927e-02,1.000000000000000000e+00,8.879441261291503906e+00,-1.056787586212158203e+01,3.661128759384155273e+00,-2.087423706054687500e+02,-1.018779220581054688e+02,-1.811769104003906250e+02,1.166222991943359375e+02,8.770228385925292969e+00,3.480780029296875000e+01,-1.537292938232421875e+02,6.622257232666015625e+01,1.191414108276367188e+02
8.799999952316284180e-02,1.000000000000000000e+00,8.867385864257812500e+00,-1.055576419830322266e+01,3.662430286407470703e+00,-2.087370300292968750e+02,-1.018708343505859375e+02,-1.811709136962890625e+02,1.166222991943359375e+02,8.770228385925292969e+00,3.480780029296875000e+01,-1.537292938232421875e+02,6.622257232666015625e+01,1.191414108276367188e+02
9.200000017881393433e-02,1.000000000000000000e+00,8.852825164794921875e+00,-1.054095935821533203e+01,3.664054632186889648e+00,-2.087298736572265625e+02,-1.018614044189453125e+02,-1.811629028320312500e+02,1.166222991943359375e+02,8.770228385925292969e+00,3.480780029296875000e+01,-1.537292938232421875e+02,6.622257232666015625e+01,1.191414108276367188e+02
9.600000083446502686e-02,1.000000000000000000e+00,8.835639953613281250e+00,-1.052364826202392578e+01,3.666033983230590820e+00,-2.087205047607421875e+02,-1.018491897583007812e+02,-1.811524505615234375e+02,1.166222991943359375e+02,8.770228385925292969e+00,3.480780029296875000e+01,-1.537292938232421875e+02,6.622257232666015625e+01,1.191414108276367188e+02
1.000000014901161194e-01,1.000000000000000000e+00,8.815956115722656250e+00,-1.050424575805664062e+01,3.668373823165893555e+00,-2.087085418701171875e+02,-1.018337173461914062e+02,-1.811391296386718750e+02,1.166222991943359375e+02,8.770228385925292969e+00,3.480780029296875000e+01,-1.537292938232421875e+02,6.622257232666015625e+01,1.191414108276367188e+02
1.040000021457672119e-01,1.000000000000000000e+00,8.793943405151367188e+00,-1.048319530487060547e+01,3.671069622039794922e+00,-2.086935729980468750e+02,-1.018145675659179688e+02,-1.811225280761718750e+02,1.166222991943359375e+02,8.770228385925292969e+00,3.480780029296875000e+01,-1.537292938232421875e+02,6.622257232666015625e+01,1.191414108276367188e+02
1.080000028014183044e-01,1.000000000000000000e+00,8.769604682922363281e+00,-1.046079444885253906e+01,3.674130916595458984e+00,-2.086753387451171875e+02,-1.017913742065429688e+02,-1.811023254394531250e+02,1.166222991943359375e+02,8.770228385925292969e+00,3.480780029296875000e+01,-1.537292938232421875e+02,6.622257232666015625e+01,1.191414108276367188e+02
1.120000034570693970e-01,1.000000000000000000e+00,8.742761611938476562e+00,-1.043706321716308594e+01,3.677579164505004883e+00,-2.086535949707031250e+02,-1.017638397216796875e+02,-1.810782775878906250e+02,1.166222991943359375e+02,8.770228385925292969e+00,3.480780029296875000e+01,-1.537292938232421875e+02,6.622257232666015625e+01,1.191414108276367188e+02
1.159999966621398926e-01,1.000000000000000000e+00,8.713220596313476562e+00,-1.041178894042968750e+01,3.681430101394653320e+00,-2.086281433105468750e+02,-1.017317657470703125e+02,-1.810501556396484375e+02,1.166222991943359375e+02,8.770228385925292969e+00,3.480780029296875000e+01,-1.537292938232421875e+02,6.622257232666015625e+01,1.191414108276367188e+02
1.199999973177909851e-01,1.000000000000000000e+00,8.680854797363281250e+00,-1.038468742370605469e+01,3.685692548751831055e+00,-2.085989532470703125e+02,-1.016950683593750000e+02,-1.810179443359375000e+02,1.166222991943359375e+02,8.770228385925292969e+00,3.480780029296875000e+01,-1.537292938232421875e+02,6.622257232666015625e+01,1.191414108276367188e+02
1.239999979734420776e-01,1.000000000000000000e+00,8.645599365234375000e+00,-1.035564327239990234e+01,3.690378904342651367e+00,-2.085660095214843750e+02,-1.016537551879882812e+02,-1.809815979003906250e+02,1.166222991943359375e+02,8.770228385925292969e+00,3.480780029296875000e+01,-1.537292938232421875e+02,6.622257232666015625e+01,1.191414108276367188e+02
1.280000060796737671e-01,1.000000000000000000e+00,8.607468605041503906e+00,-1.032478904724121094e+01,3.695502042770385742e+00,-2.085294342041015625e+02,-1.016079025268554688e+02,-1.809412384033203125e+02,1.166222991943359375e+02,8.770228385925292969e+00,3.480780029296875000e+01,-1.537292938232421875e+02,6.622257232666015625e+01,1.191414108276367188e+02
1.309999972581863403e-01,1.000000000000000000e+00,8.566577911376953125e+00,-1.029230213165283203e+01,3.701057195663452148e+00,-2.084893341064453125e+02,-1.015577239990234375e+02,-1.808970184326171875e+02,1.166222991943359375e+02,8.770228385925292969e+00,3.480780029296875000e+01,-1.537292938232421875e+02,6.622257232666015625e+01,1.191414108276367188e+02
1.360000073909759521e-01,1.000000000000000000e+00,8.523169517517089844e+00,-1.025826930999755859e+01,3.707018136978149414e+00,-2.084459381103515625e+02,-1.015034713745117188e+02,-1.808491973876953125e+02,1.166222991943359375e+02,8.770228385925292969e+00,3.480780029296875000e+01,-1.537292938232421875e+02,6.622257232666015625e+01,1.191414108276367188e+02
1.389999985694885254e-01,1.000000000000000000e+00,8.477509498596191406e+00,-1.022266006469726562e+01,3.713351011276245117e+00,-2.083995361328125000e+02,-1.014454956054687500e+02,-1.807980651855468750e+02,1.166222991943359375e+02,8.770228385925292969e+00,3.480780029296875000e+01,-1.537292938232421875e+02,6.622257232666015625e+01,1.191414108276367188e+02
1.439999938011169434e-01,1.000000000000000000e+00,8.429696083068847656e+00,-1.018530082702636719e+01,3.720032691955566406e+00,-2.083504638671875000e+02,-1.013842086791992188e+02,-1.807439880371093750e+02,1.166222991943359375e+02,8.770228385925292969e+00,3.480780029296875000e+01,-1.537292938232421875e+02,6.622257232666015625e+01,1.191414108276367188e+02
1.480000019073486328e-01,1.000000000000000000e+00,8.379621505737304688e+00,-1.014581966400146484e+01,3.727049350738525391e+00,-2.082991027832031250e+02,-1.013200607299804688e+02,-1.806873931884765625e+02,1.166222991943359375e+02,8.770228385925292969e+00,3.480780029296875000e+01,-1.537292938232421875e+02,6.622257232666015625e+01,1.191414108276367188e+02
1.519999951124191284e-01,1.000000000000000000e+00,8.327159881591796875e+00,-1.010380077362060547e+01,3.734385490417480469e+00,-2.082458648681640625e+02,-1.012534942626953125e+02,-1.806286926269531250e+02,1.166222991943359375e+02,8.770228385925292969e+00,3.480780029296875000e+01,-1.537292938232421875e+02,6.622257232666015625e+01,1.191414108276367188e+02
1.560000032186508179e-01,1.000000000000000000e+00,8.272387504577636719e+00,-1.005913734436035156e+01,3.742009639739990234e+00,-2.081910705566406250e+02,-1.011849594116210938e+02,-1.805683135986328125e+02,1.166222991943359375e+02,8.770228385925292969e+00,3.480780029296875000e+01,-1.537292938232421875e+02,6.622257232666015625e+01,1.191414108276367188e+02
1.599999964237213135e-01,1.000000000000000000e+00,8.215579986572265625e+00,-1.001212978363037109e+01,3.749881029129028320e+00,-2.081350708007812500e+02,-1.011148529052734375e+02,-1.805065765380859375e+02,1.166222991943359375e+02,8.770228385925292969e+00,3.480780029296875000e+01,-1.537292938232421875e+02,6.622257232666015625e+01,1.191414108276367188e+02
1.640000045299530029e-01,1.000000000000000000e+00,8.157065391540527344e+00,-9.963255882263183594e+00,3.757959842681884766e+00,-2.080781707763671875e+02,-1.010435485839843750e+02,-1.804438018798828125e+02,1.166222991943359375e+02,8.770228385925292969e+00,3.480780029296875000e+01,-1.537292938232421875e+02,6.622257232666015625e+01,1.191414108276367188e+02
1.679999977350234985e-01,1.000000000000000000e+00,8.097145080566406250e+00,-9.912923812866210938e+00,3.766207695007324219e+00,-2.080205535888671875e+02,-1.009713134765625000e+02,-1.803802642822265625e+02,1.166222991943359375e+02,8.770228385925292969e+00,3.480780029296875000e+01,-1.537292938232421875e+02,6.622257232666015625e+01,1.191414108276367188e+02
1.720000058412551880e-01,1.000000000000000000e+00,8.036079406738281250e+00,-9.861447334289550781e+00,3.774587154388427734e+00,-2.079624633789062500e+02,-1.008984222412109375e+02,-1.803161773681640625e+02,1.166222991943359375e+02,8.770228385925292969e+00,3.480780029296875000e+01,-1.537292938232421875e+02,6.622257232666015625e+01,1.191414108276367188e+02
1.759999990463256836e-01,1.000000000000000000e+00,7.974086284637451172e+00,-9.809081077575683594e+00,3.783065080642700195e+00,-2.079040222167968750e+02,-1.008250656127929688e+02,-1.802516937255859375e+02,1.166222991943359375e+02,8.770228385925292969e+00,3.480780029296875000e+01,-1.537292938232421875e+02,6.622257232666015625e+01,1.191414108276367188e+02
1.800000071525573730e-01,1.000000000000000000e+00,7.911319255828857422e+00,-9.756007194519042969e+00,3.791615962982177734e+00,-2.078453674316406250e+02,-1.007513961791992188e+02,-1.801869659423828125e+02,1.166222991943359375e+02,8.770228385925292969e+00,3.480780029296875000e+01,-1.537292938232421875e+02,6.622257232666015625e+01,1.191414108276367188e+02
1.840000003576278687e-01,1.000000000000000000e+00,7.847867965698242188e+00,-9.702336311340332031e+00,3.800224781036376953e+00,-2.077865753173828125e+02,-1.006775360107421875e+02,-1.801220703125000000e+02,1.166222991943359375e+02,8.770228385925292969e+00,3.480780029296875000e+01,-1.537292938232421875e+02,6.622257232666015625e+01,1.191414108276367188e+02
1.879999935626983643e-01,1.000000000000000000e+00,7.783792018890380859e+00,-9.648151397705078125e+00,3.808879375457763672e+00,-2.077277069091796875e+02,-1.006035614013671875e+02,-1.800571136474609375e+02,1.166222991943359375e+02,8.770228385925292969e+00,3.480780029296875000e+01,-1.537292938232421875e+02,6.622257232666015625e+01,1.191414108276367188e+02
1.920000016689300537e-01,1.000000000000000000e+00,7.719203948974609375e+00,-9.593574523925781250e+00,3.817566633224487305e+00,-2.076688232421875000e+02,-1.005295486450195312e+02,-1.799921112060546875e+02,1.166222991943359375e+02,8.770228385925292969e+00,3.480780029296875000e+01,-1.537292938232421875e+02,6.622257232666015625e+01,1.191414108276367188e+02
1.959999948740005493e-01,1.000000000000000000e+00,7.654289245605468750e+00,-9.538761138916015625e+00,3.826272964477539062e+00,-2.076099548339843750e+02,-1.004554977416992188e+02,-1.799271087646484375e+02,1.166222991943359375e+02,8.770228385925292969e+00,3.480780029296875000e+01,-1.537292938232421875e+02,6.622257232666015625e+01,1.191414108276367188e+02
2.000000029802322388e-01,1.000000000000000000e+00,7.589236736297607422e+00,-9.483854293823242188e+00,3.834986448287963867e+00,-2.075510711669921875e+02,-1.003814620971679688e+02,-1.798621063232421875e+02,1.166222991943359375e+02,8.770228385925292969e+00,3.480780029296875000e+01,-1.537292938232421875e+02,6.622257232666015625e+01,1.191414108276367188e+02
2.039999961853027344e-01,1.000000000000000000e+00,7.524157047271728516e+00,-9.428930282592773438e+00,3.843700885772705078e+00,-2.074922027587890625e+02,-1.003074188232421875e+02,-1.797971038818359375e+02,1.166222991943359375e+02,8.770228385925292969e+00,3.480780029296875000e+01,-1.537292938232421875e+02,6.622257232666015625e+01,1.191414108276367188e+02
2.080000042915344238e-01,1.000000000000000000e+00,7.459081649780273438e+00,-9.374009132385253906e+00,3.852415084838867188e+00,-2.074333190917968750e+02,-1.002333908081054688e+02,-1.797321319580078125e+02,1.166222991943359375e+02,8.770228385925292969e+00,3.480780029296875000e+01,-1.537292938232421875e+02,6.622257232666015625e+01,1.191414108276367188e+02
2.119999974966049194e-01,1.000000000000000000e+00,7.394010066986083984e+00,-9.319092750549316406e+00,3.861128091812133789e+00,-2.073744659423828125e+02,-1.001593627929687500e+02,-1.796671447753906250e+02,1.166222991943359375e+02,8.770228385925292969e+00,3.480780029296875000e+01,-1.537292938232421875e+02,6.622257232666015625e+01,1.191414108276367188e+02
2.160000056028366089e-01,1.000000000000000000e+00,7.328944206237792969e+00,-9.264181137084960938e+00,3.869840621948242188e+00,-2.073155975341796875e+02,-1.000853347778320312e+02,-1.796021575927734375e+02,1.166222991943359375e+02,8.770228385925292969e+00,3.480780029296875000e+01,-1.537292938232421875e+02,6.622257232666015625e+01,1.191414108276367188e+02
2.199999988079071045e-01,1.000000000000000000e+00,7.263883113861083984e+00,-9.209273338317871094e+00,3.878552436828613281e+00,-2.072567443847656250e+02,-1.000113296508789062e+02,-1.795371856689453125e+02,1.166222991943359375e+02,8.770228385925292969e+00,3.480780029296875000e+01,-1.537292938232421875e+02,6.622257232666015625e+01,1.191414108276367188e+02
2.240000069141387939e-01,1.000000000000000000e+00,7.198827266693115234e+00,-9.154369354248046875e+00,3.887264013290405273e+00,-2.071979064941406250e+02,-9.993731689453125000e+01,-1.794722137451171875e+02,1.166222991943359375e+02,8.770228385925292969e+00,3.480780029296875000e+01,-1.537292938232421875e+02,6.622257232666015625e+01,1.191414108276367188e+02
2.280000001192092896e-01,1.000000000000000000e+00,7.133776187896728516e+00,-9.099469184875488281e+00,3.895974636077880859e+00,-2.071390533447265625e+02,-9.986331176757812500e+01,-1.794072418212890625e+02,1.166222991943359375e+02,8.770228385925292969e+00,3.480780029296875000e+01,-1.537292938232421875e+02,6.622257232666015625e+01,1.191414108276367188e+02
2.319999933242797852e-01,1.000000000000000000e+00,7.068729877471923828e+00,-9.044573783874511719e+00,3.904684305191040039e+00,-2.070802001953125000e+02,-9.978931427001953125e+01,-1.793422851562500000e+02,1.166222991943359375e+02,8.770228385925292969e+00,3.480780029296875000e+01,-1.537292938232421875e+02,6.622257232666015625e+01,1.191414108276367188e+02
2.360000014305114746e-01,1.000000000000000000e+00,7.003688335418701172e+00,-8.989681243896484375e+00,3.913393735885620117e+00,-2.070213623046875000e+02,-9.971530914306640625e+01,-1.792773284912109375e+02,1.166222991943359375e+02,8.770228385925292969e+00,3.480780029296875000e+01,-1.537292938232421875e+02,6.622257232666015625e+01,1.191414108276367188e+02
2.399999946355819702e-01,1.000000000000000000e+00,6.938652038574218750e+00,-8.934794425964355469e+00,3.922102451324462891e+00,-2.069625396728515625e+02,-9.964132690429687500e+01,-1.792123718261718750e+02,1.166222991943359375e+02,8.770228385925292969e+00,3.480780029296875000e+01,-1.537292938232421875e+02,6.622257232666015625e+01,1.191414108276367188e+02
2.440000027418136597e-01,1.000000000000000000e+00,6.873620033264160156e+00,-8.879911422729492188e+00,3.930810689926147461e+00,-2.069037017822265625e+02,-9.956734466552734375e+01,-1.791474304199218750e+02,1.166222991943359375e+02,8.770228385925292969e+00,3.480780029296875000e+01,-1.537292938232421875e+02,6.622257232666015625e+01,1.191414108276367188e+02
2.479999959468841553e-01,1.000000000000000000e+00,6.808592796325683594e+00,-8.825031280517578125e+00,3.939517736434936523e+00,-2.068448791503906250e+02,-9.949336242675781250e+01,-1.790824890136718750e+02,1.166222991943359375e+02,8.770228385925292969e+00,3.480780029296875000e+01,-1.537292938232421875e+02,6.622257232666015625e+01,1.191414108276367188e+02
2.520000040531158447e-01,1.000000000000000000e+00,6.743569850921630859e+00,-8.770154953002929688e+00,3.948224544525146484e+00,-2.067860565185546875e+02,-9.941939544677734375e+01,-1.790175476074218750e+02,1.166222991943359375e+02,8.770228385925292969e+00,3.480780029296875000e+01,-1.537292938232421875e+02,6.622257232666015625e+01,1.191414108276367188e+02
2.560000121593475342e-01,1.000000000000000000e+00,6.678551673889160156e+00,-8.715283393859863281e+00,3.956930875778198242e+00,-2.067272338867187500e+02,-9.934542083740234375e+01,-1.789526214599609375e+02,1.166222991943359375e+02,8.770228385925292969e+00,3.480780029296875000e+01,-1.537292938232421875e+02,6.622257232666015625e+01,1.191414108276367188e+02
2.599999904632568359e-01,1.000000000000000000e+00,6.613538265228271484e+00,-8.660415649414062500e+00,3.965636491775512695e+00,-2.066684265136718750e+02,-9.927146911621093750e+01,-1.788876800537109375e+02,1.166222991943359375e+02,8.770228385925292969e+00,3.480780029296875000e+01,-1.537292938232421875e+02,6.622257232666015625e+01,1.191414108276367188e+02
2.639999985694885254e-01,1.000000000000000000e+00,6.548528671264648438e+00,-8.605550765991210938e+00,3.974341630935668945e+00,-2.066096191406250000e+02,-9.919750976562500000e+01,-1.788227691650390625e+02,1.166222991943359375e+02,8.770228385925292969e+00,3.480780029296875000e+01,-1.537292938232421875e+02,6.622257232666015625e+01,1.191414108276367188e+02
2.680000066757202148e-01,1.000000000000000000e+00,6.483523845672607422e+00,-8.550689697265625000e+00,3.983046293258666992e+00,-2.065508117675781250e+02,-9.912355041503906250e+01,-1.787578430175781250e+02,1.166222991943359375e+02,8.770228385925292969e+00,3.480780029296875000e+01,-1.537292938232421875e+02,6.622257232666015625e+01,1.191414108276367188e+02
2.720000147819519043e-01,1.000000000000000000e+00,6.418523311614990234e+00,-8.495833396911621094e+00,3.991750001907348633e+00,-2.064920043945312500e+02,-9.904960632324218750e+01,-1.786929321289062500e+02,1.166222991943359375e+02,8.770228385925292969e+00,3.480780029296875000e+01,-1.537292938232421875e+02,6.622257232666015625e+01,1.191414108276367188e+02
2.759999930858612061e-01,1.000000000000000000e+00,6.353527545928955078e+00,-8.440979957580566406e+00,4.000453472137451172e+00,-2.064332122802734375e+02,-9.897566223144531250e+01,-1.786280059814453125e+02,1.166222991943359375e+02,8.770228385925292969e+00,3.480780029296875000e+01,-1.537292938232421875e+02,6.622257232666015625e+01,1.191414108276367188e+02
2.800000011920928955e-01,1.000000000000000000e+00,6.288535594940185547e+00,-8.386130332946777344e+00,4.009155750274658203e+00,-2.063744201660156250e+02,-9.890172576904296875e+01,-1.785631103515625000e+02,1.166222991943359375e+02,8.770228385925292969e+00,3.480780029296875000e+01,-1.537292938232421875e+02,6.622257232666015625e+01,1.191414108276367188e+02
2.840000092983245850e-01,1.000000000000000000e+00,6.223547935485839844e+00,-8.331283569335937500e+00,4.017858028411865234e+00,-2.063156280517578125e+02,-9.882778930664062500e+01,-1.784982147216796875e+02,1.166222991943359375e+02,8.770228385925292969e+00,3.480780029296875000e+01,-1.537292938232421875e+02,6.622257232666015625e+01,1.191414108276367188e+02
2.879999876022338867e-01,1.000000000000000000e+00,6.158564567565917969e+00,-8.276441574096679688e+00,4.026559829711914062e+00,-2.062568359375000000e+02,-9.875386810302734375e+01,-1.784333190917968750e+02,1.166222991943359375e+02,8.770228385925292969e+00,3.480780029296875000e+01,-1.537292938232421875e+02,6.622257232666015625e+01,1.191414108276367188e+02
2.919999957084655762e-01,1.000000000000000000e+00,6.093585968017578125e+00,-8.221603393554687500e+00,4.035260677337646484e+00,-2.061980590820312500e+02,-9.867994689941406250e+01,-1.783684082031250000e+02,1.166222991943359375e+02,8.770228385925292969e+00,3.480780029296875000e+01,-1.537292938232421875e+02,6.622257232666015625e+01,1.191414108276367188e+02
2.960000038146972656e-01,1.000000000000000000e+00,6.028610706329345703e+00,-8.166768074035644531e+00,4.043961048126220703e+00,-2.061392822265625000e+02,-9.860602569580078125e+01,-1.783035278320312500e+02,1.166222991943359375e+02,8.770228385925292969e+00,3.480780029296875000e+01,-1.537292938232421875e+02,6.622257232666015625e+01,1.191414108276367188e+02
3.000000119209289551e-01,1.000000000000000000e+00,5.963640213012695312e+00,-8.111935615539550781e+00,4.052660942077636719e+00,-2.060805053710937500e+02,-9.853211212158203125e+01,-1.782386322021484375e+02,1.166222991943359375e+02,8.770228385925292969e+00,3.480780029296875000e+01,-1.537292938232421875e+02,6.622257232666015625e+01,1.191414108276367188e+02
3.039999902248382568e-01,1.000000000000000000e+00,5.898673534393310547e+00,-8.057106971740722656e+00,4.061359882354736328e+00,-2.060217285156250000e+02,-9.845820617675781250e+01,-1.781737670898437500e+02,1.166222991943359375e+02,8.770228385925292969e+00,3.480780029296875000e+01,-1.537292938232421875e+02,6.622257232666015625e+01,1.191414108276367188e+02
3.079999983310699463e-01,1.000000000000000000e+00,5.833710670471191406e+00,-8.002282142639160156e+00,4.070058345794677734e+00,-2.059629669189453125e+02,-9.838430023193359375e+01,-1.781088714599609375e+02,1.166222991943359375e+02,8.770228385925292969e+00,3.480780029296875000e+01,-1.537292938232421875e+02,6.622257232666015625e+01,1.191414108276367188e+02
3.120000064373016357e-01,1.000000000000000000e+00,5.768752098083496094e+00,-7.947461128234863281e+00,4.078756809234619141e+00,-2.059042053222656250e+02,-9.831039428710937500e+01,-1.780440063476562500e+02,1.166222991943359375e+02,8.770228385925292969e+00,3.480780029296875000e+01,-1.537292938232421875e+02,6.622257232666015625e+01,1.191414108276367188e+02
3.160000145435333252e-01,1.000000000000000000e+00,5.703797817230224609e+00,-7.892642974853515625e+00,4.087454795837402344e+00,-2.058454437255859375e+02,-9.823650360107421875e+01,-1.779791412353515625e+02,1.166222991943359375e+02,8.770228385925292969e+00,3.480780029296875000e+01,-1.537292938232421875e+02,6.622257232666015625e+01,1.191414108276367188e+02
3.199999928474426270e-01,1.000000000000000000e+00,5.638847351074218750e+00,-7.837828159332275391e+00,4.096151351928710938e+00,-2.057866973876953125e+02,-9.816261291503906250e+01,-1.779142761230468750e+02,1.166222991943359375e+02,8.770228385925292969e+00,3.480780029296875000e+01,-1.537292938232421875e+02,6.622257232666015625e+01,1.191414108276367188e+02
3.240000009536743164e-01,1.000000000000000000e+00,5.573900699615478516e+00,-7.783016681671142578e+00,4.104847908020019531e+00,-2.057279357910156250e+02,-9.808872985839843750e+01,-1.778494110107421875e+02,1.166222991943359375e+02,8.770228385925292969e+00,3.480780029296875000e+01,-1.537292938232421875e+02,6.622257232666015625e+01,1.191414108276367188e+02
3.280000090599060059e-01,1.000000000000000000e+00,5.508958339691162109e+00,-7.728209018707275391e+00,4.113544464111328125e+00,-2.056691894531250000e+02,-9.801484680175781250e+01,-1.777845458984375000e+02,1.166222991943359375e+02,8.770228385925292969e+00,3.480780029296875000e+01,-1.537292938232421875e+02,6.622257232666015625e+01,1.191414108276367188e+02
3.319999873638153076e-01,1.000000000000000000e+00,5.444019317626953125e+00,-7.673404216766357422e+00,4.122240066528320312e+00,-2.056104431152343750e+02,-9.794097137451171875e+01,-1.777197113037109375e+02,1.166222991943359375e+02,8.770228385925292969e+00,3.480780029296875000e+01,-1.537292938232421875e+02,6.622257232666015625e+01,1.191414108276367188e+02
3.359999954700469971e-01,1.000000000000000000e+00,5.379084587097167969e+00,-7.618603229522705078e+00,4.130934715270996094e+00,-2.055516967773437500e+02,-9.786709594726562500e+01,-1.776548461914062500e+02,1.166222991943359375e+02,8.770228385925292969e+00,3.480780029296875000e+01,-1.537292938232421875e+02,6.622257232666015625e+01,1.191414108276367188e+02
3.400000035762786865e-01,1.000000000000000000e+00,5.314153194427490234e+00,-7.563804626464843750e+00,4.139629364013671875e+00,-2.054929656982421875e+02,-9.779322814941406250e+01,-1.775899963378906250e+02,1.166222991943359375e+02,8.770228385925292969e+00,3.480780029296875000e+01,-1.537292938232421875e+02,6.622257232666015625e+01,1.191414108276367188e+02
3.440000116825103760e-01,1.000000000000000000e+00,5.249226093292236328e+00,-7.509010314941406250e+00,4.148323535919189453e+00,-2.054342193603515625e+02,-9.771936798095703125e+01,-1.775251770019531250e+02,1.166222991943359375e+02,8.770228385925292969e+00,3.480780029296875000e+01,-1.537292938232421875e+02,6.622257232666015625e+01,1.191414108276367188e+02
3.479999899864196777e-01,1.000000000000000000e+00,5.184302330017089844e+00,-7.454217433929443359e+00,4.157016754150390625e+00,-2.053755035400390625e+02,-9.764550781250000000e+01,-1.774603271484375000e+02,1.166222991943359375e+02,8.770228385925292969e+00,3.480780029296875000e+01,-1.537292938232421875e+02,6.622257232666015625e+01,1.191414108276367188e+02
3.519999980926513672e-01,1.000000000000000000e+00,5.119382858276367188e+00,-7.399429321289062500e+00,4.165709972381591797e+00,-2.053167724609375000e+02,-9.757164764404296875e+01,-1.773954925537109375e+02,1.166222991943359375e+02,8.770228385925292969e+00,3.480780029296875000e+01,-1.537292938232421875e+02,6.622257232666015625e+01,1.191414108276367188e+02
3.560000061988830566e-01,1.000000000000000000e+00,5.054466247558593750e+00,-7.344643592834472656e+00,4.174402713775634766e+00,-2.052580413818359375e+02,-9.749780273437500000e+01,-1.773306579589843750e+02,1.166222991943359375e+02,8.770228385925292969e+00,3.480780029296875000e+01,-1.537292938232421875e+02,6.622257232666015625e+01,1.191414108276367188e+02
3.600000143051147461e-01,1.000000000000000000e+00,4.989553928375244141e+00,-7.289861202239990234e+00,4.183094501495361328e+00,-2.051993255615234375e+02,-9.742395782470703125e+01,-1.772658386230468750e+02,1.166222991943359375e+02,8.770228385925292969e+00,3.480780029296875000e+01,-1.537292938232421875e+02,6.622257232666015625e+01,1.191414108276367188e+02
3.639999926090240479e-01,1.000000000000000000e+00,4.924644947052001953e+00,-7.235082149505615234e+00,4.191785812377929688e+00,-2.051405944824218750e+02,-9.735011291503906250e+01,-1.772010040283203125e+02,1.166222991943359375e+02,8.770228385925292969e+00,3.480780029296875000e+01,-1.537292938232421875e+02,6.622257232666015625e+01,1.191414108276367188e+02
3.680000007152557373e-01,1.000000000000000000e+00,4.859739780426025391e+00,-7.180305480957031250e+00,4.200476646423339844e+00,-2.050818786621093750e+02,-9.727627563476562500e+01,-1.771361846923828125e+02,1.166222991943359375e+02,8.770228385925292969e+00,3.480780029296875000e+01,-1.537292938232421875e+02,6.622257232666015625e+01,1.191414108276367188e+02
3.720000088214874268e-01,1.000000000000000000e+00,4.794837951660156250e+00,-7.125532150268554688e+00,4.209167480468750000e+00,-2.050231628417968750e+02,-9.720243835449218750e+01,-1.770713653564453125e+02,1.166222991943359375e+02,8.770228385925292969e+00,3.480780029296875000e+01,-1.537292938232421875e+02,6.622257232666015625e+01,1.191414108276367188e+02
3.759999871253967285e-01,1.000000000000000000e+00,4.729939937591552734e+00,-7.070761680603027344e+00,4.217857360839843750e+00,-2.049644775390625000e+02,-9.712860107421875000e+01,-1.770065612792968750e+02,1.166222991943359375e+02,8.770228385925292969e+00,3.480780029296875000e+01,-1.537292938232421875e+02,6.622257232666015625e+01,1.191414108276367188e+02
3.799999952316284180e-01,1.000000000000000000e+00,4.665045261383056641e+00,-7.015994071960449219e+00,4.226547241210937500e+00,-2.049057617187500000e+02,-9.705478668212890625e+01,-1.769417419433593750e+02,1.166222991943359375e+02,8.770228385925292969e+00,3.480780029296875000e+01,-1.537292938232421875e+02,6.622257232666015625e+01,1.191414108276367188e+02
3.840000033378601074e-01,1.000000000000000000e+00,4.600153923034667969e+00,-6.961229801177978516e+00,4.235236644744873047e+00,-2.048470611572265625e+02,-9.698095703125000000e+01,-1.768769378662109375e+02,1.166222991943359375e+02,8.770228385925292969e+00,3.480780029296875000e+01,-1.537292938232421875e+02,6.622257232666015625e+01,1.191414108276367188e+02
3.880000114440917969e-01,1.000000000000000000e+00,4.535265922546386719e+00,-6.906468391418457031e+00,4.243925094604492188e+00,-2.047883605957031250e+02,-9.690714263916015625e+01,-1.768121337890625000e+02,1.166222991943359375e+02,8.770228385925292969e+00,3.480780029296875000e+01,-1.537292938232421875e+02,6.622257232666015625e+01,1.191414108276367188e+02
3.919999897480010986e-01,1.000000000000000000e+00,4.470381259918212891e+00,-6.851709842681884766e+00,4.252613067626953125e+00,-2.047296600341796875e+02,-9.683332061767578125e+01,-1.767473449707031250e+02,1.166222991943359375e+02,8.770228385925292969e+00,3.480780029296875000e+01,-1.537292938232421875e+02,6.622257232666015625e+01,1.191414108276367188e+02
3.959999978542327881e-01,1.000000000000000000e+00,4.405500411987304688e+00,-6.796954154968261719e+00,4.261301040649414062e+00,-2.046709594726562500e+02,-9.675951385498046875e+01,-1.766825561523437500e+02,1.166222991943359375e+02,8.770228385925292969e+00,3.480780029296875000e+01,-1.537292938232421875e+02,6.622257232666015625e+01,1.191414108276367188e+02
4.000000059604644775e-01,1.000000000000000000e+00,4.340622425079345703e+00,-6.742200851440429688e+00,4.269988536834716797e+00,-2.046122741699218750e+02,-9.668570709228515625e+01,-1.766177520751953125e+02,1.166222991943359375e+02,8.770228385925292969e+00,3.480780029296875000e+01,-1.537292938232421875e+02,6.622257232666015625e+01,1.191414108276367188e+02
4.040000140666961670e-01,1.000000000000000000e+00,4.275747776031494141e+00,-6.687450885772705078e+00,4.278675079345703125e+00,-2.045535888671875000e+02,-9.661190032958984375e+01,-1.765529785156250000e+02,1.166222991943359375e+02,8.770228385925292969e+00,3.480780029296875000e+01,-1.537292938232421875e+02,6.622257232666015625e+01,1.191414108276367188e+02
4.079999923706054688e-01,1.000000000000000000e+00,4.210876941680908203e+00,-6.632702827453613281e+00,4.287362098693847656e+00,-2.044949035644531250e+02,-9.653810119628906250e+01,-1.764881896972656250e+02,1.166222991943359375e+02,8.770228385925292969e+00,3.480780029296875000e+01,-1.537292938232421875e+02,6.622257232666015625e+01,1.191414108276367188e+02
4.120000004768371582e-01,1.000000000000000000e+00,4.146008968353271484e+00,-6.577958583831787109e+00,4.296047687530517578e+00,-2.044362182617187500e+02,-9.646430969238281250e+01,-1.764234008789062500e+02,1.166222991943359375e+02,8.770228385925292969e+00,3.480780029296875000e+01,-1.537292938232421875e+02,6.622257232666015625e+01,1.191414108276367188e+02
4.160000085830688477e-01,1.000000000000000000e+00,4.081143856048583984e+00,-6.523216247558593750e+00,4.304733276367187500e+00,-2.043775482177734375e+02,-9.639051055908203125e+01,-1.763586273193359375e+02,1.166222991943359375e+02,8.770228385925292969e+00,3.480780029296875000e+01,-1.537292938232421875e+02,6.622257232666015625e+01,1.191414108276367188e+02
4.199999868869781494e-01,1.000000000000000000e+00,4.016282558441162109e+00,-6.468476772308349609e+00,4.313418388366699219e+00,-2.043188629150390625e+02,-9.631672668457031250e+01,-1.762938537597656250e+02,1.166222991943359375e+02,8.770228385925292969e+00,3.480780029296875000e+01,-1.537292938232421875e+02,6.622257232666015625e+01,1.191414108276367188e+02
4.239999949932098389e-01,1.000000000000000000e+00,3.951423645019531250e+00,-6.413740158081054688e+00,4.322103023529052734e+00,-2.042601928710937500e+02,-9.624294281005859375e+01,-1.762290802001953125e+02,1.166222991943359375e+02,8.770228385925292969e+00,3.480780029296875000e+01,-1.537292938232421875e+02,6.622257232666015625e+01,1.191414108276367188e+02
4.280000030994415283e-01,1.000000000000000000e+00,3.886568069458007812e+00,-6.359006404876708984e+00,4.330787658691406250e+00,-2.042015228271484375e+02,-9.616915893554687500e+01,-1.761642913818359375e+02,1.166222991943359375e+02,8.770228385925292969e+00,3.480780029296875000e+01,-1.537292938232421875e+02,6.622257232666015625e+01,1.191414108276367188e+02
4.320000112056732178e-01,1.000000000000000000e+00,3.821715116500854492e+00,-6.304275512695312500e+00,4.339471817016601562e+00,-2.041428680419921875e+02,-9.609538269042968750e+01,-1.760995330810546875e+02,1.166222991943359375e+02,8.770228385925292969e+00,3.480780029296875000e+01,-1.537292938232421875e+02,6.622257232666015625e+01,1.191414108276367188e+02
4.359999895095825195e-01,1.000000000000000000e+00,3.756865262985229492e+00,-6.249546527862548828e+00,4.348155021667480469e+00,-2.040841979980468750e+02,-9.602160644531250000e+01,-1.760347747802734375e+02,1.166222991943359375e+02,8.770228385925292969e+00,3.480780029296875000e+01,-1.537292938232421875e+02,6.622257232666015625e+01,1.191414108276367188e+02
4.399999976158142090e-01,1.000000000000000000e+00,3.692018747329711914e+00,-6.194819450378417969e+00,4.356838703155517578e+00,-2.040255432128906250e+02,-9.594783782958984375e+01,-1.759700012207031250e+02,1.166222991943359375e+02,8.770228385925292969e+00,3.480780029296875000e+01,-1.537292938232421875e+02,6.622257232666015625e+01,1.191414108276367188e+02
4.440000057220458984e-01,1.000000000000000000e+00,3.627175092697143555e+00,-6.140095233917236328e+00,4.365520954132080078e+00,-2.039668884277343750e+02,-9.587406921386718750e+01,-1.759052581787109375e+02,1.166222991943359375e+02,8.770228385925292969e+00,3.480780029296875000e+01,-1.537292938232421875e+02,6.622257232666015625e+01,1.191414108276367188e+02
4.480000138282775879e-01,1.000000000000000000e+00,3.562334060668945312e+00,-6.085372924804687500e+00,4.374203681945800781e+00,-2.039082183837890625e+02,-9.580030059814453125e+01,-1.758404998779296875e+02,1.166222991943359375e+02,8.770228385925292969e+00,3.480780029296875000e+01,-1.537292938232421875e+02,6.622257232666015625e+01,1.191414108276367188e+02
4.519999921321868896e-01,1.000000000000000000e+00,3.497496128082275391e+00,-6.030653476715087891e+00,4.382884979248046875e+00,-2.038495635986328125e+02,-9.572653961181640625e+01,-1.757757415771484375e+02,1.166222991943359375e+02,8.770228385925292969e+00,3.480780029296875000e+01,-1.537292938232421875e+02,6.622257232666015625e+01,1.191414108276367188e+02
4.560000002384185791e-01,1.000000000000000000e+00,3.432660818099975586e+00,-5.975936412811279297e+00,4.391566753387451172e+00,-2.037909240722656250e+02,-9.565278625488281250e+01,-1.757109832763671875e+02,1.166222991943359375e+02,8.770228385925292969e+00,3.480780029296875000e+01,-1.537292938232421875e+02,6.622257232666015625e+01,1.191414108276367188e+02
4.600000083446502686e-01,1.000000000000000000e+00,3.367828130722045898e+00,-5.921221256256103516e+00,4.400248050689697266e+00,-2.037322692871093750e+02,-9.557902526855468750e+01,-1.756462554931640625e+02,1.166222991943359375e+02,8.770228385925292969e+00,3.480780029296875000e+01,-1.537292938232421875e+02,6.622257232666015625e+01,1.191414108276367188e+02
4.639999866485595703e-01,1.000000000000000000e+00,3.302998304367065430e+00,-5.866508483886718750e+00,4.408928871154785156e+00,-2.036736145019531250e+02,-9.550527191162109375e+01,-1.755814971923828125e+02,1.166222991943359375e+02,8.770228385925292969e+00,3.480780029296875000e+01,-1.537292938232421875e+02,6.622257232666015625e+01,1.191414108276367188e+02
4.679999947547912598e-01,1.000000000000000000e+00,3.238171100616455078e+00,-5.811798095703125000e+00,4.417609691619873047e+00,-2.036149749755859375e+02,-9.543152618408203125e+01,-1.755167694091796875e+02,1.166222991943359375e+02,8.770228385925292969e+00,3.480780029296875000e+01,-1.537292938232421875e+02,6.622257232666015625e+01,1.191414108276367188e+02
4.720000028610229492e-01,1.000000000000000000e+00,3.173346757888793945e+00,-5.757089614868164062e+00,4.426290035247802734e+00,-2.035563354492187500e+02,-9.535777282714843750e+01,-1.754520263671875000e+02,1.166222991943359375e+02,8.770228385925292969e+00,3.480780029296875000e+01,-1.537292938232421875e+02,6.622257232666015625e+01,1.191414108276367188e+02
4.760000109672546387e-01,1.000000000000000000e+00,3.108524560928344727e+00,-5.702383518218994141e+00,4.434969902038574219e+00,-2.034976959228515625e+02,-9.528403472900390625e+01,-1.753872985839843750e+02,1.166222991943359375e+02,8.770228385925292969e+00,3.480780029296875000e+01,-1.537292938232421875e+02,6.622257232666015625e+01,1.191414108276367188e+02
4.799999892711639404e-01,1.000000000000000000e+00,3.043704986572265625e+00,-5.647679805755615234e+00,4.443649291992187500e+00,-2.034390563964843750e+02,-9.521029663085937500e+01,-1.753225555419921875e+02,1.166222991943359375e+02,8.770228385925292969e+00,3.480780029296875000e+01,-1.537292938232421875e+02,6.622257232666015625e+01,1.191414108276367188e+02
4.839999973773956299e-01,1.000000000000000000e+00,2.978888273239135742e+00,-5.592978000640869141e+00,4.452328681945800781e+00,-2.033804321289062500e+02,-9.513655853271484375e+01,-1.752578277587890625e+02,1.166222991943359375e+02,8.770228385925292969e+00,3.480780029296875000e+01,-1.537292938232421875e+02,6.622257232666015625e+01,1.191414108276367188e+02
4.880000054836273193e-01,1.000000000000000000e+00,2.914073467254638672e+00,-5.538278102874755859e+00,4.461007595062255859e+00,-2.033217926025390625e+02,-9.506282043457031250e+01,-1.751930999755859375e+02,1.166222991943359375e+02,8.770228385925292969e+00,3.480780029296875000e+01,-1.537292938232421875e+02,6.622257232666015625e+01,1.191414108276367188e+02
4.920000135898590088e-01,1.000000000000000000e+00,2.849261760711669922e+00,-5.483580589294433594e+00,4.469686031341552734e+00,-2.032631683349609375e+02,-9.498908996582031250e+01,-1.751283721923828125e+02,1.166222991943359375e+02,8.770228385925292969e+00,3.480780029296875000e+01,-1.537292938232421875e+02,6.622257232666015625e+01,1.191414108276367188e+02
4.959999918937683105e-01,1.000000000000000000e+00,2.784452199935913086e+00,-5.428884983062744141e+00,4.478364467620849609e+00,-2.032045440673828125e+02,-9.491535949707031250e+01,-1.750636444091796875e+02,1.166222991943359375e+02,8.770228385925292969e+00,3.480780029296875000e+01,-1.537292938232421875e+02,6.622257232666015625e+01,1.191414108276367188e+02
5.000000000000000000e-01,1.000000000000000000e+00,2.719645261764526367e+00,-5.374191284179687500e+00,4.487042427062988281e+00,-2.031459045410156250e+02,-9.484162902832031250e+01,-1.749989166259765625e+02,1.166222991943359375e+02,8.770228385925292969e+00,3.480780029296875000e+01,-1.537292938232421875e+02,6.622257232666015625e+01,1.191414108276367188e+02
5.040000081062316895e-01,1.000000000000000000e+00,2.654840230941772461e+00,-5.319499969482421875e+00,4.495720386505126953e+00,-2.030872802734375000e+02,-9.476790618896484375e+01,-1.749342041015625000e+02,1.166222991943359375e+02,8.770228385925292969e+00,3.480780029296875000e+01,-1.537292938232421875e+02,6.622257232666015625e+01,1.191414108276367188e+02
5.080000162124633789e-01,1.000000000000000000e+00,2.590037584304809570e+00,-5.264810085296630859e+00,4.504397392272949219e+00,-2.030286560058593750e+02,-9.469418334960937500e+01,-1.748694763183593750e+02,1.166222991943359375e+02,8.770228385925292969e+00,3.480780029296875000e+01,-1.537292938232421875e+02,6.622257232666015625e+01,1.191414108276367188e+02
5.120000243186950684e-01,1.000000000000000000e+00,2.525237560272216797e+00,-5.210122108459472656e+00,4.513074874877929688e+00,-2.029700469970703125e+02,-9.462046051025390625e+01,-1.748047790527343750e+02,1.166222991943359375e+02,8.770228385925292969e+00,3.480780029296875000e+01,-1.537292938232421875e+02,6.622257232666015625e+01,1.191414108276367188e+02
5.159999728202819824e-01,1.000000000000000000e+00,2.460439205169677734e+00,-5.155436038970947266e+00,4.521751880645751953e+00,-2.029114227294921875e+02,-9.454674530029296875e+01,-1.747400512695312500e+02,1.166222991943359375e+02,8.770228385925292969e+00,3.480780029296875000e+01,-1.537292938232421875e+02,6.622257232666015625e+01,1.191414108276367188e+02
5.199999809265136719e-01,1.000000000000000000e+00,2.395643472671508789e+00,-5.100751876831054688e+00,4.530428409576416016e+00,-2.028528137207031250e+02,-9.447303009033203125e+01,-1.746753387451171875e+02,1.166222991943359375e+02,8.770228385925292969e+00,3.480780029296875000e+01,-1.537292938232421875e+02,6.622257232666015625e+01,1.191414108276367188e+02
5.239999890327453613e-01,1.000000000000000000e+00,2.330849647521972656e+00,-5.046070098876953125e+00,4.539104461669921875e+00,-2.027941894531250000e+02,-9.439932250976562500e+01,-1.746106262207031250e+02,1.166222991943359375e+02,8.770228385925292969e+00,3.480780029296875000e+01,-1.537292938232421875e+02,6.622257232666015625e+01,1.191414108276367188e+02
5.279999971389770508e-01,1.000000000000000000e+00,2.266057968139648438e+00,-4.991389751434326172e+00,4.547780513763427734e+00,-2.027355804443359375e+02,-9.432560729980468750e+01,-1.745459289550781250e+02,1.166222991943359375e+02,8.770228385925292969e+00,3.480780029296875000e+01,-1.537292938232421875e+02,6.622257232666015625e+01,1.191414108276367188e+02
5.320000052452087402e-01,1.000000000000000000e+00,2.201268672943115234e+00,-4.936710834503173828e+00,4.556456089019775391e+00,-2.026769561767578125e+02,-9.425190734863281250e+01,-1.744812316894531250e+02,1.166222991943359375e+02,8.770228385925292969e+00,3.480780029296875000e+01,-1.537292938232421875e+02,6.622257232666015625e+01,1.191414108276367188e+02
5.360000133514404297e-01,1.000000000000000000e+00,2.136481285095214844e+00,-4.882033824920654297e+00,4.565131187438964844e+00,-2.026183624267578125e+02,-9.417819976806640625e+01,-1.744165191650390625e+02,1.166222991943359375e+02,8.770228385925292969e+00,3.480780029296875000e+01,-1.537292938232421875e+02,6.622257232666015625e+01,1.191414108276367188e+02
5.400000214576721191e-01,1.000000000000000000e+00,2.071696043014526367e+00,-4.827358722686767578e+00,4.573806285858154297e+00,-2.025597534179687500e+02,-9.410449981689453125e+01,-1.743518218994140625e+02,1.166222991943359375e+02,8.770228385925292969e+00,3.480780029296875000e+01,-1.537292938232421875e+02,6.622257232666015625e+01,1.191414108276367188e+02
5.440000295639038086e-01,1.000000000000000000e+00,2.006912946701049805e+00,-4.772685527801513672e+00,4.582480907440185547e+00,-2.025011444091796875e+02,-9.403079986572265625e+01,-1.742871246337890625e+02,1.166222991943359375e+02,8.770228385925292969e+00,3.480780029296875000e+01,-1.537292938232421875e+02,6.622257232666015625e+01,1.191414108276367188e+02
5.479999780654907227e-01,1.000000000000000000e+00,1.942132115364074707e+00,-4.718014240264892578e+00,4.591155529022216797e+00,-2.024425506591796875e+02,-9.395709991455078125e+01,-1.742224273681640625e+02,1.166222991943359375e+02,8.770228385925292969e+00,3.480780029296875000e+01,-1.537292938232421875e+02,6.622257232666015625e+01,1.191414108276367188e+02
5.519999861717224121e-01,1.000000000000000000e+00,1.877353072166442871e+00,-4.663344383239746094e+00,4.599829673767089844e+00,-2.023839416503906250e+02,-9.388339996337890625e+01,-1.741577301025390625e+02,1.166222991943359375e+02,8.770228385925292969e+00,3.480780029296875000e+01,-1.537292938232421875e+02,6.622257232666015625e+01,1.191414108276367188e+02
5.559999942779541016e-01,1.000000000000000000e+00,1.812576174736022949e+00,-4.608676433563232422e+00,4.608503818511962891e+00,-2.023253479003906250e+02,-9.380971527099609375e+01,-1.740930480957031250e+02,1.166222991943359375e+02,8.770228385925292969e+00,3.480780029296875000e+01,-1.537292938232421875e+02,6.622257232666015625e+01,1.191414108276367188e+02
5.600000023841857910e-01,1.000000000000000000e+00,1.747801423072814941e+00,-4.554010391235351562e+00,4.617177486419677734e+00,-2.022667388916015625e+02,-9.373602294921875000e+01,-1.740283508300781250e+02,1.166222991943359375e+02,8.770228385925292969e+00,3.480780029296875000e+01,-1.537292938232421875e+02,6.622257232666015625e+01,1.191414108276367188e+02
5.640000104904174805e-01,1.000000000000000000e+00,1.683028697967529297e+00,-4.499345779418945312e+00,4.625850677490234375e+00,-2.022081451416015625e+02,-9.366233062744140625e+01,-1.739636688232421875e+02,1.166222991943359375e+02,8.770228385925292969e+00,3.480780029296875000e+01,-1.537292938232421875e+02,6.622257232666015625e+01,1.191414108276367188e+02
5.680000185966491699e-01,1.000000000000000000e+00,1.618258118629455566e+00,-4.444683074951171875e+00,4.634523868560791016e+00,-2.021495666503906250e+02,-9.358864593505859375e+01,-1.738989868164062500e+02,1.166222991943359375e+02,8.770228385925292969e+00,3.480780029296875000e+01,-1.537292938232421875e+02,6.622257232666015625e+01,1.191414108276367188e+02
5.720000267028808594e-01,1.000000000000000000e+00,1.553489327430725098e+00,-4.390022277832031250e+00,4.643196582794189453e+00,-2.020909729003906250e+02,-9.351496124267578125e+01,-1.738342895507812500e+02,1.166222991943359375e+02,8.770228385925292969e+00,3.480780029296875000e+01,-1.537292938232421875e+02,6.622257232666015625e+01,1.191414108276367188e+02
5.759999752044677734e-01,1.000000000000000000e+00,1.488722681999206543e+00,-4.335362911224365234e+00,4.651869297027587891e+00,-2.020323638916015625e+02,-9.344127655029296875e+01,-1.737696075439453125e+02,1.166222991943359375e+02,8.770228385925292969e+00,3.480780029296875000e+01,-1.537292938232421875e+02,6.622257232666015625e+01,1.191414108276367188e+02
5.799999833106994629e-01,1.000000000000000000e+00,1.423957943916320801e+00,-4.280704975128173828e+00,4.660541534423828125e+00,-2.019737854003906250e+02,-9.336759948730468750e+01,-1.737049407958984375e+02,1.166222991943359375e+02,8.770228385925292969e+00,3.480780029296875000e+01,-1.537292938232421875e+02,6.622257232666015625e+01,1.191414108276367188e+02
5.839999914169311523e-01,1.000000000000000000e+00,1.359195232391357422e+00,-4.226048946380615234e+00,4.669213771820068359e+00,-2.019152069091796875e+02,-9.329392242431640625e+01,-1.736402587890625000e+02,1.166222991943359375e+02,8.770228385925292969e+00,3.480780029296875000e+01,-1.537292938232421875e+02,6.622257232666015625e+01,1.191414108276367188e+02
5.879999995231628418e-01,1.000000000000000000e+00,1.294434428215026855e+00,-4.171394824981689453e+00,4.677885532379150391e+00,-2.018566131591796875e+02,-9.322024536132812500e+01,-1.735755767822265625e+02,1.166222991943359375e+02,8.770228385925292969e+00,3.480780029296875000e+01,-1.537292938232421875e+02,6.622257232666015625e+01,1.191414108276367188e+02
5.920000076293945312e-01,1.000000000000000000e+00,1.229675531387329102e+00,-4.116742134094238281e+00,4.686556816101074219e+00,-2.017980346679687500e+02,-9.314657592773437500e+01,-1.735109100341796875e+02,1.166222991943359375e+02,8.770228385925292969e+00,3.480780029296875000e+01,-1.537292938232421875e+02,6.622257232666015625e+01,1.191414108276367188e+02
5.960000157356262207e-01,1.000000000000000000e+00,1.164918661117553711e+00,-4.062091350555419922e+00,4.695228099822998047e+00,-2.017394409179687500e+02,-9.307290649414062500e+01,-1.734462280273437500e+02,1.166222991943359375e+02,8.770228385925292969e+00,3.480780029296875000e+01,-1.537292938232421875e+02,6.622257232666015625e+01,1.191414108276367188e+02
6.000000238418579102e-01,1.000000000000000000e+00,1.100163817405700684e+00,-4.007441520690917969e+00,4.703899383544921875e+00,-2.016808776855468750e+02,-9.299924468994140625e+01,-1.733815612792968750e+02,1.166222991943359375e+02,8.770228385925292969e+00,3.480780029296875000e+01,-1.537292938232421875e+02,6.622257232666015625e+01,1.191414108276367188e+02
6.039999723434448242e-01,1.000000000000000000e+00,1.035410642623901367e+00,-3.952794075012207031e+00,4.712570190429687500e+00,-2.016222991943359375e+02,-9.292557525634765625e+01,-1.733168945312500000e+02,1.166222991943359375e+02,8.770228385925292969e+00,3.480780029296875000e+01,-1.537292938232421875e+02,6.622257232666015625e+01,1.191414108276367188e+02
6.079999804496765137e-01,1.000000000000000000e+00,9.706595540046691895e-01,-3.898147821426391602e+00,4.721240520477294922e+00,-2.015637207031250000e+02,-9.285190582275390625e+01,-1.732522277832031250e+02,1.166222991943359375e+02,8.770228385925292969e+00,3.480780029296875000e+01,-1.537292938232421875e+02,6.622257232666015625e+01,1.191414108276367188e+02
6.119999885559082031e-01,1.000000000000000000e+00,9.059103131294250488e-01,-3.843503236770629883e+00,4.729910850524902344e+00,-2.015051422119140625e+02,-9.277825164794921875e+01,-1.731875610351562500e+02,1.166222991943359375e+02,8.770228385925292969e+00,3.480780029296875000e+01,-1.537292938232421875e+02,6.622257232666015625e+01,1.191414108276367188e+02
6.159999966621398926e-01,1.000000000000000000e+00,8.411628603935241699e-01,-3.788860082626342773e+00,4.738580703735351562e+00,-2.014465637207031250e+02,-9.270458984375000000e+01,-1.731228942871093750e+02,1.166222991943359375e+02,8.770228385925292969e+00,3.480780029296875000e+01,-1.537292938232421875e+02,6.622257232666015625e+01,1.191414108276367188e+02
6.200000047683715820e-01,1.000000000000000000e+00,7.764173150062561035e-01,-3.734219074249267578e+00,4.747250556945800781e+00,-2.013880004882812500e+02,-9.263092803955078125e+01,-1.730582427978515625e+02,1.166222991943359375e+02,8.770228385925292969e+00,3.480780029296875000e+01,-1.537292938232421875e+02,6.622257232666015625e+01,1.191414108276367188e+02
6.240000128746032715e-01,1.000000000000000000e+00,7.116736769676208496e-01,-3.679578781127929688e+00,4.755919933319091797e+00,-2.013294372558593750e+02,-9.255727386474609375e+01,-1.729935913085937500e+02,1.166222991943359375e+02,8.770228385925292969e+00,3.480780029296875000e+01,-1.537292938232421875e+02,6.622257232666015625e+01,1.191414108276367188e+02
6.280000209808349609e-01,1.000000000000000000e+00,6.469317674636840820e-01,-3.624940633773803711e+00,4.764589309692382812e+00,-2.012708740234375000e+02,-9.248362731933593750e+01,-1.729289245605468750e+02,1.166222991943359375e+02,8.770228385925292969e+00,3.480780029296875000e+01,-1.537292938232421875e+02,6.622257232666015625e+01,1.191414108276367188e+02
6.320000290870666504e-01,1.000000000000000000e+00,5.821917057037353516e-01,-3.570304155349731445e+00,4.773258209228515625e+00,-2.012122955322265625e+02,-9.240997314453125000e+01,-1.728642578125000000e+02,1.166222991943359375e+02,8.770228385925292969e+00,3.480780029296875000e+01,-1.537292938232421875e+02,6.622257232666015625e+01,1.191414108276367188e+02
6.359999775886535645e-01,1.000000000000000000e+00,5.174535512924194336e-01,-3.515668630599975586e+00,4.781927108764648438e+00,-2.011537322998046875e+02,-9.233632659912109375e+01,-1.727996215820312500e+02,1.166222991943359375e+02,8.770228385925292969e+00,3.480780029296875000e+01,-1.537292938232421875e+02,6.622257232666015625e+01,1.191414108276367188e+02
6.399999856948852539e-01,1.000000000000000000e+00,4.527170956134796143e-01,-3.461035013198852539e+00,4.790595054626464844e+00,-2.010951690673828125e+02,-9.226268005371093750e+01,-1.727349700927734375e+02,1.166222991943359375e+02,8.770228385925292969e+00,3.480780029296875000e+01,-1.537292938232421875e+02,6.622257232666015625e+01,1.191414108276367188e+02
6.439999938011169434e-01,1.000000000000000000e+00,3.879824578762054443e-01,-3.406403064727783203e+00,4.799263477325439453e+00,-2.010366058349609375e+02,-9.218903350830078125e+01,-1.726703186035156250e+02,1.166222991943359375e+02,8.770228385925292969e+00,3.480780029296875000e+01,-1.537292938232421875e+02,6.622257232666015625e+01,1.191414108276367188e+02
6.480000019073486328e-01,1.000000000000000000e+00,3.232495486736297607e-01,-3.351772308349609375e+00,4.807931423187255859e+00,-2.009780426025390625e+02,-9.211538696289062500e+01,-1.726056671142578125e+02,1.166222991943359375e+02,8.770228385925292969e+00,3.480780029296875000e+01,-1.537292938232421875e+02,6.622257232666015625e+01,1.191414108276367188e+02
6.520000100135803223e-01,1.000000000000000000e+00,2.585183978080749512e-01,-3.297142982482910156e+00,4.816599369049072266e+00,-2.009194946289062500e+02,-9.204175567626953125e+01,-1.725410156250000000e+02,1.166222991943359375e+02,8.770228385925292969e+00,3.480780029296875000e+01,-1.537292938232421875e+02,6.622257232666015625e+01,1.191414108276367188e+02
6.560000181198120117e-01,1.000000000000000000e+00,1.937890052795410156e-01,-3.242515325546264648e+00,4.825266838073730469e+00,-2.008609313964843750e+02,-9.196810913085937500e+01,-1.724763793945312500e+02,1.166222991943359375e+02,8.770228385925292969e+00,3.480780029296875000e+01,-1.537292938232421875e+02,6.622257232666015625e+01,1.191414108276367188e+02
6.600000262260437012e-01,1.000000000000000000e+00,1.290613561868667603e-01,-3.187889337539672852e+00,4.833934307098388672e+00,-2.008023834228515625e+02,-9.189447021484375000e+01,-1.724117279052734375e+02,1.166222991943359375e+02,8.770228385925292969e+00,3.480780029296875000e+01,-1.537292938232421875e+02,6.622257232666015625e+01,1.191414108276367188e+02
6.639999747276306152e-01,1.000000000000000000e+00,6.433542072772979736e-02,-3.133264303207397461e+00,4.842601776123046875e+00,-2.007438201904296875e+02,-9.182084655761718750e+01,-1.723470916748046875e+02,1.166222991943359375e+02,8.770228385925292969e+00,3.480780029296875000e+01,-1.537292938232421875e+02,6.622257232666015625e+01,1.191414108276367188e+02
6.679999828338623047e-01,1.000000000000000000e+00,-3.888174542225897312e-04,-3.078641176223754883e+00,4.851268291473388672e+00,-2.006852722167968750e+02,-9.174720764160156250e+01,-1.722824554443359375e+02,1.166222991943359375e+02,8.770228385925292969e+00,3.480780029296875000e+01,-1.537292938232421875e+02,6.622257232666015625e+01,1.191414108276367188e+02
6.719999909400939941e-01,1.000000000000000000e+00,-6.511137634515762329e-02,-3.024019002914428711e+00,4.859934806823730469e+00,-2.006267242431640625e+02,-9.167357635498046875e+01,-1.722178192138671875e+02,1.166222991943359375e+02,8.770228385925292969e+00,3.480780029296875000e+01,-1.537292938232421875e+02,6.622257232666015625e+01,1.191414108276367188e+02
6.759999990463256836e-01,1.000000000000000000e+00,-1.298322528600692749e-01,-2.969398736953735352e+00,4.868601799011230469e+00,-2.005681762695312500e+02,-9.159994506835937500e+01,-1.721531829833984375e+02,1.166222991943359375e+02,8.770228385925292969e+00,3.480780029296875000e+01,-1.537292938232421875e+02,6.622257232666015625e+01,1.191414108276367188e+02
6.800000071525573730e-01,1.000000000000000000e+00,-1.945514529943466187e-01,-2.914779663085937500e+00,4.877267360687255859e+00,-2.005096282958984375e+02,-9.152632141113281250e+01,-1.720885467529296875e+02,1.166222991943359375e+02,8.770228385925292969e+00,3.480780029296875000e+01,-1.537292938232421875e+02,6.622257232666015625e+01,1.191414108276367188e+02
6.840000152587890625e-01,1.000000000000000000e+00,-2.592690289020538330e-01,-2.860162019729614258e+00,4.885933399200439453e+00,-2.004510803222656250e+02,-9.145269775390625000e+01,-1.720239105224609375e+02,1.166222991943359375e+02,8.770228385925292969e+00,3.480780029296875000e+01,-1.537292938232421875e+02,6.622257232666015625e+01,1.191414108276367188e+02
6.880000233650207520e-01,1.000000000000000000e+00,-3.239849209785461426e-01,-2.805545806884765625e+00,4.894599437713623047e+00,-2.003925476074218750e+02,-9.137907409667968750e+01,-1.719592895507812500e+02,1.166222991943359375e+02,8.770228385925292969e+00,3.480780029296875000e+01,-1.537292938232421875e+02,6.622257232666015625e+01,1.191414108276367188e+02
6.919999718666076660e-01,1.000000000000000000e+00,-3.886992037296295166e-01,-2.750930786132812500e+00,4.903264999389648438e+00,-2.003339996337890625e+02,-9.130545043945312500e+01,-1.718946533203125000e+02,1.166222991943359375e+02,8.770228385925292969e+00,3.480780029296875000e+01,-1.537292938232421875e+02,6.622257232666015625e+01,1.191414108276367188e+02
6.959999799728393555e-01,1.000000000000000000e+00,-4.534119069576263428e-01,-2.696317195892333984e+00,4.911930084228515625e+00,-2.002754669189453125e+02,-9.123182678222656250e+01,-1.718300170898437500e+02,1.166222991943359375e+02,8.770228385925292969e+00,3.480780029296875000e+01,-1.537292938232421875e+02,6.622257232666015625e+01,1.191414108276367188e+02
6.999999880790710449e-01,1.000000000000000000e+00,-5.181230306625366211e-01,-2.641705274581909180e+00,4.920595169067382812e+00,-2.002169189453125000e+02,-9.115821075439453125e+01,-1.717653961181640625e+02,1.166222991943359375e+02,8.770228385925292969e+00,3.480780029296875000e+01,-1.537292938232421875e+02,6.622257232666015625e+01,1.191414108276367188e+02
7.039999961853027344e-01,1.000000000000000000e+00,-5.828324556350708008e-01,-2.587094545364379883e+00,4.929260253906250000e+00,-2.001583862304687500e+02,-9.108459472656250000e+01,-1.717007751464843750e+02,1.166222991943359375e+02,8.770228385925292969e+00,3.480780029296875000e+01,-1.537292938232421875e+02,6.622257232666015625e+01,1.191414108276367188e+02
7.080000042915344238e-01,1.000000000000000000e+00,-6.475403904914855957e-01,-2.532485008239746094e+00,4.937924385070800781e+00,-2.000998535156250000e+02,-9.101097869873046875e+01,-1.716361541748046875e+02,1.166222991943359375e+02,8.770228385925292969e+00,3.480780029296875000e+01,-1.537292938232421875e+02,6.622257232666015625e+01,1.191414108276367188e+02
7.120000123977661133e-01,1.000000000000000000e+00,-7.122467160224914551e-01,-2.477876663208007812e+00,4.946588993072509766e+00,-2.000413055419921875e+02,-9.093737030029296875e+01,-1.715715332031250000e+02,1.166222991943359375e+02,8.770228385925292969e+00,3.480780029296875000e+01,-1.537292938232421875e+02,6.622257232666015625e+01,1.191414108276367188e+02
7.160000205039978027e-01,1.000000000000000000e+00,-7.769516110420227051e-01,-2.423269987106323242e+00,4.955253601074218750e+00,-1.999827728271484375e+02,-9.086376190185546875e+01,-1.715069122314453125e+02,1.166222991943359375e+02,8.770228385925292969e+00,3.480780029296875000e+01,-1.537292938232421875e+02,6.622257232666015625e+01,1.191414108276367188e+02
7.200000286102294922e-01,1.000000000000000000e+00,-8.416548371315002441e-01,-2.368664503097534180e+00,4.963917255401611328e+00,-1.999242401123046875e+02,-9.079015350341796875e+01,-1.714423065185546875e+02,1.166222991943359375e+02,8.770228385925292969e+00,3.480780029296875000e+01,-1.537292938232421875e+02,6.622257232666015625e+01,1.191414108276367188e+02
7.239999771118164062e-01,1.000000000000000000e+00,-9.063566327095031738e-01,-2.314060211181640625e+00,4.972581386566162109e+00,-1.998657226562500000e+02,-9.071654510498046875e+01,-1.713776702880859375e+02,1.166222991943359375e+02,8.770228385925292969e+00,3.480780029296875000e+01,-1.537292938232421875e+02,6.622257232666015625e+01,1.191414108276367188e+02
7.279999852180480957e-01,1.000000000000000000e+00,-9.710568785667419434e-01,-2.259457349777221680e+00,4.981245040893554688e+00,-1.998071899414062500e+02,-9.064294433593750000e+01,-1.713130645751953125e+02,1.166222991943359375e+02,8.770228385925292969e+00,3.480780029296875000e+01,-1.537292938232421875e+02,6.622257232666015625e+01,1.191414108276367188e+02
7.319999933242797852e-01,1.000000000000000000e+00,-1.035755634307861328e+00,-2.204855680465698242e+00,4.989908218383789062e+00,-1.997486572265625000e+02,-9.056933593750000000e+01,-1.712484436035156250e+02,1.166222991943359375e+02,8.770228385925292969e+00,3.480780029296875000e+01,-1.537292938232421875e+02,6.622257232666015625e+01,1.191414108276367188e+02
7.360000014305114746e-01,1.000000000000000000e+00,-1.100452899932861328e+00,-2.150255203247070312e+00,4.998571395874023438e+00,-1.996901245117187500e+02,-9.049573516845703125e+01,-1.711838378906250000e+02,1.166222991943359375e+02,8.770228385925292969e+00,3.480780029296875000e+01,-1.537292938232421875e+02,6.622257232666015625e+01,1.191414108276367188e+02
7.400000095367431641e-01,1.000000000000000000e+00,-1.165148615837097168e+00,-2.095655918121337891e+00,5.007234573364257812e+00,-1.996316070556640625e+02,-9.042213439941406250e+01,-1.711192321777343750e+02,1.166222991943359375e+02,8.770228385925292969e+00,3.480780029296875000e+01,-1.537292938232421875e+02,6.622257232666015625e+01,1.191414108276367188e+02
7.440000176429748535e-01,1.000000000000000000e+00,-1.229843020439147949e+00,-2.041058301925659180e+00,5.015897750854492188e+00,-1.995730743408203125e+02,-9.034853363037109375e+01,-1.710546112060546875e+02,1.166222991943359375e+02,8.770228385925292969e+00,3.480780029296875000e+01,-1.537292938232421875e+02,6.622257232666015625e+01,1.191414108276367188e+02
7.480000257492065430e-01,1.000000000000000000e+00,-1.294535875320434570e+00,-1.986461520195007324e+00,5.024559974670410156e+00,-1.995145568847656250e+02,-9.027494049072265625e+01,-1.709900054931640625e+02,1.166222991943359375e+02,8.770228385925292969e+00,3.480780029296875000e+01,-1.537292938232421875e+02,6.622257232666015625e+01,1.191414108276367188e+02
7.519999742507934570e-01,1.000000000000000000e+00,-1.359227299690246582e+00,-1.931865930557250977e+00,5.033222198486328125e+00,-1.994560394287109375e+02,-9.020134735107421875e+01,-1.709253997802734375e+02,1.166222991943359375e+02,8.770228385925292969e+00,3.480780029296875000e+01,-1.537292938232421875e+02,6.622257232666015625e+01,1.191414108276367188e+02
7.559999823570251465e-01,1.000000000000000000e+00,-1.423917412757873535e+00,-1.877271533012390137e+00,5.041884899139404297e+00,-1.993975067138671875e+02,-9.012774658203125000e+01,-1.708608093261718750e+02,1.166222991943359375e+02,8.770228385925292969e+00,3.480780029296875000e+01,-1.537292938232421875e+02,6.622257232666015625e+01,1.191414108276367188e+02
7.599999904632568359e-01,1.000000000000000000e+00,-1.488605856895446777e+00,-1.822678446769714355e+00,5.050546646118164062e+00,-1.993390045166015625e+02,-9.005416107177734375e+01,-1.707961883544921875e+02,1.166222991943359375e+02,8.770228385925292969e+00,3.480780029296875000e+01,-1.537292938232421875e+02,6.622257232666015625e+01,1.191414108276367188e+02
7.639999985694885254e-01,1.000000000000000000e+00,-1.553293108940124512e+00,-1.768086671829223633e+00,5.059208869934082031e+00,-1.992804870605468750e+02,-8.998056793212890625e+01,-1.707315979003906250e+02,1.166222991943359375e+02,8.770228385925292969e+00,3.480780029296875000e+01,-1.537292938232421875e+02,6.622257232666015625e+01,1.191414108276367188e+02
7.680000066757202148e-01,1.000000000000000000e+00,-1.617978930473327637e+00,-1.713495969772338867e+00,5.067870616912841797e+00,-1.992219696044921875e+02,-8.990697479248046875e+01,-1.706669921875000000e+02,1.166222991943359375e+02,8.770228385925292969e+00,3.480780029296875000e+01,-1.537292938232421875e+02,6.622257232666015625e+01,1.191414108276367188e+02
7.720000147819519043e-01,1.000000000000000000e+00,-1.682663440704345703e+00,-1.658906698226928711e+00,5.076532363891601562e+00,-1.991634521484375000e+02,-8.983339691162109375e+01,-1.706023864746093750e+02,1.166222991943359375e+02,8.770228385925292969e+00,3.480780029296875000e+01,-1.537292938232421875e+02,6.622257232666015625e+01,1.191414108276367188e+02
7.760000228881835938e-01,1.000000000000000000e+00,-1.747346878051757812e+00,-1.604318737983703613e+00,5.085193634033203125e+00,-1.991049346923828125e+02,-8.975980377197265625e+01,-1.705377960205078125e+02,1.166222991943359375e+02,8.770228385925292969e+00,3.480780029296875000e+01,-1.537292938232421875e+02,6.622257232666015625e+01,1.191414108276367188e+02
7.799999713897705078e-01,1.000000000000000000e+00,-1.812029361724853516e+00,-1.549732208251953125e+00,5.093855381011962891e+00,-1.990464324951171875e+02,-8.968622589111328125e+01,-1.704732055664062500e+02,1.166222991943359375e+02,8.770228385925292969e+00,3.480780029296875000e+01,-1.537292938232421875e+02,6.622257232666015625e+01,1.191414108276367188e+02
7.839999794960021973e-01,1.000000000000000000e+00,-1.876710653305053711e+00,-1.495146512985229492e+00,5.102516174316406250e+00,-1.989878997802734375e+02,-8.961263275146484375e+01,-1.704085998535156250e+02,1.166222991943359375e+02,8.770228385925292969e+00,3.480780029296875000e+01,-1.537292938232421875e+02,6.622257232666015625e+01,1.191414108276367188e+02
7.879999876022338867e-01,1.000000000000000000e+00,-1.941390633583068848e+00,-1.440561532974243164e+00,5.111177444458007812e+00,-1.989293975830078125e+02,-8.953905487060546875e+01,-1.703440093994140625e+02,1.166222991943359375e+02,8.770228385925292969e+00,3.480780029296875000e+01,-1.537292938232421875e+02,6.622257232666015625e+01,1.191414108276367188e+02
7.919999957084655762e-01,1.000000000000000000e+00,-2.006068944931030273e+00,-1.385977029800415039e+00,5.119837760925292969e+00,-1.988708953857421875e+02,-8.946547698974609375e+01,-1.702794189453125000e+02,1.166222991943359375e+02,8.770228385925292969e+00,3.480780029296875000e+01,-1.537292938232421875e+02,6.622257232666015625e+01,1.191414108276367188e+02
7.960000038146972656e-01,1.000000000000000000e+00,-2.070745944976806641e+00,-1.331393122673034668e+00,5.128498554229736328e+00,-1.988123779296875000e+02,-8.939189910888671875e+01,-1.702148284912109375e+02,1.166222991943359375e+02,8.770228385925292969e+00,3.480780029296875000e+01,-1.537292938232421875e+02,6.622257232666015625e+01,1.191414108276367188e+02
8.000000119209289551e-01,1.000000000000000000e+00,-2.135421752929687500e+00,-1.276810407638549805e+00,5.137158870697021484e+00,-1.987538757324218750e+02,-8.931832122802734375e+01,-1.701502380371093750e+02,1.166222991943359375e+02,8.770228385925292969e+00,3.480780029296875000e+01,-1.537292938232421875e+02,6.622257232666015625e+01,1.191414108276367188e+02
8.040000200271606445e-01,1.000000000000000000e+00,-2.200096368789672852e+00,-1.222228765487670898e+00,5.145818710327148438e+00,-1.986953735351562500e+02,-8.924475097656250000e+01,-1.700856475830078125e+02,1.166222991943359375e+02,8.770228385925292969e+00,3.480780029296875000e+01,-1.537292938232421875e+02,6.622257232666015625e+01,1.191414108276367188e+02
8.080000281333923340e-01,1.000000000000000000e+00,-2.264770030975341797e+00,-1.167648196220397949e+00,5.154478549957275391e+00,-1.986368560791015625e+02,-8.917117309570312500e+01,-1.700210571289062500e+02,1.166222991943359375e+02,8.770228385925292969e+00,3.480780029296875000e+01,-1.537292938232421875e+02,6.622257232666015625e+01,1.191414108276367188e+02
8.119999766349792480e-01,1.000000000000000000e+00,-2.329442262649536133e+00,-1.113068461418151855e+00,5.163138389587402344e+00,-1.985783691406250000e+02,-8.909759521484375000e+01,-1.699564666748046875e+02,1.166222991943359375e+02,8.770228385925292969e+00,3.480780029296875000e+01,-1.537292938232421875e+02,6.622257232666015625e+01,1.191414108276367188e+02
8.159999847412109375e-01,1.000000000000000000e+00,-2.394113779067993164e+00,-1.058489799499511719e+00,5.171798229217529297e+00,-1.985198669433593750e+02,-8.902403259277343750e+01,-1.698918914794921875e+02,1.166222991943359375e+02,8.770228385925292969e+00,3.480780029296875000e+01,-1.537292938232421875e+02,6.622257232666015625e+01,1.191414108276367188e+02
8.199999928474426270e-01,1.000000000000000000e+00,-2.458783864974975586e+00,-1.003911852836608887e+00,5.180458068847656250e+00,-1.984613494873046875e+02,-8.895045471191406250e+01,-1.698273010253906250e+02,1.166222991943359375e+02,8.770228385925292969e+00,3.480780029296875000e+01,-1.537292938232421875e+02,6.622257232666015625e+01,1.191414108276367188e+02
8.240000009536743164e-01,1.000000000000000000e+00,-2.523452997207641602e+00,-9.493349194526672363e-01,5.189117431640625000e+00,-1.984028625488281250e+02,-8.887688446044921875e+01,-1.697627105712890625e+02,1.166222991943359375e+02,8.770228385925292969e+00,3.480780029296875000e+01,-1.537292938232421875e+02,6.622257232666015625e+01,1.191414108276367188e+02
8.280000090599060059e-01,1.000000000000000000e+00,-2.588121175765991211e+00,-8.947588801383972168e-01,5.197776794433593750e+00,-1.983443450927734375e+02,-8.880332183837890625e+01,-1.696981353759765625e+02,1.166222991943359375e+02,8.770228385925292969e+00,3.480780029296875000e+01,-1.537292938232421875e+02,6.622257232666015625e+01,1.191414108276367188e+02
8.320000171661376953e-01,1.000000000000000000e+00,-2.652787923812866211e+00,-8.401837348937988281e-01,5.206436634063720703e+00,-1.982858581542968750e+02,-8.872975158691406250e+01,-1.696335601806640625e+02,1.166222991943359375e+02,8.770228385925292969e+00,3.480780029296875000e+01,-1.537292938232421875e+02,6.622257232666015625e+01,1.191414108276367188e+02
8.360000252723693848e-01,1.000000000000000000e+00,-2.717453718185424805e+00,-7.856094241142272949e-01,5.215095996856689453e+00,-1.982273559570312500e+02,-8.865618133544921875e+01,-1.695689697265625000e+02,1.166222991943359375e+02,8.770228385925292969e+00,3.480780029296875000e+01,-1.537292938232421875e+02,6.622257232666015625e+01,1.191414108276367188e+02
8.399999737739562988e-01,1.000000000000000000e+00,-2.782118320465087891e+00,-7.310360074043273926e-01,5.223754882812500000e+00,-1.981688537597656250e+02,-8.858261871337890625e+01,-1.695043945312500000e+02,1.166222991943359375e+02,8.770228385925292969e+00,3.480780029296875000e+01,-1.537292938232421875e+02,6.622257232666015625e+01,1.191414108276367188e+02
8.439999818801879883e-01,1.000000000000000000e+00,-2.846781969070434570e+00,-6.764634847640991211e-01,5.232413768768310547e+00,-1.981103668212890625e+02,-8.850905609130859375e+01,-1.694398040771484375e+02,1.166222991943359375e+02,8.770228385925292969e+00,3.480780029296875000e+01,-1.537292938232421875e+02,6.622257232666015625e+01,1.191414108276367188e+02
8.479999899864196777e-01,1.000000000000000000e+00,-2.911444425582885742e+00,-6.218917965888977051e-01,5.241072177886962891e+00,-1.980518646240234375e+02,-8.843548583984375000e+01,-1.693752441406250000e+02,1.166222991943359375e+02,8.770228385925292969e+00,3.480780029296875000e+01,-1.537292938232421875e+02,6.622257232666015625e+01,1.191414108276367188e+02
8.519999980926513672e-01,1.000000000000000000e+00,-2.976105690002441406e+00,-5.673210024833679199e-01,5.249731063842773438e+00,-1.979933776855468750e+02,-8.836192321777343750e+01,-1.693106536865234375e+02,1.166222991943359375e+02,8.770228385925292969e+00,3.480780029296875000e+01,-1.537292938232421875e+02,6.622257232666015625e+01,1.191414108276367188e+02
8.560000061988830566e-01,1.000000000000000000e+00,-3.040766000747680664e+00,-5.127509832382202148e-01,5.258389949798583984e+00,-1.979348754882812500e+02,-8.828836822509765625e+01,-1.692460784912109375e+02,1.166222991943359375e+02,8.770228385925292969e+00,3.480780029296875000e+01,-1.537292938232421875e+02,6.622257232666015625e+01,1.191414108276367188e+02
8.600000143051147461e-01,1.000000000000000000e+00,-3.105425596237182617e+00,-4.581817984580993652e-01,5.267048358917236328e+00,-1.978763732910156250e+02,-8.821480560302734375e+01,-1.691815032958984375e+02,1.166222991943359375e+02,8.770228385925292969e+00,3.480780029296875000e+01,-1.537292938232421875e+02,6.622257232666015625e+01,1.191414108276367188e+02
8.640000224113464355e-01,1.000000000000000000e+00,-3.170083999633789062e+00,-4.036133885383605957e-01,5.275706291198730469e+00,-1.978178863525390625e+02,-8.814124298095703125e+01,-1.691169281005859375e+02,1.166222991943359375e+02,8.770228385925292969e+00,3.480780029296875000e+01,-1.537292938232421875e+02,6.622257232666015625e+01,1.191414108276367188e+02
8.679999709129333496e-01,1.000000000000000000e+00,-3.234741449356079102e+00,-3.490458428859710693e-01,5.284364700317382812e+00,-1.977593994140625000e+02,-8.806768798828125000e+01,-1.690523681640625000e+02,1.166222991943359375e+02,8.770228385925292969e+00,3.480780029296875000e+01,-1.537292938232421875e+02,6.622257232666015625e+01,1.191414108276367188e+02
8.719999790191650391e-01,1.000000000000000000e+00,-3.299397945404052734e+00,-2.944791018962860107e-01,5.293022632598876953e+00,-1.977009124755859375e+02,-8.799413299560546875e+01,-1.689877929687500000e+02,1.166222991943359375e+02,8.770228385925292969e+00,3.480780029296875000e+01,-1.537292938232421875e+02,6.622257232666015625e+01,1.191414108276367188e+02
8.759999871253967285e-01,1.000000000000000000e+00,-3.364053249359130859e+00,-2.399132847785949707e-01,5.301681041717529297e+00,-1.976424102783203125e+02,-8.792057037353515625e+01,-1.689232177734375000e+02,1.166222991943359375e+02,8.770228385925292969e+00,3.480780029296875000e+01,-1.537292938232421875e+02,6.622257232666015625e+01,1.191414108276367188e+02
8.799999952316284180e-01,1.000000000000000000e+00,-3.428707599639892578e+00,-1.853483319282531738e-01,5.310338497161865234e+00,-1.975839233398437500e+02,-8.784701538085937500e+01,-1.688586425781250000e+02,1.166222991943359375e+02,8.770228385925292969e+00,3.480780029296875000e+01,-1.537292938232421875e+02,6.622257232666015625e+01,1.191414108276367188e+02
8.840000033378601074e-01,1.000000000000000000e+00,-3.493360757827758789e+00,-1.307843178510665894e-01,5.318996429443359375e+00,-1.975254364013671875e+02,-8.777346801757812500e+01,-1.687940673828125000e+02,1.166222991943359375e+02,8.770228385925292969e+00,3.480780029296875000e+01,-1.537292938232421875e+02,6.622257232666015625e+01,1.191414108276367188e+02
8.880000114440917969e-01,1.000000000000000000e+00,-3.558012962341308594e+00,-7.622122764587402344e-02,5.327653884887695312e+00,-1.974669494628906250e+02,-8.769991302490234375e+01,-1.687294921875000000e+02,1.166222991943359375e+02,8.770228385925292969e+00,3.480780029296875000e+01,-1.537292938232421875e+02,6.622257232666015625e+01,1.191414108276367188e+02
8.920000195503234863e-01,1.000000000000000000e+00,-3.622663736343383789e+00,-2.165909484028816223e-02,5.336311340332031250e+00,-1.974084625244140625e+02,-8.762636566162109375e+01,-1.686649322509765625e+02,1.166222991943359375e+02,8.770228385925292969e+00,3.480780029296875000e+01,-1.537292938232421875e+02,6.622257232666015625e+01,1.191414108276367188e+02
8.960000276565551758e-01,1.000000000000000000e+00,-3.687313556671142578e+00,3.290206566452980042e-02,5.344968318939208984e+00,-1.973499755859375000e+02,-8.755281829833984375e+01,-1.686003723144531250e+02,1.166222991943359375e+02,8.770228385925292969e+00,3.480780029296875000e+01,-1.537292938232421875e+02,6.622257232666015625e+01,1.191414108276367188e+02
8.999999761581420898e-01,1.000000000000000000e+00,-3.751962661743164062e+00,8.746222406625747681e-02,5.353625297546386719e+00,-1.972914886474609375e+02,-8.747927093505859375e+01,-1.685358123779296875e+02,1.166222991943359375e+02,8.770228385925292969e+00,3.480780029296875000e+01,-1.537292938232421875e+02,6.622257232666015625e+01,1.191414108276367188e+02
9.039999842643737793e-01,1.000000000000000000e+00,-3.816609859466552734e+00,1.420213729143142700e-01,5.362282276153564453e+00,-1.972330169677734375e+02,-8.740572357177734375e+01,-1.684712371826171875e+02,1.166222991943359375e+02,8.770228385925292969e+00,3.480780029296875000e+01,-1.537292938232421875e+02,6.622257232666015625e+01,1.191414108276367188e+02
9.079999923706054688e-01,1.000000000000000000e+00,-3.881255865097045898e+00,1.965795010328292847e-01,5.370938777923583984e+00,-1.971745300292968750e+02,-8.733217620849609375e+01,-1.684066772460937500e+02,1.166222991943359375e+02,8.770228385925292969e+00,3.480780029296875000e+01,-1.537292938232421875e+02,6.622257232666015625e+01,1.191414108276367188e+02
9.120000004768371582e-01,1.000000000000000000e+00,-3.945901155471801758e+00,2.511365711688995361e-01,5.379595279693603516e+00,-1.971160583496093750e+02,-8.725862884521484375e+01,-1.683421173095703125e+02,1.166222991943359375e+02,8.770228385925292969e+00,3.480780029296875000e+01,-1.537292938232421875e+02,6.622257232666015625e+01,1.191414108276367188e+02
9.160000085830688477e-01,1.000000000000000000e+00,-4.010544776916503906e+00,3.056925237178802490e-01,5.388251781463623047e+00,-1.970575714111328125e+02,-8.718508148193359375e+01,-1.682775573730468750e+02,1.166222991943359375e+02,8.770228385925292969e+00,3.480780029296875000e+01,-1.537292938232421875e+02,6.622257232666015625e+01,1.191414108276367188e+02
9.200000166893005371e-01,1.000000000000000000e+00,-4.075187206268310547e+00,3.602474331855773926e-01,5.396907806396484375e+00,-1.969990844726562500e+02,-8.711154174804687500e+01,-1.682129974365234375e+02,1.166222991943359375e+02,8.770228385925292969e+00,3.480780029296875000e+01,-1.537292938232421875e+02,6.622257232666015625e+01,1.191414108276367188e+02
9.240000247955322266e-01,1.000000000000000000e+00,-4.139828681945800781e+00,4.148012101650238037e-01,5.405563831329345703e+00,-1.969406127929687500e+02,-8.703800201416015625e+01,-1.681484375000000000e+02,1.166222991943359375e+02,8.770228385925292969e+00,3.480780029296875000e+01,-1.537292938232421875e+02,6.622257232666015625e+01,1.191414108276367188e+02
9.279999732971191406e-01,1.000000000000000000e+00,-4.204468250274658203e+00,4.693538546562194824e-01,5.414219856262207031e+00,-1.968821258544921875e+02,-8.696446990966796875e+01,-1.680838775634765625e+02,1.166222991943359375e+02,8.770228385925292969e+00,3.480780029296875000e+01,-1.537292938232421875e+02,6.622257232666015625e+01,1.191414108276367188e+02
9.319999814033508301e-01,1.000000000000000000e+00,-4.269106388092041016e+00,5.239053368568420410e-01,5.422875404357910156e+00,-1.968236694335937500e+02,-8.689093017578125000e+01,-1.680193176269531250e+02,1.166222991943359375e+02,8.770228385925292969e+00,3.480780029296875000e+01,-1.537292938232421875e+02,6.622257232666015625e+01,1.191414108276367188e+02
9.359999895095825195e-01,1.000000000000000000e+00,-4.333743572235107422e+00,5.784556865692138672e-01,5.431530952453613281e+00,-1.967651824951171875e+02,-8.681739807128906250e+01,-1.679547729492187500e+02,1.166222991943359375e+02,8.770228385925292969e+00,3.480780029296875000e+01,-1.537292938232421875e+02,6.622257232666015625e+01,1.191414108276367188e+02
9.399999976158142090e-01,1.000000000000000000e+00,-4.398378849029541016e+00,6.330047845840454102e-01,5.440186500549316406e+00,-1.967067108154296875e+02,-8.674385833740234375e+01,-1.678902130126953125e+02,1.166222991943359375e+02,8.770228385925292969e+00,3.480780029296875000e+01,-1.537292938232421875e+02,6.622257232666015625e+01,1.191414108276367188e+02
9.440000057220458984e-01,1.000000000000000000e+00,-4.463013648986816406e+00,6.875527501106262207e-01,5.448841094970703125e+00,-1.966482391357421875e+02,-8.667032623291015625e+01,-1.678256683349609375e+02,1.166222991943359375e+02,8.770228385925292969e+00,3.480780029296875000e+01,-1.537292938232421875e+02,6.622257232666015625e+01,1.191414108276367188e+02
9.480000138282775879e-01,1.000000000000000000e+00,-4.527645587921142578e+00,7.420993447303771973e-01,5.457496166229248047e+00,-1.965897674560546875e+02,-8.659680175781250000e+01,-1.677611236572265625e+02,1.166222991943359375e+02,8.770228385925292969e+00,3.480780029296875000e+01,-1.537292938232421875e+02,6.622257232666015625e+01,1.191414108276367188e+02
9.520000219345092773e-01,1.000000000000000000e+00,-4.592277526855468750e+00,7.966448068618774414e-01,5.466150760650634766e+00,-1.965313110351562500e+02,-8.652326965332031250e+01,-1.676965789794921875e+02,1.166222991943359375e+02,8.770228385925292969e+00,3.480780029296875000e+01,-1.537292938232421875e+02,6.622257232666015625e+01,1.191414108276367188e+02
9.559999704360961914e-01,1.000000000000000000e+00,-4.656906604766845703e+00,8.511889576911926270e-01,5.474805355072021484e+00,-1.964728393554687500e+02,-8.644974517822265625e+01,-1.676320190429687500e+02,1.166222991943359375e+02,8.770228385925292969e+00,3.480780029296875000e+01,-1.537292938232421875e+02,6.622257232666015625e+01,1.191414108276367188e+02
9.599999785423278809e-01,1.000000000000000000e+00,-4.721535205841064453e+00,9.057318568229675293e-01,5.483459472656250000e+00,-1.964143676757812500e+02,-8.637622070312500000e+01,-1.675674896240234375e+02,1.166222991943359375e+02,8.770228385925292969e+00,3.480780029296875000e+01,-1.537292938232421875e+02,6.622257232666015625e+01,1.191414108276367188e+02
9.639999866485595703e-01,1.000000000000000000e+00,-4.786161422729492188e+00,9.602733850479125977e-01,5.492113590240478516e+00,-1.963559112548828125e+02,-8.630269622802734375e+01,-1.675029449462890625e+02,1.166222991943359375e+02,8.770228385925292969e+00,3.480780029296875000e+01,-1.537292938232421875e+02,6.622257232666015625e+01,1.191414108276367188e+02
9.679999947547912598e-01,1.000000000000000000e+00,-4.850786685943603516e+00,1.014813661575317383e+00,5.500767707824707031e+00,-1.962974395751953125e+02,-8.622917175292968750e+01,-1.674384002685546875e+02,1.166222991943359375e+02,8.770228385925292969e+00,3.480780029296875000e+01,-1.537292938232421875e+02,6.622257232666015625e+01,1.191414108276367188e+02
9.720000028610229492e-01,1.000000000000000000e+00,-4.915410041809082031e+00,1.069352507591247559e+00,5.509421348571777344e+00,-1.962389831542968750e+02,-8.615566253662109375e+01,-1.673738555908203125e+02,1.166222991943359375e+02,8.770228385925292969e+00,3.480780029296875000e+01,-1.537292938232421875e+02,6.622257232666015625e+01,1.191414108276367188e+02
9.760000109672546387e-01,1.000000000000000000e+00,-4.980031967163085938e+00,1.123889923095703125e+00,5.518074989318847656e+00,-1.961805267333984375e+02,-8.608213806152343750e+01,-1.673093261718750000e+02,1.166222991943359375e+02,8.770228385925292969e+00,3.480780029296875000e+01,-1.537292938232421875e+02,6.622257232666015625e+01,1.191414108276367188e+02
9.800000190734863281e-01,1.000000000000000000e+00,-5.044652462005615234e+00,1.178426027297973633e+00,5.526727676391601562e+00,-1.961220703125000000e+02,-8.600862884521484375e+01,-1.672447967529296875e+02,1.166222991943359375e+02,8.770228385925292969e+00,3.480780029296875000e+01,-1.537292938232421875e+02,6.622257232666015625e+01,1.191414108276367188e+02
9.840000271797180176e-01,1.000000000000000000e+00,-5.109270572662353516e+00,1.232960700988769531e+00,5.535380840301513672e+00,-1.960636138916015625e+02,-8.593510437011718750e+01,-1.671802520751953125e+02,1.166222991943359375e+02,8.770228385925292969e+00,3.480780029296875000e+01,-1.537292938232421875e+02,6.622257232666015625e+01,1.191414108276367188e+02
9.879999756813049316e-01,1.000000000000000000e+00,-5.173887729644775391e+00,1.287493944168090820e+00,5.544034004211425781e+00,-1.960051422119140625e+02,-8.586159515380859375e+01,-1.671157226562500000e+02,1.166222991943359375e+02,8.770228385925292969e+00,3.480780029296875000e+01,-1.537292938232421875e+02,6.622257232666015625e+01,1.191414108276367188e+02
9.919999837875366211e-01,1.000000000000000000e+00,-5.238502502441406250e+00,1.342025756835937500e+00,5.552686214447021484e+00,-1.959467010498046875e+02,-8.578808593750000000e+01,-1.670511779785156250e+02,1.166222991943359375e+02,8.770228385925292969e+00,3.480780029296875000e+01,-1.537292938232421875e+02,6.622257232666015625e+01,1.191414108276367188e+02
9.959999918937683105e-01,1.000000000000000000e+00,-5.303115844726562500e+00,1.396556138992309570e+00,5.561338424682617188e+00,-1.958882446289062500e+02,-8.571457672119140625e+01,-1.669866485595703125e+02,1.166222991943359375e+02,8.770228385925292969e+00,3.480780029296875000e+01,-1.537292938232421875e+02,6.622257232666015625e+01,1.191414108276367188e+02
1.000000000000000000e+00,1.000000000000000000e+00,-5.367727279663085938e+00,1.451084971427917480e+00,5.569990634918212891e+00,-1.958297882080078125e+02,-8.564107513427734375e+01,-1.669221343994140625e+02,1.166222991943359375e+02,8.770228385925292969e+00,3.480780029296875000e+01,-1.537292938232421875e+02,6.622257232666015625e+01,1.191414108276367188e+02
1.003999948501586914e+00,1.000000000000000000e+00,-5.432337284088134766e+00,1.505612373352050781e+00,5.578642368316650391e+00,-1.957713470458984375e+02,-8.556756591796875000e+01,-1.668576049804687500e+02,1.166222991943359375e+02,8.770228385925292969e+00,3.480780029296875000e+01,-1.537292938232421875e+02,6.622257232666015625e+01,1.191414108276367188e+02
1.008000016212463379e+00,1.000000000000000000e+00,-5.496945381164550781e+00,1.560138106346130371e+00,5.587294101715087891e+00,-1.957129058837890625e+02,-8.549406433105468750e+01,-1.667930908203125000e+02,1.166222991943359375e+02,8.770228385925292969e+00,3.480780029296875000e+01,-1.537292938232421875e+02,6.622257232666015625e+01,1.191414108276367188e+02
1.011999964714050293e+00,1.000000000000000000e+00,-5.561551570892333984e+00,1.614662408828735352e+00,5.595945358276367188e+00,-1.956544647216796875e+02,-8.542057037353515625e+01,-1.667285461425781250e+02,1.166222991943359375e+02,8.770228385925292969e+00,3.480780029296875000e+01,-1.537292938232421875e+02,6.622257232666015625e+01,1.191414108276367188e+02
1.016000032424926758e+00,1.000000000000000000e+00,-5.626155853271484375e+00,1.669185042381286621e+00,5.604596138000488281e+00,-1.955960083007812500e+02,-8.534706878662109375e+01,-1.666640319824218750e+02,1.166222991943359375e+02,8.770228385925292969e+00,3.480780029296875000e+01,-1.537292938232421875e+02,6.622257232666015625e+01,1.191414108276367188e+02
1.019999980926513672e+00,1.000000000000000000e+00,-5.690758228302001953e+00,1.723706126213073730e+00,5.613247394561767578e+00,-1.955375671386718750e+02,-8.527357482910156250e+01,-1.665995178222656250e+02,1.166222991943359375e+02,8.770228385925292969e+00,3.480780029296875000e+01,-1.537292938232421875e+02,6.622257232666015625e+01,1.191414108276367188e+02
1.024000048637390137e+00,1.000000000000000000e+00,-5.755358695983886719e+00,1.778225541114807129e+00,5.621898174285888672e+00,-1.954791259765625000e+02,-8.520008087158203125e+01,-1.665350036621093750e+02,1.166222991943359375e+02,8.770228385925292969e+00,3.480780029296875000e+01,-1.537292938232421875e+02,6.622257232666015625e+01,1.191414108276367188e+02
1.026999950408935547e+00,1.000000000000000000e+00,-5.819957256317138672e+00,1.832743406295776367e+00,5.630548477172851562e+00,-1.954206848144531250e+02,-8.512658691406250000e+01,-1.664704742431640625e+02,1.166222991943359375e+02,8.770228385925292969e+00,3.480780029296875000e+01,-1.537292938232421875e+02,6.622257232666015625e+01,1.191414108276367188e+02
1.031999945640563965e+00,1.000000000000000000e+00,-5.884553909301757812e+00,1.887259602546691895e+00,5.639198303222656250e+00,-1.953622436523437500e+02,-8.505310058593750000e+01,-1.664059753417968750e+02,1.166222991943359375e+02,8.770228385925292969e+00,3.480780029296875000e+01,-1.537292938232421875e+02,6.622257232666015625e+01,1.191414108276367188e+02
1.036000013351440430e+00,1.000000000000000000e+00,-5.949148654937744141e+00,1.941774129867553711e+00,5.647848129272460938e+00,-1.953038177490234375e+02,-8.497960662841796875e+01,-1.663414611816406250e+02,1.166222991943359375e+02,8.770228385925292969e+00,3.480780029296875000e+01,-1.537292938232421875e+02,6.622257232666015625e+01,1.191414108276367188e+02
1.039999961853027344e+00,1.000000000000000000e+00,-6.013741493225097656e+00,1.996286988258361816e+00,5.656497478485107422e+00,-1.952453918457031250e+02,-8.490612792968750000e+01,-1.662769622802734375e+02,1.166222991943359375e+02,8.770228385925292969e+00,3.480780029296875000e+01,-1.537292938232421875e+02,6.622257232666015625e+01,1.191414108276367188e+02
1.044000029563903809e+00,1.000000000000000000e+00,-6.078331947326660156e+00,2.050797939300537109e+00,5.665146827697753906e+00,-1.951869506835937500e+02,-8.483264160156250000e+01,-1.662124481201171875e+02,1.166222991943359375e+02,8.770228385925292969e+00,3.480780029296875000e+01,-1.537292938232421875e+02,6.622257232666015625e+01,1.191414108276367188e+02
1.047999978065490723e+00,1.000000000000000000e+00,-6.142920017242431641e+00,2.105307579040527344e+00,5.673796176910400391e+00,-1.951285247802734375e+02,-8.475916290283203125e+01,-1.661479492187500000e+02,1.166222991943359375e+02,8.770228385925292969e+00,3.480780029296875000e+01,-1.537292938232421875e+02,6.622257232666015625e+01,1.191414108276367188e+02
1.052000045776367188e+00,1.000000000000000000e+00,-6.207507133483886719e+00,2.159815073013305664e+00,5.682444572448730469e+00,-1.950700988769531250e+02,-8.468568420410156250e+01,-1.660834350585937500e+02,1.166222991943359375e+02,8.770228385925292969e+00,3.480780029296875000e+01,-1.537292938232421875e+02,6.622257232666015625e+01,1.191414108276367188e+02
1.054999947547912598e+00,1.000000000000000000e+00,-6.272090911865234375e+00,2.214321136474609375e+00,5.691092967987060547e+00,-1.950116729736328125e+02,-8.461221313476562500e+01,-1.660189361572265625e+02,1.166222991943359375e+02,8.770228385925292969e+00,3.480780029296875000e+01,-1.537292938232421875e+02,6.622257232666015625e+01,1.191414108276367188e+02
1.059999942779541016e+00,1.000000000000000000e+00,-6.336673736572265625e+00,2.268825054168701172e+00,5.699741363525390625e+00,-1.949532470703125000e+02,-8.453874206542968750e+01,-1.659544372558593750e+02,1.166222991943359375e+02,8.770228385925292969e+00,3.480780029296875000e+01,-1.537292938232421875e+02,6.622257232666015625e+01,1.191414108276367188e+02
1.064000010490417480e+00,1.000000000000000000e+00,-6.401253700256347656e+00,2.323327541351318359e+00,5.708389282226562500e+00,-1.948948211669921875e+02,-8.446527099609375000e+01,-1.658899383544921875e+02,1.166222991943359375e+02,8.770228385925292969e+00,3.480780029296875000e+01,-1.537292938232421875e+02,6.622257232666015625e+01,1.191414108276367188e+02
1.067999958992004395e+00,1.000000000000000000e+00,-6.465831756591796875e+00,2.377827882766723633e+00,5.717036724090576172e+00,-1.948364105224609375e+02,-8.439179992675781250e+01,-1.658254547119140625e+02,1.166222991943359375e+02,8.770228385925292969e+00,3.480780029296875000e+01,-1.537292938232421875e+02,6.622257232666015625e+01,1.191414108276367188e+02
1.072000026702880859e+00,1.000000000000000000e+00,-6.530407428741455078e+00,2.432326555252075195e+00,5.725684165954589844e+00,-1.947779846191406250e+02,-8.431833648681640625e+01,-1.657609558105468750e+02,1.166222991943359375e+02,8.770228385925292969e+00,3.480780029296875000e+01,-1.537292938232421875e+02,6.622257232666015625e+01,1.191414108276367188e+02
1.075999975204467773e+00,1.000000000000000000e+00,-6.594981193542480469e+00,2.486823558807373047e+00,5.734331130981445312e+00,-1.947195739746093750e+02,-8.424487304687500000e+01,-1.656964721679687500e+02,1.166222991943359375e+02,8.770228385925292969e+00,3.480780029296875000e+01,-1.537292938232421875e+02,6.622257232666015625e+01,1.191414108276367188e+02
1.080000042915344238e+00,1.000000000000000000e+00,-6.659552574157714844e+00,2.541318178176879883e+00,5.742977619171142578e+00,-1.946611633300781250e+02,-8.417141723632812500e+01,-1.656319732666015625e+02,1.166222991943359375e+02,8.770228385925292969e+00,3.480780029296875000e+01,-1.537292938232421875e+02,6.622257232666015625e+01,1.191414108276367188e+02
1.083999991416931152e+00,1.000000000000000000e+00,-6.724121570587158203e+00,2.595811128616333008e+00,5.751624107360839844e+00,-1.946027526855468750e+02,-8.409795379638671875e+01,-1.655674896240234375e+02,1.166222991943359375e+02,8.770228385925292969e+00,3.480780029296875000e+01,-1.537292938232421875e+02,6.622257232666015625e+01,1.191414108276367188e+02
1.088000059127807617e+00,1.000000000000000000e+00,-6.788688182830810547e+00,2.650302410125732422e+00,5.760270118713378906e+00,-1.945443420410156250e+02,-8.402450561523437500e+01,-1.655030059814453125e+02,1.166222991943359375e+02,8.770228385925292969e+00,3.480780029296875000e+01,-1.537292938232421875e+02,6.622257232666015625e+01,1.191414108276367188e+02
1.090999960899353027e+00,1.000000000000000000e+00,-6.853252887725830078e+00,2.704791307449340820e+00,5.768915653228759766e+00,-1.944859161376953125e+02,-8.395104980468750000e+01,-1.654385223388671875e+02,1.166222991943359375e+02,8.770228385925292969e+00,3.480780029296875000e+01,-1.537292938232421875e+02,6.622257232666015625e+01,1.191414108276367188e+02
1.095999956130981445e+00,1.000000000000000000e+00,-6.917815208435058594e+00,2.759278535842895508e+00,5.777561664581298828e+00,-1.944275054931640625e+02,-8.387760162353515625e+01,-1.653740386962890625e+02,1.166222991943359375e+02,8.770228385925292969e+00,3.480780029296875000e+01,-1.537292938232421875e+02,6.622257232666015625e+01,1.191414108276367188e+02
1.100000023841857910e+00,1.000000000000000000e+00,-6.982374668121337891e+00,2.813763618469238281e+00,5.786206245422363281e+00,-1.943691101074218750e+02,-8.380415344238281250e+01,-1.653095703125000000e+02,1.166222991943359375e+02,8.770228385925292969e+00,3.480780029296875000e+01,-1.537292938232421875e+02,6.622257232666015625e+01,1.191414108276367188e+02
1.103999972343444824e+00,1.000000000000000000e+00,-7.046932220458984375e+00,2.868246793746948242e+00,5.794851303100585938e+00,-1.943107147216796875e+02,-8.373071289062500000e+01,-1.652451019287109375e+02,1.166222991943359375e+02,8.770228385925292969e+00,3.480780029296875000e+01,-1.537292938232421875e+02,6.622257232666015625e+01,1.191414108276367188e+02
1.108000040054321289e+00,1.000000000000000000e+00,-7.111487388610839844e+00,2.922727823257446289e+00,5.803495883941650391e+00,-1.942523193359375000e+02,-8.365726470947265625e+01,-1.651806335449218750e+02,1.166222991943359375e+02,8.770228385925292969e+00,3.480780029296875000e+01,-1.537292938232421875e+02,6.622257232666015625e+01,1.191414108276367188e+02
1.111999988555908203e+00,1.000000000000000000e+00,-7.176040172576904297e+00,2.977206945419311523e+00,5.812139987945556641e+00,-1.941939239501953125e+02,-8.358382415771484375e+01,-1.651161651611328125e+02,1.166222991943359375e+02,8.770228385925292969e+00,3.480780029296875000e+01,-1.537292938232421875e+02,6.622257232666015625e+01,1.191414108276367188e+02
1.116000056266784668e+00,1.000000000000000000e+00,-7.240590572357177734e+00,3.031683921813964844e+00,5.820783615112304688e+00,-1.941355133056640625e+02,-8.351039123535156250e+01,-1.650516815185546875e+02,1.166222991943359375e+02,8.770228385925292969e+00,3.480780029296875000e+01,-1.537292938232421875e+02,6.622257232666015625e+01,1.191414108276367188e+02
