rpiRobotics/ARM-21-02-F-19-Robot-Motion-Program/data_performance_abb/curve_1/baseline/100L/realrobot/v123.046875_iteration1.csv
timestamp, cmd_num, J1, J2, J3, J4, J5, J6
0.000407, -1, 11.3778, 13.6139, 17.3394, -145.519, -97.9229, 142.516
0.004221, -1, 11.3778, 13.6139, 17.3394, -145.519, -97.9229, 142.516
0.00762, -1, 11.3778, 13.6139, 17.3394, -145.519, -97.9229, 142.516
0.028962, -1, 11.3778, 13.6139, 17.3394, -145.519, -97.9229, 142.516
0.031673, -1, 11.3778, 13.6139, 17.3394, -145.519, -97.9229, 142.516
0.034474, -1, 11.3778, 13.6139, 17.3394, -145.519, -97.9229, 142.516
0.039489, -1, 11.3778, 13.6139, 17.3394, -145.519, -97.9229, 142.516
0.047501, -1, 11.3778, 13.6139, 17.3394, -145.519, -97.9228, 142.516
0.055495, -1, 11.3771, 13.6138, 17.3394, -145.519, -97.9228, 142.516
0.063503, -1, 11.3744, 13.6136, 17.3394, -145.519, -97.9229, 142.516
0.071561, -1, 11.3681, 13.6127, 17.3393, -145.519, -97.9229, 142.515
0.079508, -1, 11.357, 13.6108, 17.3389, -145.52, -97.9228, 142.512
0.087522, -1, 11.3396, 13.6071, 17.3381, -145.521, -97.9227, 142.502
0.095752, -1, 11.3129, 13.601, 17.3374, -145.525, -97.9222, 142.479
0.103874, -1, 11.2748, 13.5916, 17.3368, -145.532, -97.9206, 142.438
0.11159, -1, 11.2249, 13.5791, 17.337, -145.544, -97.9173, 142.373
0.119721, -1, 11.1635, 13.5635, 17.3387, -145.561, -97.9118, 142.276
0.128936, -1, 11.0905, 13.5442, 17.3427, -145.584, -97.904, 142.146
0.135588, -1, 11.0057, 13.5211, 17.3491, -145.613, -97.8938, 141.981
0.143622, -1, 10.9092, 13.4947, 17.3577, -145.647, -97.8818, 141.782
0.152999, -1, 10.8019, 13.4648, 17.3681, -145.686, -97.8681, 141.557
0.159563, -1, 10.6836, 13.4319, 17.3793, -145.728, -97.8534, 141.311
0.167632, -1, 10.5546, 13.3962, 17.3905, -145.772, -97.838, 141.05
0.177205, -1, 10.4165, 13.3583, 17.4013, -145.818, -97.8222, 140.781
0.183791, -1, 10.2717, 13.3187, 17.4115, -145.866, -97.806, 140.507
0.191849, -1, 10.1224, 13.2783, 17.4217, -145.913, -97.7894, 140.23
0.201396, -1, 9.96993, 13.2373, 17.4317, -145.961, -97.7723, 139.952
0.207941, -1, 9.81533, 13.196, 17.4418, -146.009, -97.7551, 139.674
0.216003, -1, 9.65984, 13.1546, 17.4519, -146.057, -97.738, 139.394
0.22562, -1, 9.50475, 13.1134, 17.4618, -146.105, -97.7209, 139.115
0.23213, -1, 9.35021, 13.0723, 17.4717, -146.153, -97.7041, 138.836
0.24005, -1, 9.19601, 13.0312, 17.4817, -146.201, -97.6874, 138.557
0.248862, -1, 9.04229, 12.9902, 17.4917, -146.249, -97.6707, 138.277
0.256135, -1, 8.9655, 12.9697, 17.4968, -146.297, -97.6539, 137.998
0.263478, -1, 8.81198, 12.9287, 17.5069, -146.321, -97.6453, 137.858
0.271525, -1, 8.65889, 12.8877, 17.5169, -146.369, -97.628, 137.578
0.279491, -1, 8.50616, 12.8465, 17.5271, -146.417, -97.6104, 137.298
0.287534, -1, 8.35341, 12.8053, 17.5372, -146.465, -97.593, 137.018
0.295525, -1, 8.20017, 12.7639, 17.5474, -146.512, -97.5759, 136.739
0.303477, -1, 8.04641, 12.7224, 17.5576, -146.56, -97.559, 136.459
0.311524, -1, 7.89216, 12.6809, 17.5678, -146.608, -97.5423, 136.179
0.319542, -1, 7.73732, 12.6393, 17.5778, -146.656, -97.5257, 135.899
0.327517, -1, 7.58225, 12.5977, 17.588, -146.704, -97.5089, 135.619
0.335439, -1, 7.42713, 12.5562, 17.5981, -146.752, -97.4919, 135.339
0.345006, -1, 7.19426, 12.4941, 17.6133, -146.824, -97.4659, 134.919
0.351478, -1, 7.11662, 12.4734, 17.6185, -146.848, -97.4572, 134.779
0.35949, -1, 6.96134, 12.4321, 17.6287, -146.897, -97.44, 134.499
0.36924, -1, 6.72883, 12.3704, 17.6442, -146.969, -97.4146, 134.079
0.375476, -1, 6.65152, 12.3497, 17.6494, -146.993, -97.4062, 133.938
0.38348, -1, 6.4971, 12.3085, 17.6597, -147.041, -97.3895, 133.658
0.393114, -1, 6.34277, 12.2673, 17.67, -147.089, -97.3728, 133.237
0.400528, -1, 6.18859, 12.2259, 17.6803, -147.137, -97.3557, 133.097
0.407479, -1, 6.03426, 12.1845, 17.6905, -147.185, -97.3384, 132.816
0.415593, -1, 5.87966, 12.1431, 17.7007, -147.233, -97.3208, 132.536
0.42348, -1, 5.72492, 12.1014, 17.7109, -147.281, -97.3033, 132.255
0.43155, -1, 5.57001, 12.0598, 17.7211, -147.329, -97.2861, 131.975
0.439628, -1, 5.4148, 12.0182, 17.7313, -147.377, -97.2691, 131.694
0.447477, -1, 5.25934, 11.9766, 17.7416, -147.425, -97.2523, 131.413
0.455614, -1, 5.10354, 11.935, 17.752, -147.473, -97.2355, 131.132
0.463476, -1, 4.94755, 11.8935, 17.7624, -147.521, -97.2186, 130.851
0.471476, -1, 4.79161, 11.852, 17.7728, -147.569, -97.2015, 130.57
0.479564, -1, 4.63575, 11.8105, 17.7832, -147.618, -97.1841, 130.289
0.487471, -1, 4.48001, 11.7691, 17.7935, -147.666, -97.1666, 130.009
0.495511, -1, 4.32439, 11.7277, 17.8038, -147.715, -97.1493, 129.728
0.503563, -1, 4.16908, 11.6864, 17.8142, -147.763, -97.1323, 129.446
0.645046, -1, 1.44526, 10.9581, 17.9952, -148.609, -96.833, 124.519
0.646338, -1, 1.44526, 10.9581, 17.9952, -148.609, -96.833, 124.519
0.648452, -1, 1.36725, 10.9373, 18.0004, -148.633, -96.8245, 124.378
0.649728, -1, 1.36725, 10.9373, 18.0004, -148.633, -96.8245, 124.378
0.651553, -1, 1.28931, 10.9165, 18.0055, -148.657, -96.8161, 124.237
0.652961, -1, 1.28931, 10.9165, 18.0055, -148.657, -96.8161, 124.237
0.654161, -1, 1.28931, 10.9165, 18.0055, -148.657, -96.8161, 124.237
0.657513, -1, 1.21148, 10.8956, 18.0107, -148.681, -96.8077, 124.096
0.818271, -1, -1.91176, 10.0601, 18.2181, -149.652, -96.4657, 118.44
0.81962, -1, -1.91176, 10.0601, 18.2181, -149.652, -96.4657, 118.44
0.821669, -1, -1.98945, 10.0392, 18.2234, -149.676, -96.4569, 118.299
0.82286, -1, -1.98945, 10.0392, 18.2234, -149.676, -96.4569, 118.299
0.824693, -1, -1.98945, 10.0182, 18.2286, -149.7, -96.4481, 118.157
0.826056, -1, -2.06708, 10.0182, 18.2286, -149.7, -96.4481, 118.157
0.827329, -1, -2.06708, 10.0182, 18.2286, -149.7, -96.4481, 118.157
0.831583, -1, -2.1447, 9.99732, 18.2338, -149.725, -96.4393, 118.015
0.833722, -1, -2.2223, 9.97643, 18.239, -149.749, -96.4305, 117.874
0.83493, -1, -2.2223, 9.97643, 18.239, -149.749, -96.4305, 117.874
0.836826, -1, -2.2223, 9.97643, 18.2441, -149.774, -96.4218, 117.732
0.838189, -1, -2.2999, 9.95554, 18.2441, -149.774, -96.4218, 117.732
0.839527, -1, -2.2999, 9.95554, 18.2441, -149.774, -96.4218, 117.732
0.84163, -1, -2.37755, 9.93462, 18.2493, -149.798, -96.4132, 117.59
0.842909, -1, -2.37755, 9.93462, 18.2493, -149.798, -96.4132, 117.59
0.846419, -1, -2.45529, 9.91364, 18.2545, -149.822, -96.4047, 117.448
0.847599, -1, -2.45529, 9.91364, 18.2545, -149.822, -96.4047, 117.448
0.849635, -1, -2.53312, 9.89266, 18.2598, -149.846, -96.3962, 117.306
0.850848, -1, -2.53312, 9.89266, 18.2598, -149.846, -96.3962, 117.306
0.852104, -1, -2.53312, 9.89266, 18.2598, -149.846, -96.3962, 117.306
0.855706, -1, -2.61102, 9.87171, 18.2649, -149.87, -96.3878, 117.165
0.857731, -1, -2.689, 9.85077, 18.2701, -149.895, -96.3794, 117.023
0.861106, -1, -2.76703, 9.8298, 18.2752, -149.919, -96.371, 116.881
0.862461, -1, -2.76703, 9.8298, 18.2752, -149.919, -96.371, 116.881
0.863728, -1, -2.76703, 9.8298, 18.2752, -149.919, -96.371, 116.881
0.865686, -1, -2.84516, 9.80884, 18.2804, -149.943, -96.3626, 116.739
0.866963, -1, -2.84516, 9.80884, 18.2804, -149.943, -96.3626, 116.739
0.86815, -1, -2.84516, 9.80884, 18.2804, -149.943, -96.3626, 116.739
0.87022, -1, -2.92342, 9.78789, 18.2856, -149.967, -96.3542, 116.597
0.871413, -1, -2.92342, 9.78789, 18.2856, -149.967, -96.3542, 116.597
0.874282, -1, -3.00181, 9.76692, 18.2908, -149.991, -96.3457, 116.455
0.875638, -1, -3.00181, 9.76692, 18.2908, -149.991, -96.3457, 116.455
0.879347, -1, -3.08033, 9.74597, 18.2959, -150.016, -96.3372, 116.313
0.881306, -1, -3.15895, 9.72501, 18.3011, -150.041, -96.3285, 116.172
0.882655, -1, -3.15895, 9.72501, 18.3011, -150.041, -96.3285, 116.172
0.883838, -1, -3.15895, 9.72501, 18.3011, -150.041, -96.3285, 116.172
0.885893, -1, -3.23762, 9.70405, 18.3063, -150.065, -96.3198, 116.03
0.890586, -1, -3.31642, 9.68309, 18.3116, -150.089, -96.311, 115.888
0.891822, -1, -3.31642, 9.68309, 18.3116, -150.089, -96.311, 115.888
0.893875, -1, -3.39534, 9.66209, 18.3168, -150.113, -96.3022, 115.746
0.895464, -1, -3.39534, 9.66209, 18.3168, -150.113, -96.3022, 115.746
0.904477, -1, -3.55328, 9.62011, 18.3273, -150.162, -96.2846, 115.462
0.91152, -1, -3.71112, 9.57827, 18.3377, -150.211, -96.2673, 115.178
0.919517, -1, -3.86903, 9.53638, 18.348, -150.259, -96.2502, 114.893
0.928469, -1, -4.02709, 9.49441, 18.3583, -150.308, -96.2333, 114.609
0.935531, -1, -4.18496, 9.45256, 18.3686, -150.357, -96.2163, 114.325
0.943454, -1, -4.34262, 9.41068, 18.379, -150.406, -96.1992, 114.041
0.951468, -1, -4.49994, 9.36874, 18.3893, -150.455, -96.1819, 113.756
0.959739, -1, -4.65695, 9.32678, 18.3996, -150.504, -96.1641, 113.471
0.96746, -1, -4.81351, 9.28483, 18.41, -150.553, -96.1464, 113.187
0.975474, -1, -4.96971, 9.24277, 18.4205, -150.602, -96.1289, 112.902
0.98352, -1, -5.12576, 9.20078, 18.431, -150.65, -96.1117, 112.617
0.991455, -1, -5.28163, 9.15874, 18.4415, -150.699, -96.0947, 112.333
0.999557, -1, -5.4377, 9.11657, 18.452, -150.748, -96.0778, 112.048
1.00752, -1, -5.59397, 9.07448, 18.4623, -150.796, -96.0609, 111.763
1.01547, -1, -5.75048, 9.03242, 18.4727, -150.845, -96.0438, 111.479
1.02383, -1, -5.9074, 8.99027, 18.4831, -150.894, -96.0264, 111.194
1.03146, -1, -6.06481, 8.94815, 18.4934, -150.943, -96.0087, 110.909
1.03953, -1, -6.22282, 8.90607, 18.5037, -150.991, -95.9912, 110.624
1.04824, -1, -6.38114, 8.86398, 18.5141, -151.041, -95.974, 110.338
1.05546, -1, -6.53962, 8.82195, 18.5244, -151.09, -95.957, 110.053
1.06352, -1, -6.69816, 8.77986, 18.5349, -151.139, -95.9401, 109.768
1.07223, -1, -6.8569, 8.73774, 18.5454, -151.188, -95.9231, 109.483
1.07951, -1, -7.01553, 8.69571, 18.5559, -151.237, -95.9061, 109.197
1.08772, -1, -7.17401, 8.65364, 18.5663, -151.286, -95.8886, 108.912
1.09634, -1, -7.33227, 8.61152, 18.5767, -151.335, -95.8709, 108.626
1.10355, -1, -7.49014, 8.56932, 18.5871, -151.384, -95.8532, 108.34
1.11188, -1, -7.64775, 8.52709, 18.5975, -151.433, -95.8357, 108.055
1.12042, -1, -7.80498, 8.48492, 18.6079, -151.483, -95.8185, 107.769
1.12762, -1, -7.96184, 8.4427, 18.6183, -151.531, -95.8014, 107.483
1.13608, -1, -8.11852, 8.40038, 18.6287, -151.58, -95.7846, 107.197
1.14492, -1, -8.2751, 8.35808, 18.6391, -151.629, -95.7677, 106.912
1.15149, -1, -8.43186, 8.31574, 18.6497, -151.678, -95.7504, 106.626
1.16035, -1, -8.58878, 8.2734, 18.6602, -151.727, -95.733, 106.34
1.16753, -1, -8.74614, 8.23119, 18.6706, -151.776, -95.7153, 106.053
1.17559, -1, -8.90391, 8.18892, 18.6809, -151.825, -95.6977, 105.767
1.18445, -1, -9.06209, 8.14664, 18.6912, -151.874, -95.6804, 105.481
1.19172, -1, -9.22075, 8.10445, 18.7017, -151.924, -95.6633, 105.194
1.19981, -1, -9.37971, 8.06222, 18.7121, -151.973, -95.6462, 104.907
1.20862, -1, -9.53883, 8.01994, 18.7225, -152.022, -95.6291, 104.621
1.21593, -1, -9.69799, 7.97776, 18.7329, -152.072, -95.6117, 104.334
1.22408, -1, -9.85734, 7.93563, 18.7434, -152.121, -95.5942, 104.047
1.23287, -1, -10.0167, 7.89338, 18.754, -152.17, -95.5763, 103.76
1.24004, -1, -10.176, 7.85105, 18.7646, -152.22, -95.5585, 103.474
1.24807, -1, -10.335, 7.80864, 18.7751, -152.269, -95.5409, 103.187
1.25687, -1, -10.4144, 7.76615, 18.7856, -152.318, -95.5237, 102.9
1.26399, -1, -10.5729, 7.74492, 18.7908, -152.343, -95.5152, 102.613
1.27205, -1, -10.7312, 7.70252, 18.8012, -152.392, -95.4982, 102.47
1.281, -1, -10.8891, 7.66003, 18.8117, -152.441, -95.4812, 102.039
1.28745, -1, -11.0467, 7.61753, 18.8221, -152.49, -95.464, 101.895
1.29556, -1, -11.2041, 7.5751, 18.8325, -152.539, -95.4465, 101.608
1.30344, -1, -11.3616, 7.53269, 18.8429, -152.588, -95.4286, 101.321
1.31146, -1, -11.5191, 7.49025, 18.8533, -152.638, -95.4109, 101.033
1.31955, -1, -11.6769, 7.44784, 18.8639, -152.687, -95.3935, 100.746
1.32744, -1, -11.8351, 7.40546, 18.8745, -152.736, -95.3762, 100.458
1.33562, -1, -11.9937, 7.36309, 18.8851, -152.786, -95.359, 100.17
1.34502, -1, -12.2323, 7.29958, 18.9008, -152.86, -95.3331, 99.739
1.35144, -1, -12.3121, 7.27839, 18.906, -152.885, -95.3244, 99.595
1.35955, -1, -12.4719, 7.23599, 18.9165, -152.934, -95.3069, 99.3069
1.36907, -1, -12.7118, 7.17246, 18.9323, -153.008, -95.28, 98.8751
1.37545, -1, -12.7918, 7.15126, 18.9375, -153.033, -95.271, 98.7311
1.38351, -1, -12.9519, 7.10878, 18.9481, -153.083, -95.2533, 98.443
1.39144, -1, -13.1119, 7.06622, 18.9585, -153.132, -95.2359, 98.1548
1.40103, -1, -13.2716, 7.02364, 18.969, -153.182, -95.2187, 97.8669
1.40754, -1, -13.431, 6.98104, 18.9796, -153.231, -95.2016, 97.5787
1.4165, -1, -13.5904, 6.9383, 18.9902, -153.28, -95.1845, 97.2902
1.42344, -1, -13.7495, 6.89557, 19.0007, -153.33, -95.1671, 97.0015
1.4315, -1, -13.9083, 6.8529, 19.0112, -153.379, -95.1495, 96.7131
1.4395, -1, -14.0665, 6.81018, 19.0216, -153.428, -95.1317, 96.4245
1.44744, -1, -14.2247, 6.76759, 19.0322, -153.478, -95.114, 96.1357
1.45551, -1, -14.383, 6.72497, 19.0426, -153.527, -95.0966, 95.8468
1.4635, -1, -14.5413, 6.68234, 19.0531, -153.576, -95.0794, 95.5582
1.47143, -1, -14.7, 6.63977, 19.0636, -153.627, -95.0622, 95.269
1.47956, -1, -14.8591, 6.59727, 19.0741, -153.676, -95.0451, 94.9796
1.48744, -1, -15.0185, 6.55464, 19.0847, -153.725, -95.0277, 94.6904
1.49552, -1, -15.1782, 6.51202, 19.0954, -153.776, -95.01, 94.4014
1.50347, -1, -15.3384, 6.46948, 19.1061, -153.825, -94.992, 94.1122
1.51144, -1, -15.4989, 6.42687, 19.1167, -153.875, -94.974, 93.8229
1.51956, -1, -15.6597, 6.38418, 19.1272, -153.925, -94.9565, 93.5339
1.52743, -1, -15.8204, 6.34149, 19.1378, -153.974, -94.9392, 93.2447
1.53545, -1, -15.9811, 6.29869, 19.1484, -154.024, -94.922, 92.9552
1.5435, -1, -16.1418, 6.25586, 19.1589, -154.074, -94.9049, 92.6655
1.55144, -1, -16.3026, 6.21302, 19.1694, -154.123, -94.8877, 92.3759
1.5595, -1, -16.463, 6.17008, 19.1798, -154.172, -94.8703, 92.0864
1.56751, -1, -16.6232, 6.12709, 19.1903, -154.222, -94.8524, 91.7963
1.57545, -1, -16.783, 6.0842, 19.2009, -154.272, -94.8346, 91.5064
1.58345, -1, -16.9423, 6.04126, 19.2115, -154.321, -94.8169, 91.2166
1.59153, -1, -17.1015, 5.99833, 19.2221, -154.371, -94.7994, 90.9266
1.59956, -1, -17.2606, 5.95546, 19.2327, -154.421, -94.782, 90.6363
1.6076, -1, -17.4198, 5.91262, 19.2432, -154.471, -94.7648, 90.346
1.61555, -1, -17.5792, 5.86985, 19.2539, -154.521, -94.7474, 90.0558
1.62354, -1, -17.7386, 5.82712, 19.2645, -154.57, -94.7296, 89.7656
1.63167, -1, -17.8983, 5.78433, 19.2751, -154.621, -94.7117, 89.4752
1.6396, -1, -18.0584, 5.74159, 19.2857, -154.671, -94.6936, 89.1847
1.64744, -1, -18.2189, 5.69887, 19.2962, -154.72, -94.6757, 88.8943
1.65555, -1, -18.38, 5.65609, 19.3069, -154.771, -94.6581, 88.6037
1.66376, -1, -18.5414, 5.61319, 19.3176, -154.821, -94.6407, 88.3127
1.67154, -1, -18.7029, 5.57022, 19.3283, -154.87, -94.6234, 88.0218
1.67972, -1, -18.8644, 5.52724, 19.3389, -154.921, -94.6062, 87.7309
1.68762, -1, -19.026, 5.48423, 19.3494, -154.97, -94.5887, 87.4398
1.69571, -1, -19.1875, 5.4411, 19.3599, -155.02, -94.5708, 87.1485
1.70386, -1, -19.3488, 5.39799, 19.3705, -155.07, -94.5527, 86.8572
1.71194, -1, -19.51, 5.35486, 19.3811, -155.12, -94.5348, 86.5659
1.71988, -1, -19.6708, 5.31167, 19.3916, -155.169, -94.517, 86.2743
1.72865, -1, -19.8314, 5.26862, 19.4022, -155.22, -94.4995, 85.9826
1.73598, -1, -19.9918, 5.2255, 19.4128, -155.269, -94.4821, 85.6909
1.744, -1, -20.1518, 5.1824, 19.4236, -155.319, -94.4647, 85.3995
1.75283, -1, -20.3116, 5.13951, 19.4344, -155.37, -94.4472, 85.1077
1.76023, -1, -20.3916, 5.11807, 19.4397, -155.42, -94.4294, 84.8159
1.76801, -1, -20.5517, 5.07504, 19.4505, -155.47, -94.4113, 84.5243
1.77544, -1, -20.7118, 5.03209, 19.4612, -155.495, -94.4022, 84.3785
1.78447, -1, -20.9528, 4.9678, 19.4771, -155.57, -94.3755, 83.9405
1.79148, -1, -21.0334, 4.94628, 19.4825, -155.595, -94.3667, 83.7944
1.79949, -1, -21.1947, 4.90328, 19.493, -155.646, -94.3494, 83.5024
1.80747, -1, -21.3566, 4.86027, 19.5036, -155.696, -94.3322, 83.2105
1.81545, -1, -21.5187, 4.81709, 19.5142, -155.746, -94.315, 82.9181
1.82343, -1, -21.6808, 4.77387, 19.5249, -155.797, -94.2975, 82.6256
1.83148, -1, -21.8431, 4.73067, 19.5356, -155.847, -94.2798, 82.3333
1.83952, -1, -22.0055, 4.6873, 19.5463, -155.896, -94.2617, 82.0407
1.84743, -1, -22.1679, 4.64391, 19.5571, -155.947, -94.2439, 81.748
1.85549, -1, -22.3303, 4.60058, 19.5677, -155.997, -94.2262, 81.4552
1.86343, -1, -22.4924, 4.5572, 19.5783, -156.047, -94.2087, 81.1625
1.87382, -1, -22.7349, 4.49217, 19.5943, -156.122, -94.1826, 80.7233
1.87949, -1, -22.8156, 4.47051, 19.5996, -156.147, -94.1739, 80.5768
1.88742, -1, -22.9768, 4.42721, 19.6103, -156.198, -94.1562, 80.2839
1.89782, -1, -23.1379, 4.38398, 19.6209, -156.248, -94.1382, 79.991
1.90359, -1, -23.2988, 4.34079, 19.6316, -156.298, -94.12, 79.6979
1.91143, -1, -23.4597, 4.29762, 19.6425, -156.349, -94.1018, 79.4045
1.91943, -1, -23.6206, 4.25441, 19.6533, -156.4, -94.084, 79.1111
1.92749, -1, -23.7818, 4.21127, 19.664, -156.45, -94.0663, 78.8178
1.93544, -1, -23.9432, 4.16811, 19.6748, -156.501, -94.0489, 78.5242
1.94343, -1, -24.1049, 4.12478, 19.6854, -156.551, -94.0315, 78.2304
1.95144, -1, -24.2672, 4.08143, 19.6961, -156.601, -94.014, 77.9368
1.95943, -1, -24.4299, 4.03808, 19.7068, -156.652, -93.9962, 77.6431
1.96757, -1, -24.5928, 3.99461, 19.7173, -156.702, -93.9781, 77.349
1.97543, -1, -24.756, 3.95106, 19.7279, -156.752, -93.96, 77.0546
1.98343, -1, -24.9194, 3.90751, 19.7386, -156.803, -93.9422, 76.7605
1.99152, -1, -25.0828, 3.86398, 19.7494, -156.853, -93.9245, 76.4664
1.99943, -1, -25.246, 3.82042, 19.7603, -156.903, -93.907, 76.1722
2.00746, -1, -25.4088, 3.77688, 19.7711, -156.954, -93.8895, 75.8779
2.01571, -1, -25.5715, 3.73329, 19.7819, -157.004, -93.8719, 75.5837
2.02343, -1, -25.7341, 3.6897, 19.7925, -157.054, -93.854, 75.2893
2.03149, -1, -25.8965, 3.64629, 19.8032, -157.105, -93.8357, 74.9946
2.0403, -1, -26.0586, 3.60283, 19.8141, -157.155, -93.8173, 74.7
2.04743, -1, -26.2203, 3.55936, 19.8248, -157.206, -93.7991, 74.4055
2.05542, -1, -26.3819, 3.51603, 19.8355, -157.257, -93.7813, 74.1108
2.06421, -1, -26.5437, 3.47267, 19.8462, -157.307, -93.7637, 73.8157
2.07144, -1, -26.7056, 3.42926, 19.8569, -157.358, -93.7461, 73.5207
2.07948, -1, -26.8679, 3.38583, 19.8678, -157.409, -93.7284, 73.2257
2.09179, -1, -27.112, 3.32049, 19.884, -157.485, -93.7014, 72.7827
2.09548, -1, -27.1935, 3.2987, 19.8895, -157.511, -93.6923, 72.6351
2.10357, -1, -27.3568, 3.2551, 19.9002, -157.561, -93.674, 72.3397
2.11154, -1, -27.5206, 3.21135, 19.9108, -157.611, -93.6559, 72.0444
2.11956, -1, -27.6845, 3.16761, 19.9216, -157.662, -93.6379, 71.749
2.12758, -1, -27.8485, 3.12396, 19.9323, -157.712, -93.6202, 71.4535
2.13563, -1, -28.0127, 3.08023, 19.9431, -157.763, -93.6026, 71.158
2.14356, -1, -28.1767, 3.03654, 19.9539, -157.814, -93.5849, 70.8623
2.15156, -1, -28.3408, 2.99284, 19.9645, -157.864, -93.5669, 70.5662
2.15947, -1, -28.5047, 2.94913, 19.9754, -157.915, -93.5486, 70.2703
2.16753, -1, -28.6683, 2.90548, 19.9863, -157.966, -93.5301, 69.9743
2.17557, -1, -28.8317, 2.86181, 19.9971, -158.017, -93.5119, 69.6783
2.18356, -1, -28.9947, 2.81818, 20.0079, -158.068, -93.4939, 69.3819
2.19174, -1, -29.1574, 2.77455, 20.0186, -158.119, -93.4762, 69.0856
2.19974, -1, -29.3201, 2.73093, 20.0294, -158.17, -93.4586, 68.7892
2.20775, -1, -29.4829, 2.68735, 20.0402, -158.221, -93.4409, 68.4925
2.21594, -1, -29.6457, 2.64365, 20.0509, -158.272, -93.4229, 68.1955
2.22389, -1, -29.8089, 2.59987, 20.0617, -158.323, -93.4047, 67.8987
2.23253, -1, -29.9721, 2.55616, 20.0725, -158.374, -93.3863, 67.6021
2.24032, -1, -30.1355, 2.51235, 20.0834, -158.425, -93.3681, 67.3052
2.24798, -1, -30.2993, 2.46839, 20.0944, -158.475, -93.3502, 67.0083
2.25599, -1, -30.4637, 2.42447, 20.1053, -158.526, -93.3324, 66.7114
2.26454, -1, -30.6285, 2.38049, 20.1161, -158.577, -93.3148, 66.4143
2.27193, -1, -30.711, 2.35848, 20.1215, -158.602, -93.306, 66.2656
2.27946, -1, -30.876, 2.31458, 20.1322, -158.653, -93.2882, 65.9682
2.28748, -1, -31.0409, 2.27063, 20.1431, -158.704, -93.27, 65.671
2.29542, -1, -31.2058, 2.2266, 20.1539, -158.755, -93.2515, 65.3739
2.30347, -1, -31.3707, 2.18274, 20.1647, -158.807, -93.233, 65.0764
2.31149, -1, -31.5353, 2.13892, 20.1755, -158.858, -93.2149, 64.7788
2.31942, -1, -31.6998, 2.09493, 20.1862, -158.909, -93.1969, 64.4812
2.32742, -1, -31.864, 2.05104, 20.1972, -158.96, -93.1793, 64.1833
2.33549, -1, -32.028, 2.00719, 20.2081, -159.011, -93.1617, 63.8853
2.34347, -1, -32.1918, 1.96322, 20.2191, -159.062, -93.144, 63.5873
2.35292, -1, -32.4373, 1.89731, 20.2354, -159.14, -93.1169, 63.1404
2.35942, -1, -32.5191, 1.87531, 20.2409, -159.165, -93.1078, 62.9913
2.36742, -1, -32.683, 1.83127, 20.2518, -159.217, -93.0894, 62.6931
2.37701, -1, -32.9288, 1.7652, 20.2681, -159.293, -93.0623, 62.2458
2.38341, -1, -33.0109, 1.74311, 20.2735, -159.318, -93.0534, 62.0966
2.393, -1, -33.1756, 1.6989, 20.2844, -159.395, -93.0267, 61.6487
2.39949, -1, -33.3406, 1.65473, 20.2952, -159.421, -93.0178, 61.4994
2.40743, -1, -33.5059, 1.61056, 20.306, -159.472, -92.9999, 61.2009
2.41642, -1, -33.6716, 1.56636, 20.3171, -159.523, -92.9817, 60.9023
2.42349, -1, -33.8373, 1.52219, 20.328, -159.574, -92.9631, 60.6033
2.43141, -1, -34.003, 1.47804, 20.3389, -159.625, -92.9444, 60.3045
2.43941, -1, -34.1688, 1.4339, 20.3497, -159.677, -92.9259, 60.0055
2.44749, -1, -34.3348, 1.38976, 20.3606, -159.729, -92.9079, 59.7062
2.45541, -1, -34.5006, 1.34557, 20.3716, -159.78, -92.8901, 59.4065
2.46341, -1, -34.6662, 1.30142, 20.3824, -159.832, -92.8723, 59.1071
2.47154, -1, -34.8314, 1.2573, 20.3933, -159.883, -92.8544, 58.8078
2.47942, -1, -34.9963, 1.21316, 20.4041, -159.935, -92.8362, 58.5083
2.48742, -1, -35.161, 1.16899, 20.4151, -159.986, -92.8178, 58.2086
2.49548, -1, -35.3257, 1.12476, 20.4262, -160.037, -92.7992, 57.909
2.50341, -1, -35.4898, 1.08064, 20.4373, -160.089, -92.7809, 57.6093
2.51145, -1, -35.6524, 1.03685, 20.4485, -160.14, -92.7628, 57.3096
2.51948, -1, -35.8123, 0.99357, 20.4599, -160.191, -92.7448, 57.0109
2.52742, -1, -35.9684, 0.951326, 20.4716, -160.242, -92.7271, 56.7153
2.53541, -1, -36.1196, 0.910686, 20.4836, -160.291, -92.7097, 56.4252
2.54348, -1, -36.2634, 0.872199, 20.4955, -160.338, -92.6925, 56.1448
2.55141, -1, -36.3976, 0.836536, 20.5071, -160.384, -92.6759, 55.8802
2.55941, -1, -36.5207, 0.803996, 20.5177, -160.425, -92.6605, 55.6377
2.5675, -1, -36.6312, 0.774741, 20.527, -160.461, -92.6472, 55.4231
2.57541, -1, -36.7273, 0.749312, 20.5346, -160.492, -92.6358, 55.2408
2.58341, -1, -36.8086, 0.727641, 20.54, -160.517, -92.6268, 55.0937
2.59149, -1, -36.8762, 0.709657, 20.5431, -160.536, -92.6202, 54.9815
2.59946, -1, -36.9308, 0.695284, 20.5444, -160.55, -92.6155, 54.9014
2.6075, -1, -36.9727, 0.684281, 20.5448, -160.56, -92.6124, 54.847
2.61558, -1, -37.0035, 0.676147, 20.5445, -160.566, -92.6107, 54.8136
2.62351, -1, -37.0248, 0.670515, 20.5439, -160.569, -92.6097, 54.7945
2.63152, -1, -37.0382, 0.667118, 20.5435, -160.571, -92.6093, 54.7847
2.63986, -1, -37.0457, 0.665329, 20.5433, -160.572, -92.609, 54.7801
2.64748, 2, -37.0487, 0.664499, 20.5432, -160.573, -92.6089, 54.778
2.65541, 2, -37.0488, 0.66417, 20.5432, -160.573, -92.6089, 54.777
2.66352, 2, -37.0484, 0.664051, 20.5431, -160.573, -92.6089, 54.7766
2.67145, 2, -37.0483, 0.664027, 20.5431, -160.573, -92.6089, 54.7764
2.67964, 2, -37.0486, 0.663993, 20.5431, -160.573, -92.6089, 54.7765
2.68769, 2, -37.0495, 0.663932, 20.543, -160.573, -92.6089, 54.7766
2.69561, 2, -37.0506, 0.663852, 20.5429, -160.573, -92.6089, 54.7768
2.7037, 2, -37.0518, 0.663686, 20.5428, -160.573, -92.609, 54.7771
2.71186, 2, -37.0531, 0.66345, 20.5426, -160.573, -92.609, 54.7774
2.71988, 2, -37.0543, 0.663242, 20.5424, -160.573, -92.6091, 54.7776
2.728, 2, -37.0552, 0.663068, 20.5422, -160.573, -92.6091, 54.778
2.7365, 2, -37.0557, 0.662976, 20.5421, -160.573, -92.6092, 54.7783
2.74396, 2, -37.0556, 0.662946, 20.5419, -160.573, -92.6091, 54.7786
2.75196, 2, -37.055, 0.66294, 20.5418, -160.573, -92.6092, 54.7789
2.76056, 2, -37.0541, 0.662991, 20.5417, -160.573, -92.6092, 54.7792
2.76798, 2, -37.0537, 0.663023, 20.5417, -160.573, -92.6093, 54.7794
2.7754, 2, -37.0524, 0.663096, 20.5417, -160.573, -92.6093, 54.7795
2.78422, 2, -37.0508, 0.663263, 20.5416, -160.573, -92.6093, 54.78
2.79141, 2, -37.0495, 0.663409, 20.5415, -160.573, -92.6093, 54.78
2.80028, 2, -37.0486, 0.663464, 20.5415, -160.573, -92.6093, 54.7802
2.80752, 2, -37.048, 0.663464, 20.5415, -160.573, -92.6094, 54.7803
2.8154, 2, -37.0479, 0.663471, 20.5415, -160.573, -92.6094, 54.7804
2.8234, 2, -37.048, 0.663412, 20.5414, -160.573, -92.6094, 54.7804
2.83145, 2, -37.0483, 0.663361, 20.5414, -160.573, -92.6094, 54.7804
2.83946, 2, -37.0486, 0.663311, 20.5414, -160.573, -92.6095, 54.7805
2.84744, 2, -37.0492, 0.663284, 20.5414, -160.573, -92.6095, 54.7806
2.85545, 2, -37.05, 0.663271, 20.5414, -160.573, -92.6095, 54.7806
2.86499, 2, -37.0511, 0.663255, 20.5414, -160.573, -92.6095, 54.7806
2.87349, 2, -37.0517, 0.663281, 20.5413, -160.573, -92.6095, 54.7806
2.87946, 2, -37.0518, 0.663304, 20.5413, -160.573, -92.6095, 54.7807
2.88741, 2, -37.052, 0.663336, 20.5414, -160.573, -92.6095, 54.7807
2.89727, 2, -37.052, 0.663357, 20.5414, -160.573, -92.6094, 54.7807
2.90347, 2, -37.0519, 0.66337, 20.5413, -160.573, -92.6094, 54.7807
2.91318, 2, -37.0515, 0.663377, 20.5413, -160.573, -92.6095, 54.7808
2.91939, 2, -37.0511, 0.663363, 20.5413, -160.573, -92.6095, 54.7808
2.92747, 2, -37.0509, 0.663327, 20.5413, -160.573, -92.6095, 54.7809
2.9354, 2, -37.0507, 0.663303, 20.5413, -160.573, -92.6095, 54.7809
2.9434, 2, -37.0506, 0.663292, 20.5413, -160.573, -92.6095, 54.7809
2.95147, 2, -37.0506, 0.663268, 20.5413, -160.573, -92.6095, 54.7809
2.9594, 2, -37.0506, 0.663259, 20.5413, -160.573, -92.6095, 54.7809
2.96741, 2, -37.0506, 0.66326, 20.5413, -160.573, -92.6095, 54.781
2.97553, 2, -37.0506, 0.663272, 20.5413, -160.573, -92.6096, 54.7811
2.98339, 2, -37.0507, 0.663278, 20.5413, -160.573, -92.6096, 54.7811
2.9914, 2, -37.0509, 0.663281, 20.5413, -160.573, -92.6096, 54.7812
2.99946, 2, -37.0511, 0.663293, 20.5413, -160.573, -92.6096, 54.7812
3.00741, 2, -37.0512, 0.663332, 20.5413, -160.573, -92.6096, 54.7812
3.01543, 2, -37.0512, 0.663347, 20.5412, -160.573, -92.6096, 54.7812
3.0234, 2, -37.0512, 0.663349, 20.5412, -160.573, -92.6096, 54.7812
3.03139, 2, -37.0512, 0.66335, 20.5412, -160.573, -92.6096, 54.7813
3.03946, 2, -37.0511, 0.66335, 20.5412, -160.573, -92.6096, 54.7813
3.0474, 2, -37.0511, 0.663321, 20.5412, -160.573, -92.6096, 54.7813
3.05539, 2, -37.0511, 0.663311, 20.5412, -160.573, -92.6096, 54.7814
3.06346, 2, -37.0511, 0.663303, 20.5412, -160.573, -92.6097, 54.7815
3.0714, 2, -37.0511, 0.663322, 20.5412, -160.573, -92.6097, 54.7816
3.0794, 2, -37.0511, 0.663319, 20.5412, -160.573, -92.6097, 54.7816
3.08756, 2, -37.0511, 0.663318, 20.5412, -160.573, -92.6097, 54.7816
3.09542, 2, -37.0511, 0.663325, 20.5412, -160.573, -92.6097, 54.7816
3.10345, 2, -37.051, 0.663331, 20.5412, -160.573, -92.6097, 54.7817
3.11155, 2, -37.051, 0.663361, 20.5412, -160.572, -92.6097, 54.7816
3.1195, 2, -37.0511, 0.663373, 20.5412, -160.572, -92.6098, 54.7817
3.1275, 2, -37.0511, 0.663361, 20.5412, -160.572, -92.6097, 54.7817
3.1356, 2, -37.051, 0.663355, 20.5412, -160.572, -92.6097, 54.7817
3.14356, 2, -37.051, 0.663342, 20.5412, -160.572, -92.6097, 54.7817
3.1514, 2, -37.0509, 0.663339, 20.5411, -160.572, -92.6097, 54.7818
3.15948, 2, -37.0509, 0.663327, 20.5411, -160.572, -92.6098, 54.7819
3.1676, 2, -37.0509, 0.66334, 20.5411, -160.572, -92.6098, 54.7818
3.17543, 2, -37.0509, 0.663346, 20.5411, -160.572, -92.6098, 54.7819
3.18359, 2, -37.0509, 0.66333, 20.5411, -160.572, -92.6098, 54.7819
3.19161, 2, -37.0509, 0.663341, 20.5411, -160.572, -92.6098, 54.7819
3.1996, 2, -37.0509, 0.663346, 20.5411, -160.572, -92.6097, 54.7819
3.2078, 2, -37.0509, 0.663349, 20.5411, -160.572, -92.6098, 54.7819
3.2158, 2, -37.0508, 0.66335, 20.5411, -160.572, -92.6098, 54.782
3.22443, 2, -37.0508, 0.663363, 20.5411, -160.572, -92.6098, 54.782
3.23198, 2, -37.0508, 0.663356, 20.5411, -160.572, -92.6098, 54.782
3.24059, 2, -37.0507, 0.663373, 20.5411, -160.572, -92.6098, 54.7821
3.24796, 2, -37.0508, 0.663366, 20.5411, -160.572, -92.6097, 54.7821
3.25603, 2, -37.0508, 0.663358, 20.541, -160.572, -92.6098, 54.782
3.26401, 2, -37.0508, 0.663354, 20.541, -160.572, -92.6098, 54.7821
3.27193, 2, -37.0507, 0.663353, 20.541, -160.572, -92.6098, 54.7821
3.28051, 2, -37.0507, 0.663351, 20.541, -160.572, -92.6098, 54.7822
3.2874, 2, -37.0507, 0.663351, 20.541, -160.572, -92.6098, 54.7822
3.29539, 2, -37.0506, 0.663333, 20.541, -160.572, -92.6098, 54.7822
3.30448, 2, -37.0506, 0.663345, 20.541, -160.572, -92.6098, 54.7822
3.31145, 2, -37.0506, 0.663347, 20.541, -160.572, -92.6098, 54.7822
3.31938, 2, -37.0506, 0.663356, 20.541, -160.572, -92.6099, 54.7822
3.32745, 2, -37.0506, 0.663378, 20.541, -160.572, -92.6098, 54.7823
3.33546, 2, -37.0505, 0.66338, 20.541, -160.572, -92.6098, 54.7823
3.34339, 2, -37.0505, 0.663372, 20.541, -160.572, -92.6099, 54.7824
3.35147, 2, -37.0505, 0.663365, 20.541, -160.572, -92.6099, 54.7824
3.35939, 2, -37.0505, 0.663357, 20.541, -160.572, -92.6099, 54.7824
3.3674, 2, -37.0504, 0.663366, 20.541, -160.572, -92.6099, 54.7825
3.37696, 2, -37.0505, 0.663356, 20.5409, -160.572, -92.6099, 54.7824
3.38504, 2, -37.0505, 0.663353, 20.5409, -160.572, -92.6099, 54.7824
3.39138, 2, -37.0505, 0.663352, 20.5409, -160.572, -92.6099, 54.7825
3.39945, 2, -37.0505, 0.663351, 20.5409, -160.572, -92.6099, 54.7825
3.40739, 2, -37.0504, 0.663351, 20.5409, -160.572, -92.6099, 54.7825
3.41644, 2, -37.0504, 0.663358, 20.5409, -160.572, -92.6099, 54.7825
3.42355, 2, -37.0504, 0.663359, 20.5409, -160.572, -92.6099, 54.7825
3.43245, 2, -37.0504, 0.663374, 20.5409, -160.572, -92.61, 54.7825
3.43938, 2, -37.0504, 0.663374, 20.5409, -160.572, -92.6099, 54.7825
3.44746, 2, -37.0504, 0.663386, 20.5409, -160.572, -92.61, 54.7825
3.45538, 2, -37.0504, 0.663384, 20.5409, -160.572, -92.61, 54.7825
3.46338, 2, -37.0503, 0.663386, 20.5409, -160.572, -92.6099, 54.7825
3.47145, 2, -37.0503, 0.663372, 20.5409, -160.572, -92.61, 54.7825
3.47944, 2, -37.0502, 0.66336, 20.5409, -160.572, -92.6099, 54.7826
3.48739, 2, -37.0503, 0.663375, 20.5409, -160.572, -92.6099, 54.7826
3.49545, 2, -37.0502, 0.663367, 20.5409, -160.572, -92.61, 54.7826
3.50338, 2, -37.0502, 0.663358, 20.5408, -160.572, -92.61, 54.7826
3.51137, 2, -37.0502, 0.663361, 20.5408, -160.572, -92.61, 54.7826
3.51948, 2, -37.0502, 0.663361, 20.5408, -160.572, -92.61, 54.7826
3.52739, 2, -37.0502, 0.663363, 20.5408, -160.572, -92.61, 54.7826
3.53538, 2, -37.0501, 0.663373, 20.5408, -160.572, -92.61, 54.7826
3.54345, 2, -37.0501, 0.663368, 20.5408, -160.572, -92.61, 54.7826
3.55139, 2, -37.0501, 0.663383, 20.5408, -160.572, -92.61, 54.7827
3.55938, 2, -37.05, 0.663383, 20.5408, -160.572, -92.61, 54.7827
3.56746, 2, -37.05, 0.663366, 20.5408, -160.572, -92.61, 54.7827
3.57539, 2, -37.05, 0.663377, 20.5408, -160.572, -92.61, 54.7827
3.58337, 2, -37.05, 0.663368, 20.5408, -160.572, -92.61, 54.7827
3.59145, 2, -37.0499, 0.663366, 20.5408, -160.572, -92.61, 54.7827
3.59942, 2, -37.0499, 0.663363, 20.5408, -160.572, -92.61, 54.7827
3.60745, 2, -37.0499, 0.663369, 20.5408, -160.572, -92.61, 54.7827
3.61554, 2, -37.0499, 0.663366, 20.5407, -160.572, -92.61, 54.7828
3.62348, 2, -37.0498, 0.663382, 20.5407, -160.572, -92.6101, 54.7828
3.63149, 2, -37.0498, 0.66339, 20.5407, -160.572, -92.6101, 54.7828
3.63954, 2, -37.0498, 0.663393, 20.5407, -160.572, -92.6101, 54.7828
3.64781, 2, -37.0498, 0.663395, 20.5407, -160.572, -92.6101, 54.7827
3.65556, 2, -37.0498, 0.663395, 20.5407, -160.572, -92.61, 54.7828
3.6634, 2, -37.0497, 0.663396, 20.5407, -160.572, -92.6101, 54.7828
3.67141, 2, -37.0497, 0.663414, 20.5407, -160.572, -92.6101, 54.7828
3.67956, 2, -37.0497, 0.663423, 20.5407, -160.572, -92.6101, 54.7828
3.68753, 2, -37.0497, 0.663401, 20.5407, -160.572, -92.6101, 54.7828
3.6957, 2, -37.0497, 0.663393, 20.5407, -160.572, -92.6101, 54.7828
3.7041, 2, -37.0497, 0.663383, 20.5407, -160.571, -92.6101, 54.7828
3.71168, 2, -37.0497, 0.663378, 20.5407, -160.571, -92.6101, 54.7828
3.71972, 2, -37.0496, 0.663388, 20.5406, -160.571, -92.6101, 54.7828
3.72817, 4, -37.0496, 0.663385, 20.5406, -160.571, -92.6101, 54.7828
3.73585, 4, -37.0496, 0.663379, 20.5406, -160.571, -92.6101, 54.7828
3.74447, 4, -37.0496, 0.663402, 20.5406, -160.571, -92.6101, 54.7828
3.75202, 4, -37.0495, 0.663399, 20.5406, -160.571, -92.6101, 54.7829
3.75992, 4, -37.0495, 0.663397, 20.5406, -160.571, -92.6101, 54.7829
3.76793, 4, -37.0495, 0.663397, 20.5406, -160.571, -92.6101, 54.7829
3.77644, 4, -37.0495, 0.663396, 20.5406, -160.571, -92.6101, 54.7829
3.78337, 4, -37.0494, 0.663396, 20.5406, -160.571, -92.6101, 54.7829
3.7924, 4, -37.0494, 0.663409, 20.5406, -160.571, -92.6102, 54.7829
3.79942, 4, -37.0494, 0.663405, 20.5406, -160.571, -92.6101, 54.7829
3.80738, 4, -37.0494, 0.6634, 20.5406, -160.571, -92.6101, 54.7829
3.81565, 4, -37.0494, 0.663398, 20.5405, -160.571, -92.6101, 54.7829
3.82342, 4, -37.0494, 0.663397, 20.5405, -160.571, -92.6101, 54.7829
3.83155, 4, -37.0494, 0.663384, 20.5405, -160.571, -92.6101, 54.7829
3.85524, 4, -37.0493, 0.663395, 20.5405, -160.571, -92.6101, 54.7829
3.85739, 4, -37.0493, 0.663395, 20.5405, -160.571, -92.6101, 54.7829
3.85861, 4, -37.0493, 0.663395, 20.5405, -160.571, -92.6101, 54.7829
3.86342, 4, -37.0493, 0.663388, 20.5405, -160.571, -92.6102, 54.7829
3.87301, 4, -37.0493, 0.66339, 20.5405, -160.571, -92.6101, 54.7829
3.87938, 4, -37.0493, 0.663392, 20.5405, -160.571, -92.6101, 54.7829
3.88907, 4, -37.0478, 0.662983, 20.5406, -160.571, -92.6101, 54.7829
3.89538, 4, -37.0462, 0.662361, 20.5407, -160.571, -92.6101, 54.7829
3.90491, 4, -37.0404, 0.659623, 20.5415, -160.571, -92.6102, 54.7829
3.91143, 4, -37.0317, 0.654635, 20.5437, -160.571, -92.6102, 54.7829
3.92115, 4, -37.021, 0.647665, 20.5481, -160.57, -92.6102, 54.7828
3.92739, 4, -37.0082, 0.638534, 20.5555, -160.569, -92.6102, 54.7828
3.93544, 5, -36.9925, 0.626785, 20.5666, -160.567, -92.6101, 54.7829
3.94337, 5, -36.9744, 0.612419, 20.5817, -160.564, -92.6101, 54.7828
3.95138, 5, -36.9547, 0.596272, 20.6006, -160.56, -92.6099, 54.7826
3.95943, 5, -36.9337, 0.578214, 20.6222, -160.555, -92.6097, 54.7826
3.96738, 5, -36.91, 0.557504, 20.6463, -160.55, -92.6095, 54.7825
3.97544, 5, -36.8827, 0.534427, 20.6721, -160.545, -92.6092, 54.7823
3.98342, 5, -36.8523, 0.509769, 20.6986, -160.539, -92.6088, 54.7822
3.99148, 5, -36.8203, 0.484053, 20.7258, -160.533, -92.6085, 54.782
3.99986, 5, -36.7872, 0.457935, 20.7532, -160.527, -92.608, 54.7818
4.00737, 5, -36.7536, 0.431523, 20.7807, -160.521, -92.6074, 54.7816
4.01537, 5, -36.7197, 0.404968, 20.808, -160.514, -92.6069, 54.7814
4.02419, 5, -36.6858, 0.378338, 20.8354, -160.508, -92.6063, 54.7813
4.03137, 5, -36.6521, 0.351635, 20.8629, -160.502, -92.6056, 54.7812
4.03937, 5, -36.6186, 0.325202, 20.8905, -160.496, -92.6048, 54.7811
4.04816, 5, -36.5851, 0.298742, 20.918, -160.49, -92.6042, 54.781
4.05536, 5, -36.5515, 0.272419, 20.9456, -160.484, -92.6033, 54.7808
4.06337, 5, -36.5177, 0.246049, 20.9733, -160.478, -92.6025, 54.7807
4.07217, 5, -36.4841, 0.219801, 21.0008, -160.472, -92.6017, 54.7806
4.07936, 5, -36.4506, 0.1936, 21.0282, -160.466, -92.6009, 54.7806
4.08751, 5, -36.4172, 0.167398, 21.0556, -160.46, -92.6001, 54.7804
4.09638, 5, -36.3838, 0.141174, 21.0831, -160.455, -92.5992, 54.7802
4.10414, 5, -36.3505, 0.114758, 21.1107, -160.449, -92.5984, 54.78
4.11163, 5, -36.3169, 0.0884595, 21.138, -160.443, -92.5976, 54.7796
4.12033, 5, -36.2831, 0.0620796, 21.1652, -160.438, -92.5967, 54.7792
4.12747, 5, -36.249, 0.0356515, 21.1926, -160.432, -92.5959, 54.7789
4.13589, 5, -36.2146, 0.00925867, 21.22, -160.426, -92.5951, 54.7785
4.14426, 5, -36.1804, -0.0171765, 21.2472, -160.421, -92.5943, 54.778
4.15154, 5, -36.1462, -0.0433785, 21.2744, -160.415, -92.5934, 54.7775
4.16002, 5, -36.1121, -0.0696288, 21.3017, -160.409, -92.5925, 54.777
4.16844, 5, -36.0779, -0.0957314, 21.3291, -160.403, -92.5917, 54.7764
4.1754, 5, -36.0437, -0.121884, 21.3562, -160.397, -92.5908, 54.7759
4.18416, 5, -36.0096, -0.147963, 21.3833, -160.391, -92.59, 54.7754
4.19149, 5, -35.9754, -0.173968, 21.4105, -160.385, -92.5892, 54.7748
4.19957, 5, -35.9414, -0.200016, 21.4378, -160.379, -92.5884, 54.7743
4.20844, 5, -35.9072, -0.225926, 21.4648, -160.372, -92.5876, 54.7738
4.21649, 5, -35.8734, -0.252034, 21.4919, -160.366, -92.5868, 54.7734
4.22459, 5, -35.8395, -0.278034, 21.5189, -160.359, -92.586, 54.773
4.23179, 5, -35.8054, -0.304054, 21.546, -160.353, -92.5851, 54.7726
4.23995, 5, -35.7711, -0.330175, 21.5729, -160.347, -92.5843, 54.7723
4.24877, 5, -35.7366, -0.35619, 21.5998, -160.341, -92.5835, 54.7719
4.25597, 5, -35.7022, -0.382269, 21.6267, -160.334, -92.5827, 54.7716
4.26396, 5, -35.6678, -0.408184, 21.6536, -160.328, -92.5819, 54.7713
4.27295, 5, -35.6334, -0.43411, 21.6804, -160.322, -92.5811, 54.7711
4.2799, 5, -35.6161, -0.447046, 21.6938, -160.319, -92.5807, 54.7709
4.28792, 5, -35.5815, -0.472877, 21.7205, -160.313, -92.58, 54.7708
4.29723, 5, -35.5299, -0.511707, 21.7607, -160.305, -92.5788, 54.7706
4.30335, 5, -35.5127, -0.524564, 21.7741, -160.302, -92.5783, 54.7705
4.31245, 5, -35.4609, -0.563194, 21.814, -160.293, -92.5772, 54.7704
4.31942, 5, -35.4436, -0.576024, 21.8273, -160.29, -92.5768, 54.7704
4.32856, 5, -35.392, -0.614623, 21.8671, -160.281, -92.5756, 54.7703
4.33535, 5, -35.3748, -0.627528, 21.8804, -160.278, -92.5752, 54.7703
4.34335, 5, -35.3405, -0.653148, 21.9068, -160.272, -92.5745, 54.7702
4.3514, 5, -35.3059, -0.678883, 21.9333, -160.266, -92.5737, 54.7702
4.36092, 5, -35.2541, -0.717381, 21.973, -160.257, -92.5726, 54.7702
4.37067, 5, -35.2195, -0.743128, 21.9994, -160.25, -92.5717, 54.7702
4.37544, 5, -35.2022, -0.755968, 22.0125, -160.247, -92.5714, 54.7702
4.38497, 5, -35.1498, -0.794166, 22.0519, -160.237, -92.5702, 54.7702
4.39779, 5, -35.0976, -0.83234, 22.0914, -160.227, -92.569, 54.7702
4.3993, 5, -35.0976, -0.83234, 22.0914, -160.227, -92.569, 54.7702
4.40741, 5, -35.0628, -0.857859, 22.1177, -160.221, -92.5682, 54.7702
4.4164, 5, -35.0281, -0.883371, 22.1438, -160.214, -92.5674, 54.7704
4.42338, 5, -34.9931, -0.908675, 22.1699, -160.207, -92.5666, 54.7704
4.43145, 5, -34.9581, -0.934137, 22.196, -160.201, -92.5659, 54.7704
4.4395, 5, -34.9233, -0.959455, 22.2222, -160.194, -92.5651, 54.7704
4.44811, 5, -34.8885, -0.984883, 22.2481, -160.188, -92.5643, 54.7704
4.45547, 5, -34.8538, -1.01025, 22.2741, -160.182, -92.5635, 54.7704
4.46336, 5, -34.8188, -1.03546, 22.3, -160.176, -92.5627, 54.7705
4.47136, 5, -34.784, -1.06078, 22.326, -160.17, -92.5619, 54.7705
4.47939, 5, -34.7492, -1.08601, 22.3518, -160.164, -92.5611, 54.7706
4.48849, 5, -34.7142, -1.11131, 22.3775, -160.158, -92.5603, 54.7706
4.49536, 5, -34.6791, -1.13658, 22.4033, -160.152, -92.5596, 54.7707
4.50342, 5, -34.6439, -1.16173, 22.4292, -160.146, -92.5587, 54.7708
4.51136, 5, -34.6089, -1.18694, 22.455, -160.14, -92.5579, 54.771
4.52034, 5, -34.5739, -1.21202, 22.4806, -160.134, -92.5571, 54.7712
4.52839, 5, -34.5387, -1.23723, 22.5062, -160.128, -92.5562, 54.7714
4.53874, 5, -34.5034, -1.26232, 22.5318, -160.121, -92.5554, 54.7716
4.54349, 5, -34.4681, -1.28737, 22.5574, -160.115, -92.5546, 54.7719
4.55142, 5, -34.4329, -1.31242, 22.5829, -160.108, -92.5538, 54.7724
4.55935, 5, -34.3977, -1.33734, 22.6085, -160.102, -92.553, 54.7729
4.56834, 5, -34.3624, -1.36242, 22.6339, -160.095, -92.5522, 54.7737
4.57535, 5, -34.3271, -1.38734, 22.6595, -160.088, -92.5514, 54.7745
4.58335, 5, -34.2919, -1.41226, 22.6848, -160.081, -92.5505, 54.7753
4.59159, 5, -34.2567, -1.43717, 22.7101, -160.074, -92.5497, 54.7763
4.6004, 5, -34.2214, -1.46198, 22.7354, -160.068, -92.5489, 54.7776
4.60739, 5, -34.1858, -1.48693, 22.7608, -160.061, -92.548, 54.7789
4.6155, 5, -34.1505, -1.51168, 22.7862, -160.054, -92.5472, 54.7803
4.62344, 5, -34.1151, -1.53641, 22.8114, -160.047, -92.5463, 54.7817
4.63144, 5, -34.0798, -1.56115, 22.8366, -160.041, -92.5454, 54.7831
4.64019, 5, -34.0443, -1.58577, 22.8617, -160.034, -92.5446, 54.7847
4.64746, 5, -34.0087, -1.61058, 22.887, -160.028, -92.5438, 54.7863
4.65552, 5, -33.9732, -1.6352, 22.912, -160.021, -92.5429, 54.788
4.6645, 5, -33.9377, -1.65981, 22.937, -160.015, -92.542, 54.7897
4.67234, 5, -33.9021, -1.68446, 22.9621, -160.009, -92.5412, 54.7914
4.67939, 5, -33.8663, -1.70895, 22.9871, -160.002, -92.5403, 54.7932
4.6875, 5, -33.8308, -1.73359, 23.012, -159.996, -92.5395, 54.7949
4.69552, 5, -33.7952, -1.7581, 23.0368, -159.989, -92.5386, 54.7966
4.70355, 5, -33.7595, -1.78258, 23.0616, -159.983, -92.5377, 54.7984
4.71196, 5, -33.7238, -1.80718, 23.0865, -159.976, -92.5368, 54.8003
4.72042, 5, -33.688, -1.83164, 23.1113, -159.969, -92.536, 54.8021
4.72772, 5, -33.6524, -1.85616, 23.136, -159.962, -92.5351, 54.8039
4.7384, 5, -33.6168, -1.88058, 23.1607, -159.955, -92.5342, 54.8057
4.74392, 5, -33.5808, -1.90496, 23.1854, -159.948, -92.5334, 54.8076
4.75249, 5, -33.545, -1.92934, 23.2101, -159.941, -92.5325, 54.8096
4.7604, 5, -33.5092, -1.9537, 23.2347, -159.934, -92.5316, 54.8115
4.76796, 5, -33.4736, -1.97829, 23.2592, -159.927, -92.5306, 54.8134
4.77593, 5, -33.4557, -1.99058, 23.2715, -159.92, -92.5296, 54.8152
4.78434, 5, -33.402, -2.02749, 23.3085, -159.913, -92.5286, 54.8169
4.7933, 5, -33.3842, -2.0523, 23.3333, -159.906, -92.5274, 54.8185
4.79934, 5, -33.3486, -2.06471, 23.3456, -159.902, -92.5267, 54.8192
4.80737, 5, -33.3131, -2.08977, 23.3705, -159.895, -92.5252, 54.8204
4.81531, 6, -33.2777, -2.1151, 23.3956, -159.888, -92.5233, 54.8213
4.82452, 6, -33.2245, -2.15332, 23.4339, -159.876, -92.52, 54.822
4.83134, 6, -33.2069, -2.16624, 23.4467, -159.873, -92.5188, 54.8221
4.83937, 6, -33.1718, -2.19224, 23.4724, -159.865, -92.516, 54.8222
4.84879, 6, -33.1192, -2.23196, 23.5115, -159.852, -92.5112, 54.8222
4.85534, 6, -33.1017, -2.24529, 23.5247, -159.848, -92.5094, 54.8222
4.86522, 6, -33.0496, -2.28582, 23.5646, -159.835, -92.5036, 54.8217
4.87131, 6, -33.0323, -2.2995, 23.5779, -159.83, -92.5016, 54.8214
4.88186, 6, -32.9807, -2.34105, 23.6185, -159.816, -92.495, 54.8201
4.89136, 6, -32.9463, -2.36926, 23.6459, -159.806, -92.4902, 54.819
4.89536, 7, -32.9291, -2.38339, 23.6598, -159.801, -92.4877, 54.8184
4.90334, 7, -32.8951, -2.41201, 23.6874, -159.79, -92.4824, 54.817
4.91136, 7, -32.8613, -2.44088, 23.7152, -159.779, -92.4769, 54.8148
4.91939, 7, -32.8275, -2.47019, 23.7434, -159.768, -92.4711, 54.8116
4.92845, 7, -32.7938, -2.49984, 23.772, -159.757, -92.4651, 54.8075
4.93547, 7, -32.7602, -2.5297, 23.8006, -159.746, -92.4588, 54.8028
4.94414, 7, -32.7269, -2.55998, 23.8294, -159.735, -92.4521, 54.7975
4.95239, 7, -32.6938, -2.59063, 23.8586, -159.724, -92.445, 54.7917
4.95934, 7, -32.6607, -2.6216, 23.8881, -159.712, -92.4377, 54.7853
4.96741, 7, -32.6277, -2.65278, 23.9177, -159.7, -92.43, 54.7785
4.97535, 7, -32.5948, -2.68432, 23.9475, -159.688, -92.4219, 54.7712
4.98482, 8, -32.5621, -2.71635, 23.9778, -159.675, -92.4134, 54.7635
4.9914, 8, -32.5295, -2.74867, 24.0082, -159.662, -92.4044, 54.7553
4.9994, 8, -32.4971, -2.78127, 24.0387, -159.649, -92.3949, 54.7466
5.00734, 8, -32.4647, -2.81415, 24.0695, -159.635, -92.3848, 54.7374
5.01534, 8, -32.4326, -2.84745, 24.1008, -159.622, -92.3743, 54.7278
5.0234, 8, -32.4006, -2.88102, 24.1321, -159.608, -92.3635, 54.7177
5.03134, 8, -32.3688, -2.91494, 24.1636, -159.594, -92.3525, 54.7072
5.04122, 8, -32.337, -2.9492, 24.1955, -159.58, -92.3413, 54.6962
5.04832, 8, -32.3052, -2.98381, 24.2277, -159.566, -92.3299, 54.6847
5.05533, 8, -32.2738, -3.01868, 24.2599, -159.552, -92.3184, 54.6727
5.06333, 9, -32.2425, -3.05379, 24.2925, -159.537, -92.3067, 54.6602
5.07143, 9, -32.2113, -3.08933, 24.3254, -159.521, -92.2947, 54.6473
5.07934, 9, -32.1802, -3.1252, 24.3584, -159.505, -92.2823, 54.6342
5.08735, 9, -32.1491, -3.16139, 24.3917, -159.489, -92.2696, 54.6209
5.09554, 9, -32.1183, -3.19789, 24.4253, -159.474, -92.2563, 54.6075
5.10336, 9, -32.0877, -3.23479, 24.4591, -159.458, -92.2424, 54.5938
5.11154, 9, -32.0572, -3.27202, 24.4929, -159.442, -92.228, 54.5798
5.11947, 9, -32.0268, -3.30965, 24.5272, -159.425, -92.2132, 54.5655
5.12743, 9, -31.9964, -3.34762, 24.5617, -159.409, -92.1983, 54.5508
5.13547, 9, -31.9662, -3.38591, 24.5964, -159.392, -92.1832, 54.5357
5.14349, 10, -31.9362, -3.42456, 24.6314, -159.374, -92.168, 54.5201
5.15144, 10, -31.9063, -3.46363, 24.6666, -159.356, -92.1525, 54.5038
5.1595, 10, -31.8766, -3.50295, 24.702, -159.339, -92.1367, 54.4871
5.16741, 10, -31.847, -3.54263, 24.7378, -159.321, -92.1203, 54.4697
5.17536, 10, -31.8175, -3.58266, 24.7739, -159.303, -92.1034, 54.452
5.18374, 10, -31.7883, -3.62294, 24.81, -159.285, -92.0858, 54.4342
5.19255, 10, -31.7592, -3.66355, 24.8465, -159.267, -92.0679, 54.4163
5.19958, 10, -31.7301, -3.70463, 24.8832, -159.248, -92.0499, 54.3982
5.20758, 10, -31.7011, -3.74591, 24.9201, -159.229, -92.0319, 54.3799
5.21655, 10, -31.6723, -3.78744, 24.9573, -159.209, -92.0137, 54.3611
5.22367, 10, -31.6437, -3.82953, 24.9949, -159.19, -91.9954, 54.342
5.23249, 11, -31.6152, -3.87185, 25.0325, -159.17, -91.9765, 54.3222
5.2404, 11, -31.5868, -3.91444, 25.0704, -159.151, -91.9569, 54.3019
5.24791, 11, -31.5585, -3.95749, 25.1088, -159.131, -91.9368, 54.2809
5.25737, 11, -31.53, -4.00084, 25.1471, -159.111, -91.9164, 54.2598
5.26488, 11, -31.5018, -4.04458, 25.1857, -159.09, -91.8959, 54.2386
5.27189, 11, -31.4739, -4.08875, 25.2247, -159.068, -91.8753, 54.2172
5.28149, 11, -31.4461, -4.13318, 25.2638, -159.047, -91.8545, 54.1956
5.28864, 11, -31.4186, -4.17802, 25.3032, -159.026, -91.8332, 54.1736
5.29638, 11, -31.391, -4.22332, 25.3429, -159.005, -91.8113, 54.1512
5.30335, 11, -31.3772, -4.24606, 25.3628, -158.994, -91.8, 54.1397
5.31221, 12, -31.3497, -4.29172, 25.4028, -158.972, -91.7773, 54.1161
5.31935, 12, -31.3225, -4.3378, 25.4432, -158.95, -91.7545, 54.092
5.32854, 12, -31.2818, -4.40753, 25.504, -158.916, -91.7203, 54.0555
5.33533, 12, -31.2685, -4.43094, 25.5244, -158.904, -91.7089, 54.0433
5.34329, 12, -31.2418, -4.47803, 25.5655, -158.881, -91.6855, 54.019
5.35279, 12, -31.2017, -4.54917, 25.6276, -158.847, -91.6491, 53.9819
5.35947, 12, -31.1885, -4.57308, 25.6484, -158.835, -91.6368, 53.9692
5.36737, 12, -31.1621, -4.62115, 25.6901, -158.812, -91.6122, 53.9434
5.37691, 12, -31.1225, -4.6938, 25.7533, -158.775, -91.5752, 53.9035
5.38514, 12, -31.0964, -4.74269, 25.7956, -158.751, -91.5501, 53.8767
5.39139, 12, -31.0833, -4.76729, 25.8168, -158.739, -91.5373, 53.8633
5.40093, 13, -31.0442, -4.84169, 25.881, -158.703, -91.4976, 53.8225
5.4073, 13, -31.0314, -4.86665, 25.9025, -158.691, -91.4843, 53.8088
5.41539, 13, -31.0057, -4.91694, 25.9457, -158.666, -91.4577, 53.7808
5.42435, 13, -30.9802, -4.96765, 25.9892, -158.64, -91.4312, 53.7522
5.43328, 13, -30.9548, -5.01867, 26.0329, -158.615, -91.4043, 53.7083
5.44012, 13, -30.9295, -5.07007, 26.0769, -158.59, -91.3768, 53.6937
5.44733, 13, -30.9041, -5.12179, 26.1212, -158.564, -91.3485, 53.6643
5.45632, 13, -30.879, -5.1739, 26.1656, -158.539, -91.3203, 53.6347
5.46338, 13, -30.8541, -5.22623, 26.2104, -158.512, -91.292, 53.6046
5.47132, 13, -30.8294, -5.27885, 26.2553, -158.485, -91.2636, 53.574
5.48079, 14, -30.8047, -5.33189, 26.3006, -158.459, -91.2344, 53.5426
5.48733, 14, -30.7802, -5.38507, 26.3461, -158.433, -91.2043, 53.5111
5.49537, 14, -30.7557, -5.43865, 26.3918, -158.406, -91.1744, 53.48
5.50331, 14, -30.7312, -5.4926, 26.4379, -158.379, -91.1446, 53.4486
5.51234, 14, -30.707, -5.54695, 26.484, -158.351, -91.1146, 53.4166
5.51931, 14, -30.6829, -5.6017, 26.5304, -158.324, -91.0836, 53.3838
5.52734, 14, -30.659, -5.6568, 26.5772, -158.296, -91.0519, 53.3503
5.53719, 14, -30.6352, -5.71242, 26.6241, -158.268, -91.0203, 53.3167
5.54437, 14, -30.6115, -5.76838, 26.6713, -158.24, -90.9888, 53.2833
5.55549, 14, -30.5761, -5.85301, 26.7425, -158.197, -90.9405, 53.2326
5.55931, 14, -30.5644, -5.88137, 26.7665, -158.182, -90.9239, 53.2153
5.56744, 15, -30.5411, -5.93839, 26.8144, -158.154, -90.8906, 53.1802
5.57533, 15, -30.5179, -5.99564, 26.8626, -158.125, -90.8577, 53.1449
5.58332, 15, -30.4949, -6.05315, 26.9111, -158.096, -90.8247, 53.1098
5.59138, 15, -30.4721, -6.11102, 26.9599, -158.065, -90.7909, 53.0743
5.59942, 15, -30.4492, -6.1691, 27.0089, -158.035, -90.7564, 53.0382
5.60752, 15, -30.4264, -6.22749, 27.0581, -158.005, -90.7222, 53.0012
5.61545, 15, -30.4039, -6.28631, 27.1075, -157.975, -90.6878, 52.964
5.6234, 15, -30.3816, -6.34549, 27.1572, -157.944, -90.6527, 52.9268
5.63141, 15, -30.3592, -6.40514, 27.2071, -157.913, -90.6167, 52.8893
5.63949, 15, -30.3371, -6.46521, 27.2573, -157.882, -90.5809, 52.8514
5.64743, 16, -30.3151, -6.52577, 27.3077, -157.851, -90.5454, 52.8124
5.65543, 16, -30.2931, -6.58667, 27.3583, -157.82, -90.5091, 52.7734
5.66349, 16, -30.2711, -6.64796, 27.4093, -157.788, -90.4719, 52.7346
5.6714, 16, -30.2494, -6.70962, 27.4605, -157.755, -90.4351, 52.6954
5.67943, 16, -30.2279, -6.77152, 27.5119, -157.724, -90.3982, 52.6556
5.68742, 16, -30.2063, -6.83373, 27.5636, -157.692, -90.3605, 52.6151
5.69548, 16, -30.1849, -6.89613, 27.6156, -157.659, -90.3218, 52.5747
5.70381, 16, -30.1637, -6.95883, 27.6679, -157.626, -90.2836, 52.5344
5.71408, 16, -30.1426, -7.02186, 27.7203, -157.593, -90.2454, 52.4935
5.71967, 16, -30.1215, -7.08524, 27.7731, -157.56, -90.2062, 52.4518
5.72892, 17, -30.1006, -7.14902, 27.826, -157.527, -90.1665, 52.4099
5.73571, 17, -30.08, -7.2133, 27.8791, -157.493, -90.1272, 52.3684
5.74388, 17, -30.0594, -7.27795, 27.9326, -157.46, -90.0875, 52.3265
5.75321, 17, -30.0388, -7.34306, 27.9862, -157.426, -90.0466, 52.2838
5.75984, 17, -30.0185, -7.4086, 28.0401, -157.392, -90.0059, 52.2403
5.76849, 17, -29.9983, -7.47443, 28.0943, -157.358, -89.9656, 52.197
5.77773, 17, -29.9882, -7.54064, 28.1487, -157.323, -89.9244, 52.1537
5.78413, 17, -29.958, -7.60715, 28.2033, -157.288, -89.8823, 52.1098
5.79127, 17, -29.948, -7.64048, 28.2308, -157.271, -89.8616, 52.0875
5.80424, 17, -29.9184, -7.7409, 28.3135, -157.2, -89.7776, 51.9983
5.80733, 17, -29.9085, -7.77449, 28.3412, -157.2, -89.7776, 51.9983
5.81642, 18, -29.8791, -7.87572, 28.4246, -157.146, -89.7132, 51.9309
5.8233, 18, -29.8694, -7.90966, 28.4525, -157.128, -89.6921, 51.908
5.83136, 18, -29.8501, -7.9778, 28.5085, -157.092, -89.6494, 51.8618
5.83931, 18, -29.8308, -8.0463, 28.5647, -157.055, -89.6054, 51.816
5.84941, 18, -29.802, -8.14988, 28.6497, -157, -89.5403, 51.7466
5.85547, 18, -29.7925, -8.18457, 28.678, -156.982, -89.5184, 51.723
5.86613, 18, -29.7642, -8.2893, 28.7637, -156.926, -89.4509, 51.652
5.87136, 18, -29.7548, -8.32438, 28.7924, -156.907, -89.4285, 51.6284
5.87931, 18, -29.7361, -8.39473, 28.8498, -156.87, -89.3842, 51.5811
5.8889, 18, -29.7083, -8.50084, 28.9366, -156.814, -89.3157, 51.5086
5.89559, 19, -29.699, -8.53637, 28.9657, -156.795, -89.2928, 51.4844
5.90394, 19, -29.6807, -8.60761, 29.0239, -156.756, -89.2473, 51.4363
5.91131, 19, -29.6623, -8.67927, 29.0824, -156.719, -89.2012, 51.3879
5.92029, 19, -29.6441, -8.75117, 29.1411, -156.681, -89.1542, 51.3386
5.9281, 19, -29.626, -8.82344, 29.2, -156.642, -89.1076, 51.2895
5.93535, 19, -29.6082, -8.8961, 29.2592, -156.603, -89.0609, 51.2407
5.94429, 19, -29.5904, -8.96905, 29.3187, -156.564, -89.0133, 51.1912
5.95246, 19, -29.5727, -9.04238, 29.3783, -156.525, -88.9661, 51.1407
5.96144, 19, -29.5552, -9.11606, 29.4383, -156.485, -88.8944, 51.0651
5.96829, 19, -29.5378, -9.19008, 29.4985, -156.446, -88.8701, 51.0399
5.97878, 20, -29.5118, -9.30167, 29.5893, -156.386, -88.7983, 50.9628
5.9833, 20, -29.5031, -9.33905, 29.6197, -156.366, -88.7741, 50.937
5.99131, 20, -29.4859, -9.41408, 29.6806, -156.325, -88.7249, 50.8857
5.99942, 20, -29.4688, -9.48938, 29.7417, -156.285, -88.6762, 50.834
6.00732, 20, -29.4519, -9.56496, 29.803, -156.244, -88.6271, 50.7813
6.01531, 20, -29.435, -9.64091, 29.8645, -156.202, -88.577, 50.7285
6.02336, 20, -29.4183, -9.71716, 29.9262, -156.161, -88.5275, 50.6759
6.03146, 20, -29.4017, -9.79384, 29.9883, -156.12, -88.4777, 50.6226
6.03937, 20, -29.3853, -9.87074, 30.0506, -156.078, -88.4269, 50.5688
6.04731, 20, -29.3691, -9.94797, 30.1133, -156.035, -88.3766, 50.5154
6.0553, 20, -29.3527, -10.0255, 30.1761, -155.994, -88.3256, 50.4618
6.06334, 21, -29.3365, -10.1034, 30.2391, -155.952, -88.274, 50.4073
6.0713, 21, -29.3203, -10.1818, 30.3024, -155.908, -88.2229, 50.3528
6.0793, 21, -29.3043, -10.2602, 30.3658, -155.866, -88.1711, 50.2986
6.08738, 21, -29.2884, -10.339, 30.4295, -155.824, -88.1191, 50.2437
6.0953, 21, -29.2726, -10.4182, 30.4933, -155.78, -88.0675, 50.1886
6.10383, 21, -29.257, -10.4976, 30.5574, -155.737, -88.0146, 50.1341
6.11242, 21, -29.2415, -10.5773, 30.6217, -155.694, -87.9618, 50.079
6.11938, 21, -29.2261, -10.6573, 30.6863, -155.65, -87.9094, 50.0232
6.12752, 21, -29.2108, -10.7375, 30.7511, -155.606, -87.8558, 49.9677
6.13578, 21, -29.1954, -10.8181, 30.8163, -155.562, -87.8027, 49.912
6.1434, 21, -29.18, -10.899, 30.8816, -155.518, -87.7493, 49.8555
6.15386, 22, -29.1648, -10.9802, 30.9472, -155.472, -87.6948, 49.7992
6.15977, 22, -29.1498, -11.0617, 31.0129, -155.428, -87.6412, 49.7432
6.16749, 22, -29.1349, -11.1435, 31.0787, -155.383, -87.5867, 49.6862
6.17554, 22, -29.12, -11.2256, 31.1448, -155.337, -87.5317, 49.6289
6.18418, 22, -29.1054, -11.3081, 31.211, -155.291, -87.4772, 49.5723
6.19137, 22, -29.0909, -11.3907, 31.2775, -155.246, -87.4214, 49.5152
6.20029, 22, -29.0764, -11.4737, 31.3443, -155.2, -87.3662, 49.4571
6.21189, 22, -29.0621, -11.5571, 31.445, -155.13, -87.2828, 49.3706
6.21635, 22, -29.0478, -11.6408, 31.4787, -155.107, -87.2548, 49.3415
6.22369, 22, -29.0335, -11.7247, 31.5461, -155.06, -87.1993, 49.2826
6.2318, 23, -29.0195, -11.8089, 31.6138, -155.014, -87.1427, 49.2242
6.24043, 23, -29.0054, -11.8933, 31.6816, -154.967, -87.0862, 49.1659
6.24786, 23, -28.9915, -11.9781, 31.7495, -154.92, -87.0303, 49.1068
6.2564, 23, -28.9776, -12.0631, 31.8176, -154.872, -86.9728, 49.0481
6.26384, 23, -28.9638, -12.1482, 31.886, -154.826, -86.9164, 48.9896
6.27247, 23, -28.95, -12.2337, 31.9546, -154.778, -86.8588, 48.9302
6.28015, 23, -28.9364, -12.3196, 32.0235, -154.729, -86.801, 48.8708
6.28782, 23, -28.9297, -12.3626, 32.058, -154.706, -86.7725, 48.8117
6.29629, 23, -28.9095, -12.4921, 32.1618, -154.633, -86.6849, 48.752
6.30473, 23, -28.8961, -12.5787, 32.2314, -154.584, -86.627, 48.6924
6.31131, 23, -28.8894, -12.622, 32.2662, -154.56, -86.5979, 48.6629
6.31934, 24, -28.8761, -12.7091, 32.336, -154.512, -86.5388, 48.6032
6.32938, 24, -28.8564, -12.84, 32.4409, -154.437, -86.4512, 48.5128
6.33539, 24, -28.8498, -12.8838, 32.4759, -154.413, -86.4213, 48.4829
6.34325, 24, -28.8368, -12.9716, 32.5461, -154.363, -86.3621, 48.4229
6.35272, 24, -28.8176, -13.1038, 32.6519, -154.288, -86.2729, 48.3317
6.36458, 24, -28.8048, -13.1923, 32.7228, -154.239, -86.1838, 48.2414
6.3673, 24, -28.7984, -13.2367, 32.7583, -154.213, -86.1838, 48.2414
6.37688, 24, -28.7797, -13.3701, 32.8651, -154.138, -86.0936, 48.1498
6.38334, 24, -28.7734, -13.4147, 32.9008, -154.113, -86.0638, 48.1195
6.39129, 24, -28.7608, -13.504, 32.9723, -154.062, -86.0038, 48.0589
6.40088, 25, -28.7483, -13.6385, 33.0796, -153.986, -85.9129, 47.9671
6.40727, 25, -28.7357, -13.6834, 33.1155, -153.961, -85.883, 47.9368
6.41679, 25, -28.7232, -13.7734, 33.1874, -153.909, -85.8218, 47.8763
6.42433, 25, -28.7108, -13.8637, 33.2596, -153.857, -85.7612, 47.815
6.4323, 25, -28.6986, -13.9542, 33.332, -153.807, -85.6999, 47.754
6.43939, 25, -28.6864, -14.0449, 33.4045, -153.754, -85.6385, 47.6933
6.44833, 25, -28.6744, -14.1358, 33.4772, -153.702, -85.5776, 47.6319
6.45643, 25, -28.6626, -14.227, 33.5501, -153.65, -85.5156, 47.5709
6.46333, 25, -28.6507, -14.3184, 33.6232, -153.597, -85.4545, 47.5103
6.47128, 25, -28.6389, -14.41, 33.6963, -153.545, -85.3923, 47.4486
6.4795, 26, -28.6273, -14.5018, 33.7696, -153.492, -85.3306, 47.3874
6.48736, 26, -28.6157, -14.594, 33.8429, -153.438, -85.2688, 47.3266
6.49537, 26, -28.604, -14.6863, 33.9165, -153.386, -85.2064, 47.265
6.50336, 26, -28.5925, -14.7788, 33.9902, -153.332, -85.1446, 47.2037
6.51135, 26, -28.5809, -14.8714, 34.0642, -153.278, -85.0816, 47.1429
6.51929, 26, -28.5692, -14.9641, 34.1383, -153.226, -85.0194, 47.0813
6.52779, 26, -28.5576, -15.0571, 34.2126, -153.171, -84.9563, 47.0201
6.53704, 26, -28.5461, -15.1502, 34.2871, -153.118, -84.8936, 46.9596
6.54328, 26, -28.5346, -15.2435, 34.3616, -153.064, -84.8305, 46.8984
6.55435, 26, -28.5175, -15.3839, 34.4735, -152.982, -84.7358, 46.8077
6.55929, 26, -28.5119, -15.4307, 34.5109, -152.955, -84.7043, 46.7776
6.56729, 27, -28.5006, -15.5246, 34.5858, -152.9, -84.6406, 46.7166
6.57536, 27, -28.4893, -15.6186, 34.6609, -152.845, -84.5776, 46.6557
6.58328, 27, -28.4782, -15.7129, 34.736, -152.791, -84.5135, 46.5955
6.59128, 27, -28.4672, -15.8074, 34.8114, -152.735, -84.4502, 46.5346
6.59954, 27, -28.4561, -15.902, 34.8869, -152.68, -84.3864, 46.4738
6.60748, 27, -28.445, -15.9969, 34.9625, -152.624, -84.3225, 46.4137
6.61627, 27, -28.4341, -16.092, 35.0382, -152.568, -84.2588, 46.3529
6.62337, 27, -28.423, -16.1872, 35.1139, -152.513, -84.1943, 46.292
6.63138, 27, -28.4119, -16.2825, 35.1896, -152.456, -84.1308, 46.2319
6.63944, 27, -28.4009, -16.3779, 35.2656, -152.4, -84.066, 46.1714
6.64737, 28, -28.39, -16.4734, 35.3417, -152.344, -84.002, 46.1109
6.6554, 28, -28.379, -16.5691, 35.418, -152.287, -83.9372, 46.0513
6.66335, 28, -28.3681, -16.665, 35.4945, -152.231, -83.8729, 45.9914
6.67152, 28, -28.3573, -16.761, 35.571, -152.174, -83.8084, 45.9313
6.67931, 28, -28.3465, -16.8572, 35.6477, -152.117, -83.7436, 45.8723
6.68733, 28, -28.3356, -16.9534, 35.7242, -152.061, -83.6792, 45.8131
6.69633, 28, -28.3248, -17.0497, 35.8008, -152.002, -83.6139, 45.7538
6.70373, 28, -28.3142, -17.1462, 35.8776, -151.946, -83.5498, 45.6956
6.71278, 28, -28.3035, -17.2427, 35.9545, -151.887, -83.4845, 45.6374
6.72044, 28, -28.2928, -17.3394, 36.0315, -151.829, -83.4199, 45.5787
6.72845, 28, -28.2822, -17.4363, 36.1086, -151.772, -83.3546, 45.5211
6.73568, 29, -28.2715, -17.5333, 36.1859, -151.713, -83.2895, 45.4635
6.74459, 29, -28.2607, -17.6305, 36.2632, -151.655, -83.2244, 45.4057
6.75179, 29, -28.25, -17.7277, 36.3406, -151.596, -83.1588, 45.3485
6.75984, 29, -28.2394, -17.8249, 36.418, -151.538, -83.0936, 45.292
6.76873, 29, -28.2288, -17.9222, 36.4953, -151.48, -83.0277, 45.235
6.77589, 29, -28.2181, -18.0196, 36.5727, -151.421, -82.9628, 45.1782
6.78411, 29, -28.2074, -18.1172, 36.6503, -151.363, -82.8968, 45.1225
6.79247, 29, -28.1968, -18.2148, 36.7281, -151.303, -82.8317, 45.0665
6.79928, 29, -28.1915, -18.2637, 36.767, -151.274, -82.7987, 45.0383
6.80832, 29, -28.1755, -18.4105, 36.8839, -151.185, -82.7005, 44.9553
6.81615, 30, -28.1702, -18.4594, 36.9229, -151.155, -82.6679, 44.9003
6.82327, 30, -28.1597, -18.5573, 37.0008, -151.096, -82.6018, 44.8726
6.83126, 30, -28.1492, -18.6552, 37.0786, -151.036, -82.5368, 44.8174
6.84062, 30, -28.1333, -18.8022, 37.1953, -150.946, -82.4376, 44.7366
6.84733, 30, -28.1281, -18.8512, 37.2343, -150.916, -82.4051, 44.7097
6.85675, 30, -28.1121, -18.9987, 37.3515, -150.825, -82.306, 44.629
6.86329, 30, -28.1067, -19.0479, 37.3906, -150.795, -82.2733, 44.6028
6.87277, 30, -28.0905, -19.1955, 37.5079, -150.704, -82.174, 44.5245
6.882, 30, -28.0799, -19.2939, 37.5861, -150.645, -82.1086, 44.472
6.88914, 30, -28.0693, -19.3922, 37.6644, -150.583, -82.0425, 44.4203
6.89534, 30, -28.0639, -19.4414, 37.7034, -150.553, -82.0095, 44.3949
6.90329, 31, -28.0531, -19.5398, 37.7816, -150.493, -81.944, 44.3442
6.91287, 31, -28.0424, -19.6381, 37.8598, -150.432, -81.8449, 44.268
6.92026, 31, -28.0315, -19.7365, 37.938, -150.371, -81.8124, 44.2433
6.92833, 31, -28.0205, -19.8351, 38.0164, -150.31, -81.7464, 44.1941
6.93627, 31, -28.0096, -19.9336, 38.0948, -150.249, -81.6808, 44.1449
6.94339, 31, -27.9988, -20.0321, 38.1732, -150.187, -81.6148, 44.0957
6.95246, 31, -27.9879, -20.1306, 38.2516, -150.125, -81.549, 44.0472
6.95928, 31, -27.9769, -20.2291, 38.3299, -150.064, -81.4833, 43.9996
6.9673, 31, -27.9659, -20.3277, 38.4081, -150.002, -81.4173, 43.9517
6.97619, 31, -27.9549, -20.4263, 38.4863, -149.94, -81.3517, 43.9042
6.98431, 32, -27.9437, -20.525, 38.5645, -149.878, -81.2854, 43.858
6.99127, 32, -27.9324, -20.6238, 38.6427, -149.816, -81.2202, 43.8124
7.00007, 32, -27.9213, -20.7225, 38.721, -149.755, -81.1541, 43.7669
7.00733, 32, -27.91, -20.821, 38.7994, -149.692, -81.0889, 43.7215
7.01531, 32, -27.8987, -20.9196, 38.8776, -149.631, -81.0228, 43.6773
7.02429, 32, -27.8874, -21.0182, 38.9559, -149.568, -80.9575, 43.6339
7.03142, 32, -27.8759, -21.1166, 39.034, -149.506, -80.892, 43.5908
7.04026, 32, -27.8644, -21.2151, 39.1121, -149.443, -80.8265, 43.548
7.04834, 32, -27.8528, -21.3137, 39.1901, -149.381, -80.7612, 43.506
7.05628, 32, -27.8414, -21.4121, 39.2682, -149.318, -80.6954, 43.4653
7.06448, 33, -27.8298, -21.5104, 39.3463, -149.255, -80.6305, 43.4249
7.07433, 33, -27.8123, -21.6579, 39.4634, -149.161, -80.5322, 43.3649
7.07934, 33, -27.8064, -21.7071, 39.5024, -149.129, -80.4999, 43.3452
7.08727, 33, -27.7945, -21.8053, 39.5804, -149.067, -80.4341, 43.3068
7.09527, 33, -27.7824, -21.9036, 39.6583, -149.003, -80.3692, 43.2694
7.10339, 33, -27.7704, -22.0019, 39.736, -148.941, -80.3041, 43.2323
7.11147, 33, -27.7584, -22.1001, 39.8136, -148.878, -80.2389, 43.1955
7.11931, 33, -27.7463, -22.1982, 39.8913, -148.815, -80.1741, 43.1593
7.12752, 33, -27.7341, -22.2962, 39.9689, -148.752, -80.1089, 43.1244
7.14029, 33, -27.7157, -22.4432, 40.0853, -148.657, -80.012, 43.0738
7.1434, 33, -27.7095, -22.4922, 40.1241, -148.626, -79.9794, 43.0573
7.15137, 34, -27.6971, -22.59, 40.2016, -148.561, -79.9152, 43.0245
7.15959, 34, -27.6847, -22.6877, 40.2791, -148.498, -79.8499, 42.9918
7.16744, 34, -27.6722, -22.7855, 40.3564, -148.434, -79.7855, 42.9602
7.17539, 34, -27.6596, -22.883, 40.4336, -148.371, -79.7206, 42.9299
7.18404, 34, -27.6469, -22.9804, 40.5106, -148.307, -79.6558, 42.9007
7.19225, 34, -27.6339, -23.0778, 40.5876, -148.243, -79.5912, 42.8722
7.19984, 34, -27.6208, -23.175, 40.6645, -148.18, -79.5261, 42.8442
7.21003, 34, -27.6078, -23.2721, 40.7414, -148.116, -79.4621, 42.8167
7.21554, 34, -27.5946, -23.3693, 40.8183, -148.053, -79.3971, 42.79
7.22451, 34, -27.5813, -23.4664, 40.8951, -147.988, -79.333, 42.7643
7.23184, 35, -27.5679, -23.5635, 40.9717, -147.925, -79.2679, 42.74
7.24029, 35, -27.5543, -23.6603, 41.048, -147.861, -79.2041, 42.7166
7.24778, 35, -27.5407, -23.7569, 41.1242, -147.797, -79.1397, 42.6943
7.25577, 35, -27.5271, -23.8534, 41.2002, -147.734, -79.0755, 42.673
7.26435, 35, -27.5134, -23.9497, 41.2763, -147.669, -79.0115, 42.6522
7.27188, 35, -27.4996, -24.0458, 41.3522, -147.606, -78.947, 42.632
7.28297, 35, -27.4856, -24.1418, 41.4282, -147.541, -78.8835, 42.6125
7.28836, 35, -27.4713, -24.2377, 41.504, -147.477, -78.8191, 42.5942
7.29583, 35, -27.4641, -24.2856, 41.5418, -147.445, -78.7873, 42.5854
7.30327, 35, -27.4497, -24.3812, 41.6174, -147.381, -78.7235, 42.5691
7.31136, 35, -27.4352, -24.4767, 41.6927, -147.317, -78.6594, 42.5537
7.31926, 36, -27.4205, -24.5721, 41.7678, -147.253, -78.5961, 42.5396
7.32913, 36, -27.3982, -24.7149, 41.8801, -147.157, -78.5006, 42.5202
7.3353, 36, -27.3907, -24.7625, 41.9175, -147.125, -78.4691, 42.5144
7.34459, 36, -27.368, -24.905, 42.0295, -147.029, -78.3739, 42.4983
7.3513, 36, -27.3604, -24.9525, 42.0668, -146.997, -78.3426, 42.4933
7.35927, 36, -27.3451, -25.0473, 42.1413, -146.933, -78.2797, 42.4843
7.36726, 36, -27.3297, -25.142, 42.2156, -146.869, -78.2166, 42.4763
7.37709, 36, -27.306, -25.2833, 42.3267, -146.773, -78.1224, 42.4661
7.38326, 36, -27.2981, -25.3303, 42.3636, -146.741, -78.0908, 42.4633
7.39287, 36, -27.2742, -25.4711, 42.474, -146.645, -77.9973, 42.4563
7.40086, 37, -27.2581, -25.5646, 42.5474, -146.581, -77.9344, 42.4532
7.40732, 37, -27.2499, -25.6113, 42.584, -146.549, -77.9034, 42.452
7.41696, 37, -27.2334, -25.7047, 42.6938, -146.453, -77.8095, 42.45
7.42425, 37, -27.2168, -25.7978, 42.7303, -146.421, -77.7785, 42.4496
7.43225, 37, -27.2002, -25.8907, 42.8032, -146.357, -77.7167, 42.4493
7.44031, 37, -27.1834, -25.9833, 42.8759, -146.294, -77.6542, 42.4493
7.44745, 37, -27.1663, -26.0759, 42.9483, -146.23, -77.5927, 42.4497
7.45606, 37, -27.1489, -26.1682, 43.0204, -146.167, -77.5304, 42.4514
7.46326, 37, -27.1314, -26.2601, 43.0923, -146.103, -77.4688, 42.4553
7.47375, 37, -27.1049, -26.3978, 43.1997, -146.008, -77.3762, 42.4642
7.47932, 37, -27.096, -26.4436, 43.2354, -145.976, -77.3454, 42.468
7.48725, 38, -27.0779, -26.5351, 43.3068, -145.913, -77.2845, 42.4768
7.49527, 38, -27.0598, -26.6263, 43.3779, -145.85, -77.2225, 42.487
7.50326, 38, -27.0415, -26.7172, 43.4488, -145.786, -77.1618, 42.4987
7.51125, 38, -27.0231, -26.8078, 43.5195, -145.723, -77.1003, 42.5116
7.51933, 38, -27.0044, -26.8982, 43.59, -145.66, -77.039, 42.5259
7.5274, 38, -26.9853, -26.9882, 43.6602, -145.597, -76.9782, 42.5417
7.53526, 38, -26.966, -27.078, 43.73, -145.534, -76.9167, 42.559
7.54332, 38, -26.9466, -27.1676, 43.7997, -145.472, -76.8566, 42.5779
7.55125, 38, -26.927, -27.257, 43.869, -145.409, -76.7956, 42.5984
7.55926, 38, -26.9072, -27.346, 43.9382, -145.347, -76.7352, 42.6207
7.56732, 39, -26.8872, -27.4348, 44.0071, -145.285, -76.6748, 42.6447
7.57539, 39, -26.8671, -27.5233, 44.0757, -145.222, -76.6139, 42.6697
7.58326, 39, -26.8466, -27.6116, 44.1441, -145.161, -76.5542, 42.6959
7.59125, 39, -26.8259, -27.6995, 44.2122, -145.098, -76.4935, 42.7236
7.59932, 39, -26.805, -27.7872, 44.2802, -145.037, -76.4338, 42.7526
7.60726, 39, -26.7839, -27.8747, 44.3477, -144.974, -76.3735, 42.7835
7.61563, 39, -26.7626, -27.9619, 44.4149, -144.913, -76.3132, 42.8163
7.62348, 39, -26.741, -28.0486, 44.4818, -144.851, -76.2536, 42.8504
7.63225, 39, -26.7192, -28.1351, 44.5483, -144.789, -76.193, 42.8855
7.63974, 39, -26.6972, -28.2213, 44.6147, -144.729, -76.1337, 42.9222
7.64741, 39, -26.6747, -28.3071, 44.6807, -144.667, -76.0734, 42.9607
7.65536, 40, -26.6522, -28.3926, 44.7466, -144.607, -76.014, 43.0012
7.66368, 40, -26.6294, -28.4777, 44.8121, -144.546, -75.9546, 43.0429
7.67171, 40, -26.6063, -28.5624, 44.8772, -144.486, -75.8948, 43.0856
7.67926, 40, -26.5828, -28.6468, 44.9421, -144.426, -75.8358, 43.13
7.68803, 40, -26.5593, -28.731, 45.0065, -144.366, -75.7759, 43.1765
7.69708, 40, -26.5354, -28.8146, 45.0706, -144.306, -75.7171, 43.2243
7.70506, 40, -26.5109, -28.898, 45.1343, -144.246, -75.658, 43.2732
7.71224, 40, -26.4864, -28.981, 45.1977, -144.187, -75.5988, 43.324
7.72353, 40, -26.4491, -29.1049, 45.2921, -144.097, -75.511, 43.4038
7.72752, 40, -26.4365, -29.146, 45.3234, -144.068, -75.4812, 43.4309
7.73558, 41, -26.411, -29.2279, 45.3857, -144.01, -75.4229, 43.4861
7.74439, 41, -26.3854, -29.3096, 45.4478, -143.95, -75.3644, 43.5436
7.75169, 41, -26.3593, -29.3908, 45.5095, -143.893, -75.3057, 43.6024
7.76004, 41, -26.3329, -29.4717, 45.5708, -143.834, -75.2478, 43.6623
7.76862, 41, -26.3064, -29.5521, 45.6317, -143.777, -75.1889, 43.7245
7.77601, 41, -26.2795, -29.6321, 45.6921, -143.72, -75.1312, 43.7885
7.78394, 41, -26.2524, -29.7116, 45.7522, -143.662, -75.0733, 43.8535
7.792, 41, -26.2248, -29.7908, 45.8118, -143.606, -75.0152, 43.9213
7.80025, 41, -26.1968, -29.8695, 45.8709, -143.549, -74.9579, 43.9904
7.8073, 41, -26.1827, -29.9086, 45.9004, -143.521, -74.9289, 44.0254
7.81525, 41, -26.1544, -29.9867, 45.9591, -143.466, -74.8709, 44.0977
7.82324, 42, -26.1257, -30.0644, 46.0173, -143.409, -74.8141, 44.1714
7.83124, 42, -26.0967, -30.1416, 46.0753, -143.354, -74.7562, 44.2463
7.8404, 42, -26.0523, -30.2566, 46.1612, -143.271, -74.6708, 44.3629
7.84724, 42, -26.0373, -30.2946, 46.1897, -143.243, -74.6421, 44.4023
7.85689, 42, -25.9921, -30.4082, 46.2743, -143.163, -74.5562, 44.5243
7.8654, 42, -25.9616, -30.4833, 46.3301, -143.108, -74.4993, 44.6068
7.87139, 42, -25.9461, -30.5207, 46.3578, -143.081, -74.4705, 44.6494
7.87921, 42, -25.9149, -30.5951, 46.413, -143.029, -74.4137, 44.7353
7.88963, 42, -25.8672, -30.7056, 46.4946, -142.949, -74.3283, 44.8681
7.89681, 42, -25.835, -30.7787, 46.5486, -142.898, -74.2717, 44.9584
7.90502, 43, -25.8023, -30.8513, 46.602, -142.846, -74.2156, 45.0516
7.91129, 43, -25.7859, -30.8875, 46.6286, -142.82, -74.1871, 45.0987
7.92005, 43, -25.7528, -30.9595, 46.6813, -142.769, -74.1307, 45.194
7.92724, 43, -25.7191, -31.0308, 46.7335, -142.719, -74.0748, 45.2917
7.93622, 43, -25.6853, -31.1017, 46.7852, -142.669, -74.0181, 45.3906
7.94425, 43, -25.651, -31.1721, 46.8363, -142.619, -73.9625, 45.4917
7.95144, 43, -25.6162, -31.2417, 46.887, -142.571, -73.9066, 45.5947
7.95924, 43, -25.5807, -31.311, 46.9371, -142.521, -73.8506, 45.6993
7.96736, 43, -25.5449, -31.3795, 46.9867, -142.474, -73.7954, 45.8059
7.97526, 43, -25.5089, -31.4474, 47.0357, -142.426, -73.7392, 45.914
7.98351, 44, -25.4724, -31.5147, 47.0841, -142.378, -73.6839, 46.0243
7.99448, 44, -25.4166, -31.6146, 47.1557, -142.31, -73.6009, 46.1931
7.99924, 44, -25.3978, -31.6476, 47.1792, -142.287, -73.5731, 46.2501
8.00727, 44, -25.3599, -31.7131, 47.2259, -142.241, -73.5186, 46.3661
8.01529, 44, -25.3216, -31.7781, 47.272, -142.196, -73.4632, 46.484
8.02324, 44, -25.2828, -31.8425, 47.3175, -142.153, -73.4082, 46.6043
8.03127, 44, -25.2433, -31.9063, 47.3624, -142.109, -73.354, 46.7267
8.03928, 44, -25.2035, -31.9694, 47.4068, -142.066, -73.299, 46.8507
8.04737, 44, -25.1633, -32.0318, 47.4504, -142.025, -73.2448, 46.9769
8.05556, 44, -25.1225, -32.0934, 47.4934, -141.983, -73.1907, 47.1052
8.06327, 44, -25.0812, -32.1543, 47.5359, -141.942, -73.1361, 47.2355
8.0713, 45, -25.0396, -32.2145, 47.5776, -141.903, -73.0826, 47.3682
8.0793, 45, -24.9974, -32.274, 47.6187, -141.864, -73.0288, 47.503
8.08723, 45, -24.9544, -32.3327, 47.659, -141.825, -72.975, 47.6398
8.09532, 45, -24.911, -32.3909, 47.6986, -141.787, -72.9222, 47.779
8.10326, 45, -24.8672, -32.4483, 47.7376, -141.75, -72.8685, 47.92
8.11124, 45, -24.8228, -32.505, 47.7759, -141.714, -72.8155, 48.0627
8.11951, 45, -24.7778, -32.5611, 47.8132, -141.678, -72.763, 48.2076
8.12848, 45, -24.7324, -32.6163, 47.85, -141.643, -72.7097, 48.3546
8.13622, 45, -24.6865, -32.6707, 47.8861, -141.609, -72.6575, 48.5036
8.14364, 45, -24.6399, -32.7243, 47.9214, -141.576, -72.6052, 48.6545
8.15133, 46, -24.5928, -32.7769, 47.956, -141.543, -72.5524, 48.8072
8.15934, 46, -24.545, -32.8287, 47.9899, -141.511, -72.501, 48.9621
8.16812, 46, -24.4967, -32.8795, 48.0228, -141.481, -72.449, 49.1188
8.17526, 46, -24.4479, -32.9294, 48.0551, -141.452, -72.3972, 49.2778
8.18325, 46, -24.3985, -32.9785, 48.0867, -141.423, -72.3462, 49.4391
8.19236, 46, -24.3486, -33.0268, 48.1173, -141.395, -72.2945, 49.6025
8.20199, 46, -24.298, -33.0742, 48.1471, -141.368, -72.2434, 49.768
8.20822, 46, -24.247, -33.1209, 48.1761, -141.342, -72.1934, 49.9352
8.21557, 46, -24.1953, -33.1667, 48.2043, -141.317, -72.1424, 50.1045
8.22438, 46, -24.1428, -33.2116, 48.2315, -141.294, -72.0923, 50.2755
8.23151, 46, -24.09, -33.2555, 48.258, -141.271, -72.0428, 50.4482
8.24227, 47, -24.0364, -33.2984, 48.2835, -141.248, -71.9926, 50.6233
8.24832, 47, -23.9821, -33.3404, 48.3082, -141.227, -71.9434, 50.8002
8.25574, 47, -23.9274, -33.3812, 48.3319, -141.207, -71.8947, 50.9794
8.26432, 47, -23.8719, -33.4209, 48.3546, -141.189, -71.8454, 51.1609
8.2726, 47, -23.8157, -33.4596, 48.3766, -141.172, -71.797, 51.3439
8.28059, 47, -23.759, -33.4973, 48.3977, -141.155, -71.7491, 51.5292
8.28794, 47, -23.7016, -33.5338, 48.4179, -141.14, -71.7006, 51.7167
8.29718, 47, -23.6435, -33.5693, 48.4371, -141.126, -71.6531, 51.9065
8.30323, 47, -23.6143, -33.5866, 48.4463, -141.119, -71.6297, 52.002
8.31203, 47, -23.5552, -33.6207, 48.4725, -141.101, -71.5592, 52.2919
8.31921, 48, -23.4956, -33.6535, 48.4807, -141.095, -71.5359, 52.3894
8.32896, 48, -23.4049, -33.7008, 48.5036, -141.08, -71.4673, 52.6851
8.33641, 48, -23.3436, -33.7309, 48.5177, -141.071, -71.4212, 52.8848
8.34328, 48, -23.3128, -33.7456, 48.5244, -141.067, -71.3983, 52.9854
8.3534, 48, -23.2192, -33.7876, 48.5429, -141.058, -71.3316, 53.2899
8.35927, 48, -23.1876, -33.8009, 48.5485, -141.055, -71.3096, 53.3924
8.36903, 48, -23.0921, -33.839, 48.5638, -141.05, -71.2433, 53.7029
8.3767, 48, -23.0598, -33.8631, 48.5728, -141.048, -71.2003, 53.9129
8.38474, 48, -22.9621, -33.8857, 48.5807, -141.047, -71.1575, 54.1248
8.39283, 48, -22.896, -33.907, 48.5874, -141.046, -71.1144, 54.3383
8.40081, 48, -22.8293, -33.9273, 48.5931, -141.047, -71.0725, 54.5535
8.40724, 49, -22.7957, -33.9369, 48.5955, -141.047, -71.052, 54.6618
8.41692, 49, -22.6939, -33.9634, 48.6007, -141.051, -70.9904, 54.9896
8.42484, 49, -22.6596, -33.9717, 48.6019, -141.054, -70.9496, 55.2105
8.43222, 49, -22.5906, -33.9873, 48.6034, -141.059, -70.9296, 55.3215
8.44025, 49, -22.5209, -34.0014, 48.604, -141.066, -70.8905, 55.5453
8.448, 49, -22.4505, -34.0139, 48.6038, -141.075, -70.8514, 55.7705
8.45528, 49, -22.3794, -34.0249, 48.6025, -141.086, -70.8124, 55.9978
8.46332, 49, -22.3076, -34.0346, 48.6001, -141.098, -70.7749, 56.2274
8.47122, 49, -22.2351, -34.0431, 48.5965, -141.112, -70.7383, 56.4588
8.47928, 49, -22.1618, -34.05, 48.5917, -141.127, -70.7018, 56.6922
8.49038, 50, -22.0509, -34.0575, 48.5819, -141.153, -70.6482, 57.0449
8.49523, 50, -22.0136, -34.0593, 48.578, -141.162, -70.631, 57.1636
8.50322, 50, -21.9384, -34.0616, 48.5692, -141.181, -70.5971, 57.4022
8.51128, 50, -21.8627, -34.0625, 48.559, -141.202, -70.5636, 57.6424
8.51922, 50, -21.786, -34.0624, 48.5477, -141.224, -70.5302, 57.8844
8.52722, 50, -21.7085, -34.0609, 48.5351, -141.249, -70.4981, 58.1283
8.5353, 50, -21.6302, -34.0578, 48.5211, -141.275, -70.4673, 58.3744
8.54336, 50, -21.5514, -34.053, 48.5056, -141.301, -70.4375, 58.622
8.55122, 50, -21.472, -34.0465, 48.4889, -141.33, -70.4079, 58.8709
8.55929, 50, -21.392, -34.0382, 48.4708, -141.359, -70.3788, 59.1213
8.56751, 51, -21.3115, -34.0281, 48.4512, -141.391, -70.351, 59.3733
8.57523, 51, -21.2303, -34.0163, 48.4304, -141.425, -70.3244, 59.6272
8.58322, 51, -21.1483, -34.0029, 48.4081, -141.459, -70.2987, 59.8825
8.59128, 51, -21.0656, -33.9878, 48.3843, -141.495, -70.2737, 60.1392
8.59922, 51, -20.9821, -33.9705, 48.3592, -141.534, -70.2492, 60.3977
8.60723, 51, -20.8978, -33.9514, 48.3327, -141.573, -70.2256, 60.6582
8.61562, 51, -20.813, -33.9306, 48.3049, -141.614, -70.2035, 60.92
8.62429, 51, -20.7275, -33.9078, 48.2755, -141.656, -70.1825, 61.1835
8.63132, 51, -20.6415, -33.8832, 48.2447, -141.701, -70.1629, 61.4481
8.63966, 51, -20.555, -33.8568, 48.2126, -141.746, -70.1444, 61.7144
8.64737, 51, -20.4679, -33.8283, 48.179, -141.793, -70.1267, 61.9823
8.65533, 52, -20.3801, -33.7981, 48.1439, -141.842, -70.1099, 62.2513
8.66451, 52, -20.2916, -33.766, 48.1074, -141.891, -70.094, 62.522
8.67128, 52, -20.2024, -33.7318, 48.0694, -141.943, -70.0794, 62.7946
8.67939, 52, -20.1126, -33.6957, 48.0298, -141.996, -70.0662, 63.0685
8.68884, 52, -20.0221, -33.6575, 47.9889, -142.05, -70.0543, 63.3432
8.69699, 52, -19.9311, -33.6174, 47.9464, -142.106, -70.0437, 63.619
8.70523, 52, -19.8396, -33.5752, 47.9025, -142.164, -70.0346, 63.8965
8.71137, 52, -19.7474, -33.5309, 47.8571, -142.222, -70.0268, 64.1751
8.71936, 52, -19.6549, -33.4846, 47.8101, -142.283, -70.0203, 64.4548
8.72778, 52, -19.562, -33.4363, 47.7617, -142.344, -70.0152, 64.7355
8.73553, 53, -19.4684, -33.386, 47.7118, -142.408, -70.0113, 65.0181
8.74433, 53, -19.3742, -33.3336, 47.6604, -142.473, -70.009, 65.3017
8.75174, 53, -19.2794, -33.2791, 47.6074, -142.54, -70.0078, 65.5865
8.76034, 53, -19.184, -33.2226, 47.5529, -142.607, -70.0074, 65.8719
8.76782, 53, -19.0881, -33.164, 47.4969, -142.677, -70.0081, 66.1588
8.7763, 53, -18.9917, -33.1032, 47.4393, -142.747, -70.0102, 66.4467
8.78467, 53, -18.895, -33.0403, 47.3802, -142.819, -70.0138, 66.7356
8.792, 53, -18.7978, -32.9752, 47.3195, -142.892, -70.0191, 67.0258
8.79994, 53, -18.7, -32.9077, 47.2573, -142.967, -70.0262, 67.3173
8.80899, 53, -18.6018, -32.8381, 47.1935, -143.043, -70.0349, 67.6095
8.81923, 54, -18.5031, -32.7663, 47.1281, -143.12, -70.0454, 67.9021
8.82448, 54, -18.4038, -32.6922, 47.0612, -143.198, -70.0578, 68.1956
8.83128, 54, -18.3539, -32.6544, 47.0272, -143.238, -70.0648, 68.3429
8.83922, 54, -18.254, -32.577, 46.958, -143.319, -70.0801, 68.6378
8.84838, 54, -18.1035, -32.4569, 46.8515, -143.442, -70.107, 69.0815
8.85531, 54, -18.0531, -32.4158, 46.8152, -143.484, -70.117, 69.2298
8.86336, 54, -17.9521, -32.3319, 46.7414, -143.568, -70.1379, 69.5274
8.87276, 54, -17.8507, -32.2016, 46.6276, -143.697, -70.1721, 69.9751
8.88073, 54, -17.6979, -32.112, 46.5498, -143.784, -70.1971, 70.274
8.88964, 54, -17.5956, -32.02, 46.4704, -143.872, -70.2242, 70.5739
8.89528, 54, -17.5443, -31.9731, 46.4302, -143.917, -70.2387, 70.7242
8.90477, 55, -17.39, -31.829, 46.3073, -144.052, -70.2849, 71.1755
8.91341, 55, -17.2869, -31.7302, 46.2236, -144.144, -70.3176, 71.4773
8.9192, 55, -17.2353, -31.6799, 46.1812, -144.19, -70.3345, 71.6287
8.9287, 55, -17.1317, -31.5775, 46.0951, -144.283, -70.3701, 71.9317
8.9362, 55, -17.0277, -31.4728, 46.0074, -144.378, -70.4084, 72.2345
8.94321, 55, -16.9234, -31.3657, 45.9181, -144.473, -70.4479, 72.5376
8.95122, 55, -16.8188, -31.2564, 45.8271, -144.569, -70.4888, 72.8415
8.96029, 55, -16.714, -31.1448, 45.7347, -144.666, -70.5327, 73.1455
8.97035, 55, -16.5567, -30.9735, 45.5935, -144.813, -70.602, 73.602
8.97521, 55, -16.5042, -30.9153, 45.5457, -144.862, -70.6258, 73.7544
8.98672, 56, -16.3467, -30.737, 45.4, -145.012, -70.7014, 74.2123
8.99119, 56, -16.2941, -30.6763, 45.3507, -145.062, -70.7274, 74.365
8.99921, 56, -16.1886, -30.5531, 45.2508, -145.163, -70.7804, 74.6702
9.00728, 56, -16.0829, -30.4276, 45.1493, -145.265, -70.8368, 74.9757
9.01521, 56, -15.977, -30.3, 45.0465, -145.368, -70.8947, 75.2817
9.02324, 56, -15.8712, -30.1701, 44.9424, -145.471, -70.9546, 75.5874
9.03128, 56, -15.7653, -30.0379, 44.8371, -145.575, -71.0172, 75.8935
9.03934, 56, -15.6594, -29.9032, 44.7303, -145.679, -71.081, 76.2001
9.04727, 56, -15.5534, -29.7661, 44.6219, -145.784, -71.1481, 76.5062
9.05521, 56, -15.4472, -29.627, 44.5118, -145.889, -71.2162, 76.8118
9.0632, 56, -15.341, -29.4859, 44.4003, -145.995, -71.2873, 77.1175
9.07127, 57, -15.2347, -29.3425, 44.2876, -146.101, -71.3597, 77.4232
9.07919, 57, -15.1284, -29.1966, 44.1737, -146.208, -71.4351, 77.7286
9.08728, 57, -15.0222, -29.0485, 44.0586, -146.315, -71.5122, 78.0335
9.09521, 57, -14.916, -28.8983, 43.9419, -146.422, -71.5916, 78.3387
9.10319, 57, -14.8098, -28.7461, 43.8236, -146.53, -71.6728, 78.6436
9.11168, 57, -14.7037, -28.5916, 43.7041, -146.637, -71.7567, 78.9481
9.12101, 57, -14.5977, -28.4344, 43.5834, -146.745, -71.8428, 79.2521
9.12731, 57, -14.4919, -28.2752, 43.4617, -146.854, -71.9309, 79.556
9.13539, 57, -14.3862, -28.1141, 43.3388, -146.962, -72.0215, 79.8593
9.1433, 57, -14.2805, -27.9513, 43.2144, -147.071, -72.1142, 80.1621
9.15164, 58, -14.1748, -27.786, 43.0886, -147.179, -72.2086, 80.465
9.16176, 58, -14.0693, -27.6184, 42.9617, -147.288, -72.3054, 80.7673
9.16738, 58, -13.9641, -27.4491, 42.8336, -147.396, -72.4044, 81.0686
9.1753, 58, -13.859, -27.2785, 42.7045, -147.504, -72.5054, 81.3691
9.18319, 58, -13.7542, -27.106, 42.5742, -147.613, -72.6088, 81.6691
9.19143, 58, -13.6497, -26.9307, 42.4428, -147.721, -72.7145, 81.9686
9.20009, 58, -13.5456, -26.7531, 42.3103, -147.83, -72.8222, 82.2672
9.20819, 58, -13.4417, -26.5741, 42.1766, -147.938, -72.9322, 82.5651
9.21576, 58, -13.3379, -26.3934, 42.0419, -148.045, -73.0442, 82.8624
9.22432, 58, -13.2343, -26.2104, 41.9062, -148.153, -73.1582, 83.1588
9.23147, 58, -13.1309, -26.0247, 41.7695, -148.26, -73.2746, 83.454
9.23959, 59, -13.0278, -25.8378, 41.6321, -148.366, -73.3924, 83.7481
9.24819, 59, -12.9251, -25.6498, 41.4936, -148.473, -73.5128, 84.042
9.25572, 59, -12.8228, -25.4598, 41.3541, -148.579, -73.635, 84.3344
9.26428, 59, -12.721, -25.2677, 41.2136, -148.685, -73.7593, 84.6258
9.27259, 59, -12.6195, -25.0743, 41.0723, -148.79, -73.8857, 84.9167
9.27977, 59, -12.5182, -24.8797, 40.9303, -148.894, -74.014, 85.2065
9.28854, 59, -12.4171, -24.683, 40.7876, -148.998, -74.1444, 85.4948
9.29632, 59, -12.3163, -24.4841, 40.6437, -149.102, -74.2767, 85.7817
9.30385, 59, -12.266, -24.3842, 40.5715, -149.204, -74.4111, 86.0675
9.31233, 59, -12.1159, -24.0827, 40.3537, -149.307, -74.5471, 86.3521
9.32008, 60, -12.0662, -23.8791, 40.208, -149.408, -74.6853, 86.6352
9.32724, 60, -11.9672, -23.7765, 40.1348, -149.459, -74.755, 86.7762
9.33669, 60, -11.8197, -23.4671, 39.9144, -149.609, -74.9667, 87.1977
9.34318, 60, -11.7707, -23.3632, 39.8406, -149.659, -75.0382, 87.3376
9.35241, 60, -11.6243, -23.0483, 39.6185, -149.806, -75.2552, 87.7547
9.35922, 60, -11.5756, -22.9428, 39.5442, -149.855, -75.3286, 87.8928
9.36951, 60, -11.4301, -22.6255, 39.3201, -150.001, -75.5509, 88.3055
9.37519, 60, -11.3817, -22.519, 39.2451, -150.049, -75.6259, 88.4425
9.38466, 60, -11.2379, -22.1976, 39.0196, -150.191, -75.853, 88.8508
9.39282, 60, -11.1428, -21.9822, 38.869, -150.285, -76.0064, 89.1209
9.40079, 60, -11.0483, -21.7653, 38.7177, -150.378, -76.1614, 89.3899
9.40726, 61, -11.0013, -21.656, 38.6419, -150.424, -76.2395, 89.5237
9.41818, 61, -10.8611, -21.327, 38.414, -150.561, -76.476, 89.9223
9.42326, 61, -10.8145, -21.217, 38.3381, -150.606, -76.5555, 90.0541
9.43277, 61, -10.7218, -20.9959, 38.1862, -150.696, -76.7966, 90.4467
9.4402, 61, -10.6297, -20.7735, 38.0337, -150.784, -76.8776, 90.5769
9.44817, 61, -10.5381, -20.5505, 37.8809, -150.871, -77.041, 90.8357
9.45518, 61, -10.4471, -20.3264, 37.7279, -150.957, -77.2057, 91.0926
9.46334, 61, -10.3565, -20.101, 37.575, -151.042, -77.3717, 91.3475
9.47124, 61, -10.2667, -19.8751, 37.4217, -151.126, -77.539, 91.6005
9.47918, 61, -10.1776, -19.6488, 37.2683, -151.209, -77.7072, 91.8518
9.48722, 62, -10.0891, -19.4215, 37.1149, -151.291, -77.8768, 92.1007
9.49526, 62, -10.0012, -19.1935, 36.9619, -151.371, -78.0475, 92.3474
9.50317, 62, -9.91375, -18.965, 36.809, -151.45, -78.2191, 92.5918
9.51118, 62, -9.82706, -18.7355, 36.6557, -151.528, -78.3918, 92.8346
9.51925, 62, -9.74111, -18.5052, 36.5023, -151.604, -78.5652, 93.075
9.52722, 62, -9.65577, -18.2754, 36.3492, -151.679, -78.7397, 93.313
9.53565, 62, -9.57092, -18.0454, 36.1965, -151.754, -78.9151, 93.549
9.5444, 62, -9.48652, -17.8146, 36.0436, -151.826, -79.0917, 93.783
9.55117, 62, -9.40273, -17.584, 35.8909, -151.898, -79.2689, 94.0149
9.56223, 62, -9.27833, -17.2368, 35.6626, -152.003, -79.5363, 94.3578
9.56717, 62, -9.23716, -17.1206, 35.5868, -152.037, -79.6259, 94.4708
9.57518, 63, -9.15532, -16.8883, 35.4352, -152.105, -79.8056, 94.6946
9.58326, 63, -9.07423, -16.656, 35.2837, -152.171, -79.9861, 94.916
9.59118, 63, -8.99372, -16.423, 35.1325, -152.236, -80.1674, 95.1353
9.59918, 63, -8.91385, -16.1901, 34.9821, -152.299, -80.3491, 95.3518
9.60733, 63, -8.83469, -15.9576, 34.832, -152.362, -80.5317, 95.5657
9.61557, 63, -8.75621, -15.7245, 34.6822, -152.422, -80.7148, 95.7767
9.62424, 63, -8.67844, -15.4916, 34.5327, -152.482, -80.8983, 95.9855
9.63122, 63, -8.60133, -15.2594, 34.3839, -152.539, -81.0822, 96.1917
9.63961, 63, -8.52487, -15.0271, 34.2359, -152.596, -81.2663, 96.3951
9.64728, 63, -8.44899, -14.7946, 34.0882, -152.651, -81.451, 96.5957
9.65534, 64, -8.37387, -14.5626, 33.941, -152.704, -81.6359, 96.7932
9.66346, 64, -8.29927, -14.3304, 33.7944, -152.757, -81.821, 96.9876
9.67129, 64, -8.22533, -14.0978, 33.6487, -152.808, -82.0064, 97.1795
9.67936, 64, -8.15198, -13.8661, 33.5035, -152.858, -82.1918, 97.3686
9.68784, 64, -8.07925, -13.6351, 33.359, -152.906, -82.3775, 97.5548
9.69617, 64, -8.00714, -13.4044, 33.215, -152.953, -82.5634, 97.7378
9.70329, 64, -7.93579, -13.1745, 33.0718, -152.998, -82.7495, 97.9179
9.71159, 64, -7.86517, -12.9451, 32.9295, -153.043, -82.9357, 98.0949
9.72017, 64, -7.79519, -12.7154, 32.7879, -153.086, -83.1219, 98.2694
9.72747, 64, -7.72586, -12.4865, 32.647, -153.127, -83.3082, 98.4406
9.73671, 65, -7.65733, -12.2586, 32.5068, -153.166, -83.4945, 98.6086
9.74384, 65, -7.58926, -12.0306, 32.3675, -153.205, -83.6809, 98.7731
9.75221, 65, -7.52187, -11.803, 32.2293, -153.242, -83.8671, 98.9342
9.75964, 65, -7.45527, -11.5765, 32.0919, -153.277, -84.0533, 99.0919
9.76768, 65, -7.38915, -11.3503, 31.9552, -153.311, -84.2393, 99.2463
9.77627, 65, -7.32362, -11.1243, 31.8194, -153.344, -84.4251, 99.3972
9.78556, 65, -7.25867, -10.8996, 31.6846, -153.375, -84.6109, 99.545
9.79421, 65, -7.19436, -10.6758, 31.5508, -153.405, -84.7963, 99.6894
9.79969, 65, -7.16249, -10.5639, 31.4842, -153.419, -84.889, 99.7603
9.80884, 65, -7.06772, -10.2298, 31.2859, -153.461, -85.1666, 99.9676
9.81594, 65, -7.03649, -10.0083, 31.1548, -153.488, -85.3512, 100.101
9.82427, 66, -6.94359, -9.787, 31.0247, -153.512, -85.5355, 100.231
9.83117, 66, -6.91284, -9.6766, 30.9601, -153.524, -85.6275, 100.295
9.83922, 66, -6.85196, -9.45717, 30.8315, -153.546, -85.8114, 100.419
9.84716, 66, -6.79172, -9.23903, 30.704, -153.567, -85.9949, 100.54
9.85721, 66, -6.70247, -8.91306, 30.5145, -153.597, -86.2694, 100.714
9.86336, 66, -6.67305, -8.80507, 30.4519, -153.606, -86.3607, 100.771
9.87114, 66, -6.61458, -8.59005, 30.3273, -153.624, -86.5429, 100.88
9.8806, 66, -6.52788, -8.26851, 30.1426, -153.648, -86.8156, 101.037
9.88717, 66, -6.49928, -8.16165, 30.0815, -153.655, -86.9063, 101.088
9.89674, 66, -6.41413, -7.84361, 29.8998, -153.675, -87.1776, 101.233
9.90469, 67, -6.35812, -7.63262, 29.78, -153.687, -87.3579, 101.324
9.91276, 67, -6.30263, -7.42228, 29.6613, -153.697, -87.5379, 101.411
9.92084, 67, -6.24763, -7.21356, 29.5437, -153.705, -87.7176, 101.495
9.9288, 67, -6.2204, -7.10972, 29.4273, -153.713, -87.8966, 101.574
9.93617, 67, -6.1664, -6.90251, 29.3695, -153.716, -87.9859, 101.612
9.94422, 67, -6.11292, -6.69589, 29.2546, -153.722, -88.1641, 101.686
9.95216, 67, -6.05994, -6.4911, 29.1407, -153.727, -88.3417, 101.755
9.96023, 67, -6.00751, -6.28785, 29.0279, -153.73, -88.5189, 101.819
9.97104, 67, -5.92982, -5.98416, 28.8609, -153.733, -88.7834, 101.909
9.97616, 67, -5.90425, -5.88354, 28.8059, -153.734, -88.8713, 101.936
9.98651, 67, -5.82825, -5.58401, 28.6424, -153.734, -89.1337, 102.012
9.99123, 68, -5.80313, -5.48456, 28.5885, -153.734, -89.2209, 102.035
9.99916, 68, -5.75331, -5.28585, 28.481, -153.734, -89.3949, 102.079
10.0072, 68, -5.70382, -5.08851, 28.3748, -153.732, -89.5683, 102.117
10.0152, 68, -5.65466, -4.89322, 28.2697, -153.728, -89.741, 102.15
10.0232, 68, -5.6061, -4.69908, 28.1659, -153.723, -89.9132, 102.179
10.0312, 68, -5.55807, -4.50589, 28.0633, -153.717, -90.085, 102.204
10.0393, 68, -5.51042, -4.31454, 27.9616, -153.709, -90.2562, 102.224
10.0472, 68, -5.46321, -4.12473, 27.8607, -153.701, -90.4269, 102.239
10.0552, 68, -5.41662, -3.93553, 27.761, -153.691, -90.5969, 102.25
10.0632, 68, -5.37044, -3.74702, 27.6624, -153.68, -90.7666, 102.257
10.0714, 69, -5.32463, -3.56023, 27.5652, -153.668, -90.9357, 102.26
10.0792, 69, -5.27935, -3.37516, 27.4692, -153.655, -91.1043, 102.259
10.0872, 69, -5.23443, -3.19076, 27.3742, -153.641, -91.2723, 102.253
10.0952, 69, -5.18986, -3.00707, 27.28, -153.625, -91.4396, 102.241
10.1032, 69, -5.14584, -2.8252, 27.1866, -153.607, -91.6064, 102.223
10.1116, 69, -5.10225, -2.64485, 27.0944, -153.589, -91.7723, 102.201
10.1225, 69, -5.03736, -2.37571, 26.9585, -153.561, -92.0202, 102.158
10.1273, 69, -5.01591, -2.28656, 26.9139, -153.552, -92.1026, 102.142
10.1354, 69, -4.97336, -2.1099, 26.8253, -153.532, -92.2666, 102.104
10.1435, 69, -4.93106, -1.93503, 26.7376, -153.511, -92.4301, 102.06
10.1513, 69, -4.88889, -1.7608, 26.6508, -153.488, -92.5928, 102.012
10.1618, 70, -4.8471, -1.58753, 26.5649, -153.465, -92.7551, 101.959
10.1676, 70, -4.80577, -1.41604, 26.4802, -153.441, -92.9168, 101.9
10.1753, 70, -4.76473, -1.24632, 26.3966, -153.416, -93.078, 101.835
10.1832, 70, -4.72386, -1.07739, 26.3142, -153.391, -93.2385, 101.766
10.1919, 70, -4.6834, -0.909436, 26.2327, -153.365, -93.3984, 101.691
10.2002, 70, -4.64342, -0.743056, 26.1523, -153.338, -93.5578, 101.611
10.2073, 70, -4.6037, -0.578648, 26.0727, -153.31, -93.7168, 101.526
10.2156, 70, -4.56418, -0.415547, 25.9941, -153.282, -93.8752, 101.435
10.2234, 70, -4.52491, -0.253228, 25.9164, -153.254, -94.0329, 101.34
10.2315, 70, -4.48599, -0.0924404, 25.8397, -153.225, -94.1902, 101.239
10.2395, 71, -4.44718, 0.0665381, 25.7641, -153.194, -94.3469, 101.132
10.2476, 71, -4.40845, 0.224023, 25.6895, -153.163, -94.5031, 101.021
10.2562, 71, -4.36995, 0.380498, 25.616, -153.132, -94.6586, 100.904
10.2637, 71, -4.33169, 0.535735, 25.5434, -153.1, -94.8135, 100.782
10.2723, 71, -4.29353, 0.689533, 25.4717, -153.068, -94.9678, 100.655
10.2797, 71, -4.25537, 0.841634, 25.401, -153.035, -95.1215, 100.522
10.2886, 71, -4.21746, 0.992193, 25.3312, -153.001, -95.2745, 100.385
10.2963, 71, -4.17974, 1.14158, 25.2623, -152.968, -95.4271, 100.242
10.3038, 71, -4.16098, 1.28969, 25.1943, -152.934, -95.579, 100.095
10.3125, 71, -4.10472, 1.43611, 25.1274, -152.898, -95.73, 99.9419
10.3191, 71, -4.08598, 1.50867, 25.0943, -152.881, -95.8052, 99.8635
10.3283, 72, -4.03011, 1.72397, 24.9963, -152.828, -96.0302, 99.6207
10.3352, 72, -4.01154, 1.79506, 24.9642, -152.81, -96.1047, 99.537
10.3432, 72, -3.97452, 1.93618, 24.9005, -152.775, -96.2535, 99.3657
10.3523, 72, -3.91881, 2.14504, 24.8067, -152.72, -96.4752, 99.0995
10.3592, 72, -3.9003, 2.21379, 24.7759, -152.702, -96.5489, 99.0084
10.3703, 72, -3.84471, 2.41744, 24.6847, -152.648, -96.7684, 98.7272
10.3751, 72, -3.82617, 2.4846, 24.6548, -152.629, -96.8412, 98.631
10.3846, 72, -3.77048, 2.68392, 24.5663, -152.574, -97.0582, 98.3351
10.3935, 72, -3.73348, 2.81479, 24.5084, -152.537, -97.2021, 98.1316
10.3992, 72, -3.715, 2.87959, 24.4799, -152.519, -97.2737, 98.0281
10.4087, 73, -3.65945, 3.07131, 24.3955, -152.464, -97.4873, 97.7106
10.4152, 73, -3.64085, 3.13431, 24.3679, -152.445, -97.558, 97.6025
10.4232, 73, -3.6036, 3.25912, 24.3133, -152.409, -97.6989, 97.3824
10.4328, 73, -3.54785, 3.44323, 24.2332, -152.355, -97.9081, 97.0435
10.4402, 73, -3.52921, 3.5037, 24.2069, -152.337, -97.9776, 96.9283
10.4472, 73, -3.49178, 3.62329, 24.1549, -152.301, -98.1155, 96.6945
10.4551, 73, -3.45414, 3.7409, 24.104, -152.265, -98.2524, 96.4562
10.4633, 73, -3.4164, 3.85646, 24.0537, -152.23, -98.3883, 96.213
10.4712, 73, -3.37853, 3.97014, 24.0046, -152.195, -98.5231, 95.9658
10.4792, 73, -3.34042, 4.08195, 23.9562, -152.16, -98.6567, 95.7145
10.4872, 73, -3.30214, 4.19183, 23.9087, -152.125, -98.789, 95.4595
10.4953, 74, -3.26384, 4.29969, 23.8621, -152.092, -98.92, 95.2004
10.5031, 74, -3.22541, 4.40552, 23.8164, -152.058, -99.0495, 94.9374
10.5112, 74, -3.18675, 4.50927, 23.7718, -152.024, -99.1778, 94.6709
10.5192, 74, -3.14784, 4.61079, 23.728, -151.991, -99.3044, 94.4009
10.5272, 74, -3.1088, 4.71021, 23.6852, -151.959, -99.4299, 94.1271
10.5356, 74, -3.06952, 4.80753, 23.6435, -151.928, -99.5534, 93.8498
10.545, 74, -3.03003, 4.90267, 23.6026, -151.896, -99.6755, 93.569
10.5511, 74, -2.99017, 4.99552, 23.5626, -151.865, -99.7961, 93.285
10.5625, 74, -2.93024, 5.13044, 23.5045, -151.821, -99.9735, 92.8531
10.5671, 74, -2.91012, 5.1742, 23.4856, -151.806, -100.032, 92.7077
10.5751, 75, -2.86969, 5.25994, 23.4487, -151.778, -100.147, 92.4149
10.5832, 75, -2.8289, 5.34313, 23.4126, -151.75, -100.26, 92.1199
10.5911, 75, -2.78803, 5.42378, 23.3774, -151.723, -100.372, 91.8221
10.5992, 75, -2.74702, 5.50191, 23.3434, -151.697, -100.481, 91.5216
10.6072, 75, -2.70559, 5.57741, 23.3103, -151.672, -100.589, 91.2191
10.6153, 75, -2.66375, 5.65029, 23.2782, -151.648, -100.694, 90.914
10.6235, 75, -2.62178, 5.72047, 23.2472, -151.624, -100.797, 90.6065
10.6312, 75, -2.57959, 5.78794, 23.2173, -151.601, -100.898, 90.2973
10.6392, 75, -2.53701, 5.85271, 23.1884, -151.578, -100.996, 89.9864
10.6473, 75, -2.49414, 5.91473, 23.1606, -151.558, -101.093, 89.6737
10.6552, 76, -2.45117, 5.97386, 23.134, -151.538, -101.186, 89.3597
10.6633, 76, -2.40797, 6.03002, 23.1086, -151.52, -101.278, 89.0449
10.6713, 76, -2.36443, 6.08325, 23.0841, -151.502, -101.366, 88.7288
10.6793, 76, -2.3208, 6.13343, 23.0608, -151.485, -101.452, 88.4115
10.6872, 76, -2.27691, 6.18049, 23.0386, -151.469, -101.535, 88.0931
10.6952, 76, -2.23266, 6.22455, 23.0177, -151.453, -101.615, 87.774
10.704, 76, -2.18813, 6.26533, 22.9981, -151.439, -101.693, 87.4539
10.7124, 76, -2.14347, 6.30285, 22.9796, -151.425, -101.767, 87.1329
10.7197, 76, -2.09851, 6.33728, 22.9622, -151.413, -101.839, 86.8115
10.7282, 76, -2.05317, 6.36852, 22.9462, -151.402, -101.907, 86.4899
10.7369, 76, -2.00768, 6.3964, 22.9315, -151.392, -101.972, 86.168
10.7442, 77, -1.96202, 6.42068, 22.918, -151.383, -102.035, 85.8465
10.7521, 77, -1.91615, 6.44195, 22.9057, -151.375, -102.093, 85.5255
10.761, 77, -1.87002, 6.45979, 22.8949, -151.368, -102.149, 85.2047
10.7683, 77, -1.82385, 6.47373, 22.8856, -151.361, -102.2, 84.8843
10.7765, 77, -1.77741, 6.48419, 22.8775, -151.356, -102.248, 84.5645
10.7854, 77, -1.73075, 6.49151, 22.8709, -151.352, -102.293, 84.2451
10.7942, 77, -1.68402, 6.49518, 22.8657, -151.348, -102.334, 83.9263
10.7997, 77, -1.66065, 6.49569, 22.8636, -151.346, -102.371, 83.6082
10.811, 77, -1.59018, 6.49192, 22.8592, -151.344, -102.405, 83.2914
10.8158, 77, -1.56663, 6.48875, 22.8585, -151.344, -102.435, 82.9752
10.8242, 78, -1.49597, 6.4736, 22.858, -151.343, -102.461, 82.6601
10.8312, 78, -1.4723, 6.46681, 22.8586, -151.343, -102.473, 82.5032
10.8391, 78, -1.42477, 6.45044, 22.8609, -151.343, -102.493, 82.1904
10.8483, 78, -1.35359, 6.41818, 22.8672, -151.344, -102.515, 81.7236
10.8551, 78, -1.3298, 6.40556, 22.87, -151.345, -102.521, 81.5689
10.8633, 78, -1.28205, 6.37761, 22.877, -151.348, -102.529, 81.2606
10.8711, 78, -1.23425, 6.34565, 22.8858, -151.351, -102.533, 80.9539
10.8806, 78, -1.16234, 6.29011, 22.9019, -151.359, -102.533, 80.4968
10.8871, 78, -1.1383, 6.26963, 22.9081, -151.362, -102.531, 80.3455
10.8967, 78, -1.06618, 6.20221, 22.9295, -151.372, -102.519, 79.8942
10.9049, 78, -1.01812, 6.15199, 22.9458, -151.379, -102.505, 79.5955
10.9126, 79, -0.994, 6.12538, 22.9545, -151.383, -102.487, 79.2987
10.9191, 79, -0.945672, 6.06909, 22.9735, -151.392, -102.477, 79.1512
10.9287, 79, -0.897469, 6.00857, 22.9945, -151.406, -102.437, 78.7121
10.9368, 79, -0.849295, 5.9439, 23.0171, -151.417, -102.405, 78.4218
10.9448, 79, -0.801027, 5.87529, 23.0415, -151.422, -102.387, 78.1335
10.9521, 79, -0.752757, 5.80261, 23.068, -151.434, -102.349, 77.9904
10.9613, 79, -0.680587, 5.68595, 23.1114, -151.453, -102.282, 77.5644
10.9683, 79, -0.656525, 5.64502, 23.1268, -151.459, -102.257, 77.4234
10.9761, 79, -0.608408, 5.56008, 23.1591, -151.473, -102.205, 77.1429
10.9879, 79, -0.536317, 5.42478, 23.2112, -151.494, -102.118, 76.7275
10.9921, 80, -0.512252, 5.37753, 23.2295, -151.502, -102.087, 76.5901
11.0001, 80, -0.464235, 5.27997, 23.2675, -151.516, -102.021, 76.3172
11.0071, 80, -0.416234, 5.1782, 23.3077, -151.531, -101.95, 76.0466
11.0151, 80, -0.368234, 5.07212, 23.3498, -151.546, -101.875, 75.7787
11.0232, 80, -0.320165, 4.96193, 23.3939, -151.561, -101.795, 75.5134
11.0311, 80, -0.272207, 4.84747, 23.4403, -151.578, -101.711, 75.2504
11.0394, 80, -0.224321, 4.72868, 23.4887, -151.594, -101.622, 74.9898
11.0482, 80, -0.176339, 4.60572, 23.5392, -151.612, -101.528, 74.7317
11.0561, 80, -0.128404, 4.4787, 23.592, -151.629, -101.429, 74.4764
11.0641, 80, -0.0805841, 4.34772, 23.6469, -151.647, -101.326, 74.2237
11.0711, 80, -0.0327615, 4.21244, 23.7038, -151.664, -101.219, 73.973
11.0791, 81, 0.0150306, 4.07283, 23.763, -151.681, -101.107, 73.7245
11.0879, 81, 0.0626328, 3.92881, 23.8243, -151.699, -100.99, 73.4789
11.0962, 81, 0.110182, 3.78078, 23.8878, -151.717, -100.869, 73.2357
11.1031, 81, 0.157699, 3.62881, 23.9536, -151.735, -100.743, 72.9948
11.1112, 81, 0.20503, 3.47284, 24.0218, -151.754, -100.612, 72.7562
11.1192, 81, 0.252264, 3.3126, 24.0924, -151.773, -100.476, 72.5204
11.1273, 81, 0.299466, 3.14805, 24.1653, -151.791, -100.336, 72.2873
11.1362, 81, 0.346598, 2.97983, 24.2407, -151.81, -100.191, 72.0566
11.144, 81, 0.393571, 2.80816, 24.3182, -151.828, -100.042, 71.8281
11.1521, 81, 0.44068, 2.63243, 24.398, -151.846, -99.8877, 71.602
11.1628, 82, 0.511294, 2.36047, 24.5219, -151.874, -99.6484, 71.2671
11.1682, 82, 0.534776, 2.2679, 24.5644, -151.884, -99.5666, 71.1566
11.1754, 82, 0.581852, 2.08039, 24.6512, -151.902, -99.3995, 70.9375
11.1833, 82, 0.629027, 1.88923, 24.7405, -151.921, -99.2282, 70.7205
11.1911, 82, 0.676013, 1.69317, 24.8324, -151.94, -99.052, 70.5055
11.1999, 82, 0.7229, 1.4929, 24.9267, -151.958, -98.8715, 70.293
11.2082, 82, 0.769919, 1.28941, 25.0235, -151.975, -98.6868, 70.0831
11.2156, 82, 0.81688, 1.08223, 25.1223, -151.993, -98.4979, 69.8751
11.2242, 82, 0.863784, 0.870643, 25.2236, -152.011, -98.305, 69.6694
11.2313, 82, 0.910834, 0.655416, 25.3274, -152.029, -98.1079, 69.4656
11.2401, 83, 0.957883, 0.436832, 25.4338, -152.046, -97.9067, 69.264
11.2474, 83, 1.0048, 0.213751, 25.5428, -152.064, -97.7013, 69.065
11.2555, 83, 1.05167, -0.0132766, 25.6543, -152.081, -97.4918, 68.8681
11.2646, 83, 1.09864, -0.243293, 25.7682, -152.097, -97.2775, 68.6733
11.2716, 83, 1.14545, -0.477111, 25.8844, -152.113, -97.0588, 68.4806
11.2805, 83, 1.19225, -0.714826, 26.0035, -152.129, -96.8356, 68.2899
11.2877, 83, 1.23923, -0.955508, 26.1251, -152.144, -96.6087, 68.1016
11.2964, 83, 1.28622, -1.20015, 26.2493, -152.16, -96.3779, 67.9155
11.3051, 83, 1.33317, -1.44884, 26.3759, -152.175, -96.1433, 67.7314
11.3118, 83, 1.35673, -1.57433, 26.4399, -152.182, -95.9052, 67.5492
11.3201, 83, 1.42761, -1.95568, 26.6352, -152.204, -95.6637, 67.3688
11.3271, 84, 1.45125, -2.08465, 26.7015, -152.211, -95.5416, 67.2794
11.3407, 84, 1.52236, -2.4755, 26.9044, -152.232, -95.1698, 66.927
11.3431, 84, 1.54619, -2.60744, 26.9733, -152.238, -95.044, 66.927
11.3523, 84, 1.61772, -3.00832, 27.1836, -152.257, -94.6608, 66.6688
11.3591, 84, 1.64155, -3.14322, 27.255, -152.263, -94.5312, 66.5838
11.3689, 84, 1.71333, -3.55303, 27.4728, -152.28, -94.1372, 66.3319
11.3751, 84, 1.73722, -3.69107, 27.5466, -152.285, -94.0041, 66.2489
11.3832, 84, 1.78507, -3.96882, 27.6956, -152.296, -93.7356, 66.0843
11.3927, 84, 1.85713, -4.39161, 27.923, -152.312, -93.3272, 65.8406
11.4016, 84, 1.90542, -4.67671, 28.0777, -152.322, -93.0513, 65.6809
11.4074, 85, 1.9296, -4.82046, 28.156, -152.327, -92.9122, 65.6018
11.4151, 85, 1.97808, -5.11015, 28.3137, -152.336, -92.632, 65.4451
11.4254, 85, 2.05114, -5.54814, 28.5534, -152.348, -92.206, 65.2143
11.4311, 85, 2.07549, -5.69555, 28.6346, -152.352, -92.0625, 65.1385
11.4408, 85, 2.12431, -5.99188, 28.7993, -152.362, -91.6275, 64.9145
11.4481, 85, 2.17338, -6.29003, 28.9665, -152.365, -91.4811, 64.8409
11.4551, 85, 2.2226, -6.59057, 29.135, -152.371, -91.1867, 64.6955
11.4643, 85, 2.27194, -6.89227, 29.3051, -152.376, -90.8897, 64.5525
11.472, 85, 2.32157, -7.19651, 29.4778, -152.38, -90.5904, 64.4114
11.4801, 85, 2.37136, -7.50297, 29.6527, -152.384, -90.2889, 64.2723
11.4897, 85, 2.44633, -7.96709, 29.9169, -152.388, -89.8325, 64.0675
11.4961, 86, 2.47151, -8.12265, 30.0058, -152.389, -89.6793, 64.0003
11.5042, 86, 2.52204, -8.43449, 30.1857, -152.39, -89.3712, 63.8678
11.5121, 86, 2.57266, -8.74847, 30.3677, -152.391, -89.0608, 63.738
11.5191, 86, 2.62352, -9.06369, 30.5508, -152.391, -88.7487, 63.6111
11.5271, 86, 2.67463, -9.38049, 30.7355, -152.391, -88.4348, 63.4873
11.5362, 86, 2.72585, -9.69817, 30.9227, -152.391, -88.1189, 63.3658
11.5467, 86, 2.80289, -10.1768, 31.2061, -152.39, -87.6422, 63.1886
11.5512, 86, 2.82869, -10.337, 31.3012, -152.389, -87.4825, 63.1308
11.5591, 86, 2.88033, -10.6578, 31.4927, -152.386, -87.1621, 63.0167
11.5671, 86, 2.93214, -10.9799, 31.6859, -152.382, -86.8404, 62.9054
11.5761, 87, 2.98418, -11.3019, 31.8797, -152.378, -86.5174, 62.7968
11.5831, 87, 3.03637, -11.625, 32.0747, -152.372, -86.1931, 62.6914
11.5912, 87, 3.08885, -11.9492, 32.2716, -152.365, -85.8679, 62.5885
11.5991, 87, 3.14174, -12.2741, 32.4693, -152.357, -85.5415, 62.4897
