rpiRobotics/ARM-21-02-F-19-Robot-Motion-Program/data_performance_abb/curve_1/baseline/100L/realrobot/v123.046875_iteration2.csv
timestamp, cmd_num, J1, J2, J3, J4, J5, J6
0.00037, -1, 11.3779, 13.614, 17.3393, -145.519, -97.9228, 142.516
0.00441, -1, 11.3779, 13.614, 17.3393, -145.519, -97.9228, 142.516
0.007791, -1, 11.3779, 13.6139, 17.3393, -145.519, -97.9228, 142.516
0.029583, -1, 11.3779, 13.6139, 17.3393, -145.519, -97.9228, 142.516
0.031647, -1, 11.3779, 13.6139, 17.3393, -145.519, -97.9228, 142.516
0.034602, -1, 11.3779, 13.614, 17.3393, -145.519, -97.9228, 142.516
0.0396, -1, 11.3779, 13.614, 17.3393, -145.519, -97.9228, 142.516
0.047603, -1, 11.3778, 13.6139, 17.3394, -145.519, -97.9228, 142.516
0.055703, -1, 11.3771, 13.6139, 17.3394, -145.519, -97.9228, 142.516
0.063634, -1, 11.3744, 13.6137, 17.3393, -145.519, -97.9229, 142.516
0.071592, -1, 11.3681, 13.6128, 17.3392, -145.519, -97.9229, 142.515
0.079697, -1, 11.3569, 13.6109, 17.3388, -145.52, -97.9228, 142.512
0.087718, -1, 11.3395, 13.6072, 17.3381, -145.521, -97.9227, 142.502
0.095686, -1, 11.3128, 13.6011, 17.3373, -145.525, -97.922, 142.479
0.104047, -1, 11.2746, 13.5918, 17.3368, -145.532, -97.9203, 142.438
0.111732, -1, 11.2247, 13.5793, 17.337, -145.544, -97.9169, 142.373
0.119714, -1, 11.1633, 13.5638, 17.3386, -145.561, -97.9113, 142.277
0.128161, -1, 11.0903, 13.5445, 17.3427, -145.584, -97.9036, 142.146
0.135599, -1, 11.0053, 13.5214, 17.349, -145.613, -97.8934, 141.981
0.143659, -1, 10.9088, 13.495, 17.3576, -145.647, -97.8813, 141.782
0.152412, -1, 10.8015, 13.4652, 17.368, -145.685, -97.8677, 141.557
0.159761, -1, 10.6831, 13.4323, 17.3793, -145.728, -97.853, 141.311
0.16774, -1, 10.5541, 13.3966, 17.3905, -145.772, -97.8376, 141.05
0.176612, -1, 10.416, 13.3587, 17.4012, -145.818, -97.8217, 140.781
0.183868, -1, 10.2712, 13.3191, 17.4115, -145.866, -97.8055, 140.507
0.191948, -1, 10.1219, 13.2787, 17.4216, -145.913, -97.7889, 140.23
0.198662, -1, 10.046, 13.2583, 17.4266, -145.937, -97.7805, 140.092
0.208149, -1, 9.81482, 13.1964, 17.4417, -146.009, -97.7547, 139.674
0.216154, -1, 9.65932, 13.1551, 17.4518, -146.057, -97.7376, 139.394
0.224978, -1, 9.50425, 13.1139, 17.4617, -146.105, -97.7206, 139.115
0.232142, -1, 9.34966, 13.0727, 17.4716, -146.153, -97.7039, 138.836
0.240245, -1, 9.19547, 13.0317, 17.4816, -146.201, -97.6872, 138.557
0.249015, -1, 9.11857, 12.9907, 17.4916, -146.249, -97.6705, 138.277
0.256395, -1, 8.96496, 12.9496, 17.5017, -146.297, -97.6535, 137.998
0.264235, -1, 8.81147, 12.9291, 17.5068, -146.321, -97.645, 137.718
0.271582, -1, 8.6584, 12.8881, 17.5168, -146.369, -97.6276, 137.579
0.279633, -1, 8.50565, 12.847, 17.527, -146.417, -97.6101, 137.299
0.287581, -1, 8.35287, 12.8057, 17.5372, -146.465, -97.5927, 137.019
0.29564, -1, 8.19965, 12.7643, 17.5473, -146.512, -97.5756, 136.739
0.303633, -1, 8.04595, 12.7227, 17.5576, -146.56, -97.5588, 136.459
0.311584, -1, 7.89169, 12.6812, 17.5677, -146.608, -97.5421, 136.179
0.319584, -1, 7.7369, 12.6397, 17.5777, -146.656, -97.5255, 135.899
0.327632, -1, 7.58183, 12.5981, 17.5879, -146.704, -97.5088, 135.619
0.335699, -1, 7.42666, 12.5566, 17.598, -146.752, -97.4918, 135.339
0.343974, -1, 7.27141, 12.5152, 17.6081, -146.8, -97.4744, 135.059
0.351589, -1, 7.1162, 12.4738, 17.6184, -146.848, -97.457, 134.779
0.359584, -1, 6.96091, 12.4325, 17.6287, -146.897, -97.4398, 134.499
0.368382, -1, 6.80583, 12.3913, 17.6389, -146.944, -97.4229, 134.219
0.37558, -1, 6.65109, 12.3501, 17.6493, -146.993, -97.4061, 133.938
0.383582, -1, 6.49661, 12.3089, 17.6597, -147.041, -97.3894, 133.658
0.392592, -1, 6.34234, 12.2676, 17.67, -147.089, -97.3726, 133.378
0.399567, -1, 6.18802, 12.2262, 17.6802, -147.137, -97.3555, 133.097
0.408585, -1, 6.03372, 12.1848, 17.6904, -147.185, -97.3382, 132.817
0.417593, -1, 5.80185, 12.1225, 17.7058, -147.257, -97.3119, 132.395
0.423637, -1, 5.72448, 12.1017, 17.7109, -147.281, -97.3032, 132.255
0.431665, -1, 5.56959, 12.06, 17.7211, -147.329, -97.286, 131.975
0.439575, -1, 5.41446, 12.0184, 17.7313, -147.377, -97.269, 131.694
0.447707, -1, 5.25906, 11.9768, 17.7415, -147.425, -97.2522, 131.413
0.455585, -1, 5.10324, 11.9352, 17.7519, -147.473, -97.2355, 131.132
0.46368, -1, 4.94726, 11.8936, 17.7623, -147.521, -97.2186, 130.851
0.471568, -1, 4.79136, 11.8521, 17.7727, -147.569, -97.2014, 130.57
0.479581, -1, 4.63552, 11.8107, 17.7831, -147.618, -97.184, 130.289
0.487644, -1, 4.47973, 11.7693, 17.7934, -147.666, -97.1665, 130.009
0.495573, -1, 4.32409, 11.7279, 17.8038, -147.715, -97.1492, 129.728
0.503583, -1, 4.16882, 11.6865, 17.8141, -147.763, -97.1322, 129.447
0.644884, -1, 1.44513, 10.9582, 17.9951, -148.609, -96.8329, 124.519
0.646072, -1, 1.44513, 10.9582, 17.9951, -148.609, -96.8329, 124.519
0.648126, -1, 1.36712, 10.9375, 18.0003, -148.633, -96.8244, 124.378
0.649406, -1, 1.36712, 10.9375, 18.0003, -148.633, -96.8244, 124.378
0.650662, -1, 1.36712, 10.9375, 18.0003, -148.633, -96.8244, 124.378
0.652677, -1, 1.28915, 10.9167, 18.0055, -148.657, -96.816, 124.237
0.653957, -1, 1.28915, 10.9167, 18.0055, -148.657, -96.816, 124.237
0.657849, -1, 1.21132, 10.8959, 18.0106, -148.681, -96.8076, 124.096
0.818149, -1, -1.91182, 10.0603, 18.2181, -149.652, -96.4656, 118.44
0.819422, -1, -1.91182, 10.0603, 18.2181, -149.652, -96.4656, 118.44
0.821486, -1, -1.9895, 10.0394, 18.2233, -149.676, -96.4567, 118.299
0.822745, -1, -1.9895, 10.0394, 18.2233, -149.676, -96.4567, 118.299
0.824017, -1, -1.9895, 10.0394, 18.2233, -149.676, -96.4567, 118.299
0.826113, -1, -2.06711, 10.0185, 18.2285, -149.7, -96.4479, 118.157
0.829642, -1, -2.14469, 9.99762, 18.2337, -149.725, -96.4391, 118.015
0.833662, -1, -2.22227, 9.97673, 18.2389, -149.749, -96.4304, 117.874
0.834925, -1, -2.22227, 9.97673, 18.2389, -149.749, -96.4304, 117.874
0.836945, -1, -2.22227, 9.97673, 18.2389, -149.774, -96.4217, 117.732
0.838401, -1, -2.29988, 9.95583, 18.244, -149.774, -96.4217, 117.732
0.839669, -1, -2.29988, 9.95583, 18.244, -149.774, -96.4217, 117.732
0.841735, -1, -2.37755, 9.93489, 18.2492, -149.798, -96.4131, 117.59
0.842936, -1, -2.37755, 9.93489, 18.2492, -149.798, -96.4131, 117.59
0.844195, -1, -2.37755, 9.93489, 18.2492, -149.798, -96.4131, 117.59
0.850027, -1, -2.53317, 9.89292, 18.2597, -149.846, -96.3961, 117.307
0.852186, -1, -2.53317, 9.89292, 18.2597, -149.846, -96.3961, 117.307
0.854867, -1, -2.61107, 9.87196, 18.2648, -149.87, -96.3876, 117.165
0.85621, -1, -2.61107, 9.87196, 18.2648, -149.87, -96.3876, 117.165
0.858295, -1, -2.68905, 9.85101, 18.27, -149.895, -96.3792, 117.023
0.859635, -1, -2.68905, 9.85101, 18.27, -149.895, -96.3792, 117.023
0.861615, -1, -2.76709, 9.83005, 18.2752, -149.919, -96.3709, 116.881
0.863528, -1, -2.76709, 9.83005, 18.2752, -149.919, -96.3709, 116.881
0.865833, -1, -2.84522, 9.80908, 18.2803, -149.943, -96.3625, 116.739
0.867059, -1, -2.84522, 9.80908, 18.2803, -149.943, -96.3625, 116.739
0.868232, -1, -2.84522, 9.80908, 18.2803, -149.943, -96.3625, 116.739
0.870297, -1, -2.92345, 9.78812, 18.2855, -149.967, -96.354, 116.597
0.871571, -1, -2.92345, 9.78812, 18.2855, -149.967, -96.354, 116.597
0.873391, -1, -3.00184, 9.76714, 18.2907, -149.991, -96.3456, 116.456
0.87573, -1, -3.00184, 9.76714, 18.2907, -149.991, -96.3456, 116.456
0.881823, -1, -3.15899, 9.72524, 18.301, -150.041, -96.3284, 116.172
0.883162, -1, -3.15899, 9.72524, 18.301, -150.041, -96.3284, 116.172
0.884482, -1, -3.15899, 9.72524, 18.301, -150.041, -96.3284, 116.172
0.886694, -1, -3.23767, 9.70427, 18.3062, -150.065, -96.3197, 116.03
0.888062, -1, -3.23767, 9.70427, 18.3062, -150.065, -96.3197, 116.03
0.890121, -1, -3.31644, 9.68329, 18.3115, -150.089, -96.3109, 115.888
0.891346, -1, -3.31644, 9.68329, 18.3115, -150.089, -96.3109, 115.888
0.895404, -1, -3.31644, 9.68329, 18.3115, -150.089, -96.3021, 115.746
0.897283, -1, -3.39536, 9.6623, 18.3167, -150.113, -96.2933, 115.604
0.899529, -1, -3.47431, 9.6413, 18.322, -150.137, -96.2933, 115.604
0.902181, -1, -3.47431, 9.6413, 18.3272, -150.162, -96.2845, 115.462
0.903524, -1, -3.55329, 9.62032, 18.3272, -150.162, -96.2845, 115.462
0.911571, -1, -3.71121, 9.57846, 18.3376, -150.211, -96.2672, 115.178
0.919688, -1, -3.86915, 9.53654, 18.3479, -150.259, -96.2502, 114.894
0.927617, -1, -4.02716, 9.49456, 18.3582, -150.308, -96.2332, 114.609
0.935558, -1, -4.18499, 9.45269, 18.3685, -150.357, -96.2162, 114.325
0.943629, -1, -4.3426, 9.41077, 18.3788, -150.406, -96.1991, 114.041
0.951577, -1, -4.49985, 9.36884, 18.3891, -150.455, -96.1817, 113.756
0.95968, -1, -4.6569, 9.32687, 18.3995, -150.504, -96.1641, 113.472
0.967592, -1, -4.81347, 9.28488, 18.4099, -150.552, -96.1463, 113.187
0.975564, -1, -4.9697, 9.24285, 18.4203, -150.602, -96.1289, 112.902
0.983626, -1, -5.12567, 9.20084, 18.4309, -150.65, -96.1116, 112.618
0.99157, -1, -5.28153, 9.15881, 18.4414, -150.699, -96.0947, 112.333
0.999625, -1, -5.43761, 9.11665, 18.4519, -150.748, -96.0779, 112.048
1.00762, -1, -5.5939, 9.07455, 18.4622, -150.796, -96.0608, 111.764
1.01557, -1, -5.7504, 9.03248, 18.4726, -150.845, -96.0438, 111.479
1.02356, -1, -5.90734, 8.99034, 18.4831, -150.894, -96.0262, 111.194
1.03164, -1, -6.06476, 8.94819, 18.4933, -150.943, -96.0087, 110.909
1.03963, -1, -6.2228, 8.90607, 18.5036, -150.991, -95.9911, 110.624
1.04755, -1, -6.38106, 8.86395, 18.5139, -151.041, -95.974, 110.339
1.05562, -1, -6.53952, 8.82194, 18.5243, -151.09, -95.957, 110.054
1.06357, -1, -6.69814, 8.77983, 18.5348, -151.139, -95.94, 109.768
1.07157, -1, -6.85688, 8.73775, 18.5453, -151.188, -95.923, 109.483
1.07968, -1, -7.01541, 8.69573, 18.5558, -151.237, -95.9059, 109.197
1.08771, -1, -7.17393, 8.65367, 18.5662, -151.286, -95.8885, 108.912
1.0957, -1, -7.33216, 8.61158, 18.5766, -151.335, -95.8708, 108.626
1.10371, -1, -7.49004, 8.56937, 18.587, -151.384, -95.8531, 108.34
1.11191, -1, -7.64771, 8.52716, 18.5974, -151.433, -95.8357, 108.055
1.11971, -1, -7.80494, 8.48499, 18.6078, -151.483, -95.8185, 107.769
1.12774, -1, -7.9618, 8.44279, 18.6182, -151.531, -95.8015, 107.483
1.13612, -1, -8.11842, 8.40047, 18.6286, -151.58, -95.7845, 107.197
1.14369, -1, -8.27498, 8.35818, 18.639, -151.629, -95.7676, 106.912
1.15159, -1, -8.43174, 8.31585, 18.6496, -151.678, -95.7504, 106.626
1.16039, -1, -8.58872, 8.2735, 18.6601, -151.727, -95.7328, 106.34
1.16771, -1, -8.74611, 8.23127, 18.6705, -151.776, -95.7151, 106.053
1.17581, -1, -8.90389, 8.18901, 18.6808, -151.825, -95.6976, 105.767
1.18456, -1, -9.06208, 8.14672, 18.6912, -151.874, -95.6803, 105.481
1.19191, -1, -9.22074, 8.10452, 18.7016, -151.924, -95.6632, 105.194
1.1999, -1, -9.37964, 8.06227, 18.712, -151.972, -95.6461, 104.907
1.20868, -1, -9.53874, 8.02, 18.7224, -152.022, -95.629, 104.621
1.21617, -1, -9.69798, 7.97785, 18.7328, -152.072, -95.6117, 104.334
1.2242, -1, -9.8573, 7.93569, 18.7433, -152.12, -95.5942, 104.047
1.23285, -1, -10.0167, 7.89341, 18.7539, -152.17, -95.5763, 103.76
1.24021, -1, -10.1758, 7.85108, 18.7645, -152.219, -95.5585, 103.474
1.24811, -1, -10.3348, 7.80869, 18.775, -152.268, -95.5409, 103.187
1.2569, -1, -10.4935, 7.76623, 18.7855, -152.318, -95.5237, 102.9
1.26427, -1, -10.6519, 7.72382, 18.796, -152.367, -95.5066, 102.613
1.27155, -1, -10.7311, 7.70262, 18.8012, -152.392, -95.4982, 102.47
1.27961, -1, -10.8889, 7.6601, 18.8117, -152.441, -95.4811, 102.183
1.28762, -1, -11.0465, 7.61756, 18.8221, -152.49, -95.4639, 101.896
1.29554, -1, -11.204, 7.57511, 18.8325, -152.539, -95.4464, 101.608
1.30359, -1, -11.3614, 7.53268, 18.8429, -152.588, -95.4286, 101.321
1.31056, -1, -11.519, 7.4902, 18.8533, -152.638, -95.4108, 101.034
1.3196, -1, -11.6768, 7.44778, 18.8639, -152.687, -95.3934, 100.746
1.32759, -1, -11.835, 7.40541, 18.8745, -152.736, -95.376, 100.458
1.33555, -1, -11.9936, 7.36303, 18.885, -152.786, -95.3589, 100.171
1.34355, -1, -12.1526, 7.32072, 18.8956, -152.835, -95.3417, 99.8831
1.35159, -1, -12.3121, 7.27831, 18.9061, -152.885, -95.3244, 99.5951
1.35963, -1, -12.4718, 7.23588, 18.9166, -152.935, -95.3068, 99.307
1.36761, -1, -12.6317, 7.19358, 18.9271, -152.984, -95.2888, 99.0191
1.37554, -1, -12.7917, 7.1512, 18.9375, -153.033, -95.2709, 98.7314
1.38355, -1, -12.9519, 7.10872, 18.9481, -153.083, -95.2532, 98.4431
1.39254, -1, -13.1118, 7.06615, 18.9585, -153.132, -95.2359, 98.1551
1.39961, -1, -13.2715, 7.02363, 18.969, -153.182, -95.2186, 97.8671
1.40864, -1, -13.4309, 6.98102, 18.9797, -153.231, -95.2016, 97.579
1.41561, -1, -13.5902, 6.93829, 18.9902, -153.28, -95.1844, 97.2905
1.42354, -1, -13.7494, 6.89559, 19.0008, -153.33, -95.1671, 97.0018
1.43161, -1, -13.9082, 6.85293, 19.0112, -153.379, -95.1495, 96.7134
1.43962, -1, -14.0664, 6.81025, 19.0216, -153.428, -95.1317, 96.4248
1.44754, -1, -14.2247, 6.76768, 19.0322, -153.478, -95.1139, 96.1359
1.45559, -1, -14.3829, 6.72506, 19.0426, -153.527, -95.0966, 95.847
1.46355, -1, -14.5413, 6.68242, 19.0531, -153.576, -95.0794, 95.5582
1.47158, -1, -14.7, 6.63987, 19.0636, -153.626, -95.0622, 95.269
1.47971, -1, -14.8591, 6.59736, 19.0741, -153.676, -95.0451, 94.9797
1.48754, -1, -15.0184, 6.55471, 19.0848, -153.725, -95.0277, 94.6906
1.49554, -1, -15.1781, 6.51212, 19.0955, -153.776, -95.01, 94.4016
1.50362, -1, -15.3383, 6.46957, 19.1061, -153.825, -94.992, 94.1124
1.51154, -1, -15.4987, 6.42694, 19.1167, -153.875, -94.9741, 93.8231
1.51961, -1, -15.6595, 6.38429, 19.1272, -153.925, -94.9565, 93.534
1.52761, -1, -15.8203, 6.34159, 19.1377, -153.974, -94.9392, 93.2448
1.53554, -1, -15.981, 6.29879, 19.1484, -154.024, -94.922, 92.9553
1.54354, -1, -16.1417, 6.25598, 19.1589, -154.074, -94.9049, 92.6655
1.55162, -1, -16.3025, 6.21316, 19.1694, -154.123, -94.8877, 92.376
1.55967, -1, -16.4629, 6.17018, 19.1798, -154.172, -94.8702, 92.0864
1.56756, -1, -16.6231, 6.12721, 19.1903, -154.222, -94.8524, 91.7965
1.57573, -1, -16.7829, 6.08434, 19.2009, -154.272, -94.8345, 91.5064
1.58354, -1, -16.9422, 6.04143, 19.2115, -154.321, -94.8168, 91.2166
1.59165, -1, -17.1014, 5.9985, 19.2221, -154.371, -94.7993, 90.9266
1.60055, -1, -17.2606, 5.95563, 19.2327, -154.421, -94.782, 90.6364
1.60764, -1, -17.4197, 5.91281, 19.2433, -154.471, -94.7647, 90.3459
1.61571, -1, -17.5791, 5.87002, 19.2539, -154.521, -94.7473, 90.0558
1.62445, -1, -17.7385, 5.82727, 19.2645, -154.57, -94.7297, 89.7656
1.63165, -1, -17.8982, 5.78448, 19.2751, -154.621, -94.7118, 89.4751
1.63981, -1, -18.0583, 5.74172, 19.2857, -154.671, -94.6936, 89.1848
1.64844, -1, -18.2189, 5.69898, 19.2963, -154.72, -94.6757, 88.8945
1.65557, -1, -18.3799, 5.65623, 19.3069, -154.771, -94.6581, 88.6038
1.66364, -1, -18.5413, 5.61332, 19.3176, -154.821, -94.6407, 88.3128
1.67251, -1, -18.7028, 5.57036, 19.3283, -154.87, -94.6234, 88.0218
1.67982, -1, -18.8643, 5.52744, 19.3389, -154.921, -94.6062, 87.7311
1.68783, -1, -19.0259, 5.48442, 19.3493, -154.97, -94.5886, 87.4399
1.69671, -1, -19.1875, 5.44128, 19.3599, -155.02, -94.5708, 87.1485
1.70401, -1, -19.3488, 5.39818, 19.3705, -155.07, -94.5527, 86.8573
1.71194, -1, -19.5099, 5.35503, 19.381, -155.12, -94.5347, 86.566
1.71999, -1, -19.6708, 5.3118, 19.3915, -155.169, -94.517, 86.2744
1.72818, -1, -19.8313, 5.26873, 19.4021, -155.22, -94.4994, 85.9827
1.73611, -1, -19.9917, 5.22562, 19.4127, -155.269, -94.482, 85.691
1.74411, -1, -20.1518, 5.18253, 19.4235, -155.319, -94.4647, 85.3996
1.75295, -1, -20.3116, 5.13964, 19.4343, -155.37, -94.4471, 85.1078
1.76011, -1, -20.3916, 5.11819, 19.4396, -155.419, -94.4293, 84.8161
1.76818, -1, -20.5516, 5.07519, 19.4504, -155.444, -94.4112, 84.5245
1.77693, -1, -20.7117, 5.03222, 19.4611, -155.495, -94.4022, 84.3786
1.78352, -1, -20.8723, 4.98937, 19.4717, -155.545, -94.3843, 84.0867
1.79153, -1, -21.0333, 4.94642, 19.4824, -155.595, -94.3668, 83.7945
1.79958, -1, -21.1946, 4.90342, 19.493, -155.646, -94.3494, 83.5025
1.80877, -1, -21.4375, 4.83886, 19.5088, -155.721, -94.3236, 83.0644
1.81554, -1, -21.5186, 4.81724, 19.5141, -155.746, -94.315, 82.9182
1.82358, -1, -21.6807, 4.77403, 19.5248, -155.797, -94.2976, 82.6257
1.83153, -1, -21.843, 4.73083, 19.5355, -155.847, -94.2798, 82.3334
1.83953, -1, -22.0054, 4.68744, 19.5463, -155.896, -94.2618, 82.0409
1.84758, -1, -22.1679, 4.64405, 19.5571, -155.947, -94.2439, 81.7481
1.85554, -1, -22.3303, 4.60071, 19.5677, -155.997, -94.2262, 81.4554
1.86353, -1, -22.4924, 4.55732, 19.5783, -156.047, -94.2088, 81.1627
1.87159, -1, -22.6541, 4.51393, 19.589, -156.097, -94.1913, 80.87
1.87953, -1, -22.8156, 4.47053, 19.5996, -156.147, -94.1739, 80.5771
1.88753, -1, -22.9767, 4.42723, 19.6103, -156.198, -94.1562, 80.2841
1.8956, -1, -23.1378, 4.38402, 19.6209, -156.248, -94.1382, 79.9912
1.90458, -1, -23.2988, 4.34075, 19.6316, -156.298, -94.12, 79.698
1.91152, -1, -23.4596, 4.29757, 19.6425, -156.349, -94.1018, 79.4047
1.9196, -1, -23.6206, 4.25437, 19.6533, -156.4, -94.0839, 79.1113
1.92858, -1, -23.7817, 4.21118, 19.664, -156.45, -94.0663, 78.818
1.9356, -1, -23.9432, 4.16799, 19.6748, -156.501, -94.0489, 78.5242
1.94353, -1, -24.1049, 4.12465, 19.6854, -156.551, -94.0315, 78.2305
1.95154, -1, -24.2671, 4.0813, 19.6961, -156.601, -94.014, 77.9369
1.95959, -1, -24.4299, 4.03792, 19.7068, -156.652, -93.9962, 77.6432
1.96752, -1, -24.5928, 3.99444, 19.7173, -156.702, -93.9781, 77.3491
1.97556, -1, -24.756, 3.9509, 19.7279, -156.752, -93.96, 77.0548
1.98359, -1, -24.9193, 3.90737, 19.7386, -156.803, -93.9422, 76.7608
1.99154, -1, -25.0828, 3.86383, 19.7494, -156.853, -93.9245, 76.4669
1.99952, -1, -25.2459, 3.82024, 19.7603, -156.903, -93.907, 76.1725
2.00759, -1, -25.4087, 3.7767, 19.7711, -156.954, -93.8895, 75.8782
2.01553, -1, -25.5715, 3.7331, 19.7819, -157.004, -93.8719, 75.584
2.0236, -1, -25.734, 3.68952, 19.7926, -157.054, -93.8539, 75.2896
2.03154, -1, -25.8964, 3.64612, 19.8033, -157.105, -93.8357, 74.995
2.03953, -1, -26.0585, 3.60267, 19.8141, -157.155, -93.8173, 74.7003
2.04769, -1, -26.2204, 3.5592, 19.8248, -157.206, -93.7991, 74.4058
2.05552, -1, -26.3819, 3.51588, 19.8355, -157.257, -93.7812, 74.111
2.06353, -1, -26.5436, 3.47249, 19.8462, -157.307, -93.7635, 73.8159
2.0716, -1, -26.7056, 3.42908, 19.8569, -157.358, -93.746, 73.521
2.07952, -1, -26.8679, 3.3856, 19.8678, -157.409, -93.7283, 73.2261
2.08755, -1, -27.0306, 3.34207, 19.8786, -157.459, -93.7104, 72.9307
2.09562, -1, -27.1935, 3.29846, 19.8895, -157.51, -93.6922, 72.6353
2.1037, -1, -27.3568, 3.25485, 19.9002, -157.561, -93.6739, 72.34
2.11162, -1, -27.5206, 3.2111, 19.9108, -157.611, -93.6558, 72.0448
2.11967, -1, -27.6845, 3.16738, 19.9216, -157.662, -93.6379, 71.7492
2.12767, -1, -27.8485, 3.12375, 19.9323, -157.712, -93.6202, 71.4536
2.13563, -1, -28.0126, 3.08005, 19.9431, -157.763, -93.6026, 71.1581
2.14372, -1, -28.1766, 3.03637, 19.9539, -157.814, -93.5848, 70.8625
2.15156, -1, -28.3407, 2.99265, 19.9645, -157.864, -93.5668, 70.5665
2.15956, -1, -28.5046, 2.94895, 19.9754, -157.915, -93.5485, 70.2704
2.16764, -1, -28.6682, 2.90533, 19.9863, -157.966, -93.5301, 69.9745
2.17562, -1, -28.8316, 2.86164, 19.9971, -158.017, -93.5118, 69.6784
2.18366, -1, -28.9947, 2.81799, 20.0079, -158.068, -93.4938, 69.382
2.1921, -1, -29.1574, 2.77437, 20.0186, -158.119, -93.4761, 69.0859
2.19981, -1, -29.32, 2.73074, 20.0293, -158.17, -93.4585, 68.7893
2.20786, -1, -29.4829, 2.68715, 20.0401, -158.221, -93.4409, 68.4926
2.21604, -1, -29.6457, 2.64348, 20.0508, -158.272, -93.423, 68.1956
2.22399, -1, -29.8089, 2.59974, 20.0616, -158.323, -93.4047, 67.8989
2.23204, -1, -29.9721, 2.55601, 20.0724, -158.374, -93.3863, 67.6023
2.24044, -1, -30.1355, 2.51221, 20.0833, -158.425, -93.368, 67.3053
2.24817, -1, -30.2993, 2.46827, 20.0942, -158.475, -93.3502, 67.0084
2.25611, -1, -30.4636, 2.42436, 20.1051, -158.526, -93.3324, 66.7116
2.26419, -1, -30.546, 2.38042, 20.116, -158.577, -93.3147, 66.4145
2.27152, -1, -30.7109, 2.35842, 20.1214, -158.602, -93.3059, 66.266
2.27951, -1, -30.8759, 2.31454, 20.1321, -158.653, -93.2881, 65.9685
2.28757, -1, -31.0408, 2.27063, 20.1431, -158.704, -93.2699, 65.6713
2.29551, -1, -31.2057, 2.22662, 20.1539, -158.755, -93.2516, 65.3741
2.30352, -1, -31.3706, 2.18279, 20.1647, -158.807, -93.2331, 65.0765
2.31159, -1, -31.5353, 2.13896, 20.1754, -158.858, -93.2149, 64.7788
2.31952, -1, -31.6998, 2.09497, 20.1862, -158.909, -93.197, 64.4813
2.32754, -1, -31.8641, 2.05111, 20.1971, -158.96, -93.1793, 64.1835
2.33558, -1, -32.028, 2.00725, 20.208, -159.011, -93.1617, 63.8853
2.34353, -1, -32.1918, 1.96329, 20.219, -159.062, -93.1441, 63.5874
2.35156, -1, -32.3554, 1.91942, 20.2299, -159.114, -93.1261, 63.2895
2.35952, -1, -32.5191, 1.87541, 20.2407, -159.165, -93.1078, 62.9914
2.36757, -1, -32.6829, 1.83135, 20.2517, -159.216, -93.0894, 62.6931
2.37558, -1, -32.8468, 1.78735, 20.2626, -159.268, -93.0713, 62.395
2.38352, -1, -33.011, 1.74319, 20.2734, -159.318, -93.0533, 62.0968
2.39151, -1, -33.1756, 1.69902, 20.2843, -159.37, -93.0355, 61.7984
2.39958, -1, -33.3406, 1.65487, 20.2951, -159.421, -93.0177, 61.4996
2.40751, -1, -33.5059, 1.61069, 20.3059, -159.472, -92.9997, 61.201
2.41654, -1, -33.6716, 1.5665, 20.317, -159.523, -92.9816, 60.9023
2.4236, -1, -33.8372, 1.52232, 20.3279, -159.574, -92.9631, 60.6034
2.43151, -1, -34.003, 1.47817, 20.3387, -159.625, -92.9444, 60.3044
2.43951, -1, -34.1688, 1.43406, 20.3496, -159.677, -92.926, 60.0057
2.44758, -1, -34.3348, 1.38995, 20.3605, -159.728, -92.908, 59.7062
2.4555, -1, -34.5007, 1.34576, 20.3714, -159.78, -92.89, 59.4066
2.46352, -1, -34.6663, 1.30162, 20.3822, -159.832, -92.8723, 59.1073
2.47158, -1, -34.8315, 1.25748, 20.3931, -159.883, -92.8544, 58.8079
2.47956, -1, -34.9964, 1.21333, 20.404, -159.935, -92.8362, 58.5084
2.48751, -1, -35.1611, 1.16916, 20.4149, -159.986, -92.8178, 58.2087
2.49558, -1, -35.3257, 1.1249, 20.426, -160.037, -92.7992, 57.9091
2.50357, -1, -35.4899, 1.08077, 20.4371, -160.089, -92.7808, 57.6096
2.5115, -1, -35.6524, 1.03694, 20.4484, -160.14, -92.7627, 57.3098
2.51959, -1, -35.8123, 0.993679, 20.4598, -160.191, -92.7448, 57.0111
2.52751, -1, -35.9683, 0.951431, 20.4715, -160.242, -92.7271, 56.7153
2.53551, -1, -36.1194, 0.910781, 20.4834, -160.291, -92.7096, 56.4254
2.54358, -1, -36.2633, 0.872298, 20.4953, -160.338, -92.6925, 56.145
2.55151, -1, -36.3975, 0.83663, 20.507, -160.384, -92.6759, 55.8803
2.55952, -1, -36.5207, 0.804065, 20.5176, -160.425, -92.6606, 55.6379
2.56758, -1, -36.6311, 0.774824, 20.5269, -160.461, -92.6472, 55.4232
2.57551, -1, -36.7272, 0.7494, 20.5345, -160.492, -92.6358, 55.2409
2.58351, -1, -36.8086, 0.727715, 20.5398, -160.517, -92.6268, 55.0938
2.5916, -1, -36.8762, 0.709715, 20.5429, -160.536, -92.6201, 54.9817
2.59958, -1, -36.9308, 0.695339, 20.5443, -160.55, -92.6154, 54.9015
2.6076, -1, -36.9727, 0.684339, 20.5447, -160.56, -92.6125, 54.8469
2.61567, -1, -37.0035, 0.676186, 20.5444, -160.566, -92.6107, 54.8136
2.62361, -1, -37.0248, 0.670568, 20.5439, -160.569, -92.6097, 54.7944
2.63162, -1, -37.0382, 0.667196, 20.5435, -160.571, -92.6092, 54.7845
2.63989, -1, -37.0457, 0.665409, 20.5433, -160.572, -92.609, 54.7799
2.6476, 2, -37.0485, 0.664577, 20.5432, -160.572, -92.6089, 54.7778
2.65552, 2, -37.0487, 0.664226, 20.5432, -160.573, -92.6088, 54.7769
2.66364, 2, -37.0483, 0.664077, 20.5431, -160.573, -92.6088, 54.7766
2.67163, 2, -37.0481, 0.664039, 20.5431, -160.573, -92.6088, 54.7766
2.67961, 2, -37.0485, 0.663999, 20.5431, -160.573, -92.6088, 54.7766
2.68781, 2, -37.0495, 0.663973, 20.5431, -160.573, -92.6088, 54.7768
2.69576, 2, -37.0505, 0.663904, 20.543, -160.573, -92.6089, 54.7769
2.7038, 2, -37.0518, 0.663717, 20.5428, -160.573, -92.609, 54.7772
2.71198, 2, -37.0532, 0.663502, 20.5426, -160.573, -92.6089, 54.7775
2.71996, 2, -37.0544, 0.663284, 20.5425, -160.573, -92.609, 54.7777
2.72799, 2, -37.0553, 0.6631, 20.5423, -160.573, -92.6091, 54.778
2.7362, 2, -37.0557, 0.662991, 20.5421, -160.573, -92.6091, 54.7784
2.74409, 2, -37.0557, 0.66296, 20.542, -160.573, -92.6091, 54.7788
2.75208, 2, -37.0551, 0.662969, 20.5419, -160.573, -92.6092, 54.779
2.76027, 2, -37.0542, 0.663028, 20.5418, -160.573, -92.6092, 54.7793
2.76809, 2, -37.0537, 0.663077, 20.5418, -160.573, -92.6092, 54.7795
2.7755, 2, -37.0524, 0.663171, 20.5417, -160.573, -92.6093, 54.7797
2.78354, 2, -37.0507, 0.66329, 20.5417, -160.573, -92.6093, 54.7799
2.7915, 2, -37.0494, 0.663392, 20.5416, -160.573, -92.6094, 54.7801
2.80037, 2, -37.0485, 0.663449, 20.5416, -160.573, -92.6094, 54.7802
2.80755, 2, -37.048, 0.663446, 20.5416, -160.573, -92.6094, 54.7803
2.81554, 2, -37.0479, 0.663437, 20.5415, -160.573, -92.6094, 54.7804
2.8235, 2, -37.048, 0.663385, 20.5415, -160.573, -92.6094, 54.7804
2.83155, 2, -37.0482, 0.66333, 20.5415, -160.573, -92.6094, 54.7804
2.83956, 2, -37.0484, 0.663285, 20.5415, -160.573, -92.6094, 54.7805
2.8475, 2, -37.0491, 0.663241, 20.5415, -160.573, -92.6094, 54.7805
2.85554, 2, -37.0499, 0.663246, 20.5414, -160.573, -92.6094, 54.7805
2.8635, 2, -37.0507, 0.663254, 20.5415, -160.573, -92.6095, 54.7805
2.8715, 2, -37.0514, 0.663257, 20.5414, -160.573, -92.6095, 54.7805
2.87957, 2, -37.0517, 0.663282, 20.5414, -160.573, -92.6094, 54.7806
2.8875, 2, -37.0519, 0.66329, 20.5414, -160.573, -92.6094, 54.7806
2.8955, 2, -37.0519, 0.663315, 20.5414, -160.573, -92.6095, 54.7806
2.90356, 2, -37.0518, 0.663305, 20.5414, -160.573, -92.6095, 54.7806
2.91254, 2, -37.0513, 0.663304, 20.5414, -160.573, -92.6095, 54.7807
2.91951, 2, -37.051, 0.663311, 20.5414, -160.573, -92.6094, 54.7807
2.92756, 2, -37.0508, 0.663303, 20.5414, -160.573, -92.6095, 54.7807
2.93655, 2, -37.0506, 0.663292, 20.5414, -160.573, -92.6095, 54.7807
2.9435, 2, -37.0505, 0.663268, 20.5414, -160.573, -92.6095, 54.7808
2.95157, 2, -37.0505, 0.663251, 20.5414, -160.573, -92.6095, 54.7808
2.95951, 2, -37.0504, 0.663244, 20.5414, -160.573, -92.6096, 54.7808
2.9675, 2, -37.0505, 0.663241, 20.5413, -160.573, -92.6096, 54.7809
2.97557, 2, -37.0505, 0.663251, 20.5413, -160.573, -92.6096, 54.7809
2.98353, 2, -37.0506, 0.663263, 20.5413, -160.573, -92.6096, 54.7809
2.99159, 2, -37.0507, 0.663274, 20.5413, -160.573, -92.6096, 54.7809
2.99958, 2, -37.0509, 0.663308, 20.5413, -160.573, -92.6096, 54.7809
3.00756, 2, -37.051, 0.66332, 20.5413, -160.573, -92.6096, 54.781
3.0155, 2, -37.0511, 0.663329, 20.5413, -160.573, -92.6096, 54.781
3.02357, 2, -37.051, 0.66333, 20.5413, -160.573, -92.6096, 54.7811
3.0315, 2, -37.051, 0.663315, 20.5413, -160.573, -92.6096, 54.7811
3.03951, 2, -37.0509, 0.663324, 20.5413, -160.573, -92.6096, 54.7812
3.04757, 2, -37.0509, 0.663294, 20.5413, -160.573, -92.6096, 54.7812
3.05549, 2, -37.0509, 0.663276, 20.5413, -160.573, -92.6096, 54.7812
3.0635, 2, -37.0509, 0.663267, 20.5413, -160.573, -92.6096, 54.7812
3.07157, 2, -37.0509, 0.663271, 20.5413, -160.573, -92.6096, 54.7813
3.07951, 2, -37.0509, 0.663277, 20.5413, -160.573, -92.6096, 54.7813
3.0875, 2, -37.0509, 0.66328, 20.5413, -160.573, -92.6096, 54.7813
3.0956, 2, -37.0509, 0.663293, 20.5413, -160.572, -92.6096, 54.7814
3.10356, 2, -37.0508, 0.663295, 20.5413, -160.572, -92.6097, 54.7815
3.11158, 2, -37.0508, 0.663318, 20.5413, -160.572, -92.6097, 54.7815
3.11967, 2, -37.0508, 0.663325, 20.5413, -160.572, -92.6097, 54.7815
3.1276, 2, -37.0508, 0.66332, 20.5413, -160.572, -92.6097, 54.7816
3.13561, 2, -37.0508, 0.663329, 20.5413, -160.572, -92.6097, 54.7816
3.14367, 2, -37.0508, 0.66333, 20.5413, -160.572, -92.6097, 54.7816
3.15159, 2, -37.0508, 0.663305, 20.5412, -160.572, -92.6098, 54.7816
3.15954, 2, -37.0507, 0.663293, 20.5412, -160.572, -92.6098, 54.7817
3.16759, 2, -37.0507, 0.663275, 20.5412, -160.572, -92.6098, 54.7817
3.17565, 2, -37.0507, 0.663279, 20.5412, -160.572, -92.6098, 54.7817
3.18362, 2, -37.0507, 0.663281, 20.5412, -160.572, -92.6098, 54.7818
3.19176, 2, -37.0507, 0.663301, 20.5412, -160.572, -92.6098, 54.7818
3.19972, 2, -37.0507, 0.663302, 20.5412, -160.572, -92.6099, 54.7818
3.20794, 2, -37.0506, 0.663299, 20.5412, -160.572, -92.6098, 54.7818
3.21599, 2, -37.0506, 0.66332, 20.5412, -160.572, -92.6098, 54.7819
3.22389, 2, -37.0506, 0.663337, 20.5412, -160.572, -92.6098, 54.7819
3.23197, 2, -37.0506, 0.663333, 20.5412, -160.572, -92.6097, 54.782
3.24013, 2, -37.0506, 0.663337, 20.5411, -160.572, -92.6098, 54.782
3.24807, 2, -37.0506, 0.663337, 20.5411, -160.572, -92.6098, 54.7821
3.25625, 2, -37.0506, 0.663315, 20.5411, -160.572, -92.6098, 54.782
3.26429, 2, -37.0506, 0.663309, 20.5411, -160.572, -92.6098, 54.782
3.27203, 2, -37.0506, 0.663311, 20.5411, -160.572, -92.6098, 54.7821
3.2795, 2, -37.0506, 0.663314, 20.5411, -160.572, -92.6099, 54.7821
3.28753, 2, -37.0505, 0.663297, 20.5411, -160.572, -92.6099, 54.7821
3.29549, 2, -37.0505, 0.66329, 20.5411, -160.572, -92.6099, 54.7821
3.30349, 2, -37.0505, 0.663297, 20.5411, -160.572, -92.6099, 54.7821
3.31153, 2, -37.0505, 0.663308, 20.5411, -160.572, -92.6098, 54.7822
3.31953, 2, -37.0505, 0.66332, 20.5411, -160.572, -92.6099, 54.7822
3.32749, 2, -37.0505, 0.663329, 20.5411, -160.572, -92.6099, 54.7822
3.33554, 2, -37.0504, 0.663341, 20.5411, -160.572, -92.6099, 54.7823
3.34354, 2, -37.0504, 0.663346, 20.5411, -160.572, -92.6099, 54.7823
3.35148, 2, -37.0504, 0.663349, 20.541, -160.572, -92.6099, 54.7823
3.35955, 2, -37.0504, 0.663362, 20.541, -160.572, -92.6099, 54.7823
3.36748, 2, -37.0504, 0.663356, 20.541, -160.572, -92.6099, 54.7823
3.37549, 2, -37.0503, 0.663353, 20.541, -160.572, -92.6099, 54.7824
3.38355, 2, -37.0503, 0.663352, 20.541, -160.572, -92.6099, 54.7824
3.39148, 2, -37.0503, 0.663333, 20.541, -160.572, -92.6099, 54.7825
3.40132, 2, -37.0503, 0.663332, 20.541, -160.572, -92.6099, 54.7825
3.40756, 2, -37.0503, 0.663335, 20.541, -160.572, -92.6099, 54.7825
3.41652, 2, -37.0503, 0.663343, 20.541, -160.572, -92.6099, 54.7825
3.42348, 2, -37.0503, 0.663347, 20.541, -160.572, -92.6099, 54.7824
3.43155, 2, -37.0503, 0.663338, 20.541, -160.572, -92.6099, 54.7825
3.43955, 2, -37.0502, 0.66335, 20.541, -160.572, -92.61, 54.7825
3.44748, 2, -37.0502, 0.663352, 20.541, -160.572, -92.6099, 54.7825
3.45555, 2, -37.0502, 0.663356, 20.541, -160.572, -92.6099, 54.7825
3.46348, 2, -37.0501, 0.663353, 20.541, -160.572, -92.61, 54.7825
3.47148, 2, -37.0502, 0.663364, 20.541, -160.572, -92.61, 54.7825
3.47957, 2, -37.0502, 0.663369, 20.541, -160.572, -92.6099, 54.7825
3.48752, 2, -37.0502, 0.663348, 20.5409, -160.572, -92.6099, 54.7825
3.49548, 2, -37.0502, 0.663342, 20.5409, -160.572, -92.61, 54.7825
3.50356, 2, -37.0501, 0.663328, 20.5409, -160.572, -92.61, 54.7825
3.51154, 2, -37.0501, 0.663322, 20.5409, -160.572, -92.61, 54.7826
3.51949, 2, -37.0501, 0.663338, 20.5409, -160.572, -92.61, 54.7826
3.52755, 2, -37.05, 0.663352, 20.5409, -160.572, -92.61, 54.7826
3.53548, 2, -37.05, 0.663364, 20.5409, -160.572, -92.61, 54.7826
3.54348, 2, -37.05, 0.663362, 20.5409, -160.572, -92.6099, 54.7826
3.55155, 2, -37.05, 0.663356, 20.5409, -160.572, -92.61, 54.7826
3.55949, 2, -37.05, 0.663365, 20.5409, -160.572, -92.61, 54.7826
3.56749, 2, -37.0499, 0.663357, 20.5409, -160.572, -92.61, 54.7826
3.57556, 2, -37.0499, 0.663366, 20.5409, -160.572, -92.61, 54.7827
3.58349, 2, -37.0499, 0.663358, 20.5409, -160.572, -92.61, 54.7827
3.59149, 2, -37.0499, 0.663361, 20.5408, -160.572, -92.61, 54.7827
3.59961, 2, -37.0498, 0.663361, 20.5408, -160.572, -92.61, 54.7828
3.60756, 2, -37.0498, 0.663368, 20.5408, -160.572, -92.6101, 54.7827
3.61557, 2, -37.0498, 0.663378, 20.5408, -160.572, -92.6101, 54.7827
3.62365, 2, -37.0498, 0.66335, 20.5408, -160.572, -92.6101, 54.7828
3.63159, 2, -37.0497, 0.663358, 20.5408, -160.572, -92.6102, 54.7828
3.63959, 2, -37.0498, 0.663378, 20.5408, -160.572, -92.6101, 54.7828
3.64783, 2, -37.0497, 0.663376, 20.5408, -160.572, -92.6101, 54.7828
3.65953, 2, -37.0497, 0.663374, 20.5408, -160.572, -92.6101, 54.7828
3.66367, 2, -37.0497, 0.663374, 20.5408, -160.572, -92.6101, 54.7828
3.67155, 2, -37.0497, 0.663386, 20.5408, -160.572, -92.6101, 54.7828
3.67969, 2, -37.0497, 0.663372, 20.5408, -160.572, -92.6101, 54.7828
3.68771, 2, -37.0497, 0.663368, 20.5408, -160.572, -92.6101, 54.7828
3.6957, 2, -37.0496, 0.663383, 20.5408, -160.572, -92.6101, 54.7828
3.70414, 2, -37.0496, 0.663383, 20.5408, -160.572, -92.6101, 54.7828
3.71188, 2, -37.0496, 0.663385, 20.5408, -160.572, -92.6102, 54.7828
3.71983, 2, -37.0496, 0.663379, 20.5407, -160.572, -92.6101, 54.7828
3.72849, 4, -37.0496, 0.663376, 20.5407, -160.572, -92.6101, 54.7828
3.73608, 4, -37.0495, 0.663375, 20.5407, -160.572, -92.6102, 54.7828
3.74401, 4, -37.0495, 0.663374, 20.5407, -160.572, -92.6101, 54.7828
3.75211, 4, -37.0495, 0.663386, 20.5407, -160.572, -92.6101, 54.7829
3.76012, 4, -37.0494, 0.663391, 20.5407, -160.572, -92.6101, 54.7829
3.76803, 4, -37.0494, 0.663393, 20.5407, -160.572, -92.6101, 54.7829
3.77603, 4, -37.0494, 0.663395, 20.5407, -160.572, -92.6101, 54.7828
3.78408, 4, -37.0494, 0.663395, 20.5407, -160.572, -92.6101, 54.7828
3.79239, 4, -37.0493, 0.663396, 20.5407, -160.571, -92.6101, 54.7828
3.79948, 4, -37.0494, 0.663389, 20.5407, -160.571, -92.6101, 54.7828
3.80752, 4, -37.0493, 0.663388, 20.5407, -160.572, -92.6101, 54.7829
3.81548, 4, -37.0493, 0.663392, 20.5407, -160.571, -92.6101, 54.7829
3.82351, 4, -37.0493, 0.663394, 20.5406, -160.571, -92.6101, 54.7829
3.83167, 4, -37.0493, 0.663395, 20.5406, -160.571, -92.6101, 54.7829
3.85437, 4, -37.0492, 0.663396, 20.5406, -160.571, -92.6101, 54.7829
3.85559, 4, -37.0492, 0.663396, 20.5406, -160.571, -92.6101, 54.7829
3.85766, 4, -37.0492, 0.663396, 20.5406, -160.571, -92.6102, 54.7829
3.86348, 4, -37.0492, 0.663396, 20.5406, -160.571, -92.6102, 54.7829
3.87308, 4, -37.0492, 0.663396, 20.5406, -160.571, -92.6102, 54.7829
3.87949, 4, -37.0492, 0.663389, 20.5406, -160.571, -92.6102, 54.7829
3.8875, 4, -37.0485, 0.663246, 20.5406, -160.571, -92.6102, 54.7829
3.8955, 4, -37.0459, 0.662373, 20.5407, -160.571, -92.6102, 54.7829
3.90512, 4, -37.0402, 0.659594, 20.5415, -160.571, -92.6102, 54.7829
3.91156, 4, -37.0315, 0.654633, 20.5437, -160.571, -92.6102, 54.7829
3.92055, 4, -37.0208, 0.647666, 20.548, -160.571, -92.6102, 54.7829
3.92747, 4, -37.008, 0.63852, 20.5554, -160.569, -92.6102, 54.7829
3.93549, 5, -36.9924, 0.626781, 20.5665, -160.567, -92.6102, 54.7829
3.94353, 5, -36.9743, 0.612433, 20.5815, -160.564, -92.6101, 54.7828
3.95149, 5, -36.9546, 0.596311, 20.6004, -160.56, -92.6099, 54.7827
3.95953, 5, -36.9336, 0.578282, 20.6221, -160.555, -92.6097, 54.7826
3.96747, 5, -36.91, 0.557572, 20.6461, -160.55, -92.6095, 54.7825
3.97555, 5, -36.8827, 0.534528, 20.6719, -160.545, -92.6092, 54.7823
3.98353, 5, -36.8524, 0.509881, 20.6984, -160.539, -92.6088, 54.7822
3.99151, 5, -36.8204, 0.484126, 20.7256, -160.533, -92.6084, 54.7821
3.99997, 5, -36.7873, 0.45802, 20.753, -160.527, -92.6079, 54.7819
4.00747, 5, -36.7537, 0.431579, 20.7805, -160.521, -92.6074, 54.7817
4.01549, 5, -36.7197, 0.405024, 20.8078, -160.515, -92.6068, 54.7815
4.02425, 5, -36.6859, 0.378374, 20.8352, -160.508, -92.6061, 54.7813
4.03146, 5, -36.6522, 0.351652, 20.8627, -160.502, -92.6055, 54.7813
4.03947, 5, -36.6187, 0.325193, 20.8903, -160.496, -92.6048, 54.7811
4.04826, 5, -36.5852, 0.298742, 20.9178, -160.49, -92.6041, 54.781
4.05548, 5, -36.5515, 0.272414, 20.9454, -160.484, -92.6033, 54.7809
4.06349, 5, -36.5177, 0.246065, 20.973, -160.478, -92.6025, 54.7808
4.07226, 5, -36.4842, 0.219839, 21.0005, -160.472, -92.6017, 54.7807
4.07953, 5, -36.4506, 0.193702, 21.0279, -160.466, -92.6008, 54.7806
4.08758, 5, -36.4173, 0.167508, 21.0553, -160.46, -92.6, 54.7805
4.09654, 5, -36.3839, 0.141324, 21.0828, -160.455, -92.5992, 54.7803
4.10681, 5, -36.3506, 0.101766, 21.1241, -160.446, -92.598, 54.7799
4.11177, 5, -36.317, 0.0886439, 21.1377, -160.443, -92.5975, 54.7798
4.12043, 5, -36.2833, 0.0622549, 21.165, -160.438, -92.5967, 54.7795
4.12757, 5, -36.2491, 0.0358238, 21.1923, -160.432, -92.5959, 54.7791
4.13607, 5, -36.2147, 0.00944298, 21.2197, -160.426, -92.595, 54.7787
4.14453, 5, -36.1805, -0.0169964, 21.2469, -160.421, -92.5942, 54.7784
4.15154, 5, -36.1463, -0.0432151, 21.2742, -160.415, -92.5934, 54.7778
4.16026, 5, -36.1122, -0.0694387, 21.3014, -160.409, -92.5925, 54.7773
4.16839, 5, -36.0779, -0.0955217, 21.3288, -160.403, -92.5917, 54.7767
4.17561, 5, -36.0437, -0.121658, 21.3559, -160.397, -92.5909, 54.7763
4.18431, 5, -36.0096, -0.147709, 21.383, -160.391, -92.59, 54.7758
4.1916, 5, -35.9755, -0.173657, 21.4102, -160.385, -92.5892, 54.7753
4.19969, 5, -35.9414, -0.199677, 21.4375, -160.379, -92.5884, 54.7747
4.20856, 5, -35.9072, -0.225592, 21.4645, -160.372, -92.5875, 54.7742
4.21658, 5, -35.8733, -0.251669, 21.4915, -160.366, -92.5867, 54.7737
4.22478, 5, -35.8394, -0.277652, 21.5185, -160.359, -92.5859, 54.7733
4.23194, 5, -35.8054, -0.303675, 21.5456, -160.353, -92.5851, 54.7728
4.24004, 5, -35.771, -0.329758, 21.5725, -160.347, -92.5843, 54.7725
4.24885, 5, -35.7366, -0.355766, 21.5994, -160.34, -92.5835, 54.7722
4.25603, 5, -35.7022, -0.381862, 21.6263, -160.334, -92.5827, 54.7718
4.26423, 5, -35.6678, -0.407779, 21.6532, -160.328, -92.5819, 54.7715
4.27318, 5, -35.6333, -0.433741, 21.6801, -160.322, -92.5812, 54.7713
4.27998, 5, -35.616, -0.446694, 21.6934, -160.319, -92.5808, 54.7712
4.28803, 5, -35.5815, -0.472524, 21.7201, -160.313, -92.5799, 54.771
4.29545, 5, -35.5471, -0.498435, 21.7469, -160.308, -92.5792, 54.7709
4.30346, 5, -35.5126, -0.524181, 21.7737, -160.302, -92.5784, 54.7708
4.31152, 5, -35.4781, -0.549933, 21.8003, -160.296, -92.5776, 54.7706
4.31945, 5, -35.4436, -0.575665, 21.8269, -160.29, -92.5768, 54.7706
4.32756, 5, -35.4091, -0.60136, 21.8535, -160.284, -92.5761, 54.7705
4.33545, 5, -35.3747, -0.627168, 21.8801, -160.278, -92.5753, 54.7705
4.34346, 5, -35.3404, -0.652793, 21.9065, -160.272, -92.5745, 54.7704
4.35152, 5, -35.3059, -0.678541, 21.933, -160.266, -92.5737, 54.7704
4.35945, 5, -35.2713, -0.704245, 21.9594, -160.26, -92.5729, 54.7704
4.36761, 5, -35.2368, -0.729903, 21.986, -160.253, -92.5722, 54.7704
4.3755, 5, -35.2021, -0.755623, 22.0123, -160.247, -92.5713, 54.7704
4.38345, 5, -35.1673, -0.781088, 22.0385, -160.24, -92.5706, 54.7704
4.39162, 5, -35.1324, -0.806625, 22.0647, -160.234, -92.5698, 54.7704
4.40243, 5, -35.0802, -0.844777, 22.1043, -160.224, -92.5686, 54.7704
4.4075, 5, -35.0628, -0.85757, 22.1173, -160.221, -92.5683, 54.7704
4.4165, 5, -35.0281, -0.883114, 22.1435, -160.214, -92.5675, 54.7704
4.42346, 5, -34.9932, -0.908458, 22.1696, -160.207, -92.5667, 54.7705
4.43151, 5, -34.9582, -0.933928, 22.1957, -160.201, -92.5659, 54.7705
4.43961, 5, -34.9234, -0.959273, 22.2218, -160.194, -92.5651, 54.7705
4.44824, 5, -34.8885, -0.984674, 22.2478, -160.188, -92.5643, 54.7706
4.45549, 5, -34.8537, -1.01007, 22.2738, -160.182, -92.5635, 54.7706
4.46349, 5, -34.8188, -1.03529, 22.2998, -160.176, -92.5627, 54.7706
4.47147, 5, -34.784, -1.06063, 22.3258, -160.17, -92.5619, 54.7706
4.47948, 5, -34.7491, -1.0859, 22.3516, -160.164, -92.5611, 54.7707
4.48864, 5, -34.7142, -1.11122, 22.3773, -160.158, -92.5603, 54.7708
4.49548, 5, -34.6792, -1.13652, 22.4031, -160.152, -92.5595, 54.7708
4.50352, 5, -34.6441, -1.16168, 22.429, -160.146, -92.5586, 54.7709
4.51146, 5, -34.609, -1.18689, 22.4547, -160.14, -92.5579, 54.771
4.52051, 5, -34.574, -1.21198, 22.4803, -160.134, -92.557, 54.7712
4.52752, 5, -34.5388, -1.23722, 22.5059, -160.128, -92.5562, 54.7714
4.53546, 5, -34.5035, -1.26233, 22.5315, -160.121, -92.5554, 54.7716
4.54628, 5, -34.4682, -1.28738, 22.5572, -160.115, -92.5546, 54.7721
4.55153, 5, -34.433, -1.31247, 22.5826, -160.108, -92.5538, 54.7723
4.55945, 5, -34.3978, -1.33739, 22.6081, -160.102, -92.5529, 54.7728
4.56752, 5, -34.3624, -1.36249, 22.6336, -160.095, -92.5521, 54.7735
4.57545, 5, -34.3271, -1.38742, 22.6591, -160.088, -92.5514, 54.7743
4.58345, 5, -34.2919, -1.41234, 22.6844, -160.081, -92.5506, 54.7751
4.59166, 5, -34.2567, -1.43729, 22.7097, -160.074, -92.5497, 54.7761
4.59946, 5, -34.2214, -1.4621, 22.735, -160.068, -92.5488, 54.7773
4.60749, 5, -34.1859, -1.48704, 22.7604, -160.061, -92.548, 54.7786
4.61561, 5, -34.1506, -1.51179, 22.7857, -160.054, -92.5472, 54.78
4.62354, 5, -34.1152, -1.5365, 22.8109, -160.047, -92.5463, 54.7814
4.63155, 5, -34.0799, -1.56125, 22.8361, -160.041, -92.5455, 54.7829
4.64029, 5, -34.0443, -1.58588, 22.8613, -160.034, -92.5446, 54.7845
4.64763, 5, -34.0088, -1.6107, 22.8865, -160.028, -92.5438, 54.7862
4.65546, 5, -33.9733, -1.63534, 22.9115, -160.021, -92.5429, 54.7878
4.66461, 5, -33.9377, -1.65996, 22.9366, -160.015, -92.5421, 54.7895
4.67245, 5, -33.9021, -1.6846, 22.9617, -160.009, -92.5412, 54.7912
4.67955, 5, -33.8664, -1.70911, 22.9867, -160.002, -92.5403, 54.7929
4.68761, 5, -33.8308, -1.73379, 23.0116, -159.996, -92.5394, 54.7947
4.69561, 5, -33.7952, -1.75829, 23.0364, -159.989, -92.5385, 54.7965
4.70368, 5, -33.7595, -1.7828, 23.0614, -159.983, -92.5378, 54.7983
4.71184, 5, -33.7237, -1.8074, 23.0862, -159.976, -92.5369, 54.8001
4.71985, 5, -33.688, -1.83186, 23.1111, -159.969, -92.5359, 54.8019
4.72788, 5, -33.6523, -1.85641, 23.1358, -159.962, -92.535, 54.8038
4.7386, 5, -33.6167, -1.88079, 23.1605, -159.955, -92.5342, 54.8056
4.74403, 5, -33.5808, -1.90516, 23.1852, -159.948, -92.5333, 54.8075
4.752, 5, -33.545, -1.92957, 23.2099, -159.941, -92.5324, 54.8094
4.76006, 5, -33.5092, -1.95392, 23.2346, -159.934, -92.5316, 54.8114
4.76808, 5, -33.4736, -1.97852, 23.2592, -159.927, -92.5306, 54.8133
4.77608, 5, -33.4558, -1.99081, 23.2715, -159.92, -92.5297, 54.8151
4.78404, 5, -33.42, -2.01537, 23.2962, -159.916, -92.5286, 54.8168
4.79237, 5, -33.3842, -2.04014, 23.321, -159.906, -92.5274, 54.8184
4.79943, 5, -33.3487, -2.06499, 23.3457, -159.902, -92.5267, 54.8191
4.8075, 5, -33.3132, -2.09007, 23.3706, -159.895, -92.5251, 54.8204
4.81551, 6, -33.2777, -2.1154, 23.3958, -159.888, -92.5234, 54.8213
4.82344, 6, -33.2422, -2.14079, 23.4212, -159.88, -92.5213, 54.8218
4.83152, 6, -33.207, -2.16657, 23.4469, -159.872, -92.5189, 54.8221
4.83945, 6, -33.1718, -2.19255, 23.4726, -159.865, -92.5161, 54.8223
4.84746, 6, -33.1368, -2.21895, 23.4986, -159.857, -92.5129, 54.8223
4.85549, 6, -33.1017, -2.24563, 23.5249, -159.848, -92.5095, 54.8222
4.86368, 6, -33.0669, -2.27251, 23.5515, -159.84, -92.5057, 54.8219
4.87291, 6, -33.0151, -2.31355, 23.5917, -159.826, -92.4996, 54.821
4.87951, 6, -32.9979, -2.32741, 23.6052, -159.821, -92.4973, 54.8206
4.88902, 6, -32.9464, -2.36963, 23.6463, -159.806, -92.4902, 54.819
4.89541, 7, -32.9292, -2.38376, 23.6601, -159.801, -92.4877, 54.8184
4.90565, 7, -32.8951, -2.41236, 23.6877, -159.79, -92.4825, 54.8161
4.91225, 7, -32.8613, -2.44123, 23.7156, -159.779, -92.477, 54.8148
4.91944, 7, -32.8276, -2.47055, 23.7438, -159.768, -92.4712, 54.8116
4.92849, 7, -32.7938, -2.5002, 23.7723, -159.757, -92.4651, 54.8076
4.93649, 7, -32.7602, -2.53009, 23.8009, -159.746, -92.4588, 54.8029
4.94358, 7, -32.7269, -2.56037, 23.8298, -159.735, -92.4521, 54.7975
4.95149, 7, -32.6938, -2.59099, 23.859, -159.724, -92.4451, 54.7918
4.9595, 7, -32.6607, -2.62198, 23.8884, -159.712, -92.4377, 54.7855
4.96745, 7, -32.6276, -2.65317, 23.9179, -159.7, -92.43, 54.7786
4.97552, 7, -32.5947, -2.68468, 23.9478, -159.688, -92.4219, 54.7714
4.98666, 8, -32.5458, -2.73286, 23.9933, -159.669, -92.409, 54.7595
4.99144, 8, -32.5295, -2.74904, 24.0085, -159.662, -92.4045, 54.7554
4.99954, 8, -32.4971, -2.78165, 24.039, -159.649, -92.3949, 54.7467
5.00745, 8, -32.4647, -2.81452, 24.0698, -159.635, -92.3849, 54.7376
5.01545, 8, -32.4326, -2.84782, 24.1011, -159.622, -92.3745, 54.728
5.0235, 8, -32.4005, -2.88137, 24.1324, -159.608, -92.3636, 54.7179
5.03144, 8, -32.3687, -2.91528, 24.1639, -159.594, -92.3526, 54.7075
5.03959, 8, -32.3369, -2.94951, 24.1958, -159.58, -92.3413, 54.6964
5.04752, 8, -32.3052, -2.98411, 24.2279, -159.566, -92.33, 54.6849
5.05543, 8, -32.2739, -3.01896, 24.2602, -159.552, -92.3185, 54.6729
5.0635, 9, -32.2425, -3.05407, 24.2927, -159.537, -92.3067, 54.6604
5.07144, 9, -32.2113, -3.0896, 24.3256, -159.521, -92.2948, 54.6475
5.07943, 9, -32.1802, -3.12543, 24.3586, -159.505, -92.2824, 54.6343
5.08752, 9, -32.1491, -3.16159, 24.3919, -159.489, -92.2696, 54.6211
5.09569, 9, -32.1183, -3.19808, 24.4255, -159.474, -92.2563, 54.6076
5.10346, 9, -32.0877, -3.23498, 24.4593, -159.458, -92.2425, 54.5939
5.1117, 9, -32.0571, -3.2722, 24.4931, -159.442, -92.228, 54.5799
5.12049, 9, -32.0268, -3.30982, 24.5274, -159.425, -92.2133, 54.5657
5.12756, 9, -31.9963, -3.34778, 24.5619, -159.409, -92.1983, 54.551
5.1356, 9, -31.9661, -3.38604, 24.5966, -159.392, -92.1833, 54.5359
5.14357, 10, -31.9361, -3.42468, 24.6316, -159.374, -92.168, 54.5202
5.1516, 10, -31.9063, -3.46374, 24.6668, -159.356, -92.1526, 54.5041
5.15989, 10, -31.8766, -3.50307, 24.7021, -159.339, -92.1367, 54.4873
5.16749, 10, -31.8469, -3.54271, 24.7379, -159.321, -92.1204, 54.4699
5.17547, 10, -31.8175, -3.58274, 24.774, -159.303, -92.1035, 54.4523
5.18461, 10, -31.7882, -3.62305, 24.8101, -159.285, -92.0859, 54.4345
5.19338, 10, -31.7591, -3.66369, 24.8465, -159.267, -92.0679, 54.4165
5.19958, 10, -31.73, -3.70472, 24.8833, -159.248, -92.0499, 54.3983
5.20796, 10, -31.701, -3.74601, 24.9202, -159.229, -92.0319, 54.38
5.21663, 10, -31.6722, -3.78755, 24.9573, -159.209, -92.0138, 54.3612
5.22377, 10, -31.6436, -3.82963, 24.9949, -159.19, -91.9954, 54.342
5.23441, 11, -31.6152, -3.87195, 25.0325, -159.17, -91.9765, 54.3223
5.24071, 11, -31.5867, -3.91452, 25.0704, -159.151, -91.957, 54.3019
5.24794, 11, -31.5584, -3.95755, 25.1087, -159.131, -91.9368, 54.281
5.25658, 11, -31.53, -4.00088, 25.147, -159.111, -91.9164, 54.2599
5.26484, 11, -31.5018, -4.0446, 25.1856, -159.09, -91.8959, 54.2387
5.27203, 11, -31.4739, -4.08873, 25.2246, -159.068, -91.8753, 54.2174
5.28006, 11, -31.46, -4.13318, 25.2637, -159.047, -91.8545, 54.1958
5.29029, 11, -31.4186, -4.17801, 25.3031, -159.026, -91.8332, 54.1738
5.2954, 11, -31.4048, -4.20062, 25.323, -159.015, -91.8223, 54.1626
5.30447, 11, -31.3633, -4.26881, 25.3827, -158.983, -91.7887, 54.1282
5.31161, 12, -31.3497, -4.29169, 25.4027, -158.972, -91.7773, 54.1163
5.31953, 12, -31.3224, -4.33776, 25.4431, -158.95, -91.7546, 54.0921
5.32744, 12, -31.2952, -4.38417, 25.4836, -158.927, -91.7318, 54.0678
5.33554, 12, -31.2684, -4.43092, 25.5243, -158.904, -91.7089, 54.0434
5.34342, 12, -31.2417, -4.47801, 25.5655, -158.881, -91.6855, 54.0189
5.35143, 12, -31.2149, -4.52534, 25.6067, -158.859, -91.6615, 53.9942
5.36131, 12, -31.1752, -4.59702, 25.6691, -158.824, -91.6245, 53.9561
5.3688, 12, -31.162, -4.64523, 25.7109, -158.8, -91.5999, 53.9298
5.37542, 12, -31.1356, -4.66944, 25.732, -158.787, -91.5876, 53.9165
5.38531, 12, -31.0963, -4.74263, 25.7955, -158.751, -91.5501, 53.8759
5.39142, 12, -31.0833, -4.76722, 25.8167, -158.739, -91.5373, 53.8625
5.40102, 13, -31.0572, -4.8167, 25.8808, -158.703, -91.4976, 53.8218
5.40745, 13, -31.0313, -4.86653, 25.9024, -158.691, -91.4842, 53.808
5.41548, 13, -31.0057, -4.91684, 25.9456, -158.666, -91.4577, 53.7801
5.42506, 13, -30.9802, -4.96755, 25.9891, -158.64, -91.4311, 53.7515
5.43143, 13, -30.9548, -5.01859, 26.0328, -158.615, -91.4043, 53.7223
5.44008, 13, -30.9294, -5.07002, 26.0769, -158.59, -91.3768, 53.693
5.44743, 13, -30.9041, -5.12172, 26.1211, -158.564, -91.3485, 53.6637
5.45548, 13, -30.8789, -5.17385, 26.1655, -158.539, -91.3203, 53.6342
5.46342, 13, -30.8541, -5.22619, 26.2103, -158.512, -91.292, 53.6042
5.47142, 13, -30.8293, -5.27882, 26.2553, -158.485, -91.2635, 53.5737
5.47945, 14, -30.8047, -5.33188, 26.3006, -158.459, -91.2344, 53.5424
5.48756, 14, -30.7802, -5.38511, 26.3461, -158.433, -91.2043, 53.511
5.49542, 14, -30.7557, -5.43867, 26.3917, -158.406, -91.1744, 53.48
5.50345, 14, -30.7312, -5.4926, 26.4378, -158.379, -91.1446, 53.4486
5.51149, 14, -30.707, -5.54696, 26.484, -158.351, -91.1146, 53.4168
5.51942, 14, -30.6829, -5.60174, 26.5304, -158.324, -91.0837, 53.384
5.52744, 14, -30.659, -5.65682, 26.5772, -158.296, -91.0519, 53.3506
5.53563, 14, -30.6352, -5.71244, 26.6242, -158.268, -91.0203, 53.3171
5.5434, 14, -30.6115, -5.7684, 26.6714, -158.24, -90.9888, 53.2837
5.55142, 14, -30.5879, -5.82476, 26.7188, -158.211, -90.9568, 53.2501
5.55955, 14, -30.5644, -5.88142, 26.7665, -158.182, -90.9239, 53.2158
5.56743, 15, -30.5412, -5.93844, 26.8145, -158.154, -90.8906, 53.1807
5.57543, 15, -30.518, -5.99569, 26.8626, -158.125, -90.8577, 53.1453
5.58423, 15, -30.4949, -6.05323, 26.9112, -158.096, -90.8247, 53.1102
5.59142, 15, -30.4721, -6.1111, 26.9599, -158.065, -90.7909, 53.0747
5.59961, 15, -30.4493, -6.16921, 27.0089, -158.035, -90.7564, 53.0386
5.60853, 15, -30.4265, -6.22759, 27.0581, -158.005, -90.7222, 53.0016
5.61564, 15, -30.404, -6.2864, 27.1076, -157.975, -90.6878, 52.9644
5.6244, 15, -30.3817, -6.34558, 27.1572, -157.944, -90.6527, 52.9272
5.63157, 15, -30.3592, -6.40518, 27.2071, -157.913, -90.6167, 52.8896
5.63952, 15, -30.3371, -6.46525, 27.2573, -157.882, -90.5809, 52.8516
5.6476, 16, -30.3151, -6.5258, 27.3077, -157.851, -90.5453, 52.8125
5.65821, 16, -30.2931, -6.58666, 27.3583, -157.82, -90.5091, 52.7734
5.66359, 16, -30.2712, -6.64797, 27.4093, -157.787, -90.4719, 52.7345
5.67148, 16, -30.2495, -6.70963, 27.4605, -157.755, -90.435, 52.6953
5.67945, 16, -30.2279, -6.77152, 27.5118, -157.724, -90.3982, 52.6555
5.6876, 16, -30.2064, -6.83374, 27.5635, -157.692, -90.3604, 52.6148
5.69557, 16, -30.185, -6.8962, 27.6155, -157.659, -90.3218, 52.5744
5.70358, 16, -30.1638, -6.95891, 27.6677, -157.626, -90.2836, 52.534
5.71267, 16, -30.1427, -7.02193, 27.7201, -157.593, -90.2454, 52.4931
5.71987, 16, -30.1215, -7.08536, 27.7728, -157.56, -90.2062, 52.4514
5.72838, 17, -30.1006, -7.14911, 27.8256, -157.527, -90.1665, 52.4094
5.73594, 17, -30.08, -7.21338, 27.8788, -157.493, -90.1272, 52.3677
5.74456, 17, -30.0594, -7.27802, 27.9322, -157.46, -90.0875, 52.3258
5.75191, 17, -30.0388, -7.3431, 27.9858, -157.426, -90.0466, 52.2831
5.76057, 17, -30.0185, -7.40859, 28.0396, -157.392, -90.0059, 52.2397
5.76817, 17, -29.9983, -7.47445, 28.0938, -157.357, -89.9656, 52.1964
5.77679, 17, -29.9882, -7.54063, 28.1481, -157.322, -89.9244, 52.1531
5.78425, 17, -29.958, -7.60712, 28.2027, -157.288, -89.8824, 52.1092
5.79301, 17, -29.9381, -7.67384, 28.2577, -157.253, -89.8409, 52.0646
5.80127, 17, -29.9184, -7.74086, 28.3129, -157.218, -89.799, 52.0201
5.80744, 17, -29.9085, -7.77447, 28.3405, -157.2, -89.7776, 51.9979
5.81543, 18, -29.8889, -7.84183, 28.396, -157.164, -89.7345, 51.9532
5.82347, 18, -29.8694, -7.90963, 28.4518, -157.128, -89.6921, 51.9076
5.83142, 18, -29.8501, -7.97777, 28.5077, -157.092, -89.6494, 51.8615
5.83949, 18, -29.8308, -8.04628, 28.5639, -157.055, -89.6055, 51.8157
5.84743, 18, -29.8116, -8.11524, 28.6204, -157.018, -89.5619, 51.7697
5.85716, 18, -29.783, -8.21938, 28.7056, -156.964, -89.4961, 51.6989
5.86482, 18, -29.7736, -8.25433, 28.7628, -156.926, -89.4509, 51.6517
5.87141, 18, -29.7548, -8.32442, 28.7915, -156.907, -89.4285, 51.6282
5.88094, 18, -29.7268, -8.43005, 28.8778, -156.851, -89.3617, 51.5569
5.88909, 18, -29.7083, -8.50088, 28.9357, -156.814, -89.3157, 51.5084
5.89537, 19, -29.6991, -8.53641, 28.9647, -156.795, -89.2928, 51.4841
5.90574, 19, -29.6715, -8.64347, 29.0522, -156.737, -89.2244, 51.4121
5.91148, 19, -29.6623, -8.67932, 29.0815, -156.719, -89.2011, 51.3879
5.92045, 19, -29.6441, -8.7512, 29.1402, -156.681, -89.1542, 51.3386
5.92742, 19, -29.626, -8.8235, 29.1991, -156.642, -89.1077, 51.2895
5.9364, 19, -29.6082, -8.89612, 29.2583, -156.603, -89.0609, 51.2408
5.94341, 19, -29.5904, -8.9691, 29.3177, -156.564, -89.0133, 51.1914
5.9514, 19, -29.5727, -9.04244, 29.3774, -156.525, -88.9662, 51.1409
5.95974, 19, -29.5552, -9.11613, 29.4375, -156.485, -88.9187, 51.0904
5.96742, 19, -29.5378, -9.19012, 29.4977, -156.446, -88.8702, 51.0401
5.97548, 19, -29.5204, -9.26441, 29.5582, -156.406, -88.8222, 50.9889
5.98347, 20, -29.503, -9.33908, 29.6189, -156.366, -88.774, 50.9371
5.99147, 20, -29.4859, -9.41409, 29.6798, -156.325, -88.7248, 50.8858
5.99945, 20, -29.4688, -9.48939, 29.7409, -156.285, -88.6762, 50.834
6.00744, 20, -29.4519, -9.56496, 29.8023, -156.244, -88.6271, 50.7812
6.01541, 20, -29.435, -9.64094, 29.8638, -156.202, -88.577, 50.7284
6.02345, 20, -29.4182, -9.7172, 29.9257, -156.161, -88.5275, 50.6759
6.03157, 20, -29.4018, -9.79385, 29.9878, -156.12, -88.4777, 50.6227
6.0404, 20, -29.3854, -9.87077, 30.0501, -156.078, -88.4268, 50.5689
6.04839, 20, -29.3691, -9.94806, 30.1129, -156.035, -88.3766, 50.5155
6.05566, 20, -29.3527, -10.0256, 30.1757, -155.994, -88.3257, 50.4619
6.06338, 21, -29.3365, -10.1035, 30.2388, -155.952, -88.274, 50.4074
6.07144, 21, -29.3204, -10.1818, 30.3022, -155.908, -88.223, 50.353
6.0802, 21, -29.3044, -10.2603, 30.3656, -155.866, -88.1711, 50.2989
6.08742, 21, -29.2885, -10.3391, 30.4293, -155.824, -88.1191, 50.244
6.09541, 21, -29.2726, -10.4182, 30.4932, -155.78, -88.0674, 50.1889
6.10443, 21, -29.257, -10.4976, 30.5574, -155.737, -88.0145, 50.1344
6.11328, 21, -29.2415, -10.5773, 30.6218, -155.694, -87.9619, 50.0794
6.11948, 21, -29.2261, -10.6573, 30.6864, -155.65, -87.9094, 50.0235
6.12763, 21, -29.2108, -10.7376, 30.7512, -155.606, -87.8558, 49.9679
6.13581, 21, -29.1953, -10.8182, 30.8164, -155.562, -87.8028, 49.9123
6.14351, 21, -29.18, -10.8991, 30.8818, -155.518, -87.7492, 49.8558
6.15396, 22, -29.1648, -10.9804, 30.9473, -155.472, -87.6948, 49.7995
6.16005, 22, -29.1498, -11.0618, 31.0131, -155.428, -87.6412, 49.7434
6.16846, 22, -29.1349, -11.1436, 31.079, -155.383, -87.5867, 49.6863
6.17543, 22, -29.12, -11.2258, 31.1451, -155.337, -87.5317, 49.6288
6.18422, 22, -29.1054, -11.3082, 31.2114, -155.291, -87.4772, 49.5718
6.19146, 22, -29.0909, -11.3909, 31.278, -155.246, -87.4214, 49.5145
6.19954, 22, -29.0765, -11.474, 31.3447, -155.2, -87.3664, 49.4562
6.20812, 22, -29.0622, -11.5573, 31.4119, -155.153, -87.3111, 49.3986
6.21565, 22, -29.0478, -11.641, 31.4792, -155.107, -87.2549, 49.3406
6.2238, 22, -29.0335, -11.725, 31.5467, -155.06, -87.1994, 49.2818
6.23187, 23, -29.0194, -11.8091, 31.6144, -155.014, -87.1428, 49.2236
6.23988, 23, -29.0054, -11.8936, 31.6822, -154.967, -87.0862, 49.1654
6.24849, 23, -28.9915, -11.9783, 31.7502, -154.92, -87.0302, 49.1064
6.25623, 23, -28.9776, -12.0633, 31.8183, -154.872, -86.9728, 49.0479
6.26394, 23, -28.9638, -12.1485, 31.8867, -154.826, -86.9163, 48.9895
6.27206, 23, -28.9501, -12.234, 31.9554, -154.778, -86.8589, 48.9301
6.28024, 23, -28.9365, -12.3198, 32.0242, -154.729, -86.8009, 48.8708
6.2879, 23, -28.9297, -12.3629, 32.0588, -154.706, -86.7724, 48.8414
6.29648, 23, -28.9095, -12.4924, 32.1627, -154.633, -86.6849, 48.7524
6.30481, 23, -28.8961, -12.579, 32.2322, -154.584, -86.627, 48.6928
6.31139, 23, -28.8895, -12.6224, 32.2671, -154.56, -86.5979, 48.6632
6.31944, 24, -28.8761, -12.7094, 32.3368, -154.512, -86.5388, 48.6037
6.32747, 24, -28.8629, -12.7967, 32.4067, -154.462, -86.4806, 48.5432
6.33657, 24, -28.8433, -12.928, 32.5118, -154.388, -86.3916, 48.4535
6.34339, 24, -28.8368, -12.9719, 32.547, -154.363, -86.3622, 48.4234
6.3514, 24, -28.824, -13.06, 32.6174, -154.313, -86.303, 48.3624
6.36246, 24, -28.8048, -13.1927, 32.7236, -154.239, -86.2133, 48.2719
6.3674, 24, -28.7984, -13.2371, 32.7592, -154.213, -86.1839, 48.2416
6.37698, 24, -28.7797, -13.3705, 32.8659, -154.138, -86.0936, 48.1497
6.38345, 24, -28.7734, -13.415, 32.9016, -154.113, -86.0639, 48.1194
6.39139, 24, -28.7608, -13.5044, 32.9731, -154.062, -86.0038, 48.0588
6.40375, 25, -28.7483, -13.6388, 33.0804, -153.986, -85.913, 47.9668
6.4074, 25, -28.7357, -13.6837, 33.1162, -153.961, -85.883, 47.9365
6.41546, 25, -28.7231, -13.7737, 33.1882, -153.909, -85.8218, 47.876
6.42443, 25, -28.7108, -13.864, 33.2603, -153.857, -85.7612, 47.8147
6.43139, 25, -28.6985, -13.9545, 33.3327, -153.807, -85.7, 47.7537
6.44038, 25, -28.6864, -14.0452, 33.4052, -153.754, -85.6385, 47.6931
6.44843, 25, -28.6744, -14.1361, 33.4779, -153.702, -85.5776, 47.6317
6.45552, 25, -28.6625, -14.2273, 33.5508, -153.65, -85.5157, 47.5707
6.46436, 25, -28.6506, -14.3187, 33.6238, -153.597, -85.4545, 47.5102
6.47238, 25, -28.6388, -14.4103, 33.697, -153.545, -85.3924, 47.4486
6.47961, 26, -28.6272, -14.5021, 33.7702, -153.492, -85.3307, 47.3874
6.48746, 26, -28.6156, -14.5943, 33.8435, -153.438, -85.2688, 47.3266
6.49545, 26, -28.604, -14.6866, 33.917, -153.386, -85.2064, 47.265
6.50343, 26, -28.5924, -14.779, 33.9907, -153.332, -85.1446, 47.2038
6.51142, 26, -28.5809, -14.8717, 34.0647, -153.279, -85.0816, 47.1429
6.5194, 26, -28.5692, -14.9643, 34.1388, -153.226, -85.0194, 47.0813
6.52789, 26, -28.5576, -15.0573, 34.2131, -153.171, -84.9564, 47.0201
6.53876, 26, -28.5403, -15.1969, 34.3248, -153.091, -84.8623, 46.929
6.54339, 26, -28.5346, -15.2435, 34.362, -153.064, -84.8305, 46.8983
6.55447, 26, -28.5175, -15.3839, 34.4739, -152.982, -84.7359, 46.8075
6.5594, 26, -28.5119, -15.4307, 34.5113, -152.956, -84.7043, 46.7774
6.56747, 27, -28.5006, -15.5245, 34.5861, -152.9, -84.6406, 46.7164
6.57548, 27, -28.4893, -15.6185, 34.6612, -152.845, -84.5776, 46.6556
6.58339, 27, -28.4782, -15.7129, 34.7363, -152.791, -84.5135, 46.5953
6.59139, 27, -28.4671, -15.8073, 34.8116, -152.735, -84.4501, 46.5343
6.59951, 27, -28.4561, -15.902, 34.8871, -152.68, -84.3864, 46.4734
6.60756, 27, -28.4451, -15.9969, 34.9627, -152.624, -84.3224, 46.4134
6.61549, 27, -28.4341, -16.092, 35.0383, -152.568, -84.2588, 46.3526
6.62347, 27, -28.423, -16.1871, 35.114, -152.513, -84.1943, 46.2918
6.63149, 27, -28.4119, -16.2824, 35.1897, -152.456, -84.1308, 46.2319
6.63955, 27, -28.4009, -16.3777, 35.2656, -152.4, -84.0659, 46.1714
6.64747, 28, -28.39, -16.4733, 35.3417, -152.344, -84.0019, 46.1109
6.6555, 28, -28.3791, -16.5689, 35.418, -152.287, -83.9371, 46.0513
6.66356, 28, -28.3681, -16.6647, 35.4944, -152.231, -83.8728, 45.9914
6.67151, 28, -28.3573, -16.7607, 35.571, -152.174, -83.8085, 45.9314
6.67942, 28, -28.3465, -16.8569, 35.6476, -152.117, -83.7436, 45.8724
6.68756, 28, -28.3356, -16.9531, 35.7241, -152.061, -83.6793, 45.8133
6.69631, 28, -28.3248, -17.0495, 35.8007, -152.002, -83.614, 45.754
6.70385, 28, -28.3142, -17.1459, 35.8774, -151.946, -83.5498, 45.6957
6.71197, 28, -28.3035, -17.2425, 35.9543, -151.887, -83.4845, 45.6374
6.72054, 28, -28.2928, -17.3392, 36.0312, -151.829, -83.4199, 45.5788
6.72862, 28, -28.2822, -17.436, 36.1084, -151.772, -83.3546, 45.521
6.73583, 29, -28.2715, -17.5331, 36.1856, -151.713, -83.2895, 45.4635
6.7445, 29, -28.2607, -17.6303, 36.2629, -151.655, -83.2244, 45.4056
6.75196, 29, -28.25, -17.7275, 36.3403, -151.596, -83.1588, 45.3484
6.75997, 29, -28.2394, -17.8247, 36.4176, -151.538, -83.0936, 45.2917
6.7689, 29, -28.2288, -17.922, 36.495, -151.48, -83.0278, 45.2345
6.77596, 29, -28.2181, -18.0194, 36.5724, -151.421, -82.9628, 45.1777
6.78425, 29, -28.2074, -18.117, 36.65, -151.363, -82.8968, 45.1218
6.79136, 29, -28.2021, -18.1658, 36.6889, -151.333, -82.8643, 45.0939
6.79937, 29, -28.1915, -18.2635, 36.7667, -151.274, -82.7987, 45.0375
6.80745, 29, -28.1808, -18.3614, 36.8447, -151.215, -82.7329, 44.9821
6.81628, 30, -28.1702, -18.4592, 36.9226, -151.155, -82.6679, 44.8998
6.82337, 30, -28.1597, -18.557, 37.0005, -151.096, -82.6018, 44.8722
6.83268, 30, -28.1439, -18.704, 37.1173, -151.005, -82.5037, 44.7901
6.83937, 30, -28.1386, -18.753, 37.1562, -150.975, -82.4704, 44.7633
6.84743, 30, -28.1281, -18.851, 37.2342, -150.916, -82.4052, 44.7097
6.85538, 30, -28.1174, -18.9492, 37.3123, -150.855, -82.3391, 44.6559
6.86339, 30, -28.1067, -19.0477, 37.3905, -150.795, -82.2733, 44.6031
6.87288, 30, -28.0906, -19.1953, 37.5079, -150.704, -82.174, 44.5248
6.88679, 30, -28.0747, -19.3428, 37.6253, -150.614, -82.0757, 44.4464
6.88872, 30, -28.0747, -19.3428, 37.6253, -150.614, -82.0757, 44.4207
6.89544, 30, -28.0639, -19.4412, 37.7034, -150.553, -82.0095, 44.3954
6.90342, 31, -28.0531, -19.5396, 37.7816, -150.493, -81.9441, 44.3446
6.91299, 31, -28.0424, -19.6379, 37.8598, -150.401, -81.8451, 44.2685
6.9194, 31, -28.0315, -19.7364, 37.9381, -150.371, -81.8125, 44.2437
6.92738, 31, -28.0205, -19.8349, 38.0165, -150.31, -81.7464, 44.1946
6.93644, 31, -28.0096, -19.9334, 38.0949, -150.249, -81.6808, 44.1453
6.94345, 31, -27.9988, -20.0318, 38.1734, -150.187, -81.6148, 44.096
6.95157, 31, -27.9879, -20.1304, 38.2519, -150.125, -81.549, 44.0476
6.96027, 31, -27.9769, -20.2289, 38.3302, -150.064, -81.4834, 44
6.96838, 31, -27.9659, -20.3275, 38.4084, -150.002, -81.4172, 43.9522
6.97633, 31, -27.9548, -20.4261, 38.4867, -149.94, -81.3516, 43.9046
6.98442, 32, -27.9436, -20.5248, 38.5649, -149.878, -81.2854, 43.8583
6.99236, 32, -27.9324, -20.6236, 38.6432, -149.816, -81.2202, 43.8125
7.00024, 32, -27.9213, -20.7223, 38.7215, -149.755, -81.1541, 43.767
7.00737, 32, -27.9101, -20.8209, 38.7999, -149.692, -81.0888, 43.7215
7.0155, 32, -27.8987, -20.9195, 38.8782, -149.631, -81.0228, 43.6773
7.0244, 32, -27.8874, -21.018, 38.9564, -149.568, -80.9575, 43.634
7.03154, 32, -27.8759, -21.1165, 39.0346, -149.506, -80.8919, 43.5907
7.04034, 32, -27.8644, -21.215, 39.1127, -149.443, -80.8264, 43.5478
7.04844, 32, -27.8528, -21.3135, 39.1908, -149.381, -80.7612, 43.5058
7.05637, 32, -27.8413, -21.4119, 39.2688, -149.318, -80.6954, 43.4651
7.06457, 33, -27.8297, -21.5102, 39.3469, -149.255, -80.6306, 43.4247
7.07447, 33, -27.8122, -21.6577, 39.464, -149.161, -80.5322, 43.3648
7.07948, 33, -27.8063, -21.7069, 39.5031, -149.129, -80.4998, 43.3451
7.08737, 33, -27.7944, -21.8051, 39.5811, -149.067, -80.434, 43.3068
7.09538, 33, -27.7824, -21.9034, 39.659, -149.003, -80.3693, 43.2695
7.10355, 33, -27.7704, -22.0017, 39.7367, -148.941, -80.3041, 43.2325
7.11153, 33, -27.7584, -22.0999, 39.8143, -148.878, -80.2389, 43.1958
7.11942, 33, -27.7462, -22.1981, 39.892, -148.815, -80.1741, 43.1596
7.12763, 33, -27.7341, -22.2961, 39.9696, -148.752, -80.1088, 43.1247
7.1364, 33, -27.7219, -22.3941, 40.0472, -148.688, -80.0446, 43.0908
7.14353, 33, -27.7095, -22.492, 40.1248, -148.626, -79.9794, 43.0577
7.15154, 34, -27.6971, -22.5898, 40.2023, -148.561, -79.9152, 43.0248
7.15973, 34, -27.6847, -22.6876, 40.2798, -148.498, -79.8499, 42.9923
7.16754, 34, -27.6722, -22.7854, 40.3571, -148.434, -79.7855, 42.9606
7.17556, 34, -27.6595, -22.8829, 40.4342, -148.371, -79.7207, 42.9303
7.18427, 34, -27.6468, -22.9804, 40.5112, -148.307, -79.6558, 42.901
7.1914, 34, -27.6339, -23.0777, 40.5881, -148.243, -79.5912, 42.8724
7.19986, 34, -27.6208, -23.175, 40.665, -148.18, -79.5261, 42.8443
7.20752, 34, -27.6078, -23.2721, 40.7419, -148.116, -79.4621, 42.8167
7.21556, 34, -27.5946, -23.3693, 40.8187, -148.053, -79.3971, 42.7898
7.22399, 34, -27.5812, -23.4664, 40.8955, -147.988, -79.333, 42.7641
7.23233, 35, -27.5678, -23.5635, 40.9721, -147.925, -79.2679, 42.7398
7.23977, 35, -27.5543, -23.6603, 41.0484, -147.861, -79.2041, 42.7164
7.24797, 35, -27.5407, -23.7569, 41.1245, -147.797, -79.1396, 42.6939
7.25651, 35, -27.5272, -23.8534, 41.2006, -147.734, -79.0755, 42.6724
7.26387, 35, -27.5135, -23.9497, 41.2766, -147.669, -79.0115, 42.6516
7.2727, 35, -27.4996, -24.0458, 41.3525, -147.606, -78.947, 42.6314
7.28158, 35, -27.4856, -24.1419, 41.4284, -147.541, -78.8835, 42.612
7.28795, 35, -27.4785, -24.1898, 41.4663, -147.477, -78.819, 42.5938
7.29636, 35, -27.4569, -24.3335, 41.5798, -147.413, -78.7556, 42.5767
7.30336, 35, -27.4497, -24.3813, 41.6175, -147.381, -78.7235, 42.5685
7.31239, 35, -27.4279, -24.5244, 41.7305, -147.285, -78.6278, 42.546
7.3217, 36, -27.4132, -24.6197, 41.8054, -147.221, -78.5642, 42.5323
7.32741, 36, -27.4058, -24.6673, 41.8428, -147.189, -78.5322, 42.5259
7.33542, 36, -27.3907, -24.7624, 41.9176, -147.125, -78.4692, 42.514
7.34335, 36, -27.3756, -24.8575, 41.9923, -147.061, -78.4056, 42.503
7.35345, 36, -27.3528, -24.9999, 42.1041, -146.965, -78.3113, 42.4884
7.35937, 36, -27.3451, -25.0473, 42.1413, -146.933, -78.2797, 42.4841
7.36736, 36, -27.3297, -25.1419, 42.2156, -146.869, -78.2165, 42.4762
7.37698, 36, -27.3061, -25.2833, 42.3267, -146.773, -78.1224, 42.466
7.38491, 36, -27.2902, -25.3773, 42.4004, -146.709, -78.0596, 42.4605
7.39292, 36, -27.2742, -25.471, 42.4739, -146.645, -77.9973, 42.4562
7.39952, 37, -27.2662, -25.5178, 42.5106, -146.613, -77.9658, 42.4545
7.40743, 37, -27.2499, -25.6112, 42.5839, -146.549, -77.9034, 42.4519
7.41715, 37, -27.2334, -25.7046, 42.6936, -146.453, -77.8096, 42.4498
7.42337, 37, -27.2169, -25.7978, 42.7301, -146.421, -77.7785, 42.4495
7.43143, 37, -27.2002, -25.8907, 42.803, -146.357, -77.7167, 42.4492
7.44048, 37, -27.1834, -25.9834, 42.8757, -146.294, -77.6543, 42.4492
7.44752, 37, -27.1664, -26.0759, 42.948, -146.23, -77.5927, 42.4497
7.45541, 37, -27.149, -26.1682, 43.0202, -146.167, -77.5304, 42.4514
7.46335, 37, -27.1315, -26.2601, 43.0921, -146.103, -77.4688, 42.4553
7.47136, 37, -27.1138, -26.3519, 43.1637, -146.04, -77.4073, 42.4609
7.47942, 37, -27.096, -26.4436, 43.2352, -145.976, -77.3455, 42.4681
7.48736, 38, -27.078, -26.535, 43.3066, -145.913, -77.2845, 42.477
7.49579, 38, -27.0598, -26.6262, 43.3777, -145.85, -77.2226, 42.4871
7.50342, 38, -27.0416, -26.7171, 43.4487, -145.786, -77.1617, 42.4987
7.51135, 38, -27.0232, -26.8077, 43.5194, -145.723, -77.1003, 42.5117
7.52047, 38, -27.0044, -26.8981, 43.5898, -145.66, -77.0391, 42.526
7.53148, 38, -26.9853, -27.0332, 43.6949, -145.566, -76.9474, 42.5504
7.53536, 38, -26.966, -27.078, 43.7299, -145.534, -76.9168, 42.5592
7.54348, 38, -26.9467, -27.1676, 43.7995, -145.472, -76.8567, 42.5781
7.55132, 38, -26.927, -27.257, 43.8689, -145.409, -76.7956, 42.5985
7.55936, 38, -26.9072, -27.346, 43.9381, -145.347, -76.7352, 42.6208
7.57037, 39, -26.8771, -27.479, 44.0414, -145.253, -76.6441, 42.657
7.57542, 39, -26.8671, -27.5232, 44.0757, -145.222, -76.6139, 42.6697
7.58339, 39, -26.8466, -27.6115, 44.1441, -145.161, -76.5542, 42.696
7.59135, 39, -26.8258, -27.6994, 44.2122, -145.098, -76.4934, 42.7236
7.59937, 39, -26.805, -27.7871, 44.2801, -145.037, -76.4337, 42.7527
7.60739, 39, -26.7839, -27.8746, 44.3477, -144.974, -76.3734, 42.7837
7.6156, 39, -26.7625, -27.9618, 44.4149, -144.913, -76.3132, 42.8165
7.62358, 39, -26.7409, -28.0486, 44.4818, -144.851, -76.2536, 42.8506
7.63151, 39, -26.7192, -28.1351, 44.5483, -144.789, -76.1931, 42.8858
7.63974, 39, -26.6972, -28.2213, 44.6147, -144.729, -76.1337, 42.9225
7.64745, 39, -26.6747, -28.3071, 44.6807, -144.667, -76.0734, 42.9611
7.65548, 40, -26.6521, -28.3926, 44.7466, -144.607, -76.014, 43.0016
7.66369, 40, -26.6293, -28.4778, 44.8121, -144.546, -75.9545, 43.0432
7.67152, 40, -26.6062, -28.5625, 44.8773, -144.486, -75.8947, 43.086
7.67936, 40, -26.5828, -28.6469, 44.9422, -144.426, -75.8358, 43.1305
7.68819, 40, -26.5593, -28.731, 45.0066, -144.366, -75.7759, 43.1769
7.69649, 40, -26.5353, -28.8147, 45.0707, -144.306, -75.7171, 43.2246
7.70438, 40, -26.5109, -28.898, 45.1345, -144.246, -75.6581, 43.2736
7.71156, 40, -26.4864, -28.981, 45.1978, -144.187, -75.5989, 43.3244
7.72048, 40, -26.4616, -29.0637, 45.2608, -144.127, -75.5406, 43.3774
7.72765, 40, -26.4365, -29.146, 45.3236, -144.068, -75.4811, 43.4312
7.7358, 41, -26.411, -29.2279, 45.3859, -144.01, -75.4228, 43.4864
7.74587, 41, -26.3854, -29.3096, 45.448, -143.95, -75.3643, 43.5438
7.752, 41, -26.3593, -29.3908, 45.5097, -143.893, -75.3055, 43.6026
7.76051, 41, -26.3329, -29.4716, 45.571, -143.834, -75.2477, 43.6624
7.76866, 41, -26.3064, -29.552, 45.6319, -143.777, -75.189, 43.7246
7.77639, 41, -26.2796, -29.632, 45.6924, -143.72, -75.1313, 43.7883
7.78541, 41, -26.2524, -29.7115, 45.7525, -143.662, -75.0733, 43.8533
7.79187, 41, -26.2386, -29.7512, 45.7823, -143.634, -75.0153, 43.9209
7.80036, 41, -26.1968, -29.8694, 45.8712, -143.549, -74.9579, 43.9898
7.80735, 41, -26.1827, -29.9085, 45.9007, -143.521, -74.9289, 44.0246
7.81536, 41, -26.1544, -29.9866, 45.9594, -143.466, -74.8709, 44.0967
7.82734, 42, -26.1113, -30.1029, 46.0466, -143.381, -74.7852, 44.2075
7.83129, 42, -26.0967, -30.1414, 46.0756, -143.354, -74.7562, 44.2453
7.84054, 42, -26.0524, -30.2565, 46.1615, -143.271, -74.6709, 44.3622
7.84734, 42, -26.0374, -30.2945, 46.1899, -143.244, -74.6421, 44.4016
7.85536, 42, -26.0073, -30.3703, 46.2464, -143.189, -74.5845, 44.4828
7.86339, 42, -25.9769, -30.4457, 46.3025, -143.135, -74.528, 44.5649
7.87148, 42, -25.9461, -30.5206, 46.358, -143.081, -74.4705, 44.6492
7.87932, 42, -25.9149, -30.5949, 46.4131, -143.029, -74.4137, 44.7352
7.88972, 42, -25.8672, -30.7055, 46.4948, -142.949, -74.3282, 44.868
7.89591, 42, -25.8511, -30.7421, 46.5218, -142.923, -74.2997, 44.9131
7.90334, 43, -25.8187, -30.8149, 46.5754, -142.872, -74.2438, 45.0046
7.91357, 43, -25.7859, -30.8873, 46.6285, -142.794, -74.1587, 45.146
7.92018, 43, -25.7528, -30.9592, 46.6812, -142.769, -74.1308, 45.194
7.92734, 43, -25.7192, -31.0306, 46.7334, -142.719, -74.0748, 45.2917
7.93633, 43, -25.6854, -31.1015, 46.7852, -142.669, -74.018, 45.3907
7.94529, 43, -25.651, -31.1719, 46.8363, -142.62, -73.9625, 45.4918
7.95148, 43, -25.6162, -31.2415, 46.8869, -142.571, -73.9066, 45.5949
7.95935, 43, -25.5808, -31.3107, 46.937, -142.521, -73.8506, 45.6995
7.96743, 43, -25.545, -31.3793, 46.9866, -142.474, -73.7954, 45.8061
7.97536, 43, -25.5089, -31.4471, 47.0355, -142.426, -73.7393, 45.9143
7.9836, 44, -25.4725, -31.5144, 47.084, -142.378, -73.684, 46.0245
7.99452, 44, -25.4167, -31.6143, 47.1555, -142.31, -73.601, 46.1935
7.99934, 44, -25.3978, -31.6473, 47.179, -142.287, -73.5732, 46.2507
8.00747, 44, -25.3599, -31.7129, 47.2257, -142.241, -73.5185, 46.367
8.01536, 44, -25.3216, -31.7779, 47.2718, -142.196, -73.4632, 46.485
8.02335, 44, -25.2828, -31.8423, 47.3173, -142.153, -73.4082, 46.6051
8.03141, 44, -25.2433, -31.9061, 47.3621, -142.109, -73.3539, 46.7275
8.03934, 44, -25.2035, -31.9692, 47.4065, -142.066, -73.2989, 46.8515
8.04749, 44, -25.1633, -32.0317, 47.4501, -142.025, -73.2447, 46.9776
8.05543, 44, -25.1226, -32.0933, 47.493, -141.983, -73.1907, 47.1059
8.06333, 44, -25.0813, -32.1543, 47.5355, -141.942, -73.1361, 47.2363
8.0714, 45, -25.0396, -32.2145, 47.5772, -141.903, -73.0826, 47.3689
8.07935, 45, -24.9974, -32.274, 47.6183, -141.864, -73.0288, 47.5036
8.08738, 45, -24.9545, -32.3327, 47.6586, -141.825, -72.975, 47.6404
8.09543, 45, -24.9111, -32.3908, 47.6982, -141.787, -72.9221, 47.7793
8.10336, 45, -24.8672, -32.4483, 47.7371, -141.75, -72.8684, 47.9202
8.11134, 45, -24.8228, -32.505, 47.7754, -141.714, -72.8153, 48.0628
8.11959, 45, -24.7778, -32.561, 47.8127, -141.678, -72.763, 48.2077
8.12838, 45, -24.7323, -32.6163, 47.8495, -141.643, -72.7097, 48.3544
8.13544, 45, -24.6864, -32.6708, 47.8855, -141.609, -72.6575, 48.5034
8.1436, 45, -24.6399, -32.7243, 47.9208, -141.576, -72.6052, 48.6543
8.15143, 46, -24.5927, -32.777, 47.9553, -141.543, -72.5525, 48.807
8.15944, 46, -24.545, -32.8288, 47.9892, -141.511, -72.501, 48.962
8.16824, 46, -24.4966, -32.8796, 48.0221, -141.481, -72.449, 49.1187
8.17552, 46, -24.4478, -32.9294, 48.0543, -141.452, -72.3972, 49.2777
8.18336, 46, -24.3984, -32.9786, 48.0859, -141.423, -72.3463, 49.439
8.1926, 46, -24.3485, -33.0269, 48.1165, -141.395, -72.2946, 49.6024
8.20121, 46, -24.2979, -33.0743, 48.1463, -141.368, -72.2434, 49.7679
8.2075, 46, -24.2469, -33.121, 48.1753, -141.342, -72.1933, 49.9352
8.21564, 46, -24.1952, -33.1668, 48.2035, -141.317, -72.1423, 50.1044
8.22444, 46, -24.1428, -33.2116, 48.2307, -141.294, -72.0922, 50.2754
8.23166, 46, -24.0899, -33.2556, 48.2571, -141.27, -72.0429, 50.4483
8.24238, 47, -24.0363, -33.2985, 48.2826, -141.248, -71.9926, 50.6235
8.24843, 47, -23.982, -33.3404, 48.3073, -141.227, -71.9433, 50.8005
8.25585, 47, -23.9273, -33.3813, 48.331, -141.207, -71.8947, 50.9796
8.26442, 47, -23.8718, -33.4211, 48.3538, -141.189, -71.8453, 51.161
8.27271, 47, -23.8156, -33.4597, 48.3757, -141.171, -71.7968, 51.344
8.28076, 47, -23.7589, -33.4974, 48.3967, -141.155, -71.7491, 51.5294
8.28811, 47, -23.7015, -33.5339, 48.417, -141.14, -71.7006, 51.7168
8.29809, 47, -23.6435, -33.5695, 48.4362, -141.126, -71.6531, 51.9066
8.30518, 47, -23.5848, -33.604, 48.4543, -141.113, -71.6064, 52.098
8.31137, 47, -23.5552, -33.6209, 48.4631, -141.107, -71.5829, 52.1947
8.32333, 48, -23.4655, -33.6698, 48.4877, -141.089, -71.5129, 52.4873
8.32909, 48, -23.4049, -33.7011, 48.5027, -141.08, -71.4673, 52.685
8.33663, 48, -23.3436, -33.7312, 48.5168, -141.071, -71.4214, 52.8847
8.34349, 48, -23.3127, -33.7458, 48.5235, -141.067, -71.3984, 52.9854
8.35133, 48, -23.2505, -33.7741, 48.5361, -141.061, -71.3537, 53.1879
8.35938, 48, -23.1876, -33.8012, 48.5476, -141.055, -71.3097, 53.3924
8.36748, 48, -23.1241, -33.8269, 48.558, -141.051, -71.2653, 53.5989
8.37671, 48, -23.0598, -33.8634, 48.5719, -141.048, -71.2002, 53.9129
8.38335, 48, -22.9948, -33.8749, 48.5759, -141.047, -71.1789, 54.0185
8.39349, 48, -22.8961, -33.9074, 48.5864, -141.046, -71.1144, 54.3383
8.3994, 48, -22.8628, -33.9177, 48.5894, -141.046, -71.0932, 54.4457
8.40738, 49, -22.7958, -33.9373, 48.5945, -141.047, -71.0519, 54.6619
8.41693, 49, -22.728, -33.9553, 48.5984, -141.051, -70.9903, 54.9896
8.42343, 49, -22.6597, -33.9721, 48.601, -141.054, -70.9698, 55.0998
8.43237, 49, -22.5906, -33.9877, 48.6025, -141.059, -70.9296, 55.3215
8.43933, 49, -22.5209, -34.0018, 48.6031, -141.066, -70.8904, 55.5452
8.44813, 49, -22.4505, -34.0142, 48.603, -141.075, -70.8513, 55.7704
8.45533, 49, -22.3794, -34.0253, 48.6019, -141.086, -70.8124, 55.998
8.46332, 49, -22.3075, -34.035, 48.5997, -141.098, -70.7749, 56.2275
8.47139, 49, -22.235, -34.0435, 48.5963, -141.112, -70.7383, 56.4588
8.47933, 49, -22.1618, -34.0504, 48.5916, -141.127, -70.7018, 56.692
8.48733, 50, -22.0879, -34.0558, 48.5855, -141.144, -70.6657, 56.9267
8.49534, 50, -22.0135, -34.0596, 48.5782, -141.162, -70.631, 57.1635
8.50339, 50, -21.9383, -34.0619, 48.5695, -141.181, -70.5971, 57.4022
8.51138, 50, -21.8626, -34.0629, 48.5594, -141.202, -70.5636, 57.6424
8.51932, 50, -21.7859, -34.0627, 48.5482, -141.224, -70.5303, 57.8844
8.52739, 50, -21.7084, -34.0611, 48.5357, -141.249, -70.4981, 58.1281
8.53534, 50, -21.6302, -34.0579, 48.5217, -141.275, -70.4673, 58.3741
8.54347, 50, -21.5514, -34.0531, 48.5063, -141.301, -70.4374, 58.6218
8.55139, 50, -21.4719, -34.0466, 48.4896, -141.33, -70.4078, 58.8708
8.55932, 50, -21.392, -34.0382, 48.4716, -141.359, -70.3787, 59.1213
8.56754, 51, -21.3114, -34.0281, 48.4521, -141.391, -70.351, 59.3733
8.5754, 51, -21.2302, -34.0163, 48.4313, -141.425, -70.3244, 59.627
8.58333, 51, -21.1483, -34.0029, 48.409, -141.459, -70.2987, 59.8823
8.5914, 51, -21.0655, -33.9877, 48.3853, -141.495, -70.2737, 60.1392
8.59946, 51, -20.982, -33.9704, 48.3603, -141.534, -70.2491, 60.3976
8.60734, 51, -20.8978, -33.9513, 48.3338, -141.573, -70.2256, 60.6581
8.61654, 51, -20.8129, -33.9305, 48.3061, -141.614, -70.2034, 60.92
8.6252, 51, -20.7274, -33.9077, 48.2767, -141.656, -70.1825, 61.1834
8.63231, 51, -20.6414, -33.8831, 48.2459, -141.701, -70.1629, 61.448
8.64275, 51, -20.5549, -33.8426, 48.1973, -141.769, -70.1354, 61.8483
8.64748, 51, -20.4678, -33.8282, 48.1803, -141.793, -70.1267, 61.9824
8.65543, 52, -20.38, -33.798, 48.1451, -141.842, -70.1099, 62.2513
8.66361, 52, -20.2916, -33.7658, 48.1087, -141.891, -70.094, 62.5219
8.67153, 52, -20.2024, -33.7317, 48.0706, -141.943, -70.0793, 62.7945
8.67945, 52, -20.1126, -33.6955, 48.031, -141.996, -70.0661, 63.0685
8.68801, 52, -20.0221, -33.6573, 47.9902, -142.05, -70.0542, 63.3432
8.6971, 52, -19.9311, -33.6172, 47.9477, -142.106, -70.0437, 63.619
8.70438, 52, -19.8395, -33.5749, 47.9037, -142.164, -70.0346, 63.8965
8.71145, 52, -19.7474, -33.5306, 47.8583, -142.222, -70.0267, 64.175
8.71956, 52, -19.6549, -33.4843, 47.8113, -142.283, -70.0202, 64.4548
8.72759, 52, -19.5619, -33.4359, 47.763, -142.344, -70.0151, 64.7355
8.73569, 53, -19.4683, -33.3856, 47.713, -142.408, -70.0113, 65.018
8.74381, 53, -19.3741, -33.3332, 47.6615, -142.473, -70.0089, 65.3017
8.7518, 53, -19.2793, -33.2787, 47.6086, -142.54, -70.0077, 65.5864
8.76041, 53, -19.184, -33.2223, 47.554, -142.607, -70.0074, 65.8718
8.76794, 53, -19.088, -33.1636, 47.498, -142.677, -70.0081, 66.1589
8.77648, 53, -18.9917, -33.1029, 47.4404, -142.747, -70.0102, 66.4468
8.78472, 53, -18.8949, -33.0399, 47.3813, -142.819, -70.0139, 66.7356
8.79221, 53, -18.7977, -32.9748, 47.3205, -142.892, -70.0191, 67.0258
8.79981, 53, -18.7489, -32.9414, 47.2896, -142.929, -70.0224, 67.1714
8.80914, 53, -18.6017, -32.8377, 47.1944, -143.043, -70.0349, 67.6095
8.81534, 53, -18.5524, -32.8021, 47.1619, -143.081, -70.0399, 67.7558
8.82337, 54, -18.4535, -32.7291, 47.0958, -143.159, -70.0514, 68.0488
8.83296, 54, -18.304, -32.6155, 46.9937, -143.278, -70.0721, 68.4904
8.84053, 54, -18.204, -32.5371, 46.9237, -143.359, -70.0885, 68.7856
8.84742, 54, -18.1538, -32.4971, 46.8882, -143.401, -70.0974, 68.9335
8.85532, 54, -18.0531, -32.4155, 46.8159, -143.484, -70.1169, 69.2299
8.8635, 54, -17.9521, -32.3315, 46.742, -143.568, -70.1379, 69.5275
8.8751, 54, -17.7998, -32.2013, 46.6281, -143.697, -70.1721, 69.9751
8.87927, 54, -17.7489, -32.1568, 46.5894, -143.74, -70.1844, 70.1245
8.88737, 54, -17.6468, -32.066, 46.5107, -143.828, -70.2102, 70.4238
8.89686, 54, -17.493, -31.9253, 46.3899, -143.962, -70.2537, 70.8746
8.90483, 55, -17.39, -31.8286, 46.3076, -144.052, -70.2849, 71.1754
8.91471, 55, -17.2869, -31.7298, 46.2239, -144.144, -70.3175, 71.4773
8.9193, 55, -17.2353, -31.6794, 46.1814, -144.19, -70.3345, 71.6287
8.92831, 55, -17.1317, -31.577, 46.0954, -144.283, -70.3701, 71.9315
8.93538, 55, -17.0277, -31.4723, 46.0077, -144.378, -70.4084, 72.2344
8.94555, 55, -16.8712, -31.3109, 45.873, -144.521, -70.4681, 72.6894
8.95131, 55, -16.8188, -31.2559, 45.8273, -144.569, -70.4888, 72.8414
8.95936, 55, -16.714, -31.1444, 45.7348, -144.666, -70.5328, 73.1455
8.96731, 55, -16.6092, -31.0307, 45.641, -144.764, -70.5787, 73.4497
8.97532, 55, -16.5042, -30.9149, 45.5458, -144.862, -70.6258, 73.7544
8.98337, 55, -16.3993, -30.7966, 45.4491, -144.962, -70.6756, 74.0597
8.99145, 56, -16.2941, -30.6759, 45.3509, -145.062, -70.7275, 74.3651
8.99931, 56, -16.1887, -30.5528, 45.2509, -145.163, -70.7804, 74.6703
9.00732, 56, -16.083, -30.4273, 45.1494, -145.265, -70.8368, 74.9759
9.01539, 56, -15.977, -30.2997, 45.0466, -145.368, -70.8946, 75.2817
9.02331, 56, -15.8712, -30.1698, 44.9425, -145.471, -70.9546, 75.5873
9.03131, 56, -15.7653, -30.0376, 44.8371, -145.574, -71.0172, 75.8933
9.03952, 56, -15.6594, -29.9029, 44.7303, -145.679, -71.081, 76.2
9.04835, 56, -15.5533, -29.7658, 44.6218, -145.784, -71.148, 76.5061
9.0563, 56, -15.4472, -29.6267, 44.5117, -145.889, -71.2162, 76.8118
9.06538, 56, -15.341, -29.4857, 44.4001, -145.995, -71.2873, 77.1174
9.07127, 57, -15.2347, -29.3422, 44.2874, -146.101, -71.3597, 77.4231
9.07936, 57, -15.1284, -29.1964, 44.1735, -146.208, -71.4351, 77.7286
9.08812, 57, -15.0222, -29.0483, 44.0584, -146.315, -71.5121, 78.0335
9.09636, 57, -14.916, -28.8981, 43.9417, -146.422, -71.5915, 78.3387
9.10331, 57, -14.8098, -28.7459, 43.8234, -146.53, -71.6727, 78.6436
9.11232, 57, -14.7037, -28.5913, 43.7038, -146.637, -71.7567, 78.948
9.1195, 57, -14.5978, -28.4342, 43.5832, -146.745, -71.8428, 79.252
9.1283, 57, -14.4919, -28.2749, 43.4615, -146.854, -71.9309, 79.5559
9.13546, 57, -14.3862, -28.1139, 43.3385, -146.962, -72.0215, 79.8593
9.1434, 57, -14.2805, -27.9512, 43.2141, -147.071, -72.114, 80.162
9.15168, 58, -14.1748, -27.7859, 43.0883, -147.179, -72.2085, 80.465
9.16185, 58, -14.0693, -27.6184, 42.9614, -147.288, -72.3053, 80.7673
9.16748, 58, -13.9641, -27.4491, 42.8333, -147.396, -72.4044, 81.0686
9.17542, 58, -13.859, -27.2785, 42.7042, -147.504, -72.5053, 81.3691
9.18331, 58, -13.7542, -27.1061, 42.5739, -147.613, -72.6088, 81.6692
9.19141, 58, -13.6497, -26.9308, 42.4424, -147.722, -72.7145, 81.9688
9.20019, 58, -13.5455, -26.7532, 42.3099, -147.83, -72.8222, 82.2674
9.20751, 58, -13.4416, -26.5743, 42.1763, -147.938, -72.9322, 82.5651
9.21583, 58, -13.3379, -26.3937, 42.0416, -148.045, -73.0442, 82.8624
9.22442, 58, -13.2342, -26.2106, 41.9058, -148.153, -73.1582, 83.1589
9.23155, 58, -13.1308, -26.025, 41.7692, -148.26, -73.2745, 83.454
9.2397, 59, -13.0278, -25.8381, 41.6318, -148.366, -73.3924, 83.7482
9.24842, 59, -12.9251, -25.6501, 41.4932, -148.473, -73.5128, 84.042
9.2559, 59, -12.8228, -25.4601, 41.3537, -148.579, -73.635, 84.3345
9.26439, 59, -12.7209, -25.2678, 41.2132, -148.685, -73.7593, 84.6258
9.27266, 59, -12.6195, -25.0744, 41.0719, -148.79, -73.8856, 84.9167
9.27985, 59, -12.5182, -24.8798, 40.9301, -148.894, -74.0139, 85.2066
9.28863, 59, -12.4171, -24.6832, 40.7873, -148.998, -74.1444, 85.4949
9.2964, 59, -12.3163, -24.4843, 40.6434, -149.102, -74.2766, 85.782
9.30405, 59, -12.266, -24.3844, 40.5711, -149.153, -74.4111, 86.0679
9.31257, 59, -12.116, -24.083, 40.3534, -149.307, -74.5471, 86.3523
9.3193, 59, -12.0662, -23.9815, 40.2807, -149.357, -74.6159, 86.4941
9.32735, 60, -11.9672, -23.7768, 40.1346, -149.459, -74.7549, 86.7765
9.33733, 60, -11.8197, -23.4672, 39.9141, -149.609, -74.9667, 87.1978
9.34333, 60, -11.7707, -23.3633, 39.8403, -149.659, -75.0381, 87.3377
9.35286, 60, -11.6242, -23.0486, 39.6182, -149.806, -75.2553, 87.7549
9.3593, 60, -11.5755, -22.9431, 39.5439, -149.855, -75.3286, 87.8931
9.37089, 60, -11.4301, -22.6258, 39.3199, -150.001, -75.5508, 88.3056
9.37527, 60, -11.3818, -22.5194, 39.2449, -150.049, -75.6259, 88.4426
9.38477, 60, -11.2379, -22.198, 39.0194, -150.191, -75.853, 88.8508
9.39291, 60, -11.1428, -21.9827, 38.8688, -150.285, -76.0064, 89.1209
9.40105, 60, -11.0483, -21.7658, 38.7174, -150.378, -76.1615, 89.3899
9.40737, 61, -11.0013, -21.6565, 38.6416, -150.425, -76.2395, 89.5237
9.41829, 61, -10.8612, -21.3276, 38.4138, -150.561, -76.476, 89.9221
9.42336, 61, -10.8146, -21.2177, 38.3379, -150.607, -76.5555, 90.0539
9.43286, 61, -10.7219, -20.9966, 38.186, -150.696, -76.7158, 90.4466
9.4403, 61, -10.6297, -20.7742, 38.0336, -150.784, -76.8775, 90.5768
9.44736, 61, -10.5382, -20.5512, 37.8807, -150.871, -77.0409, 90.8356
9.4553, 61, -10.4471, -20.3272, 37.7277, -150.957, -77.2056, 91.0924
9.46344, 61, -10.3565, -20.1018, 37.5748, -151.042, -77.3716, 91.3473
9.47135, 61, -10.2667, -19.8759, 37.4216, -151.126, -77.5389, 91.6004
9.47929, 61, -10.1776, -19.6496, 37.2681, -151.209, -77.7072, 91.8517
9.48725, 62, -10.0891, -19.4222, 37.1148, -151.291, -77.8768, 92.1006
9.49542, 62, -10.0012, -19.1941, 36.9618, -151.371, -78.0474, 92.3472
9.50329, 62, -9.91377, -18.9656, 36.8089, -151.45, -78.2191, 92.5915
9.5113, 62, -9.82711, -18.7361, 36.6556, -151.528, -78.3917, 92.8341
9.51936, 62, -9.74119, -18.5058, 36.5022, -151.604, -78.5652, 93.0747
9.52729, 62, -9.65578, -18.276, 36.3492, -151.679, -78.7397, 93.3129
9.53575, 62, -9.57093, -18.0459, 36.1964, -151.754, -78.9151, 93.5487
9.54449, 62, -9.48657, -17.8152, 36.0436, -151.826, -79.0917, 93.7827
9.55129, 62, -9.40279, -17.5845, 35.8908, -151.898, -79.2689, 94.0146
9.56235, 62, -9.27838, -17.2371, 35.6625, -152.003, -79.5363, 94.3576
9.56736, 62, -9.23723, -17.1209, 35.5867, -152.037, -79.6259, 94.4706
9.57529, 63, -9.15538, -16.8887, 35.4351, -152.105, -79.8056, 94.6946
9.58336, 63, -9.07424, -16.6563, 35.2836, -152.171, -79.9861, 94.916
9.59129, 63, -8.99373, -16.4232, 35.1325, -152.236, -80.1674, 95.1353
9.59929, 63, -8.91387, -16.1903, 34.982, -152.299, -80.3491, 95.3516
9.60738, 63, -8.83467, -15.9578, 34.832, -152.362, -80.5317, 95.5656
9.6157, 63, -8.75619, -15.7247, 34.6821, -152.422, -80.7148, 95.7767
9.62435, 63, -8.67843, -15.4916, 34.5326, -152.482, -80.8983, 95.9855
9.63133, 63, -8.60134, -15.2595, 34.3838, -152.539, -81.0822, 96.1917
9.63975, 63, -8.52487, -15.0272, 34.2357, -152.596, -81.2664, 96.3952
9.64835, 63, -8.449, -14.7948, 34.0881, -152.651, -81.4511, 96.5957
9.6554, 64, -8.37389, -14.5628, 33.9409, -152.704, -81.6359, 96.7932
9.66363, 64, -8.29933, -14.3306, 33.7943, -152.757, -81.821, 96.9876
9.6714, 64, -8.22538, -14.098, 33.6486, -152.808, -82.0064, 97.1796
9.67946, 64, -8.15203, -13.8664, 33.5035, -152.858, -82.1917, 97.3687
9.68814, 64, -8.07936, -13.6354, 33.3589, -152.906, -82.3775, 97.5549
9.69533, 64, -8.00719, -13.4044, 33.2148, -152.953, -82.5635, 97.738
9.70349, 64, -7.9359, -13.1746, 33.0717, -152.998, -82.7495, 97.9182
9.71173, 64, -7.86525, -12.9453, 32.9294, -153.043, -82.9357, 98.0953
9.72028, 64, -7.79516, -12.7156, 32.7878, -153.086, -83.1219, 98.2695
9.7276, 64, -7.72584, -12.4866, 32.6469, -153.127, -83.3082, 98.4407
9.73672, 65, -7.65729, -12.2586, 32.5067, -153.166, -83.4945, 98.6086
9.74362, 65, -7.58928, -12.0307, 32.3675, -153.205, -83.6808, 98.7731
9.75185, 65, -7.52191, -11.8031, 32.2293, -153.242, -83.8671, 98.9343
9.76114, 65, -7.45529, -11.5766, 32.0918, -153.277, -84.0533, 99.0921
9.76779, 65, -7.38915, -11.3503, 31.9552, -153.311, -84.2393, 99.2465
9.77639, 65, -7.32364, -11.1242, 31.8194, -153.344, -84.4251, 99.3974
9.7857, 65, -7.25872, -10.8996, 31.6846, -153.375, -84.6108, 99.5452
9.79421, 65, -7.19444, -10.6757, 31.5508, -153.405, -84.7963, 99.6894
9.7998, 65, -7.16256, -10.5639, 31.4842, -153.419, -84.889, 99.7602
9.81242, 65, -7.03658, -10.1189, 31.2202, -153.475, -85.2589, 100.035
9.81531, 65, -7.03658, -10.1189, 31.2202, -153.475, -85.2589, 100.035
9.82444, 66, -6.94365, -9.78699, 31.0247, -153.512, -85.5355, 100.231
9.83131, 66, -6.9129, -9.6766, 30.9601, -153.524, -85.6275, 100.295
9.83928, 66, -6.85196, -9.45709, 30.8315, -153.546, -85.8115, 100.419
9.84728, 66, -6.79173, -9.23898, 30.704, -153.567, -85.9949, 100.54
9.85738, 66, -6.70245, -8.91305, 30.5145, -153.597, -86.2694, 100.714
9.86343, 66, -6.67303, -8.80507, 30.4518, -153.606, -86.3607, 100.771
9.87264, 66, -6.61451, -8.48287, 30.2654, -153.632, -86.6339, 100.934
9.87933, 66, -6.55657, -8.37566, 30.2038, -153.64, -86.7247, 100.986
9.88884, 66, -6.47078, -8.05525, 30.0207, -153.662, -86.9968, 101.137
9.89684, 66, -6.41415, -7.8436, 29.8998, -153.675, -87.1776, 101.233
9.90524, 67, -6.35812, -7.63261, 29.78, -153.687, -87.3579, 101.324
9.91186, 67, -6.33032, -7.52727, 29.7205, -153.692, -87.448, 101.369
9.91928, 67, -6.27508, -7.31759, 29.6024, -153.701, -87.6278, 101.454
9.92889, 67, -6.22051, -7.10964, 29.4854, -153.709, -87.8071, 101.574
9.93684, 67, -6.16645, -6.90246, 29.3695, -153.716, -87.986, 101.612
9.94508, 67, -6.11299, -6.69585, 29.2546, -153.722, -88.1641, 101.685
9.95137, 67, -6.06003, -6.49103, 29.1407, -153.727, -88.3418, 101.755
9.96043, 67, -6.00762, -6.28779, 29.0279, -153.73, -88.5188, 101.819
9.96808, 67, -5.95568, -6.08513, 28.9162, -153.732, -88.6954, 101.88
9.97528, 67, -5.90436, -5.88346, 28.8059, -153.734, -88.8712, 101.936
9.98654, 67, -5.82833, -5.58397, 28.6424, -153.734, -89.1338, 102.012
9.99126, 68, -5.80322, -5.48452, 28.5885, -153.734, -89.221, 102.035
9.99931, 68, -5.75338, -5.28583, 28.4811, -153.734, -89.3949, 102.079
10.0073, 68, -5.70392, -5.08848, 28.3748, -153.732, -89.5683, 102.117
10.0153, 68, -5.65477, -4.89317, 28.2698, -153.728, -89.7409, 102.151
10.0233, 68, -5.60617, -4.69901, 28.1659, -153.723, -89.9132, 102.179
10.0313, 68, -5.55816, -4.50583, 28.0633, -153.717, -90.0849, 102.204
10.0394, 68, -5.51053, -4.31456, 27.9616, -153.709, -90.2561, 102.224
10.0473, 68, -5.46334, -4.1248, 27.8608, -153.701, -90.4268, 102.24
10.0553, 68, -5.41675, -3.93564, 27.761, -153.691, -90.5969, 102.251
10.0633, 68, -5.37056, -3.74715, 27.6624, -153.68, -90.7665, 102.257
10.0716, 69, -5.32476, -3.56034, 27.5652, -153.668, -90.9355, 102.26
10.0794, 69, -5.27942, -3.37525, 27.4692, -153.655, -91.1043, 102.259
10.0873, 69, -5.23449, -3.1908, 27.3742, -153.641, -91.2723, 102.253
10.0953, 69, -5.1899, -3.00711, 27.28, -153.625, -91.4396, 102.241
10.1033, 69, -5.14584, -2.82525, 27.1867, -153.607, -91.6063, 102.223
10.1117, 69, -5.1023, -2.64495, 27.0945, -153.589, -91.7723, 102.201
10.1203, 69, -5.05901, -2.46533, 27.0036, -153.571, -91.9378, 102.174
10.1274, 69, -5.01594, -2.28668, 26.914, -153.552, -92.1026, 102.142
10.1355, 69, -4.97334, -2.10999, 26.8254, -153.532, -92.2666, 102.104
10.1436, 69, -4.93105, -1.93507, 26.7377, -153.511, -92.4302, 102.061
10.1514, 69, -4.8889, -1.76086, 26.6509, -153.488, -92.5928, 102.012
10.1618, 70, -4.84713, -1.58756, 26.565, -153.465, -92.7552, 101.959
10.1677, 70, -4.80583, -1.41603, 26.4803, -153.441, -92.9168, 101.9
10.1754, 70, -4.76479, -1.24633, 26.3968, -153.416, -93.078, 101.836
10.1833, 70, -4.72393, -1.0774, 26.3144, -153.391, -93.2385, 101.767
10.192, 70, -4.68348, -0.909402, 26.233, -153.366, -93.3984, 101.691
10.2003, 70, -4.64344, -0.74305, 26.1526, -153.338, -93.5578, 101.611
10.2074, 70, -4.60369, -0.578627, 26.073, -153.31, -93.7168, 101.526
10.2158, 70, -4.56412, -0.415513, 25.9943, -153.282, -93.8751, 101.435
10.2236, 70, -4.52483, -0.253231, 25.9167, -153.254, -94.0328, 101.34
10.2316, 70, -4.48596, -0.0924502, 25.8401, -153.224, -94.1901, 101.239
10.2396, 71, -4.44715, 0.0665617, 25.7644, -153.194, -94.3469, 101.132
10.2477, 71, -4.40841, 0.224098, 25.6899, -153.163, -94.5031, 101.021
10.2564, 71, -4.3699, 0.380583, 25.6163, -153.132, -94.6586, 100.904
10.2639, 71, -4.33162, 0.535821, 25.5437, -153.1, -94.8135, 100.782
10.2725, 71, -4.29345, 0.689654, 25.472, -153.068, -94.9677, 100.655
10.2799, 71, -4.2553, 0.841739, 25.4013, -153.035, -95.1215, 100.522
10.2887, 71, -4.21736, 0.992266, 25.3316, -153.001, -95.2745, 100.385
10.2964, 71, -4.1797, 1.14166, 25.2627, -152.968, -95.4271, 100.242
10.3039, 71, -4.16093, 1.2159, 25.1947, -152.934, -95.579, 100.094
10.3123, 71, -4.10471, 1.43618, 25.1277, -152.898, -95.7301, 99.9416
10.3193, 71, -4.08599, 1.50875, 25.0946, -152.881, -95.8053, 99.8632
10.3273, 72, -4.04868, 1.6526, 25.029, -152.845, -95.9555, 99.7026
10.3368, 72, -3.99295, 1.86586, 24.9325, -152.793, -96.1791, 99.4516
10.3433, 72, -3.97443, 1.93628, 24.9008, -152.774, -96.2535, 99.3654
10.3524, 72, -3.91877, 2.14511, 24.807, -152.72, -96.4752, 99.0993
10.3593, 72, -3.90029, 2.21385, 24.7762, -152.702, -96.5489, 99.0082
10.3704, 72, -3.84475, 2.41756, 24.6849, -152.648, -96.7683, 98.7271
10.3753, 72, -3.82621, 2.48471, 24.655, -152.629, -96.8411, 98.6308
10.3847, 72, -3.77054, 2.68399, 24.5665, -152.574, -97.0583, 98.3349
10.3937, 72, -3.73353, 2.81484, 24.5086, -152.537, -97.2021, 98.1313
10.3993, 72, -3.71507, 2.87963, 24.48, -152.519, -97.2737, 98.0279
10.4072, 73, -3.67804, 3.00793, 24.4236, -152.483, -97.4164, 97.8175
10.4153, 73, -3.64091, 3.13442, 24.368, -152.445, -97.558, 97.6024
10.4249, 73, -3.5851, 3.32104, 24.2865, -152.391, -97.7689, 97.2706
10.4332, 73, -3.54796, 3.44339, 24.2332, -152.355, -97.9082, 97.0435
10.4393, 73, -3.52934, 3.50385, 24.2069, -152.337, -97.9776, 96.9283
10.4483, 73, -3.49187, 3.6234, 24.155, -152.301, -98.1155, 96.6943
10.4553, 73, -3.4542, 3.74097, 24.104, -152.265, -98.2525, 96.456
10.4634, 73, -3.41642, 3.85653, 24.0538, -152.231, -98.3884, 96.213
10.4713, 73, -3.37855, 3.97019, 24.0046, -152.195, -98.5232, 95.9656
10.4793, 73, -3.34044, 4.08196, 23.9562, -152.16, -98.6566, 95.7146
10.4873, 73, -3.30212, 4.19186, 23.9087, -152.125, -98.7889, 95.4593
10.4953, 74, -3.26387, 4.29975, 23.8621, -152.092, -98.92, 95.2002
10.5032, 74, -3.22543, 4.40558, 23.8164, -152.058, -99.0495, 94.9373
10.5113, 74, -3.18683, 4.50934, 23.7718, -152.024, -99.1778, 94.6709
10.5193, 74, -3.14789, 4.61088, 23.728, -151.991, -99.3043, 94.4009
10.5273, 74, -3.10886, 4.71035, 23.6852, -151.959, -99.4298, 94.1271
10.5357, 74, -3.06962, 4.80769, 23.6434, -151.928, -99.5534, 93.8498
10.5451, 74, -3.03013, 4.9028, 23.6025, -151.896, -99.6756, 93.569
10.5512, 74, -2.99027, 4.99566, 23.5626, -151.865, -99.7962, 93.2851
10.5626, 74, -2.93028, 5.13057, 23.5045, -151.82, -99.9736, 92.853
10.5673, 74, -2.91019, 5.17434, 23.4856, -151.806, -100.032, 92.7075
10.5753, 75, -2.86977, 5.26006, 23.4486, -151.778, -100.147, 92.4149
10.5833, 75, -2.82898, 5.34321, 23.4125, -151.75, -100.261, 92.1199
10.5913, 75, -2.78809, 5.42386, 23.3774, -151.723, -100.372, 91.8219
10.5993, 75, -2.74707, 5.50197, 23.3433, -151.697, -100.481, 91.5215
10.6074, 75, -2.70566, 5.57747, 23.3102, -151.672, -100.589, 91.2189
10.6154, 75, -2.66384, 5.65034, 23.2781, -151.648, -100.694, 90.9141
10.6233, 75, -2.62184, 5.72053, 23.2471, -151.624, -100.797, 90.6066
10.6313, 75, -2.5796, 5.78801, 23.2173, -151.601, -100.898, 90.2973
10.6393, 75, -2.53701, 5.85283, 23.1884, -151.578, -100.996, 89.9863
10.6474, 75, -2.4942, 5.91483, 23.1606, -151.558, -101.093, 89.6737
10.6554, 76, -2.45122, 5.97393, 23.134, -151.538, -101.186, 89.3597
10.6634, 76, -2.40803, 6.03009, 23.1086, -151.52, -101.278, 89.0448
10.6714, 76, -2.36446, 6.08332, 23.0841, -151.502, -101.366, 88.7286
10.6794, 76, -2.32076, 6.13348, 23.0608, -151.485, -101.452, 88.4113
10.6873, 76, -2.27693, 6.1805, 23.0387, -151.469, -101.535, 88.0929
10.6953, 76, -2.23264, 6.22455, 23.0177, -151.453, -101.615, 87.7738
10.7041, 76, -2.18812, 6.26535, 22.9981, -151.439, -101.693, 87.4538
10.7116, 76, -2.1434, 6.30286, 22.9796, -151.425, -101.767, 87.1327
10.7202, 76, -2.0985, 6.33726, 22.9623, -151.413, -101.839, 86.8114
10.7284, 76, -2.05317, 6.36845, 22.9463, -151.402, -101.907, 86.4898
10.7371, 76, -2.00771, 6.39634, 22.9316, -151.392, -101.972, 86.1678
10.7443, 77, -1.96208, 6.42067, 22.9181, -151.383, -102.035, 85.8463
10.7523, 77, -1.91615, 6.44191, 22.9058, -151.375, -102.093, 85.5252
10.7597, 77, -1.87006, 6.45975, 22.8951, -151.368, -102.149, 85.2046
10.7679, 77, -1.82387, 6.4737, 22.8857, -151.361, -102.2, 84.8842
10.7766, 77, -1.77744, 6.48418, 22.8777, -151.356, -102.248, 84.5645
10.7855, 77, -1.73078, 6.49145, 22.871, -151.352, -102.293, 84.2451
10.795, 77, -1.68405, 6.49512, 22.8658, -151.348, -102.334, 83.9262
10.7998, 77, -1.66067, 6.49563, 22.8637, -151.346, -102.371, 83.6082
10.8089, 77, -1.59019, 6.49178, 22.8594, -151.344, -102.405, 83.2913
10.8152, 77, -1.5666, 6.4886, 22.8586, -151.344, -102.42, 83.1331
10.8243, 78, -1.49591, 6.47348, 22.8581, -151.343, -102.461, 82.66
10.8313, 78, -1.47225, 6.46668, 22.8586, -151.343, -102.473, 82.5031
10.8393, 78, -1.42479, 6.45028, 22.8609, -151.343, -102.493, 82.1904
10.8484, 78, -1.35354, 6.41802, 22.8672, -151.344, -102.515, 81.7237
10.8552, 78, -1.32979, 6.40541, 22.87, -151.345, -102.521, 81.5688
10.8634, 78, -1.28206, 6.37746, 22.877, -151.348, -102.529, 81.2605
10.8712, 78, -1.23424, 6.34548, 22.8857, -151.351, -102.533, 80.954
10.8806, 78, -1.16234, 6.28999, 22.9018, -151.359, -102.533, 80.497
10.8872, 78, -1.13827, 6.26951, 22.908, -151.362, -102.531, 80.3456
10.8968, 78, -1.0662, 6.20203, 22.9294, -151.372, -102.519, 79.8943
10.9048, 78, -1.01811, 6.15183, 22.9456, -151.379, -102.505, 79.5956
10.9126, 79, -0.994014, 6.12524, 22.9544, -151.383, -102.497, 79.2989
10.9193, 79, -0.945687, 6.06893, 22.9734, -151.392, -102.477, 79.1515
10.9289, 79, -0.873408, 5.97658, 23.0054, -151.406, -102.438, 78.7123
10.9353, 79, -0.849305, 5.94375, 23.0169, -151.411, -102.422, 78.5669
10.9449, 79, -0.801021, 5.87512, 23.0413, -151.422, -102.387, 78.2775
10.9522, 79, -0.752781, 5.80243, 23.0678, -151.434, -102.349, 77.9906
10.9615, 79, -0.680644, 5.68578, 23.1113, -151.452, -102.282, 77.5645
10.9685, 79, -0.656564, 5.64485, 23.1267, -151.459, -102.257, 77.4234
10.9762, 79, -0.608426, 5.55992, 23.1589, -151.473, -102.205, 77.143
10.9832, 79, -0.560413, 5.47081, 23.1931, -151.487, -102.149, 76.8654
10.9913, 80, -0.512356, 5.37741, 23.2293, -151.502, -102.087, 76.5902
10.9993, 80, -0.464256, 5.27985, 23.2673, -151.516, -102.021, 76.3173
11.0072, 80, -0.416301, 5.17809, 23.3075, -151.531, -101.95, 76.0466
11.0152, 80, -0.368287, 5.07203, 23.3496, -151.546, -101.875, 75.7788
11.0233, 80, -0.32018, 4.96178, 23.3937, -151.561, -101.795, 75.5133
11.0312, 80, -0.272242, 4.84728, 23.4401, -151.578, -101.711, 75.2503
11.0395, 80, -0.224374, 4.72848, 23.4885, -151.594, -101.622, 74.9898
11.0472, 80, -0.17634, 4.60549, 23.539, -151.612, -101.528, 74.7318
11.0553, 80, -0.128386, 4.47847, 23.5918, -151.629, -101.429, 74.4764
11.064, 80, -0.0805603, 4.34749, 23.6467, -151.647, -101.327, 74.2237
11.0725, 81, -0.0327443, 4.21222, 23.7036, -151.664, -101.219, 73.973
11.0802, 81, 0.0150633, 4.07259, 23.7628, -151.681, -101.107, 73.7246
11.088, 81, 0.0626835, 3.92858, 23.8241, -151.699, -100.99, 73.4791
11.0964, 81, 0.110259, 3.7805, 23.8876, -151.717, -100.869, 73.2358
11.1032, 81, 0.157826, 3.62857, 23.9534, -151.735, -100.743, 72.9949
11.1113, 81, 0.205139, 3.47261, 24.0216, -151.754, -100.612, 72.7562
11.1193, 81, 0.252354, 3.31234, 24.0922, -151.773, -100.476, 72.5205
11.1274, 81, 0.299566, 3.14779, 24.1652, -151.791, -100.336, 72.2874
11.1363, 81, 0.346639, 2.97961, 24.2405, -151.81, -100.191, 72.0567
11.1466, 81, 0.393596, 2.80797, 24.3577, -151.837, -99.9652, 71.7149
11.1517, 81, 0.440692, 2.63225, 24.3979, -151.846, -99.8878, 71.6022
11.163, 82, 0.511274, 2.36024, 24.5218, -151.874, -99.6485, 71.2673
11.1674, 82, 0.534744, 2.26768, 24.5643, -151.884, -99.5666, 71.1567
11.1755, 82, 0.581837, 2.08018, 24.6511, -151.902, -99.3996, 70.9376
11.1834, 82, 0.629022, 1.88899, 24.7404, -151.921, -99.2282, 70.7205
11.1912, 82, 0.676048, 1.69296, 24.8322, -151.939, -99.052, 70.5056
11.2, 82, 0.722945, 1.49269, 24.9266, -151.958, -98.8715, 70.2929
11.2083, 82, 0.769949, 1.28918, 25.0233, -151.975, -98.6869, 70.083
11.2157, 82, 0.816917, 1.08199, 25.1222, -151.993, -98.4978, 69.875
11.2243, 82, 0.863823, 0.870426, 25.2235, -152.011, -98.305, 69.6693
11.2315, 82, 0.910797, 0.65524, 25.3272, -152.029, -98.1079, 69.4654
11.2405, 83, 0.957837, 0.436702, 25.4336, -152.046, -97.9067, 69.2639
11.2475, 83, 1.00473, 0.213547, 25.5426, -152.064, -97.7014, 69.0648
11.2557, 83, 1.05161, -0.0135087, 25.6541, -152.081, -97.4918, 68.8679
11.2647, 83, 1.09855, -0.2435, 25.7679, -152.097, -97.2775, 68.673
11.2719, 83, 1.14541, -0.477302, 25.8842, -152.113, -97.0589, 68.4804
11.2806, 83, 1.19221, -0.715009, 26.0033, -152.129, -96.8357, 68.2898
11.2888, 83, 1.23918, -0.955708, 26.1249, -152.144, -96.6087, 68.1015
11.296, 83, 1.28619, -1.20039, 26.2491, -152.16, -96.378, 67.9154
11.3038, 83, 1.30964, -1.44912, 26.3756, -152.175, -96.1434, 67.7313
11.3125, 83, 1.38033, -1.70082, 26.5042, -152.19, -95.9051, 67.5492
11.3192, 83, 1.40394, -1.82789, 26.5693, -152.197, -95.7849, 67.4587
11.3283, 84, 1.47488, -2.21456, 26.7682, -152.218, -95.4186, 67.1906
11.3352, 84, 1.49856, -2.34478, 26.8358, -152.225, -95.2947, 67.1021
11.3432, 84, 1.54616, -2.60762, 26.973, -152.238, -95.0441, 66.927
11.3524, 84, 1.61768, -3.00849, 27.1833, -152.257, -94.6608, 66.6688
11.3593, 84, 1.64152, -3.14344, 27.2547, -152.263, -94.5312, 66.5839
11.3686, 84, 1.71329, -3.55323, 27.4725, -152.28, -94.1372, 66.3321
11.3774, 84, 1.76111, -3.82975, 27.6206, -152.291, -93.8703, 66.1665
11.3833, 84, 1.78505, -3.96892, 27.6953, -152.296, -93.7357, 66.0844
11.3914, 84, 1.83306, -4.25007, 27.8464, -152.307, -93.4641, 65.9214
11.3992, 84, 1.88128, -4.53405, 27.9999, -152.317, -93.1897, 65.7607
11.4075, 85, 1.92961, -4.82069, 28.1558, -152.327, -92.9123, 65.6018
11.4152, 85, 1.97807, -5.11028, 28.3136, -152.336, -92.632, 65.4451
11.4255, 85, 2.05117, -5.5483, 28.5533, -152.348, -92.206, 65.2144
11.4313, 85, 2.07553, -5.69573, 28.6345, -152.352, -92.0625, 65.1385
11.4392, 85, 2.12434, -5.99203, 28.7992, -152.359, -91.7732, 64.9886
11.4482, 85, 2.17342, -6.29013, 28.9664, -152.365, -91.4811, 64.8408
11.4553, 85, 2.22261, -6.5906, 29.1351, -152.371, -91.1867, 64.6954
11.4636, 85, 2.27193, -6.89233, 29.3054, -152.376, -90.8897, 64.5525
11.472, 85, 2.32158, -7.19659, 29.4783, -152.38, -90.5904, 64.4114
11.4793, 85, 2.37134, -7.50302, 29.6532, -152.384, -90.2888, 64.2722
11.4898, 85, 2.44631, -7.96699, 29.9173, -152.388, -89.8324, 64.0673
11.4962, 86, 2.47149, -8.12253, 30.0062, -152.389, -89.6792, 64.0001
11.5043, 86, 2.52205, -8.43441, 30.1862, -152.39, -89.3711, 63.8677
11.5123, 86, 2.57268, -8.74841, 30.3682, -152.391, -89.0608, 63.7379
11.5203, 86, 2.62353, -9.06357, 30.5514, -152.391, -88.7487, 63.6111
11.5282, 86, 2.6747, -9.38041, 30.7362, -152.391, -88.4347, 63.4873
11.5364, 86, 2.72588, -9.69813, 30.9235, -152.391, -88.1189, 63.3659
11.5434, 86, 2.77721, -10.0166, 31.112, -152.391, -87.8015, 63.2472
11.5516, 86, 2.82876, -10.3368, 31.3015, -152.389, -87.4825, 63.1308
11.5603, 86, 2.88037, -10.6577, 31.4931, -152.386, -87.1621, 63.0167
11.5703, 86, 2.95818, -11.1407, 31.7832, -152.38, -86.679, 62.8509
11.5753, 87, 2.98423, -11.3017, 31.8801, -152.378, -86.5174, 62.7969
11.5832, 87, 3.03643, -11.6249, 32.0751, -152.372, -86.1931, 62.6915
11.5913, 87, 3.08888, -11.9489, 32.272, -152.365, -85.8679, 62.5885
