rpiRobotics/ARM-21-02-F-19-Robot-Motion-Program/data_performance_abb/curve_1/baseline/100L/realrobot/v123.046875_iteration3.csv
timestamp, cmd_num, J1, J2, J3, J4, J5, J6
0.000367, -1, 11.3778, 13.6139, 17.3392, -145.519, -97.9227, 142.516
0.003319, -1, 11.3778, 13.6139, 17.3392, -145.519, -97.9227, 142.516
0.010013, -1, 11.3778, 13.6139, 17.3392, -145.519, -97.9227, 142.516
0.032456, -1, 11.3778, 13.6139, 17.3392, -145.519, -97.9227, 142.516
0.034493, -1, 11.3778, 13.6139, 17.3392, -145.519, -97.9227, 142.516
0.035795, -1, 11.3778, 13.6139, 17.3392, -145.519, -97.9227, 142.516
0.039971, -1, 11.3778, 13.6139, 17.3392, -145.519, -97.9228, 142.516
0.048011, -1, 11.3778, 13.6139, 17.3392, -145.519, -97.9227, 142.516
0.055022, -1, 11.3776, 13.6139, 17.3392, -145.519, -97.9227, 142.516
0.064006, -1, 11.376, 13.6138, 17.3392, -145.519, -97.9227, 142.516
0.072019, -1, 11.3717, 13.6134, 17.3391, -145.519, -97.9227, 142.516
0.081657, -1, 11.363, 13.6121, 17.3389, -145.519, -97.9227, 142.512
0.088008, -1, 11.3491, 13.6094, 17.3383, -145.52, -97.9227, 142.508
0.096011, -1, 11.3274, 13.6046, 17.3375, -145.523, -97.9224, 142.492
0.104851, -1, 11.2951, 13.5969, 17.3367, -145.528, -97.9213, 142.462
0.11101, -1, 11.251, 13.586, 17.3365, -145.537, -97.9187, 142.409
0.120022, -1, 11.1952, 13.572, 17.3372, -145.552, -97.9143, 142.329
0.130908, -1, 11.128, 13.5548, 17.3401, -145.572, -97.9077, 142.146
0.136104, -1, 11.0491, 13.5335, 17.3453, -145.598, -97.8987, 142.067
0.144076, -1, 10.9583, 13.5087, 17.3527, -145.629, -97.8875, 141.885
0.152062, -1, 10.8564, 13.4807, 17.3623, -145.666, -97.8746, 141.673
0.159163, -1, 10.7435, 13.4493, 17.3733, -145.707, -97.8604, 141.436
0.167138, -1, 10.6197, 13.415, 17.3847, -145.75, -97.8453, 141.182
0.175177, -1, 10.4858, 13.3781, 17.3956, -145.795, -97.8297, 140.917
0.183198, -1, 10.3442, 13.3393, 17.4061, -145.842, -97.8137, 140.644
0.191138, -1, 10.1968, 13.2992, 17.4162, -145.89, -97.7973, 140.369
0.19912, -1, 10.0458, 13.2585, 17.4263, -145.937, -97.7804, 140.091
0.207219, -1, 9.89221, 13.2173, 17.4364, -145.985, -97.7633, 139.813
0.215091, -1, 9.73693, 13.1759, 17.4465, -146.033, -97.746, 139.534
0.223058, -1, 9.58151, 13.1346, 17.4565, -146.081, -97.729, 139.255
0.231192, -1, 9.42673, 13.0935, 17.4663, -146.129, -97.7121, 138.976
0.239132, -1, 9.27233, 13.0524, 17.4763, -146.177, -97.6954, 138.696
0.247188, -1, 9.11835, 13.0114, 17.4863, -146.225, -97.6787, 138.417
0.255621, -1, 8.96472, 12.9704, 17.4964, -146.273, -97.6619, 138.137
0.26408, -1, 8.81123, 12.9294, 17.5065, -146.321, -97.6449, 137.858
0.272027, -1, 8.65817, 12.8884, 17.5166, -146.369, -97.6276, 137.578
0.279507, -1, 8.50543, 12.8472, 17.5267, -146.417, -97.61, 137.298
0.288098, -1, 8.35259, 12.806, 17.5369, -146.465, -97.5926, 137.018
0.29561, -1, 8.19931, 12.7646, 17.547, -146.512, -97.5755, 136.739
0.304174, -1, 8.04564, 12.723, 17.5573, -146.56, -97.5587, 136.459
0.311576, -1, 7.89139, 12.6815, 17.5674, -146.608, -97.542, 136.179
0.320165, -1, 7.73657, 12.6399, 17.5774, -146.656, -97.5254, 135.899
0.32764, -1, 7.65903, 12.6191, 17.5825, -146.68, -97.5086, 135.619
0.336662, -1, 7.42634, 12.5569, 17.5977, -146.752, -97.4916, 135.339
0.344044, -1, 7.27117, 12.5155, 17.6078, -146.8, -97.4743, 135.059
0.351007, -1, 7.1936, 12.4948, 17.613, -146.824, -97.4655, 134.919
0.360931, -1, 6.96075, 12.4328, 17.6284, -146.897, -97.4397, 134.499
0.368184, -1, 6.80562, 12.3917, 17.6386, -146.945, -97.4228, 134.219
0.375064, -1, 6.72821, 12.3711, 17.6438, -146.969, -97.4144, 134.079
0.38512, -1, 6.49649, 12.3092, 17.6594, -147.041, -97.3893, 133.658
0.391061, -1, 6.41932, 12.2886, 17.6645, -147.065, -97.3809, 133.518
0.400804, -1, 6.18797, 12.2266, 17.6799, -147.137, -97.3554, 133.097
0.409332, -1, 6.0336, 12.1851, 17.6901, -147.185, -97.3381, 132.816
0.415061, -1, 5.95631, 12.1644, 17.6952, -147.209, -97.3293, 132.676
0.424545, -1, 5.72426, 12.1021, 17.7105, -147.281, -97.303, 132.255
0.433333, -1, 5.56933, 12.0604, 17.7207, -147.329, -97.2858, 131.975
0.439035, -1, 5.49178, 12.0396, 17.7258, -147.353, -97.2773, 131.834
0.448823, -1, 5.33647, 11.998, 17.736, -147.425, -97.252, 131.413
0.457323, -1, 5.18085, 11.9564, 17.7463, -147.45, -97.2436, 131.273
0.462997, -1, 5.02495, 11.9148, 17.7568, -147.497, -97.2269, 130.992
0.473111, -1, 4.79111, 11.8526, 17.7723, -147.569, -97.2013, 130.57
0.479077, -1, 4.71319, 11.8318, 17.7775, -147.594, -97.1926, 130.43
0.488095, -1, 4.5574, 11.7904, 17.7879, -147.642, -97.1751, 130.149
0.495998, -1, 4.40176, 11.749, 17.7982, -147.69, -97.1577, 129.868
0.504047, -1, 4.24629, 11.7076, 17.8086, -147.739, -97.1406, 129.587
0.512067, -1, 4.09122, 11.6662, 17.8189, -147.787, -97.1236, 129.306
0.520006, -1, 3.93646, 11.6248, 17.8291, -147.835, -97.1068, 129.025
0.528012, -1, 3.78206, 11.5834, 17.8394, -147.884, -97.09, 128.744
0.667729, -1, 1.05595, 10.8543, 18.0205, -148.73, -96.7907, 123.814
0.668914, -1, 1.05595, 10.8543, 18.0205, -148.73, -96.7907, 123.814
0.670899, -1, 0.978491, 10.8335, 18.0257, -148.754, -96.7822, 123.672
0.672162, -1, 0.978491, 10.8335, 18.0257, -148.754, -96.7822, 123.672
0.673448, -1, 0.978491, 10.8335, 18.0257, -148.754, -96.7822, 123.672
0.67542, -1, 0.901082, 10.8127, 18.0309, -148.778, -96.7737, 123.531
0.67676, -1, 0.901082, 10.8127, 18.0309, -148.778, -96.7737, 123.531
0.679251, -1, 0.823688, 10.7918, 18.036, -148.802, -96.765, 123.39
0.84202, -1, -2.29994, 9.95593, 18.2437, -149.774, -96.4216, 117.732
0.843887, -1, -2.37762, 9.93501, 18.249, -149.798, -96.413, 117.59
0.845376, -1, -2.37762, 9.93501, 18.249, -149.798, -96.413, 117.59
0.846737, -1, -2.37762, 9.93501, 18.249, -149.798, -96.413, 117.59
0.848792, -1, -2.45539, 9.91403, 18.2542, -149.822, -96.4045, 117.448
0.849975, -1, -2.45539, 9.91403, 18.2542, -149.822, -96.4045, 117.448
0.851837, -1, -2.53323, 9.89305, 18.2594, -149.846, -96.396, 117.307
0.854143, -1, -2.53323, 9.89305, 18.2594, -149.846, -96.396, 117.307
0.857773, -1, -2.61113, 9.87209, 18.2646, -149.87, -96.3875, 117.165
0.859029, -1, -2.61113, 9.87209, 18.2646, -149.87, -96.3875, 117.165
0.861175, -1, -2.68911, 9.85114, 18.2697, -149.895, -96.3791, 117.023
0.862365, -1, -2.68911, 9.85114, 18.2697, -149.895, -96.3791, 117.023
0.86435, -1, -2.76717, 9.83018, 18.2749, -149.919, -96.3707, 116.881
0.865649, -1, -2.76717, 9.83018, 18.2749, -149.919, -96.3707, 116.881
0.866978, -1, -2.76717, 9.83018, 18.2749, -149.919, -96.3707, 116.881
0.869121, -1, -2.84531, 9.80921, 18.2801, -149.943, -96.3623, 116.739
0.870318, -1, -2.84531, 9.80921, 18.2801, -149.943, -96.3623, 116.739
0.872165, -1, -2.92355, 9.78825, 18.2853, -149.967, -96.3539, 116.597
0.87352, -1, -2.92355, 9.78825, 18.2853, -149.967, -96.3539, 116.597
0.874804, -1, -2.92355, 9.78825, 18.2853, -149.967, -96.3539, 116.597
0.87677, -1, -3.00193, 9.76729, 18.2904, -149.992, -96.3455, 116.456
0.878069, -1, -3.00193, 9.76729, 18.2904, -149.992, -96.3455, 116.456
0.882942, -1, -3.08046, 9.74634, 18.2956, -150.016, -96.3369, 116.314
0.885375, -1, -3.15906, 9.7254, 18.3008, -150.041, -96.3282, 116.172
0.886599, -1, -3.15906, 9.7254, 18.3008, -150.041, -96.3282, 116.172
0.888704, -1, -3.23774, 9.70443, 18.306, -150.065, -96.3195, 116.03
0.889979, -1, -3.23774, 9.70443, 18.306, -150.065, -96.3195, 116.03
0.891171, -1, -3.23774, 9.70443, 18.306, -150.065, -96.3195, 116.03
0.893191, -1, -3.31655, 9.68343, 18.3112, -150.089, -96.3107, 115.888
0.8944, -1, -3.31655, 9.68343, 18.3112, -150.089, -96.3107, 115.888
0.898433, -1, -3.39545, 9.66243, 18.3165, -150.113, -96.3019, 115.746
0.900351, -1, -3.47442, 9.64142, 18.3217, -150.137, -96.2932, 115.604
0.901847, -1, -3.47442, 9.64142, 18.3217, -150.137, -96.2932, 115.604
0.903091, -1, -3.47442, 9.64142, 18.3217, -150.137, -96.2932, 115.604
0.906551, -1, -3.55341, 9.62044, 18.327, -150.162, -96.2844, 115.462
0.908461, -1, -3.63238, 9.5995, 18.3322, -150.186, -96.2758, 115.32
0.909888, -1, -3.63238, 9.5995, 18.3322, -150.186, -96.2758, 115.32
0.912933, -1, -3.71131, 9.57858, 18.3373, -150.211, -96.2672, 115.178
0.914198, -1, -3.71131, 9.57858, 18.3373, -150.211, -96.2672, 115.178
0.915468, -1, -3.71131, 9.57858, 18.3373, -150.211, -96.2672, 115.178
0.918931, -1, -3.79024, 9.55765, 18.3425, -150.235, -96.2586, 115.036
0.927021, -1, -3.94824, 9.51563, 18.3528, -150.284, -96.2416, 114.751
0.934996, -1, -4.10614, 9.47371, 18.3632, -150.333, -96.2246, 114.467
0.944555, -1, -4.26388, 9.43185, 18.3735, -150.406, -96.199, 114.041
0.953338, -1, -4.42134, 9.38986, 18.3838, -150.43, -96.1816, 113.756
0.95898, -1, -4.57855, 9.34791, 18.3941, -150.48, -96.1728, 113.614
0.969092, -1, -4.81351, 9.28494, 18.4097, -150.553, -96.1462, 113.187
0.97507, -1, -4.89166, 9.26392, 18.4149, -150.577, -96.1375, 113.045
0.985105, -1, -5.12572, 9.20088, 18.4307, -150.65, -96.1115, 112.618
0.990997, -1, -5.20364, 9.17986, 18.4359, -150.674, -96.103, 112.475
0.999988, -1, -5.35963, 9.13774, 18.4464, -150.723, -96.0861, 112.191
1.00806, -1, -5.51579, 9.09556, 18.4569, -150.772, -96.0693, 111.906
1.01598, -1, -5.67209, 9.05354, 18.4672, -150.821, -96.0523, 111.621
1.02297, -1, -5.82886, 9.01142, 18.4777, -150.87, -96.0349, 111.336
1.03198, -1, -5.98609, 8.96927, 18.488, -150.919, -96.0174, 111.052
1.03999, -1, -6.1438, 8.92718, 18.4983, -150.967, -95.9998, 110.767
1.04698, -1, -6.30205, 8.88507, 18.5086, -151.016, -95.9824, 110.481
1.05598, -1, -6.46045, 8.843, 18.5189, -151.065, -95.9654, 110.196
1.06397, -1, -6.61894, 8.80098, 18.5294, -151.114, -95.9484, 109.911
1.07101, -1, -6.77761, 8.75886, 18.54, -151.163, -95.9314, 109.626
1.07999, -1, -6.93632, 8.7168, 18.5504, -151.213, -95.9144, 109.34
1.08897, -1, -7.0948, 8.67477, 18.5609, -151.261, -95.8971, 109.055
1.09499, -1, -7.25319, 8.63269, 18.5713, -151.311, -95.8795, 108.769
1.10398, -1, -7.41119, 8.59055, 18.5817, -151.36, -95.8618, 108.484
1.11301, -1, -7.56889, 8.54832, 18.5921, -151.409, -95.8442, 108.198
1.11897, -1, -7.72634, 8.5061, 18.6025, -151.458, -95.8269, 107.912
1.12798, -1, -7.88335, 8.46393, 18.6129, -151.507, -95.8098, 107.626
1.13597, -1, -8.04007, 8.42165, 18.6233, -151.556, -95.7929, 107.34
1.14398, -1, -8.19669, 8.37934, 18.6337, -151.605, -95.776, 107.055
1.15198, -1, -8.35338, 8.33705, 18.6442, -151.654, -95.7589, 106.769
1.16015, -1, -8.51028, 8.2947, 18.6547, -151.702, -95.7416, 106.483
1.16716, -1, -8.66746, 8.25243, 18.6652, -151.752, -95.7239, 106.197
1.17516, -1, -8.82505, 8.21021, 18.6755, -151.801, -95.7063, 105.91
1.18313, -1, -8.98305, 8.1679, 18.6859, -151.849, -95.6889, 105.624
1.19109, -1, -9.14147, 8.12569, 18.6963, -151.899, -95.6717, 105.338
1.19998, -1, -9.30027, 8.08351, 18.7067, -151.948, -95.6546, 105.051
1.20804, -1, -9.45928, 8.04122, 18.7171, -151.997, -95.6375, 104.764
1.21598, -1, -9.61843, 7.99895, 18.7276, -152.047, -95.6203, 104.478
1.22398, -1, -9.77768, 7.9568, 18.738, -152.096, -95.6029, 104.191
1.23204, -1, -9.93705, 7.91457, 18.7485, -152.145, -95.5852, 103.904
1.23998, -1, -10.0964, 7.87224, 18.7592, -152.195, -95.5672, 103.617
1.24797, -1, -10.2555, 7.82988, 18.7697, -152.244, -95.5495, 103.331
1.25604, -1, -10.4143, 7.78742, 18.7803, -152.293, -95.5322, 103.044
1.26398, -1, -10.5728, 7.74495, 18.7907, -152.343, -95.515, 102.757
1.27205, -1, -10.7312, 7.70255, 18.8011, -152.392, -95.4981, 102.47
1.28001, -1, -10.8891, 7.66002, 18.8116, -152.441, -95.481, 102.183
1.28754, -1, -11.0467, 7.6175, 18.822, -152.49, -95.4638, 101.896
1.29613, -1, -11.2041, 7.57507, 18.8324, -152.539, -95.4463, 101.608
1.3035, -1, -11.3615, 7.53263, 18.8429, -152.588, -95.4285, 101.321
1.31208, -1, -11.5191, 7.49017, 18.8533, -152.638, -95.4108, 101.034
1.32016, -1, -11.6769, 7.44776, 18.8638, -152.687, -95.3933, 100.746
1.32756, -1, -11.7559, 7.42657, 18.8692, -152.736, -95.376, 100.458
1.33598, -1, -11.9937, 7.36302, 18.885, -152.786, -95.3588, 100.171
1.34424, -1, -12.1527, 7.32071, 18.8955, -152.835, -95.3416, 99.8831
1.35097, -1, -12.2324, 7.29953, 18.9008, -152.86, -95.333, 99.7393
1.36005, -1, -12.4719, 7.23593, 18.9165, -152.935, -95.3067, 99.3072
1.36697, -1, -12.5519, 7.21477, 18.9217, -152.959, -95.2978, 99.1632
1.37612, -1, -12.7918, 7.15121, 18.9375, -153.034, -95.2708, 98.7314
1.38302, -1, -12.8719, 7.13, 18.9427, -153.058, -95.2619, 98.5874
1.39236, -1, -13.1118, 7.06621, 18.9585, -153.132, -95.2358, 98.1554
1.39897, -1, -13.1918, 7.04493, 18.9637, -153.157, -95.2271, 98.0114
1.4084, -1, -13.431, 6.98108, 18.9796, -153.231, -95.2015, 97.5792
1.41504, -1, -13.5106, 6.95974, 18.9849, -153.256, -95.1929, 97.435
1.42452, -1, -13.7495, 6.89565, 19.0007, -153.33, -95.167, 97.0019
1.43253, -1, -13.9083, 6.85299, 19.0112, -153.379, -95.1493, 96.7135
1.44059, -1, -14.0666, 6.8103, 19.0216, -153.428, -95.1315, 96.4249
1.44856, -1, -14.1457, 6.76773, 19.0321, -153.478, -95.1138, 96.136
1.4566, -1, -14.3038, 6.74643, 19.0425, -153.527, -95.0964, 95.847
1.46486, -1, -14.4622, 6.70378, 19.0478, -153.552, -95.0879, 95.5583
1.47196, -1, -14.6206, 6.66121, 19.0583, -153.601, -95.0707, 95.4138
1.48003, -1, -14.7795, 6.61873, 19.0688, -153.651, -95.0536, 95.1247
1.48803, -1, -14.9388, 6.57618, 19.0793, -153.701, -95.0364, 94.8353
1.49602, -1, -15.0983, 6.53354, 19.0901, -153.751, -95.0188, 94.5462
1.50406, -1, -15.2583, 6.49097, 19.1007, -153.801, -95.0009, 94.2572
1.51201, -1, -15.4186, 6.44842, 19.1113, -153.85, -94.9829, 93.9678
1.51997, -1, -15.5792, 6.40575, 19.1219, -153.9, -94.9651, 93.6786
1.52801, -1, -15.74, 6.36309, 19.1324, -153.95, -94.9477, 93.3895
1.53597, -1, -15.9007, 6.32037, 19.143, -153.999, -94.9305, 93.1001
1.54401, -1, -16.0614, 6.27751, 19.1536, -154.049, -94.9134, 92.8104
1.55201, -1, -16.2222, 6.23472, 19.1641, -154.099, -94.8962, 92.5206
1.55998, -1, -16.3828, 6.19182, 19.1746, -154.148, -94.8789, 92.2313
1.56802, -1, -16.5431, 6.14884, 19.185, -154.198, -94.8613, 91.9414
1.57596, -1, -16.7031, 6.1059, 19.1955, -154.247, -94.8434, 91.6513
1.58403, -1, -16.8627, 6.06297, 19.2062, -154.296, -94.8256, 91.3614
1.59202, -1, -17.022, 6.02006, 19.2168, -154.347, -94.808, 91.0716
1.60174, -1, -17.1811, 5.97714, 19.2274, -154.421, -94.7819, 90.6364
1.60796, -1, -17.3403, 5.93429, 19.2379, -154.446, -94.7733, 90.4911
1.61602, -1, -17.4995, 5.89151, 19.2485, -154.496, -94.7559, 90.2009
1.624, -1, -17.6589, 5.84879, 19.2592, -154.546, -94.7384, 89.9108
1.63197, -1, -17.8184, 5.806, 19.2698, -154.595, -94.7206, 89.6205
1.64004, -1, -17.9782, 5.76325, 19.2804, -154.646, -94.7026, 89.33
1.64796, -1, -18.1385, 5.72053, 19.2909, -154.695, -94.6846, 89.0397
1.65597, -1, -18.2993, 5.6778, 19.3015, -154.745, -94.6668, 88.7492
1.66413, -1, -18.4605, 5.63501, 19.3123, -154.796, -94.6493, 88.4585
1.67105, -1, -18.622, 5.59207, 19.3229, -154.845, -94.632, 88.1676
1.68015, -1, -18.7836, 5.5491, 19.3335, -154.896, -94.6147, 87.8768
1.68705, -1, -18.9452, 5.50614, 19.3441, -154.946, -94.5974, 87.586
1.69596, -1, -19.1067, 5.46308, 19.3546, -154.995, -94.5797, 87.2947
1.70479, -1, -19.2682, 5.41996, 19.3652, -155.045, -94.5617, 87.0034
1.71196, -1, -19.4294, 5.37685, 19.3757, -155.095, -94.5437, 86.7122
1.71997, -1, -19.5904, 5.33369, 19.3862, -155.144, -94.5258, 86.4206
1.72916, -1, -19.7511, 5.29057, 19.3968, -155.195, -94.5081, 86.1287
1.73595, -1, -19.9115, 5.24749, 19.4073, -155.245, -94.4906, 85.837
1.74407, -1, -20.0718, 5.20434, 19.4181, -155.294, -94.4732, 85.5455
1.75196, -1, -20.2317, 5.16132, 19.4289, -155.345, -94.4558, 85.2538
1.75996, -1, -20.3916, 5.11845, 19.4396, -155.395, -94.4382, 84.962
1.76803, -1, -20.5517, 5.07541, 19.4504, -155.445, -94.4202, 84.6703
1.77598, -1, -20.7118, 5.03243, 19.461, -155.495, -94.4021, 84.3785
1.78404, -1, -20.8723, 4.98956, 19.4716, -155.545, -94.3843, 84.0866
1.7921, -1, -21.0334, 4.94659, 19.4823, -155.595, -94.3667, 83.7944
1.80005, -1, -21.1947, 4.90357, 19.4929, -155.646, -94.3493, 83.5023
1.80805, -1, -21.3565, 4.8605, 19.5035, -155.696, -94.3321, 83.2104
1.81614, -1, -21.5186, 4.81734, 19.5141, -155.746, -94.3149, 82.9181
1.82355, -1, -21.5996, 4.77412, 19.5248, -155.797, -94.2974, 82.6256
1.83213, -1, -21.843, 4.7309, 19.5355, -155.847, -94.2797, 82.3333
1.83895, -1, -21.9242, 4.70923, 19.5408, -155.871, -94.2707, 82.187
1.84802, -1, -22.1679, 4.64418, 19.5569, -155.947, -94.2438, 81.7481
1.85601, -1, -22.3303, 4.60083, 19.5676, -155.997, -94.2261, 81.4553
1.86295, -1, -22.4114, 4.57912, 19.5728, -156.022, -94.2174, 81.3089
1.87211, -1, -22.6541, 4.51404, 19.5888, -156.098, -94.1912, 80.8699
1.87899, -1, -22.7349, 4.49236, 19.5941, -156.122, -94.1825, 80.7234
1.88825, -1, -22.9768, 4.42737, 19.6101, -156.198, -94.1562, 80.284
1.89502, -1, -23.0573, 4.40576, 19.6154, -156.223, -94.1472, 80.1376
1.90446, -1, -23.2987, 4.34087, 19.6314, -156.298, -94.1199, 79.6981
1.9124, -1, -23.4597, 4.2977, 19.6423, -156.349, -94.1017, 79.4047
1.92047, -1, -23.6206, 4.25447, 19.6531, -156.4, -94.0839, 79.1113
1.92695, -1, -23.7011, 4.23287, 19.6585, -156.425, -94.0751, 78.9646
1.93651, -1, -23.9431, 4.16809, 19.6745, -156.501, -94.0488, 78.5244
1.94452, -1, -24.0239, 4.12477, 19.6852, -156.551, -94.0314, 78.2306
1.95268, -1, -24.2671, 4.08141, 19.6959, -156.601, -94.0139, 77.9371
1.9605, -1, -24.3484, 4.05973, 19.7012, -156.627, -94.0051, 77.6431
1.96794, -1, -24.5113, 4.01632, 19.7118, -156.677, -93.9871, 77.4961
1.97495, -1, -24.6744, 3.97278, 19.7224, -156.727, -93.9689, 77.2018
1.98512, -1, -24.9193, 3.90747, 19.7384, -156.803, -93.9421, 76.7607
1.99102, -1, -25.0011, 3.8857, 19.7438, -156.828, -93.9332, 76.6137
2.00121, -1, -25.246, 3.82035, 19.7601, -156.903, -93.9069, 76.1723
2.00701, -1, -25.3274, 3.79858, 19.7655, -156.929, -93.8982, 76.0251
2.01605, -1, -25.4901, 3.755, 19.7763, -156.979, -93.8807, 75.7309
2.02395, -1, -25.6528, 3.71136, 19.787, -157.029, -93.8629, 75.4368
2.03196, -1, -25.8153, 3.66787, 19.7977, -157.08, -93.8448, 75.1423
2.03999, -1, -25.9775, 3.62447, 19.8085, -157.13, -93.8264, 74.8474
2.04794, -1, -26.1395, 3.58092, 19.8192, -157.181, -93.8081, 74.5529
2.05596, -1, -26.3011, 3.53754, 19.83, -157.232, -93.7901, 74.2583
2.06401, -1, -26.4628, 3.49419, 19.8407, -157.282, -93.7724, 73.9634
2.07196, -1, -26.6247, 3.45074, 19.8514, -157.333, -93.7547, 73.6683
2.07994, -1, -26.7868, 3.4073, 19.8621, -157.384, -93.7371, 73.3735
2.08801, -1, -26.9492, 3.36381, 19.8729, -157.434, -93.7194, 73.0783
2.09695, -1, -27.112, 3.3202, 19.8838, -157.485, -93.7014, 72.7828
2.10401, -1, -27.2751, 3.27661, 19.8946, -157.536, -93.683, 72.4876
2.11299, -1, -27.4386, 3.23293, 19.9053, -157.586, -93.6648, 72.1924
2.11995, -1, -27.6025, 3.18916, 19.916, -157.636, -93.6468, 71.8969
2.12802, -1, -27.7665, 3.1455, 19.9268, -157.687, -93.629, 71.6012
2.13594, -1, -27.9306, 3.10181, 19.9375, -157.737, -93.6114, 71.3058
2.14395, -1, -28.0947, 3.05809, 19.9483, -157.789, -93.5937, 71.0102
2.15201, -1, -28.2587, 3.01439, 19.959, -157.839, -93.5759, 70.7145
2.15994, -1, -28.4227, 2.97065, 19.9697, -157.889, -93.5578, 70.4184
2.16802, -1, -28.5865, 2.927, 19.9807, -157.941, -93.5393, 70.1224
2.17601, -1, -28.7501, 2.88338, 19.9915, -157.991, -93.5209, 69.8265
2.18394, -1, -28.9133, 2.8397, 20.0023, -158.042, -93.5027, 69.5301
2.19195, -1, -29.0761, 2.79611, 20.013, -158.094, -93.4849, 69.2337
2.20001, -1, -29.2388, 2.75249, 20.0237, -158.144, -93.4673, 68.9375
2.20795, -1, -29.4016, 2.70889, 20.0345, -158.195, -93.4497, 68.6409
2.21595, -1, -29.5644, 2.66525, 20.0453, -158.247, -93.4319, 68.3438
2.224, -1, -29.7274, 2.62152, 20.056, -158.297, -93.4138, 68.0471
2.23194, -1, -29.8905, 2.5778, 20.0668, -158.348, -93.3955, 67.7504
2.23999, -1, -30.0538, 2.53403, 20.0777, -158.399, -93.3772, 67.4537
2.24801, -1, -30.2174, 2.49013, 20.0886, -158.45, -93.3591, 67.1566
2.25594, -1, -30.3815, 2.4462, 20.0996, -158.501, -93.3413, 66.8598
2.26404, -1, -30.5461, 2.40229, 20.1104, -158.552, -93.3236, 66.563
2.27194, -1, -30.711, 2.35831, 20.1212, -158.602, -93.3059, 66.2658
2.27994, -1, -30.8759, 2.31443, 20.132, -158.653, -93.288, 65.9684
2.28847, -1, -31.0408, 2.27052, 20.1428, -158.704, -93.2699, 65.6712
2.29544, -1, -31.2058, 2.22653, 20.1537, -158.755, -93.2514, 65.374
2.30403, -1, -31.3707, 2.18271, 20.1645, -158.807, -93.233, 65.0765
2.31237, -1, -31.5354, 2.13889, 20.1752, -158.858, -93.2149, 64.7788
2.31952, -1, -31.6999, 2.09493, 20.186, -158.909, -93.197, 64.4812
2.32812, -1, -31.8641, 2.05105, 20.197, -158.96, -93.1793, 64.1834
2.33642, -1, -31.9462, 2.02913, 20.2024, -158.986, -93.1705, 63.8853
2.34294, -1, -32.11, 1.98521, 20.2134, -159.037, -93.1529, 63.7363
2.35198, -1, -32.3555, 1.91938, 20.2298, -159.114, -93.1261, 63.2894
2.35893, -1, -32.4373, 1.8974, 20.2352, -159.14, -93.117, 63.1404
2.36694, -1, -32.6011, 1.85334, 20.2461, -159.191, -93.0986, 62.8421
2.37694, -1, -32.8469, 1.78732, 20.2625, -159.268, -93.0712, 62.395
2.38295, -1, -32.9289, 1.76528, 20.2679, -159.293, -93.0623, 62.2458
2.39217, -1, -33.1756, 1.69902, 20.2842, -159.37, -93.0355, 61.7981
2.39905, -1, -33.2581, 1.67693, 20.2896, -159.395, -93.0266, 61.6487
2.40693, -1, -33.4232, 1.6328, 20.3004, -159.446, -93.0088, 61.3501
2.41642, -1, -33.6717, 1.5665, 20.3169, -159.523, -92.9816, 60.9022
2.42526, -1, -33.8373, 1.52233, 20.3279, -159.574, -92.9631, 60.6033
2.43093, -1, -33.9201, 1.50025, 20.3333, -159.6, -92.9537, 60.4537
2.44051, -1, -34.1689, 1.43403, 20.3496, -159.677, -92.926, 60.0054
2.44909, -1, -34.3348, 1.38993, 20.3605, -159.729, -92.9079, 59.7061
2.45493, -1, -34.4178, 1.36782, 20.366, -159.754, -92.8989, 59.5563
2.46444, -1, -34.5836, 1.32367, 20.3769, -159.806, -92.8811, 59.2568
2.47193, -1, -34.749, 1.27955, 20.3877, -159.857, -92.8633, 58.9575
2.47998, -1, -34.9139, 1.23537, 20.3986, -159.909, -92.8453, 58.6581
2.488, -1, -35.0788, 1.19124, 20.4095, -159.96, -92.827, 58.3585
2.49593, -1, -35.2435, 1.147, 20.4205, -160.012, -92.8084, 58.0588
2.50405, -1, -35.4079, 1.10279, 20.4316, -160.063, -92.79, 57.7592
2.51194, -1, -35.5715, 1.0588, 20.4428, -160.115, -92.7718, 57.4596
2.51994, -1, -35.7328, 1.01519, 20.4541, -160.165, -92.7537, 57.1601
2.52805, -1, -35.891, 0.972364, 20.4657, -160.216, -92.736, 56.8627
2.53592, -1, -36.0447, 0.930859, 20.4775, -160.267, -92.7183, 56.5695
2.54393, -1, -36.1925, 0.891227, 20.4895, -160.315, -92.701, 56.2836
2.55199, -1, -36.3318, 0.854069, 20.5013, -160.361, -92.6841, 56.0102
2.55993, -1, -36.4606, 0.819981, 20.5125, -160.405, -92.6681, 55.7559
2.568, -1, -36.5776, 0.78901, 20.5225, -160.444, -92.6536, 55.5266
2.57599, -1, -36.681, 0.761666, 20.531, -160.477, -92.6412, 55.3278
2.58396, -1, -36.7697, 0.738148, 20.5375, -160.505, -92.631, 55.1631
2.59193, -1, -36.844, 0.718337, 20.5417, -160.527, -92.6232, 55.0335
2.59999, -1, -36.905, 0.702177, 20.5439, -160.544, -92.6176, 54.9382
2.60957, -1, -36.9531, 0.689542, 20.5447, -160.556, -92.6138, 54.8715
2.61593, -1, -36.9893, 0.680019, 20.5448, -160.563, -92.6115, 54.8283
2.62399, -1, -37.0151, 0.67313, 20.5443, -160.568, -92.6101, 54.8028
2.63193, -1, -37.0322, 0.668676, 20.5438, -160.57, -92.6094, 54.7889
2.63994, -1, -37.0424, 0.666181, 20.5435, -160.572, -92.6091, 54.782
2.64812, 2, -37.0476, 0.664955, 20.5434, -160.572, -92.6089, 54.7787
2.65493, 2, -37.0488, 0.664393, 20.5433, -160.573, -92.6088, 54.7773
2.66392, 2, -37.0485, 0.664166, 20.5433, -160.573, -92.6088, 54.7766
2.67206, 2, -37.0481, 0.66406, 20.5433, -160.573, -92.6088, 54.7764
2.67996, 2, -37.0482, 0.664019, 20.5433, -160.573, -92.6088, 54.7764
2.688, 2, -37.0489, 0.663989, 20.5432, -160.573, -92.6089, 54.7766
2.69599, 2, -37.0499, 0.66395, 20.5432, -160.573, -92.6089, 54.7768
2.70392, 2, -37.051, 0.663845, 20.543, -160.573, -92.6089, 54.777
2.71193, 2, -37.0524, 0.66364, 20.5428, -160.573, -92.609, 54.7772
2.71999, 2, -37.0537, 0.663424, 20.5427, -160.573, -92.609, 54.7775
2.728, 2, -37.0548, 0.66323, 20.5425, -160.573, -92.6091, 54.7777
2.73592, 2, -37.0554, 0.663093, 20.5423, -160.573, -92.6091, 54.778
2.74399, 2, -37.0556, 0.663031, 20.5422, -160.573, -92.6091, 54.7784
2.75197, 2, -37.0553, 0.66302, 20.542, -160.573, -92.6091, 54.7787
2.75992, 2, -37.0546, 0.663035, 20.5419, -160.573, -92.6091, 54.779
2.76806, 2, -37.0537, 0.663076, 20.5418, -160.573, -92.6092, 54.7792
2.77593, 2, -37.0523, 0.663133, 20.5418, -160.573, -92.6092, 54.7795
2.78345, 2, -37.0508, 0.663257, 20.5417, -160.573, -92.6093, 54.7797
2.79202, 2, -37.0495, 0.663358, 20.5417, -160.573, -92.6093, 54.78
2.8, 2, -37.0486, 0.663397, 20.5416, -160.573, -92.6094, 54.7801
2.80755, 2, -37.0481, 0.663396, 20.5416, -160.573, -92.6093, 54.7803
2.81609, 2, -37.0479, 0.663377, 20.5416, -160.573, -92.6094, 54.7803
2.82403, 2, -37.048, 0.663344, 20.5416, -160.573, -92.6094, 54.7803
2.83203, 2, -37.0482, 0.663299, 20.5416, -160.573, -92.6094, 54.7804
2.84025, 2, -37.0485, 0.663266, 20.5415, -160.573, -92.6094, 54.7804
2.84692, 2, -37.0487, 0.663246, 20.5415, -160.573, -92.6094, 54.7805
2.85595, 2, -37.0499, 0.663206, 20.5415, -160.573, -92.6094, 54.7805
2.86293, 2, -37.0503, 0.663205, 20.5415, -160.573, -92.6094, 54.7805
2.87198, 2, -37.0513, 0.663215, 20.5415, -160.573, -92.6094, 54.7805
2.87896, 2, -37.0515, 0.66323, 20.5415, -160.573, -92.6094, 54.7805
2.88825, 2, -37.0518, 0.663266, 20.5415, -160.573, -92.6094, 54.7805
2.89492, 2, -37.0518, 0.663272, 20.5415, -160.573, -92.6094, 54.7805
2.90433, 2, -37.0517, 0.66329, 20.5415, -160.573, -92.6095, 54.7806
2.91243, 2, -37.0513, 0.663294, 20.5415, -160.573, -92.6094, 54.7806
2.92042, 2, -37.051, 0.663288, 20.5415, -160.573, -92.6095, 54.7806
2.92858, 2, -37.0507, 0.663285, 20.5415, -160.573, -92.6095, 54.7807
2.93652, 2, -37.0505, 0.663277, 20.5415, -160.573, -92.6095, 54.7807
2.94454, 2, -37.0504, 0.663257, 20.5415, -160.573, -92.6095, 54.7807
2.95255, 2, -37.0504, 0.663251, 20.5415, -160.573, -92.6095, 54.7808
2.96061, 2, -37.0504, 0.663251, 20.5415, -160.573, -92.6095, 54.7808
2.96857, 2, -37.0504, 0.663254, 20.5415, -160.573, -92.6095, 54.7809
2.97592, 2, -37.0505, 0.663245, 20.5414, -160.573, -92.6095, 54.7809
2.98397, 2, -37.0505, 0.663248, 20.5414, -160.573, -92.6095, 54.7809
2.99191, 2, -37.0506, 0.663267, 20.5415, -160.573, -92.6095, 54.781
2.99991, 2, -37.0508, 0.663276, 20.5415, -160.573, -92.6095, 54.781
3.0081, 2, -37.0509, 0.66328, 20.5414, -160.573, -92.6095, 54.781
3.01591, 2, -37.051, 0.663281, 20.5414, -160.573, -92.6096, 54.7811
3.02391, 2, -37.051, 0.663282, 20.5414, -160.573, -92.6095, 54.7812
3.03196, 2, -37.051, 0.663283, 20.5414, -160.573, -92.6096, 54.7813
3.03991, 2, -37.0509, 0.663283, 20.5414, -160.573, -92.6096, 54.7813
3.048, 2, -37.0509, 0.663263, 20.5414, -160.573, -92.6096, 54.7813
3.05596, 2, -37.0509, 0.663269, 20.5414, -160.573, -92.6096, 54.7813
3.06391, 2, -37.0509, 0.663276, 20.5414, -160.573, -92.6096, 54.7814
3.07191, 2, -37.0508, 0.66326, 20.5414, -160.573, -92.6096, 54.7814
3.07997, 2, -37.0508, 0.66326, 20.5414, -160.573, -92.6097, 54.7815
3.08802, 2, -37.0508, 0.66326, 20.5413, -160.573, -92.6096, 54.7815
3.09591, 2, -37.0508, 0.663268, 20.5413, -160.573, -92.6096, 54.7815
3.10565, 2, -37.0508, 0.663276, 20.5413, -160.573, -92.6097, 54.7816
3.11191, 2, -37.0508, 0.66328, 20.5413, -160.573, -92.6097, 54.7816
3.12091, 2, -37.0508, 0.663281, 20.5413, -160.573, -92.6097, 54.7816
3.12805, 2, -37.0508, 0.663282, 20.5413, -160.572, -92.6097, 54.7817
3.13591, 2, -37.0508, 0.663283, 20.5413, -160.572, -92.6097, 54.7817
3.14391, 2, -37.0508, 0.663283, 20.5413, -160.572, -92.6097, 54.7818
3.15198, 2, -37.0508, 0.663283, 20.5413, -160.572, -92.6098, 54.7818
3.15991, 2, -37.0508, 0.663283, 20.5413, -160.572, -92.6098, 54.7818
3.16804, 2, -37.0508, 0.663283, 20.5413, -160.572, -92.6098, 54.7818
3.17604, 2, -37.0507, 0.663283, 20.5413, -160.572, -92.6098, 54.7818
3.1839, 2, -37.0507, 0.663283, 20.5413, -160.572, -92.6098, 54.7819
3.19191, 2, -37.0507, 0.663283, 20.5413, -160.572, -92.6098, 54.7819
3.19998, 2, -37.0507, 0.663283, 20.5413, -160.572, -92.6098, 54.782
3.20798, 2, -37.0507, 0.663283, 20.5413, -160.572, -92.6098, 54.782
3.21591, 2, -37.0507, 0.663283, 20.5413, -160.572, -92.6098, 54.782
3.22397, 2, -37.0506, 0.663283, 20.5413, -160.572, -92.6098, 54.7821
3.23191, 2, -37.0506, 0.663283, 20.5412, -160.572, -92.6098, 54.7821
3.23991, 2, -37.0506, 0.663283, 20.5412, -160.572, -92.6098, 54.7821
3.24804, 2, -37.0506, 0.663283, 20.5412, -160.572, -92.6098, 54.7821
3.25594, 2, -37.0506, 0.663283, 20.5412, -160.572, -92.6098, 54.7822
3.26391, 2, -37.0505, 0.663283, 20.5412, -160.572, -92.6098, 54.7822
3.27198, 2, -37.0505, 0.663283, 20.5412, -160.572, -92.6098, 54.7822
3.27991, 2, -37.0505, 0.663283, 20.5412, -160.572, -92.6099, 54.7822
3.28801, 2, -37.0505, 0.663283, 20.5412, -160.572, -92.6099, 54.7822
3.29603, 2, -37.0505, 0.663283, 20.5412, -160.572, -92.6099, 54.7822
3.304, 2, -37.0505, 0.663283, 20.5412, -160.572, -92.6099, 54.7823
3.31201, 2, -37.0505, 0.663283, 20.5412, -160.572, -92.6099, 54.7823
3.32007, 2, -37.0504, 0.663283, 20.5412, -160.572, -92.6098, 54.7823
3.32808, 2, -37.0504, 0.663283, 20.5411, -160.572, -92.6098, 54.7823
3.33572, 2, -37.0504, 0.663283, 20.5411, -160.572, -92.6098, 54.7823
3.34415, 2, -37.0504, 0.663294, 20.5411, -160.572, -92.6099, 54.7824
3.3509, 2, -37.0504, 0.663301, 20.5411, -160.572, -92.6099, 54.7824
3.35994, 2, -37.0504, 0.663289, 20.5411, -160.572, -92.6099, 54.7824
3.36807, 2, -37.0503, 0.663286, 20.5411, -160.572, -92.6099, 54.7824
3.3749, 2, -37.0503, 0.663285, 20.5411, -160.572, -92.6098, 54.7824
3.38438, 2, -37.0503, 0.663283, 20.5411, -160.572, -92.6099, 54.7824
3.3909, 2, -37.0503, 0.663283, 20.5411, -160.572, -92.6099, 54.7825
3.40029, 2, -37.0503, 0.663283, 20.5411, -160.572, -92.6099, 54.7824
3.40707, 2, -37.0503, 0.663283, 20.5411, -160.572, -92.6099, 54.7825
3.41635, 2, -37.0503, 0.663283, 20.5411, -160.572, -92.6099, 54.7825
3.42292, 2, -37.0503, 0.663283, 20.5411, -160.572, -92.6099, 54.7825
3.43272, 2, -37.0502, 0.663301, 20.5411, -160.572, -92.6099, 54.7825
3.44046, 2, -37.0502, 0.663291, 20.5411, -160.572, -92.6099, 54.7825
3.44889, 2, -37.0502, 0.663298, 20.5411, -160.572, -92.6099, 54.7826
3.45668, 2, -37.0502, 0.663297, 20.541, -160.572, -92.6099, 54.7825
3.46453, 2, -37.0502, 0.663303, 20.541, -160.572, -92.61, 54.7825
3.4719, 2, -37.0501, 0.663311, 20.541, -160.572, -92.61, 54.7826
3.48071, 2, -37.0501, 0.663297, 20.541, -160.572, -92.61, 54.7826
3.48859, 2, -37.0501, 0.663285, 20.541, -160.572, -92.6099, 54.7826
3.4959, 2, -37.0501, 0.663279, 20.541, -160.572, -92.61, 54.7826
3.50389, 2, -37.0501, 0.663269, 20.541, -160.572, -92.61, 54.7826
3.51201, 2, -37.0501, 0.663269, 20.541, -160.572, -92.61, 54.7826
3.51989, 2, -37.0501, 0.663259, 20.541, -160.572, -92.61, 54.7827
3.52797, 2, -37.0501, 0.663272, 20.541, -160.572, -92.61, 54.7827
3.53595, 2, -37.0501, 0.663278, 20.5409, -160.572, -92.61, 54.7827
3.54389, 2, -37.05, 0.663292, 20.5409, -160.572, -92.61, 54.7827
3.5519, 2, -37.0499, 0.663313, 20.5409, -160.572, -92.61, 54.7827
3.5589, 2, -37.0499, 0.663308, 20.5409, -160.572, -92.61, 54.7828
3.56797, 2, -37.0499, 0.663302, 20.5409, -160.572, -92.61, 54.7828
3.57589, 2, -37.0499, 0.663321, 20.5409, -160.572, -92.61, 54.7828
3.58396, 2, -37.0499, 0.663337, 20.5409, -160.572, -92.61, 54.7828
3.59192, 2, -37.0499, 0.663345, 20.5409, -160.572, -92.61, 54.7828
3.5999, 2, -37.0498, 0.663319, 20.5409, -160.572, -92.61, 54.7828
3.60802, 2, -37.0498, 0.663329, 20.5409, -160.572, -92.61, 54.7828
3.61772, 2, -37.0498, 0.663341, 20.5409, -160.572, -92.6101, 54.7828
3.62389, 2, -37.0498, 0.663346, 20.5409, -160.572, -92.61, 54.7828
3.63196, 2, -37.0498, 0.663349, 20.5409, -160.572, -92.6101, 54.7828
3.63989, 2, -37.0497, 0.663339, 20.5408, -160.572, -92.6101, 54.7828
3.6491, 2, -37.0497, 0.663327, 20.5408, -160.572, -92.6101, 54.7828
3.65596, 2, -37.0497, 0.66334, 20.5408, -160.572, -92.6101, 54.7828
3.66389, 2, -37.0497, 0.663358, 20.5408, -160.572, -92.61, 54.7828
3.67189, 2, -37.0496, 0.663341, 20.5408, -160.572, -92.6101, 54.7828
3.68007, 2, -37.0496, 0.663346, 20.5408, -160.572, -92.6101, 54.7828
3.68796, 2, -37.0496, 0.66333, 20.5408, -160.572, -92.6101, 54.7828
3.69589, 2, -37.0496, 0.663341, 20.5408, -160.572, -92.6101, 54.7828
3.70396, 2, -37.0496, 0.663346, 20.5408, -160.572, -92.6102, 54.7828
3.71189, 4, -37.0496, 0.66333, 20.5408, -160.572, -92.6102, 54.7828
3.71989, 4, -37.0495, 0.663341, 20.5408, -160.572, -92.6101, 54.7828
3.72802, 4, -37.0495, 0.663347, 20.5408, -160.572, -92.6101, 54.7828
3.73589, 4, -37.0495, 0.663349, 20.5408, -160.572, -92.6102, 54.7829
3.74389, 4, -37.0495, 0.66335, 20.5408, -160.572, -92.6102, 54.7829
3.75196, 4, -37.0495, 0.66335, 20.5408, -160.572, -92.6102, 54.7829
3.75993, 4, -37.0494, 0.663351, 20.5408, -160.571, -92.6102, 54.7828
3.76796, 4, -37.0495, 0.663351, 20.5407, -160.572, -92.6102, 54.7828
3.77596, 4, -37.0494, 0.663358, 20.5407, -160.572, -92.6102, 54.7829
3.78389, 4, -37.0494, 0.663371, 20.5407, -160.572, -92.6102, 54.7829
3.79191, 4, -37.0494, 0.663368, 20.5407, -160.572, -92.6102, 54.7829
3.80001, 4, -37.0494, 0.663363, 20.5407, -160.572, -92.6102, 54.7829
3.80822, 4, -37.0494, 0.663364, 20.5407, -160.572, -92.6102, 54.7829
3.83387, 4, -37.0493, 0.663342, 20.5407, -160.571, -92.6102, 54.7829
3.83605, 4, -37.0493, 0.663341, 20.5407, -160.571, -92.6102, 54.7829
3.83729, 4, -37.0493, 0.663341, 20.5407, -160.571, -92.6102, 54.7829
3.83949, 4, -37.0493, 0.663341, 20.5407, -160.571, -92.6102, 54.7829
3.84872, 4, -37.0493, 0.66335, 20.5407, -160.572, -92.6102, 54.7829
3.8559, 4, -37.0493, 0.663355, 20.5406, -160.572, -92.6101, 54.7829
3.86392, 4, -37.0487, 0.663238, 20.5407, -160.571, -92.6102, 54.7829
3.87277, 4, -37.0461, 0.662349, 20.5408, -160.571, -92.6102, 54.7829
3.88001, 4, -37.0403, 0.659643, 20.5415, -160.571, -92.6102, 54.7829
3.88815, 4, -37.0316, 0.654765, 20.5437, -160.571, -92.6102, 54.7829
3.89488, 4, -37.0264, 0.651571, 20.5455, -160.571, -92.6102, 54.7829
3.90295, 4, -37.0147, 0.643661, 20.5513, -160.57, -92.6102, 54.7828
3.91111, 4, -37.0005, 0.633345, 20.5604, -160.568, -92.6102, 54.7828
3.9189, 5, -36.9835, 0.62024, 20.5734, -160.565, -92.6101, 54.7827
3.92693, 5, -36.9644, 0.604904, 20.5905, -160.562, -92.61, 54.7827
3.93648, 5, -36.9335, 0.57854, 20.6219, -160.555, -92.6097, 54.7826
3.94544, 5, -36.9099, 0.557764, 20.6459, -160.55, -92.6095, 54.7824
3.95095, 5, -36.8968, 0.546425, 20.6587, -160.547, -92.6094, 54.7824
3.96099, 5, -36.8523, 0.509969, 20.6981, -160.539, -92.6089, 54.7822
3.96938, 5, -36.8365, 0.484151, 20.7252, -160.533, -92.6085, 54.782
3.97501, 5, -36.8039, 0.471103, 20.7389, -160.53, -92.6083, 54.7819
3.98589, 5, -36.7536, 0.431603, 20.7801, -160.521, -92.6075, 54.7816
3.99188, 5, -36.7368, 0.418314, 20.7938, -160.518, -92.6072, 54.7815
3.99894, 5, -36.7028, 0.391786, 20.8211, -160.511, -92.6065, 54.7813
4.00803, 5, -36.6691, 0.365111, 20.8485, -160.505, -92.6059, 54.7811
4.01588, 5, -36.6354, 0.338612, 20.8761, -160.499, -92.6052, 54.7811
4.0229, 5, -36.6019, 0.312241, 20.9037, -160.493, -92.6046, 54.7809
4.03188, 5, -36.5684, 0.285885, 20.9312, -160.487, -92.6038, 54.7809
4.03988, 5, -36.5346, 0.259562, 20.9588, -160.481, -92.603, 54.7808
4.04688, 5, -36.5009, 0.233229, 20.9865, -160.475, -92.6022, 54.7807
4.05588, 5, -36.4674, 0.207053, 21.0139, -160.469, -92.6013, 54.7806
4.06388, 5, -36.4339, 0.180784, 21.0413, -160.463, -92.6005, 54.7805
4.07088, 5, -36.4005, 0.15459, 21.0688, -160.458, -92.5997, 54.7804
4.08003, 5, -36.3672, 0.128215, 21.0963, -160.452, -92.5989, 54.7801
4.09051, 5, -36.3171, 0.0886726, 21.1374, -160.443, -92.5976, 54.7797
4.09598, 5, -36.3002, 0.0754851, 21.1511, -160.441, -92.5972, 54.7796
4.10388, 5, -36.2662, 0.0490306, 21.1783, -160.435, -92.5963, 54.7793
4.11289, 5, -36.2319, 0.0226972, 21.2058, -160.429, -92.5955, 54.7789
4.11888, 5, -36.1976, -0.00374052, 21.233, -160.424, -92.5946, 54.7785
4.12794, 5, -36.1634, -0.030041, 21.2603, -160.418, -92.5938, 54.7781
4.13588, 5, -36.1293, -0.0562761, 21.2876, -160.412, -92.5929, 54.7776
4.14394, 5, -36.0951, -0.0824308, 21.3149, -160.406, -92.5921, 54.7772
4.15189, 5, -36.0608, -0.108503, 21.3422, -160.4, -92.5913, 54.7766
4.15992, 5, -36.0266, -0.134686, 21.3693, -160.394, -92.5905, 54.7761
4.16794, 5, -35.9925, -0.160667, 21.3964, -160.388, -92.5896, 54.7756
4.17588, 5, -35.9584, -0.186713, 21.4237, -160.382, -92.5888, 54.7751
4.18395, 5, -35.9242, -0.212695, 21.4509, -160.375, -92.588, 54.7746
4.19187, 5, -35.8902, -0.238715, 21.4779, -160.369, -92.5872, 54.7742
4.19987, 5, -35.8564, -0.264839, 21.505, -160.363, -92.5864, 54.7737
4.20801, 5, -35.8224, -0.290781, 21.532, -160.356, -92.5856, 54.7733
4.21587, 5, -35.7883, -0.316892, 21.559, -160.35, -92.5848, 54.7729
4.22388, 5, -35.7539, -0.342907, 21.5859, -160.344, -92.584, 54.7725
4.23198, 5, -35.7195, -0.368983, 21.6128, -160.337, -92.5832, 54.7722
4.23987, 5, -35.6852, -0.395019, 21.6397, -160.331, -92.5824, 54.7719
4.24795, 5, -35.6507, -0.42093, 21.6667, -160.325, -92.5816, 54.7716
4.25595, 5, -35.6161, -0.44686, 21.6933, -160.319, -92.5808, 54.7714
4.26391, 5, -35.5816, -0.47268, 21.72, -160.313, -92.58, 54.7712
4.27188, 5, -35.5471, -0.498595, 21.7468, -160.308, -92.5792, 54.7711
4.27994, 5, -35.5127, -0.524371, 21.7736, -160.302, -92.5784, 54.771
4.28805, 5, -35.4782, -0.550135, 21.8003, -160.296, -92.5776, 54.7708
4.29536, 5, -35.4436, -0.575889, 21.8269, -160.29, -92.5769, 54.7707
4.3034, 5, -35.4091, -0.601588, 21.8534, -160.284, -92.5761, 54.7706
4.31201, 5, -35.3748, -0.627401, 21.88, -160.278, -92.5752, 54.7706
4.32003, 5, -35.3404, -0.653038, 21.9064, -160.272, -92.5745, 54.7706
4.32804, 5, -35.306, -0.678802, 21.9329, -160.266, -92.5737, 54.7706
4.33549, 5, -35.2714, -0.70453, 21.9593, -160.26, -92.5729, 54.7705
4.3442, 5, -35.2369, -0.730193, 21.9858, -160.253, -92.5721, 54.7705
4.35247, 5, -35.2023, -0.755917, 22.0121, -160.247, -92.5714, 54.7705
4.35991, 5, -35.1675, -0.781365, 22.0383, -160.24, -92.5706, 54.7705
4.36907, 5, -35.1325, -0.806872, 22.0646, -160.234, -92.5698, 54.7706
4.37504, 5, -35.1151, -0.819592, 22.0777, -160.231, -92.5694, 54.7706
4.384, 5, -35.0629, -0.857813, 22.1172, -160.221, -92.5682, 54.7706
4.39295, 5, -35.0282, -0.883331, 22.1433, -160.214, -92.5674, 54.7706
4.40021, 5, -34.9932, -0.908644, 22.1695, -160.207, -92.5666, 54.7706
4.40687, 5, -34.9757, -0.921381, 22.1825, -160.204, -92.5663, 54.7706
4.41643, 5, -34.9234, -0.959444, 22.2216, -160.194, -92.5651, 54.7706
4.42472, 5, -34.8886, -0.984867, 22.2476, -160.188, -92.5642, 54.7706
4.43084, 5, -34.8712, -0.997613, 22.2606, -160.185, -92.5638, 54.7707
4.44039, 5, -34.8188, -1.03546, 22.2995, -160.176, -92.5627, 54.7707
4.44854, 5, -34.784, -1.06078, 22.3255, -160.17, -92.5619, 54.7708
4.45643, 5, -34.7491, -1.086, 22.3513, -160.164, -92.5611, 54.7709
4.46718, 5, -34.7317, -1.09862, 22.377, -160.158, -92.5603, 54.7709
4.47182, 5, -34.6967, -1.12398, 22.3899, -160.155, -92.5599, 54.7709
4.47989, 5, -34.6616, -1.14915, 22.4157, -160.149, -92.5591, 54.7711
4.48851, 5, -34.6265, -1.17436, 22.4416, -160.143, -92.5583, 54.7712
4.49587, 5, -34.5915, -1.19948, 22.4672, -160.137, -92.5575, 54.7713
4.50386, 5, -34.5564, -1.22462, 22.4928, -160.131, -92.5567, 54.7715
4.51191, 5, -34.5211, -1.24981, 22.5184, -160.124, -92.5559, 54.7716
4.51999, 5, -34.4858, -1.27485, 22.5441, -160.118, -92.5551, 54.7719
4.52704, 5, -34.4506, -1.29995, 22.5696, -160.112, -92.5543, 54.7722
4.53486, 5, -34.4154, -1.32489, 22.5951, -160.105, -92.5534, 54.7726
4.54389, 5, -34.3802, -1.34989, 22.6206, -160.098, -92.5525, 54.7731
4.55194, 5, -34.3448, -1.37493, 22.6461, -160.092, -92.5517, 54.7738
4.55986, 5, -34.3095, -1.39978, 22.6716, -160.085, -92.5509, 54.7746
4.56808, 5, -34.2743, -1.42474, 22.6968, -160.078, -92.5501, 54.7755
4.57568, 5, -34.2391, -1.44957, 22.7222, -160.071, -92.5492, 54.7766
4.58388, 5, -34.2037, -1.47442, 22.7475, -160.064, -92.5484, 54.7777
4.59187, 5, -34.1682, -1.49928, 22.7729, -160.057, -92.5476, 54.779
4.60137, 5, -34.1329, -1.52397, 22.7982, -160.051, -92.5468, 54.7805
4.60792, 5, -34.0975, -1.54877, 22.8234, -160.044, -92.5459, 54.782
4.61886, 5, -34.0443, -1.58575, 22.8611, -160.034, -92.5446, 54.7842
4.62393, 5, -34.0265, -1.59815, 22.8738, -160.031, -92.5442, 54.785
4.63186, 5, -33.9911, -1.62292, 22.8989, -160.025, -92.5433, 54.7866
4.63986, 5, -33.9555, -1.64751, 22.924, -160.018, -92.5425, 54.7883
4.64884, 5, -33.9199, -1.67219, 22.9491, -160.012, -92.5416, 54.79
4.65586, 5, -33.8842, -1.69676, 22.9741, -160.005, -92.5407, 54.7917
4.66392, 5, -33.8486, -1.72133, 22.9992, -159.999, -92.5399, 54.7935
4.67187, 5, -33.813, -1.74598, 23.0239, -159.992, -92.539, 54.7953
4.67997, 5, -33.7774, -1.77045, 23.0488, -159.986, -92.5381, 54.7971
4.68792, 5, -33.7417, -1.79503, 23.0737, -159.979, -92.5372, 54.799
4.69586, 5, -33.7059, -1.81954, 23.0986, -159.973, -92.5364, 54.8008
4.70393, 5, -33.6702, -1.84403, 23.1234, -159.966, -92.5355, 54.8026
4.71188, 5, -33.6346, -1.86855, 23.1481, -159.959, -92.5346, 54.8045
4.71999, 5, -33.5988, -1.8929, 23.1728, -159.952, -92.5337, 54.8064
4.72792, 5, -33.5629, -1.91733, 23.1974, -159.945, -92.5329, 54.8084
4.73586, 5, -33.5272, -1.94168, 23.2222, -159.938, -92.532, 54.8103
4.74394, 5, -33.4914, -1.96616, 23.2467, -159.93, -92.531, 54.8122
4.7519, 5, -33.4557, -1.99078, 23.2714, -159.923, -92.5301, 54.8141
4.75986, 5, -33.4199, -2.01535, 23.296, -159.916, -92.5291, 54.8159
4.76819, 5, -33.3842, -2.04013, 23.3208, -159.909, -92.528, 54.8176
4.7762, 5, -33.3486, -2.06501, 23.3456, -159.902, -92.5267, 54.819
4.78322, 5, -33.3132, -2.09008, 23.3705, -159.895, -92.5251, 54.8203
4.79198, 6, -33.2777, -2.11541, 23.3956, -159.888, -92.5233, 54.8211
4.79991, 6, -33.2421, -2.14082, 23.421, -159.88, -92.5212, 54.8217
4.80811, 6, -33.2069, -2.1666, 23.4467, -159.873, -92.5188, 54.822
4.81546, 6, -33.1718, -2.19261, 23.4724, -159.865, -92.516, 54.8222
4.82431, 6, -33.1368, -2.21902, 23.4985, -159.857, -92.5129, 54.8222
4.83151, 6, -33.1018, -2.24569, 23.5248, -159.848, -92.5095, 54.8221
4.841, 6, -33.0669, -2.27257, 23.5514, -159.84, -92.5057, 54.8219
4.84895, 6, -33.0324, -2.29987, 23.5781, -159.83, -92.5017, 54.8214
4.85586, 6, -32.9979, -2.32744, 23.6051, -159.821, -92.4973, 54.8206
4.86646, 6, -32.9635, -2.35552, 23.6324, -159.811, -92.4926, 54.8194
4.87082, 6, -32.9463, -2.36963, 23.6462, -159.806, -92.4902, 54.8188
4.87991, 7, -32.8951, -2.41237, 23.6877, -159.79, -92.4825, 54.8168
4.88691, 7, -32.8782, -2.42679, 23.7015, -159.785, -92.4798, 54.8159
4.89614, 7, -32.8276, -2.47056, 23.7437, -159.768, -92.4712, 54.8115
4.90287, 7, -32.8107, -2.48538, 23.758, -159.763, -92.4682, 54.8096
4.91228, 7, -32.7603, -2.53006, 23.8009, -159.746, -92.4588, 54.8029
4.919, 7, -32.7436, -2.54517, 23.8153, -159.741, -92.4555, 54.8003
4.9283, 7, -32.6938, -2.59102, 23.859, -159.724, -92.445, 54.7917
4.93667, 7, -32.6607, -2.622, 23.8885, -159.712, -92.4377, 54.7854
4.94536, 7, -32.6276, -2.65316, 23.918, -159.7, -92.4301, 54.7787
4.95092, 7, -32.6112, -2.66884, 23.9329, -159.694, -92.426, 54.7751
4.96047, 8, -32.5621, -2.71667, 23.9782, -159.675, -92.4134, 54.7636
4.97092, 8, -32.5296, -2.74899, 24.0086, -159.662, -92.4045, 54.7554
4.97581, 8, -32.5133, -2.76524, 24.0238, -159.656, -92.3998, 54.7511
4.98388, 8, -32.4809, -2.79796, 24.0545, -159.642, -92.39, 54.7422
4.9919, 8, -32.4487, -2.83103, 24.0856, -159.628, -92.3797, 54.7328
4.99898, 8, -32.4166, -2.86448, 24.1169, -159.615, -92.3691, 54.723
5.009, 8, -32.3687, -2.91522, 24.1641, -159.594, -92.3525, 54.7074
5.015, 8, -32.3528, -2.93231, 24.18, -159.587, -92.347, 54.7019
5.02383, 8, -32.3211, -2.96678, 24.212, -159.573, -92.3357, 54.6906
5.03084, 8, -32.2895, -3.00153, 24.2442, -159.559, -92.3242, 54.6789
5.04003, 9, -32.2582, -3.03653, 24.2767, -159.544, -92.3126, 54.6667
5.04789, 9, -32.2269, -3.07184, 24.3094, -159.529, -92.3008, 54.654
5.05486, 9, -32.1958, -3.10756, 24.3424, -159.513, -92.2886, 54.641
5.06386, 9, -32.1647, -3.14355, 24.3755, -159.498, -92.2761, 54.6278
5.0719, 9, -32.1337, -3.17986, 24.4089, -159.482, -92.2631, 54.6144
5.07885, 9, -32.103, -3.21654, 24.4427, -159.466, -92.2494, 54.6009
5.088, 9, -32.0725, -3.25353, 24.4765, -159.45, -92.2353, 54.587
5.09747, 9, -32.042, -3.29097, 24.5105, -159.433, -92.2132, 54.5658
5.10284, 9, -32.0116, -3.32874, 24.5449, -159.417, -92.2058, 54.5585
5.11396, 9, -31.9661, -3.38604, 24.5969, -159.392, -92.1832, 54.536
5.11993, 9, -31.9511, -3.4053, 24.6143, -159.383, -92.1757, 54.5282
5.12784, 10, -31.9212, -3.44418, 24.6495, -159.365, -92.1603, 54.5122
5.13586, 10, -31.8915, -3.48338, 24.6848, -159.347, -92.1447, 54.4957
5.14385, 10, -31.8618, -3.52289, 24.7203, -159.33, -92.1286, 54.4786
5.1519, 10, -31.8322, -3.56271, 24.7563, -159.312, -92.112, 54.4611
5.15993, 10, -31.8028, -3.60288, 24.7924, -159.294, -92.0947, 54.4433
5.168, 10, -31.7736, -3.64334, 24.8287, -159.276, -92.0769, 54.4253
5.17684, 10, -31.7445, -3.68417, 24.8653, -159.258, -92.059, 54.4072
5.18391, 10, -31.7155, -3.72536, 24.9021, -159.239, -92.0409, 54.3889
5.19184, 10, -31.6866, -3.76674, 24.9392, -159.219, -92.0229, 54.3704
5.19984, 10, -31.6579, -3.80854, 24.9765, -159.2, -92.0046, 54.3514
5.20791, 11, -31.6294, -3.85076, 25.0141, -159.18, -91.986, 54.3319
5.21593, 11, -31.6009, -3.89319, 25.0517, -159.161, -91.9668, 54.3119
5.22384, 11, -31.5726, -3.93598, 25.0899, -159.141, -91.9469, 54.2911
5.23184, 11, -31.5442, -3.97918, 25.1282, -159.121, -91.9266, 54.2699
5.23991, 11, -31.5159, -4.02268, 25.1666, -159.1, -91.9061, 54.2486
5.24784, 11, -31.4878, -4.06661, 25.2054, -159.079, -91.8856, 54.2273
5.25588, 11, -31.46, -4.11094, 25.2444, -159.058, -91.865, 54.2058
5.2645, 11, -31.4323, -4.15552, 25.2836, -159.037, -91.844, 54.1839
5.27232, 11, -31.4048, -4.20062, 25.3232, -159.015, -91.8223, 54.1617
5.28004, 11, -31.3771, -4.24604, 25.3629, -158.994, -91.8, 54.1389
5.28814, 11, -31.3497, -4.29173, 25.4028, -158.972, -91.7773, 54.1153
5.29521, 12, -31.3225, -4.33783, 25.4432, -158.95, -91.7545, 54.0912
5.30384, 12, -31.2953, -4.38428, 25.4837, -158.927, -91.7317, 54.0668
5.31273, 12, -31.2684, -4.431, 25.5244, -158.904, -91.7089, 54.0425
5.31998, 12, -31.2417, -4.4781, 25.5655, -158.881, -91.6856, 54.0182
5.32821, 12, -31.215, -4.52544, 25.6068, -158.859, -91.6615, 53.9935
5.33734, 12, -31.1884, -4.57315, 25.6483, -158.835, -91.6369, 53.9683
5.34579, 12, -31.162, -4.62121, 25.69, -158.812, -91.6123, 53.9426
5.35144, 12, -31.1488, -4.64533, 25.7109, -158.799, -91.5876, 53.916
5.36375, 12, -31.1094, -4.7182, 25.7743, -158.763, -91.5501, 53.8757
5.36788, 12, -31.0833, -4.76728, 25.8167, -158.739, -91.5373, 53.8623
5.37594, 13, -31.0572, -4.81678, 25.8593, -158.715, -91.511, 53.8354
5.38477, 13, -31.0314, -4.86663, 25.9023, -158.691, -91.4843, 53.8081
5.39197, 13, -31.0058, -4.91688, 25.9456, -158.666, -91.4577, 53.7803
5.4001, 13, -30.9802, -4.96757, 25.989, -158.64, -91.4312, 53.7518
5.40683, 13, -30.9675, -4.99304, 26.0108, -158.628, -91.4178, 53.7373
5.415, 13, -30.9422, -5.04427, 26.0547, -158.602, -91.3907, 53.7081
5.42425, 13, -30.9041, -5.12173, 26.121, -158.564, -91.3485, 53.6644
5.43241, 13, -30.8789, -5.17386, 26.1654, -158.539, -91.3203, 53.6348
5.44055, 13, -30.8541, -5.2262, 26.2102, -158.512, -91.292, 53.605
5.44842, 13, -30.8293, -5.27883, 26.2552, -158.485, -91.2636, 53.5744
5.45661, 14, -30.8047, -5.33188, 26.3005, -158.459, -91.2344, 53.5431
5.46443, 14, -30.7802, -5.38509, 26.3459, -158.433, -91.2044, 53.5118
5.47249, 14, -30.768, -5.43868, 26.3916, -158.406, -91.1744, 53.4808
5.48063, 14, -30.7434, -5.4656, 26.4146, -158.393, -91.1595, 53.4652
5.48789, 14, -30.7191, -5.51971, 26.4608, -158.365, -91.1297, 53.4335
5.4959, 14, -30.6949, -5.57432, 26.5071, -158.337, -91.0993, 53.4014
5.50387, 14, -30.6709, -5.62918, 26.5537, -158.31, -91.0678, 53.3682
5.51195, 14, -30.6471, -5.68456, 26.6006, -158.282, -91.0361, 53.3346
5.52137, 14, -30.6115, -5.76837, 26.6713, -158.24, -90.9888, 53.2843
5.52683, 14, -30.5997, -5.79649, 26.695, -158.226, -90.9729, 53.2675
5.53798, 14, -30.5645, -5.88137, 26.7665, -158.182, -90.9238, 53.2162
5.54388, 15, -30.5528, -5.90981, 26.7904, -158.168, -90.9072, 53.1987
5.55184, 15, -30.5295, -5.96698, 26.8385, -158.14, -90.8741, 53.1634
5.55885, 15, -30.5064, -6.02437, 26.8868, -158.111, -90.8413, 53.1281
5.56787, 15, -30.4835, -6.08208, 26.9355, -158.081, -90.808, 53.0927
5.57584, 15, -30.4607, -6.14008, 26.9843, -158.05, -90.7737, 53.0569
5.58387, 15, -30.4378, -6.19829, 27.0334, -158.02, -90.7393, 53.0204
5.59199, 15, -30.4152, -6.25689, 27.0827, -157.99, -90.705, 52.9831
5.59983, 15, -30.3928, -6.31588, 27.1323, -157.96, -90.6704, 52.9459
5.60882, 15, -30.3704, -6.37526, 27.1821, -157.929, -90.6347, 52.9085
5.61587, 15, -30.3481, -6.43512, 27.2321, -157.897, -90.5987, 52.8708
5.62482, 16, -30.3261, -6.49542, 27.2825, -157.866, -90.5632, 52.8323
5.63186, 16, -30.3041, -6.55615, 27.333, -157.835, -90.5274, 52.7932
5.63984, 16, -30.2821, -6.61723, 27.3837, -157.804, -90.4906, 52.7544
5.6479, 16, -30.2603, -6.67876, 27.4349, -157.771, -90.4534, 52.7153
5.65589, 16, -30.2387, -6.74049, 27.4861, -157.739, -90.4167, 52.6758
5.66383, 16, -30.2171, -6.80261, 27.5377, -157.708, -90.3795, 52.6356
5.6719, 16, -30.1956, -6.86496, 27.5895, -157.676, -90.3411, 52.5949
5.67986, 16, -30.1743, -6.92756, 27.6416, -157.642, -90.3027, 52.5547
5.68797, 16, -30.1532, -6.99044, 27.6939, -157.609, -90.2646, 52.5141
5.69528, 16, -30.1321, -7.0537, 27.7465, -157.577, -90.226, 52.4728
5.70293, 16, -30.111, -7.11725, 27.7994, -157.544, -90.1863, 52.4307
5.71183, 17, -30.0902, -7.1813, 27.8523, -157.511, -90.1468, 52.389
5.71989, 17, -30.0697, -7.2457, 27.9056, -157.476, -90.1074, 52.3473
5.72783, 17, -30.0491, -7.31057, 27.9591, -157.443, -90.0671, 52.3052
5.73585, 17, -30.0286, -7.37586, 28.0129, -157.409, -90.0262, 52.2621
5.74394, 17, -30.0084, -7.44156, 28.0669, -157.375, -89.9858, 52.2186
5.75183, 17, -29.9882, -7.50758, 28.1212, -157.34, -89.9452, 52.1755
5.76005, 17, -29.968, -7.57395, 28.1757, -157.305, -89.9034, 52.132
5.76869, 17, -29.948, -7.64055, 28.2305, -157.271, -89.8616, 52.0877
5.77587, 17, -29.9282, -7.70745, 28.2855, -157.236, -89.8201, 52.0431
5.78576, 17, -29.9086, -7.7746, 28.3409, -157.2, -89.7777, 51.9988
5.79183, 18, -29.8889, -7.84198, 28.3964, -157.164, -89.7345, 51.954
5.79992, 18, -29.8694, -7.90982, 28.4522, -157.128, -89.6922, 51.9084
5.8079, 18, -29.8501, -7.97795, 28.5082, -157.092, -89.6494, 51.8621
5.81599, 18, -29.8308, -8.04642, 28.5643, -157.055, -89.6056, 51.8163
5.82396, 18, -29.8115, -8.11537, 28.6209, -157.018, -89.562, 51.7702
5.83192, 18, -29.7925, -8.18465, 28.6777, -156.982, -89.5185, 51.7231
5.84261, 18, -29.7736, -8.25435, 28.7347, -156.945, -89.4736, 51.6755
5.84734, 18, -29.7642, -8.28938, 28.7633, -156.926, -89.4286, 51.6284
5.85584, 18, -29.7361, -8.39478, 28.8495, -156.87, -89.3842, 51.5811
5.86468, 18, -29.7175, -8.46542, 28.9073, -156.833, -89.3388, 51.5328
5.87186, 18, -29.6991, -8.53642, 28.9653, -156.795, -89.2928, 51.4841
5.87985, 19, -29.6806, -8.6077, 29.0236, -156.756, -89.2473, 51.4359
5.88684, 19, -29.6715, -8.64349, 29.0528, -156.737, -89.2244, 51.4118
5.89487, 19, -29.6532, -8.71526, 29.1114, -156.7, -89.1776, 51.363
5.90409, 19, -29.626, -8.82357, 29.1997, -156.642, -89.1077, 51.2892
5.91094, 19, -29.6171, -8.85983, 29.2292, -156.622, -89.0845, 51.2649
5.91882, 19, -29.5993, -8.93264, 29.2886, -156.584, -89.0371, 51.2159
5.92687, 19, -29.5815, -9.00576, 29.3481, -156.545, -88.9897, 51.1659
5.93674, 19, -29.5552, -9.11615, 29.438, -156.485, -88.9186, 51.0902
5.94533, 19, -29.5378, -9.19015, 29.4982, -156.446, -88.8701, 51.0398
5.95092, 19, -29.5292, -9.22728, 29.5284, -156.426, -88.846, 51.0144
5.96038, 20, -29.5031, -9.33911, 29.6194, -156.366, -88.774, 50.937
5.96899, 20, -29.4945, -9.41417, 29.6803, -156.325, -88.7248, 50.8857
5.97647, 20, -29.4774, -9.48947, 29.7414, -156.285, -88.6761, 50.834
5.98382, 20, -29.4604, -9.52721, 29.772, -156.264, -88.6518, 50.8077
5.99186, 20, -29.4435, -9.60301, 29.8333, -156.223, -88.6021, 50.7547
5.99881, 20, -29.4266, -9.67911, 29.895, -156.181, -88.5522, 50.7022
6.00796, 20, -29.41, -9.7556, 29.9569, -156.14, -88.5028, 50.6495
6.01859, 20, -29.3854, -9.87086, 30.0503, -156.078, -88.4269, 50.5687
6.02387, 20, -29.3773, -9.90944, 30.0816, -156.057, -88.4016, 50.542
6.03315, 20, -29.3528, -10.0257, 30.1758, -155.994, -88.3256, 50.4618
6.03884, 20, -29.3446, -10.0645, 30.2073, -155.973, -88.2997, 50.4346
6.04781, 21, -29.3284, -10.1427, 30.2705, -155.93, -88.2484, 50.38
6.05729, 21, -29.3044, -10.2603, 30.3657, -155.866, -88.1711, 50.2985
6.06283, 21, -29.2964, -10.2997, 30.3975, -155.845, -88.145, 50.2712
6.07184, 21, -29.2805, -10.3787, 30.4612, -155.802, -88.0933, 50.2159
6.08151, 21, -29.257, -10.4976, 30.5573, -155.737, -88.0145, 50.1339
6.08861, 21, -29.2493, -10.5374, 30.5895, -155.715, -87.988, 50.1065
6.09487, 21, -29.2338, -10.6173, 30.654, -155.672, -87.9357, 50.0509
6.10391, 21, -29.2184, -10.6975, 30.7187, -155.628, -87.8827, 49.9952
6.11185, 21, -29.2031, -10.7779, 30.7838, -155.584, -87.8292, 49.9398
6.12082, 21, -29.1877, -10.8587, 30.849, -155.54, -87.7763, 49.8836
6.13106, 22, -29.1649, -10.9804, 30.9473, -155.472, -87.6948, 49.7989
6.13588, 22, -29.1573, -11.0211, 30.9802, -155.45, -87.668, 49.7709
6.14382, 22, -29.1424, -11.1028, 31.046, -155.406, -87.6143, 49.7144
6.15189, 22, -29.1275, -11.1848, 31.1119, -155.36, -87.5591, 49.6569
6.15985, 22, -29.1127, -11.2671, 31.1781, -155.314, -87.5046, 49.5999
6.16781, 22, -29.0982, -11.3497, 31.2445, -155.269, -87.4494, 49.5432
6.17589, 22, -29.0837, -11.4325, 31.3112, -155.223, -87.3937, 49.4854
6.18399, 22, -29.0693, -11.5158, 31.3781, -155.176, -87.3389, 49.4277
6.19181, 22, -29.055, -11.5993, 31.4454, -155.13, -87.2829, 49.3702
6.19988, 22, -29.0407, -11.6831, 31.5128, -155.084, -87.2271, 49.3118
6.2082, 23, -29.0265, -11.7672, 31.5804, -155.037, -87.1713, 49.2532
6.21493, 23, -29.0125, -11.8515, 31.6481, -154.99, -87.1143, 49.1952
6.22381, 23, -28.9985, -11.9361, 31.716, -154.944, -87.0584, 49.1365
6.23187, 23, -28.9846, -12.021, 31.784, -154.896, -87.0016, 49.0775
6.23981, 23, -28.9707, -12.1061, 31.8523, -154.849, -86.9445, 49.0191
6.24782, 23, -28.9569, -12.1914, 31.9208, -154.802, -86.8879, 48.9603
6.25607, 23, -28.9432, -12.2771, 31.9896, -154.753, -86.8297, 48.9005
6.2638, 23, -28.9297, -12.3631, 32.0586, -154.706, -86.7725, 48.8414
6.27181, 23, -28.9162, -12.4494, 32.1279, -154.658, -86.7144, 48.782
6.27997, 23, -28.9029, -12.5358, 32.1973, -154.609, -86.6559, 48.7221
6.28781, 23, -28.8895, -12.6226, 32.2669, -154.56, -86.598, 48.6629
6.29582, 24, -28.8762, -12.7096, 32.3367, -154.512, -86.5387, 48.6034
6.3052, 24, -28.863, -12.7969, 32.4066, -154.462, -86.4806, 48.5428
6.31138, 24, -28.8499, -12.8843, 32.4766, -154.413, -86.4214, 48.4829
6.31996, 24, -28.8369, -12.9721, 32.5468, -154.363, -86.3623, 48.423
6.32821, 24, -28.8241, -13.0602, 32.6173, -154.313, -86.3031, 48.3619
6.33583, 24, -28.8112, -13.1486, 32.688, -154.263, -86.2429, 48.3015
6.34398, 24, -28.7985, -13.2372, 32.759, -154.213, -86.1838, 48.2412
6.35195, 24, -28.786, -13.3261, 32.8302, -154.162, -86.1237, 48.18
6.35981, 24, -28.7734, -13.4152, 32.9015, -154.113, -86.0638, 48.1192
6.3679, 24, -28.7609, -13.5045, 32.973, -154.062, -86.0038, 48.0586
6.37585, 25, -28.7484, -13.5941, 33.0445, -154.011, -85.9429, 47.9972
6.38385, 25, -28.7358, -13.6838, 33.1162, -153.961, -85.883, 47.9365
6.39194, 25, -28.7232, -13.7738, 33.1881, -153.909, -85.8218, 47.876
6.40029, 25, -28.7108, -13.8642, 33.2602, -153.857, -85.7612, 47.8146
6.40686, 25, -28.7047, -13.9094, 33.2964, -153.832, -85.7308, 47.784
6.4162, 25, -28.6865, -14.0454, 33.405, -153.754, -85.6385, 47.693
6.4228, 25, -28.6804, -14.0908, 33.4414, -153.728, -85.6081, 47.6624
6.43103, 25, -28.6686, -14.1818, 33.5142, -153.676, -85.5467, 47.601
6.43878, 25, -28.6567, -14.2731, 33.5871, -153.624, -85.4851, 47.5405
6.44936, 25, -28.639, -14.4103, 33.6968, -153.545, -85.3924, 47.4486
6.45639, 25, -28.6273, -14.5021, 33.77, -153.492, -85.3307, 47.3873
6.4644, 26, -28.6157, -14.5942, 33.8433, -153.438, -85.2689, 47.3265
6.47298, 26, -28.6099, -14.6865, 33.9168, -153.386, -85.2064, 47.2648
6.4804, 26, -28.5983, -14.7327, 33.9537, -153.359, -85.1446, 47.2035
6.48841, 26, -28.5868, -14.8252, 34.0275, -153.305, -85.1131, 47.1428
6.49581, 26, -28.5752, -14.9179, 34.1016, -153.252, -85.0504, 47.112
6.50394, 26, -28.5635, -15.0107, 34.1758, -153.199, -84.9881, 47.0503
6.51329, 26, -28.5519, -15.1037, 34.2873, -153.118, -84.8936, 46.9593
6.5188, 26, -28.5404, -15.1969, 34.3246, -153.091, -84.8623, 46.9287
6.52779, 26, -28.529, -15.2902, 34.3991, -153.036, -84.7987, 46.8674
6.5348, 26, -28.5176, -15.3839, 34.4737, -152.982, -84.7358, 46.8073
6.54376, 27, -28.5064, -15.4777, 34.5485, -152.928, -84.6724, 46.7469
6.55515, 27, -28.4894, -15.6186, 34.661, -152.845, -84.5776, 46.6555
6.5588, 27, -28.4839, -15.6658, 34.6985, -152.818, -84.5457, 46.6255
6.5678, 27, -28.4728, -15.7602, 34.7738, -152.763, -84.4816, 46.565
6.57586, 27, -28.4617, -15.8546, 34.8492, -152.707, -84.4185, 46.504
6.58309, 27, -28.4507, -15.9494, 34.9248, -152.652, -84.3543, 46.4438
6.59178, 27, -28.4396, -16.0444, 35.0004, -152.596, -84.2909, 46.3835
6.60139, 27, -28.4286, -16.1396, 35.1139, -152.513, -84.1943, 46.2923
6.60779, 27, -28.4175, -16.2348, 35.1518, -152.484, -84.1626, 46.2623
6.61679, 27, -28.4064, -16.3301, 35.2276, -152.428, -84.0985, 46.2022
6.62386, 27, -28.3955, -16.4256, 35.3036, -152.372, -84.0339, 46.1414
6.6328, 28, -28.3846, -16.5212, 35.3798, -152.315, -83.9698, 46.0815
6.6398, 28, -28.3736, -16.617, 35.4562, -152.259, -83.9047, 46.0218
6.6479, 28, -28.3627, -16.7128, 35.5327, -152.203, -83.8409, 45.9616
6.65581, 28, -28.3519, -16.809, 35.6093, -152.145, -83.7759, 45.9021
6.6638, 28, -28.341, -16.9052, 35.6859, -152.089, -83.7116, 45.8432
6.67186, 28, -28.3301, -17.0014, 35.7625, -152.031, -83.6466, 45.7837
6.67999, 28, -28.3194, -17.0977, 35.8391, -151.974, -83.5819, 45.7248
6.68804, 28, -28.3088, -17.1943, 35.9159, -151.917, -83.5173, 45.6666
6.6958, 28, -28.2981, -17.2909, 35.9929, -151.858, -83.452, 45.608
6.70536, 28, -28.2874, -17.3876, 36.07, -151.801, -83.3875, 45.5497
6.71102, 29, -28.2768, -17.4846, 36.1472, -151.742, -83.3218, 45.4922
6.71986, 29, -28.2661, -17.5817, 36.2244, -151.684, -83.2572, 45.4344
6.72784, 29, -28.2553, -17.6789, 36.3018, -151.626, -83.1915, 45.3767
6.73581, 29, -28.2446, -17.7761, 36.3791, -151.567, -83.1263, 45.3199
6.74386, 29, -28.234, -17.8734, 36.4565, -151.509, -83.0605, 45.2632
6.7518, 29, -28.2234, -17.9707, 36.5339, -151.45, -82.9953, 45.2059
6.76162, 29, -28.2127, -18.0682, 36.6114, -151.392, -82.9298, 45.1499
6.76786, 29, -28.2021, -18.1658, 36.689, -151.333, -82.8642, 45.0941
6.7758, 29, -28.1915, -18.2635, 36.7669, -151.274, -82.7987, 45.038
6.78401, 29, -28.1808, -18.3613, 36.8448, -151.215, -82.7329, 44.9827
6.79181, 29, -28.1701, -18.4591, 36.9227, -151.155, -82.6678, 44.9279
6.79979, 30, -28.1596, -18.557, 37.0006, -151.096, -82.6017, 44.8729
6.80783, 30, -28.1491, -18.6549, 37.0785, -151.036, -82.5367, 44.8179
6.81595, 30, -28.1385, -18.7529, 37.1563, -150.975, -82.4705, 44.764
6.82388, 30, -28.128, -18.8509, 37.2342, -150.916, -82.4052, 44.7103
6.83227, 30, -28.1174, -18.9492, 37.3123, -150.855, -82.3391, 44.6563
6.84012, 30, -28.1067, -19.0476, 37.3904, -150.795, -82.2733, 44.6034
6.84745, 30, -28.0959, -19.146, 37.4687, -150.735, -82.2073, 44.5511
6.85613, 30, -28.0852, -19.2444, 37.5469, -150.674, -82.1412, 44.4986
6.86461, 30, -28.0746, -19.3427, 37.6252, -150.614, -82.0757, 44.4463
6.87183, 30, -28.0639, -19.4411, 37.7033, -150.553, -82.0096, 44.3951
6.87983, 31, -28.0531, -19.5395, 37.7815, -150.493, -81.9441, 44.3443
6.88855, 31, -28.0424, -19.6378, 37.8596, -150.432, -81.8778, 44.2934
6.89605, 31, -28.0315, -19.7363, 37.9379, -150.371, -81.8125, 44.2433
6.90279, 31, -28.026, -19.7855, 37.977, -150.341, -81.7796, 44.2187
6.91281, 31, -28.0096, -19.9332, 38.0947, -150.248, -81.6809, 44.1448
6.92015, 31, -27.9988, -20.0317, 38.1732, -150.187, -81.6148, 44.0955
6.92694, 31, -27.9934, -20.0809, 38.2123, -150.156, -81.5817, 44.0712
6.937, 31, -27.9769, -20.2288, 38.3299, -150.064, -81.4832, 43.9994
6.94279, 31, -27.9714, -20.278, 38.369, -150.033, -81.4501, 43.9755
6.9534, 31, -27.9548, -20.426, 38.4862, -149.94, -81.3516, 43.9042
6.96066, 32, -27.9436, -20.5247, 38.5645, -149.878, -81.2854, 43.8578
6.9684, 32, -27.9324, -20.6235, 38.6427, -149.816, -81.2202, 43.8122
6.97643, 32, -27.9269, -20.6729, 38.721, -149.755, -81.1542, 43.7668
6.98285, 32, -27.9157, -20.7715, 38.7602, -149.723, -81.1214, 43.744
6.99238, 32, -27.9044, -20.8701, 38.8385, -149.662, -81.056, 43.6991
6.99978, 32, -27.8931, -20.9688, 38.9168, -149.599, -80.9899, 43.6555
7.00997, 32, -27.8817, -21.0673, 39.0341, -149.506, -80.8919, 43.5908
7.01583, 32, -27.8702, -21.1657, 39.0732, -149.475, -80.859, 43.5693
7.0238, 32, -27.8586, -21.2643, 39.1512, -149.412, -80.794, 43.5268
7.03178, 32, -27.8471, -21.3628, 39.2293, -149.35, -80.7281, 43.4856
7.03879, 32, -27.8356, -21.4612, 39.3074, -149.286, -80.6631, 43.445
7.04778, 33, -27.8239, -21.5595, 39.3855, -149.224, -80.5977, 43.4049
7.05488, 33, -27.8123, -21.6579, 39.4636, -149.161, -80.5322, 43.3649
7.0639, 33, -27.8005, -21.7562, 39.5417, -149.098, -80.4671, 43.3259
7.07178, 33, -27.7885, -21.8545, 39.6197, -149.035, -80.4015, 43.288
7.07978, 33, -27.7764, -21.9528, 39.6975, -148.972, -80.3369, 43.2508
7.0868, 33, -27.7645, -22.0511, 39.7752, -148.91, -80.2713, 43.2139
7.09578, 33, -27.7524, -22.1493, 39.8528, -148.846, -80.2067, 43.1773
7.10392, 33, -27.7402, -22.2473, 39.9305, -148.784, -80.1413, 43.1416
7.11185, 33, -27.7281, -22.3453, 40.0081, -148.72, -80.0768, 43.1074
7.12083, 33, -27.7157, -22.4433, 40.0857, -148.657, -80.012, 43.0738
7.13085, 34, -27.6971, -22.59, 40.2021, -148.561, -79.9152, 43.0244
7.13579, 34, -27.6909, -22.6389, 40.2408, -148.53, -79.8827, 43.008
7.1439, 34, -27.6785, -22.7366, 40.3182, -148.467, -79.8175, 42.9757
7.15179, 34, -27.6659, -22.8342, 40.3954, -148.402, -79.7533, 42.9447
7.15977, 34, -27.6533, -22.9317, 40.4725, -148.339, -79.688, 42.915
7.16778, 34, -27.6405, -23.029, 40.5495, -148.275, -79.6237, 42.8859
7.17604, 34, -27.6275, -23.1263, 40.6264, -148.212, -79.5585, 42.8578
7.18465, 34, -27.6144, -23.2235, 40.7033, -148.147, -79.4944, 42.83
7.19095, 34, -27.6013, -23.3207, 40.7802, -148.084, -79.4295, 42.8027
7.20221, 34, -27.5813, -23.4664, 40.8953, -147.988, -79.333, 42.7638
7.20694, 34, -27.5746, -23.5149, 40.9336, -147.957, -79.3005, 42.7515
7.21584, 35, -27.5612, -23.6119, 41.01, -147.893, -79.2358, 42.7279
7.22389, 35, -27.5476, -23.7086, 41.0863, -147.829, -79.1721, 42.705
7.23182, 35, -27.534, -23.8051, 41.1624, -147.766, -79.1074, 42.6832
7.23985, 35, -27.5203, -23.9015, 41.2384, -147.701, -79.0438, 42.662
7.24779, 35, -27.5065, -23.9977, 41.3144, -147.637, -78.979, 42.6416
7.25759, 35, -27.4926, -24.0938, 41.3903, -147.573, -78.9154, 42.6216
7.26384, 35, -27.4785, -24.1897, 41.4662, -147.509, -78.8513, 42.6028
7.27178, 35, -27.4641, -24.2855, 41.5419, -147.445, -78.7873, 42.5852
7.27979, 35, -27.4497, -24.3811, 41.6175, -147.381, -78.7235, 42.5687
7.28785, 35, -27.4352, -24.4766, 41.6928, -147.317, -78.6593, 42.5533
7.29582, 36, -27.4205, -24.572, 41.7679, -147.253, -78.5962, 42.5391
7.30323, 36, -27.4057, -24.6672, 41.8428, -147.189, -78.5322, 42.526
7.31129, 36, -27.3907, -24.7623, 41.9176, -147.125, -78.4692, 42.514
7.31987, 36, -27.3756, -24.8574, 41.9923, -147.061, -78.4056, 42.5031
7.32787, 36, -27.3604, -24.9524, 42.0669, -146.997, -78.3426, 42.493
7.33595, 36, -27.3451, -25.0473, 42.1414, -146.933, -78.2797, 42.484
7.34419, 36, -27.3297, -25.1419, 42.2157, -146.869, -78.2166, 42.476
7.35177, 36, -27.314, -25.2361, 42.2898, -146.805, -78.1541, 42.469
7.35998, 36, -27.2982, -25.3302, 42.3637, -146.741, -78.0908, 42.4631
7.36871, 36, -27.2822, -25.4241, 42.4373, -146.676, -78.0286, 42.4581
7.37581, 36, -27.2661, -25.5177, 42.5108, -146.613, -77.9657, 42.4544
7.3838, 37, -27.2499, -25.6111, 42.5841, -146.549, -77.9035, 42.4517
7.39248, 37, -27.2334, -25.7045, 42.6573, -146.485, -77.8409, 42.4501
7.39998, 37, -27.2168, -25.7976, 42.7303, -146.421, -77.7785, 42.4494
7.40682, 37, -27.2086, -25.8441, 42.7668, -146.389, -77.7477, 42.4492
7.41698, 37, -27.1834, -25.9832, 42.8758, -146.294, -77.6542, 42.4491
7.42525, 37, -27.1663, -26.0757, 42.9482, -146.23, -77.5927, 42.4496
7.43459, 37, -27.1489, -26.168, 43.0204, -146.167, -77.5304, 42.4515
7.43874, 37, -27.1402, -26.214, 43.0564, -146.135, -77.4993, 42.4533
7.44913, 37, -27.1138, -26.3518, 43.1639, -146.04, -77.4072, 42.4612
7.45477, 37, -27.1049, -26.3977, 43.1996, -146.008, -77.3761, 42.4646
7.46487, 38, -27.078, -26.5349, 43.3066, -145.913, -77.2845, 42.4773
7.47406, 38, -27.0598, -26.6261, 43.3777, -145.85, -77.2225, 42.4875
7.4804, 38, -27.0416, -26.717, 43.4487, -145.786, -77.1617, 42.4991
7.48827, 38, -27.0324, -26.7623, 43.4841, -145.755, -77.1312, 42.5054
7.49577, 38, -27.0138, -26.8528, 43.5547, -145.692, -77.0695, 42.5189
7.50466, 38, -26.9948, -26.943, 43.625, -145.597, -76.9782, 42.5421
7.51181, 38, -26.9756, -27.0329, 43.695, -145.566, -76.9474, 42.5505
7.51981, 38, -26.9563, -27.1226, 43.7648, -145.503, -76.8867, 42.5687
7.52783, 38, -26.9368, -27.2121, 43.8342, -145.441, -76.8262, 42.5884
7.53577, 38, -26.917, -27.3013, 43.9035, -145.378, -76.7651, 42.6098
7.54398, 39, -26.8972, -27.3903, 43.9725, -145.316, -76.7051, 42.633
7.5518, 39, -26.8772, -27.4789, 44.0412, -145.253, -76.6441, 42.6575
7.55978, 39, -26.8569, -27.5673, 44.1097, -145.192, -76.5841, 42.6831
7.56783, 39, -26.8363, -27.6554, 44.1779, -145.129, -76.5239, 42.71
7.57582, 39, -26.8154, -27.7432, 44.246, -145.067, -76.4634, 42.7383
7.58377, 39, -26.7944, -27.8308, 44.3137, -145.005, -76.4038, 42.7683
7.59182, 39, -26.7732, -27.9181, 44.3811, -144.943, -76.343, 42.8002
7.5989, 39, -26.7517, -28.0051, 44.4482, -144.882, -76.2835, 42.8337
7.60678, 39, -26.7301, -28.0917, 44.5149, -144.82, -76.2232, 42.8683
7.61576, 39, -26.7082, -28.1782, 44.5813, -144.759, -76.1632, 42.9041
7.62481, 39, -26.686, -28.2641, 44.6475, -144.698, -76.1036, 42.9416
7.6319, 40, -26.6634, -28.3498, 44.7135, -144.637, -76.0434, 42.9812
7.64081, 40, -26.6407, -28.4352, 44.7792, -144.577, -75.9844, 43.0223
7.64778, 40, -26.6178, -28.5202, 44.8445, -144.516, -75.9245, 43.0645
7.65583, 40, -26.5945, -28.6047, 44.9096, -144.456, -75.8653, 43.108
7.66376, 40, -26.571, -28.6889, 44.9743, -144.395, -75.8059, 43.1534
7.67198, 40, -26.5473, -28.7729, 45.0385, -144.336, -75.7464, 43.2007
7.68062, 40, -26.5232, -28.8563, 45.1026, -144.276, -75.6878, 43.2489
7.68686, 40, -26.4987, -28.9394, 45.1661, -144.216, -75.6283, 43.2987
7.69584, 40, -26.4741, -29.0223, 45.2294, -144.157, -75.5698, 43.3507
7.70376, 40, -26.4491, -29.1048, 45.2922, -144.097, -75.5109, 43.4043
7.71178, 41, -26.4238, -29.1869, 45.3548, -144.039, -75.4519, 43.4586
7.72135, 41, -26.3983, -29.2687, 45.417, -143.98, -75.3938, 43.5149
7.72776, 41, -26.3723, -29.3501, 45.4789, -143.921, -75.3348, 43.5732
7.73588, 41, -26.3461, -29.4311, 45.5404, -143.864, -75.2768, 43.6323
7.74376, 41, -26.3197, -29.5117, 45.6015, -143.805, -75.2184, 43.6933
7.75182, 41, -26.293, -29.592, 45.6622, -143.748, -75.1599, 43.7566
7.75985, 41, -26.266, -29.6717, 45.7224, -143.691, -75.1024, 43.8207
7.76776, 41, -26.2387, -29.751, 45.7823, -143.634, -75.0441, 43.887
7.77928, 41, -26.2109, -29.83, 45.8417, -143.549, -74.9579, 43.9901
7.78386, 41, -26.1827, -29.9084, 45.9007, -143.521, -74.9289, 44.025
7.79182, 41, -26.1544, -29.9865, 45.9594, -143.465, -74.8709, 44.0972
7.79939, 42, -26.1257, -30.0641, 46.0176, -143.409, -74.8141, 44.1708
7.80785, 42, -26.0967, -30.1413, 46.0756, -143.354, -74.7563, 44.2456
7.81579, 42, -26.0673, -30.2182, 46.133, -143.299, -74.6992, 44.3232
7.82388, 42, -26.0374, -30.2944, 46.1899, -143.243, -74.6421, 44.4016
7.83219, 42, -26.0073, -30.3703, 46.2465, -143.189, -74.5845, 44.4826
7.83934, 42, -25.9769, -30.4456, 46.3026, -143.135, -74.528, 44.5647
7.84809, 42, -25.9461, -30.5206, 46.358, -143.081, -74.4705, 44.6489
7.8559, 42, -25.9149, -30.5949, 46.4132, -143.029, -74.4137, 44.7348
7.86384, 42, -25.8831, -30.6687, 46.4678, -142.975, -74.3571, 44.8226
7.87197, 42, -25.8511, -30.742, 46.5219, -142.923, -74.2999, 44.9126
7.87981, 43, -25.8187, -30.8149, 46.5756, -142.872, -74.2438, 45.0043
7.8878, 43, -25.7859, -30.8873, 46.6288, -142.82, -74.1871, 45.0983
7.89627, 43, -25.7528, -30.9592, 46.6815, -142.769, -74.1307, 45.1938
7.90277, 43, -25.736, -30.995, 46.7076, -142.744, -74.1029, 45.2426
7.91201, 43, -25.6853, -31.1015, 46.7855, -142.669, -74.0181, 45.3905
7.91879, 43, -25.6682, -31.1368, 46.8111, -142.644, -73.9901, 45.4409
7.92973, 43, -25.6162, -31.2415, 46.8872, -142.571, -73.9067, 45.5945
7.93621, 43, -25.5807, -31.3107, 46.9374, -142.521, -73.8505, 45.699
7.94275, 43, -25.5628, -31.345, 46.9622, -142.497, -73.823, 45.7521
7.95329, 43, -25.5089, -31.447, 47.0359, -142.426, -73.7393, 45.9139
7.96036, 43, -25.4724, -31.5143, 47.0844, -142.378, -73.6841, 46.0242
7.96833, 44, -25.4354, -31.581, 47.1323, -142.332, -73.629, 46.1363
7.97688, 44, -25.4166, -31.6141, 47.1795, -142.287, -73.5732, 46.2504
7.98434, 44, -25.3789, -31.68, 47.2029, -142.241, -73.5185, 46.3667
7.99242, 44, -25.3409, -31.7454, 47.2493, -142.218, -73.4632, 46.4848
7.99975, 44, -25.3023, -31.81, 47.2951, -142.175, -73.4355, 46.5448
8.00682, 44, -25.2631, -31.8742, 47.3402, -142.131, -73.3811, 46.6661
8.01692, 44, -25.2035, -31.9691, 47.4069, -142.066, -73.299, 46.8514
8.02393, 44, -25.1835, -32.0004, 47.4288, -142.045, -73.2718, 46.9142
8.03175, 44, -25.143, -32.0625, 47.4721, -142.004, -73.2179, 47.0415
8.0398, 44, -25.102, -32.1237, 47.5148, -141.962, -73.1633, 47.1707
8.04772, 45, -25.0606, -32.1842, 47.5569, -141.922, -73.1093, 47.3024
8.05575, 45, -25.0186, -32.244, 47.5982, -141.883, -73.0559, 47.4362
8.06381, 45, -24.9761, -32.3031, 47.639, -141.844, -73.0017, 47.5719
8.0718, 45, -24.9329, -32.3615, 47.6789, -141.806, -72.9485, 47.7097
8.07977, 45, -24.8892, -32.4194, 47.7182, -141.768, -72.8954, 47.8497
8.08678, 45, -24.8451, -32.4764, 47.7569, -141.732, -72.8417, 47.9913
8.09596, 45, -24.8004, -32.5329, 47.7946, -141.696, -72.7893, 48.1351
8.10399, 45, -24.7552, -32.5886, 47.8316, -141.66, -72.7363, 48.2808
8.11174, 45, -24.7095, -32.6435, 47.8681, -141.626, -72.6834, 48.4286
8.12181, 45, -24.64, -32.7242, 47.9213, -141.576, -72.6051, 48.6542
8.12781, 45, -24.6165, -32.7506, 47.9386, -141.56, -72.5786, 48.7303
8.13576, 46, -24.569, -32.8029, 47.9729, -141.527, -72.5265, 48.8841
8.14476, 46, -24.521, -32.8542, 48.0063, -141.496, -72.4752, 49.04
8.15075, 46, -24.4723, -32.9046, 48.0388, -141.466, -72.4229, 49.1978
8.15974, 46, -24.4233, -32.9541, 48.0708, -141.437, -72.3716, 49.358
8.16775, 46, -24.3736, -33.0028, 48.1019, -141.409, -72.3204, 49.5204
8.1759, 46, -24.3233, -33.0506, 48.1321, -141.381, -72.2688, 49.6849
8.18376, 46, -24.2725, -33.0977, 48.1615, -141.355, -72.2184, 49.8512
8.19184, 46, -24.2212, -33.144, 48.1901, -141.329, -72.1679, 50.0194
8.19976, 46, -24.1691, -33.1894, 48.2178, -141.305, -72.1171, 50.1896
8.20775, 46, -24.1165, -33.2338, 48.2446, -141.282, -72.0676, 50.3615
8.21581, 47, -24.0633, -33.2772, 48.2705, -141.259, -72.0177, 50.5356
8.22391, 47, -24.0093, -33.3197, 48.2956, -141.237, -71.9677, 50.7117
8.23175, 47, -23.9547, -33.3611, 48.3198, -141.217, -71.9191, 50.8899
8.23979, 47, -23.8996, -33.4014, 48.343, -141.198, -71.8701, 51.0702
8.24781, 47, -23.8438, -33.4406, 48.3653, -141.18, -71.821, 51.2523
8.25581, 47, -23.7873, -33.4787, 48.3867, -141.163, -71.773, 51.4366
8.26375, 47, -23.7303, -33.5158, 48.4074, -141.148, -71.7248, 51.6229
8.27196, 47, -23.6726, -33.5519, 48.4272, -141.133, -71.6767, 51.8117
8.27929, 47, -23.6143, -33.5868, 48.4458, -141.119, -71.6297, 52.0024
8.28726, 47, -23.5553, -33.6209, 48.4635, -141.107, -71.5829, 52.1951
8.29621, 48, -23.4956, -33.6538, 48.4802, -141.095, -71.5359, 52.3897
8.30311, 48, -23.4353, -33.6856, 48.4957, -141.084, -71.4901, 52.5861
8.31123, 48, -23.3743, -33.7162, 48.5103, -141.075, -71.4444, 52.7848
8.3192, 48, -23.3127, -33.7458, 48.5238, -141.067, -71.3983, 52.9854
8.32724, 48, -23.2505, -33.7741, 48.5364, -141.061, -71.3537, 53.188
8.33557, 48, -23.1875, -33.8011, 48.5479, -141.055, -71.3096, 53.3925
8.34526, 48, -23.124, -33.8268, 48.5583, -141.051, -71.2651, 53.599
8.35384, 48, -23.0598, -33.8514, 48.5679, -141.049, -71.2215, 53.8078
8.35995, 48, -22.9948, -33.8748, 48.5763, -141.047, -71.1789, 54.0187
8.37152, 48, -22.9291, -33.8967, 48.5835, -141.046, -71.1359, 54.2314
8.37575, 48, -22.8627, -33.9176, 48.5897, -141.046, -71.0932, 54.4459
8.38404, 49, -22.7956, -33.9371, 48.5948, -141.047, -71.0519, 54.6619
8.39232, 49, -22.7279, -33.9551, 48.5987, -141.049, -71.0109, 54.8798
8.39984, 49, -22.6596, -33.9719, 48.6013, -141.054, -70.9697, 55.0999
8.408, 49, -22.5905, -33.9875, 48.6028, -141.059, -70.9296, 55.3216
8.41483, 49, -22.5558, -33.9948, 48.6032, -141.062, -70.9099, 55.4332
8.42293, 49, -22.4858, -34.008, 48.6035, -141.071, -70.8709, 55.6577
8.43223, 49, -22.3793, -34.0251, 48.6021, -141.086, -70.8124, 55.998
8.44013, 49, -22.3075, -34.0348, 48.5998, -141.098, -70.7749, 56.2277
8.44674, 49, -22.2714, -34.0392, 48.5982, -141.105, -70.7565, 56.3432
8.45628, 49, -22.1617, -34.0502, 48.5916, -141.127, -70.7018, 56.6923
8.46429, 50, -22.0879, -34.0555, 48.5854, -141.144, -70.6657, 56.9268
8.4723, 50, -22.0135, -34.0594, 48.578, -141.162, -70.6309, 57.1634
8.48055, 50, -21.9383, -34.0617, 48.5692, -141.181, -70.597, 57.4021
8.48827, 50, -21.9005, -34.0623, 48.5643, -141.191, -70.5636, 57.6423
8.49625, 50, -21.8244, -34.0628, 48.5536, -141.213, -70.5468, 57.7631
8.5038, 50, -21.7473, -34.062, 48.5417, -141.236, -70.514, 58.006
8.51174, 50, -21.6694, -34.0596, 48.5284, -141.262, -70.4826, 58.2509
8.51989, 50, -21.5908, -34.0557, 48.5137, -141.288, -70.4523, 58.4977
8.5294, 50, -21.5117, -34.0466, 48.489, -141.33, -70.4078, 58.8707
8.53576, 50, -21.432, -34.0427, 48.4802, -141.344, -70.3932, 58.9958
8.54612, 51, -21.3114, -34.0282, 48.4515, -141.391, -70.351, 59.3731
8.55073, 51, -21.2708, -34.0226, 48.4412, -141.408, -70.3375, 59.4999
8.55973, 51, -21.1893, -34.0099, 48.4197, -141.442, -70.3115, 59.7544
8.56773, 51, -21.107, -33.9958, 48.3966, -141.477, -70.2861, 60.0105
8.57584, 51, -21.0238, -33.9796, 48.3722, -141.514, -70.2613, 60.2682
8.58375, 51, -20.94, -33.9614, 48.3463, -141.553, -70.2372, 60.5276
8.59173, 51, -20.8554, -33.9415, 48.3192, -141.593, -70.2143, 60.7889
8.59889, 51, -20.7703, -33.9197, 48.2906, -141.635, -70.1928, 61.0515
8.60682, 51, -20.6845, -33.896, 48.2605, -141.678, -70.1726, 61.3154
8.6158, 51, -20.5982, -33.8706, 48.229, -141.723, -70.1535, 61.5809
8.6255, 51, -20.5114, -33.843, 48.1962, -141.769, -70.1354, 61.8482
8.63173, 52, -20.424, -33.8137, 48.1618, -141.817, -70.1182, 62.1166
8.6398, 52, -20.3358, -33.7826, 48.126, -141.866, -70.1018, 62.3864
8.64773, 52, -20.247, -33.7494, 48.0888, -141.917, -70.0865, 62.6579
8.65576, 52, -20.1575, -33.7143, 48.0499, -141.97, -70.0725, 62.9313
8.66387, 52, -20.0674, -33.6771, 48.0097, -142.023, -70.06, 63.2056
8.67187, 52, -19.9767, -33.638, 47.9681, -142.078, -70.0488, 63.4809
8.68065, 52, -19.8853, -33.5967, 47.9249, -142.135, -70.0389, 63.7575
8.68773, 52, -19.7935, -33.5534, 47.8802, -142.193, -70.0304, 64.0356
8.69576, 52, -19.7012, -33.5082, 47.834, -142.253, -70.0233, 64.3147
8.70383, 52, -19.6085, -33.4608, 47.7864, -142.313, -70.0175, 64.5949
8.71173, 52, -19.5152, -33.4114, 47.7372, -142.376, -70.013, 64.8765
8.72131, 53, -19.4213, -33.3601, 47.6865, -142.44, -70.0099, 65.1597
8.7272, 53, -19.3268, -33.3066, 47.6343, -142.506, -70.0081, 65.4437
8.73486, 53, -19.2317, -33.2512, 47.5806, -142.573, -70.0073, 65.7289
8.74378, 53, -19.1361, -33.1935, 47.5254, -142.642, -70.0075, 66.015
8.75174, 53, -19.0399, -33.1338, 47.4686, -142.712, -70.0089, 66.3026
8.75979, 53, -18.9434, -33.072, 47.4102, -142.783, -70.0118, 66.5909
8.76773, 53, -18.8463, -33.0079, 47.3503, -142.856, -70.0162, 66.8804
8.77755, 53, -18.7489, -32.9416, 47.2889, -142.929, -70.0223, 67.1714
8.78289, 53, -18.6509, -32.873, 47.2258, -143.005, -70.0302, 67.4633
8.79173, 53, -18.5524, -32.8023, 47.1612, -143.081, -70.0399, 67.7558
8.79972, 54, -18.4534, -32.7293, 47.0951, -143.159, -70.0513, 68.0489
8.80783, 54, -18.3538, -32.654, 47.0274, -143.238, -70.0647, 68.343
8.81576, 54, -18.2539, -32.5766, 46.9583, -143.319, -70.08, 68.638
8.8238, 54, -18.1537, -32.4971, 46.8876, -143.401, -70.0975, 68.9335
8.83189, 54, -18.0531, -32.4155, 46.8154, -143.484, -70.1169, 69.23
8.83983, 54, -17.952, -32.3315, 46.7415, -143.568, -70.1378, 69.5276
8.84807, 54, -17.8506, -32.2453, 46.6661, -143.654, -70.1603, 69.8258
8.85584, 54, -17.7489, -32.1568, 46.589, -143.74, -70.1843, 70.1246
8.86388, 54, -17.6467, -32.0659, 46.5103, -143.828, -70.2102, 70.424
8.87193, 54, -17.5443, -31.9727, 46.4303, -143.917, -70.2386, 70.7243
8.88006, 55, -17.4415, -31.8772, 46.3487, -144.007, -70.2691, 71.025
8.88677, 55, -17.3901, -31.8286, 46.3073, -144.052, -70.2848, 71.1755
8.89667, 55, -17.2353, -31.6794, 46.1812, -144.19, -70.3344, 71.6287
8.90383, 55, -17.1317, -31.577, 46.0951, -144.283, -70.3701, 71.9316
8.91196, 55, -17.0277, -31.4722, 46.0074, -144.378, -70.4083, 72.2345
8.92109, 55, -16.9234, -31.3652, 45.9181, -144.473, -70.4478, 72.5376
8.93201, 55, -16.7664, -31.2004, 45.781, -144.617, -70.5104, 72.9934
8.93469, 55, -16.7664, -31.2004, 45.781, -144.617, -70.5104, 72.9934
8.94413, 55, -16.6092, -31.0307, 45.6408, -144.764, -70.5787, 73.4498
8.95305, 55, -16.5043, -30.9149, 45.5456, -144.862, -70.6258, 73.7544
8.95873, 55, -16.4518, -30.8561, 45.4975, -144.912, -70.6503, 73.907
8.96827, 56, -16.294, -30.6758, 45.3507, -145.062, -70.7274, 74.3649
8.97694, 56, -16.1886, -30.5527, 45.2508, -145.163, -70.7804, 74.67
8.98433, 56, -16.1358, -30.4272, 45.1492, -145.265, -70.8367, 74.9756
8.99238, 56, -16.03, -30.2995, 45.0464, -145.368, -70.8946, 75.2814
8.99971, 56, -15.9241, -30.2349, 44.9946, -145.419, -70.9241, 75.4342
9.00678, 56, -15.8182, -30.1039, 44.8898, -145.523, -70.9858, 75.7401
9.01681, 56, -15.6594, -29.9028, 44.7302, -145.679, -71.081, 76.1998
9.02389, 56, -15.6064, -29.8345, 44.6761, -145.731, -71.1142, 76.3529
9.03174, 56, -15.5003, -29.6965, 44.5669, -145.836, -71.182, 76.6589
9.03973, 56, -15.3941, -29.5564, 44.456, -145.942, -71.2514, 76.9645
9.04792, 57, -15.2878, -29.4142, 44.3439, -146.048, -71.3232, 77.2702
9.05572, 57, -15.1816, -29.2695, 44.2307, -146.155, -71.397, 77.5758
9.06379, 57, -15.0752, -29.1226, 44.1162, -146.262, -71.4733, 77.881
9.07172, 57, -14.969, -28.9734, 44.0003, -146.369, -71.5516, 78.1861
9.07982, 57, -14.8628, -28.8222, 43.8828, -146.476, -71.6317, 78.4912
9.08772, 57, -14.7567, -28.6688, 43.7638, -146.583, -71.7145, 78.796
9.09585, 57, -14.6507, -28.513, 43.6438, -146.691, -71.7993, 79.1001
9.10454, 57, -14.5448, -28.3548, 43.5226, -146.799, -71.8865, 79.404
9.11072, 57, -14.439, -28.1946, 43.4003, -146.908, -71.9758, 79.7078
9.12193, 57, -14.2804, -27.9511, 43.2143, -147.071, -72.114, 80.1621
9.12777, 57, -14.2276, -27.8689, 43.1516, -147.125, -72.1611, 80.3135
9.1368, 58, -14.122, -27.7024, 43.0251, -147.233, -72.2566, 80.6163
9.14373, 58, -14.0166, -27.5339, 42.8977, -147.342, -72.3546, 80.9181
9.15178, 58, -13.9114, -27.364, 42.7691, -147.45, -72.4546, 81.2191
9.15971, 58, -13.8065, -27.1925, 42.6395, -147.559, -72.5567, 81.5192
9.16771, 58, -13.7018, -27.0187, 42.5086, -147.667, -72.6614, 81.8191
9.17585, 58, -13.5975, -26.8422, 42.3766, -147.776, -72.7681, 82.1182
9.18369, 58, -13.4936, -26.6638, 42.2435, -147.884, -72.8769, 82.4162
9.19178, 58, -13.3897, -26.4841, 42.1093, -147.992, -72.9879, 82.7138
9.19974, 58, -13.286, -26.3024, 41.9741, -148.099, -73.1008, 83.0106
9.20773, 58, -13.1824, -26.118, 41.8379, -148.206, -73.2161, 83.3065
9.21575, 59, -13.0792, -25.9316, 41.7008, -148.313, -73.3332, 83.6012
9.2238, 59, -12.9763, -25.7442, 41.5629, -148.42, -73.4523, 83.8951
9.23171, 59, -12.8738, -25.5553, 41.4239, -148.526, -73.5737, 84.1883
9.23981, 59, -12.7718, -25.3642, 41.2838, -148.632, -73.6969, 84.4801
9.24783, 59, -12.6702, -25.1713, 41.1429, -148.737, -73.8223, 84.7711
9.25571, 59, -12.5688, -24.9773, 41.0013, -148.842, -73.9495, 85.0616
9.26373, 59, -12.4676, -24.7817, 40.859, -148.946, -74.0789, 85.3507
9.27192, 59, -12.3667, -24.5838, 40.7156, -149.05, -74.2102, 85.6383
9.27927, 59, -12.266, -24.3842, 40.5713, -149.153, -74.3437, 85.9247
9.28777, 59, -12.1658, -24.1836, 40.4262, -149.256, -74.4789, 86.2101
9.29594, 59, -12.0662, -23.9812, 40.2808, -149.357, -74.6159, 86.494
9.30373, 60, -11.9672, -23.7766, 40.1347, -149.459, -74.7549, 86.7764
9.31173, 60, -11.8687, -23.5705, 39.9879, -149.559, -74.8955, 87.0575
9.32055, 60, -11.7707, -23.3632, 39.8404, -149.659, -75.0382, 87.3376
9.32778, 60, -11.673, -23.1538, 39.6925, -149.758, -75.1823, 87.6161
9.33605, 60, -11.5755, -22.943, 39.544, -149.855, -75.3286, 87.8931
9.34507, 60, -11.4784, -22.7317, 39.3948, -149.952, -75.4762, 88.1683
9.35378, 60, -11.3818, -22.5193, 39.245, -150.049, -75.6259, 88.4425
9.3593, 60, -11.3336, -22.3053, 39.0946, -150.144, -75.7769, 88.7152
9.37165, 60, -11.1902, -22.0904, 38.9442, -150.285, -76.0064, 89.121
9.37574, 60, -11.0955, -21.8744, 38.7933, -150.332, -76.0837, 89.2556
9.38381, 61, -11.0013, -21.6565, 38.6417, -150.425, -76.2396, 89.5239
9.39227, 61, -10.9077, -21.4373, 38.4898, -150.516, -76.3968, 89.79
9.39989, 61, -10.8146, -21.2176, 38.3379, -150.606, -76.5555, 90.0541
9.40787, 61, -10.7219, -20.9965, 38.186, -150.696, -76.7158, 90.3161
9.41677, 61, -10.6297, -20.774, 38.0336, -150.784, -76.8775, 90.5768
9.42435, 61, -10.5381, -20.5511, 37.8808, -150.871, -77.041, 90.8357
9.43205, 61, -10.4471, -20.327, 37.7278, -150.957, -77.2057, 91.0927
9.43879, 61, -10.4017, -20.2144, 37.6513, -151, -77.2885, 91.2203
9.44856, 61, -10.2667, -19.8757, 37.4216, -151.126, -77.5389, 91.6004
9.45622, 61, -10.1776, -19.6494, 37.2681, -151.209, -77.7072, 91.8517
9.46423, 61, -10.0891, -19.422, 37.1147, -151.291, -77.8769, 92.1006
9.47229, 62, -10.0012, -19.1939, 36.9618, -151.371, -78.0474, 92.3472
9.48033, 62, -9.91375, -18.9655, 36.8089, -151.45, -78.2191, 92.5916
9.48827, 62, -9.87031, -18.8509, 36.6556, -151.528, -78.3918, 92.8342
9.49645, 62, -9.784, -18.6208, 36.5789, -151.566, -78.4784, 93.0746
9.50433, 62, -9.69836, -18.3908, 36.4256, -151.642, -78.6523, 93.3127
9.51171, 62, -9.61321, -18.1609, 36.2728, -151.716, -78.8274, 93.4309
9.51976, 62, -9.52863, -17.9304, 36.12, -151.79, -79.0033, 93.6658
9.52789, 62, -9.44454, -17.6998, 35.9672, -151.862, -79.1801, 93.8988
9.53575, 62, -9.36114, -17.469, 35.8146, -151.933, -79.3579, 94.1294
9.546, 62, -9.23718, -17.121, 35.5868, -152.037, -79.6259, 94.4703
9.55172, 63, -9.19619, -17.0048, 35.511, -152.071, -79.7157, 94.5827
9.5597, 63, -9.11474, -16.7726, 35.3594, -152.138, -79.8958, 94.8054
9.5677, 63, -9.03395, -16.5399, 35.208, -152.204, -80.0767, 95.0259
9.57578, 63, -8.95372, -16.3068, 35.0572, -152.268, -80.2583, 95.2439
9.58376, 63, -8.87424, -16.0741, 34.907, -152.331, -80.4403, 95.459
9.5907, 63, -8.79537, -15.8413, 34.7571, -152.392, -80.6232, 95.6714
9.59986, 63, -8.71718, -15.6081, 34.6074, -152.452, -80.8065, 95.8813
9.60767, 63, -8.63983, -15.3756, 34.4583, -152.511, -80.9902, 96.0888
9.61577, 63, -8.56305, -15.1435, 34.3099, -152.568, -81.1742, 96.2938
9.62271, 63, -8.48685, -14.911, 34.1621, -152.624, -81.3587, 96.4957
9.6319, 64, -8.41143, -14.6789, 34.0147, -152.678, -81.5435, 96.6948
9.63977, 64, -8.33661, -14.4469, 33.8678, -152.731, -81.7284, 96.8907
9.64878, 64, -8.26233, -14.2144, 33.7216, -152.783, -81.9137, 97.0839
9.6557, 64, -8.18864, -13.9821, 33.5763, -152.833, -82.099, 97.2744
9.66377, 64, -8.1156, -13.751, 33.4314, -152.882, -82.2846, 97.4621
9.67186, 64, -8.04318, -13.52, 33.2871, -152.93, -82.4704, 97.6466
9.67979, 64, -7.97142, -13.2895, 33.1435, -152.976, -82.6565, 97.8283
9.68769, 64, -7.90049, -13.06, 33.0008, -153.021, -82.8426, 98.0069
9.6957, 64, -7.83014, -12.8305, 32.8588, -153.064, -83.0287, 98.1825
9.70381, 64, -7.76042, -12.6011, 32.7175, -153.106, -83.215, 98.3553
9.71171, 64, -7.69148, -12.3727, 32.5769, -153.147, -83.4014, 98.5248
9.72129, 65, -7.62315, -12.1447, 32.4371, -153.186, -83.5877, 98.6911
9.72769, 65, -7.5554, -11.9167, 32.2985, -153.224, -83.774, 98.8539
9.73578, 65, -7.4885, -11.6898, 32.1606, -153.259, -83.9601, 99.0133
9.74371, 65, -7.42215, -11.4636, 32.0236, -153.294, -84.1463, 99.1694
9.75175, 65, -7.35631, -11.2373, 31.8873, -153.328, -84.3322, 99.3221
9.75976, 65, -7.29114, -11.0119, 31.752, -153.36, -84.5181, 99.4716
9.7677, 65, -7.22653, -10.7877, 31.6177, -153.391, -84.7036, 99.6179
9.77751, 65, -7.16258, -10.564, 31.4843, -153.419, -84.889, 99.7604
9.78284, 65, -7.09924, -10.3409, 31.3518, -153.447, -85.0742, 99.8996
9.7917, 65, -7.03657, -10.1191, 31.2203, -153.475, -85.2589, 100.035
9.79938, 66, -6.97451, -9.89782, 31.0897, -153.5, -85.4434, 100.167
9.80776, 66, -6.9129, -9.67675, 30.9602, -153.524, -85.6275, 100.295
9.8157, 66, -6.852, -9.45731, 30.8316, -153.546, -85.8114, 100.419
9.82374, 66, -6.7917, -9.2392, 30.7041, -153.567, -85.9949, 100.54
9.83188, 66, -6.73199, -9.0216, 30.5775, -153.587, -86.1781, 100.657
9.83983, 66, -6.67301, -8.80514, 30.4519, -153.606, -86.3608, 100.771
9.84835, 66, -6.61454, -8.59011, 30.3274, -153.624, -86.5429, 100.88
9.8558, 66, -6.55658, -8.37574, 30.204, -153.64, -86.7247, 100.986
9.86381, 66, -6.49928, -8.16183, 30.0816, -153.655, -86.9062, 101.088
9.87251, 66, -6.44245, -7.94941, 29.9603, -153.669, -87.0872, 101.186
9.87972, 66, -6.38611, -7.73817, 29.8399, -153.681, -87.2678, 101.279
9.88772, 67, -6.33037, -7.52741, 29.7206, -153.692, -87.448, 101.369
9.8963, 67, -6.27509, -7.31776, 29.6024, -153.701, -87.6278, 101.454
9.9038, 67, -6.22042, -7.10972, 29.4854, -153.709, -87.8071, 101.536
9.91186, 67, -6.1664, -6.90255, 29.3696, -153.716, -87.9859, 101.612
9.92079, 67, -6.11295, -6.69599, 29.2547, -153.722, -88.1641, 101.686
9.92795, 67, -6.06, -6.49116, 29.1408, -153.727, -88.3418, 101.755
9.93612, 67, -6.00759, -6.28783, 29.0279, -153.73, -88.5189, 101.819
9.94287, 67, -5.98156, -6.18642, 28.9719, -153.731, -88.6072, 101.85
9.95218, 67, -5.90432, -5.88347, 28.8059, -153.734, -88.8713, 101.936
9.95871, 67, -5.87887, -5.78334, 28.7512, -153.734, -88.959, 101.963
9.9691, 68, -5.80315, -5.48442, 28.5885, -153.734, -89.221, 102.035
9.97631, 68, -5.75333, -5.28574, 28.4811, -153.734, -89.3949, 102.079
9.98432, 68, -5.70387, -5.08844, 28.3748, -153.732, -89.5683, 102.117
9.99226, 68, -5.67925, -4.99061, 28.3221, -153.728, -89.7409, 102.15
10.0002, 68, -5.63039, -4.79607, 28.2177, -153.726, -89.8271, 102.165
10.0083, 68, -5.58214, -4.60239, 28.1145, -153.72, -89.9991, 102.192
10.0157, 68, -5.53432, -4.40999, 28.0123, -153.713, -90.1707, 102.214
10.0252, 68, -5.48685, -4.21953, 27.8608, -153.701, -90.4269, 102.24
10.0307, 68, -5.43996, -4.03015, 27.8107, -153.696, -90.512, 102.246
10.0397, 68, -5.39359, -3.84125, 27.7115, -153.686, -90.6819, 102.254
10.0477, 68, -5.34757, -3.65354, 27.6136, -153.674, -90.8511, 102.259
10.0557, 69, -5.30202, -3.46769, 27.517, -153.662, -91.02, 102.26
10.0637, 69, -5.25694, -3.28304, 27.4216, -153.648, -91.1883, 102.257
10.0717, 69, -5.21214, -3.0989, 27.327, -153.633, -91.356, 102.247
10.0797, 69, -5.16784, -2.91601, 27.2332, -153.616, -91.5231, 102.232
10.0877, 69, -5.12404, -2.73506, 27.1404, -153.599, -91.6894, 102.213
10.0958, 69, -5.08062, -2.55515, 27.0488, -153.58, -91.8552, 102.188
10.1051, 69, -5.0374, -2.37591, 26.9586, -153.561, -92.0202, 102.158
10.1107, 69, -4.99461, -2.19823, 26.8695, -153.542, -92.1847, 102.123
10.1197, 69, -4.95218, -2.02258, 26.7814, -153.521, -92.3485, 102.083
10.1292, 69, -4.90996, -1.84815, 26.6941, -153.5, -92.5117, 102.037
10.1357, 70, -4.86798, -1.67431, 26.6077, -153.477, -92.674, 101.986
10.1447, 70, -4.82645, -1.50179, 26.5224, -153.453, -92.8361, 101.93
10.1517, 70, -4.78528, -1.33128, 26.4383, -153.429, -92.9975, 101.868
10.1597, 70, -4.74436, -1.162, 26.3553, -153.404, -93.1583, 101.801
10.1677, 70, -4.70366, -0.993462, 26.2734, -153.379, -93.3185, 101.729
10.1757, 70, -4.66343, -0.826148, 26.1924, -153.352, -93.4782, 101.651
10.1838, 70, -4.62358, -0.660758, 26.1124, -153.324, -93.6374, 101.569
10.1918, 70, -4.58397, -0.49709, 26.0333, -153.296, -93.7961, 101.481
10.1997, 70, -4.54453, -0.334371, 25.9552, -153.268, -93.9541, 101.388
10.2077, 70, -4.50545, -0.172726, 25.878, -153.239, -94.1115, 101.29
10.2182, 71, -4.46657, -0.0127899, 25.7641, -153.194, -94.3469, 101.132
10.2238, 71, -4.42776, 0.145407, 25.7267, -153.179, -94.4251, 101.077
10.2317, 71, -4.38916, 0.302368, 25.6526, -153.147, -94.581, 100.963
10.2397, 71, -4.35077, 0.458262, 25.5795, -153.116, -94.7362, 100.844
10.2477, 71, -4.31263, 0.61281, 25.5074, -153.084, -94.8907, 100.719
10.2558, 71, -4.2745, 0.765782, 25.4363, -153.051, -95.0448, 100.589
10.2637, 71, -4.23643, 0.917085, 25.366, -153.018, -95.1981, 100.454
10.2728, 71, -4.19863, 1.06707, 25.2967, -152.984, -95.351, 100.314
10.2797, 71, -4.16104, 1.21583, 25.2282, -152.951, -95.5031, 100.169
10.2877, 71, -4.12355, 1.36309, 25.1607, -152.916, -95.6547, 100.019
10.2957, 71, -4.08604, 1.50868, 25.0942, -152.881, -95.8053, 99.8635
10.3038, 72, -4.04877, 1.65255, 25.0287, -152.845, -95.9556, 99.703
10.3117, 72, -4.0116, 1.79507, 24.9641, -152.81, -96.1046, 99.537
10.3197, 72, -3.97454, 1.93621, 24.9004, -152.775, -96.2535, 99.3658
10.3278, 72, -3.93735, 2.07586, 24.8376, -152.738, -96.4015, 99.1895
10.3359, 72, -3.9003, 2.21384, 24.7758, -152.702, -96.549, 99.0083
10.3439, 72, -3.86327, 2.35002, 24.7148, -152.666, -96.6954, 98.8221
10.352, 72, -3.82616, 2.48467, 24.6547, -152.629, -96.8412, 98.6309
10.3598, 72, -3.78902, 2.6179, 24.5956, -152.592, -96.986, 98.4348
10.3678, 72, -3.75197, 2.74962, 24.5372, -152.555, -97.1303, 98.2338
10.3759, 72, -3.715, 2.87959, 24.4798, -152.519, -97.2737, 98.0279
10.3837, 73, -3.678, 3.00787, 24.4234, -152.483, -97.4164, 97.8175
10.3917, 73, -3.64085, 3.13433, 24.3678, -152.445, -97.5581, 97.6024
10.3997, 73, -3.60364, 3.25914, 24.3133, -152.409, -97.6989, 97.3823
10.4078, 73, -3.56649, 3.38234, 24.2596, -152.373, -97.8386, 97.1575
10.416, 73, -3.52929, 3.50376, 24.2068, -152.337, -97.9775, 96.9282
10.4227, 73, -3.51058, 3.5638, 24.1807, -152.319, -98.0467, 96.8119
10.4328, 73, -3.45416, 3.74096, 24.1039, -152.265, -98.2525, 96.4561
10.4404, 73, -3.41638, 3.85653, 24.0537, -152.23, -98.3883, 96.2131
10.4482, 73, -3.37855, 3.9702, 24.0045, -152.195, -98.5232, 95.9657
10.4547, 73, -3.35954, 4.02633, 23.9802, -152.177, -98.5901, 95.8406
10.4651, 73, -3.30211, 4.19188, 23.9087, -152.125, -98.789, 95.4596
10.4707, 74, -3.28298, 4.24608, 23.8853, -152.108, -98.8547, 95.3305
10.4809, 74, -3.22541, 4.40555, 23.8164, -152.058, -99.0495, 94.9374
10.4882, 74, -3.18678, 4.50924, 23.7718, -152.024, -99.1778, 94.671
10.4947, 74, -3.16732, 4.56028, 23.7498, -152.007, -99.2412, 94.5364
10.5051, 74, -3.12833, 4.66072, 23.7065, -151.975, -99.4298, 94.1272
10.5117, 74, -3.08923, 4.75914, 23.6643, -151.943, -99.4919, 93.989
10.5205, 74, -3.04991, 4.85542, 23.6229, -151.912, -99.6756, 93.569
10.5267, 74, -3.0102, 4.9494, 23.5825, -151.88, -99.7362, 93.4275
10.5357, 74, -2.97028, 5.04107, 23.5431, -151.85, -99.8556, 93.1419
10.5438, 74, -2.93027, 5.13045, 23.5046, -151.821, -99.9736, 92.8531
10.5517, 75, -2.89002, 5.2174, 23.4671, -151.792, -100.09, 92.5615
10.5597, 75, -2.84944, 5.30186, 23.4306, -151.764, -100.204, 92.2677
10.5677, 75, -2.80857, 5.38377, 23.395, -151.736, -100.317, 91.9713
10.5757, 75, -2.76764, 5.46315, 23.3603, -151.71, -100.427, 91.672
10.5837, 75, -2.72648, 5.53996, 23.3268, -151.684, -100.535, 91.3706
10.5908, 75, -2.68482, 5.61412, 23.2942, -151.66, -100.642, 91.0668
10.5996, 75, -2.64288, 5.68568, 23.2627, -151.636, -100.746, 90.7605
10.6077, 75, -2.60083, 5.75447, 23.2323, -151.612, -100.848, 90.452
10.6157, 75, -2.55843, 5.82058, 23.203, -151.589, -100.948, 90.1419
10.6237, 75, -2.5157, 5.88397, 23.1746, -151.568, -101.045, 89.8302
10.6337, 76, -2.45124, 5.97373, 23.1343, -151.538, -101.186, 89.3596
10.6397, 76, -2.42965, 6.00218, 23.1214, -151.529, -101.232, 89.2023
10.6477, 76, -2.38626, 6.05688, 23.0965, -151.511, -101.322, 88.8869
10.6567, 76, -2.34267, 6.10859, 23.0725, -151.493, -101.409, 88.5702
10.6637, 76, -2.29889, 6.15716, 23.0498, -151.477, -101.494, 88.2521
10.6717, 76, -2.25486, 6.20275, 23.0283, -151.461, -101.576, 87.9335
10.6798, 76, -2.21043, 6.24519, 23.008, -151.446, -101.654, 87.6138
10.6878, 76, -2.1658, 6.2843, 22.989, -151.432, -101.731, 87.2932
10.6967, 76, -2.121, 6.32031, 22.9711, -151.419, -101.804, 86.972
10.7037, 76, -2.07588, 6.35311, 22.9544, -151.407, -101.874, 86.6506
10.7145, 76, -2.0077, 6.39619, 22.9318, -151.392, -101.972, 86.1679
10.7197, 77, -1.98489, 6.40876, 22.9249, -151.387, -102.004, 86.0071
10.7277, 77, -1.93914, 6.43151, 22.912, -151.379, -102.064, 85.6858
10.7357, 77, -1.89311, 6.45114, 22.9005, -151.371, -102.121, 85.365
10.7437, 77, -1.84698, 6.46705, 22.8905, -151.364, -102.175, 85.0443
10.7517, 77, -1.80067, 6.47916, 22.8818, -151.359, -102.224, 84.7242
10.7598, 77, -1.75414, 6.48804, 22.8744, -151.354, -102.271, 84.4047
10.7678, 77, -1.70742, 6.49355, 22.8685, -151.35, -102.314, 84.0855
10.7757, 77, -1.66069, 6.49545, 22.864, -151.347, -102.353, 83.767
10.7837, 77, -1.61373, 6.49389, 22.8607, -151.345, -102.388, 83.4495
10.7917, 77, -1.56662, 6.48856, 22.8589, -151.344, -102.42, 83.1331
10.7997, 77, -1.5195, 6.47941, 22.8582, -151.343, -102.449, 82.8174
10.8077, 78, -1.47225, 6.46671, 22.8589, -151.343, -102.473, 82.5032
10.8157, 78, -1.42481, 6.45036, 22.861, -151.343, -102.493, 82.1905
10.8237, 78, -1.37732, 6.42984, 22.8648, -151.343, -102.509, 81.8789
10.8318, 78, -1.32983, 6.40549, 22.8701, -151.345, -102.521, 81.5688
10.84, 78, -1.28207, 6.37756, 22.877, -151.348, -102.529, 81.2606
10.8489, 78, -1.23421, 6.34561, 22.8857, -151.351, -102.533, 80.954
10.8558, 78, -1.18631, 6.30959, 22.896, -151.356, -102.534, 80.6488
10.8638, 78, -1.13829, 6.2696, 22.9079, -151.362, -102.531, 80.3456
10.8723, 78, -1.09019, 6.22572, 22.9216, -151.368, -102.524, 80.0443
10.8798, 78, -1.04218, 6.17757, 22.9371, -151.376, -102.513, 79.7448
10.8905, 79, -0.994009, 6.12535, 22.9541, -151.383, -102.497, 79.4469
10.8946, 79, -0.969831, 6.09773, 22.9633, -151.388, -102.487, 79.2988
10.9037, 79, -0.897488, 6.00852, 22.994, -151.401, -102.452, 78.858
10.9117, 79, -0.849306, 5.94389, 23.0166, -151.411, -102.422, 78.5667
10.9208, 79, -0.801013, 5.87528, 23.041, -151.422, -102.388, 78.2774
10.9279, 79, -0.752745, 5.80259, 23.0675, -151.434, -102.349, 77.9905
10.936, 79, -0.704629, 5.7258, 23.096, -151.446, -102.306, 77.7059
10.9439, 79, -0.680563, 5.68591, 23.1109, -151.453, -102.258, 77.4234
10.9521, 79, -0.608357, 5.56004, 23.1585, -151.473, -102.206, 77.1429
10.9587, 79, -0.584329, 5.51602, 23.1754, -151.48, -102.178, 77.0038
10.9686, 80, -0.512169, 5.37747, 23.2289, -151.502, -102.087, 76.5902
10.9762, 80, -0.464105, 5.27991, 23.267, -151.516, -102.021, 76.3172
10.9843, 80, -0.416125, 5.17815, 23.3071, -151.531, -101.95, 76.0466
10.9923, 80, -0.368181, 5.07211, 23.3492, -151.546, -101.876, 75.7787
11.0002, 80, -0.344139, 5.01751, 23.371, -151.554, -101.795, 75.5134
11.0083, 80, -0.296129, 4.9052, 23.4164, -151.569, -101.754, 75.2504
11.0165, 80, -0.248255, 4.78859, 23.4882, -151.594, -101.622, 74.9898
11.0252, 80, -0.200287, 4.60569, 23.5388, -151.612, -101.528, 74.7317
11.0307, 80, -0.152291, 4.54266, 23.5649, -151.62, -101.479, 74.6038
11.0426, 80, -0.0805315, 4.34768, 23.6465, -151.646, -101.327, 74.2237
11.0478, 80, -0.0566216, 4.28059, 23.6747, -151.655, -101.273, 74.0981
11.0557, 81, -0.00878209, 4.14315, 23.7328, -151.672, -101.163, 73.8485
11.0637, 81, 0.038915, 4.00133, 23.793, -151.69, -101.049, 73.6014
11.0717, 81, 0.086458, 3.85526, 23.8554, -151.708, -100.93, 73.3571
11.0797, 81, 0.134008, 3.70527, 23.92, -151.726, -100.806, 73.1149
11.0877, 81, 0.181471, 3.55133, 23.9871, -151.744, -100.678, 72.8752
11.0957, 81, 0.228708, 3.39327, 24.0564, -151.763, -100.545, 72.638
11.1027, 81, 0.275946, 3.2308, 24.1283, -151.782, -100.407, 72.4037
11.1117, 81, 0.323117, 3.06434, 24.2024, -151.801, -100.264, 72.1718
11.1228, 81, 0.393593, 2.80826, 24.318, -151.828, -100.042, 71.8283
11.1276, 81, 0.417127, 2.72098, 24.3577, -151.837, -99.9654, 71.7149
11.1366, 82, 0.464233, 2.54299, 24.4387, -151.856, -99.8093, 71.4898
11.1437, 82, 0.511257, 2.3606, 24.5218, -151.874, -99.6486, 71.2673
11.1517, 82, 0.558269, 2.17469, 24.6074, -151.893, -99.4838, 71.047
11.1607, 82, 0.60544, 1.9855, 24.6955, -151.912, -99.3144, 70.8289
11.1677, 82, 0.652518, 1.79191, 24.7861, -151.93, -99.1407, 70.6129
11.1756, 82, 0.699439, 1.59351, 24.8792, -151.949, -98.9624, 70.3991
11.1837, 82, 0.746359, 1.39155, 24.9748, -151.967, -98.7798, 70.1879
11.1918, 82, 0.793418, 1.18627, 25.0726, -151.984, -98.593, 69.9789
11.2005, 82, 0.840335, 0.976785, 25.1727, -152.002, -98.402, 69.7722
11.2067, 82, 0.887283, 0.763236, 25.2752, -152.02, -98.207, 69.5674
11.219, 83, 0.957867, 0.436632, 25.4338, -152.046, -97.9067, 69.2642
11.2237, 83, 0.981332, 0.325633, 25.488, -152.055, -97.8046, 69.1642
11.2317, 83, 1.02819, 0.100282, 25.5984, -152.072, -97.5971, 68.9663
11.2397, 83, 1.07512, -0.128212, 25.711, -152.089, -97.3853, 68.7703
11.2476, 83, 1.12204, -0.359913, 25.8261, -152.105, -97.1687, 68.5766
11.2556, 83, 1.1688, -0.595773, 25.9437, -152.121, -96.9478, 68.3849
11.2638, 83, 1.2157, -0.834962, 26.0641, -152.137, -96.7227, 68.1954
11.2718, 83, 1.26274, -1.07748, 26.187, -152.152, -96.4938, 68.0083
11.2788, 83, 1.30966, -1.32438, 26.3125, -152.167, -96.2611, 67.8232
11.2877, 83, 1.3567, -1.57465, 26.44, -152.182, -96.0247, 67.6401
11.2957, 83, 1.40395, -1.82792, 26.5697, -152.197, -95.7849, 67.4587
11.3036, 84, 1.45122, -2.08495, 26.7016, -152.211, -95.5416, 67.2794
11.3117, 84, 1.4986, -2.34481, 26.8362, -152.225, -95.2946, 67.1022
11.3197, 84, 1.5462, -2.60769, 26.9735, -152.238, -95.0441, 66.9272
11.3277, 84, 1.59388, -2.87429, 27.1131, -152.251, -94.7895, 66.7545
11.3358, 84, 1.64157, -3.14352, 27.2551, -152.263, -94.5312, 66.5839
11.344, 84, 1.68939, -3.41586, 27.3997, -152.274, -94.2694, 66.4156
11.3517, 84, 1.73727, -3.69137, 27.5467, -152.285, -94.0041, 66.249
11.3598, 84, 1.78514, -3.96906, 27.6957, -152.296, -93.7356, 66.0843
11.368, 84, 1.83311, -4.25023, 27.8468, -152.307, -93.4641, 65.9213
11.3762, 84, 1.88134, -4.53413, 28.0003, -152.317, -93.1897, 65.7606
11.3836, 84, 1.90549, -4.82075, 28.1562, -152.327, -92.9123, 65.6018
11.3923, 85, 1.97811, -5.11036, 28.3139, -152.336, -92.632, 65.4451
11.3997, 85, 2.02681, -5.40174, 28.4732, -152.344, -92.3486, 65.2908
11.4077, 85, 2.07553, -5.69583, 28.6347, -152.352, -92.0625, 65.1386
11.4166, 85, 2.12433, -5.99205, 28.7994, -152.359, -91.7732, 64.9885
11.4238, 85, 2.17342, -6.29021, 28.9667, -152.365, -91.481, 64.8407
11.4323, 85, 2.22262, -6.59076, 29.1353, -152.371, -91.1866, 64.6952
11.4422, 85, 2.27196, -6.89247, 29.3055, -152.376, -90.8897, 64.5523
11.4484, 85, 2.32158, -7.19674, 29.4783, -152.38, -90.5904, 64.4112
11.4561, 85, 2.3714, -7.50327, 29.6533, -152.384, -90.2888, 64.2721
11.4649, 85, 2.42132, -7.81207, 29.8291, -152.387, -89.9851, 64.1351
11.4722, 86, 2.47156, -8.12288, 30.0062, -152.389, -89.6793, 64.0002
11.4803, 86, 2.52212, -8.43471, 30.1861, -152.39, -89.3711, 63.8677
11.4889, 86, 2.57279, -8.74874, 30.3682, -152.391, -89.0608, 63.7379
11.4962, 86, 2.62364, -9.06398, 30.5514, -152.391, -88.7487, 63.6112
11.5042, 86, 2.64918, -9.22213, 30.6435, -152.391, -88.5919, 63.4872
11.5122, 86, 2.70032, -9.53961, 30.8295, -152.391, -88.277, 63.4262
11.5212, 86, 2.75152, -9.8574, 31.0176, -152.391, -87.9604, 63.2471
11.5293, 86, 2.82879, -10.3372, 31.3016, -152.389, -87.4824, 63.1307
11.5357, 86, 2.85458, -10.4975, 31.3972, -152.388, -87.3224, 63.0735
11.5437, 86, 2.90626, -10.819, 31.5897, -152.384, -87.0015, 62.9606
11.5507, 86, 2.9582, -11.1411, 31.7832, -152.38, -86.6789, 62.8508
11.5597, 87, 3.01032, -11.4635, 31.9774, -152.375, -86.3553, 62.7438
11.5676, 87, 3.06257, -11.7872, 32.1733, -152.368, -86.0305, 62.6396
11.5757, 87, 3.11524, -12.1116, 32.3708, -152.361, -85.7047, 62.5388
11.5837, 87, 3.1682, -12.4372, 32.5687, -152.352, -85.3777, 62.4414
11.5916, 87, 3.22141, -12.7625, 32.7682, -152.343, -85.0499, 62.3476
11.5986, 87, 3.27486, -13.0884, 32.9693, -152.332, -84.721, 62.2567
