rpiRobotics/ARM-21-02-F-19-Robot-Motion-Program/data_performance_abb/curve_1/baseline/100L/realrobot/v123.046875_iteration0.csv
timestamp, cmd_num, J1, J2, J3, J4, J5, J6
0.000368, -1, -34.9971, -0.891539, 22.1683, -160.208, -92.5669, 54.7664
0.008304, -1, -34.997, -0.891564, 22.1683, -160.208, -92.567, 54.7664
0.011054, -1, -34.997, -0.891571, 22.1683, -160.208, -92.567, 54.7664
0.02653, -1, -34.997, -0.891588, 22.1683, -160.208, -92.567, 54.7664
0.027878, -1, -34.997, -0.891588, 22.1683, -160.208, -92.567, 54.7664
0.03223, -1, -34.997, -0.891598, 22.1683, -160.208, -92.567, 54.7663
0.039363, -1, -34.997, -0.891609, 22.1683, -160.208, -92.567, 54.7663
0.047265, -1, -34.997, -0.891604, 22.1683, -160.208, -92.567, 54.7663
0.055218, -1, -34.9975, -0.891512, 22.1683, -160.208, -92.5669, 54.7663
0.063288, -1, -35, -0.890763, 22.1681, -160.208, -92.567, 54.7664
0.071345, -1, -35.0066, -0.888077, 22.1671, -160.208, -92.5669, 54.7664
0.079358, -1, -35.0188, -0.881487, 22.1637, -160.208, -92.5669, 54.7664
0.08731, -1, -35.0377, -0.868874, 22.1561, -160.208, -92.5668, 54.7664
0.095365, -1, -35.0659, -0.848203, 22.1421, -160.21, -92.5668, 54.7664
0.103353, -1, -35.1057, -0.817906, 22.1192, -160.214, -92.5668, 54.7664
0.1112, -1, -35.1571, -0.778872, 22.0853, -160.22, -92.5669, 54.7664
0.119264, -1, -35.2195, -0.732683, 22.0389, -160.23, -92.5672, 54.7664
0.127236, -1, -35.2926, -0.67929, 21.9799, -160.244, -92.5678, 54.7664
0.136193, -1, -35.3767, -0.617002, 21.9082, -160.261, -92.5691, 54.7665
0.143609, -1, -35.4713, -0.545077, 21.8253, -160.28, -92.5708, 54.7666
0.151526, -1, -35.5752, -0.464784, 21.7334, -160.301, -92.573, 54.7668
0.159437, -1, -35.6879, -0.377175, 21.6346, -160.324, -92.5754, 54.7669
0.16758, -1, -35.8085, -0.283345, 21.5312, -160.347, -92.5778, 54.7672
0.175626, -1, -35.9349, -0.185289, 21.4255, -160.372, -92.5803, 54.7676
0.184229, -1, -36.0628, -0.0863375, 21.3192, -160.396, -92.5829, 54.7681
0.191755, -1, -36.1897, 0.0112086, 21.2142, -160.42, -92.5855, 54.7688
0.200354, -1, -36.3123, 0.105141, 21.1123, -160.443, -92.5882, 54.7694
0.208111, -1, -36.4275, 0.193515, 21.0152, -160.465, -92.591, 54.7703
0.215842, -1, -36.5332, 0.275112, 20.9248, -160.486, -92.5939, 54.7714
0.224366, -1, -36.6286, 0.349154, 20.8428, -160.505, -92.5966, 54.7725
0.232057, 2, -36.7129, 0.414779, 20.7708, -160.522, -92.5991, 54.7736
0.374351, 2, -37.0471, 0.659402, 20.5427, -160.572, -92.6082, 54.7803
0.375544, 2, -37.0471, 0.659402, 20.5427, -160.572, -92.6082, 54.7803
0.377575, 2, -37.0474, 0.659508, 20.5425, -160.572, -92.6083, 54.7804
0.378784, 2, -37.0474, 0.659508, 20.5425, -160.572, -92.6083, 54.7804
0.380044, 2, -37.0474, 0.659508, 20.5425, -160.572, -92.6083, 54.7804
0.3821, 2, -37.0477, 0.659598, 20.5424, -160.572, -92.6083, 54.7804
0.383461, 2, -37.0477, 0.659598, 20.5424, -160.572, -92.6083, 54.7804
0.386342, 2, -37.0479, 0.659699, 20.5423, -160.572, -92.6084, 54.7805
0.549187, 2, -37.0516, 0.662091, 20.5405, -160.572, -92.6099, 54.782
0.55138, 2, -37.0516, 0.662125, 20.5406, -160.572, -92.6099, 54.7821
0.552631, 2, -37.0516, 0.662125, 20.5406, -160.572, -92.6099, 54.7821
0.554485, 2, -37.0516, 0.662159, 20.5405, -160.572, -92.6099, 54.7821
0.555819, 2, -37.0516, 0.662159, 20.5405, -160.572, -92.6099, 54.7821
0.557096, 2, -37.0516, 0.662159, 20.5405, -160.572, -92.6099, 54.7821
0.559058, 2, -37.0516, 0.662201, 20.5405, -160.572, -92.6099, 54.7822
0.563207, 2, -37.0516, 0.662236, 20.5405, -160.572, -92.6099, 54.7823
0.564447, 2, -37.0516, 0.662236, 20.5405, -160.572, -92.6099, 54.7823
0.565621, 2, -37.0516, 0.662236, 20.5405, -160.572, -92.6099, 54.7823
0.567697, 2, -37.0516, 0.662271, 20.5405, -160.572, -92.6099, 54.7823
0.568966, 2, -37.0516, 0.662271, 20.5405, -160.572, -92.6099, 54.7823
0.57074, 2, -37.0516, 0.662305, 20.5405, -160.572, -92.61, 54.7823
0.572297, 2, -37.0516, 0.662305, 20.5405, -160.572, -92.61, 54.7823
0.573487, 2, -37.0516, 0.662305, 20.5405, -160.572, -92.61, 54.7823
0.575685, 2, -37.0517, 0.662336, 20.5405, -160.572, -92.61, 54.7823
0.576905, 2, -37.0517, 0.662336, 20.5405, -160.572, -92.61, 54.7823
0.578765, 2, -37.0517, 0.662364, 20.5405, -160.572, -92.61, 54.7823
0.580121, 2, -37.0517, 0.662364, 20.5405, -160.572, -92.61, 54.7823
0.581403, 2, -37.0517, 0.662364, 20.5405, -160.572, -92.61, 54.7823
0.583417, 2, -37.0516, 0.662383, 20.5405, -160.572, -92.61, 54.7823
0.584794, 2, -37.0516, 0.662383, 20.5405, -160.572, -92.61, 54.7823
0.590988, 2, -37.0517, 0.662405, 20.5404, -160.572, -92.6101, 54.7824
0.592455, 2, -37.0517, 0.662405, 20.5404, -160.572, -92.6101, 54.7824
0.593744, 2, -37.0517, 0.662405, 20.5404, -160.572, -92.6101, 54.7824
0.59569, 2, -37.0517, 0.662411, 20.5404, -160.572, -92.6101, 54.7824
0.597002, 2, -37.0517, 0.662411, 20.5404, -160.572, -92.6101, 54.7824
0.598761, 2, -37.0517, 0.662426, 20.5404, -160.572, -92.6101, 54.7824
0.600361, 2, -37.0517, 0.662426, 20.5404, -160.572, -92.6101, 54.7824
0.601613, 2, -37.0517, 0.662426, 20.5404, -160.572, -92.6101, 54.7824
0.605858, 2, -37.0517, 0.662436, 20.5404, -160.572, -92.6102, 54.7824
0.60782, 2, -37.0517, 0.662443, 20.5404, -160.572, -92.6102, 54.7824
0.609103, 2, -37.0517, 0.662443, 20.5404, -160.572, -92.6102, 54.7824
0.611365, 2, -37.0517, 0.662458, 20.5404, -160.572, -92.6102, 54.7824
0.612615, 2, -37.0517, 0.662458, 20.5404, -160.572, -92.6102, 54.7824
0.613977, 2, -37.0517, 0.662458, 20.5404, -160.572, -92.6102, 54.7824
0.615977, 2, -37.0517, 0.662469, 20.5404, -160.572, -92.6102, 54.7824
0.619118, 2, -37.0517, 0.662465, 20.5404, -160.572, -92.6102, 54.7825
0.62062, 2, -37.0517, 0.662465, 20.5404, -160.572, -92.6102, 54.7825
0.621798, 2, -37.0517, 0.662465, 20.5404, -160.572, -92.6102, 54.7825
0.624064, 2, -37.0517, 0.662462, 20.5404, -160.572, -92.6102, 54.7825
0.632259, 2, -37.0517, 0.662507, 20.5403, -160.572, -92.6102, 54.7825
0.639559, 2, -37.0517, 0.662535, 20.5404, -160.572, -92.6103, 54.7825
0.647339, 2, -37.0517, 0.662537, 20.5403, -160.572, -92.6103, 54.7825
0.65543, 2, -37.0517, 0.662573, 20.5403, -160.572, -92.6103, 54.7826
0.663506, 2, -37.0517, 0.662601, 20.5403, -160.572, -92.6103, 54.7826
0.671509, 2, -37.0517, 0.662639, 20.5403, -160.572, -92.6103, 54.7827
0.679544, 2, -37.0517, 0.662677, 20.5403, -160.572, -92.6103, 54.7827
0.687901, 2, -37.0517, 0.662699, 20.5403, -160.572, -92.6104, 54.7827
0.696265, 2, -37.0517, 0.66272, 20.5403, -160.572, -92.6104, 54.7827
0.703722, 2, -37.0518, 0.662755, 20.5403, -160.572, -92.6104, 54.7828
0.712279, 2, -37.0517, 0.662771, 20.5403, -160.572, -92.6105, 54.7828
0.719867, 2, -37.0517, 0.662779, 20.5403, -160.572, -92.6104, 54.7828
0.728349, 2, -37.0517, 0.662782, 20.5403, -160.572, -92.6104, 54.7828
0.735938, 2, -37.0517, 0.66279, 20.5403, -160.572, -92.6104, 54.7828
0.743866, 2, -37.0517, 0.662805, 20.5402, -160.572, -92.6104, 54.7828
0.752281, 2, -37.0517, 0.662831, 20.5402, -160.572, -92.6104, 54.7828
0.759166, 2, -37.0517, 0.662842, 20.5402, -160.572, -92.6104, 54.7828
0.767227, 2, -37.0517, 0.662862, 20.5402, -160.572, -92.6104, 54.7829
0.776333, 2, -37.0516, 0.662894, 20.5402, -160.572, -92.6105, 54.7829
0.783229, 2, -37.0516, 0.662903, 20.5402, -160.572, -92.6105, 54.7829
0.791215, 2, -37.0517, 0.662912, 20.5402, -160.572, -92.6105, 54.7829
0.800548, 2, -37.0517, 0.662976, 20.5402, -160.572, -92.6105, 54.7829
0.807183, 2, -37.0517, 0.662987, 20.5402, -160.572, -92.6105, 54.7829
0.816591, 2, -37.0517, 0.662993, 20.5402, -160.572, -92.6105, 54.7829
0.823313, 2, -37.0517, 0.663006, 20.5402, -160.572, -92.6105, 54.783
0.831166, 2, -37.0517, 0.663021, 20.5402, -160.572, -92.6105, 54.783
0.839226, 2, -37.0517, 0.663035, 20.5402, -160.572, -92.6105, 54.783
0.848779, 2, -37.0517, 0.66305, 20.5401, -160.572, -92.6104, 54.783
0.856795, 2, -37.0517, 0.663052, 20.5401, -160.572, -92.6104, 54.783
0.864664, 2, -37.0517, 0.663055, 20.5401, -160.572, -92.6105, 54.783
0.872747, 2, -37.0517, 0.663074, 20.5401, -160.572, -92.6105, 54.783
0.880161, 2, -37.0516, 0.663094, 20.5401, -160.572, -92.6105, 54.783
0.887247, 2, -37.0517, 0.663123, 20.5401, -160.572, -92.6105, 54.783
0.895159, 2, -37.0517, 0.663143, 20.5401, -160.572, -92.6105, 54.7831
0.903227, 2, -37.0517, 0.663158, 20.5401, -160.572, -92.6105, 54.7832
0.911228, 2, -37.0517, 0.663175, 20.5401, -160.572, -92.6105, 54.7831
0.919158, 2, -37.0517, 0.66318, 20.5401, -160.572, -92.6105, 54.7831
0.927178, 2, -37.0517, 0.663185, 20.5401, -160.572, -92.6105, 54.7831
0.935227, 2, -37.0517, 0.663214, 20.5401, -160.572, -92.6105, 54.7831
0.943214, 2, -37.0517, 0.663234, 20.5401, -160.572, -92.6105, 54.7831
0.951165, 2, -37.0516, 0.663241, 20.5401, -160.572, -92.6105, 54.7832
0.959224, 2, -37.0517, 0.663259, 20.5401, -160.572, -92.6105, 54.7832
0.967266, 2, -37.0516, 0.663301, 20.5401, -160.572, -92.6105, 54.7832
0.975162, 2, -37.0516, 0.663299, 20.5401, -160.572, -92.6105, 54.7832
0.983273, 2, -37.0516, 0.663301, 20.5401, -160.572, -92.6105, 54.7832
0.991248, 2, -37.0516, 0.663328, 20.5401, -160.572, -92.6105, 54.7832
0.999157, 2, -37.0516, 0.663348, 20.5401, -160.572, -92.6105, 54.7832
1.00724, 2, -37.0516, 0.663374, 20.5401, -160.572, -92.6105, 54.7831
1.01516, 2, -37.0516, 0.663379, 20.5401, -160.572, -92.6105, 54.7831
1.02322, 2, -37.0515, 0.663383, 20.5401, -160.572, -92.6105, 54.7831
1.03127, 2, -37.0515, 0.66339, 20.5401, -160.572, -92.6105, 54.7832
1.03916, 2, -37.0515, 0.663386, 20.5401, -160.572, -92.6105, 54.7832
1.04718, 2, -37.0515, 0.663387, 20.5401, -160.572, -92.6105, 54.7832
1.05522, 2, -37.0515, 0.663421, 20.54, -160.572, -92.6105, 54.7831
1.06325, 2, -37.0515, 0.663444, 20.54, -160.572, -92.6105, 54.7832
1.07124, 2, -37.0515, 0.663447, 20.54, -160.572, -92.6106, 54.7831
1.07932, 2, -37.0515, 0.663464, 20.54, -160.572, -92.6105, 54.7831
1.08727, 2, -37.0515, 0.663464, 20.54, -160.572, -92.6105, 54.7831
1.09529, 2, -37.0515, 0.663464, 20.54, -160.572, -92.6105, 54.7832
1.10338, 2, -37.0514, 0.663493, 20.54, -160.572, -92.6105, 54.7832
1.11122, 2, -37.0514, 0.663514, 20.54, -160.572, -92.6105, 54.7832
1.11916, 2, -37.0514, 0.663531, 20.54, -160.572, -92.6105, 54.7833
1.12732, 2, -37.0514, 0.663556, 20.54, -160.572, -92.6105, 54.7832
1.13519, 2, -37.0514, 0.663586, 20.54, -160.572, -92.6105, 54.7832
1.14362, 2, -37.0513, 0.663569, 20.54, -160.572, -92.6105, 54.7832
1.15131, 2, -37.0513, 0.663566, 20.54, -160.572, -92.6105, 54.7831
1.1596, 2, -37.0513, 0.663567, 20.54, -160.572, -92.6105, 54.7831
1.16775, 2, -37.0513, 0.663573, 20.54, -160.572, -92.6105, 54.7831
1.17551, 2, -37.0513, 0.663604, 20.54, -160.572, -92.6105, 54.7831
1.18358, 2, -37.0512, 0.663608, 20.54, -160.572, -92.6105, 54.7832
1.19195, 2, -37.0512, 0.663628, 20.54, -160.572, -92.6105, 54.7832
1.20025, 2, -37.0512, 0.663626, 20.54, -160.572, -92.6105, 54.7832
1.20769, 2, -37.0512, 0.663618, 20.54, -160.572, -92.6105, 54.7832
1.21627, 2, -37.0512, 0.663633, 20.54, -160.572, -92.6105, 54.7832
1.22386, 2, -37.0512, 0.663652, 20.54, -160.572, -92.6105, 54.7831
1.23234, 2, -37.0511, 0.66366, 20.54, -160.572, -92.6105, 54.7831
1.23997, 2, -37.0511, 0.663677, 20.54, -160.572, -92.6105, 54.7831
1.24776, 2, -37.0511, 0.663681, 20.54, -160.572, -92.6105, 54.7832
1.25626, 2, -37.051, 0.663675, 20.54, -160.572, -92.6105, 54.7832
1.26419, 2, -37.051, 0.663683, 20.54, -160.572, -92.6105, 54.7832
1.2713, 2, -37.051, 0.663696, 20.54, -160.572, -92.6105, 54.7832
1.28035, 2, -37.051, 0.663721, 20.54, -160.572, -92.6105, 54.7832
1.28716, 2, -37.051, 0.66374, 20.54, -160.572, -92.6104, 54.7832
1.29519, 2, -37.0509, 0.663762, 20.54, -160.572, -92.6105, 54.7832
1.30487, 2, -37.0509, 0.66375, 20.54, -160.572, -92.6105, 54.7832
1.31334, 2, -37.0509, 0.663762, 20.5399, -160.572, -92.6105, 54.7831
1.3207, 2, -37.0509, 0.663784, 20.5399, -160.572, -92.6105, 54.7831
1.32875, 2, -37.0509, 0.663795, 20.54, -160.572, -92.6105, 54.7831
1.33676, 2, -37.0509, 0.663799, 20.54, -160.572, -92.6105, 54.7831
1.34505, 2, -37.0509, 0.663802, 20.5399, -160.572, -92.6105, 54.7831
1.35113, 2, -37.0509, 0.663813, 20.5399, -160.572, -92.6105, 54.7832
1.36075, 2, -37.0508, 0.663826, 20.5399, -160.572, -92.6105, 54.7831
1.36865, 2, -37.0508, 0.663832, 20.5399, -160.572, -92.6105, 54.7831
1.37511, 4, -37.0508, 0.663853, 20.5399, -160.572, -92.6105, 54.7831
1.38321, 4, -37.0508, 0.663852, 20.5399, -160.572, -92.6105, 54.7831
1.39119, 4, -37.0508, 0.663855, 20.5399, -160.572, -92.6106, 54.7831
1.39915, 4, -37.0507, 0.663864, 20.5399, -160.572, -92.6105, 54.7832
1.40718, 4, -37.0507, 0.663868, 20.5399, -160.572, -92.6105, 54.7832
1.41519, 4, -37.0507, 0.663889, 20.5399, -160.572, -92.6105, 54.7831
1.4232, 4, -37.0506, 0.663885, 20.5399, -160.572, -92.6105, 54.7832
1.43116, 4, -37.0506, 0.663877, 20.5399, -160.572, -92.6105, 54.7831
1.43919, 4, -37.0506, 0.663881, 20.5399, -160.572, -92.6105, 54.7831
1.44716, 4, -37.0506, 0.663893, 20.5399, -160.572, -92.6105, 54.7832
1.45515, 4, -37.0506, 0.663901, 20.5399, -160.572, -92.6105, 54.7831
1.46326, 4, -37.0506, 0.663928, 20.5399, -160.572, -92.6105, 54.7831
1.47115, 4, -37.0506, 0.663922, 20.5399, -160.572, -92.6105, 54.7831
1.49708, 4, -37.0505, 0.663961, 20.5399, -160.572, -92.6105, 54.7831
1.50024, 4, -37.0505, 0.663968, 20.5399, -160.572, -92.6105, 54.7831
1.50212, 4, -37.0505, 0.663962, 20.5399, -160.572, -92.6105, 54.7831
1.50363, 4, -37.0505, 0.663962, 20.5399, -160.572, -92.6105, 54.7831
1.51122, 4, -37.0505, 0.663987, 20.5399, -160.572, -92.6105, 54.7831
1.51914, 4, -37.0504, 0.663979, 20.5399, -160.572, -92.6105, 54.7831
1.52814, 4, -37.0497, 0.663831, 20.5399, -160.572, -92.6105, 54.7831
1.53522, 4, -37.0471, 0.662927, 20.5401, -160.572, -92.6105, 54.7831
1.5432, 4, -37.0413, 0.66042, 20.541, -160.572, -92.6105, 54.7831
1.55217, 4, -37.0326, 0.655899, 20.5434, -160.572, -92.6105, 54.7831
1.55954, 4, -37.0219, 0.649401, 20.548, -160.572, -92.6105, 54.783
1.56718, 4, -37.0091, 0.640752, 20.5557, -160.571, -92.6105, 54.783
1.57614, 5, -36.9936, 0.62952, 20.5668, -160.569, -92.6105, 54.783
1.58354, 5, -36.9754, 0.615698, 20.582, -160.566, -92.6104, 54.7829
1.59124, 5, -36.9557, 0.599964, 20.601, -160.562, -92.6103, 54.7828
1.60025, 5, -36.9346, 0.582429, 20.6227, -160.557, -92.6101, 54.7827
1.60788, 5, -36.911, 0.562223, 20.6468, -160.552, -92.6098, 54.7826
1.61695, 5, -36.8837, 0.539457, 20.6726, -160.547, -92.6096, 54.7824
1.62414, 5, -36.8534, 0.515126, 20.6992, -160.541, -92.6093, 54.7822
1.6319, 5, -36.8214, 0.48959, 20.7264, -160.535, -92.6089, 54.7821
1.64152, 5, -36.7883, 0.463588, 20.7538, -160.529, -92.6085, 54.7818
1.6473, 5, -36.7547, 0.437307, 20.7813, -160.523, -92.608, 54.7816
1.65621, 5, -36.7207, 0.410774, 20.8086, -160.516, -92.6075, 54.7813
1.6635, 5, -36.6868, 0.384223, 20.836, -160.51, -92.6069, 54.7809
1.67147, 5, -36.6531, 0.357524, 20.8635, -160.504, -92.6063, 54.7806
1.68027, 5, -36.6197, 0.331092, 20.8911, -160.497, -92.6056, 54.7803
1.68755, 5, -36.5862, 0.304728, 20.9186, -160.491, -92.605, 54.78
1.69563, 5, -36.5526, 0.278509, 20.9461, -160.485, -92.6043, 54.7797
1.70465, 5, -36.5187, 0.252254, 20.9737, -160.479, -92.6036, 54.7794
1.71225, 5, -36.485, 0.226092, 21.0013, -160.473, -92.6029, 54.7793
1.71972, 5, -36.4515, 0.200042, 21.0287, -160.467, -92.6021, 54.7791
1.7287, 5, -36.4181, 0.173856, 21.0561, -160.462, -92.6014, 54.779
1.7357, 5, -36.4014, 0.160791, 21.0699, -160.456, -92.6006, 54.7789
1.74512, 5, -36.3513, 0.121297, 21.1112, -160.45, -92.5998, 54.7788
1.75113, 5, -36.3346, 0.108083, 21.1248, -160.447, -92.5994, 54.7787
1.75913, 5, -36.301, 0.0817621, 21.1521, -160.442, -92.5987, 54.7786
1.7683, 5, -36.2498, 0.0420071, 21.1931, -160.433, -92.5975, 54.7782
1.77513, 5, -36.2326, 0.0287986, 21.2068, -160.43, -92.5971, 54.7781
1.78313, 5, -36.1983, 0.00228127, 21.234, -160.424, -92.5963, 54.7778
1.79314, 5, -36.147, -0.0373776, 21.2748, -160.416, -92.5951, 54.7774
1.79913, 5, -36.13, -0.050539, 21.2884, -160.413, -92.5946, 54.7772
1.80719, 5, -36.0958, -0.0768394, 21.3157, -160.407, -92.5938, 54.7769
1.81513, 5, -36.0616, -0.102987, 21.343, -160.401, -92.5929, 54.7766
1.82532, 5, -36.0104, -0.142223, 21.3836, -160.392, -92.5917, 54.7761
1.83125, 5, -35.9933, -0.155216, 21.3972, -160.389, -92.5913, 54.7759
1.84068, 5, -35.9421, -0.194302, 21.438, -160.379, -92.59, 54.7753
1.84975, 5, -35.908, -0.220247, 21.465, -160.373, -92.5892, 54.7749
1.85672, 5, -35.874, -0.246378, 21.4921, -160.366, -92.5883, 54.7745
1.86312, 5, -35.8571, -0.259462, 21.5056, -160.363, -92.5879, 54.7744
1.87113, 5, -35.8231, -0.285483, 21.5326, -160.357, -92.5871, 54.774
1.8792, 5, -35.789, -0.311652, 21.5596, -160.35, -92.5862, 54.7737
1.88988, 5, -35.7373, -0.350857, 21.5999, -160.341, -92.585, 54.7732
1.89613, 5, -35.7201, -0.363953, 21.6133, -160.338, -92.5846, 54.7731
1.90412, 5, -35.6857, -0.390135, 21.6402, -160.332, -92.5838, 54.7728
1.91233, 5, -35.6512, -0.416175, 21.6671, -160.326, -92.583, 54.7725
1.91912, 5, -35.6167, -0.442222, 21.6937, -160.32, -92.5821, 54.7723
1.9272, 5, -35.5822, -0.468117, 21.7204, -160.314, -92.5813, 54.7721
1.93513, 5, -35.5477, -0.494133, 21.7472, -160.308, -92.5805, 54.7719
1.94314, 5, -35.5133, -0.519986, 21.774, -160.302, -92.5796, 54.7718
1.95119, 5, -35.4788, -0.545777, 21.8006, -160.296, -92.5788, 54.7716
1.95913, 5, -35.4442, -0.571587, 21.8272, -160.29, -92.578, 54.7715
1.96713, 5, -35.4098, -0.597333, 21.8538, -160.284, -92.5772, 54.7714
1.9752, 5, -35.3754, -0.623219, 21.8803, -160.278, -92.5763, 54.7714
1.98313, 5, -35.341, -0.648921, 21.9067, -160.272, -92.5755, 54.7714
1.99119, 5, -35.3065, -0.674704, 21.9332, -160.266, -92.5747, 54.7713
1.99921, 5, -35.2719, -0.7005, 21.9596, -160.26, -92.5739, 54.7713
2.00727, 5, -35.2373, -0.726235, 21.9861, -160.254, -92.5731, 54.7713
2.01518, 5, -35.2027, -0.752069, 22.0124, -160.247, -92.5722, 54.7713
2.02313, 5, -35.1678, -0.777597, 22.0386, -160.241, -92.5714, 54.7713
2.03125, 5, -35.1328, -0.803183, 22.0649, -160.234, -92.5706, 54.7713
2.04338, 5, -35.0807, -0.841354, 22.1044, -160.224, -92.5694, 54.7713
2.04713, 5, -35.0633, -0.85415, 22.1175, -160.221, -92.5689, 54.7714
2.05529, 5, -35.0285, -0.87973, 22.1436, -160.214, -92.5681, 54.7714
2.06313, 5, -34.9936, -0.905086, 22.1697, -160.207, -92.5673, 54.7714
2.07123, 5, -34.9586, -0.930563, 22.1958, -160.201, -92.5665, 54.7714
2.08026, 5, -34.9238, -0.955923, 22.2219, -160.195, -92.5657, 54.7714
2.08738, 5, -34.889, -0.98133, 22.2479, -160.188, -92.5649, 54.7714
2.09612, 5, -34.8542, -1.00677, 22.2739, -160.182, -92.5641, 54.7714
2.10327, 5, -34.8193, -1.03198, 22.2998, -160.176, -92.5632, 54.7714
2.11123, 5, -34.7844, -1.05736, 22.3258, -160.17, -92.5624, 54.7715
2.1193, 5, -34.7495, -1.08267, 22.3516, -160.164, -92.5616, 54.7715
2.12971, 5, -34.7146, -1.10804, 22.3774, -160.158, -92.5608, 54.7715
2.13534, 5, -34.6796, -1.1334, 22.4032, -160.152, -92.56, 54.7716
2.14316, 5, -34.6444, -1.15863, 22.429, -160.146, -92.5592, 54.7718
2.15121, 5, -34.6093, -1.18391, 22.4548, -160.14, -92.5583, 54.7718
2.15941, 5, -34.5743, -1.20907, 22.4804, -160.134, -92.5575, 54.7719
2.16739, 5, -34.5391, -1.23438, 22.506, -160.128, -92.5567, 54.7721
2.17537, 5, -34.5038, -1.25955, 22.5317, -160.121, -92.5558, 54.7723
2.18435, 5, -34.4686, -1.28464, 22.5573, -160.115, -92.555, 54.7725
2.19223, 5, -34.4333, -1.30978, 22.5828, -160.109, -92.5541, 54.7728
2.19958, 5, -34.3982, -1.33475, 22.6083, -160.102, -92.5533, 54.7733
2.20771, 5, -34.3628, -1.3599, 22.6338, -160.095, -92.5525, 54.7739
2.21626, 5, -34.3275, -1.3849, 22.6594, -160.088, -92.5517, 54.7746
2.22372, 5, -34.2922, -1.40985, 22.6847, -160.081, -92.5509, 54.7753
2.23245, 5, -34.257, -1.43488, 22.71, -160.074, -92.55, 54.7763
2.24056, 5, -34.2217, -1.45977, 22.7354, -160.068, -92.5491, 54.7772
2.24776, 5, -34.2039, -1.47227, 22.748, -160.064, -92.5483, 54.7784
2.25628, 5, -34.1508, -1.50961, 22.7861, -160.054, -92.5474, 54.7797
2.26311, 5, -34.1332, -1.52198, 22.7987, -160.051, -92.5469, 54.7803
2.27228, 5, -34.0801, -1.55925, 22.8365, -160.041, -92.5457, 54.7825
2.28113, 5, -34.0445, -1.58394, 22.8617, -160.034, -92.5448, 54.784
2.28714, 5, -34.0267, -1.59636, 22.8743, -160.031, -92.5444, 54.7847
2.29638, 5, -33.9735, -1.63355, 22.9119, -160.021, -92.5431, 54.7873
2.30311, 5, -33.9557, -1.64586, 22.9245, -160.018, -92.5427, 54.7881
2.31337, 5, -33.9023, -1.6829, 22.9621, -160.009, -92.5413, 54.7907
2.31911, 5, -33.8844, -1.69519, 22.9746, -160.005, -92.5409, 54.7916
2.32865, 5, -33.831, -1.73215, 23.012, -159.996, -92.5396, 54.7943
2.33674, 5, -33.7954, -1.75673, 23.0369, -159.989, -92.5387, 54.7961
2.3447, 5, -33.7597, -1.78129, 23.0617, -159.983, -92.5378, 54.798
2.35274, 5, -33.7239, -1.80593, 23.0866, -159.976, -92.537, 54.7999
2.36076, 5, -33.6882, -1.83045, 23.1114, -159.969, -92.5361, 54.8018
2.36865, 5, -33.6703, -1.84275, 23.1238, -159.966, -92.5356, 54.8037
2.37613, 5, -33.6347, -1.86732, 23.1485, -159.959, -92.5348, 54.8046
2.38407, 5, -33.5989, -1.89171, 23.1732, -159.952, -92.5338, 54.8065
2.39211, 5, -33.5631, -1.91619, 23.1978, -159.945, -92.533, 54.8084
2.40016, 5, -33.5273, -1.94061, 23.2225, -159.938, -92.5321, 54.8104
2.40811, 5, -33.4915, -1.96516, 23.2471, -159.931, -92.5311, 54.8124
2.41613, 5, -33.4559, -1.98984, 23.2717, -159.923, -92.5303, 54.8143
2.42416, 5, -33.4201, -2.01443, 23.2963, -159.916, -92.5292, 54.8161
2.43228, 5, -33.3844, -2.03924, 23.3211, -159.909, -92.5281, 54.8177
2.43927, 5, -33.3489, -2.06413, 23.3458, -159.902, -92.5267, 54.8192
2.44711, 5, -33.3133, -2.08927, 23.3706, -159.895, -92.5252, 54.8205
2.45512, 6, -33.2778, -2.11466, 23.3957, -159.888, -92.5234, 54.8214
2.46314, 6, -33.2423, -2.14011, 23.4211, -159.88, -92.5212, 54.822
2.47114, 6, -33.207, -2.16594, 23.4468, -159.873, -92.5188, 54.8224
2.47912, 6, -33.1719, -2.19201, 23.4725, -159.865, -92.5161, 54.8224
2.48719, 6, -33.1369, -2.21847, 23.4985, -159.857, -92.5129, 54.8225
2.49511, 6, -33.1018, -2.24524, 23.5247, -159.848, -92.5094, 54.8224
2.50339, 6, -33.067, -2.27219, 23.5513, -159.84, -92.5056, 54.8221
2.5121, 6, -33.0325, -2.29956, 23.5779, -159.83, -92.5016, 54.8216
2.52017, 6, -32.9981, -2.32715, 23.6049, -159.821, -92.4972, 54.8208
2.52892, 6, -32.9637, -2.35532, 23.6322, -159.811, -92.4925, 54.8196
2.53507, 7, -32.9293, -2.3836, 23.6598, -159.801, -92.4876, 54.8184
2.54411, 7, -32.8953, -2.41224, 23.6873, -159.79, -92.4824, 54.817
2.55111, 7, -32.8614, -2.44113, 23.7151, -159.779, -92.4769, 54.8147
2.56011, 7, -32.8277, -2.47047, 23.7433, -159.768, -92.4711, 54.8114
2.5672, 7, -32.7939, -2.50016, 23.7719, -159.757, -92.465, 54.8074
2.57516, 7, -32.7603, -2.53005, 23.8004, -159.746, -92.4587, 54.8028
2.58515, 7, -32.727, -2.56035, 23.8293, -159.735, -92.452, 54.7977
2.59217, 7, -32.6938, -2.59103, 23.8585, -159.724, -92.4449, 54.7919
2.59921, 7, -32.6607, -2.62203, 23.8879, -159.712, -92.4376, 54.7856
2.60772, 7, -32.6276, -2.65324, 23.9174, -159.7, -92.4299, 54.7788
2.61618, 7, -32.5947, -2.68477, 23.9472, -159.688, -92.4219, 54.7715
2.62318, 8, -32.5621, -2.71682, 23.9774, -159.675, -92.4133, 54.7638
2.63154, 8, -32.5295, -2.74916, 24.0078, -159.662, -92.4044, 54.7558
2.6392, 8, -32.4971, -2.78177, 24.0382, -159.649, -92.3949, 54.7471
2.64714, 8, -32.4648, -2.81466, 24.069, -159.635, -92.3849, 54.738
2.65601, 8, -32.4326, -2.84799, 24.1002, -159.622, -92.3743, 54.7284
2.66411, 8, -32.4006, -2.88159, 24.1315, -159.608, -92.3635, 54.7185
2.67164, 8, -32.3688, -2.91554, 24.163, -159.594, -92.3525, 54.7081
2.68028, 8, -32.337, -2.9498, 24.1948, -159.58, -92.3412, 54.697
2.68839, 8, -32.3053, -2.98445, 24.2269, -159.566, -92.3299, 54.6855
2.69552, 8, -32.2739, -3.01933, 24.2591, -159.551, -92.3183, 54.6735
2.70361, 9, -32.2426, -3.05447, 24.2916, -159.537, -92.3066, 54.6611
2.71226, 9, -32.2114, -3.09004, 24.3245, -159.521, -92.2946, 54.6482
2.71989, 9, -32.1803, -3.12591, 24.3574, -159.505, -92.2823, 54.6351
2.72824, 9, -32.1491, -3.16211, 24.3906, -159.489, -92.2696, 54.6218
2.73653, 9, -32.1183, -3.19864, 24.4242, -159.474, -92.2563, 54.6083
2.74369, 9, -32.103, -3.21706, 24.441, -159.458, -92.2424, 54.5946
2.75241, 9, -32.0571, -3.27276, 24.4917, -159.442, -92.2279, 54.5807
2.76061, 9, -32.0268, -3.31039, 24.526, -159.425, -92.2131, 54.5664
2.7671, 9, -32.0116, -3.32933, 24.5432, -159.417, -92.2057, 54.5592
2.77737, 9, -31.9662, -3.38664, 24.5952, -159.392, -92.1832, 54.5365
2.78318, 9, -31.9512, -3.40591, 24.6126, -159.383, -92.1756, 54.5288
2.7911, 10, -31.9212, -3.44479, 24.6478, -159.365, -92.1603, 54.5128
2.80038, 10, -31.8766, -3.50374, 24.7007, -159.338, -92.1366, 54.4878
2.80715, 10, -31.8618, -3.52351, 24.7185, -159.33, -92.1285, 54.4792
2.81674, 10, -31.8175, -3.58343, 24.7726, -159.303, -92.1033, 54.4527
2.82455, 10, -31.7883, -3.62374, 24.8088, -159.285, -92.0858, 54.4348
2.83432, 10, -31.7591, -3.66439, 24.8452, -159.267, -92.0678, 54.4167
2.83918, 10, -31.7446, -3.68486, 24.8636, -159.258, -92.0589, 54.4076
2.84868, 10, -31.701, -3.74676, 24.919, -159.229, -92.0318, 54.3802
2.85754, 10, -31.6722, -3.78832, 24.9562, -159.209, -92.0137, 54.3614
2.86311, 10, -31.6579, -3.80928, 24.975, -159.2, -92.0045, 54.3518
2.87259, 11, -31.6294, -3.85152, 25.0126, -159.18, -91.9859, 54.3324
2.88008, 11, -31.601, -3.89393, 25.0503, -159.161, -91.9667, 54.3123
2.88716, 11, -31.5726, -3.93669, 25.0886, -159.141, -91.9468, 54.2916
2.89614, 11, -31.5442, -3.97987, 25.1269, -159.121, -91.9265, 54.2704
2.90409, 11, -31.5158, -4.0234, 25.1654, -159.1, -91.9061, 54.2491
2.91211, 11, -31.4879, -4.06734, 25.2042, -159.079, -91.8856, 54.2278
2.92012, 11, -31.46, -4.11166, 25.2434, -159.058, -91.8649, 54.2062
2.92825, 11, -31.4324, -4.15623, 25.2826, -159.037, -91.8439, 54.1843
2.93511, 11, -31.4048, -4.20131, 25.3223, -159.015, -91.8223, 54.162
2.94316, 11, -31.3771, -4.24674, 25.3622, -158.994, -91.8, 54.1391
2.95109, 11, -31.3497, -4.29238, 25.4022, -158.972, -91.7773, 54.1155
2.95916, 12, -31.3224, -4.33847, 25.4426, -158.95, -91.7545, 54.0913
2.96709, 12, -31.2953, -4.38488, 25.4832, -158.927, -91.7317, 54.0669
2.97517, 12, -31.2684, -4.43161, 25.524, -158.904, -91.7088, 54.0425
2.9831, 12, -31.2417, -4.47868, 25.5652, -158.881, -91.6855, 54.0181
2.9911, 12, -31.215, -4.52598, 25.6066, -158.859, -91.6614, 53.9933
3.00031, 12, -31.1885, -4.57369, 25.6482, -158.835, -91.6368, 53.9681
3.00802, 12, -31.1621, -4.62176, 25.69, -158.812, -91.6122, 53.9422
3.01609, 12, -31.1357, -4.67009, 25.732, -158.787, -91.5875, 53.9156
3.02617, 12, -31.0964, -4.74322, 25.7956, -158.751, -91.5501, 53.8753
3.03116, 12, -31.0833, -4.76781, 25.8169, -158.739, -91.5373, 53.8619
3.03909, 13, -31.0572, -4.81726, 25.8596, -158.715, -91.5111, 53.8349
3.0471, 13, -31.0313, -4.86708, 25.9027, -158.691, -91.4843, 53.8076
3.0551, 13, -31.0057, -4.91732, 25.946, -158.666, -91.4577, 53.7798
3.0631, 13, -30.9802, -4.96801, 25.9895, -158.64, -91.4312, 53.7513
3.0721, 13, -30.9548, -5.01905, 26.0332, -158.615, -91.4043, 53.7221
3.07931, 13, -30.9294, -5.0704, 26.0773, -158.59, -91.3768, 53.6928
3.08725, 13, -30.9041, -5.12205, 26.1216, -158.564, -91.3485, 53.6636
3.09518, 13, -30.879, -5.17411, 26.166, -158.539, -91.3203, 53.6341
3.1032, 13, -30.8542, -5.22639, 26.2108, -158.512, -91.292, 53.6042
3.11127, 13, -30.8294, -5.279, 26.2558, -158.485, -91.2636, 53.5737
3.11912, 14, -30.8047, -5.332, 26.3011, -158.459, -91.2344, 53.5424
3.1271, 14, -30.7803, -5.38519, 26.3466, -158.433, -91.2044, 53.5111
3.13511, 14, -30.7557, -5.43875, 26.3923, -158.406, -91.1744, 53.4801
3.1432, 14, -30.7313, -5.49265, 26.4384, -158.379, -91.1446, 53.4487
3.15117, 14, -30.7071, -5.54696, 26.4846, -158.351, -91.1146, 53.4167
3.15929, 14, -30.683, -5.60169, 26.5309, -158.324, -91.0837, 53.3839
3.16807, 14, -30.659, -5.65673, 26.5777, -158.296, -91.052, 53.3506
3.17629, 14, -30.6353, -5.71234, 26.6246, -158.268, -91.0204, 53.3171
3.18408, 14, -30.6116, -5.76827, 26.6719, -158.24, -90.9888, 53.2837
3.19236, 14, -30.5879, -5.82458, 26.7192, -158.211, -90.9568, 53.25
3.2003, 14, -30.5644, -5.8812, 26.7669, -158.182, -90.9238, 53.2156
3.20757, 15, -30.5412, -5.93816, 26.8149, -158.154, -90.8906, 53.1806
3.21626, 15, -30.518, -5.99539, 26.863, -158.125, -90.8577, 53.145
3.22369, 15, -30.495, -6.05289, 26.9115, -158.096, -90.8247, 53.1099
3.23168, 15, -30.4722, -6.11074, 26.9603, -158.065, -90.7909, 53.0744
3.24068, 15, -30.4494, -6.16882, 27.0092, -158.035, -90.7564, 53.0382
3.2477, 15, -30.4379, -6.19795, 27.0338, -158.02, -90.7393, 53.0012
3.25812, 15, -30.4041, -6.286, 27.1078, -157.975, -90.6878, 52.9638
3.26418, 15, -30.3817, -6.34517, 27.1574, -157.944, -90.6527, 52.9266
3.27108, 15, -30.3705, -6.37491, 27.1823, -157.929, -90.6347, 52.908
3.2803, 15, -30.3372, -6.46488, 27.2575, -157.882, -90.5809, 52.8513
3.28712, 16, -30.3262, -6.49511, 27.2827, -157.866, -90.5631, 52.8319
3.29887, 16, -30.2932, -6.58627, 27.3585, -157.82, -90.5091, 52.7733
3.30305, 16, -30.2822, -6.61686, 27.3839, -157.804, -90.4905, 52.7539
3.31241, 16, -30.2496, -6.70921, 27.4606, -157.755, -90.435, 52.6953
3.31913, 16, -30.2388, -6.74011, 27.4863, -157.739, -90.4167, 52.6755
3.32863, 16, -30.2064, -6.83336, 27.5637, -157.692, -90.3605, 52.615
3.33663, 16, -30.185, -6.89581, 27.6157, -157.659, -90.3218, 52.5745
3.34465, 16, -30.1639, -6.95851, 27.6679, -157.626, -90.2835, 52.5342
3.35833, 16, -30.1322, -7.05325, 27.7466, -157.577, -90.2259, 52.4726
3.35969, 16, -30.1322, -7.05325, 27.7466, -157.577, -90.2259, 52.4726
3.36711, 16, -30.1111, -7.11684, 27.7994, -157.544, -90.1862, 52.4306
3.3766, 17, -30.0903, -7.1809, 27.8525, -157.51, -90.1468, 52.389
3.38469, 17, -30.0697, -7.24536, 27.9058, -157.476, -90.1074, 52.3473
3.39208, 17, -30.0491, -7.31024, 27.9593, -157.443, -90.0671, 52.3052
3.40013, 17, -30.0286, -7.37557, 28.0131, -157.409, -90.0261, 52.262
3.40809, 17, -30.0084, -7.44126, 28.0671, -157.375, -89.9857, 52.2185
3.41608, 17, -29.9882, -7.50729, 28.1215, -157.34, -89.9451, 52.1753
3.42323, 17, -29.968, -7.57364, 28.1759, -157.305, -89.9033, 52.1318
3.43205, 17, -29.948, -7.64023, 28.2308, -157.271, -89.8616, 52.0875
3.44012, 17, -29.9283, -7.7071, 28.286, -157.236, -89.8201, 52.0428
3.44941, 17, -29.8987, -7.80786, 28.3691, -157.182, -89.7561, 51.9762
3.45508, 18, -29.8889, -7.84161, 28.3969, -157.164, -89.7345, 51.9537
3.46407, 18, -29.8694, -7.90947, 28.4527, -157.128, -89.6921, 51.9082
3.47108, 18, -29.8501, -7.97764, 28.5087, -157.092, -89.6494, 51.8619
3.47908, 18, -29.8309, -8.04615, 28.565, -157.055, -89.6055, 51.8161
3.48809, 18, -29.8116, -8.1151, 28.6215, -157.018, -89.5618, 51.77
3.49507, 18, -29.7925, -8.18442, 28.6783, -156.982, -89.5184, 51.723
3.50664, 18, -29.7736, -8.28919, 28.764, -156.926, -89.451, 51.652
3.51123, 18, -29.7548, -8.32427, 28.7927, -156.907, -89.4286, 51.6285
3.51907, 18, -29.736, -8.39461, 28.8502, -156.87, -89.3842, 51.5812
3.52708, 18, -29.7175, -8.46525, 28.908, -156.833, -89.3388, 51.5331
3.5363, 19, -29.699, -8.53624, 28.9661, -156.795, -89.2928, 51.4843
3.54726, 19, -29.6715, -8.64331, 29.0535, -156.737, -89.2244, 51.412
3.55112, 19, -29.6623, -8.67917, 29.0828, -156.719, -89.2011, 51.3877
3.55915, 19, -29.6441, -8.75108, 29.1415, -156.681, -89.1541, 51.3383
3.56707, 19, -29.6261, -8.82336, 29.2004, -156.642, -89.1077, 51.2891
3.5754, 19, -29.6082, -8.896, 29.2596, -156.603, -89.061, 51.2402
3.58333, 19, -29.5904, -8.96896, 29.3191, -156.564, -89.0134, 51.1908
3.59117, 19, -29.5727, -9.04228, 29.3787, -156.525, -88.9662, 51.1404
3.5994, 19, -29.5552, -9.11597, 29.4388, -156.485, -88.9186, 51.0901
3.60814, 19, -29.5378, -9.18996, 29.4989, -156.446, -88.8701, 51.0398
3.61518, 19, -29.5204, -9.26428, 29.5594, -156.406, -88.8221, 50.9887
3.62319, 20, -29.503, -9.33891, 29.6201, -156.366, -88.7741, 50.9371
3.63149, 20, -29.4858, -9.41393, 29.681, -156.325, -88.7249, 50.8858
3.63918, 20, -29.4688, -9.48921, 29.7421, -156.285, -88.6762, 50.8342
3.64711, 20, -29.4519, -9.56482, 29.8034, -156.244, -88.6271, 50.7815
3.65588, 20, -29.435, -9.64079, 29.8649, -156.202, -88.577, 50.7288
3.66407, 20, -29.4183, -9.71702, 29.9267, -156.161, -88.5275, 50.6763
3.6723, 20, -29.4018, -9.7937, 29.9887, -156.12, -88.4777, 50.623
3.68041, 20, -29.3854, -9.87065, 30.051, -156.078, -88.4269, 50.5691
3.68764, 20, -29.3691, -9.94789, 30.1136, -156.035, -88.3766, 50.5157
3.69623, 20, -29.3528, -10.0255, 30.1764, -155.994, -88.3256, 50.4622
3.70385, 21, -29.3365, -10.1034, 30.2394, -155.952, -88.274, 50.4076
3.71216, 21, -29.3203, -10.1817, 30.3027, -155.908, -88.223, 50.3532
3.71964, 21, -29.3044, -10.2602, 30.3661, -155.866, -88.1712, 50.299
3.72818, 21, -29.2884, -10.339, 30.4297, -155.824, -88.1192, 50.2441
3.73583, 21, -29.2726, -10.4182, 30.4935, -155.78, -88.0675, 50.1889
3.74519, 21, -29.257, -10.4976, 30.5575, -155.737, -88.0146, 50.1343
3.75478, 21, -29.2415, -10.5773, 30.6219, -155.694, -87.9619, 50.0792
3.75907, 21, -29.2337, -10.6172, 30.6541, -155.672, -87.9358, 50.0512
3.76834, 21, -29.2108, -10.7376, 30.7513, -155.606, -87.8558, 49.9677
3.77506, 21, -29.2031, -10.7779, 30.7838, -155.584, -87.8292, 49.94
3.78313, 21, -29.1876, -10.8586, 30.8489, -155.54, -87.7762, 49.8837
3.79103, 22, -29.1724, -10.9398, 30.9143, -155.495, -87.722, 49.827
3.79906, 22, -29.1573, -11.0212, 30.98, -155.45, -87.668, 49.7709
3.80707, 22, -29.1423, -11.1029, 31.0457, -155.406, -87.6143, 49.7145
3.81639, 22, -29.12, -11.2259, 31.1446, -155.337, -87.5317, 49.6283
3.82307, 22, -29.1126, -11.2671, 31.1776, -155.314, -87.5046, 49.5999
3.83111, 22, -29.098, -11.3497, 31.2439, -155.269, -87.4495, 49.5431
3.84116, 22, -29.0764, -11.4741, 31.3439, -155.2, -87.3662, 49.4562
3.84731, 22, -29.0692, -11.5158, 31.3774, -155.176, -87.3389, 49.4275
3.85511, 22, -29.0549, -11.5993, 31.4446, -155.13, -87.2829, 49.37
3.86473, 22, -29.0335, -11.7251, 31.5457, -155.06, -87.1994, 49.2823
3.87513, 23, -29.0194, -11.8094, 31.6133, -155.013, -87.1428, 49.2239
3.88002, 23, -29.0124, -11.8516, 31.6472, -154.99, -87.1144, 49.1949
3.88807, 23, -28.9984, -11.9362, 31.715, -154.944, -87.0585, 49.1363
3.89611, 23, -28.9845, -12.021, 31.783, -154.896, -87.0016, 49.0773
3.90406, 23, -28.9707, -12.1061, 31.8513, -154.849, -86.9445, 49.019
3.91206, 23, -28.9568, -12.1915, 31.9199, -154.802, -86.8879, 48.9601
3.9202, 23, -28.9432, -12.2771, 31.9886, -154.753, -86.8297, 48.9005
3.9279, 23, -28.9297, -12.3631, 32.0576, -154.706, -86.7724, 48.8416
3.93622, 23, -28.9162, -12.4494, 32.1269, -154.658, -86.7144, 48.7823
3.9454, 23, -28.8961, -12.5792, 32.2312, -154.584, -86.627, 48.6928
3.95106, 23, -28.8894, -12.6226, 32.2661, -154.56, -86.5979, 48.6633
3.95913, 24, -28.8761, -12.7096, 32.3359, -154.512, -86.5387, 48.6037
3.96706, 24, -28.8629, -12.7969, 32.4058, -154.462, -86.4806, 48.5433
3.97512, 24, -28.8498, -12.8843, 32.4759, -154.413, -86.4214, 48.4833
3.98307, 24, -28.8368, -12.9721, 32.5462, -154.363, -86.3621, 48.4232
3.99107, 24, -28.824, -13.0601, 32.6167, -154.313, -86.303, 48.3622
4.0008, 24, -28.8112, -13.1486, 32.6875, -154.263, -86.2429, 48.3018
4.00706, 24, -28.7984, -13.2372, 32.7586, -154.213, -86.1839, 48.2416
4.01515, 24, -28.7858, -13.3261, 32.8297, -154.162, -86.1237, 48.1803
4.02313, 24, -28.7733, -13.4151, 32.9011, -154.113, -86.0638, 48.1195
4.03106, 24, -28.7607, -13.5045, 32.9726, -154.062, -86.0038, 48.059
4.04318, 25, -28.742, -13.6389, 33.08, -153.986, -85.9129, 47.9671
4.04712, 25, -28.7356, -13.6838, 33.1159, -153.961, -85.883, 47.9369
4.05514, 25, -28.7231, -13.7738, 33.1878, -153.909, -85.8218, 47.8764
4.06307, 25, -28.7107, -13.8641, 33.26, -153.857, -85.7612, 47.815
4.07106, 25, -28.6985, -13.9546, 33.3324, -153.807, -85.7, 47.7541
4.08006, 25, -28.6863, -14.0453, 33.4049, -153.754, -85.6384, 47.6935
4.08814, 25, -28.6743, -14.1362, 33.4776, -153.702, -85.5776, 47.632
4.09531, 25, -28.6625, -14.2274, 33.5505, -153.65, -85.5156, 47.5711
4.10405, 25, -28.6506, -14.3187, 33.6236, -153.597, -85.4545, 47.5103
4.11213, 25, -28.6388, -14.4103, 33.6967, -153.545, -85.3924, 47.4486
4.11918, 25, -28.6272, -14.5021, 33.77, -153.492, -85.3306, 47.3873
4.12722, 26, -28.6156, -14.5943, 33.8433, -153.438, -85.2688, 47.3265
4.13551, 26, -28.604, -14.6866, 33.9168, -153.386, -85.2064, 47.2648
4.14311, 26, -28.5924, -14.779, 33.9906, -153.332, -85.1446, 47.2036
4.15109, 26, -28.5808, -14.8716, 34.0646, -153.278, -85.0816, 47.1427
4.15996, 26, -28.5691, -14.9643, 34.1388, -153.226, -85.0195, 47.0811
4.16838, 26, -28.5575, -15.0572, 34.213, -153.171, -84.9564, 47.0199
4.17616, 26, -28.546, -15.1503, 34.2875, -153.118, -84.8936, 46.9593
4.18348, 26, -28.5345, -15.2435, 34.3619, -153.064, -84.8305, 46.898
4.19233, 26, -28.5231, -15.337, 34.4365, -153.009, -84.7671, 46.8371
4.19942, 26, -28.5118, -15.4308, 34.5112, -152.956, -84.7043, 46.7771
4.20816, 27, -28.5005, -15.5246, 34.5861, -152.9, -84.6406, 46.7162
4.21737, 27, -28.4893, -15.6186, 34.6612, -152.845, -84.5776, 46.6553
4.22363, 27, -28.4781, -15.713, 34.7364, -152.791, -84.5135, 46.5952
4.23223, 27, -28.4671, -15.8074, 34.8117, -152.735, -84.4502, 46.5344
4.24042, 27, -28.456, -15.9021, 34.8872, -152.68, -84.3865, 46.4737
4.24797, 27, -28.445, -15.997, 34.9628, -152.624, -84.3225, 46.4138
4.2563, 27, -28.434, -16.0921, 35.0384, -152.568, -84.2588, 46.353
4.2631, 27, -28.4285, -16.1396, 35.0763, -152.54, -84.2264, 46.3225
4.27209, 27, -28.4119, -16.2825, 35.1899, -152.456, -84.1308, 46.2323
4.27906, 27, -28.4064, -16.3302, 35.2279, -152.428, -84.0985, 46.2021
4.28846, 27, -28.3899, -16.4734, 35.3419, -152.344, -84.0021, 46.1113
4.29623, 28, -28.379, -16.5691, 35.4182, -152.287, -83.9372, 46.0517
4.30311, 28, -28.3735, -16.617, 35.4565, -152.259, -83.9048, 46.0218
4.31243, 28, -28.3572, -16.7609, 35.5713, -152.174, -83.8084, 45.9317
4.31905, 28, -28.3518, -16.809, 35.6096, -152.145, -83.7758, 45.9021
4.32871, 28, -28.3355, -16.9533, 35.7244, -152.061, -83.6792, 45.8135
4.33734, 28, -28.3247, -17.0497, 35.801, -152.002, -83.6139, 45.7541
4.34335, 28, -28.3194, -17.0979, 35.8394, -151.974, -83.5818, 45.7248
4.35114, 28, -28.3088, -17.1944, 35.9162, -151.917, -83.5172, 45.6665
4.36157, 28, -28.2927, -17.3393, 36.0317, -151.829, -83.4198, 45.5785
4.36705, 28, -28.2874, -17.3878, 36.0703, -151.801, -83.3874, 45.5495
4.37657, 29, -28.2768, -17.4847, 36.1475, -151.742, -83.3219, 45.4631
4.38529, 29, -28.2661, -17.5819, 36.2248, -151.684, -83.2572, 45.4052
4.39106, 29, -28.2553, -17.679, 36.3022, -151.626, -83.1914, 45.3765
4.40005, 29, -28.2446, -17.7762, 36.3796, -151.567, -83.1263, 45.3197
4.40815, 29, -28.234, -17.8735, 36.4569, -151.509, -83.0605, 45.2628
4.41521, 29, -28.2234, -17.9708, 36.5343, -151.45, -82.9953, 45.2057
4.42386, 29, -28.2127, -18.0683, 36.6118, -151.392, -82.9298, 45.1495
4.43105, 29, -28.2021, -18.1659, 36.6895, -151.333, -82.8643, 45.0939
4.43904, 29, -28.1915, -18.2636, 36.7673, -151.274, -82.7987, 45.0378
4.44812, 29, -28.1808, -18.3614, 36.8453, -151.215, -82.7329, 44.9826
4.4562, 30, -28.1702, -18.4592, 36.9233, -151.155, -82.6678, 44.9279
4.4646, 30, -28.1597, -18.5571, 37.0012, -151.096, -82.6018, 44.8729
4.47105, 30, -28.1492, -18.655, 37.079, -151.036, -82.5367, 44.8179
4.48004, 30, -28.1386, -18.753, 37.1568, -150.975, -82.4704, 44.764
4.48948, 30, -28.1281, -18.851, 37.2347, -150.916, -82.4051, 44.7103
4.49505, 30, -28.1175, -18.9493, 37.3128, -150.855, -82.3391, 44.6563
4.50405, 30, -28.1067, -19.0477, 37.391, -150.795, -82.2733, 44.6034
4.51385, 30, -28.0959, -19.1461, 37.5083, -150.704, -82.174, 44.525
4.51929, 30, -28.0852, -19.2445, 37.5475, -150.675, -82.1412, 44.4988
4.5281, 30, -28.0746, -19.3428, 37.6257, -150.614, -82.0757, 44.4465
4.53938, 31, -28.0585, -19.4904, 37.743, -150.523, -81.9768, 44.37
4.54305, 31, -28.0532, -19.5396, 37.782, -150.493, -81.9441, 44.3446
4.55206, 31, -28.0424, -19.6379, 37.8601, -150.432, -81.8777, 44.2935
4.56011, 31, -28.0315, -19.7364, 37.9384, -150.371, -81.8125, 44.2434
4.56705, 31, -28.0205, -19.835, 38.0168, -150.31, -81.7464, 44.194
4.57522, 31, -28.0096, -19.9334, 38.0952, -150.248, -81.6809, 44.1448
4.58311, 31, -27.9988, -20.0319, 38.1736, -150.187, -81.6149, 44.0955
4.59135, 31, -27.9879, -20.1304, 38.252, -150.125, -81.549, 44.0471
4.60009, 31, -27.977, -20.229, 38.3304, -150.064, -81.4833, 43.9995
4.60714, 31, -27.966, -20.3276, 38.4086, -150.002, -81.4172, 43.9518
4.61515, 31, -27.9549, -20.4263, 38.4867, -149.94, -81.3516, 43.9043
4.6232, 32, -27.9437, -20.5251, 38.565, -149.878, -81.2854, 43.858
4.63119, 32, -27.9324, -20.6238, 38.6432, -149.816, -81.2202, 43.8124
4.63905, 32, -27.9213, -20.7226, 38.7215, -149.755, -81.1542, 43.7669
4.64713, 32, -27.9101, -20.8212, 38.7999, -149.692, -81.0889, 43.7215
4.65538, 32, -27.8987, -20.9198, 38.8782, -149.631, -81.0229, 43.6774
4.66346, 32, -27.8874, -21.0184, 38.9564, -149.568, -80.9576, 43.6341
4.67225, 32, -27.8759, -21.1169, 39.0346, -149.506, -80.8919, 43.591
4.67926, 32, -27.8644, -21.2154, 39.1127, -149.443, -80.8265, 43.5481
4.6874, 32, -27.8528, -21.3139, 39.1907, -149.381, -80.7612, 43.5064
4.69625, 32, -27.8413, -21.4123, 39.2688, -149.318, -80.6955, 43.4657
4.70383, 32, -27.8297, -21.5107, 39.3469, -149.255, -80.6307, 43.4255
4.71223, 33, -27.8181, -21.6091, 39.425, -149.193, -80.5648, 43.3854
4.72006, 33, -27.8063, -21.7074, 39.5031, -149.129, -80.4999, 43.3457
4.72761, 33, -27.7945, -21.8057, 39.5811, -149.067, -80.4341, 43.3074
4.73691, 33, -27.7824, -21.9039, 39.6589, -149.003, -80.3693, 43.27
4.74449, 33, -27.7704, -22.0023, 39.7367, -148.941, -80.3041, 43.2329
4.75258, 33, -27.7644, -22.1005, 39.8143, -148.878, -80.239, 43.1961
4.75903, 33, -27.7523, -22.1496, 39.8531, -148.846, -80.2067, 43.1779
4.77267, 33, -27.7341, -22.2966, 40.0084, -148.72, -80.0768, 43.1078
4.77688, 33, -27.7219, -22.3946, 40.0472, -148.688, -80.0447, 43.0909
4.78659, 33, -27.7095, -22.4925, 40.1248, -148.626, -79.9794, 43.0576
4.79098, 34, -27.7033, -22.5413, 40.1635, -148.594, -79.9472, 43.041
4.801, 34, -27.6847, -22.688, 40.2797, -148.498, -79.8499, 42.9919
4.8083, 34, -27.6721, -22.7857, 40.357, -148.434, -79.7855, 42.9601
4.81503, 34, -27.6658, -22.8345, 40.3956, -148.402, -79.7533, 42.9448
4.82521, 34, -27.6468, -22.9806, 40.5111, -148.307, -79.6558, 42.9004
4.8311, 34, -27.6404, -23.0293, 40.5496, -148.275, -79.6237, 42.886
4.84093, 34, -27.6208, -23.1752, 40.6649, -148.18, -79.5262, 42.8438
4.84916, 34, -27.6077, -23.2724, 40.7418, -148.116, -79.4621, 42.8162
4.85516, 34, -27.6011, -23.3209, 40.7802, -148.084, -79.4295, 42.8026
4.86465, 34, -27.5812, -23.4666, 40.8953, -147.988, -79.333, 42.7637
4.8727, 34, -27.5678, -23.5637, 40.9718, -147.925, -79.268, 42.7395
4.87906, 35, -27.5611, -23.6121, 41.01, -147.893, -79.2358, 42.7277
4.88917, 35, -27.5406, -23.7571, 41.1243, -147.797, -79.1397, 42.694
4.89509, 35, -27.5338, -23.8053, 41.1623, -147.766, -79.1074, 42.6832
4.90507, 35, -27.5133, -23.9498, 41.2764, -147.669, -79.0116, 42.6517
4.91116, 35, -27.5064, -23.9979, 41.3144, -147.637, -78.9791, 42.6416
4.91985, 35, -27.4925, -24.094, 41.3902, -147.573, -78.9155, 42.6217
4.92704, 35, -27.4783, -24.1899, 41.4661, -147.509, -78.8514, 42.6029
4.93503, 35, -27.464, -24.2858, 41.5418, -147.445, -78.7873, 42.5852
4.94403, 35, -27.4496, -24.3814, 41.6173, -147.381, -78.7235, 42.5688
4.95209, 35, -27.4351, -24.4768, 41.6926, -147.317, -78.6593, 42.5535
4.96062, 36, -27.4205, -24.5722, 41.7677, -147.253, -78.5962, 42.5393
4.96704, 36, -27.4057, -24.6675, 41.8426, -147.189, -78.5322, 42.5261
4.97503, 36, -27.3907, -24.7626, 41.9173, -147.125, -78.4692, 42.5142
4.98535, 36, -27.3756, -24.8577, 41.992, -147.061, -78.4056, 42.5032
4.99109, 36, -27.3604, -24.9526, 42.0666, -146.997, -78.3427, 42.493
5.00009, 36, -27.3451, -25.0474, 42.1411, -146.933, -78.2797, 42.4841
5.00975, 36, -27.3297, -25.142, 42.2154, -146.837, -78.1854, 42.4724
5.01524, 36, -27.314, -25.2363, 42.2896, -146.805, -78.1541, 42.4691
5.02409, 36, -27.2981, -25.3304, 42.3634, -146.741, -78.0908, 42.463
5.03522, 36, -27.2742, -25.4711, 42.4737, -146.645, -77.9973, 42.4559
5.03904, 36, -27.2661, -25.5179, 42.5104, -146.613, -77.9658, 42.4542
5.0471, 37, -27.2499, -25.6113, 42.5838, -146.549, -77.9034, 42.4516
5.05504, 37, -27.2333, -25.7046, 42.657, -146.485, -77.841, 42.4501
5.06303, 37, -27.2168, -25.7978, 42.73, -146.421, -77.7785, 42.4494
5.07203, 37, -27.2001, -25.8907, 42.8029, -146.357, -77.7167, 42.4491
5.0801, 37, -27.1834, -25.9834, 42.8756, -146.294, -77.6542, 42.4491
5.08826, 37, -27.1663, -26.0759, 42.948, -146.23, -77.5927, 42.4496
5.09607, 37, -27.1489, -26.1682, 43.0202, -146.167, -77.5304, 42.4515
5.10402, 37, -27.1314, -26.2602, 43.0922, -146.103, -77.4688, 42.4556
5.11204, 37, -27.1138, -26.352, 43.1638, -146.04, -77.4073, 42.4612
5.12009, 37, -27.096, -26.4436, 43.2353, -145.976, -77.3455, 42.4685
5.12816, 38, -27.078, -26.5351, 43.3067, -145.913, -77.2846, 42.4773
5.1355, 38, -27.0598, -26.6262, 43.3778, -145.85, -77.2226, 42.4874
5.14303, 38, -27.0416, -26.7171, 43.4488, -145.786, -77.1617, 42.4989
5.15112, 38, -27.0231, -26.8077, 43.5195, -145.723, -77.1003, 42.5119
5.15995, 38, -27.0044, -26.8981, 43.59, -145.66, -77.0391, 42.5261
5.16808, 38, -26.9853, -26.9882, 43.6602, -145.597, -76.9782, 42.5419
5.17529, 38, -26.966, -27.078, 43.73, -145.534, -76.9168, 42.5591
5.1836, 38, -26.9467, -27.1676, 43.7997, -145.472, -76.8566, 42.578
5.19232, 38, -26.927, -27.257, 43.8691, -145.409, -76.7956, 42.5985
5.19948, 38, -26.9071, -27.346, 43.9383, -145.347, -76.7352, 42.6207
5.2085, 39, -26.8872, -27.4348, 44.0071, -145.285, -76.6747, 42.6446
5.21556, 39, -26.8671, -27.5233, 44.0758, -145.222, -76.6138, 42.6697
5.22412, 39, -26.8466, -27.6115, 44.1442, -145.161, -76.5542, 42.696
5.2316, 39, -26.8258, -27.6994, 44.2123, -145.098, -76.4934, 42.7238
5.24013, 39, -26.8049, -27.7871, 44.2802, -145.037, -76.4338, 42.7529
5.24769, 39, -26.7839, -27.8745, 44.3477, -144.974, -76.3734, 42.784
5.25769, 39, -26.7625, -27.9618, 44.415, -144.913, -76.3132, 42.8168
5.26589, 39, -26.7409, -28.0485, 44.4818, -144.851, -76.2537, 42.8509
5.27212, 39, -26.7192, -28.135, 44.5484, -144.789, -76.1931, 42.8861
5.27901, 39, -26.7083, -28.1782, 44.5816, -144.759, -76.1633, 42.9043
5.28815, 39, -26.6747, -28.307, 44.6807, -144.667, -76.0733, 42.9612
5.29503, 40, -26.6634, -28.3498, 44.7137, -144.637, -76.0434, 42.9813
5.30483, 40, -26.6293, -28.4777, 44.8121, -144.546, -75.9545, 43.0434
5.31228, 40, -26.6062, -28.5624, 44.8772, -144.486, -75.8948, 43.0862
5.31901, 40, -26.5946, -28.6046, 44.9097, -144.456, -75.8653, 43.1082
5.32932, 40, -26.5593, -28.7309, 45.0065, -144.366, -75.7759, 43.177
5.33517, 40, -26.5474, -28.7728, 45.0386, -144.336, -75.7463, 43.2007
5.34455, 40, -26.5109, -28.898, 45.1344, -144.246, -75.6581, 43.2737
5.35264, 40, -26.4864, -28.981, 45.1978, -144.187, -75.5989, 43.3244
5.36151, 40, -26.4616, -29.0637, 45.2608, -144.127, -75.5406, 43.3774
5.36715, 40, -26.4491, -29.1049, 45.2922, -144.097, -75.5109, 43.4042
5.37668, 41, -26.4238, -29.2279, 45.3859, -144.01, -75.4228, 43.4864
5.38519, 41, -26.3983, -29.2688, 45.417, -143.98, -75.3938, 43.5439
5.39101, 41, -26.3724, -29.3502, 45.4789, -143.921, -75.3348, 43.5732
5.40131, 41, -26.3329, -29.4715, 45.571, -143.834, -75.2477, 43.6626
5.40782, 41, -26.3197, -29.5118, 45.6015, -143.805, -75.2183, 43.6934
5.41501, 41, -26.293, -29.5921, 45.6622, -143.748, -75.1599, 43.7567
5.42401, 41, -26.266, -29.6718, 45.7224, -143.691, -75.1024, 43.8209
5.43218, 41, -26.2387, -29.7512, 45.7823, -143.634, -75.0441, 43.8872
5.43983, 41, -26.2109, -29.8301, 45.8416, -143.578, -74.9866, 43.9558
5.44702, 41, -26.1828, -29.9086, 45.9007, -143.521, -74.9289, 44.0251
5.45846, 42, -26.1402, -30.0256, 45.9885, -143.438, -74.8425, 44.1341
5.46301, 42, -26.1258, -30.0643, 46.0176, -143.409, -74.8141, 44.1708
5.47109, 42, -26.0968, -30.1415, 46.0755, -143.354, -74.7562, 44.2456
5.47908, 42, -26.0673, -30.2183, 46.1329, -143.299, -74.6992, 44.3232
5.48806, 42, -26.0374, -30.2945, 46.1899, -143.243, -74.6421, 44.4015
5.49602, 42, -26.0074, -30.3704, 46.2464, -143.189, -74.5845, 44.4826
5.50401, 42, -25.9769, -30.4457, 46.3025, -143.135, -74.5279, 44.5647
5.5149, 42, -25.9307, -30.5579, 46.3856, -143.055, -74.4419, 44.6921
5.52001, 42, -25.915, -30.595, 46.4132, -143.029, -74.4137, 44.7351
5.52808, 42, -25.8832, -30.6688, 46.4677, -142.975, -74.3571, 44.8229
5.5371, 42, -25.8511, -30.7421, 46.5219, -142.923, -74.2998, 44.9128
5.54401, 43, -25.8187, -30.815, 46.5756, -142.872, -74.2438, 45.0044
5.5521, 43, -25.7859, -30.8874, 46.6288, -142.82, -74.187, 45.0983
5.55916, 43, -25.7528, -30.9593, 46.6815, -142.769, -74.1307, 45.1937
5.56702, 43, -25.7192, -31.0306, 46.7338, -142.719, -74.0748, 45.2913
5.576, 43, -25.6853, -31.1015, 46.7855, -142.669, -74.0181, 45.3903
5.58417, 43, -25.651, -31.1719, 46.8366, -142.619, -73.9625, 45.4914
5.59282, 43, -25.6162, -31.2415, 46.8873, -142.571, -73.9066, 45.5943
5.59918, 43, -25.5808, -31.3107, 46.9375, -142.521, -73.8505, 45.6988
5.60722, 43, -25.545, -31.3793, 46.9871, -142.474, -73.7954, 45.8055
5.61549, 43, -25.5089, -31.4471, 47.036, -142.426, -73.7393, 45.9136
5.62314, 43, -25.4724, -31.5144, 47.0845, -142.378, -73.6841, 46.0238
5.6338, 44, -25.4354, -31.5811, 47.1323, -142.332, -73.629, 46.1358
5.63947, 44, -25.3978, -31.6472, 47.1795, -142.287, -73.5732, 46.2499
5.64703, 44, -25.36, -31.7128, 47.2262, -142.241, -73.5185, 46.3663
5.65504, 44, -25.3217, -31.7777, 47.2724, -142.196, -73.4632, 46.4846
5.66391, 44, -25.2828, -31.8421, 47.3178, -142.153, -73.4081, 46.605
5.67215, 44, -25.2434, -31.9059, 47.3627, -142.109, -73.3539, 46.7275
5.67917, 44, -25.2036, -31.969, 47.407, -142.066, -73.2989, 46.8514
5.68824, 44, -25.1634, -32.0315, 47.4506, -142.025, -73.2448, 46.9775
5.69631, 44, -25.1226, -32.0931, 47.4936, -141.983, -73.1908, 47.1058
5.70338, 44, -25.0813, -32.154, 47.536, -141.942, -73.1361, 47.2362
5.71151, 45, -25.0396, -32.2141, 47.5777, -141.903, -73.0827, 47.3689
5.72033, 45, -24.9974, -32.2736, 47.6187, -141.864, -73.0288, 47.5037
5.72752, 45, -24.9545, -32.3323, 47.6591, -141.825, -72.975, 47.6404
5.7361, 45, -24.9111, -32.3905, 47.6986, -141.787, -72.9222, 47.7795
5.74441, 45, -24.8673, -32.4479, 47.7376, -141.75, -72.8685, 47.9204
5.75158, 45, -24.8452, -32.5047, 47.7758, -141.714, -72.8155, 48.063
5.76046, 45, -24.778, -32.5607, 47.8132, -141.678, -72.763, 48.2078
5.76793, 45, -24.7553, -32.5885, 47.85, -141.643, -72.7097, 48.3544
5.77603, 45, -24.6866, -32.6704, 47.886, -141.609, -72.6575, 48.5033
5.78408, 45, -24.64, -32.724, 47.9212, -141.576, -72.6052, 48.6541
5.7919, 46, -24.6165, -32.7505, 47.9386, -141.56, -72.5787, 48.7302
5.80014, 46, -24.5452, -32.8285, 47.9897, -141.511, -72.501, 48.9619
5.80836, 46, -24.4969, -32.8793, 48.0226, -141.481, -72.449, 49.1187
5.815, 46, -24.4725, -32.9044, 48.0388, -141.466, -72.4229, 49.1979
5.82433, 46, -24.3987, -32.9784, 48.0864, -141.423, -72.3462, 49.439
5.831, 46, -24.3738, -33.0027, 48.1018, -141.409, -72.3205, 49.5205
5.84225, 46, -24.2981, -33.0741, 48.1468, -141.368, -72.2435, 49.7677
5.84701, 46, -24.2727, -33.0975, 48.1614, -141.355, -72.2185, 49.8511
5.85654, 46, -24.1955, -33.1666, 48.204, -141.317, -72.1424, 50.1042
5.86559, 46, -24.143, -33.2115, 48.2312, -141.293, -72.0923, 50.2751
5.87275, 46, -24.0901, -33.2554, 48.2576, -141.271, -72.0428, 50.4478
5.88059, 47, -24.0634, -33.277, 48.2705, -141.248, -71.9925, 50.623
5.88795, 47, -24.0094, -33.3194, 48.2956, -141.237, -71.9676, 50.7113
5.89506, 47, -23.9549, -33.3609, 48.3198, -141.217, -71.9191, 50.8894
5.90504, 47, -23.872, -33.4208, 48.3543, -141.189, -71.8454, 51.1608
5.911, 47, -23.8439, -33.4403, 48.3653, -141.18, -71.821, 51.252
5.92001, 47, -23.7875, -33.4785, 48.3868, -141.163, -71.7731, 51.4361
5.9271, 47, -23.7304, -33.5156, 48.4076, -141.148, -71.7248, 51.6224
5.93516, 47, -23.6727, -33.5517, 48.4274, -141.133, -71.6767, 51.811
5.944, 47, -23.6144, -33.5866, 48.446, -141.119, -71.6297, 52.0016
5.95099, 47, -23.5553, -33.6207, 48.4637, -141.107, -71.5828, 52.1943
5.95897, 48, -23.4957, -33.6536, 48.4805, -141.095, -71.5358, 52.3889
5.968, 48, -23.4354, -33.6855, 48.496, -141.085, -71.4901, 52.5854
5.975, 48, -23.3744, -33.7161, 48.5105, -141.075, -71.4444, 52.7841
5.984, 48, -23.3128, -33.7457, 48.5242, -141.067, -71.3984, 52.9848
5.99205, 48, -23.2506, -33.774, 48.5368, -141.061, -71.3538, 53.1874
5.99899, 48, -23.1876, -33.8011, 48.5483, -141.055, -71.3097, 53.3922
6.00814, 48, -23.1241, -33.8268, 48.5587, -141.051, -71.2652, 53.5987
6.01582, 48, -23.0598, -33.8515, 48.5683, -141.049, -71.2217, 53.8075
6.024, 48, -22.9948, -33.8749, 48.5767, -141.047, -71.179, 54.0185
6.03443, 48, -22.8961, -33.9074, 48.5872, -141.046, -71.1144, 54.3382
6.03899, 48, -22.8628, -33.9177, 48.5902, -141.046, -71.0932, 54.4457
6.04799, 49, -22.7958, -33.9373, 48.5953, -141.047, -71.0519, 54.6618
6.056, 49, -22.728, -33.9554, 48.5991, -141.05, -71.011, 54.8797
6.06399, 49, -22.6597, -33.9722, 48.6018, -141.054, -70.9698, 55.0998
6.07206, 49, -22.5906, -33.9878, 48.6033, -141.059, -70.9297, 55.3216
6.08007, 49, -22.5209, -34.0019, 48.6039, -141.066, -70.8905, 55.5453
6.08813, 49, -22.4505, -34.0144, 48.6037, -141.075, -70.8514, 55.7706
6.097, 49, -22.3794, -34.0254, 48.6024, -141.086, -70.8125, 55.998
6.10406, 49, -22.3076, -34.0352, 48.6001, -141.098, -70.7749, 56.2277
6.11206, 49, -22.2351, -34.0436, 48.5965, -141.112, -70.7383, 56.4591
6.11916, 49, -22.1618, -34.0506, 48.5917, -141.128, -70.7018, 56.6923
6.12711, 50, -22.088, -34.056, 48.5855, -141.144, -70.6657, 56.927
6.1351, 50, -22.0135, -34.0598, 48.578, -141.162, -70.6311, 57.1636
6.143, 50, -21.9384, -34.0621, 48.5692, -141.181, -70.5971, 57.4023
6.15206, 50, -21.8626, -34.0631, 48.5591, -141.202, -70.5636, 57.6427
6.16006, 50, -21.786, -34.0629, 48.5477, -141.224, -70.5303, 57.8848
6.16799, 50, -21.7085, -34.0612, 48.5352, -141.249, -70.4982, 58.1287
6.17599, 50, -21.6302, -34.058, 48.5211, -141.275, -70.4674, 58.3746
6.18425, 50, -21.5514, -34.0532, 48.5056, -141.302, -70.4375, 58.6222
6.19142, 50, -21.4719, -34.0466, 48.4889, -141.33, -70.4078, 58.8711
6.20008, 50, -21.392, -34.0382, 48.4708, -141.359, -70.3788, 59.1215
6.20835, 51, -21.3114, -34.028, 48.4513, -141.392, -70.3511, 59.3734
6.21541, 51, -21.2303, -34.0161, 48.4304, -141.425, -70.3244, 59.6273
6.22365, 51, -21.1484, -34.0027, 48.4081, -141.459, -70.2988, 59.8826
6.23294, 51, -21.0656, -33.9876, 48.3843, -141.495, -70.2737, 60.1393
6.24008, 51, -20.9821, -33.9703, 48.3593, -141.534, -70.2492, 60.3977
6.24769, 51, -20.8979, -33.9511, 48.3328, -141.573, -70.2257, 60.6582
6.25753, 51, -20.813, -33.9303, 48.305, -141.614, -70.2036, 60.9201
6.26592, 51, -20.7275, -33.9075, 48.2755, -141.656, -70.1826, 61.1834
6.27093, 51, -20.6846, -33.8954, 48.2603, -141.678, -70.1727, 61.3156
6.28415, 51, -20.555, -33.8424, 48.1961, -141.769, -70.1355, 61.8483
6.2871, 51, -20.5115, -33.8424, 48.1961, -141.769, -70.1355, 61.8483
6.29618, 52, -20.38, -33.7978, 48.144, -141.842, -70.11, 62.2514
6.30298, 52, -20.3359, -33.7819, 48.1259, -141.866, -70.1019, 62.3866
6.31099, 52, -20.2471, -33.7487, 48.0887, -141.917, -70.0866, 62.6581
6.32028, 52, -20.1125, -33.6953, 48.0299, -141.996, -70.0662, 63.0685
6.32704, 52, -20.0674, -33.6764, 48.0096, -142.023, -70.0601, 63.2057
6.33514, 52, -19.9767, -33.6372, 47.968, -142.078, -70.0489, 63.481
6.34439, 52, -19.8854, -33.5746, 47.9026, -142.164, -70.0347, 63.8964
6.35257, 52, -19.7474, -33.5303, 47.8572, -142.222, -70.0268, 64.175
6.36056, 52, -19.6549, -33.484, 47.8102, -142.283, -70.0203, 64.4547
6.36876, 52, -19.5619, -33.4357, 47.7618, -142.344, -70.0151, 64.7354
6.37653, 53, -19.5152, -33.4107, 47.7118, -142.408, -70.0114, 65.0179
6.38462, 53, -19.4213, -33.3594, 47.6863, -142.473, -70.009, 65.3015
6.39276, 53, -19.3268, -33.2784, 47.6075, -142.54, -70.0078, 65.5861
6.39998, 53, -19.2317, -33.2504, 47.5804, -142.573, -70.0075, 65.7286
6.40803, 53, -19.1361, -33.1928, 47.5252, -142.642, -70.0077, 66.0148
6.41604, 53, -19.0399, -33.1331, 47.4684, -142.712, -70.0089, 66.3023
6.42398, 53, -18.9434, -33.0713, 47.4101, -142.783, -70.0118, 66.5907
6.43219, 53, -18.8463, -33.0072, 47.3501, -142.856, -70.0163, 66.8803
6.4421, 53, -18.7, -32.907, 47.2574, -142.967, -70.0262, 67.3171
6.44797, 53, -18.6509, -32.8724, 47.2257, -143.005, -70.0303, 67.4632
6.45814, 53, -18.503, -32.7655, 47.1282, -143.12, -70.0453, 67.9021
6.46297, 54, -18.4534, -32.7288, 47.095, -143.159, -70.0513, 68.0486
6.47213, 54, -18.3538, -32.6536, 47.0273, -143.238, -70.0647, 68.3429
6.47898, 54, -18.254, -32.5763, 46.9582, -143.319, -70.08, 68.6377
6.48798, 54, -18.1537, -32.4968, 46.8876, -143.401, -70.0975, 68.9334
6.49598, 54, -18.0531, -32.4152, 46.8154, -143.484, -70.1169, 69.2297
6.50297, 54, -17.9521, -32.3313, 46.7416, -143.568, -70.1378, 69.5273
6.51219, 54, -17.8507, -32.2451, 46.6661, -143.654, -70.1603, 69.8256
6.51997, 54, -17.7489, -32.1567, 46.589, -143.74, -70.1843, 70.1244
6.52804, 54, -17.6468, -32.0659, 46.5104, -143.828, -70.2103, 70.4237
6.53706, 54, -17.5443, -31.9728, 46.4303, -143.917, -70.2386, 70.7241
6.54394, 55, -17.4416, -31.8773, 46.3487, -144.007, -70.2691, 71.0248
6.55212, 55, -17.3385, -31.7797, 46.2657, -144.098, -70.301, 71.3261
6.55908, 55, -17.2353, -31.6798, 46.1812, -144.19, -70.3345, 71.6285
6.56804, 55, -17.1317, -31.5775, 46.0951, -144.283, -70.3701, 71.9314
6.57597, 55, -17.0277, -31.4728, 46.0074, -144.378, -70.4084, 72.2343
6.58413, 55, -16.9234, -31.3658, 45.9181, -144.473, -70.4479, 72.5375
6.5929, 55, -16.8188, -31.2566, 45.8271, -144.569, -70.489, 72.8413
6.59915, 55, -16.714, -31.1451, 45.7346, -144.666, -70.5329, 73.1454
6.6072, 55, -16.6092, -31.0315, 45.6408, -144.763, -70.5787, 73.4497
6.61541, 55, -16.5042, -30.9157, 45.5456, -144.862, -70.6259, 73.7543
6.62308, 55, -16.3993, -30.7974, 45.449, -144.962, -70.6756, 74.0596
6.63362, 56, -16.2941, -30.6767, 45.3507, -145.062, -70.7275, 74.3649
6.63958, 56, -16.1886, -30.5536, 45.2508, -145.163, -70.7805, 74.67
6.64699, 56, -16.083, -30.4281, 45.1493, -145.265, -70.8368, 74.9757
6.65501, 56, -15.977, -30.3005, 45.0465, -145.368, -70.8947, 75.2815
6.66402, 56, -15.8712, -30.1706, 44.9425, -145.471, -70.9547, 75.5872
6.67211, 56, -15.7653, -30.0383, 44.8371, -145.575, -71.0172, 75.8934
6.67913, 56, -15.6594, -29.9036, 44.7303, -145.679, -71.0811, 76.2001
6.68772, 56, -15.5533, -29.7666, 44.6219, -145.784, -71.1482, 76.5062
6.69604, 56, -15.4472, -29.6275, 44.5118, -145.889, -71.2164, 76.8119
6.70408, 56, -15.341, -29.4864, 44.4003, -145.995, -71.2874, 77.1175
6.71143, 57, -15.2347, -29.343, 44.2877, -146.101, -71.3598, 77.4232
6.72009, 57, -15.1284, -29.1971, 44.1738, -146.208, -71.4352, 77.7287
6.72807, 57, -15.0222, -29.0491, 44.0586, -146.315, -71.5122, 78.0336
6.73574, 57, -14.916, -28.8988, 43.9419, -146.422, -71.5916, 78.3388
6.74408, 57, -14.8098, -28.7465, 43.8236, -146.53, -71.6728, 78.6436
6.75162, 57, -14.7038, -28.592, 43.7041, -146.637, -71.7568, 78.948
6.7603, 57, -14.5978, -28.4349, 43.5835, -146.745, -71.8428, 79.2521
6.76798, 57, -14.4919, -28.2756, 43.4618, -146.854, -71.9309, 79.556
6.77554, 57, -14.4391, -28.1952, 43.4005, -146.908, -71.9759, 79.7078
6.78433, 57, -14.2805, -27.9517, 43.2145, -147.071, -72.1142, 80.1621
6.79096, 57, -14.2276, -27.8694, 43.1517, -147.125, -72.1613, 80.3136
6.79902, 58, -14.122, -27.7029, 43.0253, -147.233, -72.2566, 80.6163
6.80916, 58, -13.964, -27.4496, 42.8337, -147.396, -72.4044, 81.0687
6.81501, 58, -13.9115, -27.3644, 42.7693, -147.45, -72.4546, 81.219
6.82432, 58, -13.7541, -27.1064, 42.5744, -147.613, -72.6089, 81.6692
6.83097, 58, -13.7018, -27.0191, 42.5087, -147.667, -72.6615, 81.8191
6.84202, 58, -13.5455, -26.7537, 42.3103, -147.83, -72.8222, 82.2673
6.84849, 58, -13.4416, -26.5747, 42.1767, -147.938, -72.9323, 82.5651
6.85655, 58, -13.3379, -26.3941, 42.0419, -148.045, -73.0442, 82.8625
6.86537, 58, -13.2342, -26.211, 41.9062, -148.153, -73.1583, 83.1588
6.87096, 58, -13.1824, -26.1185, 41.838, -148.206, -73.2162, 83.3067
6.88331, 59, -13.0792, -25.9321, 41.6321, -148.366, -73.3924, 83.7483
6.88915, 59, -12.9763, -25.7446, 41.5631, -148.42, -73.4524, 83.8953
6.89503, 59, -12.8738, -25.5557, 41.424, -148.526, -73.5737, 84.1885
6.90499, 59, -12.721, -25.2682, 41.2136, -148.685, -73.7594, 84.6259
6.91202, 59, -12.6702, -25.1716, 41.1431, -148.737, -73.8223, 84.7714
6.91998, 59, -12.5689, -24.9778, 41.0015, -148.842, -73.9495, 85.0619
6.92801, 59, -12.4676, -24.7822, 40.8592, -148.946, -74.079, 85.3509
6.93612, 59, -12.3667, -24.5842, 40.7158, -149.05, -74.2103, 85.6386
6.94301, 59, -12.266, -24.3847, 40.5716, -149.153, -74.3437, 85.9249
6.95203, 59, -12.1658, -24.1842, 40.4265, -149.255, -74.4789, 86.2102
6.96019, 60, -12.0662, -23.9819, 40.2811, -149.357, -74.6159, 86.4941
6.96796, 60, -11.9672, -23.7772, 40.135, -149.459, -74.7549, 86.7765
6.97601, 60, -11.8687, -23.5711, 39.9882, -149.559, -74.8956, 87.0576
6.98397, 60, -11.7707, -23.3637, 39.8407, -149.659, -75.0382, 87.3376
6.99203, 60, -11.673, -23.1543, 39.6927, -149.758, -75.1824, 87.6161
7.00003, 60, -11.5755, -22.9434, 39.5442, -149.855, -75.3286, 87.8931
7.00812, 60, -11.4784, -22.732, 39.3951, -149.952, -75.4763, 88.1684
7.01578, 60, -11.3817, -22.5195, 39.2452, -150.049, -75.6259, 88.4427
7.02396, 60, -11.2856, -22.3054, 39.0948, -150.144, -75.7769, 88.7153
7.03407, 60, -11.1428, -21.9826, 38.8689, -150.285, -76.0064, 89.1211
7.03896, 60, -11.0955, -21.8743, 38.7934, -150.332, -76.0837, 89.2558
7.04698, 61, -11.0013, -21.6563, 38.6418, -150.424, -76.2395, 89.524
7.05596, 61, -10.9078, -21.437, 38.49, -150.516, -76.3968, 89.7901
7.06397, 61, -10.8146, -21.2172, 38.3381, -150.607, -76.5555, 90.0541
7.07202, 61, -10.7219, -20.9961, 38.1861, -150.696, -76.7158, 90.3163
7.08003, 61, -10.6296, -20.7735, 38.0337, -150.784, -76.8775, 90.5769
7.08812, 61, -10.538, -20.5505, 37.8808, -150.871, -77.041, 90.8358
7.09596, 61, -10.447, -20.3265, 37.7278, -150.957, -77.2057, 91.0928
7.10403, 61, -10.3565, -20.1011, 37.5749, -151.042, -77.3717, 91.3475
7.11202, 61, -10.2667, -19.8751, 37.4217, -151.126, -77.539, 91.6005
7.11996, 61, -10.1776, -19.6489, 37.2683, -151.209, -77.7072, 91.8517
7.12799, 62, -10.089, -19.4215, 37.1148, -151.291, -77.8769, 92.1006
7.13603, 62, -10.0011, -19.1934, 36.9618, -151.371, -78.0474, 92.3473
7.14396, 62, -9.91367, -18.965, 36.8089, -151.45, -78.2191, 92.5916
7.15103, 62, -9.82702, -18.7356, 36.6556, -151.528, -78.3918, 92.8343
7.159, 62, -9.74111, -18.5054, 36.5022, -151.604, -78.5653, 93.0747
7.16705, 62, -9.65571, -18.2757, 36.3492, -151.68, -78.7398, 93.3129
7.17589, 62, -9.57091, -18.0456, 36.1964, -151.754, -78.9152, 93.5488
7.1842, 62, -9.48657, -17.8149, 36.0436, -151.826, -79.0918, 93.7828
7.1925, 62, -9.40274, -17.5843, 35.8907, -151.898, -79.2689, 94.0148
7.20011, 62, -9.31964, -17.3532, 35.7384, -151.968, -79.447, 94.244
7.20817, 62, -9.23714, -17.121, 35.5867, -152.037, -79.6259, 94.4706
7.21538, 63, -9.15528, -16.8887, 35.4351, -152.105, -79.8057, 94.6946
7.22399, 63, -9.07413, -16.6564, 35.2836, -152.171, -79.9861, 94.916
7.23291, 63, -8.9936, -16.4234, 35.1325, -152.236, -80.1674, 95.1353
7.24013, 63, -8.91377, -16.1905, 34.9819, -152.299, -80.3492, 95.3518
7.2483, 63, -8.83467, -15.9579, 34.8318, -152.362, -80.5317, 95.5657
7.25725, 63, -8.75619, -15.7248, 34.6821, -152.422, -80.7148, 95.7767
7.26675, 63, -8.67839, -15.4919, 34.5326, -152.482, -80.8983, 95.9854
7.2722, 63, -8.6013, -15.2597, 34.3838, -152.539, -81.0822, 96.1915
7.27895, 63, -8.56299, -15.1436, 34.3097, -152.568, -81.1742, 96.2937
7.28798, 63, -8.44892, -14.7949, 34.0881, -152.651, -81.451, 96.5956
7.29581, 64, -8.41129, -14.6789, 34.0144, -152.678, -81.5435, 96.7931
7.30483, 64, -8.29931, -14.3307, 33.7943, -152.757, -81.821, 96.9875
7.31226, 64, -8.22534, -14.0981, 33.6486, -152.808, -82.0064, 97.1793
7.31893, 64, -8.18858, -13.9821, 33.5759, -152.833, -82.0989, 97.2743
7.32909, 64, -8.0793, -13.6355, 33.3589, -152.906, -82.3775, 97.5547
7.33676, 64, -8.00718, -13.4046, 33.2149, -152.953, -82.5635, 97.7378
7.3444, 64, -7.93583, -13.1747, 33.0717, -152.998, -82.7496, 97.918
7.35252, 64, -7.86523, -12.9454, 32.9294, -153.043, -82.9357, 98.095
7.36056, 64, -7.79517, -12.7158, 32.7878, -153.086, -83.1219, 98.2693
7.36853, 64, -7.72584, -12.4867, 32.6469, -153.127, -83.3082, 98.4406
7.37658, 64, -7.65728, -12.2587, 32.5067, -153.166, -83.4946, 98.6084
7.3846, 65, -7.6232, -12.0307, 32.3675, -153.205, -83.6809, 98.7729
7.39272, 65, -7.5219, -11.8032, 32.2293, -153.242, -83.8671, 98.9342
7.39995, 65, -7.4885, -11.6898, 32.1605, -153.259, -83.9602, 99.0135
7.40796, 65, -7.42212, -11.4635, 32.0234, -153.294, -84.1463, 99.1695
7.416, 65, -7.35625, -11.2372, 31.8872, -153.328, -84.3323, 99.3222
7.42395, 65, -7.29104, -11.0117, 31.7518, -153.36, -84.5181, 99.4717
7.43208, 65, -7.22642, -10.7876, 31.6175, -153.39, -84.7037, 99.6179
7.44272, 65, -7.13078, -10.4522, 31.4178, -153.434, -84.9816, 99.8305
7.44794, 65, -7.09918, -10.3408, 31.3517, -153.447, -85.0742, 99.8996
7.45813, 65, -7.00543, -10.0084, 31.1548, -153.488, -85.3512, 100.101
7.46291, 66, -6.97444, -9.89776, 31.0896, -153.5, -85.4435, 100.167
7.47201, 66, -6.91282, -9.67678, 30.9601, -153.524, -85.6275, 100.295
7.47894, 66, -6.85191, -9.4573, 30.8315, -153.546, -85.8115, 100.42
7.48801, 66, -6.7917, -9.23914, 30.704, -153.567, -85.995, 100.54
7.49594, 66, -6.73202, -9.02155, 30.5773, -153.587, -86.178, 100.657
7.50294, 66, -6.67306, -8.80517, 30.4518, -153.606, -86.3607, 100.771
7.51218, 66, -6.61459, -8.59023, 30.3273, -153.624, -86.5429, 100.88
7.51899, 66, -6.55666, -8.37583, 30.2038, -153.64, -86.7247, 100.986
7.52801, 66, -6.49933, -8.16182, 30.0814, -153.655, -86.9063, 101.088
7.537, 66, -6.44246, -7.94941, 29.9601, -153.669, -87.0872, 101.186
7.54404, 66, -6.38609, -7.73825, 29.8397, -153.681, -87.2678, 101.279
7.55209, 67, -6.33031, -7.5275, 29.7204, -153.692, -87.448, 101.369
7.55995, 67, -6.27505, -7.31786, 29.6023, -153.701, -87.6277, 101.454
7.56801, 67, -6.22039, -7.10984, 29.4853, -153.709, -87.8071, 101.535
7.57595, 67, -6.16643, -6.90267, 29.3695, -153.716, -87.9858, 101.612
7.58395, 67, -6.11297, -6.69609, 29.2546, -153.722, -88.1641, 101.685
7.59206, 67, -6.05993, -6.49122, 29.1406, -153.727, -88.3418, 101.755
7.59994, 67, -6.00747, -6.28792, 29.0278, -153.73, -88.5188, 101.819
7.60812, 67, -5.9556, -6.08533, 28.9162, -153.732, -88.6954, 101.88
7.61539, 67, -5.90425, -5.88367, 28.8058, -153.734, -88.8713, 101.936
7.62306, 67, -5.8535, -5.68372, 28.6966, -153.734, -89.0465, 101.988
7.63197, 68, -5.80313, -5.48465, 28.5884, -153.734, -89.2209, 102.035
7.64001, 68, -5.75329, -5.28591, 28.481, -153.734, -89.3949, 102.079
7.64795, 68, -5.70382, -5.08852, 28.3747, -153.732, -89.5683, 102.117
7.6559, 68, -5.65466, -4.89325, 28.2697, -153.728, -89.7409, 102.151
7.66401, 68, -5.60608, -4.69914, 28.1659, -153.723, -89.9132, 102.18
7.672, 68, -5.55804, -4.50595, 28.0632, -153.717, -90.085, 102.204
7.68018, 68, -5.51039, -4.31458, 27.9616, -153.709, -90.2562, 102.224
7.68882, 68, -5.46322, -4.12471, 27.8607, -153.701, -90.4269, 102.24
7.69595, 68, -5.41661, -3.93555, 27.7609, -153.691, -90.597, 102.251
7.70594, 68, -5.37043, -3.74705, 27.6623, -153.68, -90.7666, 102.257
7.71232, 69, -5.32465, -3.56021, 27.5651, -153.668, -90.9357, 102.26
7.71935, 69, -5.27934, -3.37505, 27.4691, -153.655, -91.1043, 102.259
7.72751, 69, -5.2344, -3.19065, 27.3741, -153.64, -91.2723, 102.253
7.7361, 69, -5.18984, -3.00699, 27.2799, -153.625, -91.4397, 102.24
7.74405, 69, -5.14581, -2.82507, 27.1866, -153.607, -91.6064, 102.223
7.75179, 69, -5.10221, -2.64477, 27.0944, -153.589, -91.7723, 102.201
7.76444, 69, -5.03737, -2.37573, 26.9586, -153.561, -92.0203, 102.158
7.76739, 69, -5.03737, -2.37573, 26.9586, -153.561, -92.0203, 102.158
7.77594, 69, -4.97333, -2.10989, 26.8253, -153.532, -92.2666, 102.104
7.78477, 69, -4.93099, -1.93498, 26.7376, -153.511, -92.4302, 102.06
7.792, 69, -4.88888, -1.7608, 26.6508, -153.488, -92.5928, 102.012
7.79897, 70, -4.86793, -1.67399, 26.6077, -153.477, -92.6741, 101.986
7.80873, 70, -4.80575, -1.416, 26.4803, -153.441, -92.9168, 101.9
7.81613, 70, -4.76471, -1.24625, 26.3967, -153.416, -93.078, 101.835
7.82293, 70, -4.74427, -1.16171, 26.3554, -153.404, -93.1583, 101.801
7.83324, 70, -4.68345, -0.909356, 26.2329, -153.366, -93.3984, 101.691
7.83897, 70, -4.66339, -0.825899, 26.1925, -153.352, -93.4781, 101.651
7.84855, 70, -4.60367, -0.578519, 26.0729, -153.31, -93.7169, 101.525
7.85681, 70, -4.56411, -0.415446, 25.9943, -153.282, -93.8752, 101.435
7.86293, 70, -4.54445, -0.334183, 25.9554, -153.268, -93.9541, 101.388
7.87254, 70, -4.48596, -0.0923908, 25.84, -153.224, -94.1901, 101.239
7.88058, 71, -4.44718, 0.0665999, 25.7644, -153.194, -94.3469, 101.132
7.88851, 71, -4.4278, 0.1455, 25.6898, -153.163, -94.5031, 101.021
7.89678, 71, -4.38921, 0.302442, 25.6163, -153.132, -94.6586, 100.904
7.90393, 71, -4.35079, 0.458283, 25.5799, -153.116, -94.7362, 100.844
7.91193, 71, -4.31256, 0.612884, 25.5077, -153.084, -94.8907, 100.719
7.92, 71, -4.27444, 0.765831, 25.4365, -153.051, -95.0448, 100.589
7.92803, 71, -4.23641, 0.917107, 25.3663, -153.018, -95.198, 100.454
7.93516, 71, -4.19859, 1.06711, 25.297, -152.984, -95.351, 100.314
7.94398, 71, -4.161, 1.21596, 25.2285, -152.951, -95.5031, 100.169
7.95316, 71, -4.10477, 1.43627, 25.1277, -152.898, -95.7301, 99.9417
7.95904, 71, -4.08605, 1.50885, 25.0946, -152.881, -95.8053, 99.8633
7.96794, 72, -4.04873, 1.65274, 25.029, -152.845, -95.9556, 99.7028
7.97732, 72, -4.01152, 1.79529, 24.9325, -152.793, -96.1791, 99.4519
7.98299, 72, -3.97444, 1.93646, 24.9008, -152.775, -96.2535, 99.3657
7.99198, 72, -3.93729, 2.07607, 24.838, -152.738, -96.4015, 99.1895
8.00157, 72, -3.88174, 2.28235, 24.7455, -152.684, -96.6223, 98.9159
8.00866, 72, -3.86323, 2.35022, 24.7151, -152.666, -96.6953, 98.8221
8.01494, 72, -3.82617, 2.48487, 24.655, -152.629, -96.8412, 98.6309
8.02399, 72, -3.78903, 2.61812, 24.5959, -152.592, -96.986, 98.4348
8.03192, 72, -3.75197, 2.74982, 24.5376, -152.555, -97.1303, 98.2337
8.04001, 72, -3.71501, 2.87981, 24.4801, -152.519, -97.2737, 98.028
8.05118, 73, -3.65943, 3.07155, 24.3958, -152.464, -97.4873, 97.7104
8.05494, 73, -3.64083, 3.13457, 24.3681, -152.445, -97.558, 97.6022
8.06393, 73, -3.60361, 3.25937, 24.3136, -152.409, -97.6988, 97.3822
8.07199, 73, -3.56647, 3.38254, 24.2599, -152.374, -97.8386, 97.1574
8.07994, 73, -3.52928, 3.50397, 24.2071, -152.337, -97.9775, 96.9282
8.08793, 73, -3.49182, 3.62355, 24.1551, -152.301, -98.1155, 96.6945
8.096, 73, -3.45414, 3.74111, 24.1042, -152.265, -98.2525, 96.4562
8.10407, 73, -3.41638, 3.85667, 24.0539, -152.23, -98.3883, 96.2131
8.11193, 73, -3.37849, 3.97031, 24.0047, -152.195, -98.5232, 95.9658
8.12, 73, -3.34039, 4.08209, 23.9563, -152.16, -98.6567, 95.7147
8.12801, 73, -3.30207, 4.19196, 23.9089, -152.125, -98.7889, 95.4596
8.13509, 74, -3.26377, 4.29981, 23.8623, -152.092, -98.9199, 95.2005
8.14393, 74, -3.22538, 4.40565, 23.8166, -152.058, -99.0494, 94.9375
8.15199, 74, -3.18679, 4.5094, 23.772, -152.024, -99.1777, 94.671
8.15993, 74, -3.14783, 4.61095, 23.7282, -151.991, -99.3043, 94.401
8.16793, 74, -3.10877, 4.71038, 23.6854, -151.959, -99.4298, 94.1273
8.17615, 74, -3.06957, 4.80771, 23.6437, -151.928, -99.5534, 93.8499
8.18394, 74, -3.03008, 4.90284, 23.6027, -151.896, -99.6756, 93.5691
8.19193, 74, -2.99022, 4.99567, 23.5628, -151.865, -99.7962, 93.2852
8.20011, 74, -2.95027, 5.08618, 23.5238, -151.835, -99.9147, 92.998
8.20722, 74, -2.91016, 5.17435, 23.4858, -151.806, -100.032, 92.7078
8.21541, 75, -2.86975, 5.26006, 23.4488, -151.778, -100.147, 92.4151
8.22518, 75, -2.82895, 5.34323, 23.4127, -151.75, -100.26, 92.1201
8.23148, 75, -2.78805, 5.42392, 23.3776, -151.723, -100.372, 91.8221
8.24009, 75, -2.747, 5.50204, 23.3435, -151.697, -100.481, 91.5217
8.24829, 75, -2.7056, 5.57753, 23.3104, -151.672, -100.589, 91.2192
8.25588, 75, -2.66376, 5.6504, 23.2783, -151.648, -100.694, 90.9141
8.26498, 75, -2.62175, 5.72062, 23.2473, -151.624, -100.797, 90.6067
8.27198, 75, -2.57954, 5.78809, 23.2175, -151.601, -100.898, 90.2973
8.27973, 75, -2.55829, 5.85288, 23.1886, -151.579, -100.996, 89.9863
8.28802, 75, -2.49409, 5.91487, 23.1608, -151.558, -101.093, 89.6739
8.29499, 75, -2.47261, 5.94478, 23.1473, -151.548, -101.14, 89.5169
8.30287, 76, -2.42956, 6.00241, 23.1213, -151.529, -101.232, 89.2025
8.31208, 76, -2.36442, 6.08332, 23.0842, -151.502, -101.366, 88.7287
8.31892, 76, -2.34262, 6.10877, 23.0724, -151.493, -101.409, 88.5702
8.32825, 76, -2.27691, 6.18049, 23.0388, -151.469, -101.535, 88.0931
8.335, 76, -2.25485, 6.2029, 23.0282, -151.461, -101.576, 87.9337
8.34515, 76, -2.18814, 6.26532, 22.9982, -151.439, -101.693, 87.4539
8.35114, 76, -2.16579, 6.28446, 22.9888, -151.432, -101.731, 87.2935
8.3589, 76, -2.121, 6.32045, 22.9709, -151.419, -101.804, 86.9723
8.36936, 76, -2.05322, 6.36844, 22.9463, -151.402, -101.907, 86.49
8.375, 76, -2.0305, 6.38283, 22.9388, -151.397, -101.94, 86.3291
8.38455, 77, -1.96207, 6.42061, 22.9181, -151.383, -102.035, 85.8465
8.39318, 77, -1.91618, 6.44187, 22.9058, -151.375, -102.093, 85.5256
8.39893, 77, -1.89313, 6.45129, 22.9002, -151.371, -102.121, 85.3652
8.40893, 77, -1.82389, 6.47366, 22.8856, -151.362, -102.2, 84.8843
8.41499, 77, -1.80072, 6.4793, 22.8814, -151.359, -102.224, 84.7244
8.42617, 77, -1.73082, 6.49143, 22.871, -151.352, -102.293, 84.2453
8.43335, 77, -1.70745, 6.49512, 22.8657, -151.348, -102.334, 83.9263
8.43891, 77, -1.66076, 6.49563, 22.8636, -151.347, -102.353, 83.7672
8.44791, 77, -1.61384, 6.49404, 22.8604, -151.345, -102.388, 83.4497
8.45501, 77, -1.56676, 6.48868, 22.8585, -151.344, -102.42, 83.1332
8.46387, 78, -1.51964, 6.4795, 22.8579, -151.343, -102.448, 82.8176
8.47192, 78, -1.47239, 6.46681, 22.8585, -151.343, -102.473, 82.5032
8.47891, 78, -1.4249, 6.45043, 22.8608, -151.343, -102.493, 82.1905
8.48791, 78, -1.37742, 6.42993, 22.8646, -151.343, -102.509, 81.879
8.49643, 78, -1.32995, 6.40559, 22.8699, -151.345, -102.521, 81.5689
8.50391, 78, -1.28218, 6.37767, 22.8768, -151.348, -102.529, 81.2607
8.51191, 78, -1.2343, 6.34574, 22.8855, -151.351, -102.533, 80.954
8.52219, 78, -1.16242, 6.29023, 22.9016, -151.359, -102.533, 80.4969
8.52805, 78, -1.13837, 6.26975, 22.9078, -151.362, -102.531, 80.3455
8.53598, 78, -1.0903, 6.22586, 22.9216, -151.368, -102.524, 80.0442
8.54898, 79, -1.0182, 6.1521, 22.9454, -151.379, -102.505, 79.5955
8.55197, 79, -0.994083, 6.12549, 22.9541, -151.383, -102.497, 79.4468
8.55999, 79, -0.945719, 6.06917, 22.9732, -151.392, -102.477, 79.1512
8.56792, 79, -0.897525, 6.00863, 22.9941, -151.401, -102.452, 78.8579
8.57591, 79, -0.849333, 5.94399, 23.0167, -151.411, -102.422, 78.5666
8.58399, 79, -0.801029, 5.87536, 23.0412, -151.422, -102.387, 78.2773
8.59191, 79, -0.752783, 5.80265, 23.0677, -151.434, -102.349, 77.9904
8.60019, 79, -0.704665, 5.7259, 23.0961, -151.446, -102.306, 77.7057
8.6081, 79, -0.656553, 5.6451, 23.1265, -151.459, -102.257, 77.4233
8.61522, 79, -0.608436, 5.56019, 23.1587, -151.473, -102.205, 77.1429
8.62504, 79, -0.560353, 5.47106, 23.1929, -151.487, -102.148, 76.8653
8.63188, 80, -0.512258, 5.37766, 23.2291, -151.502, -102.087, 76.5902
8.63992, 80, -0.464186, 5.28009, 23.2672, -151.516, -102.021, 76.3172
8.648, 80, -0.416218, 5.17834, 23.3073, -151.531, -101.95, 76.0466
8.65591, 80, -0.368292, 5.07227, 23.3494, -151.546, -101.875, 75.7787
8.66391, 80, -0.320216, 4.96204, 23.3936, -151.561, -101.795, 75.5133
8.67273, 80, -0.272256, 4.84759, 23.44, -151.578, -101.711, 75.2505
8.67991, 80, -0.224353, 4.72879, 23.4883, -151.594, -101.622, 74.9899
8.68792, 80, -0.176383, 4.60577, 23.5389, -151.612, -101.528, 74.7318
8.69689, 80, -0.128424, 4.47879, 23.5916, -151.629, -101.429, 74.4766
8.70584, 80, -0.0805842, 4.34778, 23.6465, -151.646, -101.326, 74.2237
8.71198, 80, -0.0327412, 4.2125, 23.7035, -151.664, -101.219, 73.973
8.72484, 81, 0.0388602, 4.00147, 23.7931, -151.69, -101.049, 73.6014
8.72797, 81, 0.0626497, 3.92893, 23.8239, -151.699, -100.99, 73.479
8.73606, 81, 0.110211, 3.78087, 23.8874, -151.717, -100.869, 73.2356
8.74401, 81, 0.157779, 3.62894, 23.9533, -151.735, -100.743, 72.9948
8.75201, 81, 0.205095, 3.47304, 24.0215, -151.754, -100.612, 72.7563
8.7604, 81, 0.252294, 3.31281, 24.0921, -151.773, -100.476, 72.5206
8.76849, 81, 0.275894, 3.23103, 24.1651, -151.791, -100.336, 72.2875
8.77617, 81, 0.346617, 2.97999, 24.2404, -151.81, -100.191, 72.0568
8.78417, 81, 0.393592, 2.80836, 24.318, -151.828, -100.042, 71.8284
8.7909, 81, 0.417117, 2.72105, 24.3576, -151.837, -99.9651, 71.715
8.79998, 82, 0.48778, 2.45238, 24.4798, -151.865, -99.7292, 71.3784
8.80805, 82, 0.534777, 2.26811, 24.5642, -151.884, -99.5665, 71.1568
8.81495, 82, 0.558277, 2.17475, 24.6073, -151.893, -99.4835, 71.0469
8.82428, 82, 0.62903, 1.88947, 24.7403, -151.921, -99.228, 70.7204
8.8309, 82, 0.652564, 1.79207, 24.7859, -151.93, -99.1406, 70.6127
8.84099, 82, 0.722887, 1.49324, 24.9265, -151.958, -98.8715, 70.293
8.84954, 82, 0.769922, 1.28982, 25.0232, -151.975, -98.6868, 70.0831
8.85767, 82, 0.816964, 1.08257, 25.1221, -151.993, -98.4978, 69.8751
8.86294, 82, 0.840432, 0.977234, 25.1725, -152.002, -98.4018, 69.7721
8.87244, 82, 0.910868, 0.655734, 25.3272, -152.029, -98.1079, 69.4656
8.88053, 82, 0.957917, 0.437205, 25.4336, -152.046, -97.9067, 69.264
8.88846, 83, 1.00482, 0.214156, 25.5426, -152.064, -97.7014, 69.0649
8.89647, 83, 1.02826, 0.101032, 25.5981, -152.072, -97.4917, 68.868
8.90385, 83, 1.07518, -0.127542, 25.7108, -152.089, -97.3852, 68.7702
8.91195, 83, 1.12208, -0.359352, 25.8258, -152.105, -97.1687, 68.5766
8.9199, 83, 1.16882, -0.595219, 25.9434, -152.121, -96.9478, 68.385
8.92705, 83, 1.21571, -0.834373, 26.0638, -152.136, -96.7226, 68.1954
8.9395, 83, 1.2862, -1.19984, 26.2492, -152.16, -96.3779, 67.9155
8.94285, 83, 1.30965, -1.32381, 26.3122, -152.167, -96.261, 67.8232
8.95199, 83, 1.35666, -1.57403, 26.4397, -152.182, -96.0247, 67.6401
8.9599, 83, 1.40391, -1.82722, 26.5694, -152.197, -95.7849, 67.4587
8.96796, 84, 1.45122, -2.0842, 26.7014, -152.211, -95.5416, 67.2793
8.97771, 84, 1.5224, -2.47502, 26.9043, -152.232, -95.1699, 67.0143
8.9839, 84, 1.54626, -2.60694, 26.9732, -152.238, -95.044, 66.9271
8.99195, 84, 1.59389, -2.87356, 27.1128, -152.251, -94.7895, 66.7544
8.9999, 84, 1.64154, -3.14286, 27.2549, -152.263, -94.5312, 66.5838
9.00694, 84, 1.68939, -3.41523, 27.3995, -152.274, -94.2694, 66.4155
9.01589, 84, 1.73722, -3.69071, 27.5465, -152.285, -94.0041, 66.2488
9.02297, 84, 1.78508, -3.9684, 27.6955, -152.296, -93.7356, 66.0841
9.03253, 84, 1.83307, -4.24959, 27.8465, -152.307, -93.4642, 65.9212
9.0399, 84, 1.88132, -4.53359, 28, -152.317, -93.1897, 65.7604
9.04886, 85, 1.92964, -4.82019, 28.1559, -152.327, -92.9124, 65.6017
9.05506, 85, 1.97811, -5.10983, 28.3137, -152.336, -92.632, 65.445
9.0639, 85, 2.02682, -5.40118, 28.4729, -152.344, -92.3487, 65.2907
9.07196, 85, 2.07558, -5.6953, 28.6345, -152.352, -92.0625, 65.1383
9.0799, 85, 2.12439, -5.99161, 28.7992, -152.359, -91.7733, 64.9885
9.0879, 85, 2.1735, -6.28977, 28.9665, -152.365, -91.4811, 64.8407
9.09589, 85, 2.22269, -6.59029, 29.1351, -152.371, -91.1867, 64.6953
9.10404, 85, 2.27199, -6.89194, 29.3054, -152.376, -90.8897, 64.5524
9.11196, 85, 2.32171, -7.19625, 29.4782, -152.38, -90.5904, 64.4112
9.11998, 85, 2.37153, -7.50279, 29.6531, -152.384, -90.2889, 64.272
9.12743, 85, 2.42141, -7.81145, 29.8289, -152.387, -89.9852, 64.1352
9.13505, 86, 2.47167, -8.12226, 30.0061, -152.389, -89.6792, 64.0003
9.14301, 86, 2.52212, -8.43408, 30.186, -152.39, -89.3712, 63.8679
9.15191, 86, 2.57275, -8.74813, 30.3681, -152.391, -89.0608, 63.7381
9.15994, 86, 2.6236, -9.06341, 30.5513, -152.391, -88.7486, 63.6113
9.1679, 86, 2.67468, -9.38023, 30.7361, -152.391, -88.4347, 63.4874
9.17612, 86, 2.72586, -9.69784, 30.9233, -152.391, -88.1189, 63.366
9.18415, 86, 2.77716, -10.0164, 31.1118, -152.391, -87.8015, 63.2472
9.19113, 86, 2.82877, -10.3366, 31.3014, -152.389, -87.4825, 63.1308
9.19923, 86, 2.88039, -10.6575, 31.4929, -152.386, -87.1622, 63.0168
9.2081, 86, 2.93219, -10.9795, 31.6862, -152.382, -86.8404, 62.9054
9.21586, 87, 2.98427, -11.3016, 31.88, -152.378, -86.5174, 62.7968
9.22495, 87, 3.03642, -11.6247, 32.0749, -152.372, -86.1932, 62.6914
9.23195, 87, 3.08888, -11.9487, 32.2717, -152.365, -85.8679, 62.5884
9.23998, 87, 3.14178, -12.2737, 32.4694, -152.357, -85.5414, 62.4896
9.24809, 87, 3.19484, -12.5993, 32.668, -152.348, -85.214, 62.3938
9.25629, 87, 3.24816, -12.9248, 32.8685, -152.337, -84.8856, 62.3018
9.26352, 87, 3.30162, -13.2512, 33.07, -152.326, -84.5563, 62.2122
9.27362, 87, 3.35516, -13.5777, 33.2718, -152.314, -84.2261, 62.1263
9.28167, 87, 3.40886, -13.9049, 33.4747, -152.3, -83.8953, 62.0429
9.28684, 87, 3.43577, -14.0684, 33.5766, -152.294, -83.7297, 62.0027
9.29592, 87, 3.51654, -14.5583, 33.883, -152.272, -83.2319, 61.8864
9.30399, 88, 3.57053, -14.8849, 34.0883, -152.256, -82.8997, 61.8135
9.31202, 88, 3.62467, -15.2112, 34.295, -152.24, -82.5671, 61.7445
9.31894, 88, 3.65183, -15.3744, 34.3984, -152.231, -82.4007, 61.7112
9.32818, 88, 3.73366, -15.8619, 34.7091, -152.202, -81.9009, 61.6185
9.33494, 88, 3.76098, -16.0245, 34.8131, -152.192, -81.7342, 61.5899
9.34438, 88, 3.84299, -16.5115, 35.1258, -152.159, -81.234, 61.5088
9.3511, 88, 3.87045, -16.6739, 35.2301, -152.148, -81.0671, 61.4837
9.36069, 88, 3.95302, -17.1602, 35.544, -152.113, -80.5667, 61.4155
9.36853, 88, 4.00813, -17.4836, 35.7539, -152.089, -80.2331, 61.3748
9.37776, 88, 4.06327, -17.8066, 35.9637, -152.064, -79.8997, 61.3379
9.38446, 89, 4.11842, -18.1286, 36.1744, -152.036, -79.566, 61.3053
9.39253, 89, 4.17367, -18.4502, 36.3854, -152.007, -79.2325, 61.2778
9.40049, 89, 4.20137, -18.6102, 36.4906, -151.992, -78.8992, 61.2556
9.40695, 89, 4.25683, -18.9298, 36.7008, -151.962, -78.7326, 61.2464
9.41594, 89, 4.31224, -19.2492, 36.9118, -151.931, -78.3995, 61.232
9.42389, 89, 4.36777, -19.5673, 37.1229, -151.897, -78.0673, 61.2226
9.43104, 89, 4.42323, -19.8846, 37.3338, -151.862, -77.7352, 61.2177
9.43988, 89, 4.47848, -20.2, 37.5454, -151.827, -77.4034, 61.2162
9.44788, 89, 4.53383, -20.5144, 37.7566, -151.791, -77.0721, 61.2189
9.45568, 89, 4.58915, -20.8278, 37.9672, -151.753, -76.7411, 61.2273
9.46294, 89, 4.64451, -21.1401, 38.1784, -151.713, -76.4104, 61.2409
9.47193, 90, 4.7, -21.4513, 38.3898, -151.673, -76.0799, 61.2603
9.47888, 90, 4.75541, -21.7605, 38.6002, -151.631, -75.75, 61.2858
9.48787, 90, 4.81083, -22.0693, 38.8108, -151.587, -75.4205, 61.318
9.49593, 90, 4.86622, -22.3768, 39.0213, -151.542, -75.0918, 61.3567
9.50389, 90, 4.92143, -22.6832, 39.2309, -151.495, -74.7636, 61.4011
9.51188, 90, 4.97655, -22.9881, 39.4405, -151.446, -74.4361, 61.4519
9.51995, 90, 5.03158, -23.291, 39.6505, -151.397, -74.1089, 61.5097
9.52787, 90, 5.08645, -23.5932, 39.8596, -151.346, -73.7824, 61.5737
9.53688, 90, 5.14131, -23.8937, 40.0683, -151.293, -73.456, 61.6434
9.54395, 90, 5.19609, -24.1927, 40.2772, -151.239, -73.1301, 61.7205
9.55573, 91, 5.27808, -24.6377, 40.5888, -151.154, -72.6421, 61.8472
9.56198, 91, 5.30539, -24.9323, 40.7966, -151.097, -72.3172, 61.9408
9.57014, 91, 5.38728, -25.2259, 41.0046, -151.037, -71.9927, 62.0404
9.57495, 91, 5.41456, -25.3721, 41.1083, -151.006, -71.8307, 62.0933
9.58388, 91, 5.46923, -25.6639, 41.3147, -150.945, -71.5068, 62.2041
9.59187, 91, 5.52382, -25.9542, 41.521, -150.881, -71.1835, 62.3223
9.59989, 91, 5.57849, -26.2424, 41.7269, -150.816, -70.8607, 62.4479
9.60802, 91, 5.63316, -26.5299, 41.9316, -150.75, -70.5382, 62.581
9.61504, 91, 5.68761, -26.8157, 42.1364, -150.682, -70.2161, 62.7221
9.62307, 91, 5.74205, -27.1, 42.341, -150.613, -69.8945, 62.871
9.6329, 92, 5.79646, -27.3828, 42.5443, -150.542, -69.5734, 63.0276
9.63989, 92, 5.85065, -27.6633, 42.7473, -150.47, -69.252, 63.192
9.64787, 92, 5.90486, -27.9429, 42.9504, -150.396, -68.9308, 63.3641
9.65595, 92, 5.95925, -28.2211, 43.1522, -150.321, -68.6098, 63.5444
9.66388, 92, 6.01383, -28.4976, 43.3531, -150.244, -68.2887, 63.7331
9.67188, 92, 6.06877, -28.7731, 43.5542, -150.166, -67.9679, 63.9306
9.67895, 92, 6.12388, -29.0461, 43.7546, -150.087, -67.6473, 64.1365
9.68794, 92, 6.17902, -29.3172, 43.9536, -150.007, -67.327, 64.3508
9.69587, 92, 6.23435, -29.5874, 44.1525, -149.926, -67.0067, 64.5734
9.70728, 92, 6.31787, -29.9888, 44.4493, -149.803, -66.5265, 64.924
9.71231, 92, 6.34577, -30.122, 44.5475, -149.761, -66.3665, 65.0456
9.72005, 93, 6.40167, -30.3869, 44.7437, -149.678, -66.0464, 65.2959
9.72791, 93, 6.45782, -30.6494, 44.9397, -149.593, -65.7262, 65.5563
9.73632, 93, 6.51439, -30.9107, 45.1341, -149.507, -65.4062, 65.8268
9.7434, 93, 6.57157, -31.1707, 45.3271, -149.42, -65.0861, 66.1083
9.75197, 93, 6.62927, -31.4287, 45.5197, -149.333, -64.766, 66.4003
9.76004, 93, 6.68754, -31.6852, 45.7111, -149.244, -64.4461, 66.7022
9.76798, 93, 6.74642, -31.9393, 45.9008, -149.156, -64.126, 67.0139
9.77648, 93, 6.80586, -32.1911, 46.0901, -149.068, -63.8055, 67.3354
9.78428, 93, 6.86597, -32.4418, 46.279, -148.981, -63.485, 67.6656
9.79456, 93, 6.92691, -32.6903, 46.466, -148.894, -63.1642, 68.0053
9.80038, 94, 6.95761, -32.8134, 46.5589, -148.809, -62.8434, 68.3552
9.80898, 94, 7.05087, -33.1796, 46.8357, -148.723, -62.5228, 68.7159
9.81603, 94, 7.1142, -33.4204, 47.0182, -148.638, -62.2023, 69.0881
9.82287, 94, 7.1463, -33.5396, 47.1085, -148.596, -62.0422, 69.2789
9.83087, 94, 7.21145, -33.7768, 47.2875, -148.512, -61.7222, 69.6697
9.84018, 94, 7.31145, -34.1294, 47.5541, -148.387, -61.2425, 70.2773
9.84687, 94, 7.34541, -34.2455, 47.6422, -148.346, -61.0826, 70.4855
9.85494, 94, 7.41423, -34.4759, 47.8164, -148.266, -60.7627, 70.9096
9.86301, 94, 7.48439, -34.7041, 47.9887, -148.188, -60.4429, 71.3436
9.87303, 94, 7.592, -35.0402, 48.2447, -148.075, -59.9633, 72.0132
9.88058, 94, 7.66543, -35.26, 48.412, -148.004, -59.6442, 72.4713
9.88848, 95, 7.74024, -35.4768, 48.5762, -147.937, -59.3263, 72.9404
9.89649, 95, 7.81658, -35.6897, 48.7382, -147.872, -59.0094, 73.4207
9.90441, 95, 7.85543, -35.7948, 48.8182, -147.84, -58.8514, 73.9137
9.91717, 95, 7.97483, -36.1051, 49.0526, -147.724, -58.2235, 74.6746
9.91896, 95, 8.01546, -36.2069, 49.1289, -147.724, -58.2235, 74.6746
9.92979, 95, 8.14035, -36.5058, 49.3539, -147.646, -57.7557, 75.4618
9.93673, 95, 8.1829, -36.6032, 49.4275, -147.622, -57.6002, 75.7292
9.94494, 95, 8.26907, -36.7953, 49.6441, -147.556, -57.1354, 76.5458
9.95186, 95, 8.35689, -36.9839, 49.7146, -147.536, -56.981, 76.8221
9.95989, 95, 8.44646, -37.1678, 49.8533, -147.501, -56.6736, 77.3814
9.96783, 96, 8.5374, -37.3462, 49.9885, -147.472, -56.3683, 77.9498
9.97605, 96, 8.6301, -37.5197, 50.1194, -147.448, -56.066, 78.5273
9.9866, 96, 8.77289, -37.7703, 50.3067, -147.423, -55.6195, 79.4109
9.99186, 96, 8.82159, -37.8511, 50.3667, -147.417, -55.4728, 79.7106
9.99987, 96, 8.9206, -38.0084, 50.4828, -147.41, -55.1825, 80.317
10.0069, 96, 9.02136, -38.1604, 50.5942, -147.408, -54.8959, 80.9321
10.0159, 96, 9.12382, -38.3065, 50.7009, -147.412, -54.6127, 81.555
10.0239, 96, 9.22785, -38.4465, 50.8036, -147.422, -54.3323, 82.1859
10.0319, 96, 9.33311, -38.5802, 50.9022, -147.439, -54.0553, 82.8237
10.0422, 96, 9.49295, -38.7686, 51.0417, -147.477, -53.6468, 83.7911
10.0479, 96, 9.54671, -38.828, 51.0857, -147.492, -53.5127, 84.1167
10.0569, 97, 9.65508, -38.9412, 51.1694, -147.528, -53.2488, 84.7723
10.0628, 97, 9.76458, -39.0473, 51.247, -147.572, -52.9913, 85.4324
10.0719, 97, 9.87534, -39.1463, 51.3181, -147.623, -52.7414, 86.0967
10.0799, 97, 9.9876, -39.2382, 51.3828, -147.681, -52.4993, 86.7662
10.0879, 97, 10.101, -39.3226, 51.4412, -147.745, -52.265, 87.4398
10.096, 97, 10.2152, -39.3992, 51.4936, -147.815, -52.0375, 88.1163
10.1039, 97, 10.3299, -39.468, 51.5404, -147.892, -51.816, 88.7976
10.1119, 97, 10.4447, -39.5289, 51.5819, -147.973, -51.6004, 89.4819
10.1199, 97, 10.5593, -39.5821, 51.6182, -148.06, -51.3906, 90.167
10.1279, 97, 10.6734, -39.6272, 51.649, -148.152, -51.1875, 90.8544
10.1367, 98, 10.7869, -39.664, 51.6738, -148.25, -50.9919, 91.5427
10.1439, 98, 10.8999, -39.6924, 51.6923, -148.353, -50.8051, 92.2301
10.1519, 98, 11.013, -39.7125, 51.7034, -148.461, -50.6288, 92.917
10.1607, 98, 11.126, -39.7246, 51.7071, -148.575, -50.463, 93.6032
10.1679, 98, 11.2389, -39.7287, 51.704, -148.693, -50.3083, 94.2868
10.1759, 98, 11.3512, -39.7242, 51.694, -148.815, -50.1633, 94.9678
10.1846, 98, 11.4624, -39.7109, 51.6777, -148.94, -50.0278, 95.6475
10.192, 98, 11.5724, -39.6891, 51.6557, -149.069, -49.9006, 96.3248
10.1999, 98, 11.6807, -39.659, 51.6281, -149.2, -49.7818, 96.9987
10.2092, 98, 11.7873, -39.6202, 51.5945, -149.334, -49.6715, 97.6709
10.2169, 99, 11.8919, -39.5727, 51.5551, -149.47, -49.5701, 98.3393
10.2239, 99, 11.9946, -39.5164, 51.5092, -149.608, -49.4795, 99.0016
10.2319, 99, 12.0956, -39.4517, 51.4565, -149.748, -49.3997, 99.6588
10.24, 99, 12.1951, -39.3788, 51.3967, -149.889, -49.3325, 100.31
10.248, 99, 12.293, -39.2975, 51.3297, -150.031, -49.2766, 100.953
10.2563, 99, 12.3888, -39.2075, 51.2558, -150.175, -49.2331, 101.589
10.2635, 99, 12.4822, -39.1088, 51.1755, -150.318, -49.2005, 102.219
10.2724, 99, 12.5731, -39.0017, 51.0891, -150.461, -49.1779, 102.843
10.2794, 99, 12.6177, -38.945, 51.0439, -150.533, -49.1647, 103.459
10.2879, 99, 12.7474, -38.7626, 50.9001, -150.746, -49.1603, 104.068
10.2968, 99, 12.8303, -38.6308, 50.7973, -150.887, -49.1652, 104.67
10.3039, 100, 12.9103, -38.4909, 50.6887, -151.026, -49.1809, 105.264
10.3119, 100, 12.9878, -38.3432, 50.5739, -151.165, -49.2072, 105.849
10.3207, 100, 13.0626, -38.1877, 50.4527, -151.301, -49.2451, 106.425
10.328, 100, 13.1348, -38.0246, 50.3254, -151.435, -49.2961, 106.992
10.3362, 100, 13.2043, -37.8538, 50.1922, -151.567, -49.358, 107.549
10.3429, 100, 13.2379, -37.7659, 50.1234, -151.632, -49.393, 107.823
10.3522, 100, 13.3342, -37.4915, 49.9088, -151.823, -49.5143, 108.633
10.3588, 100, 13.3648, -37.3962, 49.8346, -151.886, -49.5596, 108.899
10.3684, 100, 13.452, -37.0987, 49.6053, -152.068, -49.7099, 109.682
10.3764, 100, 13.5063, -36.8916, 49.4465, -152.186, -49.8215, 110.192
10.383, 101, 13.5322, -36.7856, 49.3653, -152.243, -49.8811, 110.444
10.3924, 101, 13.6055, -36.4567, 49.1138, -152.41, -50.0744, 111.186
10.4004, 101, 13.6284, -36.3436, 48.94, -152.517, -50.2165, 111.669
10.4086, 101, 13.6721, -36.113, 48.8512, -152.62, -50.3687, 112.14
10.4158, 101, 13.7129, -35.8759, 48.6693, -152.67, -50.449, 112.372
10.4239, 101, 13.751, -35.6317, 48.4815, -152.767, -50.617, 112.828
10.4319, 101, 13.7864, -35.3808, 48.2895, -152.861, -50.7946, 113.274
10.4398, 101, 13.8187, -35.1224, 48.0937, -152.95, -50.981, 113.711
10.4469, 101, 13.8481, -34.8567, 47.893, -153.035, -51.1757, 114.139
10.4559, 101, 13.8747, -34.5856, 47.6882, -153.116, -51.3783, 114.557
10.4638, 101, 13.8983, -34.3081, 47.4804, -153.193, -51.5888, 114.967
10.4708, 102, 13.9193, -34.0247, 47.2682, -153.266, -51.8076, 115.369
10.4799, 102, 13.9376, -33.7357, 47.0513, -153.335, -52.0347, 115.761
10.4878, 102, 13.9533, -33.4406, 46.8309, -153.399, -52.2708, 116.144
10.4949, 102, 13.9666, -33.141, 46.6059, -153.459, -52.516, 116.517
10.5039, 102, 13.9775, -32.836, 46.3763, -153.515, -52.7701, 116.88
10.5109, 102, 13.9862, -32.5258, 46.1439, -153.567, -53.0323, 117.235
10.52, 102, 13.9926, -32.21, 45.9076, -153.615, -53.3017, 117.581
10.5296, 102, 13.9978, -31.726, 45.5475, -153.68, -53.7181, 118.085
10.5358, 102, 13.9984, -31.5625, 45.4262, -153.7, -53.8598, 118.25
10.5448, 102, 13.9982, -31.232, 45.1809, -153.736, -54.1477, 118.574
10.5509, 103, 13.9958, -30.8976, 44.9334, -153.769, -54.4415, 118.89
10.5599, 103, 13.9909, -30.5578, 44.6835, -153.799, -54.7412, 119.198
10.5679, 103, 13.9842, -30.2137, 44.4302, -153.824, -55.0478, 119.498
10.5759, 103, 13.9758, -29.8655, 44.1746, -153.845, -55.3612, 119.79
10.5838, 103, 13.9659, -29.5138, 43.9156, -153.862, -55.6815, 120.074
10.5919, 103, 13.9545, -29.1577, 43.6538, -153.876, -56.0084, 120.351
10.5999, 103, 13.9413, -28.7975, 43.3903, -153.887, -56.3407, 120.62
10.6079, 103, 13.9265, -28.4335, 43.1244, -153.895, -56.678, 120.884
10.6158, 103, 13.9102, -28.0665, 42.8576, -153.899, -57.0192, 121.141
10.6239, 103, 13.8921, -27.6961, 42.5893, -153.901, -57.3642, 121.392
10.6319, 103, 13.8723, -27.3223, 42.3196, -153.902, -57.7128, 121.637
10.639, 104, 13.851, -26.9459, 42.0489, -153.898, -58.065, 121.876
10.6479, 104, 13.8283, -26.5676, 41.776, -153.891, -58.4214, 122.108
10.6559, 104, 13.8045, -26.1868, 41.5024, -153.881, -58.7825, 122.334
10.6639, 104, 13.78, -25.8039, 41.2274, -153.867, -59.1479, 122.552
10.6719, 104, 13.7547, -25.4188, 40.9515, -153.851, -59.5177, 122.763
10.6799, 104, 13.7287, -25.032, 40.6745, -153.832, -59.8909, 122.97
10.6878, 104, 13.7022, -24.6429, 40.3964, -153.81, -60.2667, 123.171
10.6959, 104, 13.6751, -24.2527, 40.1185, -153.787, -60.6444, 123.368
10.7039, 104, 13.6473, -23.8615, 39.8401, -153.76, -61.0233, 123.562
10.7119, 104, 13.6191, -23.4699, 39.5628, -153.733, -61.4026, 123.754
10.7199, 104, 13.5903, -23.0771, 39.2861, -153.704, -61.7825, 123.945
10.7279, 104, 13.5611, -22.6842, 39.01, -153.675, -62.1623, 124.135
10.7359, 104, 13.5322, -22.2919, 38.7351, -153.643, -62.5419, 124.323
10.744, 104, 13.5034, -21.9007, 38.4601, -153.61, -62.9214, 124.511
10.752, 104, 13.4745, -21.5095, 38.1863, -153.576, -63.3008, 124.699
10.76, 104, 13.4457, -21.1192, 37.9134, -153.542, -63.6797, 124.886
10.768, 104, 13.4168, -20.7301, 37.6418, -153.506, -64.0582, 125.073
10.776, 104, 13.388, -20.3415, 37.3712, -153.469, -64.4363, 125.259
10.7839, 104, 13.3593, -19.9528, 37.1007, -153.43, -64.8141, 125.444
10.792, 104, 13.3307, -19.5644, 36.8318, -153.392, -65.1914, 125.629
10.7999, 104, 13.3022, -19.1765, 36.5636, -153.352, -65.5685, 125.813
10.8069, 104, 13.2879, -18.9826, 36.4299, -153.331, -65.7568, 125.904
10.8159, 104, 13.2451, -18.4014, 36.0311, -153.268, -66.3215, 126.179
10.823, 104, 13.2308, -18.2079, 35.8983, -153.247, -66.5097, 126.27
10.8322, 104, 13.1884, -17.6292, 35.5026, -153.181, -67.0732, 126.544
10.8388, 104, 13.1744, -17.4367, 35.3712, -153.158, -67.2608, 126.635
10.8483, 104, 13.1323, -16.8597, 34.9774, -153.09, -67.8229, 126.906
10.8548, 104, 13.1184, -16.6677, 34.8469, -153.067, -68.0099, 126.997
10.8643, 104, 13.0768, -16.0935, 34.4564, -152.994, -68.5703, 127.268
10.8724, 104, 13.0494, -15.7111, 34.1981, -152.946, -68.9435, 127.449
10.8805, 104, 13.022, -15.3297, 33.9406, -152.895, -69.3163, 127.629
10.8884, 104, 12.9948, -14.9487, 33.6837, -152.844, -69.6887, 127.809
10.8966, 104, 12.9675, -14.5686, 33.4285, -152.792, -70.0609, 127.988
10.9045, 104, 12.9402, -14.1881, 33.1738, -152.738, -70.4324, 128.167
10.9124, 104, 12.9265, -13.9981, 33.047, -152.712, -70.6179, 128.346
10.9198, 104, 12.8996, -13.6184, 32.7948, -152.658, -70.9884, 128.435
10.9285, 104, 12.8727, -13.2401, 32.5431, -152.602, -71.3584, 128.614
10.9358, 104, 12.846, -12.8625, 32.2928, -152.546, -71.7279, 128.792
10.9438, 104, 12.8196, -12.4856, 32.0439, -152.489, -72.0968, 128.97
10.9518, 104, 12.7932, -12.1094, 31.7953, -152.43, -72.4652, 129.147
10.9598, 104, 12.767, -11.7345, 31.5485, -152.372, -72.8332, 129.325
10.9679, 104, 12.7413, -11.36, 31.3027, -152.312, -73.2006, 129.503
10.9758, 104, 12.7157, -10.986, 31.0578, -152.252, -73.5675, 129.681
10.9842, 104, 12.6902, -10.6126, 30.815, -152.19, -73.9337, 129.858
10.9919, 104, 12.6649, -10.2402, 30.573, -152.127, -74.2994, 130.035
10.9998, 104, 12.6396, -9.86772, 30.332, -152.064, -74.6645, 130.212
11.0092, 104, 12.6143, -9.49569, 30.0927, -151.999, -75.029, 130.476
11.0148, 104, 12.5893, -9.12436, 29.8541, -151.934, -75.3927, 130.565
11.0239, 104, 12.5645, -8.75443, 29.6171, -151.867, -75.7559, 130.741
11.0376, 104, 12.5153, -8.01659, 29.1469, -151.732, -76.4802, 131.094
11.0399, 104, 12.5153, -8.01659, 29.1469, -151.732, -76.4802, 131.094
11.0489, 104, 12.4909, -7.64891, 28.9138, -151.663, -76.8419, 131.27
11.0558, 104, 12.4666, -7.28264, 28.6822, -151.593, -77.2028, 131.446
11.0639, 104, 12.4427, -6.91708, 28.4514, -151.522, -77.5631, 131.622
11.0719, 104, 12.4192, -6.55219, 28.2221, -151.45, -77.9227, 131.798
11.0808, 104, 12.3958, -6.18811, 27.994, -151.378, -78.2813, 131.975
11.0879, 104, 12.3726, -5.82509, 27.7668, -151.305, -78.6394, 132.151
11.0958, 104, 12.3496, -5.46221, 27.542, -151.231, -78.9965, 132.327
11.1039, 104, 12.3265, -5.09964, 27.3186, -151.155, -79.353, 132.503
11.1119, 104, 12.3036, -4.73763, 27.0959, -151.079, -79.709, 132.679
11.1198, 104, 12.281, -4.37674, 26.8749, -151.001, -80.0645, 132.855
11.1278, 104, 12.2587, -4.01682, 26.6553, -150.923, -80.4197, 133.031
11.1359, 104, 12.2364, -3.65741, 26.4365, -150.844, -80.774, 133.207
11.1438, 104, 12.2144, -3.29943, 26.2199, -150.765, -81.1273, 133.383
11.1518, 104, 12.1927, -2.94277, 26.0047, -150.684, -81.4799, 133.559
11.16, 104, 12.1711, -2.5871, 25.7902, -150.602, -81.8318, 133.736
11.1678, 104, 12.1497, -2.23163, 25.5775, -150.52, -82.1827, 133.913
11.1758, 104, 12.1286, -1.87746, 25.3665, -150.436, -82.5329, 134.09
11.1839, 104, 12.1078, -1.524, 25.1564, -150.352, -82.8823, 134.267
11.1918, 104, 12.087, -1.17165, 24.9483, -150.267, -83.2311, 134.443
11.1999, 104, 12.0665, -0.819099, 24.7422, -150.181, -83.5792, 134.62
11.2079, 104, 12.0463, -0.467479, 24.5369, -150.093, -83.9267, 134.797
11.2158, 104, 12.0262, -0.116528, 24.333, -150.005, -84.2733, 134.974
11.2239, 104, 12.006, 0.232881, 24.1315, -149.916, -84.6191, 135.151
11.2319, 104, 11.9863, 0.58208, 23.931, -149.827, -84.964, 135.328
11.2399, 104, 11.9667, 0.929967, 23.7317, -149.736, -85.308, 135.505
11.248, 104, 11.9473, 1.2769, 23.5347, -149.644, -85.6514, 135.683
11.2554, 104, 11.9281, 1.62235, 23.339, -149.552, -85.9939, 135.86
11.2639, 104, 11.9091, 1.967, 23.1442, -149.459, -86.3354, 136.038
11.272, 104, 11.8905, 2.31062, 22.9515, -149.364, -86.6761, 136.216
11.2799, 104, 11.872, 2.65296, 22.7608, -149.268, -87.0161, 136.395
11.2879, 104, 11.8537, 2.99414, 22.5709, -149.172, -87.3553, 136.573
11.296, 104, 11.8356, 3.33444, 22.3825, -149.075, -87.694, 136.752
11.3039, 104, 11.8178, 3.67494, 22.1968, -148.977, -88.0318, 136.93
11.3119, 104, 11.8003, 4.0145, 22.0126, -148.878, -88.3686, 137.109
11.32, 104, 11.7828, 4.35343, 21.8293, -148.779, -88.7044, 137.288
11.3268, 104, 11.7742, 4.5222, 21.7384, -148.728, -88.8719, 137.378
11.3361, 104, 11.7487, 5.02728, 21.4688, -148.576, -89.3728, 137.647
11.3428, 104, 11.7404, 5.19519, 21.3797, -148.524, -89.5393, 137.736
11.3523, 104, 11.7157, 5.69704, 21.1139, -148.369, -90.0378, 138.006
11.3603, 104, 11.6993, 6.02988, 20.9396, -148.264, -90.3691, 138.186
11.3668, 104, 11.6913, 6.19578, 20.8533, -148.212, -90.5345, 138.277
11.3765, 104, 11.6674, 6.69271, 20.5962, -148.052, -91.0296, 138.548
11.3844, 104, 11.6518, 7.02226, 20.4263, -147.945, -91.3586, 138.729
11.3924, 104, 11.6364, 7.35099, 20.2588, -147.836, -91.6865, 138.911
11.4005, 104, 11.6213, 7.6783, 20.0932, -147.727, -92.0134, 139.092
11.4084, 104, 11.6139, 7.84194, 20.011, -147.616, -92.3391, 139.273
11.4164, 104, 11.5991, 8.16907, 19.8475, -147.561, -92.5016, 139.364
11.4239, 104, 11.5846, 8.49497, 19.6863, -147.449, -92.8259, 139.546
11.4318, 104, 11.5703, 8.81992, 19.5273, -147.336, -93.1491, 139.729
11.4398, 104, 11.5562, 9.14287, 19.3697, -147.222, -93.4716, 139.911
11.4479, 104, 11.5422, 9.46498, 19.2136, -147.107, -93.793, 140.094
11.4548, 104, 11.5288, 9.78493, 19.0598, -146.992, -94.1133, 140.277
11.4638, 104, 11.5158, 10.101, 18.9085, -146.876, -94.4321, 140.459
11.4719, 104, 11.5037, 10.411, 18.7596, -146.759, -94.7483, 140.641
11.4798, 104, 11.4924, 10.7129, 18.6139, -146.642, -95.0604, 140.822
11.4878, 104, 11.4818, 11.0067, 18.4726, -146.527, -95.3661, 141
11.4959, 104, 11.4718, 11.2895, 18.3369, -146.414, -95.6622, 141.173
11.5038, 104, 11.4624, 11.5597, 18.2078, -146.305, -95.9461, 141.339
11.5118, 104, 11.4536, 11.8162, 18.0867, -146.202, -96.2147, 141.497
11.5199, 104, 11.4451, 12.057, 17.9745, -146.104, -96.4654, 141.645
11.5278, 104, 11.4371, 12.2814, 17.8718, -146.013, -96.696, 141.782
11.5359, 104, 11.4296, 12.4882, 17.7789, -145.93, -96.9059, 141.907
11.5454, 104, 11.423, 12.6751, 17.6961, -145.854, -97.0941, 142.019
11.5518, 104, 11.417, 12.8411, 17.6234, -145.788, -97.2606, 142.118
11.5608, 104, 11.4116, 12.9871, 17.5606, -145.73, -97.4055, 142.205
11.5679, 104, 11.4066, 13.1138, 17.5072, -145.68, -97.5284, 142.279
11.5758, 104, 11.402, 13.2216, 17.463, -145.638, -97.6311, 142.34
11.5839, 104, 11.3979, 13.3115, 17.4269, -145.605, -97.7139, 142.39
