rpiRobotics/ARM-21-02-F-19-Robot-Motion-Program/data_performance_abb/curve_1/baseline/100L/realrobot/v123.046875_iteration4.csv
timestamp, cmd_num, J1, J2, J3, J4, J5, J6
0.000365, -1, 11.3779, 13.6139, 17.3391, -145.519, -97.9228, 142.516
0.007424, -1, 11.3779, 13.6139, 17.3391, -145.519, -97.9227, 142.516
0.00929, -1, 11.3779, 13.6139, 17.3391, -145.519, -97.9227, 142.516
0.032524, -1, 11.3779, 13.6139, 17.3391, -145.519, -97.9227, 142.516
0.034446, -1, 11.3779, 13.6139, 17.3391, -145.519, -97.9227, 142.516
0.038573, -1, 11.3779, 13.6139, 17.3391, -145.519, -97.9227, 142.516
0.040021, -1, 11.3779, 13.6139, 17.3391, -145.519, -97.9227, 142.516
0.04813, -1, 11.3779, 13.6139, 17.3391, -145.519, -97.9227, 142.516
0.055209, -1, 11.3771, 13.6139, 17.3391, -145.519, -97.9228, 142.516
0.063219, -1, 11.3745, 13.6136, 17.3391, -145.519, -97.9228, 142.516
0.071297, -1, 11.3681, 13.6129, 17.339, -145.519, -97.9228, 142.516
0.07923, -1, 11.3569, 13.611, 17.3385, -145.52, -97.9228, 142.513
0.087246, -1, 11.3394, 13.6074, 17.3378, -145.521, -97.9226, 142.503
0.095302, -1, 11.3127, 13.6013, 17.337, -145.525, -97.922, 142.48
0.103726, -1, 11.2745, 13.592, 17.3364, -145.532, -97.9203, 142.439
0.111196, -1, 11.2245, 13.5796, 17.3365, -145.544, -97.9169, 142.374
0.11919, -1, 11.1631, 13.5641, 17.3382, -145.561, -97.9115, 142.278
0.127996, -1, 11.09, 13.5449, 17.3422, -145.584, -97.9037, 142.147
0.136158, -1, 11.0051, 13.5218, 17.3486, -145.613, -97.8935, 141.982
0.143325, -1, 10.9086, 13.4954, 17.3572, -145.647, -97.8815, 141.784
0.152165, -1, 10.8013, 13.4656, 17.3676, -145.686, -97.8678, 141.558
0.160126, -1, 10.6828, 13.4328, 17.3788, -145.728, -97.8531, 141.312
0.167543, -1, 10.5538, 13.3971, 17.39, -145.773, -97.8376, 141.052
0.176412, -1, 10.4157, 13.3591, 17.4007, -145.818, -97.8218, 140.782
0.183893, -1, 10.2709, 13.3196, 17.411, -145.866, -97.8056, 140.508
0.192274, -1, 10.1215, 13.2792, 17.4211, -145.913, -97.789, 140.231
0.200501, -1, 9.96906, 13.2382, 17.4311, -145.961, -97.772, 139.953
0.207753, -1, 9.81449, 13.1969, 17.4411, -146.009, -97.7548, 139.675
0.216271, -1, 9.65895, 13.1556, 17.4512, -146.057, -97.7377, 139.395
0.224484, -1, 9.58128, 13.135, 17.4562, -146.081, -97.7291, 139.256
0.231143, -1, 9.42649, 13.0939, 17.4661, -146.129, -97.7122, 138.977
0.240231, -1, 9.19505, 13.0322, 17.481, -146.201, -97.6872, 138.558
0.247156, -1, 9.11814, 13.0117, 17.486, -146.225, -97.6789, 138.418
0.256247, -1, 8.88774, 12.9503, 17.5012, -146.297, -97.6537, 137.999
0.263137, -1, 8.81099, 12.9298, 17.5062, -146.321, -97.6451, 137.859
0.273229, -1, 8.58158, 12.8682, 17.5213, -146.393, -97.619, 137.439
0.279152, -1, 8.50527, 12.8477, 17.5264, -146.417, -97.6102, 137.299
0.287151, -1, 8.35253, 12.8064, 17.5366, -146.465, -97.5928, 137.019
0.297145, -1, 8.12243, 12.7442, 17.5518, -146.536, -97.5673, 136.6
0.303272, -1, 8.04551, 12.7235, 17.557, -146.56, -97.5588, 136.46
0.312668, -1, 7.8139, 12.6611, 17.5721, -146.632, -97.5338, 136.04
0.319143, -1, 7.73642, 12.6403, 17.5771, -146.656, -97.5256, 135.9
0.327139, -1, 7.58139, 12.5987, 17.5873, -146.704, -97.5088, 135.62
0.335119, -1, 7.42627, 12.5572, 17.5974, -146.752, -97.4918, 135.34
0.344739, -1, 7.27103, 12.5159, 17.6075, -146.824, -97.4657, 134.919
0.352659, -1, 7.11585, 12.4745, 17.6178, -146.848, -97.4571, 134.779
0.360138, -1, 6.96056, 12.4332, 17.6281, -146.897, -97.4399, 134.499
0.368146, -1, 6.80544, 12.392, 17.6383, -146.944, -97.423, 134.219
0.375133, -1, 6.65069, 12.3508, 17.6488, -146.993, -97.4062, 133.939
0.383131, -1, 6.49627, 12.3096, 17.6591, -147.041, -97.3895, 133.658
0.391146, -1, 6.34196, 12.2684, 17.6694, -147.089, -97.3727, 133.378
0.399141, -1, 6.18774, 12.2269, 17.6796, -147.137, -97.3556, 133.098
0.407106, -1, 6.03346, 12.1855, 17.6899, -147.185, -97.3383, 132.817
0.415174, -1, 5.87889, 12.144, 17.7001, -147.233, -97.3207, 132.536
0.423121, -1, 5.72418, 12.1024, 17.7103, -147.281, -97.3031, 132.256
0.432127, -1, 5.56929, 12.0607, 17.7205, -147.329, -97.2859, 131.975
0.440163, -1, 5.41416, 12.0192, 17.7307, -147.377, -97.2689, 131.694
0.448121, -1, 5.2587, 11.9775, 17.7409, -147.425, -97.2522, 131.413
0.456132, -1, 5.10294, 11.9359, 17.7513, -147.473, -97.2354, 131.133
0.464173, -1, 4.94698, 11.8944, 17.7618, -147.521, -97.2186, 130.852
0.472111, -1, 4.79106, 11.8528, 17.7721, -147.569, -97.2014, 130.571
0.48011, -1, 4.63522, 11.8114, 17.7825, -147.618, -97.184, 130.29
0.488188, -1, 4.47953, 11.77, 17.7929, -147.666, -97.1665, 130.009
0.496083, -1, 4.32386, 11.7286, 17.8032, -147.715, -97.1493, 129.728
0.504112, -1, 4.16856, 11.6872, 17.8136, -147.763, -97.1322, 129.447
0.512177, -1, 4.01373, 11.6458, 17.8239, -147.811, -97.1153, 129.166
0.519124, -1, 3.85921, 11.6044, 17.8341, -147.86, -97.0985, 128.885
0.663592, -1, 1.05598, 10.8545, 18.0205, -148.73, -96.7909, 123.814
0.665066, -1, 1.05598, 10.8545, 18.0205, -148.73, -96.7909, 123.814
0.666268, -1, 1.05598, 10.8545, 18.0205, -148.73, -96.7909, 123.814
0.668453, -1, 0.978542, 10.8337, 18.0257, -148.754, -96.7824, 123.673
0.669632, -1, 0.978542, 10.8337, 18.0257, -148.754, -96.7824, 123.673
0.671506, -1, 0.901149, 10.8128, 18.0308, -148.778, -96.7738, 123.531
0.672963, -1, 0.901149, 10.8128, 18.0308, -148.778, -96.7738, 123.531
0.676296, -1, 0.823733, 10.7919, 18.036, -148.802, -96.7651, 123.39
0.846005, -1, -2.45538, 9.91424, 18.2542, -149.822, -96.4046, 117.449
0.847193, -1, -2.45538, 9.91424, 18.2542, -149.822, -96.4046, 117.449
0.84918, -1, -2.53322, 9.89326, 18.2594, -149.846, -96.3962, 117.307
0.85057, -1, -2.53322, 9.89326, 18.2594, -149.846, -96.3962, 117.307
0.851904, -1, -2.53322, 9.89326, 18.2594, -149.846, -96.3962, 117.307
0.855473, -1, -2.61111, 9.87229, 18.2645, -149.87, -96.3877, 117.165
0.857584, -1, -2.68909, 9.85133, 18.2697, -149.895, -96.3793, 117.023
0.86141, -1, -2.76714, 9.83037, 18.2749, -149.919, -96.3709, 116.881
0.862711, -1, -2.76714, 9.83037, 18.2749, -149.919, -96.3709, 116.881
0.863986, -1, -2.76714, 9.83037, 18.2749, -149.919, -96.3709, 116.881
0.866006, -1, -2.84529, 9.80941, 18.2801, -149.943, -96.3625, 116.74
0.867201, -1, -2.84529, 9.80941, 18.2801, -149.943, -96.3625, 116.74
0.869059, -1, -2.92357, 9.78845, 18.2852, -149.967, -96.3541, 116.598
0.870458, -1, -2.92357, 9.78845, 18.2852, -149.967, -96.3541, 116.598
0.871642, -1, -2.92357, 9.78845, 18.2852, -149.967, -96.3541, 116.598
0.87502, -1, -3.00194, 9.76747, 18.2904, -149.991, -96.3456, 116.456
0.876246, -1, -3.00194, 9.76747, 18.2904, -149.991, -96.3456, 116.456
0.879717, -1, -3.08042, 9.74652, 18.2956, -150.016, -96.337, 116.314
0.881898, -1, -3.159, 9.72556, 18.3008, -150.04, -96.3284, 116.172
0.883178, -1, -3.159, 9.72556, 18.3008, -150.04, -96.3284, 116.172
0.885074, -1, -3.159, 9.70457, 18.306, -150.065, -96.3197, 116.03
0.88642, -1, -3.23767, 9.70457, 18.306, -150.065, -96.3197, 116.03
0.889221, -1, -3.31645, 9.68359, 18.3112, -150.089, -96.3109, 115.888
0.890663, -1, -3.31645, 9.68359, 18.3112, -150.089, -96.3109, 115.888
0.891905, -1, -3.31645, 9.68359, 18.3112, -150.089, -96.3109, 115.888
0.893935, -1, -3.39535, 9.66259, 18.3164, -150.113, -96.3021, 115.747
0.895157, -1, -3.39535, 9.66259, 18.3164, -150.113, -96.3021, 115.747
0.897092, -1, -3.39535, 9.66259, 18.3164, -150.113, -96.3021, 115.605
0.898453, -1, -3.47432, 9.64159, 18.3217, -150.137, -96.2933, 115.605
0.899755, -1, -3.47432, 9.64159, 18.3217, -150.137, -96.2933, 115.605
0.905918, -1, -3.63222, 9.59967, 18.3321, -150.186, -96.2759, 115.321
0.907122, -1, -3.63222, 9.59967, 18.3321, -150.186, -96.2759, 115.321
0.908366, -1, -3.63222, 9.59967, 18.3321, -150.186, -96.2759, 115.321
0.910455, -1, -3.71113, 9.57874, 18.3373, -150.211, -96.2673, 115.178
0.911724, -1, -3.71113, 9.57874, 18.3373, -150.211, -96.2673, 115.178
0.913591, -1, -3.79005, 9.55781, 18.3424, -150.235, -96.2587, 115.036
0.915057, -1, -3.79005, 9.55781, 18.3424, -150.235, -96.2587, 115.036
0.917978, -1, -3.86902, 9.53682, 18.3476, -150.259, -96.2502, 114.894
0.919234, -1, -3.86902, 9.53682, 18.3476, -150.259, -96.2502, 114.894
0.920529, -1, -3.86902, 9.53682, 18.3476, -150.259, -96.2502, 114.894
0.92254, -1, -3.94804, 9.5158, 18.3527, -150.284, -96.2416, 114.752
0.923831, -1, -3.94804, 9.5158, 18.3527, -150.284, -96.2416, 114.752
0.928042, -1, -4.02704, 9.49482, 18.3579, -150.308, -96.2331, 114.61
0.93611, -1, -4.1849, 9.45294, 18.3683, -150.357, -96.2162, 114.326
0.944144, -1, -4.3426, 9.41101, 18.3786, -150.406, -96.1991, 114.041
0.952089, -1, -4.49988, 9.36905, 18.3889, -150.455, -96.1817, 113.756
0.960176, -1, -4.65685, 9.32711, 18.3993, -150.504, -96.164, 113.472
0.96808, -1, -4.81343, 9.28515, 18.4096, -150.552, -96.1463, 113.188
0.976111, -1, -4.96969, 9.2431, 18.4201, -150.602, -96.1288, 112.903
0.985092, -1, -5.12564, 9.20108, 18.4306, -150.65, -96.1116, 112.618
0.992122, -1, -5.28156, 9.15905, 18.4411, -150.699, -96.0947, 112.333
1.00009, -1, -5.43763, 9.11689, 18.4516, -150.748, -96.0778, 112.049
1.00709, -1, -5.59387, 9.07477, 18.462, -150.796, -96.0609, 111.764
1.0151, -1, -5.75036, 9.03269, 18.4724, -150.845, -96.0438, 111.479
1.02429, -1, -5.90726, 8.99054, 18.4828, -150.894, -96.0263, 111.194
1.0311, -1, -6.06473, 8.9484, 18.4931, -150.943, -96.0087, 110.909
1.04009, -1, -6.22274, 8.90631, 18.5034, -150.991, -95.9912, 110.624
1.04888, -1, -6.38107, 8.86421, 18.5137, -151.041, -95.974, 110.339
1.05524, -1, -6.53954, 8.82216, 18.5241, -151.09, -95.957, 110.054
1.0635, -1, -6.69808, 8.78006, 18.5346, -151.139, -95.94, 109.768
1.07119, -1, -6.85682, 8.73797, 18.5451, -151.188, -95.9231, 109.483
1.08012, -1, -7.0154, 8.69591, 18.5556, -151.237, -95.9059, 109.197
1.08761, -1, -7.17388, 8.65385, 18.566, -151.286, -95.8885, 108.912
1.0952, -1, -7.33211, 8.61173, 18.5763, -151.335, -95.8708, 108.627
1.10408, -1, -7.48996, 8.56951, 18.5868, -151.384, -95.8531, 108.341
1.11181, -1, -7.6476, 8.52726, 18.5972, -151.433, -95.8356, 108.055
1.12099, -1, -7.80486, 8.48506, 18.6076, -151.483, -95.8184, 107.77
1.12809, -1, -7.96167, 8.44287, 18.618, -151.531, -95.8015, 107.484
1.13601, -1, -8.11831, 8.40053, 18.6283, -151.58, -95.7845, 107.198
1.14543, -1, -8.27492, 8.35825, 18.6388, -151.629, -95.7676, 106.912
1.15208, -1, -8.43167, 8.31591, 18.6493, -151.678, -95.7504, 106.626
1.16018, -1, -8.58867, 8.27356, 18.6598, -151.727, -95.7329, 106.34
1.16742, -1, -8.74602, 8.23133, 18.6703, -151.776, -95.7151, 106.054
1.17557, -1, -8.90378, 8.18905, 18.6806, -151.825, -95.6976, 105.767
1.18447, -1, -9.06195, 8.14674, 18.691, -151.874, -95.6803, 105.481
1.19162, -1, -9.22063, 8.10455, 18.7014, -151.924, -95.6631, 105.195
1.20019, -1, -9.37957, 8.06231, 18.7118, -151.972, -95.6461, 104.908
1.20845, -1, -9.53868, 8.02002, 18.7222, -152.022, -95.629, 104.621
1.21567, -1, -9.61827, 7.97784, 18.7326, -152.072, -95.6117, 104.335
1.22425, -1, -9.85722, 7.93571, 18.7431, -152.121, -95.5941, 104.048
1.23249, -1, -9.9369, 7.91458, 18.7484, -152.145, -95.5852, 103.904
1.23908, -1, -10.0962, 7.87228, 18.759, -152.195, -95.5673, 103.617
1.24839, -1, -10.3349, 7.80869, 18.7748, -152.269, -95.5409, 103.187
1.25508, -1, -10.4142, 7.78746, 18.7801, -152.293, -95.5322, 103.044
1.26308, -1, -10.5727, 7.745, 18.7905, -152.343, -95.5152, 102.757
1.27226, -1, -10.8101, 7.68134, 18.8062, -152.416, -95.4896, 102.327
1.27907, -1, -10.889, 7.66007, 18.8114, -152.441, -95.4811, 102.183
1.28719, -1, -11.0465, 7.61755, 18.8218, -152.49, -95.4639, 101.896
1.29511, -1, -11.2039, 7.57511, 18.8322, -152.539, -95.4463, 101.608
1.30308, -1, -11.3613, 7.53267, 18.8427, -152.588, -95.4285, 101.321
1.31119, -1, -11.5189, 7.49023, 18.8531, -152.638, -95.4108, 101.034
1.32065, -1, -11.7558, 7.42664, 18.869, -152.711, -95.3847, 100.602
1.32957, -1, -11.9142, 7.38428, 18.8796, -152.761, -95.3675, 100.315
1.33514, -1, -11.9935, 7.36311, 18.8848, -152.786, -95.3589, 100.171
1.34492, -1, -12.2322, 7.29962, 18.9006, -152.86, -95.3331, 99.7395
1.3535, -1, -12.3119, 7.27842, 18.9058, -152.885, -95.3244, 99.5955
1.35916, -1, -12.4717, 7.236, 18.9163, -152.935, -95.3068, 99.3074
1.36912, -1, -12.7117, 7.17247, 18.9321, -153.008, -95.2798, 98.8755
1.37508, -1, -12.7917, 7.15127, 18.9373, -153.033, -95.2709, 98.7316
1.38407, -1, -12.9518, 7.10879, 18.9479, -153.083, -95.2532, 98.4436
1.39109, -1, -13.1117, 7.06622, 18.9584, -153.132, -95.2359, 98.1555
1.39908, -1, -13.2715, 7.02369, 18.9689, -153.182, -95.2186, 97.8675
1.40806, -1, -13.4309, 6.98113, 18.9795, -153.231, -95.2016, 97.5793
1.41507, -1, -13.5902, 6.93841, 18.99, -153.28, -95.1844, 97.2909
1.42307, -1, -13.7494, 6.8957, 19.0005, -153.33, -95.1671, 97.0021
1.43207, -1, -13.9082, 6.85302, 19.011, -153.379, -95.1494, 96.7138
1.43908, -1, -14.0665, 6.8103, 19.0214, -153.428, -95.1316, 96.4251
1.44708, -1, -14.2247, 6.76773, 19.032, -153.478, -95.114, 96.1362
1.45608, -1, -14.3829, 6.7251, 19.0425, -153.527, -95.0966, 95.8472
1.46311, -1, -14.5412, 6.68245, 19.0529, -153.576, -95.0794, 95.5585
1.47115, -1, -14.6999, 6.63991, 19.0634, -153.626, -95.0622, 95.2695
1.47911, -1, -14.859, 6.59739, 19.074, -153.676, -95.045, 94.9801
1.4871, -1, -15.0183, 6.55475, 19.0846, -153.725, -95.0277, 94.691
1.49608, -1, -15.1781, 6.51217, 19.0953, -153.776, -95.01, 94.402
1.50419, -1, -15.3382, 6.46964, 19.106, -153.825, -94.992, 94.1128
1.51312, -1, -15.4987, 6.427, 19.1166, -153.875, -94.9741, 93.8234
1.52006, -1, -15.6595, 6.38433, 19.1271, -153.925, -94.9565, 93.5343
1.52709, -1, -15.8203, 6.34162, 19.1376, -153.974, -94.9392, 93.2451
1.53508, -1, -15.9809, 6.29883, 19.1483, -154.024, -94.922, 92.9556
1.54406, -1, -16.1416, 6.25598, 19.1588, -154.074, -94.9049, 92.6658
1.55111, -1, -16.3024, 6.21315, 19.1693, -154.123, -94.8876, 92.3763
1.55915, -1, -16.4628, 6.1702, 19.1797, -154.172, -94.8702, 92.0867
1.56723, -1, -16.623, 6.12721, 19.1902, -154.222, -94.8524, 91.7967
1.57517, -1, -16.7829, 6.08433, 19.2009, -154.272, -94.8345, 91.5067
1.58324, -1, -16.9422, 6.04141, 19.2115, -154.321, -94.8168, 91.217
1.59119, -1, -17.1014, 5.99849, 19.2221, -154.371, -94.7994, 90.9269
1.59918, -1, -17.2605, 5.95562, 19.2327, -154.421, -94.782, 90.6368
1.60725, -1, -17.4197, 5.91281, 19.2432, -154.471, -94.7647, 90.3464
1.61509, -1, -17.579, 5.87005, 19.2538, -154.521, -94.7473, 90.0563
1.62311, -1, -17.7385, 5.82727, 19.2644, -154.57, -94.7297, 89.7661
1.63149, -1, -17.8981, 5.78451, 19.2751, -154.621, -94.7118, 89.4757
1.63919, -1, -18.0581, 5.74176, 19.2857, -154.671, -94.6936, 89.1852
1.64727, -1, -18.2187, 5.69901, 19.2962, -154.72, -94.6757, 88.8948
1.65546, -1, -18.3797, 5.65626, 19.3069, -154.771, -94.6581, 88.6041
1.66335, -1, -18.5411, 5.61332, 19.3176, -154.821, -94.6407, 88.3132
1.67143, -1, -18.7027, 5.57035, 19.3282, -154.87, -94.6234, 88.0222
1.67963, -1, -18.8641, 5.52739, 19.3388, -154.921, -94.6062, 87.7314
1.68822, -1, -19.0258, 5.48436, 19.3493, -154.97, -94.5887, 87.4402
1.69563, -1, -19.1874, 5.44122, 19.3598, -155.02, -94.5708, 87.1489
1.70424, -1, -19.3488, 5.39812, 19.3705, -155.07, -94.5527, 86.8577
1.71164, -1, -19.5098, 5.35501, 19.381, -155.12, -94.5348, 86.5663
1.72018, -1, -19.6707, 5.31179, 19.3916, -155.169, -94.517, 86.2747
1.72771, -1, -19.7509, 5.29027, 19.3968, -155.194, -94.4995, 85.9829
1.73612, -1, -19.9915, 5.22566, 19.4127, -155.269, -94.4821, 85.6913
1.74306, -1, -20.0716, 5.20409, 19.4181, -155.294, -94.4734, 85.5456
1.75309, -1, -20.3115, 5.13968, 19.4343, -155.37, -94.4471, 85.1081
1.7602, -1, -20.4715, 5.09674, 19.4451, -155.419, -94.4294, 84.8163
1.76706, -1, -20.5515, 5.07522, 19.4505, -155.444, -94.4203, 84.6705
1.77715, -1, -20.7919, 5.01084, 19.4664, -155.52, -94.3932, 84.233
1.78311, -1, -20.8722, 4.98941, 19.4718, -155.545, -94.3843, 84.087
1.79251, -1, -21.1138, 4.92491, 19.4877, -155.621, -94.3581, 83.6487
1.79911, -1, -21.1945, 4.90342, 19.493, -155.646, -94.3494, 83.5027
1.80712, -1, -21.3563, 4.86037, 19.5036, -155.696, -94.3322, 83.2108
1.8167, -1, -21.5995, 4.79555, 19.5195, -155.771, -94.3063, 82.7722
1.82553, -1, -21.7617, 4.7524, 19.5302, -155.822, -94.2886, 82.4798
1.83113, -1, -21.8429, 4.73077, 19.5356, -155.847, -94.2797, 82.3336
1.8407, -1, -22.0864, 4.66572, 19.5517, -155.922, -94.2528, 81.8948
1.84951, -1, -22.1676, 4.64404, 19.5571, -155.972, -94.235, 81.602
1.85513, -1, -22.3301, 4.60072, 19.5677, -155.997, -94.2262, 81.4556
1.8641, -1, -22.4922, 4.55733, 19.5783, -156.047, -94.2088, 81.1629
1.87207, -1, -22.6539, 4.51396, 19.589, -156.097, -94.1913, 80.8702
1.87913, -1, -22.8153, 4.47062, 19.5996, -156.147, -94.174, 80.5772
1.88811, -1, -22.9765, 4.42732, 19.6103, -156.198, -94.1563, 80.2843
1.89606, -1, -23.1376, 4.38412, 19.6209, -156.248, -94.1383, 79.9915
1.90306, -1, -23.2985, 4.34087, 19.6316, -156.298, -94.12, 79.6984
1.91106, -1, -23.4594, 4.29768, 19.6425, -156.349, -94.1019, 79.4049
1.92009, -1, -23.6203, 4.25447, 19.6533, -156.4, -94.084, 79.1116
1.92708, -1, -23.7815, 4.2113, 19.664, -156.45, -94.0663, 78.8183
1.93506, -1, -23.9429, 4.16812, 19.6747, -156.501, -94.0489, 78.5247
1.94406, -1, -24.1047, 4.12479, 19.6854, -156.551, -94.0315, 78.2308
1.95107, -1, -24.267, 4.08146, 19.6961, -156.601, -94.014, 77.9373
1.95906, -1, -24.4297, 4.03808, 19.7067, -156.652, -93.9962, 77.6434
1.96807, -1, -24.5927, 3.9946, 19.7173, -156.702, -93.9782, 77.3493
1.97506, -1, -24.7559, 3.95103, 19.7279, -156.752, -93.96, 77.0551
1.98309, -1, -24.9192, 3.90752, 19.7386, -156.803, -93.9422, 76.761
1.99206, -1, -25.0826, 3.86397, 19.7494, -156.853, -93.9245, 76.4669
2.00013, -1, -25.2458, 3.82041, 19.7603, -156.903, -93.907, 76.1726
2.00707, -1, -25.4086, 3.77686, 19.7711, -156.954, -93.8895, 75.8783
2.01606, -1, -25.5713, 3.73327, 19.7819, -157.004, -93.8718, 75.5841
2.02307, -1, -25.7339, 3.68968, 19.7926, -157.054, -93.8539, 75.2898
2.03108, -1, -25.8963, 3.64627, 19.8033, -157.105, -93.8357, 74.9951
2.04006, -1, -26.0584, 3.60282, 19.8141, -157.155, -93.8173, 74.7004
2.04806, -1, -26.2202, 3.55936, 19.8248, -157.206, -93.7992, 74.4058
2.05516, -1, -26.3818, 3.51605, 19.8355, -157.257, -93.7813, 74.1111
2.06393, -1, -26.5435, 3.47266, 19.8462, -157.307, -93.7636, 73.816
2.07208, -1, -26.7055, 3.42924, 19.8569, -157.358, -93.746, 73.5212
2.07922, -1, -26.8678, 3.38577, 19.8678, -157.409, -93.7284, 73.2261
2.09152, -1, -27.1119, 3.32044, 19.884, -157.485, -93.7014, 72.7831
2.09522, -1, -27.1935, 3.29864, 19.8894, -157.51, -93.6922, 72.6354
2.10317, -1, -27.3568, 3.25504, 19.9002, -157.561, -93.6739, 72.3401
2.11124, -1, -27.5205, 3.21129, 19.9108, -157.611, -93.6558, 72.0449
2.11915, -1, -27.6844, 3.16755, 19.9216, -157.662, -93.6379, 71.7492
2.12714, -1, -27.8484, 3.12391, 19.9323, -157.712, -93.6202, 71.4537
2.13518, -1, -28.0126, 3.08021, 19.9431, -157.763, -93.6026, 71.1582
2.14324, -1, -28.1766, 3.03649, 19.9539, -157.814, -93.5848, 70.8625
2.15125, -1, -28.3407, 2.99276, 19.9646, -157.864, -93.5668, 70.5666
2.15936, -1, -28.5046, 2.94909, 19.9754, -157.915, -93.5485, 70.2706
2.16768, -1, -28.6682, 2.90547, 19.9863, -157.966, -93.53, 69.9747
2.17605, -1, -28.8316, 2.86181, 19.9971, -158.017, -93.5118, 69.6786
2.18356, -1, -28.9946, 2.81818, 20.0079, -158.068, -93.4939, 69.3822
2.19221, -1, -29.1573, 2.77457, 20.0186, -158.119, -93.4761, 69.0859
2.19959, -1, -29.32, 2.73099, 20.0294, -158.17, -93.4585, 68.7894
2.2082, -1, -29.4829, 2.68742, 20.0402, -158.221, -93.4409, 68.4928
2.21586, -1, -29.6457, 2.64375, 20.0509, -158.272, -93.4229, 68.1959
2.22417, -1, -29.8088, 2.59999, 20.0617, -158.323, -93.4047, 67.8991
2.23167, -1, -29.8903, 2.57813, 20.0671, -158.374, -93.3863, 67.6025
2.24027, -1, -30.1354, 2.5125, 20.0834, -158.425, -93.3681, 67.3055
2.24705, -1, -30.2172, 2.49053, 20.0889, -158.45, -93.3591, 67.1571
2.25611, -1, -30.4636, 2.42463, 20.1053, -158.526, -93.3325, 66.7117
2.26305, -1, -30.5459, 2.40268, 20.1107, -158.552, -93.3236, 66.5633
2.27105, -1, -30.7108, 2.3587, 20.1215, -158.602, -93.3059, 66.2661
2.28025, -1, -30.9583, 2.29285, 20.1377, -158.679, -93.2791, 65.8201
2.28705, -1, -31.0408, 2.27087, 20.1431, -158.704, -93.2699, 65.6715
2.29636, -1, -31.2881, 2.20493, 20.1593, -158.781, -93.2423, 65.2255
2.30313, -1, -31.3706, 2.18303, 20.1647, -158.807, -93.2331, 65.0767
2.31285, -1, -31.6176, 2.11722, 20.1808, -158.883, -93.2059, 64.6304
2.32056, -1, -31.782, 2.07329, 20.1917, -158.935, -93.1881, 64.3327
2.32868, -1, -31.9461, 2.02945, 20.2026, -158.986, -93.1705, 64.0348
2.33667, -1, -32.1099, 1.98554, 20.2136, -159.037, -93.1529, 63.7366
2.34463, -1, -32.2737, 1.94164, 20.2245, -159.088, -93.1351, 63.4387
2.35258, -1, -32.3555, 1.91968, 20.23, -159.114, -93.117, 63.1408
2.36091, -1, -32.519, 1.87566, 20.2408, -159.165, -93.0986, 62.8425
2.36804, -1, -32.6828, 1.83163, 20.2517, -159.216, -93.0894, 62.6933
2.37604, -1, -32.8468, 1.78759, 20.2626, -159.268, -93.0712, 62.3952
2.38409, -1, -33.0109, 1.74345, 20.2734, -159.318, -93.0532, 62.0969
2.39204, -1, -33.1755, 1.69926, 20.2843, -159.37, -93.0355, 61.7984
2.40006, -1, -33.3404, 1.6551, 20.2951, -159.421, -93.0177, 61.4998
2.40813, -1, -33.5058, 1.6109, 20.306, -159.472, -92.9998, 61.2012
2.41603, -1, -33.6715, 1.56672, 20.317, -159.523, -92.9816, 60.9025
2.42407, -1, -33.8371, 1.52253, 20.3279, -159.574, -92.9631, 60.6037
2.43211, -1, -34.0028, 1.47838, 20.3388, -159.625, -92.9444, 60.3047
2.44005, -1, -34.1687, 1.43425, 20.3496, -159.677, -92.926, 60.006
2.44804, -1, -34.3347, 1.39015, 20.3605, -159.728, -92.9079, 59.7066
2.4561, -1, -34.5006, 1.34595, 20.3714, -159.78, -92.89, 59.4069
2.46403, -1, -34.6662, 1.3018, 20.3822, -159.832, -92.8723, 59.1075
2.47204, -1, -34.8314, 1.25767, 20.3931, -159.883, -92.8544, 58.8082
2.4817, -1, -34.9963, 1.2135, 20.404, -159.935, -92.827, 58.3588
2.48803, -1, -35.161, 1.16933, 20.4149, -159.986, -92.8177, 58.2089
2.49604, -1, -35.3256, 1.12509, 20.426, -160.037, -92.7991, 57.9094
2.5041, -1, -35.4898, 1.08092, 20.4371, -160.089, -92.7808, 57.6097
2.51201, -1, -35.6523, 1.03709, 20.4484, -160.14, -92.7627, 57.31
2.51911, -1, -35.8122, 0.993805, 20.4598, -160.191, -92.7448, 57.0113
2.5281, -1, -35.9683, 0.951553, 20.4715, -160.242, -92.7271, 56.7155
2.53505, -1, -36.1194, 0.910885, 20.4834, -160.291, -92.7097, 56.4256
2.54403, -1, -36.2631, 0.872388, 20.4954, -160.338, -92.6925, 56.1452
2.55212, -1, -36.3974, 0.836708, 20.507, -160.384, -92.676, 55.8805
2.55908, -1, -36.5206, 0.804133, 20.5176, -160.425, -92.6606, 55.6381
2.56803, -1, -36.631, 0.774862, 20.5269, -160.461, -92.6471, 55.4233
2.57615, -1, -36.7271, 0.749443, 20.5345, -160.492, -92.6358, 55.2412
2.58314, -1, -36.8085, 0.727747, 20.5398, -160.517, -92.6268, 55.0941
2.59123, -1, -36.8761, 0.709771, 20.5429, -160.536, -92.6201, 54.982
2.59915, -1, -36.9306, 0.695395, 20.5444, -160.55, -92.6155, 54.9017
2.6071, -1, -36.9725, 0.684376, 20.5448, -160.56, -92.6125, 54.8473
2.61542, -1, -37.0033, 0.676229, 20.5445, -160.566, -92.6107, 54.8139
2.6241, -1, -37.0246, 0.670606, 20.5439, -160.569, -92.6097, 54.7947
2.63204, -1, -37.038, 0.667233, 20.5435, -160.571, -92.6092, 54.7848
2.6395, 2, -37.0456, 0.665451, 20.5433, -160.572, -92.609, 54.7802
2.64721, 2, -37.0485, 0.66465, 20.5432, -160.572, -92.6088, 54.7781
2.65527, 2, -37.0487, 0.664297, 20.5431, -160.573, -92.6088, 54.7771
2.66343, 2, -37.0483, 0.66414, 20.5431, -160.573, -92.6088, 54.7767
2.67139, 2, -37.0481, 0.66408, 20.5431, -160.573, -92.6088, 54.7766
2.67941, 2, -37.0484, 0.664053, 20.5431, -160.573, -92.6088, 54.7766
2.68764, 2, -37.0494, 0.664022, 20.5431, -160.573, -92.6089, 54.7767
2.6962, 2, -37.0505, 0.663927, 20.543, -160.573, -92.6089, 54.7768
2.70358, 2, -37.0518, 0.663769, 20.5428, -160.573, -92.6089, 54.7771
2.71217, 2, -37.0531, 0.663564, 20.5426, -160.573, -92.6089, 54.7773
2.71962, 2, -37.0542, 0.663343, 20.5425, -160.573, -92.609, 54.7775
2.72814, 2, -37.0552, 0.663147, 20.5423, -160.573, -92.609, 54.7778
2.73565, 2, -37.0555, 0.663092, 20.5422, -160.573, -92.609, 54.7781
2.74421, 2, -37.0555, 0.663013, 20.5419, -160.573, -92.6091, 54.7784
2.75186, 2, -37.0553, 0.663012, 20.5418, -160.573, -92.6091, 54.7788
2.7601, 2, -37.0541, 0.663073, 20.5418, -160.573, -92.6091, 54.7791
2.76703, 2, -37.0536, 0.663104, 20.5417, -160.573, -92.6092, 54.7792
2.77658, 2, -37.0515, 0.663229, 20.5417, -160.573, -92.6092, 54.7795
2.78427, 2, -37.05, 0.663319, 20.5416, -160.573, -92.6092, 54.7798
2.79104, 2, -37.0494, 0.663355, 20.5416, -160.573, -92.6093, 54.7799
2.80065, 2, -37.0482, 0.663401, 20.5415, -160.573, -92.6093, 54.7801
2.80848, 2, -37.0479, 0.663398, 20.5415, -160.573, -92.6093, 54.7801
2.81659, 2, -37.0479, 0.663379, 20.5415, -160.573, -92.6094, 54.7802
2.82495, 2, -37.0481, 0.663327, 20.5415, -160.573, -92.6094, 54.7802
2.83258, 2, -37.0483, 0.663296, 20.5415, -160.573, -92.6094, 54.7803
2.84074, 2, -37.0487, 0.663264, 20.5414, -160.573, -92.6094, 54.7803
2.84908, 2, -37.0494, 0.663232, 20.5414, -160.573, -92.6094, 54.7804
2.85661, 2, -37.0499, 0.663234, 20.5414, -160.573, -92.6094, 54.7804
2.86464, 2, -37.0507, 0.663217, 20.5414, -160.573, -92.6094, 54.7804
2.87294, 2, -37.0515, 0.663239, 20.5414, -160.573, -92.6094, 54.7805
2.88002, 2, -37.0516, 0.663253, 20.5414, -160.573, -92.6094, 54.7805
2.88807, 2, -37.0518, 0.66328, 20.5414, -160.573, -92.6095, 54.7805
2.89626, 2, -37.0517, 0.663289, 20.5414, -160.573, -92.6095, 54.7805
2.90403, 2, -37.0516, 0.663304, 20.5414, -160.573, -92.6094, 54.7806
2.91212, 2, -37.0513, 0.663322, 20.5414, -160.573, -92.6095, 54.7806
2.92002, 2, -37.0509, 0.663319, 20.5414, -160.573, -92.6094, 54.7806
2.92805, 2, -37.0507, 0.663307, 20.5414, -160.573, -92.6094, 54.7807
2.93609, 2, -37.0505, 0.663294, 20.5414, -160.573, -92.6094, 54.7807
2.94402, 2, -37.0504, 0.663268, 20.5414, -160.573, -92.6095, 54.7807
2.95202, 2, -37.0504, 0.663241, 20.5414, -160.573, -92.6095, 54.7807
2.96009, 2, -37.0504, 0.663232, 20.5414, -160.573, -92.6095, 54.7808
2.96802, 2, -37.0504, 0.663235, 20.5413, -160.573, -92.6095, 54.7809
2.9752, 2, -37.0505, 0.663256, 20.5413, -160.573, -92.6095, 54.7809
2.98303, 2, -37.0506, 0.663271, 20.5413, -160.573, -92.6095, 54.781
2.99201, 2, -37.0507, 0.663277, 20.5413, -160.573, -92.6095, 54.781
3.00002, 2, -37.0508, 0.66328, 20.5413, -160.573, -92.6095, 54.7811
3.00808, 2, -37.0509, 0.663293, 20.5413, -160.573, -92.6096, 54.7811
3.01603, 2, -37.0509, 0.663295, 20.5413, -160.573, -92.6096, 54.7812
3.02401, 2, -37.0509, 0.663299, 20.5413, -160.573, -92.6096, 54.7812
3.03209, 2, -37.0509, 0.663298, 20.5413, -160.573, -92.6096, 54.7812
3.04002, 2, -37.0509, 0.663278, 20.5413, -160.573, -92.6096, 54.7812
3.0471, 2, -37.0509, 0.66328, 20.5413, -160.573, -92.6096, 54.7812
3.05609, 2, -37.0509, 0.663275, 20.5413, -160.573, -92.6096, 54.7813
3.06401, 2, -37.0509, 0.663255, 20.5412, -160.573, -92.6097, 54.7813
3.07201, 2, -37.0509, 0.663258, 20.5412, -160.573, -92.6097, 54.7814
3.08012, 2, -37.0508, 0.663254, 20.5412, -160.573, -92.6097, 54.7815
3.08713, 2, -37.0508, 0.66327, 20.5412, -160.573, -92.6097, 54.7816
3.09529, 2, -37.0508, 0.663277, 20.5412, -160.573, -92.6097, 54.7816
3.10314, 2, -37.0508, 0.66328, 20.5412, -160.573, -92.6097, 54.7816
3.1111, 2, -37.0508, 0.6633, 20.5412, -160.572, -92.6097, 54.7816
3.11915, 2, -37.0508, 0.663309, 20.5412, -160.572, -92.6097, 54.7816
3.12705, 2, -37.0508, 0.663313, 20.5412, -160.572, -92.6097, 54.7817
3.13513, 2, -37.0508, 0.663297, 20.5412, -160.572, -92.6098, 54.7817
3.14323, 2, -37.0508, 0.663289, 20.5412, -160.572, -92.6097, 54.7817
3.15117, 2, -37.0508, 0.663286, 20.5412, -160.572, -92.6098, 54.7817
3.15933, 2, -37.0508, 0.663277, 20.5412, -160.572, -92.6098, 54.7818
3.16744, 2, -37.0508, 0.663275, 20.5412, -160.572, -92.6098, 54.7818
3.17533, 2, -37.0507, 0.663267, 20.5411, -160.572, -92.6098, 54.7818
3.18353, 2, -37.0507, 0.663263, 20.5411, -160.572, -92.6098, 54.7819
3.19207, 2, -37.0507, 0.663274, 20.5411, -160.572, -92.6098, 54.7819
3.20018, 2, -37.0507, 0.663267, 20.5411, -160.572, -92.6098, 54.782
3.20755, 2, -37.0507, 0.663294, 20.5411, -160.572, -92.6098, 54.7819
3.21613, 2, -37.0507, 0.663317, 20.5411, -160.572, -92.6098, 54.782
3.2236, 2, -37.0507, 0.663317, 20.5411, -160.572, -92.6098, 54.782
3.23213, 2, -37.0507, 0.663335, 20.5411, -160.572, -92.6098, 54.782
3.23971, 2, -37.0507, 0.663329, 20.5411, -160.572, -92.6097, 54.7821
3.24811, 2, -37.0506, 0.663297, 20.5411, -160.572, -92.6098, 54.7822
3.25504, 2, -37.0506, 0.663304, 20.5411, -160.572, -92.6098, 54.7822
3.26411, 2, -37.0506, 0.663287, 20.5411, -160.572, -92.6098, 54.7822
3.27102, 2, -37.0506, 0.663278, 20.5411, -160.572, -92.6098, 54.7822
3.28031, 2, -37.0505, 0.663282, 20.5411, -160.572, -92.6099, 54.7822
3.28709, 2, -37.0505, 0.663282, 20.5411, -160.572, -92.6099, 54.7822
3.29637, 2, -37.0505, 0.663295, 20.5411, -160.572, -92.6098, 54.7822
3.30301, 2, -37.0505, 0.663291, 20.5411, -160.572, -92.6098, 54.7823
3.31253, 2, -37.0505, 0.663304, 20.541, -160.572, -92.6099, 54.7823
3.32053, 2, -37.0505, 0.663322, 20.541, -160.572, -92.6099, 54.7824
3.32866, 2, -37.0505, 0.663327, 20.541, -160.572, -92.6099, 54.7824
3.33663, 2, -37.0504, 0.663332, 20.541, -160.572, -92.6099, 54.7824
3.3446, 2, -37.0504, 0.663342, 20.541, -160.572, -92.6099, 54.7824
3.35261, 2, -37.0504, 0.663345, 20.541, -160.572, -92.6099, 54.7824
3.36063, 2, -37.0504, 0.663348, 20.541, -160.572, -92.61, 54.7824
3.36856, 2, -37.0504, 0.66332, 20.541, -160.572, -92.6099, 54.7824
3.37601, 2, -37.0504, 0.6633, 20.541, -160.572, -92.61, 54.7824
3.38401, 2, -37.0503, 0.663291, 20.541, -160.572, -92.6099, 54.7824
3.39205, 2, -37.0503, 0.663287, 20.541, -160.572, -92.6099, 54.7825
3.40001, 2, -37.0503, 0.663303, 20.541, -160.572, -92.6099, 54.7825
3.40806, 2, -37.0503, 0.663303, 20.541, -160.572, -92.61, 54.7825
3.41611, 2, -37.0502, 0.6633, 20.541, -160.572, -92.61, 54.7825
3.424, 2, -37.0503, 0.66332, 20.5409, -160.572, -92.61, 54.7825
3.43205, 2, -37.0502, 0.663337, 20.5409, -160.572, -92.61, 54.7825
3.44007, 2, -37.0502, 0.663344, 20.5409, -160.572, -92.61, 54.7825
3.44799, 2, -37.0502, 0.663337, 20.541, -160.572, -92.61, 54.7825
3.45601, 2, -37.0502, 0.663337, 20.5409, -160.572, -92.61, 54.7826
3.46407, 2, -37.0502, 0.663357, 20.5409, -160.572, -92.61, 54.7826
3.472, 2, -37.0502, 0.663343, 20.5409, -160.572, -92.61, 54.7826
3.48003, 2, -37.0502, 0.66334, 20.5409, -160.572, -92.61, 54.7826
3.48807, 2, -37.0501, 0.663346, 20.5409, -160.572, -92.61, 54.7826
3.49601, 2, -37.0501, 0.663319, 20.5409, -160.572, -92.61, 54.7826
3.505, 2, -37.0501, 0.6633, 20.5409, -160.572, -92.61, 54.7826
3.51206, 2, -37.0501, 0.663291, 20.5409, -160.572, -92.61, 54.7826
3.52, 2, -37.0501, 0.663316, 20.5409, -160.572, -92.6101, 54.7827
3.52708, 2, -37.05, 0.663335, 20.5409, -160.572, -92.61, 54.7827
3.53609, 2, -37.05, 0.663332, 20.5408, -160.572, -92.61, 54.7827
3.54303, 2, -37.05, 0.66336, 20.5409, -160.572, -92.61, 54.7826
3.55203, 2, -37.05, 0.663355, 20.5409, -160.572, -92.61, 54.7826
3.56007, 2, -37.0499, 0.663342, 20.5409, -160.572, -92.61, 54.7827
3.568, 2, -37.0499, 0.663328, 20.5408, -160.572, -92.61, 54.7827
3.57517, 2, -37.0499, 0.663333, 20.5408, -160.572, -92.6101, 54.7827
3.58311, 2, -37.0499, 0.663343, 20.5408, -160.572, -92.6101, 54.7827
3.59111, 2, -37.0499, 0.663347, 20.5408, -160.572, -92.6101, 54.7827
3.60004, 2, -37.0499, 0.663331, 20.5408, -160.572, -92.6101, 54.7828
3.60819, 2, -37.0498, 0.663323, 20.5408, -160.572, -92.6101, 54.7827
3.61502, 2, -37.0498, 0.663345, 20.5408, -160.572, -92.61, 54.7828
3.62316, 2, -37.0498, 0.663335, 20.5408, -160.572, -92.61, 54.7828
3.63105, 2, -37.0498, 0.663332, 20.5408, -160.572, -92.61, 54.7827
3.63931, 2, -37.0497, 0.663347, 20.5408, -160.572, -92.6101, 54.7828
3.64801, 2, -37.0497, 0.663357, 20.5408, -160.572, -92.6101, 54.7828
3.65608, 2, -37.0497, 0.663371, 20.5408, -160.572, -92.6101, 54.7828
3.664, 2, -37.0497, 0.663379, 20.5408, -160.572, -92.61, 54.7829
3.67203, 2, -37.0497, 0.663369, 20.5408, -160.572, -92.61, 54.7828
3.68007, 2, -37.0496, 0.663359, 20.5408, -160.572, -92.6101, 54.7828
3.68803, 2, -37.0496, 0.663367, 20.5407, -160.572, -92.6101, 54.7828
3.69556, 2, -37.0496, 0.66337, 20.5407, -160.572, -92.6101, 54.7828
3.70426, 2, -37.0495, 0.66336, 20.5407, -160.572, -92.6101, 54.7829
3.71164, 2, -37.0495, 0.663355, 20.5407, -160.572, -92.6101, 54.7829
3.7201, 2, -37.0495, 0.663342, 20.5407, -160.572, -92.6101, 54.7829
3.72787, 4, -37.0495, 0.663339, 20.5407, -160.572, -92.6101, 54.7829
3.73619, 4, -37.0495, 0.663358, 20.5407, -160.572, -92.6102, 54.7828
3.74357, 4, -37.0495, 0.663356, 20.5407, -160.572, -92.6102, 54.7828
3.75213, 4, -37.0495, 0.663361, 20.5407, -160.572, -92.6101, 54.7828
3.759, 4, -37.0494, 0.663357, 20.5407, -160.572, -92.6102, 54.7828
3.7681, 4, -37.0494, 0.663373, 20.5407, -160.572, -92.6102, 54.7829
3.775, 4, -37.0494, 0.663373, 20.5407, -160.572, -92.6102, 54.7829
3.7842, 4, -37.0494, 0.663361, 20.5407, -160.572, -92.6102, 54.7829
3.79106, 4, -37.0494, 0.663358, 20.5407, -160.572, -92.6101, 54.7829
3.80041, 4, -37.0493, 0.663361, 20.5406, -160.571, -92.6102, 54.7829
3.807, 4, -37.0493, 0.663358, 20.5406, -160.571, -92.6102, 54.7829
3.81681, 4, -37.0493, 0.663365, 20.5406, -160.571, -92.6102, 54.7829
3.82455, 4, -37.0493, 0.66337, 20.5406, -160.572, -92.6102, 54.7829
3.83295, 4, -37.0493, 0.663359, 20.5406, -160.571, -92.6101, 54.7829
3.85558, 4, -37.0493, 0.663359, 20.5406, -160.571, -92.6102, 54.7829
3.85782, 4, -37.0493, 0.663371, 20.5406, -160.571, -92.6102, 54.7829
3.85903, 4, -37.0493, 0.663371, 20.5406, -160.571, -92.6102, 54.7829
3.86502, 4, -37.0493, 0.663385, 20.5406, -160.571, -92.6101, 54.7829
3.87101, 4, -37.0493, 0.663388, 20.5406, -160.571, -92.6101, 54.7829
3.88, 4, -37.0492, 0.663385, 20.5406, -160.571, -92.6101, 54.7829
3.88803, 4, -37.0486, 0.663252, 20.5406, -160.571, -92.6102, 54.7829
3.896, 4, -37.046, 0.662337, 20.5407, -160.571, -92.6101, 54.7829
3.904, 4, -37.0402, 0.659578, 20.5415, -160.571, -92.6102, 54.7829
3.91204, 4, -37.0315, 0.654636, 20.5437, -160.571, -92.6102, 54.7829
3.92002, 4, -37.0209, 0.647692, 20.5481, -160.57, -92.6102, 54.7829
3.92801, 4, -37.0081, 0.638565, 20.5555, -160.569, -92.6102, 54.7828
3.935, 5, -36.9925, 0.626867, 20.5665, -160.567, -92.6102, 54.7828
3.943, 5, -36.9745, 0.612534, 20.5816, -160.564, -92.6101, 54.7828
3.95201, 5, -36.9547, 0.59645, 20.6005, -160.56, -92.6099, 54.7827
3.96003, 5, -36.9337, 0.578451, 20.6222, -160.555, -92.6097, 54.7826
3.96799, 5, -36.91, 0.557795, 20.6463, -160.55, -92.6095, 54.7825
3.97599, 5, -36.8827, 0.534759, 20.672, -160.545, -92.6092, 54.7824
3.98408, 5, -36.8523, 0.510125, 20.6986, -160.539, -92.6089, 54.7822
3.992, 5, -36.8203, 0.484369, 20.7257, -160.533, -92.6085, 54.7821
4.001, 5, -36.7871, 0.458245, 20.7531, -160.527, -92.608, 54.7819
4.00798, 5, -36.7536, 0.431807, 20.7806, -160.521, -92.6075, 54.7817
4.01599, 5, -36.7197, 0.405224, 20.8079, -160.514, -92.6069, 54.7815
4.02483, 5, -36.6858, 0.378566, 20.8353, -160.508, -92.6063, 54.7813
4.032, 5, -36.6521, 0.351844, 20.8628, -160.502, -92.6056, 54.7812
4.03999, 5, -36.6186, 0.325394, 20.8904, -160.496, -92.6049, 54.7811
4.04892, 5, -36.5852, 0.298959, 20.9179, -160.49, -92.6042, 54.781
4.05598, 5, -36.5515, 0.272636, 20.9455, -160.484, -92.6034, 54.781
4.06398, 5, -36.5178, 0.246268, 20.9731, -160.478, -92.6025, 54.7808
4.07279, 5, -36.4842, 0.220042, 21.0007, -160.472, -92.6018, 54.7807
4.07908, 5, -36.4506, 0.193842, 21.028, -160.466, -92.601, 54.7806
4.08804, 5, -36.4172, 0.167624, 21.0554, -160.46, -92.6001, 54.7805
4.09701, 5, -36.3838, 0.141425, 21.083, -160.455, -92.5992, 54.7803
4.10327, 5, -36.3504, 0.115012, 21.1105, -160.449, -92.5984, 54.7802
4.11201, 5, -36.317, 0.0886996, 21.1378, -160.443, -92.5976, 54.7799
4.12079, 5, -36.2832, 0.0622877, 21.1651, -160.438, -92.5967, 54.7795
4.12799, 5, -36.249, 0.0358756, 21.1925, -160.432, -92.5959, 54.7792
4.13599, 5, -36.2146, 0.0094717, 21.2198, -160.426, -92.5951, 54.7788
4.14479, 5, -36.1803, -0.0169881, 21.247, -160.421, -92.5942, 54.7784
4.152, 5, -36.1462, -0.0432136, 21.2743, -160.415, -92.5934, 54.7778
4.15999, 5, -36.112, -0.0694723, 21.3015, -160.409, -92.5925, 54.7774
4.16879, 5, -36.0778, -0.0955739, 21.3289, -160.403, -92.5917, 54.7769
4.17598, 5, -36.0437, -0.121735, 21.356, -160.397, -92.5908, 54.7764
4.18403, 5, -36.0096, -0.147781, 21.3831, -160.391, -92.59, 54.7759
4.19205, 5, -35.9755, -0.173784, 21.4103, -160.385, -92.5893, 54.7754
4.19982, 5, -35.9413, -0.199857, 21.4376, -160.379, -92.5884, 54.7748
4.20835, 5, -35.9072, -0.225783, 21.4646, -160.372, -92.5875, 54.7744
4.21554, 5, -35.8733, -0.251904, 21.4917, -160.366, -92.5867, 54.7739
4.22434, 5, -35.8395, -0.27792, 21.5187, -160.359, -92.5859, 54.7734
4.23157, 5, -35.8225, -0.303957, 21.5458, -160.353, -92.5851, 54.773
4.24168, 5, -35.7711, -0.330069, 21.5727, -160.347, -92.5843, 54.7726
4.24878, 5, -35.7367, -0.356094, 21.5996, -160.341, -92.5835, 54.7723
4.25618, 5, -35.7023, -0.382193, 21.6265, -160.334, -92.5827, 54.772
4.263, 5, -35.6851, -0.395185, 21.6399, -160.331, -92.5823, 54.7718
4.27284, 5, -35.6333, -0.434118, 21.6803, -160.322, -92.5812, 54.7715
4.28021, 5, -35.5988, -0.459998, 21.7069, -160.317, -92.5804, 54.7713
4.28698, 5, -35.5815, -0.472938, 21.7203, -160.314, -92.5799, 54.7712
4.29713, 5, -35.5299, -0.511776, 21.7605, -160.305, -92.5788, 54.771
4.30299, 5, -35.5127, -0.524632, 21.7739, -160.302, -92.5784, 54.7709
4.31235, 5, -35.4608, -0.563288, 21.8138, -160.293, -92.5772, 54.7707
4.32123, 5, -35.4263, -0.588951, 21.8404, -160.287, -92.5764, 54.7706
4.32699, 5, -35.4091, -0.601827, 21.8537, -160.284, -92.576, 54.7706
4.3365, 5, -35.3576, -0.64048, 21.8935, -160.275, -92.5749, 54.7706
4.34301, 5, -35.3404, -0.653286, 21.9067, -160.272, -92.5745, 54.7706
4.35254, 5, -35.2887, -0.691945, 21.9464, -160.263, -92.5733, 54.7706
4.36057, 5, -35.2714, -0.704775, 21.9596, -160.257, -92.5725, 54.7706
4.37044, 5, -35.2195, -0.743326, 21.9994, -160.25, -92.5717, 54.7706
4.37499, 5, -35.2022, -0.75616, 22.0125, -160.247, -92.5714, 54.7706
4.38398, 5, -35.1674, -0.781608, 22.0387, -160.24, -92.5706, 54.7706
4.39968, 5, -35.0976, -0.832539, 22.0914, -160.227, -92.569, 54.7706
4.40176, 5, -35.0802, -0.845276, 22.1045, -160.224, -92.5686, 54.7706
4.40798, 5, -35.0628, -0.858065, 22.1176, -160.22, -92.5683, 54.7706
4.41597, 5, -35.0281, -0.883573, 22.1438, -160.214, -92.5675, 54.7706
4.42295, 5, -34.9931, -0.908899, 22.1699, -160.207, -92.5667, 54.7706
4.43198, 5, -34.9581, -0.934353, 22.196, -160.201, -92.5659, 54.7706
4.44016, 5, -34.9234, -0.959686, 22.2221, -160.194, -92.5651, 54.7707
4.45036, 5, -34.8711, -0.997835, 22.2611, -160.185, -92.5639, 54.7707
4.45498, 5, -34.8537, -1.01048, 22.2741, -160.182, -92.5635, 54.7707
4.46406, 5, -34.8188, -1.03568, 22.3001, -160.176, -92.5627, 54.7707
4.47098, 5, -34.784, -1.06099, 22.3261, -160.17, -92.5619, 54.7708
4.47997, 5, -34.7492, -1.08618, 22.3519, -160.164, -92.5611, 54.7709
4.48863, 5, -34.7142, -1.11148, 22.3777, -160.158, -92.5603, 54.7709
4.49499, 5, -34.6792, -1.13674, 22.4035, -160.152, -92.5594, 54.7709
4.50396, 5, -34.644, -1.1619, 22.4294, -160.146, -92.5587, 54.771
4.51279, 5, -34.609, -1.18708, 22.4551, -160.14, -92.5578, 54.7711
4.51903, 5, -34.5739, -1.21216, 22.4807, -160.134, -92.5571, 54.7713
4.52808, 5, -34.5387, -1.23735, 22.5063, -160.128, -92.5562, 54.7715
4.53499, 5, -34.5034, -1.26243, 22.5319, -160.121, -92.5554, 54.7718
4.54619, 5, -34.4681, -1.29997, 22.5702, -160.112, -92.5542, 54.7721
4.55199, 5, -34.4329, -1.31248, 22.583, -160.108, -92.5538, 54.7724
4.56442, 5, -34.3801, -1.3499, 22.6212, -160.098, -92.5525, 54.7731
4.56708, 5, -34.3624, -1.36245, 22.634, -160.095, -92.5521, 54.7735
4.57603, 5, -34.3271, -1.38735, 22.6595, -160.088, -92.5513, 54.7743
4.58398, 5, -34.2919, -1.41226, 22.6848, -160.081, -92.5505, 54.7751
4.59216, 5, -34.2566, -1.4372, 22.7101, -160.074, -92.5497, 54.776
4.59923, 5, -34.2213, -1.46197, 22.7354, -160.068, -92.5489, 54.7771
4.60708, 5, -34.1859, -1.48688, 22.7608, -160.061, -92.548, 54.7784
4.61516, 5, -34.1505, -1.51163, 22.7861, -160.054, -92.5472, 54.7798
4.62299, 5, -34.1151, -1.53637, 22.8113, -160.047, -92.5463, 54.7812
4.63101, 5, -34.0797, -1.5611, 22.8365, -160.041, -92.5455, 54.7828
4.63984, 5, -34.0442, -1.58571, 22.8616, -160.034, -92.5446, 54.7843
4.64803, 5, -34.0086, -1.6105, 22.8868, -160.028, -92.5438, 54.7859
4.65598, 5, -33.9731, -1.63515, 22.9119, -160.021, -92.5429, 54.7876
4.66432, 5, -33.9376, -1.65974, 22.937, -160.015, -92.542, 54.7892
4.67282, 5, -33.902, -1.68439, 22.962, -160.008, -92.5411, 54.791
4.67998, 5, -33.8662, -1.70888, 22.987, -160.002, -92.5403, 54.7927
4.68806, 5, -33.8307, -1.73352, 23.0119, -159.996, -92.5395, 54.7945
4.696, 5, -33.7951, -1.75804, 23.0367, -159.989, -92.5385, 54.7963
4.70411, 5, -33.7594, -1.78253, 23.0615, -159.983, -92.5377, 54.7981
4.71154, 5, -33.7237, -1.80711, 23.0864, -159.976, -92.5368, 54.7999
4.72012, 5, -33.6879, -1.83157, 23.1112, -159.969, -92.5359, 54.8018
4.72761, 5, -33.6523, -1.85611, 23.136, -159.962, -92.5351, 54.8036
4.73851, 5, -33.6166, -1.88053, 23.1606, -159.955, -92.5342, 54.8055
4.74414, 5, -33.5808, -1.9049, 23.1853, -159.948, -92.5333, 54.8074
4.75097, 5, -33.5628, -1.91713, 23.1976, -159.945, -92.5328, 54.8083
4.76004, 5, -33.5092, -1.95366, 23.2345, -159.934, -92.5315, 54.8113
4.76697, 5, -33.4914, -1.96594, 23.2468, -159.93, -92.5311, 54.8123
4.77612, 5, -33.4378, -2.00285, 23.2837, -159.92, -92.5296, 54.815
4.78302, 5, -33.4199, -2.01514, 23.296, -159.916, -92.5291, 54.8159
4.79507, 5, -33.3664, -2.05231, 23.3332, -159.905, -92.5274, 54.8184
4.7989, 5, -33.3486, -2.06475, 23.3455, -159.902, -92.5267, 54.8191
4.80829, 5, -33.2954, -2.10248, 23.3829, -159.891, -92.5243, 54.8208
4.81902, 6, -33.2599, -2.12783, 23.4081, -159.884, -92.5224, 54.8215
4.82297, 6, -33.2421, -2.14055, 23.4209, -159.88, -92.5213, 54.8217
4.83247, 6, -33.1894, -2.17932, 23.4594, -159.869, -92.5174, 54.8221
4.84058, 6, -33.1543, -2.20549, 23.4852, -159.861, -92.5145, 54.8222
4.8486, 6, -33.1193, -2.23208, 23.5114, -159.852, -92.5112, 54.8222
4.8573, 6, -33.1017, -2.2588, 23.5379, -159.844, -92.5076, 54.822
4.86311, 6, -33.0669, -2.27231, 23.5512, -159.84, -92.5057, 54.8219
4.87184, 6, -33.0324, -2.29962, 23.5778, -159.83, -92.5016, 54.8214
4.87996, 6, -32.9979, -2.32717, 23.6048, -159.821, -92.4972, 54.8206
4.88767, 6, -32.9635, -2.35527, 23.6321, -159.811, -92.4926, 54.8196
4.89494, 7, -32.9292, -2.38351, 23.6597, -159.801, -92.4876, 54.8186
4.90395, 7, -32.8951, -2.41209, 23.6873, -159.79, -92.4824, 54.8172
4.91175, 7, -32.8613, -2.44096, 23.7152, -159.779, -92.4769, 54.8149
4.91896, 7, -32.8276, -2.47028, 23.7435, -159.768, -92.4711, 54.8117
4.92804, 7, -32.7939, -2.49992, 23.772, -159.757, -92.4651, 54.8076
4.93617, 7, -32.7603, -2.5298, 23.8007, -159.746, -92.4587, 54.8029
4.94311, 7, -32.7269, -2.56009, 23.8295, -159.735, -92.4521, 54.7977
4.95197, 7, -32.6938, -2.5907, 23.8587, -159.724, -92.445, 54.7918
4.96001, 7, -32.6608, -2.62167, 23.8882, -159.712, -92.4377, 54.7854
4.96795, 7, -32.6277, -2.65285, 23.9177, -159.7, -92.4301, 54.7785
4.97615, 8, -32.5948, -2.68434, 23.9476, -159.688, -92.422, 54.7713
4.9862, 8, -32.5458, -2.73248, 23.9931, -159.669, -92.409, 54.7595
4.991, 8, -32.5296, -2.74864, 24.0083, -159.662, -92.4045, 54.7552
4.99996, 8, -32.4971, -2.78123, 24.0388, -159.649, -92.395, 54.7465
5.00896, 8, -32.4648, -2.81411, 24.0696, -159.635, -92.3849, 54.7374
5.01603, 8, -32.4326, -2.84743, 24.1008, -159.622, -92.3744, 54.7277
5.02401, 8, -32.4006, -2.88101, 24.1322, -159.608, -92.3636, 54.7177
5.03103, 8, -32.3687, -2.91494, 24.1637, -159.594, -92.3526, 54.7071
5.04079, 8, -32.3369, -2.94921, 24.1956, -159.58, -92.3413, 54.6961
5.04795, 8, -32.3052, -2.98384, 24.2277, -159.566, -92.33, 54.6846
5.05602, 8, -32.2738, -3.0187, 24.26, -159.552, -92.3185, 54.6726
5.06406, 9, -32.2425, -3.05384, 24.2925, -159.537, -92.3067, 54.6602
5.07196, 9, -32.2114, -3.0894, 24.3254, -159.521, -92.2947, 54.6473
5.08002, 9, -32.1802, -3.12527, 24.3584, -159.505, -92.2824, 54.6342
5.08795, 9, -32.1491, -3.16145, 24.3916, -159.489, -92.2696, 54.621
5.096, 9, -32.1184, -3.19794, 24.4252, -159.474, -92.2563, 54.6075
5.10401, 9, -32.0877, -3.23485, 24.459, -159.458, -92.2425, 54.5939
5.11214, 9, -32.0571, -3.27206, 24.4929, -159.442, -92.228, 54.5799
5.12003, 9, -32.0267, -3.3097, 24.5271, -159.425, -92.2133, 54.5657
5.12802, 9, -31.9963, -3.34768, 24.5616, -159.409, -92.1983, 54.551
5.13618, 9, -31.9662, -3.38597, 24.5963, -159.392, -92.1833, 54.5359
5.14331, 10, -31.9362, -3.42464, 24.6313, -159.374, -92.1681, 54.5203
5.15113, 10, -31.9063, -3.46369, 24.6666, -159.356, -92.1526, 54.504
5.15915, 10, -31.8766, -3.50304, 24.7019, -159.338, -92.1367, 54.4872
5.1673, 10, -31.847, -3.54268, 24.7377, -159.321, -92.1204, 54.4699
5.17528, 10, -31.8175, -3.58271, 24.7738, -159.303, -92.1035, 54.4522
5.18333, 10, -31.7882, -3.62302, 24.8099, -159.285, -92.0859, 54.4343
5.19633, 10, -31.7446, -3.68414, 24.8647, -159.258, -92.059, 54.4074
5.19948, 10, -31.7301, -3.70473, 24.8831, -159.248, -92.05, 54.3983
5.20816, 10, -31.7011, -3.74602, 24.92, -159.229, -92.0319, 54.38
5.21646, 10, -31.6722, -3.78758, 24.9572, -159.209, -92.0138, 54.3613
5.22405, 10, -31.6436, -3.82964, 24.9948, -159.19, -91.9954, 54.342
5.23454, 11, -31.6152, -3.87199, 25.0324, -159.17, -91.9765, 54.3224
5.24013, 11, -31.601, -3.89323, 25.0512, -159.161, -91.9669, 54.3019
5.24752, 11, -31.5726, -3.93604, 25.0894, -159.141, -91.947, 54.281
5.25596, 11, -31.53, -4.00096, 25.1469, -159.111, -91.9164, 54.2599
5.26496, 11, -31.5018, -4.04468, 25.1854, -159.09, -91.896, 54.2387
5.27205, 11, -31.4739, -4.08886, 25.2244, -159.068, -91.8754, 54.2172
5.279, 11, -31.46, -4.11105, 25.244, -159.058, -91.865, 54.2065
5.28852, 11, -31.4186, -4.1781, 25.3029, -159.026, -91.8333, 54.1737
5.29618, 11, -31.391, -4.22338, 25.3427, -159.005, -91.8113, 54.1512
5.30294, 11, -31.3771, -4.24613, 25.3626, -158.994, -91.8001, 54.1398
5.31269, 12, -31.3361, -4.31478, 25.4227, -158.961, -91.7659, 54.1043
5.32034, 12, -31.3089, -4.36105, 25.4632, -158.938, -91.7431, 54.0799
5.32711, 12, -31.2953, -4.38431, 25.4835, -158.927, -91.7318, 54.0678
5.33654, 12, -31.2551, -4.45457, 25.5447, -158.893, -91.6973, 54.0313
5.34448, 12, -31.2284, -4.50177, 25.586, -158.87, -91.6736, 54.0068
5.3526, 12, -31.2017, -4.54929, 25.6273, -158.847, -91.6493, 53.982
5.36095, 12, -31.1753, -4.5972, 25.669, -158.824, -91.6246, 53.9565
5.36777, 12, -31.1621, -4.62128, 25.6899, -158.812, -91.6123, 53.9435
5.37654, 12, -31.1357, -4.66963, 25.7319, -158.787, -91.5876, 53.9037
5.38504, 12, -31.0964, -4.74281, 25.7954, -158.751, -91.5502, 53.8769
5.39101, 12, -31.0834, -4.76741, 25.8166, -158.739, -91.5374, 53.8635
5.401, 13, -31.0443, -4.8418, 25.8808, -158.703, -91.4977, 53.8229
5.40695, 13, -31.0314, -4.86676, 25.9023, -158.691, -91.4843, 53.8092
5.41594, 13, -31.0058, -4.91701, 25.9456, -158.666, -91.4578, 53.7814
5.42395, 13, -30.9803, -4.96772, 25.9891, -158.64, -91.4312, 53.7527
5.43204, 13, -30.9549, -5.01876, 26.0327, -158.615, -91.4044, 53.7235
5.44212, 13, -30.9295, -5.07015, 26.0989, -158.577, -91.3627, 53.6794
5.44696, 13, -30.9042, -5.12185, 26.121, -158.564, -91.3485, 53.6647
5.45596, 13, -30.879, -5.17394, 26.1654, -158.539, -91.3203, 53.6351
5.46399, 13, -30.8542, -5.22629, 26.2102, -158.512, -91.2921, 53.605
5.47095, 13, -30.8294, -5.27895, 26.2552, -158.485, -91.2636, 53.5742
5.47992, 14, -30.8048, -5.33198, 26.3004, -158.459, -91.2345, 53.5429
5.48703, 14, -30.7803, -5.3852, 26.3459, -158.433, -91.2044, 53.5115
5.49602, 14, -30.7558, -5.43879, 26.3916, -158.406, -91.1745, 53.4803
5.50568, 14, -30.7313, -5.49273, 26.4376, -158.379, -91.1446, 53.449
5.512, 14, -30.7071, -5.5471, 26.4838, -158.351, -91.1147, 53.417
5.52094, 14, -30.6829, -5.60187, 26.5302, -158.324, -91.0838, 53.384
5.52793, 14, -30.659, -5.65695, 26.577, -158.296, -91.052, 53.3505
5.53607, 14, -30.6352, -5.71255, 26.6239, -158.268, -91.0204, 53.3169
5.54398, 14, -30.6115, -5.76848, 26.6712, -158.24, -90.9888, 53.2835
5.55203, 14, -30.5879, -5.8248, 26.7186, -158.211, -90.9569, 53.2496
5.55995, 14, -30.5644, -5.88145, 26.7664, -158.182, -90.9238, 53.2153
5.56696, 15, -30.5411, -5.93845, 26.8143, -158.154, -90.8906, 53.1801
5.57594, 15, -30.5179, -5.99567, 26.8625, -158.125, -90.8577, 53.1448
5.58401, 15, -30.495, -6.05319, 26.911, -158.096, -90.8248, 53.1096
5.59199, 15, -30.4721, -6.11109, 26.9598, -158.065, -90.7909, 53.074
5.59997, 15, -30.4493, -6.16919, 27.0088, -158.035, -90.7565, 53.0379
5.60817, 15, -30.4265, -6.22761, 27.058, -158.005, -90.7222, 53.0009
5.61519, 15, -30.404, -6.28644, 27.1075, -157.975, -90.6878, 52.9636
5.62395, 15, -30.3816, -6.34563, 27.1571, -157.944, -90.6527, 52.9265
5.63206, 15, -30.3592, -6.40526, 27.207, -157.913, -90.6167, 52.8892
5.63997, 15, -30.3371, -6.46534, 27.2572, -157.882, -90.5809, 52.8511
5.64793, 16, -30.3151, -6.52589, 27.3077, -157.851, -90.5454, 52.8122
5.65758, 16, -30.2931, -6.58676, 27.3583, -157.82, -90.5091, 52.7731
5.66394, 16, -30.2711, -6.64806, 27.4093, -157.787, -90.4719, 52.7343
5.67206, 16, -30.2494, -6.70968, 27.4605, -157.755, -90.4351, 52.6951
5.67993, 16, -30.2279, -6.77159, 27.5119, -157.724, -90.3982, 52.6553
5.68793, 16, -30.2063, -6.83383, 27.5636, -157.692, -90.3604, 52.6148
5.69617, 16, -30.1849, -6.89628, 27.6157, -157.659, -90.3218, 52.5744
5.70338, 16, -30.1638, -6.95901, 27.6679, -157.626, -90.2836, 52.534
5.71233, 16, -30.1427, -7.02207, 27.7204, -157.593, -90.2454, 52.4932
5.71952, 16, -30.1215, -7.08549, 27.7732, -157.561, -90.2062, 52.4514
5.728, 17, -30.1006, -7.14928, 27.826, -157.527, -90.1665, 52.4096
5.73553, 17, -30.08, -7.21353, 27.8792, -157.494, -90.1271, 52.3681
5.74411, 17, -30.0594, -7.27816, 27.9326, -157.46, -90.0874, 52.3262
5.75092, 17, -30.0491, -7.31065, 27.9594, -157.443, -90.0672, 52.305
5.75999, 17, -30.0184, -7.40876, 28.0401, -157.392, -90.0059, 52.24
5.76806, 17, -29.9983, -7.47458, 28.0944, -157.357, -89.9655, 52.1968
5.77495, 17, -29.9882, -7.50763, 28.1216, -157.34, -89.9451, 52.1752
5.78313, 17, -29.968, -7.57401, 28.176, -157.305, -89.9033, 52.1317
5.7909, 17, -29.948, -7.64061, 28.2309, -157.271, -89.8617, 52.0873
5.80107, 17, -29.9184, -7.74106, 28.3136, -157.218, -89.7991, 52.0202
5.80696, 17, -29.9085, -7.77465, 28.3413, -157.2, -89.7777, 51.998
5.81634, 18, -29.8791, -7.87594, 28.4248, -157.146, -89.7133, 51.9305
5.82292, 18, -29.8694, -7.90989, 28.4527, -157.128, -89.6922, 51.9076
5.83104, 18, -29.85, -7.97803, 28.5086, -157.092, -89.6494, 51.8614
5.84054, 18, -29.8212, -8.08096, 28.5931, -157.037, -89.5836, 51.7926
5.84932, 18, -29.802, -8.15012, 28.6498, -157, -89.5403, 51.7462
5.85515, 18, -29.7925, -8.1848, 28.6782, -156.982, -89.5184, 51.7225
5.86373, 18, -29.7736, -8.25451, 28.7352, -156.945, -89.4736, 51.6751
5.87092, 18, -29.7548, -8.32457, 28.7925, -156.907, -89.4285, 51.628
5.87992, 18, -29.736, -8.39489, 28.85, -156.87, -89.3842, 51.5807
5.88873, 18, -29.7175, -8.46552, 28.9078, -156.833, -89.3389, 51.5083
5.89588, 19, -29.699, -8.53655, 28.9659, -156.795, -89.2928, 51.4841
5.90497, 19, -29.6714, -8.64359, 29.0533, -156.737, -89.2245, 51.4119
5.91199, 19, -29.6623, -8.67946, 29.0826, -156.719, -89.2012, 51.3877
5.91992, 19, -29.6441, -8.7514, 29.1413, -156.681, -89.1542, 51.3386
5.92927, 19, -29.6171, -8.85998, 29.2297, -156.622, -89.0844, 51.2651
5.93501, 19, -29.6082, -8.89636, 29.2593, -156.603, -89.061, 51.2407
5.94393, 19, -29.5904, -8.96932, 29.3187, -156.564, -89.0133, 51.1912
5.95377, 19, -29.564, -9.07944, 29.4083, -156.505, -88.9425, 51.1155
5.96188, 19, -29.5553, -9.11632, 29.4384, -156.485, -88.8944, 51.0652
5.96693, 19, -29.5379, -9.19031, 29.4985, -156.446, -88.8701, 51.04
5.97941, 20, -29.5118, -9.30185, 29.5893, -156.386, -88.7982, 50.9629
5.98292, 20, -29.5031, -9.33922, 29.6196, -156.366, -88.774, 50.9371
5.99199, 20, -29.4859, -9.41426, 29.6806, -156.325, -88.7248, 50.8858
6, 20, -29.4689, -9.48956, 29.7416, -156.285, -88.6761, 50.8342
6.00964, 20, -29.4519, -9.56517, 29.8029, -156.244, -88.627, 50.7549
6.01592, 20, -29.435, -9.64116, 29.8644, -156.202, -88.5769, 50.7286
6.02399, 20, -29.4182, -9.71742, 29.9262, -156.161, -88.5274, 50.6762
6.03215, 20, -29.4017, -9.7941, 29.9883, -156.12, -88.4777, 50.6228
6.039, 20, -29.3853, -9.87105, 30.0506, -156.078, -88.427, 50.5689
6.04798, 20, -29.3691, -9.9483, 30.1132, -156.035, -88.3766, 50.5155
6.05598, 20, -29.3527, -10.0259, 30.1761, -155.994, -88.3255, 50.4618
6.06389, 21, -29.3365, -10.1038, 30.2391, -155.952, -88.2739, 50.4073
6.07199, 21, -29.3204, -10.1821, 30.3024, -155.909, -88.2229, 50.353
6.07992, 21, -29.3044, -10.2605, 30.3658, -155.866, -88.1711, 50.2987
6.08791, 21, -29.2885, -10.3393, 30.4295, -155.824, -88.1191, 50.2438
6.09598, 21, -29.2726, -10.4185, 30.4933, -155.78, -88.0674, 50.1886
6.10409, 21, -29.257, -10.4979, 30.5574, -155.737, -88.0146, 50.134
6.11218, 21, -29.2415, -10.5776, 30.6218, -155.694, -87.9619, 50.079
6.11903, 21, -29.2261, -10.6576, 30.6863, -155.65, -87.9095, 50.0231
6.12693, 21, -29.2108, -10.7379, 30.7512, -155.606, -87.8558, 49.9677
6.13606, 21, -29.1953, -10.8185, 30.8163, -155.562, -87.8027, 49.912
6.14296, 21, -29.18, -10.8994, 30.8817, -155.518, -87.7493, 49.8555
6.15215, 22, -29.1648, -10.9807, 30.9472, -155.472, -87.6948, 49.7993
6.15955, 22, -29.1498, -11.0621, 31.0129, -155.428, -87.6413, 49.7433
6.16793, 22, -29.1349, -11.144, 31.0788, -155.383, -87.5867, 49.6862
6.17673, 22, -29.12, -11.2261, 31.1448, -155.337, -87.5317, 49.6289
6.18413, 22, -29.1054, -11.3086, 31.211, -155.291, -87.4773, 49.5722
6.19135, 22, -29.0909, -11.3913, 31.2776, -155.246, -87.4215, 49.515
6.20104, 22, -29.0765, -11.4743, 31.3444, -155.2, -87.3664, 49.4568
6.20982, 22, -29.0622, -11.5577, 31.4115, -155.153, -87.3111, 49.3994
6.216, 22, -29.0478, -11.6414, 31.4787, -155.107, -87.2549, 49.3415
6.22651, 22, -29.0336, -11.7253, 31.5462, -155.06, -87.1994, 49.2827
6.23158, 23, -29.0195, -11.8096, 31.6138, -155.014, -87.1428, 49.2244
6.24002, 23, -29.0054, -11.894, 31.6816, -154.967, -87.0863, 49.1661
6.24797, 23, -28.9915, -11.9787, 31.7495, -154.92, -87.0303, 49.1068
6.25605, 23, -28.9776, -12.0637, 31.8176, -154.872, -86.9729, 49.0482
6.26291, 23, -28.9707, -12.1063, 31.8518, -154.849, -86.9445, 49.019
6.27205, 23, -28.95, -12.2345, 31.9546, -154.778, -86.8588, 48.9302
6.27905, 23, -28.9432, -12.2773, 31.989, -154.753, -86.8297, 48.9003
6.28689, 23, -28.9297, -12.3633, 32.058, -154.706, -86.7725, 48.8413
6.29615, 23, -28.9095, -12.4928, 32.1618, -154.633, -86.685, 48.752
6.3029, 23, -28.9028, -12.5361, 32.1966, -154.609, -86.6559, 48.7221
6.31268, 24, -28.8827, -12.6663, 32.3011, -154.536, -86.5683, 48.6332
6.32028, 24, -28.8694, -12.7535, 32.3709, -154.487, -86.5096, 48.5731
6.32693, 24, -28.8629, -12.7971, 32.4059, -154.462, -86.4806, 48.5428
6.33655, 24, -28.8433, -12.9284, 32.511, -154.388, -86.3916, 48.4531
6.34448, 24, -28.8304, -13.0163, 32.5814, -154.338, -86.3328, 48.3926
6.35298, 24, -28.8176, -13.1046, 32.652, -154.288, -86.2729, 48.3318
6.35972, 24, -28.8112, -13.1488, 32.6874, -154.263, -86.2429, 48.3017
6.36691, 24, -28.7984, -13.2374, 32.7584, -154.213, -86.1838, 48.2414
6.37678, 24, -28.7859, -13.3263, 32.8296, -154.162, -86.1237, 48.1802
6.3839, 24, -28.7734, -13.4154, 32.9009, -154.113, -86.0638, 48.1194
6.39091, 24, -28.7608, -13.5047, 32.9724, -154.062, -86.0037, 48.0589
6.40126, 25, -28.742, -13.6391, 33.0798, -153.986, -85.9129, 47.967
6.407, 25, -28.7357, -13.684, 33.1157, -153.961, -85.883, 47.9367
6.41596, 25, -28.7231, -13.7739, 33.1876, -153.909, -85.8218, 47.8761
6.42386, 25, -28.7107, -13.8643, 33.2598, -153.857, -85.7613, 47.8147
6.43202, 25, -28.6985, -13.9547, 33.3321, -153.807, -85.7, 47.7538
6.43897, 25, -28.6864, -14.0454, 33.4046, -153.754, -85.6385, 47.693
6.44791, 25, -28.6744, -14.1363, 33.4773, -153.702, -85.5776, 47.6317
6.45832, 25, -28.6566, -14.2731, 33.5867, -153.624, -85.485, 47.5404
6.46289, 25, -28.6507, -14.3188, 33.6233, -153.597, -85.4545, 47.51
6.47198, 25, -28.6389, -14.4104, 33.6964, -153.545, -85.3924, 47.4483
6.4792, 26, -28.6273, -14.5022, 33.7696, -153.492, -85.3306, 47.3871
6.48691, 26, -28.6157, -14.5943, 33.8429, -153.438, -85.2689, 47.3263
6.49591, 26, -28.604, -14.6865, 33.9164, -153.386, -85.2064, 47.2647
6.50392, 26, -28.5925, -14.779, 33.9902, -153.332, -85.1446, 47.2034
6.51203, 26, -28.5809, -14.8716, 34.0641, -153.279, -85.0816, 47.1426
6.52096, 26, -28.5692, -14.9643, 34.1383, -153.226, -85.0194, 47.0811
6.52806, 26, -28.5576, -15.0572, 34.2126, -153.171, -84.9564, 47.0198
6.53675, 26, -28.5461, -15.1503, 34.287, -153.118, -84.8936, 46.9593
6.5429, 26, -28.5346, -15.2435, 34.3615, -153.064, -84.8305, 46.898
6.552, 26, -28.5231, -15.337, 34.4361, -153.009, -84.7671, 46.8372
6.55997, 26, -28.5119, -15.4307, 34.5108, -152.955, -84.7043, 46.7773
6.5679, 27, -28.5006, -15.5245, 34.5857, -152.9, -84.6405, 46.7163
6.57619, 27, -28.4893, -15.6185, 34.6607, -152.845, -84.5775, 46.6555
6.58302, 27, -28.4782, -15.7129, 34.7359, -152.791, -84.5135, 46.5953
6.59196, 27, -28.4672, -15.8073, 34.8112, -152.735, -84.4501, 46.5345
6.60091, 27, -28.4561, -15.9019, 34.8867, -152.68, -84.3864, 46.4737
6.61229, 27, -28.4396, -16.0443, 35.0001, -152.596, -84.2908, 46.3835
6.61509, 27, -28.4341, -16.0918, 35.038, -152.568, -84.2588, 46.3529
6.62403, 27, -28.4231, -16.187, 35.1137, -152.513, -84.1943, 46.2921
6.63198, 27, -28.412, -16.2822, 35.1895, -152.456, -84.1308, 46.2321
6.6399, 27, -28.4009, -16.3776, 35.2654, -152.4, -84.0659, 46.1716
6.65098, 28, -28.3846, -16.521, 35.3796, -152.315, -83.9698, 46.0813
6.65497, 28, -28.3791, -16.5688, 35.4178, -152.287, -83.9372, 46.0515
6.6631, 28, -28.3681, -16.6647, 35.4943, -152.232, -83.8728, 45.9916
6.67119, 28, -28.3573, -16.7607, 35.5709, -152.174, -83.8085, 45.9316
6.67917, 28, -28.3465, -16.8568, 35.6475, -152.117, -83.7437, 45.8726
6.68734, 28, -28.3356, -16.9531, 35.7241, -152.061, -83.6793, 45.8135
6.69611, 28, -28.3248, -17.0494, 35.8007, -152.002, -83.614, 45.7541
6.70379, 28, -28.3142, -17.1458, 35.8775, -151.946, -83.5498, 45.6958
6.71211, 28, -28.3036, -17.2424, 35.9544, -151.887, -83.4845, 45.6375
6.72031, 28, -28.2928, -17.3391, 36.0315, -151.829, -83.4199, 45.5787
6.72749, 28, -28.2822, -17.4359, 36.1086, -151.772, -83.3546, 45.521
6.73601, 29, -28.2716, -17.5329, 36.1859, -151.713, -83.2895, 45.4635
6.74428, 29, -28.2608, -17.6301, 36.2632, -151.655, -83.2244, 45.4056
6.75154, 29, -28.2554, -17.6787, 36.3019, -151.596, -83.1588, 45.3485
6.7599, 29, -28.2394, -17.8246, 36.418, -151.538, -83.0936, 45.292
6.76866, 29, -28.2288, -17.9219, 36.4954, -151.48, -83.0278, 45.235
6.77627, 29, -28.2181, -18.0193, 36.5728, -151.421, -82.9628, 45.1783
6.78491, 29, -28.2075, -18.1169, 36.6504, -151.363, -82.8968, 45.1225
6.79213, 29, -28.1969, -18.2145, 36.7282, -151.303, -82.8317, 45.0665
6.79889, 29, -28.1916, -18.2634, 36.7671, -151.274, -82.7988, 45.0384
6.8083, 29, -28.1756, -18.4102, 36.884, -151.185, -82.7006, 44.9553
6.81486, 30, -28.1703, -18.4591, 36.923, -151.155, -82.668, 44.9279
6.82507, 30, -28.1545, -18.6059, 37.0398, -151.066, -82.5693, 44.845
6.83248, 30, -28.144, -18.7039, 37.1176, -151.005, -82.5037, 44.7905
6.8405, 30, -28.1334, -18.8018, 37.1955, -150.946, -82.4376, 44.7368
6.84843, 30, -28.1228, -18.9, 37.2735, -150.885, -82.3724, 44.6829
6.85489, 30, -28.1175, -18.9491, 37.3125, -150.855, -82.3391, 44.6559
6.86451, 30, -28.1014, -19.0967, 37.4297, -150.765, -82.2406, 44.5768
6.87253, 30, -28.0907, -19.1952, 37.508, -150.704, -82.1741, 44.5246
6.88148, 30, -28.0853, -19.2935, 37.5862, -150.645, -82.1086, 44.4721
6.88788, 30, -28.0747, -19.3427, 37.6253, -150.614, -82.0757, 44.4461
6.89589, 30, -28.064, -19.4411, 37.7034, -150.553, -82.0095, 44.395
6.90385, 31, -28.0532, -19.5395, 37.7816, -150.493, -81.944, 44.3442
6.91196, 31, -28.0424, -19.6378, 37.8597, -150.432, -81.8777, 44.2933
6.91994, 31, -28.0316, -19.7363, 37.938, -150.371, -81.8124, 44.2432
6.92789, 31, -28.0206, -19.8348, 38.0163, -150.31, -81.7464, 44.194
6.9359, 31, -28.0097, -19.9332, 38.0948, -150.248, -81.6808, 44.1448
6.94403, 31, -27.9989, -20.0317, 38.1733, -150.187, -81.6148, 44.0956
6.95104, 31, -27.988, -20.1302, 38.2517, -150.125, -81.549, 44.0472
6.95989, 31, -27.977, -20.2287, 38.3301, -150.064, -81.4833, 43.9996
6.96795, 31, -27.966, -20.3273, 38.4083, -150.002, -81.4172, 43.9518
6.97489, 31, -27.9549, -20.4259, 38.4865, -149.94, -81.3516, 43.9043
6.98389, 32, -27.9437, -20.5247, 38.5647, -149.878, -81.2854, 43.8581
6.99089, 32, -27.9325, -20.6234, 38.643, -149.816, -81.2202, 43.8124
6.99989, 32, -27.9214, -20.7221, 38.7213, -149.755, -81.1541, 43.7669
7.0079, 32, -27.9101, -20.8207, 38.7997, -149.692, -81.0889, 43.7216
7.01595, 32, -27.8988, -20.9193, 38.878, -149.631, -81.0228, 43.6774
7.02576, 32, -27.8874, -21.0179, 38.9563, -149.568, -80.9575, 43.6125
7.03187, 32, -27.876, -21.1164, 39.0345, -149.506, -80.8919, 43.591
7.03995, 32, -27.8645, -21.2149, 39.1126, -149.443, -80.8264, 43.5481
7.04788, 32, -27.8529, -21.3134, 39.1906, -149.381, -80.7612, 43.5062
7.0559, 32, -27.8415, -21.4118, 39.2687, -149.318, -80.6954, 43.4654
7.06417, 33, -27.8298, -21.5102, 39.3468, -149.255, -80.6306, 43.4251
7.07295, 33, -27.8181, -21.6085, 39.4249, -149.193, -80.5647, 43.385
7.07989, 33, -27.8065, -21.7068, 39.503, -149.129, -80.4999, 43.3454
7.08795, 33, -27.7946, -21.8052, 39.581, -149.067, -80.4341, 43.3071
7.09671, 33, -27.7825, -21.9034, 39.6589, -149.003, -80.3692, 43.2695
7.10389, 33, -27.7705, -22.0018, 39.7366, -148.941, -80.304, 43.2325
7.11206, 33, -27.7584, -22.1, 39.8143, -148.878, -80.2389, 43.1958
7.12093, 33, -27.7463, -22.1982, 39.8919, -148.815, -80.1742, 43.1596
7.12865, 33, -27.7341, -22.2962, 39.9696, -148.752, -80.1088, 43.1246
7.13598, 33, -27.7219, -22.3942, 40.0472, -148.688, -80.0446, 43.0906
7.14699, 33, -27.7034, -22.541, 40.1636, -148.594, -79.9472, 43.0409
7.15104, 34, -27.6971, -22.5899, 40.2024, -148.561, -79.9152, 43.0246
7.15955, 34, -27.6848, -22.6876, 40.2798, -148.498, -79.8499, 42.992
7.16795, 34, -27.6722, -22.7854, 40.3571, -148.434, -79.7854, 42.9603
7.1759, 34, -27.6596, -22.8829, 40.4343, -148.371, -79.7206, 42.9299
7.18401, 34, -27.6469, -22.9803, 40.5113, -148.307, -79.6558, 42.9006
7.19198, 34, -27.6339, -23.0776, 40.5882, -148.243, -79.5912, 42.8721
7.20006, 34, -27.6209, -23.1749, 40.6651, -148.18, -79.5262, 42.8441
7.20736, 34, -27.6078, -23.272, 40.742, -148.116, -79.4622, 42.8166
7.21596, 34, -27.5945, -23.3692, 40.8188, -148.053, -79.3971, 42.7898
7.22398, 34, -27.5812, -23.4663, 40.8955, -147.988, -79.333, 42.7641
7.23201, 35, -27.5678, -23.5634, 40.9721, -147.925, -79.2679, 42.7398
7.24005, 35, -27.5543, -23.6602, 41.0484, -147.861, -79.2041, 42.7164
7.24798, 35, -27.5407, -23.7568, 41.1245, -147.797, -79.1396, 42.6941
7.25594, 35, -27.5271, -23.8533, 41.2006, -147.734, -79.0756, 42.6727
7.26395, 35, -27.5134, -23.9496, 41.2766, -147.669, -79.0116, 42.6519
7.27227, 35, -27.4995, -24.0457, 41.3526, -147.606, -78.9471, 42.6317
7.28112, 35, -27.4855, -24.1416, 41.4285, -147.541, -78.8836, 42.6123
7.28689, 35, -27.4784, -24.1896, 41.4664, -147.509, -78.8513, 42.603
7.29617, 35, -27.4569, -24.3333, 41.5799, -147.413, -78.7556, 42.577
7.30293, 35, -27.4497, -24.3811, 41.6176, -147.381, -78.7235, 42.5689
7.31087, 35, -27.4352, -24.4766, 41.6929, -147.317, -78.6594, 42.5535
7.32117, 36, -27.4132, -24.6196, 41.8055, -147.221, -78.5642, 42.5327
7.32696, 36, -27.4057, -24.6672, 41.8429, -147.189, -78.5322, 42.5263
7.33487, 36, -27.3906, -24.7624, 41.9176, -147.125, -78.4692, 42.5143
7.34455, 36, -27.368, -24.905, 42.0296, -147.029, -78.3739, 42.4981
7.35324, 36, -27.3527, -24.9999, 42.1041, -146.965, -78.3113, 42.4887
7.35887, 36, -27.3451, -25.0473, 42.1414, -146.933, -78.2797, 42.4843
7.36849, 36, -27.3219, -25.189, 42.2528, -146.837, -78.1854, 42.4726
7.37799, 36, -27.3061, -25.2832, 42.3268, -146.773, -78.1225, 42.4661
7.38492, 36, -27.2902, -25.3772, 42.4005, -146.709, -78.0597, 42.4606
7.39193, 36, -27.2822, -25.4241, 42.4373, -146.676, -78.0287, 42.4582
7.4007, 37, -27.2661, -25.5178, 42.5107, -146.613, -77.9658, 42.453
7.40788, 37, -27.2499, -25.6112, 42.5841, -146.549, -77.9035, 42.4518
7.41592, 37, -27.2333, -25.7046, 42.6573, -146.485, -77.841, 42.4503
7.42387, 37, -27.2168, -25.7978, 42.7303, -146.421, -77.7784, 42.4495
7.43192, 37, -27.2001, -25.8907, 42.8032, -146.357, -77.7167, 42.4492
7.43987, 37, -27.1833, -25.9834, 42.8758, -146.294, -77.6542, 42.4493
7.44807, 37, -27.1663, -26.0759, 42.9482, -146.23, -77.5927, 42.4497
7.45571, 37, -27.1489, -26.1682, 43.0204, -146.167, -77.5304, 42.4513
7.46288, 37, -27.1314, -26.2602, 43.0923, -146.103, -77.4688, 42.4552
7.47192, 37, -27.1138, -26.352, 43.1639, -146.04, -77.4073, 42.4608
7.47994, 37, -27.096, -26.4437, 43.2354, -145.976, -77.3455, 42.4679
7.48788, 38, -27.0779, -26.5351, 43.3067, -145.913, -77.2845, 42.4767
7.49588, 38, -27.0598, -26.6262, 43.3779, -145.85, -77.2225, 42.487
7.50393, 38, -27.0415, -26.7171, 43.4489, -145.786, -77.1618, 42.4984
7.51347, 38, -27.0231, -26.8078, 43.5196, -145.723, -77.1003, 42.5185
7.52, 38, -27.0043, -26.8981, 43.59, -145.66, -77.039, 42.5259
7.53144, 38, -26.9756, -27.0332, 43.6951, -145.566, -76.9474, 42.55
7.53588, 38, -26.966, -27.0781, 43.7301, -145.534, -76.9167, 42.5589
7.54386, 38, -26.9466, -27.1677, 43.7997, -145.472, -76.8567, 42.5778
7.55201, 38, -26.9269, -27.257, 43.869, -145.409, -76.7956, 42.5983
7.55987, 38, -26.907, -27.346, 43.9382, -145.347, -76.7352, 42.6206
7.56992, 39, -26.8871, -27.4348, 44.0071, -145.285, -76.6747, 42.6446
7.57588, 39, -26.867, -27.5233, 44.0758, -145.222, -76.6139, 42.6697
7.58387, 39, -26.8465, -27.6116, 44.1441, -145.161, -76.5542, 42.6961
7.59192, 39, -26.8258, -27.6995, 44.2122, -145.098, -76.4935, 42.7238
7.59899, 39, -26.8049, -27.7872, 44.2802, -145.036, -76.4338, 42.7529
7.60788, 39, -26.7838, -27.8746, 44.3477, -144.974, -76.3734, 42.7838
7.61591, 39, -26.7624, -27.9618, 44.4149, -144.913, -76.3132, 42.8166
7.62467, 39, -26.7408, -28.0485, 44.4818, -144.851, -76.2536, 42.8506
7.63192, 39, -26.7191, -28.135, 44.5483, -144.789, -76.1931, 42.8857
7.63987, 39, -26.6971, -28.2213, 44.6146, -144.729, -76.1336, 42.9223
7.64697, 39, -26.6746, -28.307, 44.6807, -144.667, -76.0734, 42.9608
7.65493, 40, -26.652, -28.3926, 44.7466, -144.607, -76.0139, 43.0013
7.66346, 40, -26.6293, -28.4778, 44.8121, -144.546, -75.9545, 43.0429
7.67111, 40, -26.6061, -28.5625, 44.8772, -144.486, -75.8948, 43.0856
7.67913, 40, -26.5827, -28.6469, 44.9421, -144.426, -75.8358, 43.13
7.6879, 40, -26.5592, -28.731, 45.0065, -144.366, -75.7758, 43.1764
7.69632, 40, -26.5352, -28.8147, 45.0706, -144.306, -75.7171, 43.2242
7.70391, 40, -26.5108, -28.898, 45.1344, -144.246, -75.6581, 43.2731
7.71207, 40, -26.4862, -28.9809, 45.1977, -144.187, -75.5989, 43.3238
7.72034, 40, -26.4615, -29.0636, 45.2608, -144.127, -75.5406, 43.3769
7.72745, 40, -26.4364, -29.1459, 45.3234, -144.068, -75.4812, 43.4307
7.73597, 41, -26.411, -29.2278, 45.3857, -144.01, -75.4229, 43.4859
7.74416, 41, -26.3853, -29.3095, 45.4478, -143.95, -75.3643, 43.5434
7.75153, 41, -26.3723, -29.3907, 45.5094, -143.893, -75.3056, 43.6023
7.76004, 41, -26.3328, -29.4715, 45.5708, -143.834, -75.2477, 43.6621
7.76867, 41, -26.3063, -29.552, 45.6317, -143.777, -75.1889, 43.7245
7.7759, 41, -26.2795, -29.6319, 45.6921, -143.72, -75.1312, 43.7884
7.78401, 41, -26.2523, -29.7115, 45.7522, -143.662, -75.0733, 43.8535
7.79103, 41, -26.2386, -29.7511, 45.782, -143.634, -75.0441, 43.8871
7.80038, 41, -26.2108, -29.8693, 45.8709, -143.549, -74.9579, 43.9905
7.80687, 41, -26.1827, -29.9085, 45.9005, -143.521, -74.9288, 44.0255
7.81725, 42, -26.1401, -30.0254, 45.9883, -143.438, -74.8425, 44.1347
7.82292, 42, -26.1257, -30.0641, 46.0174, -143.409, -74.814, 44.1715
7.83265, 42, -26.082, -30.1798, 46.1041, -143.327, -74.7275, 44.285
7.84034, 42, -26.0523, -30.2564, 46.1613, -143.271, -74.6708, 44.3629
7.84694, 42, -26.0374, -30.2944, 46.1897, -143.243, -74.642, 44.4022
7.85648, 42, -25.9921, -30.408, 46.2744, -143.163, -74.5561, 44.5242
7.86621, 42, -25.9616, -30.4831, 46.3302, -143.108, -74.4992, 44.6069
7.87278, 42, -25.9306, -30.5578, 46.3855, -143.055, -74.4419, 44.6924
7.88104, 42, -25.8991, -30.6318, 46.4404, -143.002, -74.3855, 44.7786
7.88785, 42, -25.8832, -30.6687, 46.4676, -142.975, -74.357, 44.823
7.89587, 42, -25.8512, -30.742, 46.5217, -142.923, -74.2998, 44.913
7.90388, 43, -25.8187, -30.8148, 46.5755, -142.872, -74.2438, 45.0045
7.91191, 43, -25.7859, -30.8872, 46.6287, -142.82, -74.187, 45.0985
7.91887, 43, -25.7528, -30.9591, 46.6813, -142.769, -74.1307, 45.194
7.92785, 43, -25.7192, -31.0304, 46.7336, -142.719, -74.0748, 45.2916
7.93587, 43, -25.6853, -31.1014, 46.7853, -142.669, -74.018, 45.3906
7.94302, 43, -25.651, -31.1717, 46.8364, -142.62, -73.9625, 45.4916
7.95192, 43, -25.6162, -31.2415, 46.8871, -142.571, -73.9066, 45.5947
7.95992, 43, -25.5808, -31.3107, 46.9372, -142.521, -73.8505, 45.6992
7.96785, 43, -25.5449, -31.3792, 46.9868, -142.474, -73.7954, 45.8059
7.97586, 43, -25.5088, -31.447, 47.0358, -142.426, -73.7393, 45.9141
7.98389, 44, -25.4723, -31.5143, 47.0842, -142.378, -73.684, 46.0244
7.99257, 44, -25.4353, -31.5809, 47.1321, -142.332, -73.629, 46.1366
7.99885, 44, -25.3977, -31.6471, 47.1793, -142.287, -73.5732, 46.2506
8.00785, 44, -25.3599, -31.7126, 47.2259, -142.241, -73.5186, 46.3667
8.01668, 44, -25.3215, -31.7776, 47.272, -142.196, -73.4632, 46.4848
8.02287, 44, -25.2827, -31.842, 47.3175, -142.153, -73.4081, 46.605
8.03194, 44, -25.2432, -31.9058, 47.3623, -142.109, -73.3539, 46.7274
8.04092, 44, -25.2034, -31.9689, 47.4066, -142.066, -73.299, 46.8514
8.047, 44, -25.1632, -32.0313, 47.4502, -142.025, -73.2448, 46.9776
8.05585, 44, -25.1224, -32.093, 47.4931, -141.983, -73.1907, 47.106
8.06727, 45, -25.0603, -32.1841, 47.5565, -141.922, -73.1092, 47.3025
8.07085, 45, -25.0394, -32.2141, 47.5773, -141.903, -73.0827, 47.3691
8.07988, 45, -24.9972, -32.2736, 47.6183, -141.864, -73.0288, 47.5038
8.08792, 45, -24.9543, -32.3323, 47.6586, -141.825, -72.975, 47.6404
8.09591, 45, -24.9109, -32.3904, 47.6982, -141.787, -72.9222, 47.7795
8.10385, 45, -24.867, -32.4479, 47.7372, -141.75, -72.8684, 47.9203
8.11196, 45, -24.8227, -32.5046, 47.7754, -141.714, -72.8154, 48.0629
8.12014, 45, -24.7777, -32.5607, 47.8128, -141.678, -72.763, 48.2076
8.12789, 45, -24.7323, -32.616, 47.8496, -141.643, -72.7097, 48.3544
8.13585, 45, -24.6864, -32.6705, 47.8857, -141.609, -72.6576, 48.5035
8.14385, 45, -24.6399, -32.724, 47.9209, -141.576, -72.6052, 48.6542
8.15196, 46, -24.5927, -32.7768, 47.9555, -141.543, -72.5524, 48.8069
8.15986, 46, -24.545, -32.8286, 47.9894, -141.511, -72.501, 48.9618
8.16785, 46, -24.4966, -32.8794, 48.0223, -141.481, -72.449, 49.1185
8.17592, 46, -24.4478, -32.9294, 48.0546, -141.452, -72.3971, 49.2774
8.18385, 46, -24.3984, -32.9785, 48.0862, -141.423, -72.3463, 49.4388
8.19235, 46, -24.3484, -33.0268, 48.1169, -141.395, -72.2945, 49.6023
8.20085, 46, -24.2979, -33.0742, 48.1467, -141.368, -72.2435, 49.7677
8.20789, 46, -24.2469, -33.1209, 48.1757, -141.342, -72.1934, 49.935
8.21605, 46, -24.1952, -33.1667, 48.2039, -141.317, -72.1425, 50.1041
8.22431, 46, -24.1428, -33.2116, 48.2311, -141.293, -72.0923, 50.2752
8.23199, 46, -24.0899, -33.2555, 48.2575, -141.27, -72.0429, 50.448
8.2394, 47, -24.0364, -33.2985, 48.283, -141.248, -71.9926, 50.623
8.24821, 47, -23.9821, -33.3404, 48.3077, -141.227, -71.9432, 50.8
8.25544, 47, -23.9548, -33.3611, 48.3197, -141.207, -71.8948, 50.9792
8.26386, 47, -23.8719, -33.4211, 48.3541, -141.189, -71.8454, 51.1608
8.27266, 47, -23.8157, -33.4598, 48.376, -141.171, -71.797, 51.3438
8.28067, 47, -23.759, -33.4975, 48.3971, -141.155, -71.7491, 51.5293
8.28795, 47, -23.7016, -33.534, 48.4174, -141.14, -71.7006, 51.7169
8.29632, 47, -23.6435, -33.5696, 48.4366, -141.126, -71.6531, 51.9067
8.30499, 47, -23.5849, -33.6041, 48.4547, -141.113, -71.6064, 52.0982
8.31234, 47, -23.5255, -33.6376, 48.472, -141.101, -71.5592, 52.292
8.32023, 48, -23.4656, -33.67, 48.4881, -141.09, -71.5129, 52.4873
8.32684, 48, -23.4354, -33.6858, 48.4957, -141.084, -71.4901, 52.5859
8.33492, 48, -23.3743, -33.7164, 48.5103, -141.075, -71.4444, 52.7845
8.34443, 48, -23.2818, -33.7603, 48.5303, -141.064, -71.3759, 53.0864
8.35328, 48, -23.2191, -33.788, 48.5424, -141.058, -71.3317, 53.2898
8.35891, 48, -23.1876, -33.8014, 48.548, -141.055, -71.3096, 53.3924
8.36879, 48, -23.0921, -33.8395, 48.5633, -141.05, -71.2432, 53.7029
8.37567, 48, -23.0599, -33.8517, 48.5679, -141.049, -71.2216, 53.8076
8.38284, 48, -22.9949, -33.8751, 48.5763, -141.047, -71.1789, 54.0186
8.3931, 48, -22.8961, -33.9075, 48.5868, -141.046, -71.1144, 54.3382
8.39983, 48, -22.8629, -33.9178, 48.5898, -141.046, -71.0932, 54.4456
8.40788, 49, -22.7958, -33.9373, 48.5949, -141.047, -71.052, 54.6619
8.41586, 49, -22.7281, -33.9553, 48.5987, -141.049, -71.011, 54.8798
8.4229, 49, -22.6597, -33.9721, 48.6014, -141.054, -70.9698, 55.1
8.43189, 49, -22.5906, -33.9877, 48.6029, -141.059, -70.9297, 55.3217
8.43985, 49, -22.521, -34.0018, 48.6035, -141.066, -70.8905, 55.5456
8.45002, 49, -22.4505, -34.0143, 48.6029, -141.08, -70.8318, 55.8843
8.45486, 49, -22.3794, -34.0253, 48.6021, -141.086, -70.8124, 55.9984
8.46384, 49, -22.3076, -34.035, 48.5998, -141.098, -70.7748, 56.228
8.47189, 49, -22.2351, -34.0434, 48.5963, -141.112, -70.7382, 56.4594
8.47987, 49, -22.1618, -34.0504, 48.5915, -141.127, -70.7018, 56.6925
8.48784, 50, -22.088, -34.0557, 48.5854, -141.144, -70.6657, 56.9271
8.49493, 50, -22.0136, -34.0595, 48.578, -141.162, -70.631, 57.1636
8.5039, 50, -21.9384, -34.0618, 48.5693, -141.181, -70.5971, 57.4022
8.51184, 50, -21.8626, -34.0628, 48.5592, -141.202, -70.5635, 57.6423
8.52084, 50, -21.786, -34.0627, 48.5479, -141.224, -70.5302, 57.8844
8.52684, 50, -21.7084, -34.0611, 48.5354, -141.249, -70.4981, 58.1283
8.53588, 50, -21.6302, -34.058, 48.5214, -141.275, -70.4673, 58.3742
8.54502, 50, -21.5514, -34.0532, 48.506, -141.301, -70.4374, 58.6218
8.55192, 50, -21.4719, -34.0467, 48.4893, -141.33, -70.4078, 58.8708
8.5599, 50, -21.392, -34.0383, 48.4712, -141.359, -70.3787, 59.1211
8.56806, 51, -21.3114, -34.0282, 48.4517, -141.391, -70.351, 59.373
8.5759, 51, -21.2303, -34.0165, 48.4308, -141.425, -70.3244, 59.627
8.58383, 51, -21.1484, -34.0031, 48.4085, -141.459, -70.2988, 59.8823
8.59185, 51, -21.0656, -33.988, 48.3847, -141.495, -70.2737, 60.1392
8.59991, 51, -20.9821, -33.9707, 48.3596, -141.533, -70.2492, 60.3977
8.60786, 51, -20.8979, -33.9516, 48.3331, -141.573, -70.2256, 60.6581
8.61635, 51, -20.8129, -33.9308, 48.3053, -141.614, -70.2035, 60.9201
8.6247, 51, -20.7275, -33.908, 48.2759, -141.656, -70.1826, 61.1833
8.63184, 51, -20.6414, -33.8834, 48.2451, -141.701, -70.1629, 61.448
8.64296, 51, -20.5114, -33.8429, 48.1964, -141.769, -70.1354, 61.8482
8.64785, 51, -20.4678, -33.8285, 48.1793, -141.793, -70.1266, 61.9821
8.65583, 52, -20.38, -33.7983, 48.1442, -141.842, -70.1098, 62.2513
8.66395, 52, -20.2915, -33.7662, 48.1077, -141.891, -70.0939, 62.5219
8.67184, 52, -20.2024, -33.732, 48.0697, -141.943, -70.0793, 62.7945
8.67991, 52, -20.1126, -33.6959, 48.03, -141.996, -70.0661, 63.0684
8.68785, 52, -20.0221, -33.6577, 47.9892, -142.05, -70.0542, 63.3431
8.69598, 52, -19.9311, -33.6175, 47.9467, -142.106, -70.0437, 63.619
8.70321, 52, -19.8395, -33.5753, 47.9028, -142.164, -70.0345, 63.8964
8.71126, 52, -19.7474, -33.531, 47.8574, -142.222, -70.0267, 64.1752
8.7194, 52, -19.6549, -33.4847, 47.8104, -142.283, -70.0202, 64.4549
8.72805, 52, -19.5619, -33.4363, 47.762, -142.344, -70.0151, 64.7356
8.73592, 53, -19.4683, -33.386, 47.712, -142.408, -70.0113, 65.0182
8.74395, 53, -19.3741, -33.3336, 47.6605, -142.473, -70.0089, 65.3018
8.75194, 53, -19.2794, -33.2791, 47.6076, -142.54, -70.0076, 65.5865
8.76001, 53, -19.184, -33.2226, 47.5531, -142.607, -70.0073, 65.8719
8.76784, 53, -19.088, -33.164, 47.497, -142.677, -70.0081, 66.1589
8.77589, 53, -18.9917, -33.1032, 47.4394, -142.747, -70.0102, 66.4468
8.78467, 53, -18.8948, -33.0403, 47.3803, -142.819, -70.0139, 66.7356
8.79226, 53, -18.7976, -32.9751, 47.3196, -142.892, -70.0191, 67.0258
8.80269, 53, -18.7, -32.9077, 47.2574, -142.967, -70.0261, 67.3173
8.80677, 53, -18.6509, -32.8732, 47.2257, -143.005, -70.0303, 67.4633
8.81718, 53, -18.503, -32.7662, 47.1282, -143.12, -70.0454, 67.9021
8.82412, 54, -18.4037, -32.6921, 47.0613, -143.198, -70.0578, 68.1956
8.83082, 54, -18.3538, -32.6543, 47.0272, -143.238, -70.0647, 68.3429
8.84032, 54, -18.2039, -32.5374, 46.923, -143.359, -70.0885, 68.7857
8.84688, 54, -18.1537, -32.4974, 46.8874, -143.401, -70.0975, 68.9335
8.85721, 54, -18.0026, -32.3741, 46.7785, -143.526, -70.1272, 69.3786
8.86294, 54, -17.9521, -32.3318, 46.7414, -143.568, -70.1378, 69.5275
8.87628, 54, -17.7998, -32.2016, 46.6276, -143.697, -70.172, 69.9751
8.88034, 54, -17.7489, -32.157, 46.5889, -143.74, -70.1842, 70.274
8.88927, 54, -17.6467, -32.0662, 46.5102, -143.828, -70.2102, 70.4237
8.89585, 54, -17.5443, -31.973, 46.4301, -143.917, -70.2386, 70.7241
8.90379, 55, -17.4415, -31.8774, 46.3485, -144.007, -70.2691, 71.0249
8.91182, 55, -17.3386, -31.7796, 46.2655, -144.098, -70.3009, 71.3262
8.91894, 55, -17.2353, -31.6796, 46.1811, -144.19, -70.3344, 71.6287
8.92905, 55, -17.0798, -31.5252, 46.0514, -144.33, -70.3889, 72.0829
8.935, 55, -17.0277, -31.4725, 46.0073, -144.378, -70.4083, 72.2344
8.944, 55, -16.9234, -31.3655, 45.918, -144.473, -70.4478, 72.5376
8.95165, 55, -16.8188, -31.2561, 45.827, -144.569, -70.4888, 72.8415
8.95882, 55, -16.714, -31.1446, 45.7345, -144.666, -70.5327, 73.1456
8.96782, 55, -16.6092, -31.0309, 45.6407, -144.764, -70.5786, 73.45
8.97582, 55, -16.5042, -30.9151, 45.5455, -144.862, -70.6257, 73.7546
8.9839, 55, -16.3993, -30.7968, 45.4488, -144.962, -70.6756, 74.0599
8.99255, 56, -16.294, -30.6761, 45.3505, -145.062, -70.7274, 74.3652
8.99882, 56, -16.1886, -30.553, 45.2506, -145.163, -70.7804, 74.6703
9.00782, 56, -16.0829, -30.4275, 45.1491, -145.265, -70.8367, 74.976
9.01736, 56, -15.977, -30.2999, 45.0463, -145.368, -70.8946, 75.2818
9.02384, 56, -15.8711, -30.1701, 44.9422, -145.471, -70.9546, 75.5875
9.03282, 56, -15.7652, -30.0378, 44.8369, -145.575, -71.0171, 75.8935
9.03882, 56, -15.6593, -29.9031, 44.7301, -145.679, -71.0809, 76.2001
9.04888, 56, -15.5533, -29.7661, 44.6216, -145.784, -71.148, 76.506
9.05591, 56, -15.4472, -29.627, 44.5115, -145.889, -71.2162, 76.8119
9.0671, 56, -15.2878, -29.4146, 44.3438, -146.048, -71.3233, 77.2704
9.07082, 57, -15.2347, -29.3425, 44.2874, -146.101, -71.3597, 77.4232
9.07983, 57, -15.1284, -29.1967, 44.1735, -146.208, -71.4351, 77.7286
9.08784, 57, -15.0221, -29.0486, 44.0583, -146.315, -71.5121, 78.0337
9.09582, 57, -14.9159, -28.8983, 43.9417, -146.422, -71.5915, 78.3389
9.10387, 57, -14.8097, -28.7461, 43.8234, -146.53, -71.6727, 78.6438
9.11187, 57, -14.7037, -28.5915, 43.7039, -146.637, -71.7567, 78.9481
9.11997, 57, -14.5977, -28.4344, 43.5833, -146.745, -71.8428, 79.2519
9.12728, 57, -14.4919, -28.2752, 43.4616, -146.854, -71.9308, 79.5559
9.135, 57, -14.3862, -28.1141, 43.3386, -146.962, -72.0216, 79.8593
9.14382, 57, -14.2805, -27.9514, 43.2142, -147.071, -72.1141, 80.162
9.15205, 58, -14.1748, -27.7862, 43.0884, -147.179, -72.2085, 80.4648
9.1599, 58, -14.0693, -27.6186, 42.9615, -147.288, -72.3053, 80.7671
9.16782, 58, -13.964, -27.4493, 42.8335, -147.396, -72.4043, 81.0684
9.17588, 58, -13.8589, -27.2786, 42.7044, -147.504, -72.5053, 81.3689
9.18382, 58, -13.7541, -27.1061, 42.5741, -147.613, -72.6088, 81.669
9.19224, 58, -13.6497, -26.9308, 42.4427, -147.721, -72.7145, 81.9686
9.20324, 58, -13.4936, -26.6639, 42.2435, -147.884, -72.8769, 82.4163
9.20783, 58, -13.4416, -26.5742, 42.1765, -147.938, -72.9322, 82.5651
9.21598, 58, -13.3378, -26.3937, 42.0418, -148.045, -73.0441, 82.8624
9.22413, 58, -13.2342, -26.2106, 41.9061, -148.153, -73.1581, 83.1588
9.23156, 58, -13.1308, -26.0251, 41.7694, -148.26, -73.2745, 83.4539
9.24236, 59, -13.0278, -25.8381, 41.632, -148.366, -73.3924, 83.7482
9.24802, 59, -12.9764, -25.6502, 41.4935, -148.473, -73.5127, 84.0418
9.25591, 59, -12.8228, -25.4602, 41.354, -148.579, -73.635, 84.3343
9.26382, 59, -12.721, -25.268, 41.2135, -148.685, -73.7593, 84.6256
9.27256, 59, -12.6196, -25.0747, 41.0722, -148.79, -73.8857, 84.9165
9.27994, 59, -12.5183, -24.8801, 40.9303, -148.894, -74.0139, 85.2064
9.28686, 59, -12.4677, -24.782, 40.859, -148.946, -74.0789, 85.3508
9.29627, 59, -12.3163, -24.4845, 40.6437, -149.102, -74.2766, 85.7818
9.30395, 59, -12.2159, -24.2845, 40.499, -149.204, -74.4111, 86.0676
9.31081, 59, -12.1659, -24.1841, 40.4264, -149.255, -74.4789, 86.2101
9.32042, 60, -12.0167, -23.8797, 40.208, -149.408, -74.6853, 86.6355
9.32828, 60, -11.9179, -23.6742, 40.0615, -149.509, -74.825, 86.9173
9.33623, 60, -11.8197, -23.4675, 39.9144, -149.609, -74.9667, 87.1978
9.34283, 60, -11.7707, -23.3636, 39.8405, -149.659, -75.0382, 87.3377
9.35232, 60, -11.6242, -23.0489, 39.6184, -149.807, -75.2552, 87.7549
9.3605, 60, -11.527, -22.8378, 39.4697, -149.904, -75.4021, 88.0308
9.36882, 60, -11.4301, -22.626, 39.3202, -150.001, -75.5508, 88.3055
9.37646, 60, -11.3818, -22.5196, 39.2451, -150.049, -75.7012, 88.5792
9.38447, 60, -11.2379, -22.198, 39.0196, -150.191, -75.853, 88.851
9.39312, 60, -11.1428, -21.9825, 38.8689, -150.285, -76.0064, 89.121
9.39887, 60, -11.0955, -21.8743, 38.7934, -150.332, -76.0837, 89.2556
9.40884, 61, -10.9545, -21.5466, 38.5659, -150.471, -76.3179, 89.6571
9.41581, 61, -10.9077, -21.4369, 38.4899, -150.516, -76.3968, 89.79
9.42289, 61, -10.8146, -21.2171, 38.3381, -150.607, -76.5555, 90.054
9.43183, 61, -10.7219, -20.9959, 38.1862, -150.696, -76.7158, 90.3161
9.43986, 61, -10.6297, -20.7734, 38.0338, -150.784, -76.8775, 90.5769
9.45403, 61, -10.4471, -20.3262, 37.7279, -150.957, -77.2056, 91.0926
9.45545, 61, -10.4471, -20.3262, 37.7279, -150.957, -77.2056, 91.0926
9.46382, 61, -10.3565, -20.1007, 37.5749, -151.042, -77.3716, 91.3475
9.47185, 61, -10.2668, -19.8748, 37.4218, -151.126, -77.5389, 91.6005
9.47981, 61, -10.1777, -19.6486, 37.2684, -151.209, -77.7072, 91.8517
9.48779, 62, -10.0891, -19.4212, 37.115, -151.291, -77.8769, 92.1007
9.49494, 62, -10.0012, -19.193, 36.962, -151.371, -78.0474, 92.3472
9.50388, 62, -9.9138, -18.9645, 36.809, -151.45, -78.2191, 92.5916
9.5118, 62, -9.82712, -18.735, 36.6557, -151.528, -78.3917, 92.8342
9.5208, 62, -9.74115, -18.5048, 36.5023, -151.604, -78.5653, 93.0746
9.52788, 62, -9.65574, -18.275, 36.3493, -151.679, -78.7398, 93.3128
9.53686, 62, -9.5709, -18.0449, 36.1965, -151.754, -78.9151, 93.5486
9.5446, 62, -9.48655, -17.8142, 36.0437, -151.826, -79.0917, 93.7826
9.55187, 62, -9.4028, -17.5836, 35.8909, -151.898, -79.2689, 94.0145
9.55981, 62, -9.31977, -17.3524, 35.7386, -151.968, -79.447, 94.2438
9.56781, 62, -9.23727, -17.1202, 35.5868, -152.037, -79.6259, 94.4704
9.57587, 63, -9.15543, -16.8879, 35.4353, -152.105, -79.8056, 94.6945
9.5838, 63, -9.0743, -16.6556, 35.2838, -152.171, -79.9861, 94.9158
9.59181, 63, -8.99377, -16.4226, 35.1326, -152.236, -80.1674, 95.1352
9.59988, 63, -8.91388, -16.1898, 34.9821, -152.299, -80.3491, 95.3516
9.60784, 63, -8.83467, -15.9572, 34.8321, -152.362, -80.5317, 95.5656
9.61633, 63, -8.7562, -15.7241, 34.6822, -152.422, -80.7148, 95.7768
9.62562, 63, -8.67841, -15.4911, 34.5328, -152.482, -80.8983, 95.9855
9.63097, 63, -8.60132, -15.259, 34.384, -152.539, -81.0823, 96.1916
9.64312, 63, -8.48685, -14.9103, 34.162, -152.624, -81.3586, 96.4957
9.6478, 63, -8.44902, -14.7941, 34.0882, -152.651, -81.451, 96.5956
9.65581, 64, -8.37391, -14.5622, 33.941, -152.704, -81.636, 96.7931
9.66387, 64, -8.29937, -14.3299, 33.7944, -152.757, -81.821, 96.9875
9.6718, 64, -8.22542, -14.0974, 33.6488, -152.808, -82.0064, 97.1795
9.67988, 64, -8.15206, -13.8657, 33.5036, -152.858, -82.1918, 97.3686
9.68782, 64, -8.07933, -13.6347, 33.359, -152.906, -82.3774, 97.5548
9.69596, 64, -8.00727, -13.4038, 33.215, -152.953, -82.5635, 97.7379
9.70326, 64, -7.9359, -13.1739, 33.0718, -152.998, -82.7495, 97.918
9.71182, 64, -7.86521, -12.9445, 32.9295, -153.043, -82.9357, 98.095
9.71989, 64, -7.79518, -12.7149, 32.7879, -153.086, -83.1219, 98.2693
9.72796, 64, -7.72583, -12.486, 32.647, -153.127, -83.3082, 98.4403
9.7361, 65, -7.65728, -12.258, 32.5068, -153.167, -83.4945, 98.6083
9.74339, 65, -7.58922, -12.03, 32.3675, -153.205, -83.6808, 98.7727
9.75191, 65, -7.52187, -11.8025, 32.2293, -153.242, -83.8671, 98.934
9.75998, 65, -7.45529, -11.5761, 32.0919, -153.277, -84.0533, 99.0917
9.76781, 65, -7.38918, -11.3499, 31.9552, -153.311, -84.2393, 99.2461
9.77584, 65, -7.32364, -11.1238, 31.8194, -153.344, -84.4251, 99.3971
9.78465, 65, -7.25874, -10.8991, 31.6846, -153.376, -84.6109, 99.545
9.79209, 65, -7.19443, -10.6753, 31.5508, -153.405, -84.7963, 99.6894
9.80036, 65, -7.1308, -10.4518, 31.4178, -153.434, -84.9816, 99.8304
9.80679, 65, -7.09923, -10.3404, 31.3517, -153.448, -85.0742, 99.8996
9.81702, 65, -7.0055, -10.008, 31.1548, -153.488, -85.3512, 100.101
9.82412, 66, -6.94361, -9.78673, 31.0248, -153.512, -85.5355, 100.232
9.8308, 66, -6.91289, -9.67635, 30.9601, -153.524, -85.6275, 100.295
9.83889, 66, -6.852, -9.45695, 30.8315, -153.546, -85.8114, 100.42
9.84832, 66, -6.76175, -9.13003, 30.6406, -153.577, -86.0866, 100.599
9.85717, 66, -6.70242, -8.9129, 30.5145, -153.597, -86.2694, 100.715
9.86286, 66, -6.67304, -8.80492, 30.4518, -153.606, -86.3607, 100.771
9.87374, 66, -6.58554, -8.48284, 30.2655, -153.632, -86.6338, 100.934
9.88041, 66, -6.52792, -8.26859, 30.1426, -153.648, -86.8155, 101.037
9.88834, 66, -6.49934, -8.16173, 30.0815, -153.655, -86.9967, 101.137
9.89649, 66, -6.4425, -7.94937, 29.9602, -153.669, -87.1776, 101.233
9.90379, 66, -6.38618, -7.73822, 29.8398, -153.681, -87.2679, 101.279
9.91179, 67, -6.33041, -7.52749, 29.7206, -153.692, -87.448, 101.369
9.92095, 67, -6.24772, -7.21376, 29.5438, -153.705, -87.7176, 101.495
9.92779, 67, -6.22049, -7.10993, 29.4854, -153.709, -87.8072, 101.535
9.93584, 67, -6.16645, -6.90273, 29.3696, -153.716, -87.9859, 101.612
9.94383, 67, -6.11296, -6.69615, 29.2547, -153.722, -88.1641, 101.686
9.9518, 67, -6.06006, -6.49137, 29.1408, -153.727, -88.3417, 101.755
9.95879, 67, -6.00763, -6.28812, 29.0279, -153.73, -88.5188, 101.819
9.96796, 67, -5.9557, -6.08551, 28.9163, -153.732, -88.6954, 101.88
9.97576, 67, -5.9044, -5.88385, 28.8059, -153.734, -88.8713, 101.936
9.98279, 67, -5.85359, -5.68388, 28.6967, -153.734, -89.0465, 101.988
9.99177, 68, -5.80323, -5.48476, 28.5885, -153.734, -89.221, 102.035
9.9998, 68, -5.7534, -5.28607, 28.4811, -153.734, -89.3948, 102.078
10.0079, 68, -5.70393, -5.08872, 28.3748, -153.732, -89.5683, 102.117
10.0158, 68, -5.65481, -4.89343, 28.2697, -153.728, -89.7409, 102.15
10.0248, 68, -5.60623, -4.69931, 28.1659, -153.723, -89.9132, 102.179
10.0308, 68, -5.55822, -4.50611, 28.0633, -153.717, -90.0849, 102.204
10.04, 68, -5.51054, -4.31469, 27.9616, -153.709, -90.2562, 102.224
10.0487, 68, -5.46333, -4.12488, 27.8608, -153.701, -90.4268, 102.239
10.0559, 68, -5.41673, -3.93573, 27.7609, -153.691, -90.5969, 102.251
10.0646, 68, -5.37052, -3.7472, 27.6624, -153.68, -90.7665, 102.257
10.071, 69, -5.32477, -3.56043, 27.5652, -153.668, -90.9356, 102.26
10.0798, 69, -5.27942, -3.3753, 27.4692, -153.655, -91.1043, 102.259
10.0886, 69, -5.23454, -3.1909, 27.3742, -153.641, -91.2722, 102.253
10.0949, 69, -5.18994, -3.00724, 27.28, -153.625, -91.4396, 102.24
10.1038, 69, -5.1459, -2.82535, 27.1867, -153.608, -91.6063, 102.223
10.1128, 69, -5.10234, -2.64498, 27.0945, -153.59, -91.7723, 102.201
10.12, 69, -5.05899, -2.46538, 27.0036, -153.571, -91.9378, 102.174
10.1269, 69, -5.01598, -2.28683, 26.9139, -153.552, -92.1026, 102.141
10.1359, 69, -4.97338, -2.11015, 26.8253, -153.532, -92.2666, 102.104
10.1438, 69, -4.93113, -1.93523, 26.7377, -153.511, -92.4302, 102.06
10.1519, 69, -4.88898, -1.76105, 26.6508, -153.488, -92.5928, 102.012
10.1629, 70, -4.82645, -1.50172, 26.5224, -153.453, -92.8361, 101.93
10.1679, 70, -4.80582, -1.41623, 26.4802, -153.441, -92.9168, 101.899
10.1758, 70, -4.76477, -1.24646, 26.3967, -153.416, -93.078, 101.835
10.1838, 70, -4.72393, -1.07751, 26.3143, -153.391, -93.2384, 101.766
10.1918, 70, -4.6835, -0.909499, 26.2329, -153.365, -93.3984, 101.691
10.1998, 70, -4.64348, -0.743089, 26.1524, -153.338, -93.5578, 101.611
10.2079, 70, -4.60377, -0.57864, 26.0728, -153.31, -93.7168, 101.526
10.216, 70, -4.56423, -0.415493, 25.9942, -153.282, -93.8751, 101.435
10.2233, 70, -4.52494, -0.253219, 25.9165, -153.253, -94.0329, 101.339
10.2319, 70, -4.48602, -0.0924423, 25.8398, -153.224, -94.1901, 101.239
10.2399, 71, -4.44718, 0.0666253, 25.7642, -153.194, -94.3469, 101.132
10.2479, 71, -4.40844, 0.224109, 25.6896, -153.163, -94.503, 101.021
10.256, 71, -4.36989, 0.380537, 25.616, -153.132, -94.6585, 100.904
10.2639, 71, -4.33161, 0.535763, 25.5434, -153.1, -94.8134, 100.782
10.2718, 71, -4.29346, 0.6896, 25.4717, -153.068, -94.9678, 100.655
10.28, 71, -4.2553, 0.841657, 25.4011, -153.035, -95.1214, 100.522
10.2886, 71, -4.21737, 0.992218, 25.3313, -153.001, -95.2746, 100.385
10.2989, 71, -4.17964, 1.14161, 25.2624, -152.968, -95.4271, 100.242
10.304, 71, -4.1422, 1.28969, 25.1944, -152.934, -95.579, 100.095
10.3129, 71, -4.10473, 1.43613, 25.1274, -152.898, -95.73, 99.9419
10.32, 71, -4.06733, 1.58083, 25.0614, -152.863, -95.8805, 99.7839
10.3268, 72, -4.0487, 1.65257, 25.0287, -152.845, -95.9556, 99.7029
10.3362, 72, -3.993, 1.8659, 24.9322, -152.793, -96.1791, 99.4519
10.3429, 72, -3.97445, 1.93629, 24.9005, -152.775, -96.2535, 99.3657
10.3523, 72, -3.91871, 2.14511, 24.8067, -152.72, -96.4753, 99.0996
10.3604, 72, -3.88171, 2.2822, 24.7453, -152.684, -96.6223, 98.916
10.37, 72, -3.84464, 2.41757, 24.6847, -152.648, -96.7684, 98.7273
10.3764, 72, -3.80754, 2.55148, 24.6251, -152.611, -96.9138, 98.5336
10.3844, 72, -3.78896, 2.61794, 24.5663, -152.574, -97.0583, 98.3351
10.3934, 72, -3.75187, 2.74967, 24.5373, -152.555, -97.1303, 98.1315
10.4004, 72, -3.71491, 2.87969, 24.4799, -152.519, -97.2737, 97.9234
10.4078, 73, -3.67793, 3.00794, 24.4234, -152.482, -97.4163, 97.8175
10.4158, 73, -3.64079, 3.13441, 24.3679, -152.445, -97.558, 97.6025
10.4228, 73, -3.60355, 3.25925, 24.3133, -152.409, -97.6988, 97.3825
10.4318, 73, -3.5664, 3.38244, 24.2596, -152.373, -97.8385, 97.1576
10.4398, 73, -3.52923, 3.50384, 24.2069, -152.337, -97.9775, 96.9282
10.4468, 73, -3.4918, 3.62342, 24.1549, -152.301, -98.1155, 96.6943
10.4558, 73, -3.45415, 3.74098, 24.1039, -152.265, -98.2525, 96.4561
10.4639, 73, -3.41638, 3.85652, 24.0537, -152.23, -98.3884, 96.2131
10.4718, 73, -3.3785, 3.97017, 24.0045, -152.195, -98.5232, 95.9658
10.4798, 73, -3.3404, 4.08193, 23.9562, -152.16, -98.6566, 95.7147
10.488, 74, -3.30208, 4.19181, 23.9087, -152.125, -98.7889, 95.4594
10.4958, 74, -3.26377, 4.29968, 23.8621, -152.092, -98.9199, 95.2004
10.5028, 74, -3.22536, 4.40547, 23.8164, -152.058, -99.0495, 94.9373
10.5118, 74, -3.18675, 4.50918, 23.7718, -152.024, -99.1778, 94.6709
10.5198, 74, -3.14782, 4.61074, 23.728, -151.991, -99.3043, 94.4009
10.5278, 74, -3.10882, 4.71019, 23.6853, -151.959, -99.4298, 94.1272
10.5377, 74, -3.06961, 4.80752, 23.6436, -151.928, -99.5534, 93.8497
10.5485, 74, -3.01019, 4.94935, 23.5825, -151.88, -99.7362, 93.4274
10.5507, 74, -2.99021, 4.99549, 23.5627, -151.865, -99.7962, 93.285
10.5619, 74, -2.93024, 5.13039, 23.5046, -151.82, -99.9736, 92.8531
10.5678, 74, -2.91016, 5.17414, 23.4857, -151.806, -100.032, 92.7076
10.5758, 75, -2.86978, 5.25981, 23.4488, -151.778, -100.147, 92.4149
10.5838, 75, -2.829, 5.34299, 23.4127, -151.75, -100.26, 92.1198
10.5918, 75, -2.78809, 5.42364, 23.3776, -151.723, -100.372, 91.8219
10.5998, 75, -2.74707, 5.50175, 23.3435, -151.697, -100.481, 91.5215
10.6078, 75, -2.70566, 5.57723, 23.3104, -151.672, -100.589, 91.219
10.62, 75, -2.64282, 5.68558, 23.2627, -151.636, -100.746, 90.7606
10.6238, 75, -2.62181, 5.72031, 23.2474, -151.624, -100.797, 90.6066
10.6318, 75, -2.5796, 5.78775, 23.2175, -151.601, -100.898, 90.2974
10.6399, 75, -2.53699, 5.85255, 23.1886, -151.578, -100.996, 89.9864
10.6478, 75, -2.49414, 5.91455, 23.1608, -151.558, -101.093, 89.6738
10.6558, 76, -2.45117, 5.97367, 23.1342, -151.538, -101.186, 89.3598
10.6638, 76, -2.40793, 6.02983, 23.1088, -151.52, -101.278, 89.0449
10.6718, 76, -2.36441, 6.08306, 23.0843, -151.502, -101.366, 88.7287
10.6798, 76, -2.32072, 6.13323, 23.061, -151.485, -101.452, 88.4112
10.6878, 76, -2.27685, 6.18028, 23.0388, -151.469, -101.535, 88.0928
10.6958, 76, -2.23258, 6.22431, 23.0179, -151.453, -101.615, 87.7737
10.7039, 76, -2.18806, 6.26512, 22.9983, -151.439, -101.693, 87.4536
10.7119, 76, -2.14336, 6.30264, 22.9798, -151.425, -101.767, 87.1327
10.7192, 76, -2.09846, 6.33703, 22.9624, -151.413, -101.839, 86.8114
10.7281, 76, -2.05314, 6.36823, 22.9464, -151.402, -101.907, 86.4897
10.7356, 76, -2.00767, 6.39609, 22.9317, -151.392, -101.972, 86.1678
10.7439, 77, -1.96204, 6.4204, 22.9181, -151.383, -102.035, 85.8463
10.752, 77, -1.91615, 6.44163, 22.9058, -151.375, -102.093, 85.5254
10.7602, 77, -1.87006, 6.45949, 22.895, -151.368, -102.149, 85.2046
10.7674, 77, -1.84699, 6.46696, 22.8857, -151.362, -102.2, 84.8841
10.7764, 77, -1.77742, 6.48392, 22.8776, -151.356, -102.248, 84.5645
10.7855, 77, -1.73077, 6.49117, 22.871, -151.352, -102.293, 84.2451
10.7936, 77, -1.68407, 6.49484, 22.8658, -151.348, -102.334, 83.9261
10.7999, 77, -1.63728, 6.49503, 22.8619, -151.346, -102.371, 83.608
10.8107, 77, -1.59021, 6.49167, 22.8593, -151.344, -102.405, 83.2912
10.816, 77, -1.54309, 6.48439, 22.8582, -151.343, -102.435, 82.9751
10.8227, 78, -1.51954, 6.47934, 22.858, -151.343, -102.449, 82.8175
10.8327, 78, -1.44858, 6.45897, 22.8596, -151.343, -102.483, 82.3466
10.8401, 78, -1.40107, 6.44059, 22.8626, -151.343, -102.501, 82.0345
10.8468, 78, -1.37731, 6.42981, 22.8647, -151.343, -102.509, 81.8789
10.8571, 78, -1.30596, 6.39202, 22.8732, -151.346, -102.525, 81.4145
10.8646, 78, -1.25812, 6.3621, 22.8811, -151.349, -102.532, 81.1071
10.8725, 78, -1.21026, 6.32816, 22.8907, -151.354, -102.534, 80.8013
10.8803, 78, -1.16233, 6.29015, 22.9018, -151.359, -102.533, 80.4969
10.8884, 78, -1.1383, 6.26968, 22.9147, -151.365, -102.528, 80.1947
10.8964, 78, -1.09021, 6.22582, 22.9218, -151.372, -102.519, 79.8943
10.9038, 78, -1.04219, 6.1777, 22.9373, -151.375, -102.513, 79.7447
10.9118, 79, -0.994007, 6.12548, 22.9544, -151.383, -102.497, 79.4469
10.9198, 79, -0.945659, 6.06916, 22.9734, -151.392, -102.477, 79.1513
10.9278, 79, -0.897504, 6.00864, 22.9943, -151.401, -102.452, 78.858
10.9358, 79, -0.849345, 5.94397, 23.0169, -151.411, -102.422, 78.5667
10.9438, 79, -0.801042, 5.87533, 23.0413, -151.422, -102.388, 78.2773
10.9518, 79, -0.752808, 5.80265, 23.0678, -151.434, -102.349, 77.9904
10.961, 79, -0.704692, 5.72592, 23.1112, -151.453, -102.282, 77.5644
10.9699, 79, -0.632468, 5.60314, 23.1425, -151.466, -102.232, 77.2828
10.9757, 79, -0.608399, 5.56017, 23.1588, -151.473, -102.206, 77.143
10.9828, 79, -0.560339, 5.47108, 23.1931, -151.487, -102.149, 76.8654
10.9917, 80, -0.512281, 5.37764, 23.2292, -151.502, -102.087, 76.5902
10.9998, 80, -0.464188, 5.28008, 23.2673, -151.516, -102.021, 76.3173
11.0078, 80, -0.416197, 5.17835, 23.3074, -151.531, -101.95, 76.0467
11.0158, 80, -0.36825, 5.07229, 23.3495, -151.546, -101.875, 75.7787
11.0238, 80, -0.320169, 4.96211, 23.3937, -151.561, -101.795, 75.5134
11.0328, 80, -0.272209, 4.84767, 23.4401, -151.578, -101.711, 75.2505
11.0399, 80, -0.224292, 4.72887, 23.4885, -151.594, -101.622, 74.9899
11.0478, 80, -0.176317, 4.6059, 23.5391, -151.612, -101.528, 74.7318
11.0558, 80, -0.128408, 4.47892, 23.5918, -151.629, -101.43, 74.4766
11.0638, 80, -0.0806107, 4.34795, 23.6467, -151.646, -101.327, 74.2237
11.0718, 80, -0.0327829, 4.2127, 23.7037, -151.664, -101.219, 73.9731
11.0798, 81, 0.0150082, 4.07312, 23.7629, -151.681, -101.107, 73.7247
11.0878, 81, 0.0626489, 3.92912, 23.8242, -151.699, -100.99, 73.4792
11.0958, 81, 0.110197, 3.7811, 23.8877, -151.717, -100.869, 73.2358
11.1038, 81, 0.157775, 3.6291, 23.9535, -151.735, -100.743, 72.9949
11.1118, 81, 0.205116, 3.47311, 24.0217, -151.754, -100.612, 72.7564
11.1198, 81, 0.252319, 3.31282, 24.0924, -151.773, -100.476, 72.5206
11.1278, 81, 0.299537, 3.14821, 24.1653, -151.791, -100.336, 72.2875
11.136, 81, 0.346623, 2.97999, 24.2407, -151.81, -100.191, 72.0568
11.1456, 81, 0.393612, 2.80832, 24.3182, -151.828, -100.042, 71.8283
11.1518, 81, 0.440733, 2.63257, 24.398, -151.846, -99.8879, 71.6022
11.1626, 82, 0.511356, 2.36058, 24.522, -151.874, -99.6485, 71.2674
11.1678, 82, 0.53485, 2.26802, 24.5644, -151.884, -99.5667, 71.1568
11.1758, 82, 0.581923, 2.08051, 24.6512, -151.902, -99.3996, 70.9377
11.1838, 82, 0.62911, 1.88928, 24.7405, -151.921, -99.2282, 70.7206
11.1917, 82, 0.67608, 1.69317, 24.8324, -151.939, -99.0521, 70.5057
11.1998, 82, 0.72296, 1.49281, 24.9268, -151.957, -98.8716, 70.2931
11.2078, 82, 0.769965, 1.2892, 25.0235, -151.975, -98.6868, 70.0832
11.2159, 82, 0.816931, 1.08191, 25.1224, -151.993, -98.4979, 69.8752
11.2241, 82, 0.863839, 0.870196, 25.2237, -152.011, -98.305, 69.6695
11.2312, 82, 0.910836, 0.654978, 25.3274, -152.029, -98.108, 69.4656
11.2401, 83, 0.957893, 0.436388, 25.4338, -152.046, -97.9068, 69.264
11.2478, 83, 1.00478, 0.213168, 25.5428, -152.064, -97.7014, 69.0649
11.2559, 83, 1.05165, -0.0138787, 25.6543, -152.081, -97.4918, 68.868
11.2646, 83, 1.09861, -0.243823, 25.7682, -152.097, -97.2776, 68.6731
11.2718, 83, 1.14544, -0.477588, 25.8845, -152.113, -97.0589, 68.4805
11.2804, 83, 1.19225, -0.715246, 26.0035, -152.129, -96.8357, 68.2899
11.2889, 83, 1.23924, -0.955967, 26.1251, -152.144, -96.6087, 68.1015
11.2949, 83, 1.26275, -1.07776, 26.1869, -152.152, -96.4937, 68.0082
11.3058, 83, 1.33314, -1.44941, 26.3759, -152.175, -96.1433, 67.7313
11.3122, 83, 1.38033, -1.70108, 26.5045, -152.19, -95.9052, 67.5492
11.3187, 83, 1.40393, -1.82819, 26.5696, -152.197, -95.7849, 67.4587
11.328, 84, 1.47487, -2.21484, 26.7684, -152.218, -95.4186, 67.1905
11.3405, 84, 1.52231, -2.47594, 26.9043, -152.238, -95.0441, 66.927
11.3442, 84, 1.57, -2.74082, 27.0428, -152.245, -94.9173, 66.8404
11.3508, 84, 1.59386, -2.87452, 27.1129, -152.251, -94.7895, 66.7544
11.3605, 84, 1.66543, -3.27945, 27.3269, -152.269, -94.4008, 66.4994
11.3683, 84, 1.71332, -3.55359, 27.4727, -152.28, -94.1372, 66.332
11.3772, 84, 1.76117, -3.83011, 27.6208, -152.291, -93.8703, 66.1664
11.3827, 84, 1.78511, -3.96931, 27.6955, -152.296, -93.7356, 66.0843
11.3927, 84, 1.8572, -4.39209, 27.923, -152.312, -93.3273, 65.8407
11.3997, 84, 1.88133, -4.53435, 28.0001, -152.317, -93.1897, 65.7606
11.4069, 85, 1.92965, -4.82103, 28.156, -152.327, -92.9123, 65.6019
11.4158, 85, 1.97813, -5.11067, 28.3137, -152.336, -92.632, 65.445
11.4237, 85, 2.02682, -5.40195, 28.4729, -152.344, -92.3487, 65.2908
11.4318, 85, 2.07555, -5.69602, 28.6346, -152.352, -92.0625, 65.1384
11.4397, 85, 2.12437, -5.99227, 28.7993, -152.359, -91.7732, 64.9884
11.4477, 85, 2.17345, -6.29043, 28.9664, -152.365, -91.481, 64.8407
11.4547, 85, 2.22265, -6.59091, 29.135, -152.371, -91.1867, 64.6953
11.464, 85, 2.272, -6.89255, 29.3052, -152.376, -90.8897, 64.5525
11.4732, 85, 2.32164, -7.34986, 29.5652, -152.382, -90.4399, 64.3414
11.4787, 85, 2.37141, -7.50329, 29.6528, -152.384, -90.2889, 64.2721
11.4893, 85, 2.44643, -7.96727, 29.9169, -152.388, -89.8324, 64.0674
11.4957, 86, 2.4716, -8.12278, 30.0058, -152.389, -89.6792, 64.0003
11.5038, 86, 2.52213, -8.4346, 30.1859, -152.39, -89.3712, 63.8678
11.5125, 86, 2.57278, -8.7486, 30.368, -152.391, -89.0608, 63.738
11.5188, 86, 2.62365, -9.06378, 30.5512, -152.391, -88.7486, 63.6112
11.5277, 86, 2.67476, -9.38057, 30.7359, -152.391, -88.4347, 63.4873
11.5376, 86, 2.72593, -9.69822, 31.0174, -152.391, -87.9604, 63.3063
11.5429, 86, 2.77721, -10.0168, 31.1118, -152.391, -87.8014, 63.2472
11.5508, 86, 2.82876, -10.337, 31.3014, -152.389, -87.4824, 63.1308
11.5622, 86, 2.90621, -10.8187, 31.5894, -152.384, -87.0015, 62.9607
11.5668, 86, 2.93215, -10.9799, 31.6861, -152.382, -86.8404, 62.9055
11.5757, 87, 2.98423, -11.3021, 31.88, -152.378, -86.5174, 62.7969
11.5837, 87, 3.03639, -11.6253, 32.075, -152.372, -86.1931, 62.6915
11.5918, 87, 3.08885, -11.9493, 32.2718, -152.365, -85.8679, 62.5886
11.5998, 87, 3.14172, -12.2743, 32.4695, -152.357, -85.5414, 62.4898
11.6077, 87, 3.19479, -12.5998, 32.6681, -152.348, -85.214, 62.3939
