rpiRobotics/ARM-21-02-F-19-Robot-Motion-Program/data_performance_abb/curve_2/curve_pose_opt2/100L/grad_result/real/run_2.csv
timestamp,cmd_num,J1,J2,J3,J4,J5,J6
1.400000037392601371e-04,-1.000000000000000000e+00,7.905914306640625000e+00,-1.016273498535156250e+01,2.697114706039428711e+00,-2.074676208496093750e+02,-1.020161590576171875e+02,-1.805540008544921875e+02,4.033146500587463379e-01,-6.667444610595703125e+01,-1.826887054443359375e+02,-2.343034982681274414e+00,7.562291717529296875e+01,3.135719108581542969e+01
3.721999935805797577e-03,1.000000000000000000e+00,7.905914306640625000e+00,-1.016273498535156250e+01,2.697114706039428711e+00,-2.074676208496093750e+02,-1.020161590576171875e+02,-1.805538024902343750e+02,4.033146500587463379e-01,-6.667453765869140625e+01,-1.826887054443359375e+02,-2.343106746673583984e+00,7.562291717529296875e+01,3.135697174072265625e+01
8.795999921858310699e-03,1.000000000000000000e+00,7.906086444854736328e+00,-1.016273498535156250e+01,2.697074174880981445e+00,-2.074677886962890625e+02,-1.020162582397460938e+02,-1.805540008544921875e+02,4.033146500587463379e-01,-6.667444610595703125e+01,-1.826887054443359375e+02,-2.343106746673583984e+00,7.562291717529296875e+01,3.135697174072265625e+01
1.232900004833936691e-02,1.000000000000000000e+00,7.905914306640625000e+00,-1.016280364990234375e+01,2.697074174880981445e+00,-2.074677886962890625e+02,-1.020162582397460938e+02,-1.805538024902343750e+02,4.033146500587463379e-01,-6.667435455322265625e+01,-1.826887054443359375e+02,-2.343106746673583984e+00,7.562291717529296875e+01,3.135697174072265625e+01
3.627299889922142029e-02,1.000000000000000000e+00,7.905914306640625000e+00,-1.016273498535156250e+01,2.697074174880981445e+00,-2.074676208496093750e+02,-1.020161590576171875e+02,-1.805538024902343750e+02,4.033146500587463379e-01,-6.667435455322265625e+01,-1.826887054443359375e+02,-2.343178272247314453e+00,7.562291717529296875e+01,3.135697174072265625e+01
3.871100023388862610e-02,1.000000000000000000e+00,7.905914306640625000e+00,-1.016273498535156250e+01,2.697074174880981445e+00,-2.074676208496093750e+02,-1.020161590576171875e+02,-1.805538024902343750e+02,4.033146500587463379e-01,-6.667444610595703125e+01,-1.826887054443359375e+02,-2.343106746673583984e+00,7.562291717529296875e+01,3.135697174072265625e+01
4.004200175404548645e-02,1.000000000000000000e+00,7.905914306640625000e+00,-1.016273498535156250e+01,2.697114706039428711e+00,-2.074676208496093750e+02,-1.020162582397460938e+02,-1.805540008544921875e+02,4.033146500587463379e-01,-6.667444610595703125e+01,-1.826887054443359375e+02,-2.343106746673583984e+00,7.562291717529296875e+01,3.135697174072265625e+01
4.893299937248229980e-02,1.000000000000000000e+00,7.905914306640625000e+00,-1.016273498535156250e+01,2.697114706039428711e+00,-2.074676208496093750e+02,-1.020162582397460938e+02,-1.805540008544921875e+02,4.033146500587463379e-01,-6.667444610595703125e+01,-1.826887054443359375e+02,-2.343106746673583984e+00,7.562291717529296875e+01,3.135697174072265625e+01
5.138900130987167358e-02,1.000000000000000000e+00,7.905770778656005859e+00,-1.016269016265869141e+01,2.697074174880981445e+00,-2.074677886962890625e+02,-1.020161590576171875e+02,-1.805538024902343750e+02,4.033146500587463379e-01,-6.667444610595703125e+01,-1.826887054443359375e+02,-2.343034982681274414e+00,7.562277984619140625e+01,3.135697174072265625e+01
5.264500156044960022e-02,1.000000000000000000e+00,7.905770778656005859e+00,-1.016269016265869141e+01,2.697074174880981445e+00,-2.074677886962890625e+02,-1.020161590576171875e+02,-1.805538024902343750e+02,4.033146500587463379e-01,-6.667444610595703125e+01,-1.826887054443359375e+02,-2.343034982681274414e+00,7.562277984619140625e+01,3.135697174072265625e+01
5.528600141406059265e-02,1.000000000000000000e+00,7.905570030212402344e+00,-1.016246318817138672e+01,2.697114706039428711e+00,-2.074676208496093750e+02,-1.020161590576171875e+02,-1.805538024902343750e+02,4.033146500587463379e-01,-6.667453765869140625e+01,-1.826887054443359375e+02,-2.343106746673583984e+00,7.562291717529296875e+01,3.135697174072265625e+01
5.664899945259094238e-02,1.000000000000000000e+00,7.905570030212402344e+00,-1.016246318817138672e+01,2.697114706039428711e+00,-2.074676208496093750e+02,-1.020161590576171875e+02,-1.805538024902343750e+02,4.033146500587463379e-01,-6.667453765869140625e+01,-1.826887054443359375e+02,-2.343106746673583984e+00,7.562291717529296875e+01,3.135697174072265625e+01
6.078200042247772217e-02,1.000000000000000000e+00,7.904479026794433594e+00,-1.016169452667236328e+01,2.697114706039428711e+00,-2.074676208496093750e+02,-1.020161590576171875e+02,-1.805540008544921875e+02,4.033146500587463379e-01,-6.667444610595703125e+01,-1.826885528564453125e+02,-2.343034982681274414e+00,7.562299346923828125e+01,3.135697174072265625e+01
6.349699944257736206e-02,1.000000000000000000e+00,7.902785778045654297e+00,-1.016038131713867188e+01,2.697135210037231445e+00,-2.074676208496093750e+02,-1.020161590576171875e+02,-1.805538024902343750e+02,4.033146500587463379e-01,-6.667435455322265625e+01,-1.826887054443359375e+02,-2.343106746673583984e+00,7.562277984619140625e+01,3.135697174072265625e+01
6.475099921226501465e-02,1.000000000000000000e+00,7.902785778045654297e+00,-1.016038131713867188e+01,2.697135210037231445e+00,-2.074676208496093750e+02,-1.020161590576171875e+02,-1.805538024902343750e+02,4.033146500587463379e-01,-6.667435455322265625e+01,-1.826887054443359375e+02,-2.343106746673583984e+00,7.562277984619140625e+01,3.135697174072265625e+01
6.732399761676788330e-02,1.000000000000000000e+00,7.900173187255859375e+00,-1.015829944610595703e+01,2.697175741195678711e+00,-2.074676208496093750e+02,-1.020158920288085938e+02,-1.805538024902343750e+02,4.033146500587463379e-01,-6.667444610595703125e+01,-1.826887054443359375e+02,-2.343106746673583984e+00,7.562291717529296875e+01,3.135697174072265625e+01
7.235100120306015015e-02,1.000000000000000000e+00,7.896584987640380859e+00,-1.015526676177978516e+01,2.697216510772705078e+00,-2.074675140380859375e+02,-1.020154571533203125e+02,-1.805536651611328125e+02,4.033146500587463379e-01,-6.667444610595703125e+01,-1.826887054443359375e+02,-2.343106746673583984e+00,7.562291717529296875e+01,3.135697174072265625e+01
7.455500215291976929e-02,1.000000000000000000e+00,7.896584987640380859e+00,-1.015526676177978516e+01,2.697216510772705078e+00,-2.074675140380859375e+02,-1.020154571533203125e+02,-1.805536651611328125e+02,4.033146500587463379e-01,-6.667444610595703125e+01,-1.826887054443359375e+02,-2.343106746673583984e+00,7.562291717529296875e+01,3.135697174072265625e+01
7.609599828720092773e-02,1.000000000000000000e+00,7.891790866851806641e+00,-1.015121650695800781e+01,2.697338342666625977e+00,-2.074672546386718750e+02,-1.020142364501953125e+02,-1.805534515380859375e+02,4.033146500587463379e-01,-6.667444610595703125e+01,-1.826887054443359375e+02,-2.343106746673583984e+00,7.562291717529296875e+01,3.135697174072265625e+01
7.734499871730804443e-02,1.000000000000000000e+00,7.891790866851806641e+00,-1.015121650695800781e+01,2.697338342666625977e+00,-2.074672546386718750e+02,-1.020142364501953125e+02,-1.805534515380859375e+02,4.033146500587463379e-01,-6.667444610595703125e+01,-1.826887054443359375e+02,-2.343106746673583984e+00,7.562291717529296875e+01,3.135697174072265625e+01
8.145099878311157227e-02,1.000000000000000000e+00,7.885962963104248047e+00,-1.014596652984619141e+01,2.697582483291625977e+00,-2.074661560058593750e+02,-1.020119400024414062e+02,-1.805527801513671875e+02,4.033146500587463379e-01,-6.667444610595703125e+01,-1.826887054443359375e+02,-2.343106746673583984e+00,7.562291717529296875e+01,3.135697174072265625e+01
8.482199907302856445e-02,1.000000000000000000e+00,7.878672122955322266e+00,-1.013890552520751953e+01,2.698111057281494141e+00,-2.074642028808593750e+02,-1.020085830688476562e+02,-1.805508728027343750e+02,4.033146500587463379e-01,-6.667435455322265625e+01,-1.826887054443359375e+02,-2.343106746673583984e+00,7.562299346923828125e+01,3.135697174072265625e+01
8.728999644517898560e-02,1.000000000000000000e+00,7.869600772857666016e+00,-1.012958240509033203e+01,2.698822736740112305e+00,-2.074608764648437500e+02,-1.020038986206054688e+02,-1.805471496582031250e+02,4.033146500587463379e-01,-6.667435455322265625e+01,-1.826887054443359375e+02,-2.343106746673583984e+00,7.562291717529296875e+01,3.135697174072265625e+01
8.859200030565261841e-02,1.000000000000000000e+00,7.869600772857666016e+00,-1.012958240509033203e+01,2.698822736740112305e+00,-2.074608764648437500e+02,-1.020038986206054688e+02,-1.805471496582031250e+02,4.033146500587463379e-01,-6.667435455322265625e+01,-1.826887054443359375e+02,-2.343106746673583984e+00,7.562291717529296875e+01,3.135697174072265625e+01
9.569200128316879272e-02,1.000000000000000000e+00,7.869600772857666016e+00,-1.012958240509033203e+01,2.698822736740112305e+00,-2.074608764648437500e+02,-1.020038986206054688e+02,-1.805471496582031250e+02,4.033146500587463379e-01,-6.667444610595703125e+01,-1.826887054443359375e+02,-2.343178272247314453e+00,7.562277984619140625e+01,3.135697174072265625e+01
9.703099727630615234e-02,1.000000000000000000e+00,7.844913005828857422e+00,-1.010301399230957031e+01,2.701059103012084961e+00,-2.074512481689453125e+02,-1.019874191284179688e+02,-1.805348052978515625e+02,4.033146500587463379e-01,-6.667444610595703125e+01,-1.826887054443359375e+02,-2.343106746673583984e+00,7.562291717529296875e+01,3.135697174072265625e+01
9.962599724531173706e-02,1.000000000000000000e+00,7.828692913055419922e+00,-1.008601951599121094e+01,2.702604293823242188e+00,-2.074431915283203125e+02,-1.019748916625976562e+02,-1.805249786376953125e+02,4.033146500587463379e-01,-6.667444610595703125e+01,-1.826887054443359375e+02,-2.343106746673583984e+00,7.562291717529296875e+01,3.135697174072265625e+01
1.040159985423088074e-01,1.000000000000000000e+00,7.828692913055419922e+00,-1.008601951599121094e+01,2.702604293823242188e+00,-2.074431915283203125e+02,-1.019748916625976562e+02,-1.805249786376953125e+02,4.033146500587463379e-01,-6.667444610595703125e+01,-1.826887054443359375e+02,-2.343106746673583984e+00,7.562291717529296875e+01,3.135697174072265625e+01
1.078799962997436523e-01,1.000000000000000000e+00,7.810062885284423828e+00,-1.006701087951660156e+01,2.704922199249267578e+00,-2.074326934814453125e+02,-1.019592132568359375e+02,-1.805128936767578125e+02,4.033146500587463379e-01,-6.667444610595703125e+01,-1.826887054443359375e+02,-2.343106746673583984e+00,7.562291717529296875e+01,3.135697174072265625e+01
1.119979992508888245e-01,1.000000000000000000e+00,7.789077758789062500e+00,-1.004625892639160156e+01,2.707605838775634766e+00,-2.074200592041015625e+02,-1.019400177001953125e+02,-1.804972381591796875e+02,4.033146500587463379e-01,-6.667444610595703125e+01,-1.826887054443359375e+02,-2.343106746673583984e+00,7.562291717529296875e+01,3.135697174072265625e+01
1.159240007400512695e-01,1.000000000000000000e+00,7.765681743621826172e+00,-1.002448844909667969e+01,2.710676193237304688e+00,-2.074039459228515625e+02,-1.019171447753906250e+02,-1.804785156250000000e+02,4.033146500587463379e-01,-6.667444610595703125e+01,-1.826887054443359375e+02,-2.343106746673583984e+00,7.562277984619140625e+01,3.135697174072265625e+01
1.200200021266937256e-01,1.000000000000000000e+00,7.740132808685302734e+00,-1.000151920318603516e+01,2.713929176330566406e+00,-2.073847808837890625e+02,-1.018904876708984375e+02,-1.804562072753906250e+02,4.033146500587463379e-01,-6.667444610595703125e+01,-1.826887054443359375e+02,-2.343106746673583984e+00,7.562291717529296875e+01,3.135697174072265625e+01
1.238560006022453308e-01,1.000000000000000000e+00,7.711970806121826172e+00,-9.976898193359375000e+00,2.717629671096801758e+00,-2.073623352050781250e+02,-1.018594589233398438e+02,-1.804309844970703125e+02,4.033146500587463379e-01,-6.667444610595703125e+01,-1.826887054443359375e+02,-2.343106746673583984e+00,7.562299346923828125e+01,3.135697174072265625e+01
1.280039995908737183e-01,1.000000000000000000e+00,7.681197643280029297e+00,-9.950466156005859375e+00,2.721736669540405273e+00,-2.073372497558593750e+02,-1.018222961425781250e+02,-1.804016113281250000e+02,4.033146500587463379e-01,-6.667444610595703125e+01,-1.826887054443359375e+02,-2.343106746673583984e+00,7.562291717529296875e+01,3.135697174072265625e+01
1.321520060300827026e-01,1.000000000000000000e+00,7.648098468780517578e+00,-9.922134399414062500e+00,2.726331472396850586e+00,-2.073103485107421875e+02,-1.017792205810546875e+02,-1.803681182861328125e+02,4.033146500587463379e-01,-6.667444610595703125e+01,-1.826887054443359375e+02,-2.343106746673583984e+00,7.562277984619140625e+01,3.135697174072265625e+01
1.353420019149780273e-01,1.000000000000000000e+00,7.612272262573242188e+00,-9.892239570617675781e+00,2.731556892395019531e+00,-2.072801666259765625e+02,-1.017327804565429688e+02,-1.803306121826171875e+02,4.033146500587463379e-01,-6.667453765869140625e+01,-1.826887054443359375e+02,-2.343106746673583984e+00,7.562291717529296875e+01,3.135697174072265625e+01
1.394979953765869141e-01,1.000000000000000000e+00,7.574149608612060547e+00,-9.860941886901855469e+00,2.737310886383056641e+00,-2.072446136474609375e+02,-1.016836776733398438e+02,-1.802882995605468750e+02,4.033146500587463379e-01,-6.667444610595703125e+01,-1.826887054443359375e+02,-2.343106746673583984e+00,7.562291717529296875e+01,3.135697174072265625e+01
1.433539986610412598e-01,1.000000000000000000e+00,7.533443450927734375e+00,-9.827721595764160156e+00,2.743329048156738281e+00,-2.072053070068359375e+02,-1.016282272338867188e+02,-1.802425231933593750e+02,4.033146500587463379e-01,-6.667444610595703125e+01,-1.826887054443359375e+02,-2.343178272247314453e+00,7.562291717529296875e+01,3.135697174072265625e+01
1.481000036001205444e-01,1.000000000000000000e+00,7.491014957427978516e+00,-9.792780876159667969e+00,2.749875783920288086e+00,-2.071646423339843750e+02,-1.015681915283203125e+02,-1.801956481933593750e+02,4.033146500587463379e-01,-6.667444610595703125e+01,-1.826887054443359375e+02,-2.343034982681274414e+00,7.562299346923828125e+01,3.135719108581542969e+01
1.517020016908645630e-01,1.000000000000000000e+00,7.446864128112792969e+00,-9.756234169006347656e+00,2.756605625152587891e+00,-2.071236724853515625e+02,-1.015064010620117188e+02,-1.801466217041015625e+02,4.033146500587463379e-01,-6.667444610595703125e+01,-1.826887054443359375e+02,-2.343106746673583984e+00,7.562291717529296875e+01,3.135697174072265625e+01
1.573600023984909058e-01,1.000000000000000000e+00,7.400789260864257812e+00,-9.717988967895507812e+00,2.763803005218505859e+00,-2.070793762207031250e+02,-1.014408264160156250e+02,-1.800932464599609375e+02,4.033146500587463379e-01,-6.667444610595703125e+01,-1.826887054443359375e+02,-2.343106746673583984e+00,7.562291717529296875e+01,3.135697174072265625e+01
1.601720005273818970e-01,1.000000000000000000e+00,7.301320552825927734e+00,-9.633466720581054688e+00,2.780027866363525391e+00,-2.069844970703125000e+02,-1.013019866943359375e+02,-1.799801330566406250e+02,4.033146500587463379e-01,-6.667444610595703125e+01,-1.826887054443359375e+02,-2.343178272247314453e+00,7.562291717529296875e+01,3.135697174072265625e+01
1.636970043182373047e-01,1.000000000000000000e+00,7.301320552825927734e+00,-9.633466720581054688e+00,2.780027866363525391e+00,-2.069844970703125000e+02,-1.013019866943359375e+02,-1.799801330566406250e+02,4.033146500587463379e-01,-6.667444610595703125e+01,-1.826887054443359375e+02,-2.343178272247314453e+00,7.562291717529296875e+01,3.135697174072265625e+01
1.679770052433013916e-01,1.000000000000000000e+00,7.248442649841308594e+00,-9.587595939636230469e+00,2.788648605346679688e+00,-2.069363098144531250e+02,-1.012306518554687500e+02,-1.799232330322265625e+02,4.033146500587463379e-01,-6.667444610595703125e+01,-1.826887054443359375e+02,-2.343178272247314453e+00,7.562291717529296875e+01,3.135697174072265625e+01
1.722999960184097290e-01,1.000000000000000000e+00,7.193870544433593750e+00,-9.539868354797363281e+00,2.797228574752807617e+00,-2.068866424560546875e+02,-1.011581420898437500e+02,-1.798634185791015625e+02,4.033146500587463379e-01,-6.667444610595703125e+01,-1.826887054443359375e+02,-2.343106746673583984e+00,7.562291717529296875e+01,3.135697174072265625e+01
1.758359968662261963e-01,1.000000000000000000e+00,7.138236999511718750e+00,-9.490626335144042969e+00,2.805849313735961914e+00,-2.068369598388671875e+02,-1.010838165283203125e+02,-1.798038787841796875e+02,4.033146500587463379e-01,-6.667444610595703125e+01,-1.826887054443359375e+02,-2.343034982681274414e+00,7.562291717529296875e+01,3.135697174072265625e+01
1.799660027027130127e-01,1.000000000000000000e+00,7.081254005432128906e+00,-9.440365791320800781e+00,2.814327716827392578e+00,-2.067860260009765625e+02,-1.010082092285156250e+02,-1.797449340820312500e+02,4.033146500587463379e-01,-6.667444610595703125e+01,-1.826887054443359375e+02,-2.343034982681274414e+00,7.562299346923828125e+01,3.135697174072265625e+01
1.836829930543899536e-01,1.000000000000000000e+00,7.023036479949951172e+00,-9.389018058776855469e+00,2.823090553283691406e+00,-2.067350921630859375e+02,-1.009329833984375000e+02,-1.796834259033203125e+02,4.033146500587463379e-01,-6.667444610595703125e+01,-1.826887054443359375e+02,-2.343106746673583984e+00,7.562291717529296875e+01,3.135697174072265625e+01
1.880760043859481812e-01,1.000000000000000000e+00,6.964101314544677734e+00,-9.336969375610351562e+00,2.832117795944213867e+00,-2.066848907470703125e+02,-1.008578567504882812e+02,-1.796226043701171875e+02,4.033146500587463379e-01,-6.667444610595703125e+01,-1.826887054443359375e+02,-2.343034982681274414e+00,7.562291717529296875e+01,3.135697174072265625e+01
1.919430047273635864e-01,1.000000000000000000e+00,6.904334068298339844e+00,-9.284264564514160156e+00,2.841287612915039062e+00,-2.066340637207031250e+02,-1.007818298339843750e+02,-1.795621032714843750e+02,4.033146500587463379e-01,-6.667435455322265625e+01,-1.826887054443359375e+02,-2.343106746673583984e+00,7.562291717529296875e+01,3.135697174072265625e+01
1.965399980545043945e-01,1.000000000000000000e+00,6.843905925750732422e+00,-9.230993270874023438e+00,2.850396156311035156e+00,-2.065825958251953125e+02,-1.007053756713867188e+02,-1.795007324218750000e+02,4.033146500587463379e-01,-6.667444610595703125e+01,-1.826887054443359375e+02,-2.343106746673583984e+00,7.562299346923828125e+01,3.135697174072265625e+01
2.001149952411651611e-01,1.000000000000000000e+00,6.782789230346679688e+00,-9.177337646484375000e+00,2.859545707702636719e+00,-2.065320281982421875e+02,-1.006290817260742188e+02,-1.794397735595703125e+02,4.033146500587463379e-01,-6.667444610595703125e+01,-1.826887054443359375e+02,-2.343178272247314453e+00,7.562313842773437500e+01,3.135697174072265625e+01
2.039999961853027344e-01,1.000000000000000000e+00,6.721499919891357422e+00,-9.123274803161621094e+00,2.868613481521606445e+00,-2.064806213378906250e+02,-1.005530548095703125e+02,-1.793790740966796875e+02,4.033146500587463379e-01,-6.667444610595703125e+01,-1.826887054443359375e+02,-2.343178272247314453e+00,7.562277984619140625e+01,3.135697174072265625e+01
2.081509977579116821e-01,1.000000000000000000e+00,6.660038948059082031e+00,-9.069144248962402344e+00,2.877844095230102539e+00,-2.064296264648437500e+02,-1.004767074584960938e+02,-1.793174285888671875e+02,4.033146500587463379e-01,-6.667435455322265625e+01,-1.826887054443359375e+02,-2.343178272247314453e+00,7.562291717529296875e+01,3.135697174072265625e+01
2.121350020170211792e-01,1.000000000000000000e+00,6.598491191864013672e+00,-9.014990806579589844e+00,2.887400150299072266e+00,-2.063789672851562500e+02,-1.004003601074218750e+02,-1.792563934326171875e+02,4.033146500587463379e-01,-6.667435455322265625e+01,-1.826887054443359375e+02,-2.343106746673583984e+00,7.562291717529296875e+01,3.135697174072265625e+01
2.160799950361251831e-01,1.000000000000000000e+00,6.536943912506103516e+00,-8.960927963256835938e+00,2.896813631057739258e+00,-2.063276519775390625e+02,-1.003242263793945312e+02,-1.791955566406250000e+02,4.033146500587463379e-01,-6.667444610595703125e+01,-1.826887054443359375e+02,-2.343106746673583984e+00,7.562291717529296875e+01,3.135697174072265625e+01
2.207089960575103760e-01,1.000000000000000000e+00,6.475625991821289062e+00,-8.907000541687011719e+00,2.906328916549682617e+00,-2.062762451171875000e+02,-1.002480850219726562e+02,-1.791338500976562500e+02,4.033146500587463379e-01,-6.667444610595703125e+01,-1.826887054443359375e+02,-2.343106746673583984e+00,7.562291717529296875e+01,3.135697174072265625e+01
2.241840064525604248e-01,1.000000000000000000e+00,6.414136409759521484e+00,-8.852869987487792969e+00,2.915742635726928711e+00,-2.062250518798828125e+02,-1.001709899902343750e+02,-1.790726776123046875e+02,4.033146500587463379e-01,-6.667453765869140625e+01,-1.826887054443359375e+02,-2.343106746673583984e+00,7.562291717529296875e+01,3.135697174072265625e+01
2.281199991703033447e-01,1.000000000000000000e+00,6.352617263793945312e+00,-8.798761367797851562e+00,2.924769878387451172e+00,-2.061735839843750000e+02,-1.000948562622070312e+02,-1.790123901367187500e+02,4.033146500587463379e-01,-6.667444610595703125e+01,-1.826887054443359375e+02,-2.343106746673583984e+00,7.562299346923828125e+01,3.135697174072265625e+01
2.320690006017684937e-01,1.000000000000000000e+00,6.291414737701416016e+00,-8.744789123535156250e+00,2.933736085891723633e+00,-2.061227416992187500e+02,-1.000190887451171875e+02,-1.789510803222656250e+02,4.033146500587463379e-01,-6.667444610595703125e+01,-1.826887054443359375e+02,-2.343106746673583984e+00,7.562291717529296875e+01,3.135697174072265625e+01
2.361930012702941895e-01,1.000000000000000000e+00,6.229953289031982422e+00,-8.690930366516113281e+00,2.943027973175048828e+00,-2.060717163085937500e+02,-9.994316864013671875e+01,-1.788903198242187500e+02,4.033146500587463379e-01,-6.667444610595703125e+01,-1.826887054443359375e+02,-2.343178272247314453e+00,7.562291717529296875e+01,3.135675048828125000e+01
2.401199936866760254e-01,1.000000000000000000e+00,6.168778896331787109e+00,-8.637274742126464844e+00,2.952400922775268555e+00,-2.060202026367187500e+02,-9.986618804931640625e+01,-1.788298797607421875e+02,4.033146500587463379e-01,-6.667453765869140625e+01,-1.826887054443359375e+02,-2.343106746673583984e+00,7.562277984619140625e+01,3.135697174072265625e+01
2.448219954967498779e-01,1.000000000000000000e+00,6.107662200927734375e+00,-8.583664894104003906e+00,2.961794137954711914e+00,-2.059694671630859375e+02,-9.978972625732421875e+01,-1.787680511474609375e+02,4.033146500587463379e-01,-6.667444610595703125e+01,-1.826887054443359375e+02,-2.343106746673583984e+00,7.562291717529296875e+01,3.135697174072265625e+01
2.483810037374496460e-01,1.000000000000000000e+00,6.046430587768554688e+00,-8.529850006103515625e+00,2.970963716506958008e+00,-2.059179534912109375e+02,-9.971369934082031250e+01,-1.787070770263671875e+02,4.033146500587463379e-01,-6.667435455322265625e+01,-1.826887054443359375e+02,-2.343106746673583984e+00,7.562291717529296875e+01,3.135697174072265625e+01
2.510080039501190186e-01,1.000000000000000000e+00,5.985342502593994141e+00,-8.475991249084472656e+00,2.980052232742309570e+00,-2.058670196533203125e+02,-9.963761901855468750e+01,-1.786473999023437500e+02,4.033146500587463379e-01,-6.667444610595703125e+01,-1.826887054443359375e+02,-2.343034982681274414e+00,7.562291717529296875e+01,3.135697174072265625e+01
2.565230131149291992e-01,1.000000000000000000e+00,5.924139499664306641e+00,-8.422154426574707031e+00,2.989262342453002930e+00,-2.058164062500000000e+02,-9.956046295166015625e+01,-1.785860137939453125e+02,4.033146500587463379e-01,-6.667444610595703125e+01,-1.826887054443359375e+02,-2.343106746673583984e+00,7.562291717529296875e+01,3.135697174072265625e+01
2.604779899120330811e-01,1.000000000000000000e+00,5.862850666046142578e+00,-8.368544578552246094e+00,2.998615026473999023e+00,-2.057649993896484375e+02,-9.948401641845703125e+01,-1.785253295898437500e+02,4.033146500587463379e-01,-6.667444610595703125e+01,-1.826887054443359375e+02,-2.343178272247314453e+00,7.562291717529296875e+01,3.135697174072265625e+01
2.643699944019317627e-01,1.000000000000000000e+00,5.801561355590820312e+00,-8.315024375915527344e+00,3.008008241653442383e+00,-2.057139434814453125e+02,-9.940851593017578125e+01,-1.784650268554687500e+02,4.033146500587463379e-01,-6.667444610595703125e+01,-1.826887054443359375e+02,-2.343106746673583984e+00,7.562291717529296875e+01,3.135697174072265625e+01
2.669680118560791016e-01,1.000000000000000000e+00,5.740387439727783203e+00,-8.261572837829589844e+00,3.017259359359741211e+00,-2.056634826660156250e+02,-9.933243560791015625e+01,-1.784036560058593750e+02,4.033146500587463379e-01,-6.667444610595703125e+01,-1.826887054443359375e+02,-2.343106746673583984e+00,7.562291717529296875e+01,3.135697174072265625e+01
2.725619971752166748e-01,1.000000000000000000e+00,5.679413795471191406e+00,-8.208211898803710938e+00,3.026368141174316406e+00,-2.056115570068359375e+02,-9.925543975830078125e+01,-1.783425598144531250e+02,4.033146500587463379e-01,-6.667444610595703125e+01,-1.826887054443359375e+02,-2.343106746673583984e+00,7.562291717529296875e+01,3.135697174072265625e+01
2.765389978885650635e-01,1.000000000000000000e+00,5.618210792541503906e+00,-8.154487609863281250e+00,3.035334110260009766e+00,-2.055608825683593750e+02,-9.917931365966796875e+01,-1.782824096679687500e+02,4.033146500587463379e-01,-6.667453765869140625e+01,-1.826887054443359375e+02,-2.343178272247314453e+00,7.562291717529296875e+01,3.135697174072265625e+01
2.789689898490905762e-01,1.000000000000000000e+00,5.557036876678466797e+00,-8.100922584533691406e+00,3.044402360916137695e+00,-2.055102081298828125e+02,-9.910365295410156250e+01,-1.782212371826171875e+02,4.033146500587463379e-01,-6.667444610595703125e+01,-1.826887054443359375e+02,-2.343106746673583984e+00,7.562291717529296875e+01,3.135697174072265625e+01
2.829590141773223877e-01,1.000000000000000000e+00,5.495776653289794922e+00,-8.047357559204101562e+00,3.053531408309936523e+00,-2.054585876464843750e+02,-9.902746582031250000e+01,-1.781600646972656250e+02,4.033146500587463379e-01,-6.667444610595703125e+01,-1.826887054443359375e+02,-2.343106746673583984e+00,7.562299346923828125e+01,3.135697174072265625e+01
2.869830131530761719e-01,1.000000000000000000e+00,5.434602260589599609e+00,-7.993950843811035156e+00,3.062761783599853516e+00,-2.054074859619140625e+02,-9.895095825195312500e+01,-1.781000366210937500e+02,4.033146500587463379e-01,-6.667444610595703125e+01,-1.826887054443359375e+02,-2.343106746673583984e+00,7.562291717529296875e+01,3.135697174072265625e+01
2.909489870071411133e-01,1.000000000000000000e+00,5.373083591461181641e+00,-7.940521717071533203e+00,3.072012901306152344e+00,-2.053566131591796875e+02,-9.887465667724609375e+01,-1.780385437011718750e+02,4.033146500587463379e-01,-6.667444610595703125e+01,-1.826887054443359375e+02,-2.343178272247314453e+00,7.562291717529296875e+01,3.135719108581542969e+01
2.968519926071166992e-01,1.000000000000000000e+00,5.311708450317382812e+00,-7.887002468109130859e+00,3.081223249435424805e+00,-2.053048400878906250e+02,-9.879884338378906250e+01,-1.779769592285156250e+02,4.033146500587463379e-01,-6.667453765869140625e+01,-1.826887054443359375e+02,-2.343178272247314453e+00,7.562277984619140625e+01,3.135697174072265625e+01
3.014850020408630371e-01,1.000000000000000000e+00,5.250619888305664062e+00,-7.833572864532470703e+00,3.090291261672973633e+00,-2.052540588378906250e+02,-9.872266387939453125e+01,-1.779170684814453125e+02,4.033146500587463379e-01,-6.667453765869140625e+01,-1.826887054443359375e+02,-2.343178272247314453e+00,7.562291717529296875e+01,3.135697174072265625e+01
3.050020039081573486e-01,1.000000000000000000e+00,5.189072608947753906e+00,-7.779827117919921875e+00,3.099521636962890625e+00,-2.052032318115234375e+02,-9.864625549316406250e+01,-1.778567199707031250e+02,4.033146500587463379e-01,-6.667444610595703125e+01,-1.826887054443359375e+02,-2.343106746673583984e+00,7.562291717529296875e+01,3.135697174072265625e+01
3.069959878921508789e-01,1.000000000000000000e+00,5.127755165100097656e+00,-7.725922584533691406e+00,3.108935356140136719e+00,-2.051516571044921875e+02,-9.857028198242187500e+01,-1.777954101562500000e+02,4.033146500587463379e-01,-6.667444610595703125e+01,-1.826887054443359375e+02,-2.343106746673583984e+00,7.562291717529296875e+01,3.135697174072265625e+01
3.109909892082214355e-01,1.000000000000000000e+00,5.066380023956298828e+00,-7.672108173370361328e+00,3.118389606475830078e+00,-2.051010284423828125e+02,-9.849472808837890625e+01,-1.777353210449218750e+02,4.033146500587463379e-01,-6.667444610595703125e+01,-1.826887054443359375e+02,-2.343106746673583984e+00,7.562291717529296875e+01,3.135697174072265625e+01
3.149580061435699463e-01,1.000000000000000000e+00,5.004832744598388672e+00,-7.618135929107666016e+00,3.127782821655273438e+00,-2.050495758056640625e+02,-9.841822052001953125e+01,-1.776742858886718750e+02,4.033146500587463379e-01,-6.667444610595703125e+01,-1.826887054443359375e+02,-2.343178272247314453e+00,7.562291717529296875e+01,3.135697174072265625e+01
3.211840093135833740e-01,1.000000000000000000e+00,4.943141460418701172e+00,-7.564232349395751953e+00,3.137013673782348633e+00,-2.049987945556640625e+02,-9.834214019775390625e+01,-1.776127929687500000e+02,4.033146500587463379e-01,-6.667444610595703125e+01,-1.826887054443359375e+02,-2.343106746673583984e+00,7.562291717529296875e+01,3.135697174072265625e+01
3.229269981384277344e-01,1.000000000000000000e+00,4.881479263305664062e+00,-7.510349750518798828e+00,3.146101951599121094e+00,-2.049485473632812500e+02,-9.826638031005859375e+01,-1.775530395507812500e+02,4.033146500587463379e-01,-6.667444610595703125e+01,-1.826887054443359375e+02,-2.343178272247314453e+00,7.562291717529296875e+01,3.135697174072265625e+01
3.288480043411254883e-01,1.000000000000000000e+00,4.820132732391357422e+00,-7.456490993499755859e+00,3.155373334884643555e+00,-2.048974609375000000e+02,-9.819067382812500000e+01,-1.774926757812500000e+02,4.033146500587463379e-01,-6.667444610595703125e+01,-1.826887054443359375e+02,-2.343106746673583984e+00,7.562291717529296875e+01,3.135697174072265625e+01
3.330639898777008057e-01,1.000000000000000000e+00,4.758556365966796875e+00,-7.402518272399902344e+00,3.164807319641113281e+00,-2.048463134765625000e+02,-9.811437225341796875e+01,-1.774315032958984375e+02,4.033146500587463379e-01,-6.667444610595703125e+01,-1.826887054443359375e+02,-2.343106746673583984e+00,7.562291717529296875e+01,3.135697174072265625e+01
3.349179923534393311e-01,1.000000000000000000e+00,4.696866035461425781e+00,-7.348410129547119141e+00,3.174160003662109375e+00,-2.047954864501953125e+02,-9.803855895996093750e+01,-1.773714904785156250e+02,4.033146500587463379e-01,-6.667444610595703125e+01,-1.826887054443359375e+02,-2.343178272247314453e+00,7.562291717529296875e+01,3.135697174072265625e+01
3.389930129051208496e-01,1.000000000000000000e+00,4.635576725006103516e+00,-7.294528484344482422e+00,3.183431148529052734e+00,-2.047443237304687500e+02,-9.796253204345703125e+01,-1.773106536865234375e+02,4.033146500587463379e-01,-6.667444610595703125e+01,-1.826887054443359375e+02,-2.343106746673583984e+00,7.562277984619140625e+01,3.135697174072265625e+01
3.429220020771026611e-01,1.000000000000000000e+00,4.574143886566162109e+00,-7.240737438201904297e+00,3.192620992660522461e+00,-2.046936035156250000e+02,-9.788660430908203125e+01,-1.772492218017578125e+02,4.033146500587463379e-01,-6.667444610595703125e+01,-1.826887054443359375e+02,-2.343106746673583984e+00,7.562291717529296875e+01,3.135697174072265625e+01
3.469229936599731445e-01,1.000000000000000000e+00,4.512567996978759766e+00,-7.186854839324951172e+00,3.201831340789794922e+00,-2.046429290771484375e+02,-9.781020355224609375e+01,-1.771892547607421875e+02,4.033146500587463379e-01,-6.667444610595703125e+01,-1.826887054443359375e+02,-2.343106746673583984e+00,7.562291717529296875e+01,3.135697174072265625e+01
3.532170057296752930e-01,1.000000000000000000e+00,4.451479911804199219e+00,-7.133177280426025391e+00,3.211163759231567383e+00,-2.045914154052734375e+02,-9.773464965820312500e+01,-1.771284332275390625e+02,4.033146500587463379e-01,-6.667444610595703125e+01,-1.826887054443359375e+02,-2.343106746673583984e+00,7.562291717529296875e+01,3.135697174072265625e+01
3.549849987030029297e-01,1.000000000000000000e+00,4.390161991119384766e+00,-7.079136848449707031e+00,3.220658540725708008e+00,-2.045405426025390625e+02,-9.765900421142578125e+01,-1.770663909912109375e+02,4.033146500587463379e-01,-6.667444610595703125e+01,-1.826887054443359375e+02,-2.343106746673583984e+00,7.562291717529296875e+01,3.135697174072265625e+01
3.589470088481903076e-01,1.000000000000000000e+00,4.328988075256347656e+00,-7.025300502777099609e+00,3.230031490325927734e+00,-2.044894866943359375e+02,-9.758286285400390625e+01,-1.770065612792968750e+02,4.033146500587463379e-01,-6.667444610595703125e+01,-1.826887054443359375e+02,-2.343178272247314453e+00,7.562291717529296875e+01,3.135697174072265625e+01
3.629760146141052246e-01,1.000000000000000000e+00,4.267870903015136719e+00,-6.971350669860839844e+00,3.239343643188476562e+00,-2.044381408691406250e+02,-9.750667572021484375e+01,-1.769458770751953125e+02,4.033146500587463379e-01,-6.667435455322265625e+01,-1.826887054443359375e+02,-2.343106746673583984e+00,7.562291717529296875e+01,3.135697174072265625e+01
3.690730035305023193e-01,1.000000000000000000e+00,4.206696987152099609e+00,-6.917400836944580078e+00,3.248553991317749023e+00,-2.043876190185546875e+02,-9.743118286132812500e+01,-1.768841552734375000e+02,4.033146500587463379e-01,-6.667453765869140625e+01,-1.826887054443359375e+02,-2.343106746673583984e+00,7.562291717529296875e+01,3.135697174072265625e+01
3.709560036659240723e-01,1.000000000000000000e+00,4.145838737487792969e+00,-6.863745212554931641e+00,3.257682800292968750e+00,-2.043364257812500000e+02,-9.735546875000000000e+01,-1.768237304687500000e+02,4.033146500587463379e-01,-6.667453765869140625e+01,-1.826887054443359375e+02,-2.343106746673583984e+00,7.562291717529296875e+01,3.135697174072265625e+01
3.779579997062683105e-01,1.000000000000000000e+00,4.084893703460693359e+00,-6.809998989105224609e+00,3.266811847686767578e+00,-2.042853240966796875e+02,-9.727960205078125000e+01,-1.767636413574218750e+02,4.033146500587463379e-01,-6.667444610595703125e+01,-1.826887054443359375e+02,-2.343106746673583984e+00,7.562291717529296875e+01,3.135697174072265625e+01
3.799790143966674805e-01,1.000000000000000000e+00,4.023777008056640625e+00,-6.756434440612792969e+00,3.276184797286987305e+00,-2.042346038818359375e+02,-9.720336151123046875e+01,-1.767024688720703125e+02,4.033146500587463379e-01,-6.667444610595703125e+01,-1.826887054443359375e+02,-2.343106746673583984e+00,7.562291717529296875e+01,3.135697174072265625e+01
3.830609917640686035e-01,1.000000000000000000e+00,3.962603092193603516e+00,-6.702755928039550781e+00,3.285516977310180664e+00,-2.041831970214843750e+02,-9.712738037109375000e+01,-1.766419219970703125e+02,4.033146500587463379e-01,-6.667444610595703125e+01,-1.826887054443359375e+02,-2.343106746673583984e+00,7.562299346923828125e+01,3.135697174072265625e+01
3.879190087318420410e-01,1.000000000000000000e+00,3.901371240615844727e+00,-6.648987293243408203e+00,3.294666528701782227e+00,-2.041325683593750000e+02,-9.705156707763671875e+01,-1.765812988281250000e+02,4.033146500587463379e-01,-6.667444610595703125e+01,-1.826887054443359375e+02,-2.343106746673583984e+00,7.562291717529296875e+01,3.135697174072265625e+01
3.909220099449157715e-01,1.000000000000000000e+00,3.840283393859863281e+00,-6.595467567443847656e+00,3.303795337677001953e+00,-2.040825347900390625e+02,-9.697543334960937500e+01,-1.765197143554687500e+02,4.033146500587463379e-01,-6.667444610595703125e+01,-1.826887054443359375e+02,-2.343106746673583984e+00,7.562299346923828125e+01,3.135697174072265625e+01
3.990490138530731201e-01,1.000000000000000000e+00,3.840283393859863281e+00,-6.595467567443847656e+00,3.303795337677001953e+00,-2.040825347900390625e+02,-9.697543334960937500e+01,-1.765197143554687500e+02,4.033146500587463379e-01,-6.667444610595703125e+01,-1.826887054443359375e+02,-2.343106746673583984e+00,7.562299346923828125e+01,3.135697174072265625e+01
4.017080068588256836e-01,1.000000000000000000e+00,3.717992067337036133e+00,-6.488405227661132812e+00,3.322114467620849609e+00,-2.039805603027343750e+02,-9.682348632812500000e+01,-1.763997497558593750e+02,4.033146500587463379e-01,-6.667444610595703125e+01,-1.826887054443359375e+02,-2.343106746673583984e+00,7.562291717529296875e+01,3.135697174072265625e+01
4.040110111236572266e-01,1.000000000000000000e+00,3.656961441040039062e+00,-6.434953689575195312e+00,3.331609249114990234e+00,-2.039300994873046875e+02,-9.674755859375000000e+01,-1.763384399414062500e+02,4.033146500587463379e-01,-6.667444610595703125e+01,-1.826887054443359375e+02,-2.343106746673583984e+00,7.562291717529296875e+01,3.135697174072265625e+01
4.069460034370422363e-01,1.000000000000000000e+00,3.595902204513549805e+00,-6.381546974182128906e+00,3.341084003448486328e+00,-2.038785247802734375e+02,-9.667089080810546875e+01,-1.762778167724609375e+02,4.033146500587463379e-01,-6.667444610595703125e+01,-1.826887054443359375e+02,-2.343106746673583984e+00,7.562291717529296875e+01,3.135697174072265625e+01
4.119589924812316895e-01,1.000000000000000000e+00,3.595902204513549805e+00,-6.381546974182128906e+00,3.341084003448486328e+00,-2.038785247802734375e+02,-9.667089080810546875e+01,-1.762778167724609375e+02,4.033146500587463379e-01,-6.667444610595703125e+01,-1.826887054443359375e+02,-2.343106746673583984e+00,7.562291717529296875e+01,3.135697174072265625e+01
4.149320125579833984e-01,1.000000000000000000e+00,3.473295211791992188e+00,-6.274145126342773438e+00,3.359565496444702148e+00,-2.037772827148437500e+02,-9.651941680908203125e+01,-1.761565551757812500e+02,4.033146500587463379e-01,-6.667444610595703125e+01,-1.826887054443359375e+02,-2.343106746673583984e+00,7.562291717529296875e+01,3.135697174072265625e+01
4.189639985561370850e-01,1.000000000000000000e+00,3.473295211791992188e+00,-6.274145126342773438e+00,3.359565496444702148e+00,-2.037772827148437500e+02,-9.651941680908203125e+01,-1.761565551757812500e+02,4.033146500587463379e-01,-6.667444610595703125e+01,-1.826887054443359375e+02,-2.343106746673583984e+00,7.562291717529296875e+01,3.135697174072265625e+01
4.237320125102996826e-01,1.000000000000000000e+00,3.412379503250122070e+00,-6.220535278320312500e+00,3.368572473526000977e+00,-2.037259216308593750e+02,-9.644381713867187500e+01,-1.760958557128906250e+02,4.033146500587463379e-01,-6.667444610595703125e+01,-1.826887054443359375e+02,-2.343106746673583984e+00,7.562291717529296875e+01,3.135697174072265625e+01
4.279330074787139893e-01,1.000000000000000000e+00,3.289829730987548828e+00,-6.112771511077880859e+00,3.386911869049072266e+00,-2.036242065429687500e+02,-9.629154205322265625e+01,-1.759739990234375000e+02,4.033146500587463379e-01,-6.667444610595703125e+01,-1.826887054443359375e+02,-2.343034982681274414e+00,7.562291717529296875e+01,3.135697174072265625e+01
4.309250116348266602e-01,1.000000000000000000e+00,3.228598117828369141e+00,-6.059048175811767578e+00,3.396223783493041992e+00,-2.035726928710937500e+02,-9.621610260009765625e+01,-1.759133605957031250e+02,4.033146500587463379e-01,-6.667444610595703125e+01,-1.826887054443359375e+02,-2.343106746673583984e+00,7.562291717529296875e+01,3.135697174072265625e+01
4.359520077705383301e-01,1.000000000000000000e+00,3.228598117828369141e+00,-6.059048175811767578e+00,3.396223783493041992e+00,-2.035726928710937500e+02,-9.621610260009765625e+01,-1.759133605957031250e+02,4.033146500587463379e-01,-6.667444610595703125e+01,-1.826887054443359375e+02,-2.343106746673583984e+00,7.562291717529296875e+01,3.135697174072265625e+01
4.389269948005676270e-01,1.000000000000000000e+00,3.105761766433715820e+00,-5.951668739318847656e+00,3.414766311645507812e+00,-2.034717712402343750e+02,-9.606350708007812500e+01,-1.757914886474609375e+02,4.033146500587463379e-01,-6.667444610595703125e+01,-1.826887054443359375e+02,-2.343106746673583984e+00,7.562291717529296875e+01,3.135697174072265625e+01
4.439980089664459229e-01,1.000000000000000000e+00,3.105761766433715820e+00,-5.951668739318847656e+00,3.414766311645507812e+00,-2.034717712402343750e+02,-9.606350708007812500e+01,-1.757914886474609375e+02,4.033146500587463379e-01,-6.667444610595703125e+01,-1.826887054443359375e+02,-2.343106746673583984e+00,7.562291717529296875e+01,3.135697174072265625e+01
4.481619894504547119e-01,1.000000000000000000e+00,2.982523441314697266e+00,-5.843837261199951172e+00,3.433085441589355469e+00,-2.033698577880859375e+02,-9.591236877441406250e+01,-1.756706390380859375e+02,4.033146500587463379e-01,-6.667444610595703125e+01,-1.826887054443359375e+02,-2.343178272247314453e+00,7.562291717529296875e+01,3.135697174072265625e+01
4.519599974155426025e-01,1.000000000000000000e+00,2.920976161956787109e+00,-5.790182113647460938e+00,3.442580223083496094e+00,-2.033187103271484375e+02,-9.583649444580078125e+01,-1.756094665527343750e+02,4.033146500587463379e-01,-6.667444610595703125e+01,-1.826887054443359375e+02,-2.343106746673583984e+00,7.562291717529296875e+01,3.135697174072265625e+01
4.549230039119720459e-01,1.000000000000000000e+00,2.859486103057861328e+00,-5.736367702484130859e+00,3.452095508575439453e+00,-2.032682495117187500e+02,-9.575971984863281250e+01,-1.755486297607421875e+02,4.033146500587463379e-01,-6.667444610595703125e+01,-1.826887054443359375e+02,-2.343106746673583984e+00,7.562291717529296875e+01,3.135697174072265625e+01
4.590300023555755615e-01,1.000000000000000000e+00,2.859486103057861328e+00,-5.736367702484130859e+00,3.452095508575439453e+00,-2.032682495117187500e+02,-9.575971984863281250e+01,-1.755486297607421875e+02,4.033146500587463379e-01,-6.667444610595703125e+01,-1.826887054443359375e+02,-2.343106746673583984e+00,7.562291717529296875e+01,3.135697174072265625e+01
4.629659950733184814e-01,1.000000000000000000e+00,2.797967433929443359e+00,-5.682802677154541016e+00,3.461610794067382812e+00,-2.032179412841796875e+02,-9.568384552001953125e+01,-1.754884185791015625e+02,4.033146500587463379e-01,-6.667444610595703125e+01,-1.826887054443359375e+02,-2.343106746673583984e+00,7.562291717529296875e+01,3.135697174072265625e+01
4.679560065269470215e-01,1.000000000000000000e+00,2.736592054367065430e+00,-5.629215240478515625e+00,3.470963478088378906e+00,-2.031669006347656250e+02,-9.560856628417968750e+01,-1.754268341064453125e+02,4.033146500587463379e-01,-6.667453765869140625e+01,-1.826887054443359375e+02,-2.343106746673583984e+00,7.562291717529296875e+01,3.135697174072265625e+01
4.720129966735839844e-01,1.000000000000000000e+00,2.613927841186523438e+00,-5.521451473236083984e+00,3.489282369613647461e+00,-2.030656585693359375e+02,-9.545634460449218750e+01,-1.753070831298828125e+02,4.033146500587463379e-01,-6.667444610595703125e+01,-1.826887054443359375e+02,-2.343106746673583984e+00,7.562291717529296875e+01,3.135697174072265625e+01
4.749619960784912109e-01,1.000000000000000000e+00,2.552466630935668945e+00,-5.467569828033447266e+00,3.498533248901367188e+00,-2.030146179199218750e+02,-9.538053131103515625e+01,-1.752461090087890625e+02,4.033146500587463379e-01,-6.667444610595703125e+01,-1.826887054443359375e+02,-2.343106746673583984e+00,7.562291717529296875e+01,3.135697174072265625e+01
4.790369868278503418e-01,1.000000000000000000e+00,2.552466630935668945e+00,-5.467569828033447266e+00,3.498533248901367188e+00,-2.030146179199218750e+02,-9.538053131103515625e+01,-1.752461090087890625e+02,4.033146500587463379e-01,-6.667444610595703125e+01,-1.826887054443359375e+02,-2.343106746673583984e+00,7.562291717529296875e+01,3.135697174072265625e+01
4.829719960689544678e-01,1.000000000000000000e+00,2.491148948669433594e+00,-5.413778305053710938e+00,3.507804632186889648e+00,-2.029638977050781250e+02,-9.530519866943359375e+01,-1.751851501464843750e+02,4.033146500587463379e-01,-6.667444610595703125e+01,-1.826887054443359375e+02,-2.343106746673583984e+00,7.562291717529296875e+01,3.135697174072265625e+01
4.880549907684326172e-01,1.000000000000000000e+00,2.368829250335693359e+00,-5.306376934051513672e+00,3.526082754135131836e+00,-2.028619232177734375e+02,-9.515282440185546875e+01,-1.750642242431640625e+02,4.033146500587463379e-01,-6.667444610595703125e+01,-1.826887054443359375e+02,-2.343178272247314453e+00,7.562291717529296875e+01,3.135697174072265625e+01
4.910590052604675293e-01,1.000000000000000000e+00,2.307769775390625000e+00,-5.252856731414794922e+00,3.535110235214233398e+00,-2.028110961914062500e+02,-9.507706451416015625e+01,-1.750032653808593750e+02,4.033146500587463379e-01,-6.667444610595703125e+01,-1.826887054443359375e+02,-2.343178272247314453e+00,7.562291717529296875e+01,3.135697174072265625e+01
4.956620037555694580e-01,1.000000000000000000e+00,2.307769775390625000e+00,-5.252856731414794922e+00,3.535110235214233398e+00,-2.028110961914062500e+02,-9.507706451416015625e+01,-1.750032653808593750e+02,4.033146500587463379e-01,-6.667444610595703125e+01,-1.826887054443359375e+02,-2.343178272247314453e+00,7.562291717529296875e+01,3.135697174072265625e+01
5.009469985961914062e-01,1.000000000000000000e+00,2.246710300445556641e+00,-5.199065685272216797e+00,3.544340848922729492e+00,-2.027601470947265625e+02,-9.500182342529296875e+01,-1.749437103271484375e+02,4.033146500587463379e-01,-6.667435455322265625e+01,-1.826887054443359375e+02,-2.343178272247314453e+00,7.562291717529296875e+01,3.135697174072265625e+01
5.038959980010986328e-01,1.000000000000000000e+00,2.124218225479125977e+00,-5.092048645019531250e+00,3.563086986541748047e+00,-2.026586914062500000e+02,-9.484998321533203125e+01,-1.748213043212890625e+02,4.033146500587463379e-01,-6.667444610595703125e+01,-1.826887054443359375e+02,-2.343106746673583984e+00,7.562277984619140625e+01,3.135697174072265625e+01
5.100319981575012207e-01,1.000000000000000000e+00,2.124218225479125977e+00,-5.092048645019531250e+00,3.563086986541748047e+00,-2.026586914062500000e+02,-9.484998321533203125e+01,-1.748213043212890625e+02,4.033146500587463379e-01,-6.667444610595703125e+01,-1.826887054443359375e+02,-2.343106746673583984e+00,7.562277984619140625e+01,3.135697174072265625e+01
5.115439891815185547e-01,1.000000000000000000e+00,2.001726388931274414e+00,-4.985258102416992188e+00,3.581710577011108398e+00,-2.025566101074218750e+02,-9.469873046875000000e+01,-1.746997833251953125e+02,4.033146500587463379e-01,-6.667444610595703125e+01,-1.826887054443359375e+02,-2.343034982681274414e+00,7.562291717529296875e+01,3.135697174072265625e+01
5.159689784049987793e-01,1.000000000000000000e+00,2.001726388931274414e+00,-4.985258102416992188e+00,3.581710577011108398e+00,-2.025566101074218750e+02,-9.469873046875000000e+01,-1.746997833251953125e+02,4.033146500587463379e-01,-6.667444610595703125e+01,-1.826887054443359375e+02,-2.343034982681274414e+00,7.562291717529296875e+01,3.135697174072265625e+01
5.229510068893432617e-01,1.000000000000000000e+00,1.940695643424987793e+00,-4.931783676147460938e+00,3.590697526931762695e+00,-2.025062103271484375e+02,-9.462269592285156250e+01,-1.746388854980468750e+02,4.033146500587463379e-01,-6.667435455322265625e+01,-1.826887054443359375e+02,-2.343034982681274414e+00,7.562291717529296875e+01,3.135697174072265625e+01
5.243729948997497559e-01,1.000000000000000000e+00,1.818777799606323242e+00,-4.824811935424804688e+00,3.608955383300781250e+00,-2.024045410156250000e+02,-9.447127532958984375e+01,-1.745181579589843750e+02,4.033146500587463379e-01,-6.667444610595703125e+01,-1.826887054443359375e+02,-2.343106746673583984e+00,7.562299346923828125e+01,3.135697174072265625e+01
5.280020236968994141e-01,1.000000000000000000e+00,1.757804632186889648e+00,-4.771246910095214844e+00,3.618247032165527344e+00,-2.023540344238281250e+02,-9.439546203613281250e+01,-1.744573364257812500e+02,4.033146500587463379e-01,-6.667435455322265625e+01,-1.826887054443359375e+02,-2.343106746673583984e+00,7.562291717529296875e+01,3.135697174072265625e+01
5.330489873886108398e-01,1.000000000000000000e+00,1.757804632186889648e+00,-4.771246910095214844e+00,3.618247032165527344e+00,-2.023540344238281250e+02,-9.439546203613281250e+01,-1.744573364257812500e+02,4.033146500587463379e-01,-6.667435455322265625e+01,-1.826887054443359375e+02,-2.343106746673583984e+00,7.562291717529296875e+01,3.135697174072265625e+01
5.356180071830749512e-01,1.000000000000000000e+00,1.635829210281372070e+00,-4.664207935333251953e+00,3.636647224426269531e+00,-2.022524261474609375e+02,-9.424430847167968750e+01,-1.743361358642578125e+02,4.033146500587463379e-01,-6.667444610595703125e+01,-1.826887054443359375e+02,-2.343106746673583984e+00,7.562291717529296875e+01,3.135697174072265625e+01
5.400459766387939453e-01,1.000000000000000000e+00,1.635829210281372070e+00,-4.664207935333251953e+00,3.636647224426269531e+00,-2.022524261474609375e+02,-9.424430847167968750e+01,-1.743361358642578125e+02,4.033146500587463379e-01,-6.667444610595703125e+01,-1.826887054443359375e+02,-2.343106746673583984e+00,7.562291717529296875e+01,3.135697174072265625e+01
5.468990206718444824e-01,1.000000000000000000e+00,1.574884772300720215e+00,-4.610620021820068359e+00,3.645674467086791992e+00,-2.022017517089843750e+02,-9.416908264160156250e+01,-1.742750396728515625e+02,4.033146500587463379e-01,-6.667444610595703125e+01,-1.826887054443359375e+02,-2.343106746673583984e+00,7.562291717529296875e+01,3.135697174072265625e+01
5.482860207557678223e-01,1.000000000000000000e+00,1.452909588813781738e+00,-4.503422260284423828e+00,3.664156198501586914e+00,-2.020999908447265625e+02,-9.401702880859375000e+01,-1.741554107666015625e+02,4.033146500587463379e-01,-6.667444610595703125e+01,-1.826887054443359375e+02,-2.343178272247314453e+00,7.562291717529296875e+01,3.135697174072265625e+01
5.519509911537170410e-01,1.000000000000000000e+00,1.452909588813781738e+00,-4.503422260284423828e+00,3.664156198501586914e+00,-2.020999908447265625e+02,-9.401702880859375000e+01,-1.741554107666015625e+02,4.033146500587463379e-01,-6.667444610595703125e+01,-1.826887054443359375e+02,-2.343178272247314453e+00,7.562291717529296875e+01,3.135697174072265625e+01
5.560550093650817871e-01,1.000000000000000000e+00,1.391936182975769043e+00,-4.449789047241210938e+00,3.673589944839477539e+00,-2.020496673583984375e+02,-9.394168853759765625e+01,-1.740943756103515625e+02,4.033146500587463379e-01,-6.667444610595703125e+01,-1.826887054443359375e+02,-2.343106746673583984e+00,7.562291717529296875e+01,3.135697174072265625e+01
5.590549707412719727e-01,1.000000000000000000e+00,1.330934166908264160e+00,-4.396156311035156250e+00,3.682922601699829102e+00,-2.019979553222656250e+02,-9.386662292480468750e+01,-1.740342254638671875e+02,4.033146500587463379e-01,-6.667444610595703125e+01,-1.826887054443359375e+02,-2.343106746673583984e+00,7.562299346923828125e+01,3.135697174072265625e+01
5.635430216789245605e-01,1.000000000000000000e+00,1.208614468574523926e+00,-4.288913249969482422e+00,3.701282024383544922e+00,-2.018964538574218750e+02,-9.371472167968750000e+01,-1.739127655029296875e+02,4.033146500587463379e-01,-6.667453765869140625e+01,-1.826887054443359375e+02,-2.343106746673583984e+00,7.562291717529296875e+01,3.135697174072265625e+01
5.674759745597839355e-01,1.000000000000000000e+00,1.208614468574523926e+00,-4.288913249969482422e+00,3.701282024383544922e+00,-2.018964538574218750e+02,-9.371472167968750000e+01,-1.739127655029296875e+02,4.033146500587463379e-01,-6.667453765869140625e+01,-1.826887054443359375e+02,-2.343106746673583984e+00,7.562291717529296875e+01,3.135697174072265625e+01
5.719990134239196777e-01,1.000000000000000000e+00,1.147382736206054688e+00,-4.235280036926269531e+00,3.710309505462646484e+00,-2.018451995849609375e+02,-9.363901519775390625e+01,-1.738528747558593750e+02,4.033146500587463379e-01,-6.667444610595703125e+01,-1.826887054443359375e+02,-2.343106746673583984e+00,7.562277984619140625e+01,3.135697174072265625e+01
5.759580135345458984e-01,1.000000000000000000e+00,1.086266040802001953e+00,-4.181782722473144531e+00,3.719479084014892578e+00,-2.017948913574218750e+02,-9.356362915039062500e+01,-1.737925262451171875e+02,4.033146500587463379e-01,-6.667444610595703125e+01,-1.826887054443359375e+02,-2.343178272247314453e+00,7.562291717529296875e+01,3.135697174072265625e+01
5.789870023727416992e-01,1.000000000000000000e+00,1.025063037872314453e+00,-4.128263473510742188e+00,3.728709697723388672e+00,-2.017441711425781250e+02,-9.348770141601562500e+01,-1.737310180664062500e+02,4.033146500587463379e-01,-6.667444610595703125e+01,-1.826887054443359375e+02,-2.343106746673583984e+00,7.562291717529296875e+01,3.135697174072265625e+01
5.831329822540283203e-01,1.000000000000000000e+00,9.638027548789978027e-01,-4.074358463287353516e+00,3.737960577011108398e+00,-2.016930847167968750e+02,-9.341199493408203125e+01,-1.736709899902343750e+02,4.033146500587463379e-01,-6.667444610595703125e+01,-1.826887054443359375e+02,-2.343106746673583984e+00,7.562277984619140625e+01,3.135697174072265625e+01
5.870689749717712402e-01,1.000000000000000000e+00,9.027146100997924805e-01,-4.020612716674804688e+00,3.747110128402709961e+00,-2.016425170898437500e+02,-9.333622741699218750e+01,-1.736106414794921875e+02,4.033146500587463379e-01,-6.667444610595703125e+01,-1.826887054443359375e+02,-2.343178272247314453e+00,7.562291717529296875e+01,3.135697174072265625e+01
5.917029976844787598e-01,1.000000000000000000e+00,8.416839838027954102e-01,-3.966731071472167969e+00,3.756218671798706055e+00,-2.015912017822265625e+02,-9.326062774658203125e+01,-1.735493316650390625e+02,4.033146500587463379e-01,-6.667453765869140625e+01,-1.826887054443359375e+02,-2.343106746673583984e+00,7.562291717529296875e+01,3.135697174072265625e+01
5.969370007514953613e-01,1.000000000000000000e+00,7.804236412048339844e-01,-3.913165569305419922e+00,3.765326976776123047e+00,-2.015409088134765625e+02,-9.318465423583984375e+01,-1.734891204833984375e+02,4.033146500587463379e-01,-6.667444610595703125e+01,-1.826887054443359375e+02,-2.343178272247314453e+00,7.562291717529296875e+01,3.135697174072265625e+01
5.995780229568481445e-01,1.000000000000000000e+00,6.582761406898498535e-01,-3.805719137191772461e+00,3.784194946289062500e+00,-2.014398803710937500e+02,-9.303371429443359375e+01,-1.733683319091796875e+02,4.033146500587463379e-01,-6.667435455322265625e+01,-1.826887054443359375e+02,-2.343178272247314453e+00,7.562299346923828125e+01,3.135697174072265625e+01
6.040220260620117188e-01,1.000000000000000000e+00,6.582761406898498535e-01,-3.805719137191772461e+00,3.784194946289062500e+00,-2.014398803710937500e+02,-9.303371429443359375e+01,-1.733683319091796875e+02,4.033146500587463379e-01,-6.667435455322265625e+01,-1.826887054443359375e+02,-2.343178272247314453e+00,7.562299346923828125e+01,3.135697174072265625e+01
6.079450249671936035e-01,1.000000000000000000e+00,5.972741246223449707e-01,-3.752153873443603516e+00,3.793568134307861328e+00,-2.013890380859375000e+02,-9.295806121826171875e+01,-1.733079681396484375e+02,4.033146500587463379e-01,-6.667444610595703125e+01,-1.826887054443359375e+02,-2.343106746673583984e+00,7.562291717529296875e+01,3.135697174072265625e+01
6.119660139083862305e-01,1.000000000000000000e+00,5.362147092819213867e-01,-3.698362588882446289e+00,3.802818775177001953e+00,-2.013385314941406250e+02,-9.288171386718750000e+01,-1.732482299804687500e+02,4.033146500587463379e-01,-6.667444610595703125e+01,-1.826887054443359375e+02,-2.343106746673583984e+00,7.562277984619140625e+01,3.135675048828125000e+01
6.166269779205322266e-01,1.000000000000000000e+00,4.752701818943023682e-01,-3.644933462142944336e+00,3.811927795410156250e+00,-2.012874450683593750e+02,-9.280621337890625000e+01,-1.731865081787109375e+02,4.033146500587463379e-01,-6.667444610595703125e+01,-1.826887054443359375e+02,-2.343106746673583984e+00,7.562291717529296875e+01,3.135697174072265625e+01
6.209719777107238770e-01,1.000000000000000000e+00,4.142394661903381348e-01,-3.591390848159790039e+00,3.821016073226928711e+00,-2.012369842529296875e+02,-9.273072052001953125e+01,-1.731263580322265625e+02,4.033146500587463379e-01,-6.667444610595703125e+01,-1.826887054443359375e+02,-2.343106746673583984e+00,7.562291717529296875e+01,3.135697174072265625e+01
6.237990260124206543e-01,1.000000000000000000e+00,2.921206951141357422e-01,-3.484464645385742188e+00,3.839517831802368164e+00,-2.011353759765625000e+02,-9.257844543457031250e+01,-1.730062561035156250e+02,4.033146500587463379e-01,-6.667435455322265625e+01,-1.826887054443359375e+02,-2.343106746673583984e+00,7.562291717529296875e+01,3.135697174072265625e+01
6.280239820480346680e-01,1.000000000000000000e+00,2.921206951141357422e-01,-3.484464645385742188e+00,3.839517831802368164e+00,-2.011353759765625000e+02,-9.257844543457031250e+01,-1.730062561035156250e+02,4.033146500587463379e-01,-6.667435455322265625e+01,-1.826887054443359375e+02,-2.343106746673583984e+00,7.562291717529296875e+01,3.135697174072265625e+01
6.319640278816223145e-01,1.000000000000000000e+00,2.308890521526336670e-01,-3.431080579757690430e+00,3.848524808883666992e+00,-2.010846405029296875e+02,-9.250247192382812500e+01,-1.729458312988281250e+02,4.033146500587463379e-01,-6.667444610595703125e+01,-1.826887054443359375e+02,-2.343178272247314453e+00,7.562291717529296875e+01,3.135697174072265625e+01
6.359519958496093750e-01,1.000000000000000000e+00,1.696861088275909424e-01,-3.377764463424682617e+00,3.857532024383544922e+00,-2.010339202880859375e+02,-9.242772674560546875e+01,-1.728858184814453125e+02,4.033146500587463379e-01,-6.667444610595703125e+01,-1.826887054443359375e+02,-2.343106746673583984e+00,7.562291717529296875e+01,3.135675048828125000e+01
6.408259868621826172e-01,1.000000000000000000e+00,1.086267158389091492e-01,-3.324244737625122070e+00,3.866437435150146484e+00,-2.009830322265625000e+02,-9.235206604003906250e+01,-1.728249053955078125e+02,4.033146500587463379e-01,-6.667453765869140625e+01,-1.826885528564453125e+02,-2.343178272247314453e+00,7.562291717529296875e+01,3.135697174072265625e+01
6.439530253410339355e-01,1.000000000000000000e+00,4.779697209596633911e-02,-3.270679712295532227e+00,3.875545740127563477e+00,-2.009325714111328125e+02,-9.227545166015625000e+01,-1.727642211914062500e+02,4.033146500587463379e-01,-6.667444610595703125e+01,-1.826887054443359375e+02,-2.343106746673583984e+00,7.562291717529296875e+01,3.135697174072265625e+01
6.481140255928039551e-01,1.000000000000000000e+00,-1.329113263636827469e-02,-3.217024326324462891e+00,3.885040760040283203e+00,-2.008816375732421875e+02,-9.219974517822265625e+01,-1.727044067382812500e+02,4.033146500587463379e-01,-6.667444610595703125e+01,-1.826887054443359375e+02,-2.343178272247314453e+00,7.562291717529296875e+01,3.135697174072265625e+01
6.513810157775878906e-01,1.000000000000000000e+00,-7.423570007085800171e-02,-3.163527011871337891e+00,3.894291639328002930e+00,-2.008308563232421875e+02,-9.212477874755859375e+01,-1.726425476074218750e+02,4.033146500587463379e-01,-6.667444610595703125e+01,-1.826887054443359375e+02,-2.343106746673583984e+00,7.562299346923828125e+01,3.135697174072265625e+01
6.554570198059082031e-01,1.000000000000000000e+00,-1.351515650749206543e-01,-3.110120534896850586e+00,3.903603792190551758e+00,-2.007805633544921875e+02,-9.204928588867187500e+01,-1.725821380615234375e+02,4.033146500587463379e-01,-6.667444610595703125e+01,-1.826887054443359375e+02,-2.343034982681274414e+00,7.562277984619140625e+01,3.135697174072265625e+01
6.599559783935546875e-01,1.000000000000000000e+00,-1.962109655141830444e-01,-3.056804418563842773e+00,3.912834405899047852e+00,-2.007293090820312500e+02,-9.197293853759765625e+01,-1.725226593017578125e+02,4.033146500587463379e-01,-6.667444610595703125e+01,-1.826887054443359375e+02,-2.343178272247314453e+00,7.562299346923828125e+01,3.135697174072265625e+01
6.650999784469604492e-01,1.000000000000000000e+00,-2.571555376052856445e-01,-3.003262042999267578e+00,3.921881914138793945e+00,-2.006787872314453125e+02,-9.189733123779296875e+01,-1.724611511230468750e+02,4.033146500587463379e-01,-6.667444610595703125e+01,-1.826887054443359375e+02,-2.343106746673583984e+00,7.562291717529296875e+01,3.135697174072265625e+01
6.679930090904235840e-01,1.000000000000000000e+00,-3.180713951587677002e-01,-2.949697017669677734e+00,3.930929660797119141e+00,-2.006286468505859375e+02,-9.182195281982421875e+01,-1.724001770019531250e+02,4.033146500587463379e-01,-6.667453765869140625e+01,-1.826887054443359375e+02,-2.343106746673583984e+00,7.562299346923828125e+01,3.135697174072265625e+01
6.721990108489990234e-01,1.000000000000000000e+00,-3.789298534393310547e-01,-2.896086692810058594e+00,3.940160274505615234e+00,-2.005779724121093750e+02,-9.174634552001953125e+01,-1.723406982421875000e+02,4.033146500587463379e-01,-6.667444610595703125e+01,-1.826887054443359375e+02,-2.343106746673583984e+00,7.562291717529296875e+01,3.135697174072265625e+01
6.755939722061157227e-01,1.000000000000000000e+00,-4.397882819175720215e-01,-2.842680215835571289e+00,3.949431896209716797e+00,-2.005275573730468750e+02,-9.167031097412109375e+01,-1.722801513671875000e+02,4.033146500587463379e-01,-6.667444610595703125e+01,-1.826887054443359375e+02,-2.343106746673583984e+00,7.562299346923828125e+01,3.135697174072265625e+01
6.800199747085571289e-01,1.000000000000000000e+00,-5.008764266967773438e-01,-2.789250850677490234e+00,3.958601474761962891e+00,-2.004772491455078125e+02,-9.159487152099609375e+01,-1.722195129394531250e+02,4.033146500587463379e-01,-6.667453765869140625e+01,-1.826887054443359375e+02,-2.343034982681274414e+00,7.562291717529296875e+01,3.135697174072265625e+01
6.839600205421447754e-01,1.000000000000000000e+00,-5.618209242820739746e-01,-2.735889434814453125e+00,3.967750310897827148e+00,-2.004255828857421875e+02,-9.151964569091796875e+01,-1.721595001220703125e+02,4.033146500587463379e-01,-6.667444610595703125e+01,-1.826887054443359375e+02,-2.343106746673583984e+00,7.562291717529296875e+01,3.135697174072265625e+01
6.885539889335632324e-01,1.000000000000000000e+00,-6.230812668800354004e-01,-2.682528257369995117e+00,3.976798295974731445e+00,-2.003756561279296875e+02,-9.144383239746093750e+01,-1.720988006591796875e+02,4.033146500587463379e-01,-6.667444610595703125e+01,-1.826887054443359375e+02,-2.343106746673583984e+00,7.562277984619140625e+01,3.135697174072265625e+01
6.930170059204101562e-01,1.000000000000000000e+00,-6.843129396438598633e-01,-2.628895282745361328e+00,3.985845804214477539e+00,-2.003251342773437500e+02,-9.136795806884765625e+01,-1.720384368896484375e+02,4.033146500587463379e-01,-6.667444610595703125e+01,-1.826887054443359375e+02,-2.343178272247314453e+00,7.562299346923828125e+01,3.135697174072265625e+01
6.961129903793334961e-01,1.000000000000000000e+00,-7.455446124076843262e-01,-2.575284957885742188e+00,3.995157957077026367e+00,-2.002743530273437500e+02,-9.129277801513671875e+01,-1.719791717529296875e+02,4.033146500587463379e-01,-6.667444610595703125e+01,-1.826887054443359375e+02,-2.343178272247314453e+00,7.562299346923828125e+01,3.135697174072265625e+01
6.998149752616882324e-01,1.000000000000000000e+00,-8.068049550056457520e-01,-2.521629571914672852e+00,4.004611968994140625e+00,-2.002235870361328125e+02,-9.121749877929687500e+01,-1.719180603027343750e+02,4.033146500587463379e-01,-6.667444610595703125e+01,-1.826887054443359375e+02,-2.343106746673583984e+00,7.562291717529296875e+01,3.135697174072265625e+01
7.041090130805969238e-01,1.000000000000000000e+00,-8.679504394531250000e-01,-2.467928647994995117e+00,4.014046192169189453e+00,-2.001727600097656250e+02,-9.114216613769531250e+01,-1.718571624755859375e+02,4.033146500587463379e-01,-6.667444610595703125e+01,-1.826887054443359375e+02,-2.343178272247314453e+00,7.562291717529296875e+01,3.135697174072265625e+01
7.080299854278564453e-01,1.000000000000000000e+00,-9.292107224464416504e-01,-2.414363384246826172e+00,4.023276805877685547e+00,-2.001215057373046875e+02,-9.106683349609375000e+01,-1.717976837158203125e+02,4.033146500587463379e-01,-6.667444610595703125e+01,-1.826887054443359375e+02,-2.343106746673583984e+00,7.562299346923828125e+01,3.135675048828125000e+01
7.127209901809692383e-01,1.000000000000000000e+00,-9.901840686798095703e-01,-2.360821247100830078e+00,4.032283782958984375e+00,-2.000715026855468750e+02,-9.099170684814453125e+01,-1.717369995117187500e+02,4.033146500587463379e-01,-6.667453765869140625e+01,-1.826887054443359375e+02,-2.343178272247314453e+00,7.562291717529296875e+01,3.135697174072265625e+01
7.165840268135070801e-01,1.000000000000000000e+00,-1.112101912498474121e+00,-2.253804206848144531e+00,4.050297737121582031e+00,-1.999701690673828125e+02,-9.084033966064453125e+01,-1.716170959472656250e+02,4.033146500587463379e-01,-6.667444610595703125e+01,-1.826887054443359375e+02,-2.343106746673583984e+00,7.562277984619140625e+01,3.135697174072265625e+01
7.202079892158508301e-01,1.000000000000000000e+00,-1.112101912498474121e+00,-2.253804206848144531e+00,4.050297737121582031e+00,-1.999701690673828125e+02,-9.084033966064453125e+01,-1.716170959472656250e+02,4.033146500587463379e-01,-6.667444610595703125e+01,-1.826887054443359375e+02,-2.343106746673583984e+00,7.562277984619140625e+01,3.135697174072265625e+01
7.241370081901550293e-01,1.000000000000000000e+00,-1.173046469688415527e+00,-2.200103521347045898e+00,4.059507846832275391e+00,-1.999195404052734375e+02,-9.076495361328125000e+01,-1.715561981201171875e+02,4.033146500587463379e-01,-6.667444610595703125e+01,-1.826887054443359375e+02,-2.343178272247314453e+00,7.562291717529296875e+01,3.135697174072265625e+01
7.280189990997314453e-01,1.000000000000000000e+00,-1.234105944633483887e+00,-2.146651744842529297e+00,4.068717956542968750e+00,-1.998683929443359375e+02,-9.069025421142578125e+01,-1.714946136474609375e+02,4.033146500587463379e-01,-6.667444610595703125e+01,-1.826887054443359375e+02,-2.343106746673583984e+00,7.562291717529296875e+01,3.135697174072265625e+01
7.321019768714904785e-01,1.000000000000000000e+00,-1.295050382614135742e+00,-2.093063831329345703e+00,4.077949047088623047e+00,-1.998177795410156250e+02,-9.061449432373046875e+01,-1.714349975585937500e+02,4.033146500587463379e-01,-6.667444610595703125e+01,-1.826887054443359375e+02,-2.343178272247314453e+00,7.562299346923828125e+01,3.135697174072265625e+01
7.367320060729980469e-01,1.000000000000000000e+00,-1.355822801589965820e+00,-2.039680004119873047e+00,4.087017059326171875e+00,-1.997681121826171875e+02,-9.053852081298828125e+01,-1.713745117187500000e+02,4.033146500587463379e-01,-6.667453765869140625e+01,-1.826885528564453125e+02,-2.343106746673583984e+00,7.562291717529296875e+01,3.135697174072265625e+01
7.403460144996643066e-01,1.000000000000000000e+00,-1.416623830795288086e+00,-1.986341357231140137e+00,4.096024036407470703e+00,-1.997171173095703125e+02,-9.046345520019531250e+01,-1.713132019042968750e+02,4.033146500587463379e-01,-6.667444610595703125e+01,-1.826887054443359375e+02,-2.343178272247314453e+00,7.562291717529296875e+01,3.135697174072265625e+01
7.441669702529907227e-01,1.000000000000000000e+00,-1.477482318878173828e+00,-1.932957172393798828e+00,4.105295181274414062e+00,-1.996664428710937500e+02,-9.038848876953125000e+01,-1.712536621093750000e+02,4.033146500587463379e-01,-6.667444610595703125e+01,-1.826887054443359375e+02,-2.343106746673583984e+00,7.562291717529296875e+01,3.135697174072265625e+01
7.469030022621154785e-01,1.000000000000000000e+00,-1.538599014282226562e+00,-1.879618525505065918e+00,4.114708900451660156e+00,-1.996161804199218750e+02,-9.031304168701171875e+01,-1.711933135986328125e+02,4.033146500587463379e-01,-6.667444610595703125e+01,-1.826887054443359375e+02,-2.343034982681274414e+00,7.562291717529296875e+01,3.135697174072265625e+01
7.509679794311523438e-01,1.000000000000000000e+00,-1.599687218666076660e+00,-1.826098918914794922e+00,4.124122619628906250e+00,-1.995655822753906250e+02,-9.023733520507812500e+01,-1.711321411132812500e+02,4.033146500587463379e-01,-6.667444610595703125e+01,-1.826887054443359375e+02,-2.343106746673583984e+00,7.562299346923828125e+01,3.135697174072265625e+01
7.563329935073852539e-01,1.000000000000000000e+00,-1.660574316978454590e+00,-1.772669553756713867e+00,4.133434772491455078e+00,-1.995152587890625000e+02,-9.016168212890625000e+01,-1.710722503662109375e+02,4.033146500587463379e-01,-6.667444610595703125e+01,-1.826887054443359375e+02,-2.343106746673583984e+00,7.562291717529296875e+01,3.135675048828125000e+01
7.589100003242492676e-01,1.000000000000000000e+00,-1.721432805061340332e+00,-1.719127178192138672e+00,4.142583847045898438e+00,-1.994645996093750000e+02,-9.008655548095703125e+01,-1.710114288330078125e+02,4.033146500587463379e-01,-6.667444610595703125e+01,-1.826887054443359375e+02,-2.343178272247314453e+00,7.562291717529296875e+01,3.135697174072265625e+01
7.629709839820861816e-01,1.000000000000000000e+00,-1.782233834266662598e+00,-1.665471673011779785e+00,4.151529788970947266e+00,-1.994131469726562500e+02,-9.001106262207031250e+01,-1.709506683349609375e+02,4.033146500587463379e-01,-6.667444610595703125e+01,-1.826887054443359375e+02,-2.343106746673583984e+00,7.562291717529296875e+01,3.135697174072265625e+01
7.685179710388183594e-01,1.000000000000000000e+00,-1.842919945716857910e+00,-1.612019777297973633e+00,4.160658836364746094e+00,-1.993626251220703125e+02,-8.993524932861328125e+01,-1.708912506103515625e+02,4.033146500587463379e-01,-6.667435455322265625e+01,-1.826887054443359375e+02,-2.343106746673583984e+00,7.562299346923828125e+01,3.135697174072265625e+01
7.724530100822448730e-01,1.000000000000000000e+00,-1.903606176376342773e+00,-1.558748960494995117e+00,4.169787883758544922e+00,-1.993122558593750000e+02,-8.985990905761718750e+01,-1.708312225341796875e+02,4.033146500587463379e-01,-6.667444610595703125e+01,-1.826887054443359375e+02,-2.343106746673583984e+00,7.562291717529296875e+01,3.135697174072265625e+01
7.750409841537475586e-01,1.000000000000000000e+00,-1.964263796806335449e+00,-1.505342364311218262e+00,4.178977966308593750e+00,-1.992613372802734375e+02,-8.978425598144531250e+01,-1.707702636718750000e+02,4.033146500587463379e-01,-6.667444610595703125e+01,-1.826887054443359375e+02,-2.343178272247314453e+00,7.562291717529296875e+01,3.135697174072265625e+01
7.789289951324462891e-01,1.000000000000000000e+00,-2.024806499481201172e+00,-1.451913118362426758e+00,4.188107013702392578e+00,-1.992107086181640625e+02,-8.970875549316406250e+01,-1.707105865478515625e+02,4.033146500587463379e-01,-6.667444610595703125e+01,-1.826887054443359375e+02,-2.343106746673583984e+00,7.562291717529296875e+01,3.135697174072265625e+01
7.829059958457946777e-01,1.000000000000000000e+00,-2.085521221160888672e+00,-1.398325443267822266e+00,4.197113513946533203e+00,-1.991598205566406250e+02,-8.963246154785156250e+01,-1.706500244140625000e+02,4.033146500587463379e-01,-6.667444610595703125e+01,-1.826887054443359375e+02,-2.343106746673583984e+00,7.562291717529296875e+01,3.135697174072265625e+01
7.870209813117980957e-01,1.000000000000000000e+00,-2.146236181259155273e+00,-1.344805717468261719e+00,4.206039428710937500e+00,-1.991090393066406250e+02,-8.955760955810546875e+01,-1.705887145996093750e+02,4.033146500587463379e-01,-6.667444610595703125e+01,-1.826887054443359375e+02,-2.343106746673583984e+00,7.562291717529296875e+01,3.135697174072265625e+01
7.909160256385803223e-01,1.000000000000000000e+00,-2.206979990005493164e+00,-1.291444301605224609e+00,4.215371608734130859e+00,-1.990590667724609375e+02,-8.948227691650390625e+01,-1.705292358398437500e+02,4.033146500587463379e-01,-6.667444610595703125e+01,-1.826887054443359375e+02,-2.343106746673583984e+00,7.562291717529296875e+01,3.135697174072265625e+01
7.949159741401672363e-01,1.000000000000000000e+00,-2.267580032348632812e+00,-1.238196134567260742e+00,4.224825859069824219e+00,-1.990080718994140625e+02,-8.940650939941406250e+01,-1.704693603515625000e+02,4.033146500587463379e-01,-6.667453765869140625e+01,-1.826887054443359375e+02,-2.343178272247314453e+00,7.562291717529296875e+01,3.135697174072265625e+01
7.989670038223266602e-01,1.000000000000000000e+00,-2.328524351119995117e+00,-1.185015797615051270e+00,4.234138011932373047e+00,-1.989574584960937500e+02,-8.933010864257812500e+01,-1.704079284667968750e+02,4.033146500587463379e-01,-6.667444610595703125e+01,-1.826887054443359375e+02,-2.343106746673583984e+00,7.562291717529296875e+01,3.135697174072265625e+01
8.029770255088806152e-01,1.000000000000000000e+00,-2.389239549636840820e+00,-1.131405472755432129e+00,4.243531227111816406e+00,-1.989073028564453125e+02,-8.925519561767578125e+01,-1.703472900390625000e+02,4.033146500587463379e-01,-6.667435455322265625e+01,-1.826887054443359375e+02,-2.343178272247314453e+00,7.562291717529296875e+01,3.135697174072265625e+01
8.068990111351013184e-01,1.000000000000000000e+00,-2.450155258178710938e+00,-1.077908396720886230e+00,4.252660274505615234e+00,-1.988564758300781250e+02,-8.917975616455078125e+01,-1.702872009277343750e+02,4.033146500587463379e-01,-6.667444610595703125e+01,-1.826887054443359375e+02,-2.343178272247314453e+00,7.562291717529296875e+01,3.135697174072265625e+01
8.110190033912658691e-01,1.000000000000000000e+00,-2.511128664016723633e+00,-1.024230241775512695e+00,4.261545181274414062e+00,-1.988059082031250000e+02,-8.910356903076171875e+01,-1.702261047363281250e+02,4.033146500587463379e-01,-6.667444610595703125e+01,-1.826887054443359375e+02,-2.343106746673583984e+00,7.562291717529296875e+01,3.135697174072265625e+01
8.169170022010803223e-01,1.000000000000000000e+00,-2.572216510772705078e+00,-9.708009362220764160e-01,4.270592689514160156e+00,-1.987559814453125000e+02,-8.902754211425781250e+01,-1.701662902832031250e+02,4.033146500587463379e-01,-6.667444610595703125e+01,-1.826887054443359375e+02,-2.343106746673583984e+00,7.562291717529296875e+01,3.135697174072265625e+01
8.208230137825012207e-01,1.000000000000000000e+00,-2.633218765258789062e+00,-9.174622893333435059e-01,4.279843330383300781e+00,-1.987046661376953125e+02,-8.895273590087890625e+01,-1.701062011718750000e+02,4.033146500587463379e-01,-6.667444610595703125e+01,-1.826887054443359375e+02,-2.343106746673583984e+00,7.562291717529296875e+01,3.135697174072265625e+01
8.249269723892211914e-01,1.000000000000000000e+00,-2.694249153137207031e+00,-8.639650940895080566e-01,4.289074420928955078e+00,-1.986542053222656250e+02,-8.887708282470703125e+01,-1.700452423095703125e+02,4.033146500587463379e-01,-6.667444610595703125e+01,-1.826887054443359375e+02,-2.343106746673583984e+00,7.562291717529296875e+01,3.135697174072265625e+01
8.289930224418640137e-01,1.000000000000000000e+00,-2.755193948745727539e+00,-8.106490373611450195e-01,4.298284530639648438e+00,-1.986042327880859375e+02,-8.880105590820312500e+01,-1.699850769042968750e+02,4.033146500587463379e-01,-6.667453765869140625e+01,-1.826887054443359375e+02,-2.343106746673583984e+00,7.562291717529296875e+01,3.135697174072265625e+01
8.330209851264953613e-01,1.000000000000000000e+00,-2.816138505935668945e+00,-7.571066021919250488e-01,4.307373046875000000e+00,-1.985530242919921875e+02,-8.872566223144531250e+01,-1.699251403808593750e+02,4.033146500587463379e-01,-6.667444610595703125e+01,-1.826885528564453125e+02,-2.343106746673583984e+00,7.562291717529296875e+01,3.135675048828125000e+01
8.375800251960754395e-01,1.000000000000000000e+00,-2.876939535140991211e+00,-7.036094665527343750e-01,4.316380023956298828e+00,-1.985025482177734375e+02,-8.865048980712890625e+01,-1.698642425537109375e+02,4.033146500587463379e-01,-6.667453765869140625e+01,-1.826887054443359375e+02,-2.343178272247314453e+00,7.562291717529296875e+01,3.135697174072265625e+01
8.411200046539306641e-01,1.000000000000000000e+00,-2.937826633453369141e+00,-6.502481698989868164e-01,4.325570106506347656e+00,-1.984517822265625000e+02,-8.857536315917968750e+01,-1.698040161132812500e+02,4.033146500587463379e-01,-6.667444610595703125e+01,-1.826887054443359375e+02,-2.343106746673583984e+00,7.562299346923828125e+01,3.135697174072265625e+01
8.429419994354248047e-01,1.000000000000000000e+00,-2.999029636383056641e+00,-5.967962741851806641e-01,4.334943294525146484e+00,-1.984005279541015625e+02,-8.849944305419921875e+01,-1.697444610595703125e+02,4.033146500587463379e-01,-6.667444610595703125e+01,-1.826887054443359375e+02,-2.343178272247314453e+00,7.562299346923828125e+01,3.135697174072265625e+01
8.489680290222167969e-01,1.000000000000000000e+00,-3.059945583343505859e+00,-5.436838865280151367e-01,4.344275474548339844e+00,-1.983503417968750000e+02,-8.842416381835937500e+01,-1.696839141845703125e+02,4.033146500587463379e-01,-6.667444610595703125e+01,-1.826887054443359375e+02,-2.343178272247314453e+00,7.562299346923828125e+01,3.135697174072265625e+01
8.531100153923034668e-01,1.000000000000000000e+00,-3.120947360992431641e+00,-4.905035197734832764e-01,4.353506088256835938e+00,-1.983000793457031250e+02,-8.834887695312500000e+01,-1.696238861083984375e+02,4.033146500587463379e-01,-6.667444610595703125e+01,-1.826887054443359375e+02,-2.343034982681274414e+00,7.562277984619140625e+01,3.135697174072265625e+01
8.549230098724365234e-01,1.000000000000000000e+00,-3.182035446166992188e+00,-4.372779726982116699e-01,4.362695693969726562e+00,-1.982489929199218750e+02,-8.827381134033203125e+01,-1.695643463134765625e+02,4.033146500587463379e-01,-6.667444610595703125e+01,-1.826887054443359375e+02,-2.343178272247314453e+00,7.562291717529296875e+01,3.135697174072265625e+01
8.596429824829101562e-01,1.000000000000000000e+00,-3.243037462234497070e+00,-3.837808668613433838e-01,4.371601104736328125e+00,-1.981984252929687500e+02,-8.819746398925781250e+01,-1.695033111572265625e+02,4.033146500587463379e-01,-6.667444610595703125e+01,-1.826887054443359375e+02,-2.343106746673583984e+00,7.562291717529296875e+01,3.135697174072265625e+01
8.629969954490661621e-01,1.000000000000000000e+00,-3.304096937179565430e+00,-3.302837312221527100e-01,4.380709648132324219e+00,-1.981476440429687500e+02,-8.812244415283203125e+01,-1.694423370361328125e+02,4.033146500587463379e-01,-6.667444610595703125e+01,-1.826887054443359375e+02,-2.343178272247314453e+00,7.562277984619140625e+01,3.135697174072265625e+01
8.669109940528869629e-01,1.000000000000000000e+00,-3.364955425262451172e+00,-2.769449949264526367e-01,4.389777660369873047e+00,-1.980971221923828125e+02,-8.804731750488281250e+01,-1.693834686279296875e+02,4.033146500587463379e-01,-6.667444610595703125e+01,-1.826887054443359375e+02,-2.343106746673583984e+00,7.562299346923828125e+01,3.135697174072265625e+01
8.731229901313781738e-01,1.000000000000000000e+00,-3.425785064697265625e+00,-2.236062884330749512e-01,4.398825645446777344e+00,-1.980477142333984375e+02,-8.797235870361328125e+01,-1.693230590820312500e+02,4.033146500587463379e-01,-6.667444610595703125e+01,-1.826887054443359375e+02,-2.343106746673583984e+00,7.562291717529296875e+01,3.135697174072265625e+01
8.749660253524780273e-01,1.000000000000000000e+00,-3.486959218978881836e+00,-1.702222973108291626e-01,4.407954216003417969e+00,-1.979968872070312500e+02,-8.789611053466796875e+01,-1.692620849609375000e+02,4.033146500587463379e-01,-6.667444610595703125e+01,-1.826887054443359375e+02,-2.343106746673583984e+00,7.562291717529296875e+01,3.135697174072265625e+01
8.813490271568298340e-01,1.000000000000000000e+00,-3.547932624816894531e+00,-1.168156862258911133e-01,4.417042732238769531e+00,-1.979459991455078125e+02,-8.782120513916015625e+01,-1.692022705078125000e+02,4.033146500587463379e-01,-6.667444610595703125e+01,-1.826887054443359375e+02,-2.343106746673583984e+00,7.562299346923828125e+01,3.135697174072265625e+01
8.836600184440612793e-01,1.000000000000000000e+00,-3.608877420425415039e+00,-6.349959224462509155e-02,4.426151275634765625e+00,-1.978955993652343750e+02,-8.774576568603515625e+01,-1.691414337158203125e+02,4.033146500587463379e-01,-6.667444610595703125e+01,-1.826887054443359375e+02,-2.343178272247314453e+00,7.562291717529296875e+01,3.135697174072265625e+01
8.879140019416809082e-01,1.000000000000000000e+00,-3.669735670089721680e+00,-1.009298022836446762e-02,4.435381889343261719e+00,-1.978447570800781250e+02,-8.767096710205078125e+01,-1.690806121826171875e+02,4.033146500587463379e-01,-6.667444610595703125e+01,-1.826887054443359375e+02,-2.343106746673583984e+00,7.562291717529296875e+01,3.135697174072265625e+01
8.909149765968322754e-01,1.000000000000000000e+00,-3.730421781539916992e+00,4.326837137341499329e-02,4.444694042205810547e+00,-1.977944641113281250e+02,-8.759546661376953125e+01,-1.690214080810546875e+02,4.033146500587463379e-01,-6.667453765869140625e+01,-1.826887054443359375e+02,-2.343178272247314453e+00,7.562291717529296875e+01,3.135697174072265625e+01
8.972899913787841797e-01,1.000000000000000000e+00,-3.730421781539916992e+00,4.326837137341499329e-02,4.444694042205810547e+00,-1.977944641113281250e+02,-8.759546661376953125e+01,-1.690214080810546875e+02,4.033146500587463379e-01,-6.667453765869140625e+01,-1.826887054443359375e+02,-2.343178272247314453e+00,7.562291717529296875e+01,3.135697174072265625e+01
8.989620208740234375e-01,1.000000000000000000e+00,-3.851880550384521484e+00,1.497874110937118530e-01,4.463277339935302734e+00,-1.976934356689453125e+02,-8.744452667236328125e+01,-1.689004821777343750e+02,4.033146500587463379e-01,-6.667453765869140625e+01,-1.826887054443359375e+02,-2.343178272247314453e+00,7.562291717529296875e+01,3.135697174072265625e+01
9.055799841880798340e-01,1.000000000000000000e+00,-3.851880550384521484e+00,1.497874110937118530e-01,4.463277339935302734e+00,-1.976934356689453125e+02,-8.744452667236328125e+01,-1.689004821777343750e+02,4.033146500587463379e-01,-6.667453765869140625e+01,-1.826887054443359375e+02,-2.343178272247314453e+00,7.562291717529296875e+01,3.135697174072265625e+01
9.081299901008605957e-01,1.000000000000000000e+00,-3.973396539688110352e+00,2.562385499477386475e-01,4.481575965881347656e+00,-1.975922546386718750e+02,-8.729390716552734375e+01,-1.687805175781250000e+02,4.033146500587463379e-01,-6.667444610595703125e+01,-1.826887054443359375e+02,-2.343106746673583984e+00,7.562291717529296875e+01,3.135697174072265625e+01
9.119290113449096680e-01,1.000000000000000000e+00,-4.034139633178710938e+00,3.095093965530395508e-01,4.490664005279541016e+00,-1.975415649414062500e+02,-8.721921539306640625e+01,-1.687194824218750000e+02,4.033146500587463379e-01,-6.667444610595703125e+01,-1.826887054443359375e+02,-2.343178272247314453e+00,7.562291717529296875e+01,3.135697174072265625e+01
9.149299860000610352e-01,1.000000000000000000e+00,-4.094826221466064453e+00,3.630065321922302246e-01,4.499874114990234375e+00,-1.974912719726562500e+02,-8.714419555664062500e+01,-1.686600036621093750e+02,4.033146500587463379e-01,-6.667444610595703125e+01,-1.826887054443359375e+02,-2.343106746673583984e+00,7.562291717529296875e+01,3.135697174072265625e+01
9.200069904327392578e-01,1.000000000000000000e+00,-4.094826221466064453e+00,3.630065321922302246e-01,4.499874114990234375e+00,-1.974912719726562500e+02,-8.714419555664062500e+01,-1.686600036621093750e+02,4.033146500587463379e-01,-6.667444610595703125e+01,-1.826887054443359375e+02,-2.343106746673583984e+00,7.562291717529296875e+01,3.135697174072265625e+01
9.229739904403686523e-01,1.000000000000000000e+00,-4.216543197631835938e+00,4.698876142501831055e-01,4.518071651458740234e+00,-1.973895568847656250e+02,-8.699294281005859375e+01,-1.685392913818359375e+02,4.033146500587463379e-01,-6.667444610595703125e+01,-1.826887054443359375e+02,-2.343106746673583984e+00,7.562291717529296875e+01,3.135697174072265625e+01
9.279509782791137695e-01,1.000000000000000000e+00,-4.216543197631835938e+00,4.698876142501831055e-01,4.518071651458740234e+00,-1.973895568847656250e+02,-8.699294281005859375e+01,-1.685392913818359375e+02,4.033146500587463379e-01,-6.667444610595703125e+01,-1.826887054443359375e+02,-2.343106746673583984e+00,7.562291717529296875e+01,3.135697174072265625e+01
9.316800236701965332e-01,1.000000000000000000e+00,-4.337743282318115234e+00,5.764745473861694336e-01,4.535841464996337891e+00,-1.972884674072265625e+02,-8.684322357177734375e+01,-1.684196624755859375e+02,4.033146500587463379e-01,-6.667444610595703125e+01,-1.826887054443359375e+02,-2.343106746673583984e+00,7.562291717529296875e+01,3.135697174072265625e+01
9.359250068664550781e-01,1.000000000000000000e+00,-4.398658752441406250e+00,6.299942731857299805e-01,4.545031070709228516e+00,-1.972382354736328125e+02,-8.676751708984375000e+01,-1.683585662841796875e+02,4.033146500587463379e-01,-6.667444610595703125e+01,-1.826887054443359375e+02,-2.343178272247314453e+00,7.562291717529296875e+01,3.135697174072265625e+01
9.395089745521545410e-01,1.000000000000000000e+00,-4.459689617156982422e+00,6.832651495933532715e-01,4.554465293884277344e+00,-1.971882324218750000e+02,-8.669207763671875000e+01,-1.682988128662109375e+02,4.033146500587463379e-01,-6.667444610595703125e+01,-1.826887054443359375e+02,-2.343106746673583984e+00,7.562277984619140625e+01,3.135697174072265625e+01
9.439780116081237793e-01,1.000000000000000000e+00,-4.520605564117431641e+00,7.367622852325439453e-01,4.563736438751220703e+00,-1.971377716064453125e+02,-8.661653137207031250e+01,-1.682387390136718750e+02,4.033146500587463379e-01,-6.667444610595703125e+01,-1.826887054443359375e+02,-2.343106746673583984e+00,7.562291717529296875e+01,3.135697174072265625e+01
9.469640254974365234e-01,1.000000000000000000e+00,-4.581377983093261719e+00,7.899426221847534180e-01,4.572947025299072266e+00,-1.970871582031250000e+02,-8.654151916503906250e+01,-1.681773529052734375e+02,4.033146500587463379e-01,-6.667444610595703125e+01,-1.826887054443359375e+02,-2.343106746673583984e+00,7.562291717529296875e+01,3.135697174072265625e+01
9.519479870796203613e-01,1.000000000000000000e+00,-4.581377983093261719e+00,7.899426221847534180e-01,4.572947025299072266e+00,-1.970871582031250000e+02,-8.654151916503906250e+01,-1.681773529052734375e+02,4.033146500587463379e-01,-6.667444610595703125e+01,-1.826887054443359375e+02,-2.343106746673583984e+00,7.562291717529296875e+01,3.135697174072265625e+01
9.556429982185363770e-01,1.000000000000000000e+00,-4.702578067779541016e+00,8.965068459510803223e-01,4.591062545776367188e+00,-1.969863891601562500e+02,-8.639084625244140625e+01,-1.680573883056640625e+02,4.033146500587463379e-01,-6.667444610595703125e+01,-1.826887054443359375e+02,-2.343106746673583984e+00,7.562291717529296875e+01,3.135697174072265625e+01
9.589710235595703125e-01,1.000000000000000000e+00,-4.763120651245117188e+00,9.497324824333190918e-01,4.600069522857666016e+00,-1.969357147216796875e+02,-8.631545257568359375e+01,-1.679962158203125000e+02,4.033146500587463379e-01,-6.667444610595703125e+01,-1.826887054443359375e+02,-2.343106746673583984e+00,7.562291717529296875e+01,3.135697174072265625e+01
9.639440178871154785e-01,1.000000000000000000e+00,-4.763120651245117188e+00,9.497324824333190918e-01,4.600069522857666016e+00,-1.969357147216796875e+02,-8.631545257568359375e+01,-1.679962158203125000e+02,4.033146500587463379e-01,-6.667444610595703125e+01,-1.826887054443359375e+02,-2.343106746673583984e+00,7.562291717529296875e+01,3.135697174072265625e+01
9.669020175933837891e-01,1.000000000000000000e+00,-4.884349822998046875e+00,1.056160926818847656e+00,4.618611812591552734e+00,-1.968347930908203125e+02,-8.616371917724609375e+01,-1.678765106201171875e+02,4.033146500587463379e-01,-6.667444610595703125e+01,-1.826887054443359375e+02,-2.343178272247314453e+00,7.562291717529296875e+01,3.135697174072265625e+01
9.719390273094177246e-01,1.000000000000000000e+00,-4.884349822998046875e+00,1.056160926818847656e+00,4.618611812591552734e+00,-1.968347930908203125e+02,-8.616371917724609375e+01,-1.678765106201171875e+02,4.033146500587463379e-01,-6.667444610595703125e+01,-1.826887054443359375e+02,-2.343178272247314453e+00,7.562291717529296875e+01,3.135697174072265625e+01
9.749000072479248047e-01,1.000000000000000000e+00,-5.005751132965087891e+00,1.162883639335632324e+00,4.636707305908203125e+00,-1.967338256835937500e+02,-8.601363372802734375e+01,-1.677558135986328125e+02,4.033146500587463379e-01,-6.667444610595703125e+01,-1.826887054443359375e+02,-2.343178272247314453e+00,7.562291717529296875e+01,3.135697174072265625e+01
9.799789786338806152e-01,1.000000000000000000e+00,-5.005751132965087891e+00,1.162883639335632324e+00,4.636707305908203125e+00,-1.967338256835937500e+02,-8.601363372802734375e+01,-1.677558135986328125e+02,4.033146500587463379e-01,-6.667444610595703125e+01,-1.826887054443359375e+02,-2.343178272247314453e+00,7.562291717529296875e+01,3.135697174072265625e+01
9.839289784431457520e-01,1.000000000000000000e+00,-5.127008438110351562e+00,1.269629001617431641e+00,4.654782295227050781e+00,-1.966325836181640625e+02,-8.586253356933593750e+01,-1.676352386474609375e+02,4.033146500587463379e-01,-6.667444610595703125e+01,-1.826887054443359375e+02,-2.343178272247314453e+00,7.562277984619140625e+01,3.135697174072265625e+01
9.869210124015808105e-01,1.000000000000000000e+00,-5.187838077545166016e+00,1.323012948036193848e+00,4.664073944091796875e+00,-1.965827026367187500e+02,-8.578804779052734375e+01,-1.675751342773437500e+02,4.033146500587463379e-01,-6.667444610595703125e+01,-1.826887054443359375e+02,-2.343106746673583984e+00,7.562291717529296875e+01,3.135719108581542969e+01
9.920939803123474121e-01,1.000000000000000000e+00,-5.187838077545166016e+00,1.323012948036193848e+00,4.664073944091796875e+00,-1.965827026367187500e+02,-8.578804779052734375e+01,-1.675751342773437500e+02,4.033146500587463379e-01,-6.667444610595703125e+01,-1.826887054443359375e+02,-2.343106746673583984e+00,7.562291717529296875e+01,3.135719108581542969e+01
9.949269890785217285e-01,1.000000000000000000e+00,-5.309095859527587891e+00,1.429486751556396484e+00,4.682677745819091797e+00,-1.964813537597656250e+02,-8.563737487792968750e+01,-1.674552459716796875e+02,4.033146500587463379e-01,-6.667444610595703125e+01,-1.826887054443359375e+02,-2.343106746673583984e+00,7.562277984619140625e+01,3.135697174072265625e+01
9.999669790267944336e-01,1.000000000000000000e+00,-5.309095859527587891e+00,1.429486751556396484e+00,4.682677745819091797e+00,-1.964813537597656250e+02,-8.563737487792968750e+01,-1.674552459716796875e+02,4.033146500587463379e-01,-6.667444610595703125e+01,-1.826887054443359375e+02,-2.343106746673583984e+00,7.562277984619140625e+01,3.135697174072265625e+01
1.002949953079223633e+00,1.000000000000000000e+00,-5.430611610412597656e+00,1.536141633987426758e+00,4.700712203979492188e+00,-1.963801727294921875e+02,-8.548638916015625000e+01,-1.673356170654296875e+02,4.033146500587463379e-01,-6.667444610595703125e+01,-1.826887054443359375e+02,-2.343106746673583984e+00,7.562299346923828125e+01,3.135697174072265625e+01
1.007954001426696777e+00,1.000000000000000000e+00,-5.430611610412597656e+00,1.536141633987426758e+00,4.700712203979492188e+00,-1.963801727294921875e+02,-8.548638916015625000e+01,-1.673356170654296875e+02,4.033146500587463379e-01,-6.667444610595703125e+01,-1.826887054443359375e+02,-2.343106746673583984e+00,7.562299346923828125e+01,3.135697174072265625e+01
1.013015031814575195e+00,1.000000000000000000e+00,-5.491355419158935547e+00,1.589457631111145020e+00,4.709617614746093750e+00,-1.963302307128906250e+02,-8.541163635253906250e+01,-1.672750549316406250e+02,4.033146500587463379e-01,-6.667444610595703125e+01,-1.826887054443359375e+02,-2.343106746673583984e+00,7.562299346923828125e+01,3.135697174072265625e+01
1.015544056892395020e+00,1.000000000000000000e+00,-5.612584114074707031e+00,1.695727825164794922e+00,4.727956295013427734e+00,-1.962290954589843750e+02,-8.526016998291015625e+01,-1.671550140380859375e+02,4.033146500587463379e-01,-6.667435455322265625e+01,-1.826887054443359375e+02,-2.343178272247314453e+00,7.562291717529296875e+01,3.135697174072265625e+01
1.019953012466430664e+00,1.000000000000000000e+00,-5.612584114074707031e+00,1.695727825164794922e+00,4.727956295013427734e+00,-1.962290954589843750e+02,-8.526016998291015625e+01,-1.671550140380859375e+02,4.033146500587463379e-01,-6.667435455322265625e+01,-1.826887054443359375e+02,-2.343178272247314453e+00,7.562291717529296875e+01,3.135697174072265625e+01
1.024952054023742676e+00,1.000000000000000000e+00,-5.673241615295410156e+00,1.748840212821960449e+00,4.737044811248779297e+00,-1.961790618896484375e+02,-8.518509674072265625e+01,-1.670941162109375000e+02,4.033146500587463379e-01,-6.667444610595703125e+01,-1.826887054443359375e+02,-2.343106746673583984e+00,7.562291717529296875e+01,3.135697174072265625e+01
1.028393983840942383e+00,1.000000000000000000e+00,-5.794384479522705078e+00,1.855336546897888184e+00,4.755099773406982422e+00,-1.960780792236328125e+02,-8.503501129150390625e+01,-1.669738769531250000e+02,4.033146500587463379e-01,-6.667444610595703125e+01,-1.826887054443359375e+02,-2.343106746673583984e+00,7.562291717529296875e+01,3.135697174072265625e+01
1.031851053237915039e+00,1.000000000000000000e+00,-5.855128288269042969e+00,1.908765792846679688e+00,4.764126777648925781e+00,-1.960281372070312500e+02,-8.495935821533203125e+01,-1.669130554199218750e+02,4.033146500587463379e-01,-6.667444610595703125e+01,-1.826887054443359375e+02,-2.343106746673583984e+00,7.562291717529296875e+01,3.135697174072265625e+01
1.035946011543273926e+00,1.000000000000000000e+00,-5.855128288269042969e+00,1.908765792846679688e+00,4.764126777648925781e+00,-1.960281372070312500e+02,-8.495935821533203125e+01,-1.669130554199218750e+02,4.033146500587463379e-01,-6.667444610595703125e+01,-1.826887054443359375e+02,-2.343106746673583984e+00,7.562291717529296875e+01,3.135697174072265625e+01
1.040954947471618652e+00,1.000000000000000000e+00,-5.915986537933349609e+00,1.962172508239746094e+00,4.773438930511474609e+00,-1.959772644042968750e+02,-8.488401794433593750e+01,-1.668526153564453125e+02,4.033146500587463379e-01,-6.667444610595703125e+01,-1.826887054443359375e+02,-2.343178272247314453e+00,7.562291717529296875e+01,3.135697174072265625e+01
1.043485999107360840e+00,1.000000000000000000e+00,-6.037674903869628906e+00,2.068487882614135742e+00,4.792062759399414062e+00,-1.958760223388671875e+02,-8.473366546630859375e+01,-1.667323760986328125e+02,4.033146500587463379e-01,-6.667444610595703125e+01,-1.826887054443359375e+02,-2.343106746673583984e+00,7.562291717529296875e+01,3.135697174072265625e+01
1.048043012619018555e+00,1.000000000000000000e+00,-6.037674903869628906e+00,2.068487882614135742e+00,4.792062759399414062e+00,-1.958760223388671875e+02,-8.473366546630859375e+01,-1.667323760986328125e+02,4.033146500587463379e-01,-6.667444610595703125e+01,-1.826887054443359375e+02,-2.343106746673583984e+00,7.562291717529296875e+01,3.135697174072265625e+01
1.052011966705322266e+00,1.000000000000000000e+00,-6.098332405090332031e+00,2.121803760528564453e+00,4.801191806793212891e+00,-1.958254547119140625e+02,-8.465828704833984375e+01,-1.666718902587890625e+02,4.033146500587463379e-01,-6.667444610595703125e+01,-1.826887054443359375e+02,-2.343106746673583984e+00,7.562299346923828125e+01,3.135697174072265625e+01
1.055361032485961914e+00,1.000000000000000000e+00,-6.159133434295654297e+00,2.174984216690063477e+00,4.810178279876708984e+00,-1.957749481201171875e+02,-8.458300018310546875e+01,-1.666125488281250000e+02,4.033146500587463379e-01,-6.667444610595703125e+01,-1.826887054443359375e+02,-2.343178272247314453e+00,7.562291717529296875e+01,3.135697174072265625e+01
1.059937000274658203e+00,1.000000000000000000e+00,-6.219876766204833984e+00,2.228413581848144531e+00,4.819165229797363281e+00,-1.957246398925781250e+02,-8.450825500488281250e+01,-1.665517120361328125e+02,4.033146500587463379e-01,-6.667444610595703125e+01,-1.826887054443359375e+02,-2.343034982681274414e+00,7.562291717529296875e+01,3.135697174072265625e+01
1.063977956771850586e+00,1.000000000000000000e+00,-6.280792713165283203e+00,2.281729459762573242e+00,4.828314304351806641e+00,-1.956737060546875000e+02,-8.443238067626953125e+01,-1.664910278320312500e+02,4.033146500587463379e-01,-6.667444610595703125e+01,-1.826887054443359375e+02,-2.343178272247314453e+00,7.562299346923828125e+01,3.135697174072265625e+01
1.067991018295288086e+00,1.000000000000000000e+00,-6.341708660125732422e+00,2.334864616394042969e+00,4.837504386901855469e+00,-1.956237640380859375e+02,-8.435720062255859375e+01,-1.664317474365234375e+02,4.033146500587463379e-01,-6.667444610595703125e+01,-1.826887054443359375e+02,-2.343106746673583984e+00,7.562291717529296875e+01,3.135697174072265625e+01
1.071938991546630859e+00,1.000000000000000000e+00,-6.402566909790039062e+00,2.387976884841918945e+00,4.846531391143798828e+00,-1.955733032226562500e+02,-8.428202819824218750e+01,-1.663719329833984375e+02,4.033146500587463379e-01,-6.667444610595703125e+01,-1.826887054443359375e+02,-2.343178272247314453e+00,7.562291717529296875e+01,3.135697174072265625e+01
1.075690984725952148e+00,1.000000000000000000e+00,-6.463195800781250000e+00,2.440998792648315430e+00,4.855538368225097656e+00,-1.955225219726562500e+02,-8.420738983154296875e+01,-1.663115844726562500e+02,4.033146500587463379e-01,-6.667444610595703125e+01,-1.826887054443359375e+02,-2.343106746673583984e+00,7.562291717529296875e+01,3.135697174072265625e+01
1.079967975616455078e+00,1.000000000000000000e+00,-6.523796081542968750e+00,2.494292497634887695e+00,4.864464282989501953e+00,-1.954724884033203125e+02,-8.413157653808593750e+01,-1.662520446777343750e+02,4.033146500587463379e-01,-6.667444610595703125e+01,-1.826887054443359375e+02,-2.343106746673583984e+00,7.562291717529296875e+01,3.135697174072265625e+01
1.083938956260681152e+00,1.000000000000000000e+00,-6.584654808044433594e+00,2.547518014907836914e+00,4.873512268066406250e+00,-1.954220275878906250e+02,-8.405650329589843750e+01,-1.661912841796875000e+02,4.033146500587463379e-01,-6.667453765869140625e+01,-1.826887054443359375e+02,-2.343106746673583984e+00,7.562291717529296875e+01,3.135697174072265625e+01
1.087949037551879883e+00,1.000000000000000000e+00,-6.645254611968994141e+00,2.600743532180786133e+00,4.882681369781494141e+00,-1.953712921142578125e+02,-8.398143005371093750e+01,-1.661305084228515625e+02,4.033146500587463379e-01,-6.667453765869140625e+01,-1.826887054443359375e+02,-2.343106746673583984e+00,7.562299346923828125e+01,3.135697174072265625e+01
1.091950058937072754e+00,1.000000000000000000e+00,-6.705883026123046875e+00,2.654036998748779297e+00,4.891993522644042969e+00,-1.953215637207031250e+02,-8.390615081787109375e+01,-1.660715026855468750e+02,4.033146500587463379e-01,-6.667453765869140625e+01,-1.826887054443359375e+02,-2.343106746673583984e+00,7.562277984619140625e+01,3.135697174072265625e+01
1.095985054969787598e+00,1.000000000000000000e+00,-6.766798973083496094e+00,2.707352876663208008e+00,4.901244163513183594e+00,-1.952707366943359375e+02,-8.383054351806640625e+01,-1.660112915039062500e+02,4.033146500587463379e-01,-6.667444610595703125e+01,-1.826887054443359375e+02,-2.343178272247314453e+00,7.562291717529296875e+01,3.135697174072265625e+01
1.099815011024475098e+00,1.000000000000000000e+00,-6.827514171600341797e+00,2.760623931884765625e+00,4.910535812377929688e+00,-1.952201232910156250e+02,-8.375595855712890625e+01,-1.659497680664062500e+02,4.033146500587463379e-01,-6.667444610595703125e+01,-1.826887054443359375e+02,-2.343106746673583984e+00,7.562291717529296875e+01,3.135697174072265625e+01
1.103950977325439453e+00,1.000000000000000000e+00,-6.888085365295410156e+00,2.813894748687744141e+00,4.919563293457031250e+00,-1.951705474853515625e+02,-8.368131256103515625e+01,-1.658902282714843750e+02,4.033146500587463379e-01,-6.667444610595703125e+01,-1.826887054443359375e+02,-2.343178272247314453e+00,7.562291717529296875e+01,3.135697174072265625e+01
1.107951998710632324e+00,1.000000000000000000e+00,-6.948714256286621094e+00,2.867188215255737305e+00,4.928468704223632812e+00,-1.951195678710937500e+02,-8.360597991943359375e+01,-1.658298797607421875e+02,4.033146500587463379e-01,-6.667444610595703125e+01,-1.826887054443359375e+02,-2.343178272247314453e+00,7.562291717529296875e+01,3.135697174072265625e+01
