rpiRobotics/ARM-21-02-F-19-Robot-Motion-Program/data_performance_abb/curve_2/curve_pose_opt2/100L/grad_result/real/run_3.csv
timestamp,cmd_num,J1,J2,J3,J4,J5,J6
1.539999939268454909e-04,-1.000000000000000000e+00,7.905914306640625000e+00,-1.016273498535156250e+01,2.696870803833007812e+00,-2.074677886962890625e+02,-1.020162582397460938e+02,-1.805538024902343750e+02,4.033146500587463379e-01,-6.667444610595703125e+01,-1.826887054443359375e+02,-2.343178272247314453e+00,7.562291717529296875e+01,3.135697174072265625e+01
3.882999997586011887e-03,1.000000000000000000e+00,7.905914306640625000e+00,-1.016273498535156250e+01,2.696850538253784180e+00,-2.074677886962890625e+02,-1.020162582397460938e+02,-1.805540008544921875e+02,4.033146500587463379e-01,-6.667444610595703125e+01,-1.826887054443359375e+02,-2.343178272247314453e+00,7.562291717529296875e+01,3.135697174072265625e+01
1.073499955236911774e-02,1.000000000000000000e+00,7.905857086181640625e+00,-1.016273498535156250e+01,2.696870803833007812e+00,-2.074676208496093750e+02,-1.020161590576171875e+02,-1.805538024902343750e+02,4.033146500587463379e-01,-6.667444610595703125e+01,-1.826887054443359375e+02,-2.343178272247314453e+00,7.562277984619140625e+01,3.135697174072265625e+01
1.419499982148408890e-02,1.000000000000000000e+00,7.906000614166259766e+00,-1.016273498535156250e+01,2.696850538253784180e+00,-2.074677886962890625e+02,-1.020161590576171875e+02,-1.805536651611328125e+02,4.033146500587463379e-01,-6.667444610595703125e+01,-1.826887054443359375e+02,-2.343178272247314453e+00,7.562277984619140625e+01,3.135697174072265625e+01
3.856600075960159302e-02,1.000000000000000000e+00,7.905914306640625000e+00,-1.016273498535156250e+01,2.696809768676757812e+00,-2.074677886962890625e+02,-1.020162582397460938e+02,-1.805538024902343750e+02,4.033146500587463379e-01,-6.667444610595703125e+01,-1.826887054443359375e+02,-2.343178272247314453e+00,7.562277984619140625e+01,3.135697174072265625e+01
3.989699855446815491e-02,1.000000000000000000e+00,7.906000614166259766e+00,-1.016273498535156250e+01,2.696870803833007812e+00,-2.074677886962890625e+02,-1.020161590576171875e+02,-1.805540008544921875e+02,4.033146500587463379e-01,-6.667444610595703125e+01,-1.826887054443359375e+02,-2.343106746673583984e+00,7.562291717529296875e+01,3.135697174072265625e+01
4.235799983143806458e-02,1.000000000000000000e+00,7.905857086181640625e+00,-1.016273498535156250e+01,2.696870803833007812e+00,-2.074677886962890625e+02,-1.020162582397460938e+02,-1.805540008544921875e+02,4.033146500587463379e-01,-6.667444610595703125e+01,-1.826887054443359375e+02,-2.343178272247314453e+00,7.562277984619140625e+01,3.135697174072265625e+01
4.365799948573112488e-02,1.000000000000000000e+00,7.905857086181640625e+00,-1.016273498535156250e+01,2.696870803833007812e+00,-2.074677886962890625e+02,-1.020162582397460938e+02,-1.805540008544921875e+02,4.033146500587463379e-01,-6.667444610595703125e+01,-1.826887054443359375e+02,-2.343178272247314453e+00,7.562277984619140625e+01,3.135697174072265625e+01
5.073000118136405945e-02,1.000000000000000000e+00,7.906000614166259766e+00,-1.016273498535156250e+01,2.696870803833007812e+00,-2.074677886962890625e+02,-1.020161590576171875e+02,-1.805540008544921875e+02,4.033146500587463379e-01,-6.667435455322265625e+01,-1.826887054443359375e+02,-2.343178272247314453e+00,7.562291717529296875e+01,3.135697174072265625e+01
5.203299969434738159e-02,1.000000000000000000e+00,7.906000614166259766e+00,-1.016273498535156250e+01,2.696870803833007812e+00,-2.074677886962890625e+02,-1.020161590576171875e+02,-1.805540008544921875e+02,4.033146500587463379e-01,-6.667435455322265625e+01,-1.826887054443359375e+02,-2.343178272247314453e+00,7.562291717529296875e+01,3.135697174072265625e+01
5.451700091361999512e-02,1.000000000000000000e+00,7.905857086181640625e+00,-1.016273498535156250e+01,2.696870803833007812e+00,-2.074678802490234375e+02,-1.020161590576171875e+02,-1.805538024902343750e+02,4.033146500587463379e-01,-6.667444610595703125e+01,-1.826887054443359375e+02,-2.343178272247314453e+00,7.562277984619140625e+01,3.135697174072265625e+01
5.578900128602981567e-02,1.000000000000000000e+00,7.905857086181640625e+00,-1.016273498535156250e+01,2.696870803833007812e+00,-2.074678802490234375e+02,-1.020161590576171875e+02,-1.805538024902343750e+02,4.033146500587463379e-01,-6.667444610595703125e+01,-1.826887054443359375e+02,-2.343178272247314453e+00,7.562277984619140625e+01,3.135697174072265625e+01
5.941100046038627625e-02,1.000000000000000000e+00,7.905770778656005859e+00,-1.016269016265869141e+01,2.696850538253784180e+00,-2.074677886962890625e+02,-1.020162582397460938e+02,-1.805538024902343750e+02,4.033146500587463379e-01,-6.667435455322265625e+01,-1.826887054443359375e+02,-2.343178272247314453e+00,7.562291717529296875e+01,3.135697174072265625e+01
6.388500332832336426e-02,1.000000000000000000e+00,7.905426502227783203e+00,-1.016241836547851562e+01,2.696850538253784180e+00,-2.074677886962890625e+02,-1.020162582397460938e+02,-1.805540008544921875e+02,4.033146500587463379e-01,-6.667444610595703125e+01,-1.826887054443359375e+02,-2.343178272247314453e+00,7.562291717529296875e+01,3.135697174072265625e+01
6.655299663543701172e-02,1.000000000000000000e+00,7.904622554779052734e+00,-1.016164875030517578e+01,2.696911573410034180e+00,-2.074677886962890625e+02,-1.020161590576171875e+02,-1.805538024902343750e+02,4.033146500587463379e-01,-6.667435455322265625e+01,-1.826887054443359375e+02,-2.343250274658203125e+00,7.562291717529296875e+01,3.135697174072265625e+01
6.783600151538848877e-02,1.000000000000000000e+00,7.904622554779052734e+00,-1.016164875030517578e+01,2.696911573410034180e+00,-2.074677886962890625e+02,-1.020161590576171875e+02,-1.805538024902343750e+02,4.033146500587463379e-01,-6.667435455322265625e+01,-1.826887054443359375e+02,-2.343250274658203125e+00,7.562291717529296875e+01,3.135697174072265625e+01
7.089799642562866211e-02,1.000000000000000000e+00,7.902785778045654297e+00,-1.016033554077148438e+01,2.696911573410034180e+00,-2.074677886962890625e+02,-1.020159912109375000e+02,-1.805538024902343750e+02,4.033146500587463379e-01,-6.667435455322265625e+01,-1.826887054443359375e+02,-2.343178272247314453e+00,7.562291717529296875e+01,3.135697174072265625e+01
7.226900011301040649e-02,1.000000000000000000e+00,7.902785778045654297e+00,-1.016033554077148438e+01,2.696911573410034180e+00,-2.074677886962890625e+02,-1.020159912109375000e+02,-1.805538024902343750e+02,4.033146500587463379e-01,-6.667435455322265625e+01,-1.826887054443359375e+02,-2.343178272247314453e+00,7.562291717529296875e+01,3.135697174072265625e+01
7.483799755573272705e-02,1.000000000000000000e+00,7.900173187255859375e+00,-1.015825462341308594e+01,2.696931838989257812e+00,-2.074677886962890625e+02,-1.020159912109375000e+02,-1.805538024902343750e+02,4.033146500587463379e-01,-6.667444610595703125e+01,-1.826887054443359375e+02,-2.343250274658203125e+00,7.562277984619140625e+01,3.135697174072265625e+01
7.614800333976745605e-02,1.000000000000000000e+00,7.900173187255859375e+00,-1.015825462341308594e+01,2.696931838989257812e+00,-2.074677886962890625e+02,-1.020159912109375000e+02,-1.805538024902343750e+02,4.033146500587463379e-01,-6.667444610595703125e+01,-1.826887054443359375e+02,-2.343250274658203125e+00,7.562277984619140625e+01,3.135697174072265625e+01
8.052500337362289429e-02,1.000000000000000000e+00,7.896527767181396484e+00,-1.015526676177978516e+01,2.697013139724731445e+00,-2.074677886962890625e+02,-1.020154571533203125e+02,-1.805536651611328125e+02,4.033146500587463379e-01,-6.667453765869140625e+01,-1.826887054443359375e+02,-2.343178272247314453e+00,7.562291717529296875e+01,3.135697174072265625e+01
8.325500041246414185e-02,1.000000000000000000e+00,7.891848087310791016e+00,-1.015117168426513672e+01,2.697175741195678711e+00,-2.074672546386718750e+02,-1.020142364501953125e+02,-1.805534515380859375e+02,4.033146500587463379e-01,-6.667444610595703125e+01,-1.826887054443359375e+02,-2.343178272247314453e+00,7.562291717529296875e+01,3.135697174072265625e+01
8.462700247764587402e-02,1.000000000000000000e+00,7.891848087310791016e+00,-1.015117168426513672e+01,2.697175741195678711e+00,-2.074672546386718750e+02,-1.020142364501953125e+02,-1.805534515380859375e+02,4.033146500587463379e-01,-6.667444610595703125e+01,-1.826887054443359375e+02,-2.343178272247314453e+00,7.562291717529296875e+01,3.135697174072265625e+01
8.803199976682662964e-02,1.000000000000000000e+00,7.885962963104248047e+00,-1.014585304260253906e+01,2.697501182556152344e+00,-2.074663085937500000e+02,-1.020119400024414062e+02,-1.805526428222656250e+02,4.033146500587463379e-01,-6.667444610595703125e+01,-1.826887054443359375e+02,-2.343178272247314453e+00,7.562291717529296875e+01,3.135697174072265625e+01
9.262000024318695068e-02,1.000000000000000000e+00,7.885962963104248047e+00,-1.014585304260253906e+01,2.697501182556152344e+00,-2.074663085937500000e+02,-1.020119400024414062e+02,-1.805526428222656250e+02,4.033146500587463379e-01,-6.667444610595703125e+01,-1.826887054443359375e+02,-2.343178272247314453e+00,7.562291717529296875e+01,3.135719108581542969e+01
9.560099989175796509e-02,1.000000000000000000e+00,7.869743824005126953e+00,-1.012951469421386719e+01,2.698863267898559570e+00,-2.074609832763671875e+02,-1.020039978027343750e+02,-1.805471496582031250e+02,4.033146500587463379e-01,-6.667444610595703125e+01,-1.826887054443359375e+02,-2.343178272247314453e+00,7.562291717529296875e+01,3.135697174072265625e+01
9.972699731588363647e-02,1.000000000000000000e+00,7.869743824005126953e+00,-1.012951469421386719e+01,2.698863267898559570e+00,-2.074609832763671875e+02,-1.020039978027343750e+02,-1.805471496582031250e+02,4.033146500587463379e-01,-6.667444610595703125e+01,-1.826887054443359375e+02,-2.343178272247314453e+00,7.562291717529296875e+01,3.135697174072265625e+01
1.036569997668266296e-01,1.000000000000000000e+00,7.858576774597167969e+00,-1.011747455596923828e+01,2.699818849563598633e+00,-2.074569854736328125e+02,-1.019970169067382812e+02,-1.805416564941406250e+02,4.033146500587463379e-01,-6.667444610595703125e+01,-1.826887054443359375e+02,-2.343178272247314453e+00,7.562291717529296875e+01,3.135697174072265625e+01
1.080830022692680359e-01,1.000000000000000000e+00,7.844999313354492188e+00,-1.010296916961669922e+01,2.701018333435058594e+00,-2.074510345458984375e+02,-1.019876861572265625e+02,-1.805346679687500000e+02,4.033146500587463379e-01,-6.667444610595703125e+01,-1.826887054443359375e+02,-2.343178272247314453e+00,7.562291717529296875e+01,3.135697174072265625e+01
1.126379966735839844e-01,1.000000000000000000e+00,7.828692913055419922e+00,-1.008597373962402344e+01,2.702665328979492188e+00,-2.074430847167968750e+02,-1.019750442504882812e+02,-1.805249786376953125e+02,4.033146500587463379e-01,-6.667444610595703125e+01,-1.826887054443359375e+02,-2.343178272247314453e+00,7.562291717529296875e+01,3.135697174072265625e+01
1.156089976429939270e-01,1.000000000000000000e+00,7.789134979248046875e+00,-1.004619026184082031e+01,2.707626342773437500e+00,-2.074200592041015625e+02,-1.019401321411132812e+02,-1.804972381591796875e+02,4.033146500587463379e-01,-6.667444610595703125e+01,-1.826887054443359375e+02,-2.343178272247314453e+00,7.562291717529296875e+01,3.135697174072265625e+01
1.196800023317337036e-01,1.000000000000000000e+00,7.789134979248046875e+00,-1.004619026184082031e+01,2.707626342773437500e+00,-2.074200592041015625e+02,-1.019401321411132812e+02,-1.804972381591796875e+02,4.033146500587463379e-01,-6.667444610595703125e+01,-1.826887054443359375e+02,-2.343178272247314453e+00,7.562291717529296875e+01,3.135697174072265625e+01
1.237419992685317993e-01,1.000000000000000000e+00,7.765796184539794922e+00,-1.002437591552734375e+01,2.710716962814331055e+00,-2.074040985107421875e+02,-1.019171447753906250e+02,-1.804783782958984375e+02,4.033146500587463379e-01,-6.667444610595703125e+01,-1.826887054443359375e+02,-2.343178272247314453e+00,7.562291717529296875e+01,3.135697174072265625e+01
1.276919990777969360e-01,1.000000000000000000e+00,7.740247726440429688e+00,-1.000142860412597656e+01,2.714051246643066406e+00,-2.073847808837890625e+02,-1.018907012939453125e+02,-1.804563446044921875e+02,4.033146500587463379e-01,-6.667444610595703125e+01,-1.826887054443359375e+02,-2.343178272247314453e+00,7.562291717529296875e+01,3.135697174072265625e+01
1.316639930009841919e-01,1.000000000000000000e+00,7.712028980255126953e+00,-9.976784706115722656e+00,2.717832803726196289e+00,-2.073622283935546875e+02,-1.018596725463867188e+02,-1.804304962158203125e+02,4.033146500587463379e-01,-6.667444610595703125e+01,-1.826887054443359375e+02,-2.343250274658203125e+00,7.562291717529296875e+01,3.135697174072265625e+01
1.357029974460601807e-01,1.000000000000000000e+00,7.681312561035156250e+00,-9.950375556945800781e+00,2.721919536590576172e+00,-2.073372497558593750e+02,-1.018225173950195312e+02,-1.804013519287109375e+02,4.033146500587463379e-01,-6.667444610595703125e+01,-1.826887054443359375e+02,-2.343178272247314453e+00,7.562291717529296875e+01,3.135697174072265625e+01
1.396449953317642212e-01,1.000000000000000000e+00,7.648241996765136719e+00,-9.922065734863281250e+00,2.726534843444824219e+00,-2.073103485107421875e+02,-1.017794265747070312e+02,-1.803678436279296875e+02,4.033146500587463379e-01,-6.667444610595703125e+01,-1.826887054443359375e+02,-2.343178272247314453e+00,7.562291717529296875e+01,3.135697174072265625e+01
1.437149941921234131e-01,1.000000000000000000e+00,7.612387657165527344e+00,-9.892171859741210938e+00,2.731739997863769531e+00,-2.072800598144531250e+02,-1.017329940795898438e+02,-1.803301391601562500e+02,4.033146500587463379e-01,-6.667444610595703125e+01,-1.826887054443359375e+02,-2.343178272247314453e+00,7.562291717529296875e+01,3.135697174072265625e+01
1.476449966430664062e-01,1.000000000000000000e+00,7.574149608612060547e+00,-9.860852241516113281e+00,2.737514019012451172e+00,-2.072446136474609375e+02,-1.016836776733398438e+02,-1.802881622314453125e+02,4.033146500587463379e-01,-6.667444610595703125e+01,-1.826887054443359375e+02,-2.343178272247314453e+00,7.562291717529296875e+01,3.135697174072265625e+01
1.516450047492980957e-01,1.000000000000000000e+00,7.533529758453369141e+00,-9.827630996704101562e+00,2.743654251098632812e+00,-2.072054138183593750e+02,-1.016282882690429688e+02,-1.802422485351562500e+02,4.033146500587463379e-01,-6.667444610595703125e+01,-1.826887054443359375e+02,-2.343250274658203125e+00,7.562277984619140625e+01,3.135697174072265625e+01
1.557430028915405273e-01,1.000000000000000000e+00,7.491158485412597656e+00,-9.792691230773925781e+00,2.750119686126708984e+00,-2.071646423339843750e+02,-1.015685119628906250e+02,-1.801952362060546875e+02,4.033146500587463379e-01,-6.667444610595703125e+01,-1.826887054443359375e+02,-2.343178272247314453e+00,7.562291717529296875e+01,3.135697174072265625e+01
1.603139936923980713e-01,1.000000000000000000e+00,7.447007656097412109e+00,-9.756120681762695312e+00,2.756931066513061523e+00,-2.071236724853515625e+02,-1.015065612792968750e+02,-1.801460723876953125e+02,4.033146500587463379e-01,-6.667444610595703125e+01,-1.826887054443359375e+02,-2.343250274658203125e+00,7.562291717529296875e+01,3.135697174072265625e+01
1.636510044336318970e-01,1.000000000000000000e+00,7.400789260864257812e+00,-9.717944145202636719e+00,2.764168977737426758e+00,-2.070794677734375000e+02,-1.014409255981445312e+02,-1.800927124023437500e+02,4.033146500587463379e-01,-6.667444610595703125e+01,-1.826887054443359375e+02,-2.343178272247314453e+00,7.562277984619140625e+01,3.135697174072265625e+01
1.676509976387023926e-01,1.000000000000000000e+00,7.352131843566894531e+00,-9.676939010620117188e+00,2.772078275680541992e+00,-2.070317993164062500e+02,-1.013730545043945312e+02,-1.800360870361328125e+02,4.033146500587463379e-01,-6.667444610595703125e+01,-1.826887054443359375e+02,-2.343106746673583984e+00,7.562291717529296875e+01,3.135697174072265625e+01
1.717150062322616577e-01,1.000000000000000000e+00,7.301377773284912109e+00,-9.633376121520996094e+00,2.780332803726196289e+00,-2.069844970703125000e+02,-1.013020935058593750e+02,-1.799797973632812500e+02,4.033146500587463379e-01,-6.667444610595703125e+01,-1.826887054443359375e+02,-2.343250274658203125e+00,7.562277984619140625e+01,3.135697174072265625e+01
1.756590008735656738e-01,1.000000000000000000e+00,7.248528003692626953e+00,-9.587528228759765625e+00,2.788872241973876953e+00,-2.069364166259765625e+02,-1.012306518554687500e+02,-1.799227600097656250e+02,4.033146500587463379e-01,-6.667453765869140625e+01,-1.826887054443359375e+02,-2.343178272247314453e+00,7.562277984619140625e+01,3.135697174072265625e+01
1.797389984130859375e-01,1.000000000000000000e+00,7.194158077239990234e+00,-9.539665222167968750e+00,2.797533512115478516e+00,-2.068866424560546875e+02,-1.011583023071289062e+02,-1.798628692626953125e+02,4.033146500587463379e-01,-6.667444610595703125e+01,-1.826887054443359375e+02,-2.343106746673583984e+00,7.562291717529296875e+01,3.135697174072265625e+01
1.844020038843154907e-01,1.000000000000000000e+00,7.138380527496337891e+00,-9.490468025207519531e+00,2.806052684783935547e+00,-2.068367004394531250e+02,-1.010839767456054688e+02,-1.798034057617187500e+02,4.033146500587463379e-01,-6.667444610595703125e+01,-1.826887054443359375e+02,-2.343178272247314453e+00,7.562291717529296875e+01,3.135697174072265625e+01
1.876550018787384033e-01,1.000000000000000000e+00,7.081397533416748047e+00,-9.440206527709960938e+00,2.814632654190063477e+00,-2.067860260009765625e+02,-1.010083236694335938e+02,-1.797444610595703125e+02,4.033146500587463379e-01,-6.667444610595703125e+01,-1.826887054443359375e+02,-2.343178272247314453e+00,7.562291717529296875e+01,3.135675048828125000e+01
1.916649937629699707e-01,1.000000000000000000e+00,7.023180007934570312e+00,-9.388836860656738281e+00,2.823354959487915039e+00,-2.067350921630859375e+02,-1.009333572387695312e+02,-1.796831054687500000e+02,4.033146500587463379e-01,-6.667444610595703125e+01,-1.826887054443359375e+02,-2.343106746673583984e+00,7.562291717529296875e+01,3.135697174072265625e+01
1.957290023565292358e-01,1.000000000000000000e+00,6.964302062988281250e+00,-9.336855888366699219e+00,2.832443237304687500e+00,-2.066848907470703125e+02,-1.008578567504882812e+02,-1.796220703125000000e+02,4.033146500587463379e-01,-6.667444610595703125e+01,-1.826887054443359375e+02,-2.343178272247314453e+00,7.562291717529296875e+01,3.135697174072265625e+01
1.996479928493499756e-01,1.000000000000000000e+00,6.904477596282958984e+00,-9.284105300903320312e+00,2.841511249542236328e+00,-2.066340637207031250e+02,-1.007819976806640625e+02,-1.795617675781250000e+02,4.033146500587463379e-01,-6.667444610595703125e+01,-1.826887054443359375e+02,-2.343178272247314453e+00,7.562291717529296875e+01,3.135697174072265625e+01
2.040960043668746948e-01,1.000000000000000000e+00,6.844020843505859375e+00,-9.230767250061035156e+00,2.850701093673706055e+00,-2.065827026367187500e+02,-1.007055969238281250e+02,-1.795005950927734375e+02,4.033146500587463379e-01,-6.667444610595703125e+01,-1.826887054443359375e+02,-2.343178272247314453e+00,7.562291717529296875e+01,3.135697174072265625e+01
2.073159962892532349e-01,1.000000000000000000e+00,6.782989978790283203e+00,-9.177247047424316406e+00,2.859809875488281250e+00,-2.065320281982421875e+02,-1.006294021606445312e+02,-1.794392852783203125e+02,4.033146500587463379e-01,-6.667444610595703125e+01,-1.826887054443359375e+02,-2.343178272247314453e+00,7.562277984619140625e+01,3.135697174072265625e+01
2.115139961242675781e-01,1.000000000000000000e+00,6.721614837646484375e+00,-9.123251914978027344e+00,2.868877887725830078e+00,-2.064809417724609375e+02,-1.005532684326171875e+02,-1.793789367675781250e+02,4.033146500587463379e-01,-6.667444610595703125e+01,-1.826887054443359375e+02,-2.343250274658203125e+00,7.562291717529296875e+01,3.135675048828125000e+01
2.156639993190765381e-01,1.000000000000000000e+00,6.660096168518066406e+00,-9.069076538085937500e+00,2.878047466278076172e+00,-2.064299011230468750e+02,-1.004768066406250000e+02,-1.793169403076171875e+02,4.033146500587463379e-01,-6.667453765869140625e+01,-1.826887054443359375e+02,-2.343250274658203125e+00,7.562291717529296875e+01,3.135697174072265625e+01
2.198069989681243896e-01,1.000000000000000000e+00,6.598404884338378906e+00,-9.014809608459472656e+00,2.887603282928466797e+00,-2.063791198730468750e+02,-1.004005203247070312e+02,-1.792559051513671875e+02,4.033146500587463379e-01,-6.667453765869140625e+01,-1.826887054443359375e+02,-2.343178272247314453e+00,7.562291717529296875e+01,3.135697174072265625e+01
2.237049937248229980e-01,1.000000000000000000e+00,6.536943912506103516e+00,-8.960814476013183594e+00,2.897078037261962891e+00,-2.063275451660156250e+02,-1.003243789672851562e+02,-1.791954193115234375e+02,4.033146500587463379e-01,-6.667444610595703125e+01,-1.826887054443359375e+02,-2.343178272247314453e+00,7.562291717529296875e+01,3.135697174072265625e+01
2.281090021133422852e-01,1.000000000000000000e+00,6.475769996643066406e+00,-8.906842231750488281e+00,2.906532287597656250e+00,-2.062763519287109375e+02,-1.002483520507812500e+02,-1.791335754394531250e+02,4.033146500587463379e-01,-6.667453765869140625e+01,-1.826887054443359375e+02,-2.343250274658203125e+00,7.562291717529296875e+01,3.135697174072265625e+01
2.323960065841674805e-01,1.000000000000000000e+00,6.414279937744140625e+00,-8.852780342102050781e+00,2.915905237197875977e+00,-2.062253112792968750e+02,-1.001712570190429688e+02,-1.790724029541015625e+02,4.033146500587463379e-01,-6.667444610595703125e+01,-1.826887054443359375e+02,-2.343178272247314453e+00,7.562291717529296875e+01,3.135697174072265625e+01
2.356600016355514526e-01,1.000000000000000000e+00,6.352876186370849609e+00,-8.798761367797851562e+00,2.924973249435424805e+00,-2.061738586425781250e+02,-1.000950164794921875e+02,-1.790123901367187500e+02,4.033146500587463379e-01,-6.667444610595703125e+01,-1.826887054443359375e+02,-2.343106746673583984e+00,7.562277984619140625e+01,3.135697174072265625e+01
2.396519929170608521e-01,1.000000000000000000e+00,6.291386127471923828e+00,-8.744789123535156250e+00,2.934041261672973633e+00,-2.061227416992187500e+02,-1.000194168090820312e+02,-1.789508056640625000e+02,4.033146500587463379e-01,-6.667444610595703125e+01,-1.826887054443359375e+02,-2.343178272247314453e+00,7.562291717529296875e+01,3.135697174072265625e+01
2.438119947910308838e-01,1.000000000000000000e+00,6.230039119720458984e+00,-8.690884590148925781e+00,2.943312644958496094e+00,-2.060715484619140625e+02,-9.994332885742187500e+01,-1.788901214599609375e+02,4.033146500587463379e-01,-6.667444610595703125e+01,-1.826887054443359375e+02,-2.343250274658203125e+00,7.562291717529296875e+01,3.135697174072265625e+01
2.476850003004074097e-01,1.000000000000000000e+00,6.168778896331787109e+00,-8.637228965759277344e+00,2.952685594558715820e+00,-2.060204620361328125e+02,-9.986644744873046875e+01,-1.788294830322265625e+02,4.033146500587463379e-01,-6.667444610595703125e+01,-1.826887054443359375e+02,-2.343178272247314453e+00,7.562291717529296875e+01,3.135697174072265625e+01
2.524070143699645996e-01,1.000000000000000000e+00,6.107576370239257812e+00,-8.583597183227539062e+00,2.961977005004882812e+00,-2.059696350097656250e+02,-9.978977966308593750e+01,-1.787680511474609375e+02,4.033146500587463379e-01,-6.667444610595703125e+01,-1.826887054443359375e+02,-2.343178272247314453e+00,7.562291717529296875e+01,3.135697174072265625e+01
2.565110027790069580e-01,1.000000000000000000e+00,6.046430587768554688e+00,-8.529759407043457031e+00,2.971187353134155273e+00,-2.059179534912109375e+02,-9.971391296386718750e+01,-1.787069396972656250e+02,4.033146500587463379e-01,-6.667444610595703125e+01,-1.826887054443359375e+02,-2.343250274658203125e+00,7.562291717529296875e+01,3.135697174072265625e+01
2.598899900913238525e-01,1.000000000000000000e+00,5.985428333282470703e+00,-8.475968360900878906e+00,2.980235099792480469e+00,-2.058670196533203125e+02,-9.963788604736328125e+01,-1.786470489501953125e+02,4.033146500587463379e-01,-6.667444610595703125e+01,-1.826885528564453125e+02,-2.343178272247314453e+00,7.562291717529296875e+01,3.135697174072265625e+01
2.639479935169219971e-01,1.000000000000000000e+00,5.924139499664306641e+00,-8.422154426574707031e+00,2.989425182342529297e+00,-2.058166656494140625e+02,-9.956072998046875000e+01,-1.785860137939453125e+02,4.033146500587463379e-01,-6.667435455322265625e+01,-1.826887054443359375e+02,-2.343178272247314453e+00,7.562291717529296875e+01,3.135697174072265625e+01
2.677569985389709473e-01,1.000000000000000000e+00,5.862993717193603516e+00,-8.368589401245117188e+00,2.998859167098999023e+00,-2.057650909423828125e+02,-9.948443603515625000e+01,-1.785251922607421875e+02,4.033146500587463379e-01,-6.667444610595703125e+01,-1.826887054443359375e+02,-2.343178272247314453e+00,7.562291717529296875e+01,3.135697174072265625e+01
2.717359960079193115e-01,1.000000000000000000e+00,5.801676273345947266e+00,-8.315070152282714844e+00,3.008211612701416016e+00,-2.057139434814453125e+02,-9.940878295898437500e+01,-1.784650268554687500e+02,4.033146500587463379e-01,-6.667435455322265625e+01,-1.826887054443359375e+02,-2.343178272247314453e+00,7.562277984619140625e+01,3.135697174072265625e+01
2.765679955482482910e-01,1.000000000000000000e+00,5.740444660186767578e+00,-8.261505126953125000e+00,3.017482995986938477e+00,-2.056635894775390625e+02,-9.933243560791015625e+01,-1.784034576416015625e+02,4.033146500587463379e-01,-6.667435455322265625e+01,-1.826887054443359375e+02,-2.343250274658203125e+00,7.562291717529296875e+01,3.135697174072265625e+01
2.806189954280853271e-01,1.000000000000000000e+00,5.679413795471191406e+00,-8.208030700683593750e+00,3.026571273803710938e+00,-2.056117706298828125e+02,-9.925555419921875000e+01,-1.783425598144531250e+02,4.033146500587463379e-01,-6.667444610595703125e+01,-1.826887054443359375e+02,-2.343178272247314453e+00,7.562291717529296875e+01,3.135697174072265625e+01
2.838599979877471924e-01,1.000000000000000000e+00,5.618268489837646484e+00,-8.154442787170410156e+00,3.035557985305786133e+00,-2.055609741210937500e+02,-9.917952728271484375e+01,-1.782822723388671875e+02,4.033146500587463379e-01,-6.667435455322265625e+01,-1.826887054443359375e+02,-2.343178272247314453e+00,7.562291717529296875e+01,3.135697174072265625e+01
2.879920005798339844e-01,1.000000000000000000e+00,5.557180404663085938e+00,-8.100900650024414062e+00,3.044585227966308594e+00,-2.055103149414062500e+02,-9.910370635986328125e+01,-1.782212371826171875e+02,4.033146500587463379e-01,-6.667444610595703125e+01,-1.826887054443359375e+02,-2.343178272247314453e+00,7.562291717529296875e+01,3.135697174072265625e+01
2.906189858913421631e-01,1.000000000000000000e+00,5.495977401733398438e+00,-8.047403335571289062e+00,3.053694009780883789e+00,-2.054587402343750000e+02,-9.902773284912109375e+01,-1.781597290039062500e+02,4.033146500587463379e-01,-6.667444610595703125e+01,-1.826887054443359375e+02,-2.343178272247314453e+00,7.562291717529296875e+01,3.135697174072265625e+01
2.958329916000366211e-01,1.000000000000000000e+00,5.434659481048583984e+00,-7.993950843811035156e+00,3.062883853912353516e+00,-2.054077148437500000e+02,-9.895111846923828125e+01,-1.780997772216796875e+02,4.033146500587463379e-01,-6.667444610595703125e+01,-1.826887054443359375e+02,-2.343178272247314453e+00,7.562299346923828125e+01,3.135697174072265625e+01
3.007780015468597412e-01,1.000000000000000000e+00,5.373313426971435547e+00,-7.940590381622314453e+00,3.072154998779296875e+00,-2.053566131591796875e+02,-9.887492370605468750e+01,-1.780385437011718750e+02,4.033146500587463379e-01,-6.667444610595703125e+01,-1.826887054443359375e+02,-2.343178272247314453e+00,7.562291717529296875e+01,3.135697174072265625e+01
3.049769997596740723e-01,1.000000000000000000e+00,5.312024116516113281e+00,-7.887002468109130859e+00,3.081426382064819336e+00,-2.053048400878906250e+02,-9.879901123046875000e+01,-1.779768981933593750e+02,4.033146500587463379e-01,-6.667444610595703125e+01,-1.826885528564453125e+02,-2.343178272247314453e+00,7.562291717529296875e+01,3.135697174072265625e+01
3.082590103149414062e-01,1.000000000000000000e+00,5.250677585601806641e+00,-7.833572864532470703e+00,3.090474128723144531e+00,-2.052542572021484375e+02,-9.872276306152343750e+01,-1.779171447753906250e+02,4.033146500587463379e-01,-6.667444610595703125e+01,-1.826887054443359375e+02,-2.343178272247314453e+00,7.562291717529296875e+01,3.135697174072265625e+01
3.121809959411621094e-01,1.000000000000000000e+00,5.189245223999023438e+00,-7.779713630676269531e+00,3.099664211273193359e+00,-2.052033233642578125e+02,-9.864641571044921875e+01,-1.778566589355468750e+02,4.033146500587463379e-01,-6.667453765869140625e+01,-1.826887054443359375e+02,-2.343178272247314453e+00,7.562277984619140625e+01,3.135697174072265625e+01
3.145889937877655029e-01,1.000000000000000000e+00,5.127840995788574219e+00,-7.725831985473632812e+00,3.109118461608886719e+00,-2.051519165039062500e+02,-9.857028198242187500e+01,-1.777952117919921875e+02,4.033146500587463379e-01,-6.667435455322265625e+01,-1.826887054443359375e+02,-2.343178272247314453e+00,7.562291717529296875e+01,3.135697174072265625e+01
3.201310038566589355e-01,1.000000000000000000e+00,5.066380023956298828e+00,-7.672017574310302734e+00,3.118511676788330078e+00,-2.051011962890625000e+02,-9.849472808837890625e+01,-1.777351226806640625e+02,4.033146500587463379e-01,-6.667444610595703125e+01,-1.826887054443359375e+02,-2.343178272247314453e+00,7.562277984619140625e+01,3.135697174072265625e+01
3.251399993896484375e-01,1.000000000000000000e+00,5.004889965057373047e+00,-7.618135929107666016e+00,3.127864360809326172e+00,-2.050500030517578125e+02,-9.841849517822265625e+01,-1.776742858886718750e+02,4.033146500587463379e-01,-6.667444610595703125e+01,-1.826887054443359375e+02,-2.343178272247314453e+00,7.562291717529296875e+01,3.135697174072265625e+01
3.282899856567382812e-01,1.000000000000000000e+00,4.943256378173828125e+00,-7.564232349395751953e+00,3.137277841567993164e+00,-2.049989471435546875e+02,-9.834251403808593750e+01,-1.776129150390625000e+02,4.033146500587463379e-01,-6.667444610595703125e+01,-1.826887054443359375e+02,-2.343250274658203125e+00,7.562291717529296875e+01,3.135697174072265625e+01
3.305949866771697998e-01,1.000000000000000000e+00,4.881565093994140625e+00,-7.510463237762451172e+00,3.146406888961791992e+00,-2.049486541748046875e+02,-9.826638031005859375e+01,-1.775527648925781250e+02,4.033146500587463379e-01,-6.667444610595703125e+01,-1.826887054443359375e+02,-2.343250274658203125e+00,7.562277984619140625e+01,3.135697174072265625e+01
3.364149928092956543e-01,1.000000000000000000e+00,4.820104122161865234e+00,-7.456445693969726562e+00,3.155556201934814453e+00,-2.048974609375000000e+02,-9.819067382812500000e+01,-1.774924163818359375e+02,4.033146500587463379e-01,-6.667444610595703125e+01,-1.826887054443359375e+02,-2.343178272247314453e+00,7.562291717529296875e+01,3.135697174072265625e+01
3.402689993381500244e-01,1.000000000000000000e+00,4.758499145507812500e+00,-7.402427673339843750e+00,3.164990186691284180e+00,-2.048464050292968750e+02,-9.811458587646484375e+01,-1.774311676025390625e+02,4.033146500587463379e-01,-6.667444610595703125e+01,-1.826887054443359375e+02,-2.343178272247314453e+00,7.562299346923828125e+01,3.135697174072265625e+01
3.443599939346313477e-01,1.000000000000000000e+00,4.696866035461425781e+00,-7.348410129547119141e+00,3.174241304397583008e+00,-2.047957458496093750e+02,-9.803881835937500000e+01,-1.773711547851562500e+02,4.033146500587463379e-01,-6.667453765869140625e+01,-1.826887054443359375e+02,-2.343250274658203125e+00,7.562291717529296875e+01,3.135697174072265625e+01
3.492459952831268311e-01,1.000000000000000000e+00,4.635576725006103516e+00,-7.294505596160888672e+00,3.183573484420776367e+00,-2.047444305419921875e+02,-9.796273803710937500e+01,-1.773104553222656250e+02,4.033146500587463379e-01,-6.667444610595703125e+01,-1.826887054443359375e+02,-2.343178272247314453e+00,7.562291717529296875e+01,3.135697174072265625e+01
3.532280027866363525e-01,1.000000000000000000e+00,4.574287891387939453e+00,-7.240782737731933594e+00,3.192865133285522461e+00,-2.046937103271484375e+02,-9.788687133789062500e+01,-1.772492218017578125e+02,4.033146500587463379e-01,-6.667444610595703125e+01,-1.826887054443359375e+02,-2.343250274658203125e+00,7.562291717529296875e+01,3.135697174072265625e+01
3.566330075263977051e-01,1.000000000000000000e+00,4.512768745422363281e+00,-7.187013626098632812e+00,3.201993942260742188e+00,-2.046430816650390625e+02,-9.781031036376953125e+01,-1.771889190673828125e+02,4.033146500587463379e-01,-6.667444610595703125e+01,-1.826887054443359375e+02,-2.343250274658203125e+00,7.562291717529296875e+01,3.135697174072265625e+01
3.605560064315795898e-01,1.000000000000000000e+00,4.451422691345214844e+00,-7.133244991302490234e+00,3.211224555969238281e+00,-2.045916748046875000e+02,-9.773464965820312500e+01,-1.771282958984375000e+02,4.033146500587463379e-01,-6.667444610595703125e+01,-1.826887054443359375e+02,-2.343178272247314453e+00,7.562291717529296875e+01,3.135697174072265625e+01
3.646360039710998535e-01,1.000000000000000000e+00,4.390190601348876953e+00,-7.079182147979736328e+00,3.220658540725708008e+00,-2.045406341552734375e+02,-9.765915679931640625e+01,-1.770663909912109375e+02,4.033146500587463379e-01,-6.667444610595703125e+01,-1.826887054443359375e+02,-2.343178272247314453e+00,7.562291717529296875e+01,3.135697174072265625e+01
3.685269951820373535e-01,1.000000000000000000e+00,4.329045295715332031e+00,-7.025300502777099609e+00,3.230092525482177734e+00,-2.044896545410156250e+02,-9.758329010009765625e+01,-1.770065612792968750e+02,4.033146500587463379e-01,-6.667444610595703125e+01,-1.826887054443359375e+02,-2.343178272247314453e+00,7.562291717529296875e+01,3.135697174072265625e+01
3.733339905738830566e-01,1.000000000000000000e+00,4.267785072326660156e+00,-6.971463680267333984e+00,3.239445209503173828e+00,-2.044383392333984375e+02,-9.750667572021484375e+01,-1.769457397460937500e+02,4.033146500587463379e-01,-6.667444610595703125e+01,-1.826887054443359375e+02,-2.343106746673583984e+00,7.562291717529296875e+01,3.135697174072265625e+01
3.778550028800964355e-01,1.000000000000000000e+00,4.206783294677734375e+00,-6.917559146881103516e+00,3.248696327209472656e+00,-2.043877105712890625e+02,-9.743139648437500000e+01,-1.768841552734375000e+02,4.033146500587463379e-01,-6.667444610595703125e+01,-1.826887054443359375e+02,-2.343178272247314453e+00,7.562277984619140625e+01,3.135697174072265625e+01
3.806560039520263672e-01,1.000000000000000000e+00,4.145982265472412109e+00,-6.863949298858642578e+00,3.257784366607666016e+00,-2.043365173339843750e+02,-9.735573577880859375e+01,-1.768237304687500000e+02,4.033146500587463379e-01,-6.667444610595703125e+01,-1.826887054443359375e+02,-2.343178272247314453e+00,7.562291717529296875e+01,3.135697174072265625e+01
3.848800063133239746e-01,1.000000000000000000e+00,4.084893703460693359e+00,-6.810157775878906250e+00,3.266913414001464844e+00,-2.042854309082031250e+02,-9.727976226806640625e+01,-1.767633666992187500e+02,4.033146500587463379e-01,-6.667453765869140625e+01,-1.826887054443359375e+02,-2.343250274658203125e+00,7.562291717529296875e+01,3.135675048828125000e+01
3.887720108032226562e-01,1.000000000000000000e+00,4.023777008056640625e+00,-6.756502151489257812e+00,3.276225328445434570e+00,-2.042348632812500000e+02,-9.720351409912109375e+01,-1.767021331787109375e+02,4.033146500587463379e-01,-6.667444610595703125e+01,-1.826887054443359375e+02,-2.343178272247314453e+00,7.562291717529296875e+01,3.135675048828125000e+01
3.926990032196044922e-01,1.000000000000000000e+00,3.962603092193603516e+00,-6.702710628509521484e+00,3.285618782043457031e+00,-2.041833496093750000e+02,-9.712738037109375000e+01,-1.766417846679687500e+02,4.033146500587463379e-01,-6.667444610595703125e+01,-1.826887054443359375e+02,-2.343250274658203125e+00,7.562277984619140625e+01,3.135697174072265625e+01
3.967800140380859375e-01,1.000000000000000000e+00,3.901371240615844727e+00,-6.649032592773437500e+00,3.294768095016479492e+00,-2.041327362060546875e+02,-9.705178833007812500e+01,-1.765810852050781250e+02,4.033146500587463379e-01,-6.667453765869140625e+01,-1.826887054443359375e+02,-2.343178272247314453e+00,7.562291717529296875e+01,3.135697174072265625e+01
4.008069932460784912e-01,1.000000000000000000e+00,3.840283393859863281e+00,-6.595535755157470703e+00,3.303937673568725586e+00,-2.040825347900390625e+02,-9.697543334960937500e+01,-1.765195770263671875e+02,4.033146500587463379e-01,-6.667444610595703125e+01,-1.826887054443359375e+02,-2.343178272247314453e+00,7.562277984619140625e+01,3.135697174072265625e+01
4.057190120220184326e-01,1.000000000000000000e+00,3.779309749603271484e+00,-6.541993141174316406e+00,3.312904119491577148e+00,-2.040312805175781250e+02,-9.689961242675781250e+01,-1.764595489501953125e+02,4.033146500587463379e-01,-6.667444610595703125e+01,-1.826887054443359375e+02,-2.343250274658203125e+00,7.562299346923828125e+01,3.135697174072265625e+01
4.088830053806304932e-01,1.000000000000000000e+00,3.718279123306274414e+00,-6.488563537597656250e+00,3.322154998779296875e+00,-2.039807586669921875e+02,-9.682375335693359375e+01,-1.763993988037109375e+02,4.033146500587463379e-01,-6.667444610595703125e+01,-1.826887054443359375e+02,-2.343178272247314453e+00,7.562291717529296875e+01,3.135697174072265625e+01
4.127669930458068848e-01,1.000000000000000000e+00,3.657334566116333008e+00,-6.435066699981689453e+00,3.331650018692016602e+00,-2.039302978515625000e+02,-9.674782562255859375e+01,-1.763382263183593750e+02,4.033146500587463379e-01,-6.667444610595703125e+01,-1.826887054443359375e+02,-2.343178272247314453e+00,7.562291717529296875e+01,3.135697174072265625e+01
4.156509935855865479e-01,1.000000000000000000e+00,3.595902204513549805e+00,-6.381546974182128906e+00,3.341124534606933594e+00,-2.038786315917968750e+02,-9.667105102539062500e+01,-1.762778167724609375e+02,4.033146500587463379e-01,-6.667444610595703125e+01,-1.826887054443359375e+02,-2.343178272247314453e+00,7.562299346923828125e+01,3.135697174072265625e+01
4.195899963378906250e-01,1.000000000000000000e+00,3.534756660461425781e+00,-6.327891349792480469e+00,3.350456953048706055e+00,-2.038280029296875000e+02,-9.659544372558593750e+01,-1.762174530029296875e+02,4.033146500587463379e-01,-6.667444610595703125e+01,-1.826887054443359375e+02,-2.343178272247314453e+00,7.562291717529296875e+01,3.135697174072265625e+01
4.235869944095611572e-01,1.000000000000000000e+00,3.473553657531738281e+00,-6.274145126342773438e+00,3.359667301177978516e+00,-2.037774963378906250e+02,-9.651973724365234375e+01,-1.761565551757812500e+02,4.033146500587463379e-01,-6.667435455322265625e+01,-1.826887054443359375e+02,-2.343178272247314453e+00,7.562291717529296875e+01,3.135697174072265625e+01
4.276680052280426025e-01,1.000000000000000000e+00,3.412379503250122070e+00,-6.220489978790283203e+00,3.368572473526000977e+00,-2.037261810302734375e+02,-9.644413757324218750e+01,-1.760956573486328125e+02,4.033146500587463379e-01,-6.667444610595703125e+01,-1.826887054443359375e+02,-2.343250274658203125e+00,7.562299346923828125e+01,3.135697174072265625e+01
4.315859973430633545e-01,1.000000000000000000e+00,3.351233959197998047e+00,-6.166698455810546875e+00,3.377660751342773438e+00,-2.036753540039062500e+02,-9.636752319335937500e+01,-1.760355529785156250e+02,4.033146500587463379e-01,-6.667444610595703125e+01,-1.826887054443359375e+02,-2.343178272247314453e+00,7.562277984619140625e+01,3.135697174072265625e+01
4.355840086936950684e-01,1.000000000000000000e+00,3.289973497390747070e+00,-6.112816810607910156e+00,3.386952400207519531e+00,-2.036243743896484375e+02,-9.629176330566406250e+01,-1.759738616943359375e+02,4.033146500587463379e-01,-6.667444610595703125e+01,-1.826887054443359375e+02,-2.343178272247314453e+00,7.562291717529296875e+01,3.135697174072265625e+01
4.396469891071319580e-01,1.000000000000000000e+00,3.228684425354003906e+00,-6.059093475341796875e+00,3.396305084228515625e+00,-2.035729064941406250e+02,-9.621621704101562500e+01,-1.759128875732421875e+02,4.033146500587463379e-01,-6.667444610595703125e+01,-1.826887054443359375e+02,-2.343178272247314453e+00,7.562291717529296875e+01,3.135697174072265625e+01
4.436300098896026611e-01,1.000000000000000000e+00,3.167079448699951172e+00,-6.005392074584960938e+00,3.405555963516235352e+00,-2.035227661132812500e+02,-9.614039611816406250e+01,-1.758532104492187500e+02,4.033146500587463379e-01,-6.667444610595703125e+01,-1.826887054443359375e+02,-2.343178272247314453e+00,7.562291717529296875e+01,3.135697174072265625e+01
4.476029872894287109e-01,1.000000000000000000e+00,3.105761766433715820e+00,-5.951601028442382812e+00,3.414867877960205078e+00,-2.034720306396484375e+02,-9.606362152099609375e+01,-1.757914886474609375e+02,4.033146500587463379e-01,-6.667444610595703125e+01,-1.826887054443359375e+02,-2.343178272247314453e+00,7.562291717529296875e+01,3.135697174072265625e+01
4.516620039939880371e-01,1.000000000000000000e+00,3.044099569320678711e+00,-5.897787094116210938e+00,3.423895359039306641e+00,-2.034207763671875000e+02,-9.598786163330078125e+01,-1.757304534912109375e+02,4.033146500587463379e-01,-6.667453765869140625e+01,-1.826887054443359375e+02,-2.343178272247314453e+00,7.562291717529296875e+01,3.135697174072265625e+01
4.555880129337310791e-01,1.000000000000000000e+00,2.982465982437133789e+00,-5.843814849853515625e+00,3.433166742324829102e+00,-2.033698577880859375e+02,-9.591236877441406250e+01,-1.756707000732421875e+02,4.033146500587463379e-01,-6.667444610595703125e+01,-1.826887054443359375e+02,-2.343178272247314453e+00,7.562291717529296875e+01,3.135697174072265625e+01
4.595839977264404297e-01,1.000000000000000000e+00,2.921033620834350586e+00,-5.790046215057373047e+00,3.442600727081298828e+00,-2.033189697265625000e+02,-9.583649444580078125e+01,-1.756096038818359375e+02,4.033146500587463379e-01,-6.667453765869140625e+01,-1.826887054443359375e+02,-2.343250274658203125e+00,7.562299346923828125e+01,3.135697174072265625e+01
4.637669920921325684e-01,1.000000000000000000e+00,2.859399795532226562e+00,-5.736367702484130859e+00,3.452176809310913086e+00,-2.032683410644531250e+02,-9.575998687744140625e+01,-1.755486297607421875e+02,4.033146500587463379e-01,-6.667444610595703125e+01,-1.826887054443359375e+02,-2.343178272247314453e+00,7.562291717529296875e+01,3.135697174072265625e+01
4.676679968833923340e-01,1.000000000000000000e+00,2.797823667526245117e+00,-5.682757377624511719e+00,3.461692094802856445e+00,-2.032182006835937500e+02,-9.568401336669921875e+01,-1.754885559082031250e+02,4.033146500587463379e-01,-6.667444610595703125e+01,-1.826887054443359375e+02,-2.343250274658203125e+00,7.562277984619140625e+01,3.135697174072265625e+01
4.717099964618682861e-01,1.000000000000000000e+00,2.736505985260009766e+00,-5.629169940948486328e+00,3.471085309982299805e+00,-2.031669921875000000e+02,-9.560867309570312500e+01,-1.754272460937500000e+02,4.033146500587463379e-01,-6.667444610595703125e+01,-1.826887054443359375e+02,-2.343178272247314453e+00,7.562291717529296875e+01,3.135697174072265625e+01
4.756689965724945068e-01,1.000000000000000000e+00,2.675016164779663086e+00,-5.575220108032226562e+00,3.480194091796875000e+00,-2.031162261962890625e+02,-9.553291320800781250e+01,-1.753666992187500000e+02,4.033146500587463379e-01,-6.667435455322265625e+01,-1.826887054443359375e+02,-2.343178272247314453e+00,7.562291717529296875e+01,3.135697174072265625e+01
4.796159863471984863e-01,1.000000000000000000e+00,2.613927841186523438e+00,-5.521406173706054688e+00,3.489322900772094727e+00,-2.030660705566406250e+02,-9.545651245117187500e+01,-1.753072204589843750e+02,4.033146500587463379e-01,-6.667435455322265625e+01,-1.826887054443359375e+02,-2.343178272247314453e+00,7.562291717529296875e+01,3.135697174072265625e+01
4.835959970951080322e-01,1.000000000000000000e+00,2.552466630935668945e+00,-5.467569828033447266e+00,3.498574018478393555e+00,-2.030146179199218750e+02,-9.538090515136718750e+01,-1.752464599609375000e+02,4.033146500587463379e-01,-6.667444610595703125e+01,-1.826887054443359375e+02,-2.343178272247314453e+00,7.562291717529296875e+01,3.135697174072265625e+01
4.876520037651062012e-01,1.000000000000000000e+00,2.491235017776489258e+00,-5.413778305053710938e+00,3.507804632186889648e+00,-2.029641571044921875e+02,-9.530530548095703125e+01,-1.751851501464843750e+02,4.033146500587463379e-01,-6.667453765869140625e+01,-1.826887054443359375e+02,-2.343250274658203125e+00,7.562291717529296875e+01,3.135697174072265625e+01
4.915890097618103027e-01,1.000000000000000000e+00,2.430089473724365234e+00,-5.360077857971191406e+00,3.516974449157714844e+00,-2.029134826660156250e+02,-9.522927856445312500e+01,-1.751255340576171875e+02,4.033146500587463379e-01,-6.667435455322265625e+01,-1.826887054443359375e+02,-2.343250274658203125e+00,7.562291717529296875e+01,3.135697174072265625e+01
4.956229925155639648e-01,1.000000000000000000e+00,2.368771791458129883e+00,-5.306376934051513672e+00,3.526082754135131836e+00,-2.028621826171875000e+02,-9.515309143066406250e+01,-1.750642242431640625e+02,4.033146500587463379e-01,-6.667444610595703125e+01,-1.826887054443359375e+02,-2.343250274658203125e+00,7.562291717529296875e+01,3.135697174072265625e+01
4.996579885482788086e-01,1.000000000000000000e+00,2.307626247406005859e+00,-5.252856731414794922e+00,3.535110235214233398e+00,-2.028110961914062500e+02,-9.507721710205078125e+01,-1.750036010742187500e+02,4.033146500587463379e-01,-6.667444610595703125e+01,-1.826887054443359375e+02,-2.343178272247314453e+00,7.562291717529296875e+01,3.135697174072265625e+01
5.036029815673828125e-01,1.000000000000000000e+00,2.246710300445556641e+00,-5.199065685272216797e+00,3.544280052185058594e+00,-2.027604064941406250e+02,-9.500193786621093750e+01,-1.749437103271484375e+02,4.033146500587463379e-01,-6.667444610595703125e+01,-1.826887054443359375e+02,-2.343178272247314453e+00,7.562291717529296875e+01,3.135697174072265625e+01
5.075820088386535645e-01,1.000000000000000000e+00,2.185392618179321289e+00,-5.145410537719726562e+00,3.553734302520751953e+00,-2.027092590332031250e+02,-9.492585754394531250e+01,-1.748826751708984375e+02,4.033146500587463379e-01,-6.667444610595703125e+01,-1.826887054443359375e+02,-2.343178272247314453e+00,7.562277984619140625e+01,3.135697174072265625e+01
5.116009712219238281e-01,1.000000000000000000e+00,2.124103546142578125e+00,-5.091935634613037109e+00,3.563046216964721680e+00,-2.026586914062500000e+02,-9.485009002685546875e+01,-1.748213043212890625e+02,4.033146500587463379e-01,-6.667444610595703125e+01,-1.826887054443359375e+02,-2.343178272247314453e+00,7.562291717529296875e+01,3.135697174072265625e+01
5.157080292701721191e-01,1.000000000000000000e+00,2.062871932983398438e+00,-5.038506507873535156e+00,3.572459936141967773e+00,-2.026076660156250000e+02,-9.477427673339843750e+01,-1.747612915039062500e+02,4.033146500587463379e-01,-6.667444610595703125e+01,-1.826887054443359375e+02,-2.343178272247314453e+00,7.562291717529296875e+01,3.135697174072265625e+01
5.196049809455871582e-01,1.000000000000000000e+00,2.001697778701782227e+00,-4.985212802886962891e+00,3.581609010696411133e+00,-2.025568847656250000e+02,-9.469899749755859375e+01,-1.746999206542968750e+02,4.033146500587463379e-01,-6.667444610595703125e+01,-1.826887054443359375e+02,-2.343178272247314453e+00,7.562291717529296875e+01,3.135697174072265625e+01
5.235980153083801270e-01,1.000000000000000000e+00,1.940580725669860840e+00,-4.931715965270996094e+00,3.590656518936157227e+00,-2.025064697265625000e+02,-9.462269592285156250e+01,-1.746390228271484375e+02,4.033146500587463379e-01,-6.667435455322265625e+01,-1.826887054443359375e+02,-2.343178272247314453e+00,7.562291717529296875e+01,3.135697174072265625e+01
5.276979804039001465e-01,1.000000000000000000e+00,1.879722476005554199e+00,-4.878377437591552734e+00,3.599724769592285156e+00,-2.024551696777343750e+02,-9.454725646972656250e+01,-1.745791931152343750e+02,4.033146500587463379e-01,-6.667435455322265625e+01,-1.826887054443359375e+02,-2.343250274658203125e+00,7.562291717529296875e+01,3.135697174072265625e+01
5.316590070724487305e-01,1.000000000000000000e+00,1.818835258483886719e+00,-4.824879646301269531e+00,3.609016418457031250e+00,-2.024047088623046875e+02,-9.447138977050781250e+01,-1.745182342529296875e+02,4.033146500587463379e-01,-6.667444610595703125e+01,-1.826887054443359375e+02,-2.343178272247314453e+00,7.562291717529296875e+01,3.135697174072265625e+01
5.356370210647583008e-01,1.000000000000000000e+00,1.758005499839782715e+00,-4.771246910095214844e+00,3.618206024169921875e+00,-2.023541412353515625e+02,-9.439546203613281250e+01,-1.744573974609375000e+02,4.033146500587463379e-01,-6.667444610595703125e+01,-1.826887054443359375e+02,-2.343250274658203125e+00,7.562291717529296875e+01,3.135697174072265625e+01
5.396339893341064453e-01,1.000000000000000000e+00,1.696888685226440430e+00,-4.717659473419189453e+00,3.627457141876220703e+00,-2.023028869628906250e+02,-9.431970214843750000e+01,-1.743973083496093750e+02,4.033146500587463379e-01,-6.667444610595703125e+01,-1.826887054443359375e+02,-2.343178272247314453e+00,7.562291717529296875e+01,3.135697174072265625e+01
5.445970296859741211e-01,1.000000000000000000e+00,1.635886669158935547e+00,-4.664049148559570312e+00,3.636545658111572266e+00,-2.022525329589843750e+02,-9.424468994140625000e+01,-1.743361358642578125e+02,4.033146500587463379e-01,-6.667444610595703125e+01,-1.826887054443359375e+02,-2.343178272247314453e+00,7.562291717529296875e+01,3.135697174072265625e+01
5.480350255966186523e-01,1.000000000000000000e+00,1.574942231178283691e+00,-4.610393524169921875e+00,3.645593404769897461e+00,-2.022020721435546875e+02,-9.416925048828125000e+01,-1.742750396728515625e+02,4.033146500587463379e-01,-6.667453765869140625e+01,-1.826887054443359375e+02,-2.343178272247314453e+00,7.562299346923828125e+01,3.135697174072265625e+01
5.514950156211853027e-01,1.000000000000000000e+00,1.513940095901489258e+00,-4.556760787963867188e+00,3.654722452163696289e+00,-2.021504516601562500e+02,-9.409332275390625000e+01,-1.742156982421875000e+02,4.033146500587463379e-01,-6.667444610595703125e+01,-1.826887054443359375e+02,-2.343178272247314453e+00,7.562291717529296875e+01,3.135675048828125000e+01
5.556619763374328613e-01,1.000000000000000000e+00,1.513940095901489258e+00,-4.556760787963867188e+00,3.654722452163696289e+00,-2.021504516601562500e+02,-9.409332275390625000e+01,-1.742156982421875000e+02,4.033146500587463379e-01,-6.667444610595703125e+01,-1.826887054443359375e+02,-2.343178272247314453e+00,7.562291717529296875e+01,3.135675048828125000e+01
5.606120228767395020e-01,1.000000000000000000e+00,1.452966809272766113e+00,-4.503195762634277344e+00,3.664115667343139648e+00,-2.021000976562500000e+02,-9.401702880859375000e+01,-1.741554107666015625e+02,4.033146500587463379e-01,-6.667444610595703125e+01,-1.826887054443359375e+02,-2.343106746673583984e+00,7.562291717529296875e+01,3.135697174072265625e+01
5.635989904403686523e-01,1.000000000000000000e+00,1.331077694892883301e+00,-4.396088123321533203e+00,3.682922601699829102e+00,-2.019982757568359375e+02,-9.386667633056640625e+01,-1.740344238281250000e+02,4.033146500587463379e-01,-6.667444610595703125e+01,-1.826887054443359375e+02,-2.343178272247314453e+00,7.562291717529296875e+01,3.135697174072265625e+01
5.676360130310058594e-01,1.000000000000000000e+00,1.331077694892883301e+00,-4.396088123321533203e+00,3.682922601699829102e+00,-2.019982757568359375e+02,-9.386667633056640625e+01,-1.740344238281250000e+02,4.033146500587463379e-01,-6.667444610595703125e+01,-1.826887054443359375e+02,-2.343178272247314453e+00,7.562291717529296875e+01,3.135697174072265625e+01
5.726320147514343262e-01,1.000000000000000000e+00,1.269846200942993164e+00,-4.342342376708984375e+00,3.692153215408325195e+00,-2.019474945068359375e+02,-9.379101562500000000e+01,-1.739736633300781250e+02,4.033146500587463379e-01,-6.667453765869140625e+01,-1.826887054443359375e+02,-2.343250274658203125e+00,7.562291717529296875e+01,3.135697174072265625e+01
5.758829712867736816e-01,1.000000000000000000e+00,1.147440195083618164e+00,-4.235053539276123047e+00,3.710268497467041016e+00,-2.018454132080078125e+02,-9.363922882080078125e+01,-1.738532257080078125e+02,4.033146500587463379e-01,-6.667453765869140625e+01,-1.826887054443359375e+02,-2.343178272247314453e+00,7.562291717529296875e+01,3.135697174072265625e+01
5.821899771690368652e-01,1.000000000000000000e+00,1.086266040802001953e+00,-4.181602001190185547e+00,3.719418048858642578e+00,-2.017951202392578125e+02,-9.356389617919921875e+01,-1.737928009033203125e+02,4.033146500587463379e-01,-6.667444610595703125e+01,-1.826887054443359375e+02,-2.343178272247314453e+00,7.562291717529296875e+01,3.135697174072265625e+01
5.836640000343322754e-01,1.000000000000000000e+00,1.024948239326477051e+00,-4.128036975860595703e+00,3.728648662567138672e+00,-2.017442779541015625e+02,-9.348781585693359375e+01,-1.737312164306640625e+02,4.033146500587463379e-01,-6.667453765869140625e+01,-1.826887054443359375e+02,-2.343178272247314453e+00,7.562291717529296875e+01,3.135697174072265625e+01
5.876340270042419434e-01,1.000000000000000000e+00,1.024948239326477051e+00,-4.128036975860595703e+00,3.728648662567138672e+00,-2.017442779541015625e+02,-9.348781585693359375e+01,-1.737312164306640625e+02,4.033146500587463379e-01,-6.667453765869140625e+01,-1.826887054443359375e+02,-2.343178272247314453e+00,7.562291717529296875e+01,3.135697174072265625e+01
5.927069783210754395e-01,1.000000000000000000e+00,9.637453556060791016e-01,-4.074223041534423828e+00,3.737838506698608398e+00,-2.016931762695312500e+02,-9.341210174560546875e+01,-1.736711273193359375e+02,4.033146500587463379e-01,-6.667444610595703125e+01,-1.826887054443359375e+02,-2.343178272247314453e+00,7.562291717529296875e+01,3.135697174072265625e+01
5.961549878120422363e-01,1.000000000000000000e+00,8.416839838027954102e-01,-3.966594934463500977e+00,3.756117105484008789e+00,-2.015913696289062500e+02,-9.326089477539062500e+01,-1.735493316650390625e+02,4.033146500587463379e-01,-6.667453765869140625e+01,-1.826887054443359375e+02,-2.343178272247314453e+00,7.562299346923828125e+01,3.135697174072265625e+01
5.995619893074035645e-01,1.000000000000000000e+00,7.805097103118896484e-01,-3.912916898727416992e+00,3.765265941619873047e+00,-2.015410003662109375e+02,-9.318465423583984375e+01,-1.734893188476562500e+02,4.033146500587463379e-01,-6.667453765869140625e+01,-1.826887054443359375e+02,-2.343178272247314453e+00,7.562291717529296875e+01,3.135697174072265625e+01
6.036620140075683594e-01,1.000000000000000000e+00,7.805097103118896484e-01,-3.912916898727416992e+00,3.765265941619873047e+00,-2.015410003662109375e+02,-9.318465423583984375e+01,-1.734893188476562500e+02,4.033146500587463379e-01,-6.667453765869140625e+01,-1.826887054443359375e+02,-2.343178272247314453e+00,7.562291717529296875e+01,3.135697174072265625e+01
6.079279780387878418e-01,1.000000000000000000e+00,6.581900119781494141e-01,-3.805537700653076172e+00,3.784072875976562500e+00,-2.014399871826171875e+02,-9.303387451171875000e+01,-1.733685302734375000e+02,4.033146500587463379e-01,-6.667435455322265625e+01,-1.826887054443359375e+02,-2.343250274658203125e+00,7.562291717529296875e+01,3.135697174072265625e+01
6.116480231285095215e-01,1.000000000000000000e+00,6.581900119781494141e-01,-3.805537700653076172e+00,3.784072875976562500e+00,-2.014399871826171875e+02,-9.303387451171875000e+01,-1.733685302734375000e+02,4.033146500587463379e-01,-6.667435455322265625e+01,-1.826887054443359375e+02,-2.343250274658203125e+00,7.562291717529296875e+01,3.135697174072265625e+01
6.156319975852966309e-01,1.000000000000000000e+00,5.971018671989440918e-01,-3.752040624618530273e+00,3.793486595153808594e+00,-2.013891601562500000e+02,-9.295822143554687500e+01,-1.733080291748046875e+02,4.033146500587463379e-01,-6.667444610595703125e+01,-1.826887054443359375e+02,-2.343178272247314453e+00,7.562291717529296875e+01,3.135697174072265625e+01
6.197530031204223633e-01,1.000000000000000000e+00,5.361573100090026855e-01,-3.698226928710937500e+00,3.802737712860107422e+00,-2.013387298583984375e+02,-9.288175964355468750e+01,-1.732479553222656250e+02,4.033146500587463379e-01,-6.667444610595703125e+01,-1.826887054443359375e+02,-2.343250274658203125e+00,7.562291717529296875e+01,3.135697174072265625e+01
6.236990094184875488e-01,1.000000000000000000e+00,4.753276109695434570e-01,-3.644797801971435547e+00,3.811887264251708984e+00,-2.012875366210937500e+02,-9.280621337890625000e+01,-1.731867828369140625e+02,4.033146500587463379e-01,-6.667444610595703125e+01,-1.826887054443359375e+02,-2.343250274658203125e+00,7.562291717529296875e+01,3.135697174072265625e+01
6.276370286941528320e-01,1.000000000000000000e+00,4.142394661903381348e-01,-3.591254949569702148e+00,3.820914268493652344e+00,-2.012373504638671875e+02,-9.273093414306640625e+01,-1.731268310546875000e+02,4.033146500587463379e-01,-6.667453765869140625e+01,-1.826887054443359375e+02,-2.343250274658203125e+00,7.562277984619140625e+01,3.135697174072265625e+01
6.316300034523010254e-01,1.000000000000000000e+00,3.533523082733154297e-01,-3.537848472595214844e+00,3.830185651779174805e+00,-2.011868896484375000e+02,-9.265505981445312500e+01,-1.730672912597656250e+02,4.033146500587463379e-01,-6.667444610595703125e+01,-1.826887054443359375e+02,-2.343178272247314453e+00,7.562291717529296875e+01,3.135675048828125000e+01
6.356980204582214355e-01,1.000000000000000000e+00,2.921780943870544434e-01,-3.484419345855712891e+00,3.839375734329223633e+00,-2.011355743408203125e+02,-9.257871246337890625e+01,-1.730060577392578125e+02,4.033146500587463379e-01,-6.667435455322265625e+01,-1.826887054443359375e+02,-2.343178272247314453e+00,7.562277984619140625e+01,3.135697174072265625e+01
6.396480202674865723e-01,1.000000000000000000e+00,2.309464663267135620e-01,-3.431035518646240234e+00,3.848423242568969727e+00,-2.010848541259765625e+02,-9.250273895263671875e+01,-1.729458312988281250e+02,4.033146500587463379e-01,-6.667444610595703125e+01,-1.826887054443359375e+02,-2.343178272247314453e+00,7.562291717529296875e+01,3.135697174072265625e+01
6.436439752578735352e-01,1.000000000000000000e+00,1.697435230016708374e-01,-3.377606153488159180e+00,3.857429981231689453e+00,-2.010338134765625000e+02,-9.242772674560546875e+01,-1.728858184814453125e+02,4.033146500587463379e-01,-6.667444610595703125e+01,-1.826887054443359375e+02,-2.343178272247314453e+00,7.562291717529296875e+01,3.135697174072265625e+01
6.476929783821105957e-01,1.000000000000000000e+00,1.086841225624084473e-01,-3.324109077453613281e+00,3.866437435150146484e+00,-2.009831390380859375e+02,-9.235206604003906250e+01,-1.728247680664062500e+02,4.033146500587463379e-01,-6.667444610595703125e+01,-1.826887054443359375e+02,-2.343178272247314453e+00,7.562291717529296875e+01,3.135697174072265625e+01
6.516479849815368652e-01,1.000000000000000000e+00,4.768214374780654907e-02,-3.270498752593994141e+00,3.875505208969116211e+00,-2.009329376220703125e+02,-9.227583312988281250e+01,-1.727644195556640625e+02,4.033146500587463379e-01,-6.667444610595703125e+01,-1.826887054443359375e+02,-2.343178272247314453e+00,7.562299346923828125e+01,3.135697174072265625e+01
6.556249856948852539e-01,1.000000000000000000e+00,-1.329113263636827469e-02,-3.216956377029418945e+00,3.884877920150756836e+00,-2.008818969726562500e+02,-9.220011901855468750e+01,-1.727045288085937500e+02,4.033146500587463379e-01,-6.667444610595703125e+01,-1.826887054443359375e+02,-2.343250274658203125e+00,7.562277984619140625e+01,3.135697174072265625e+01
6.596969962120056152e-01,1.000000000000000000e+00,-7.414957880973815918e-02,-3.163436412811279297e+00,3.894190073013305664e+00,-2.008309631347656250e+02,-9.212477874755859375e+01,-1.726427612304687500e+02,4.033146500587463379e-01,-6.667444610595703125e+01,-1.826887054443359375e+02,-2.343178272247314453e+00,7.562291717529296875e+01,3.135697174072265625e+01
6.636800169944763184e-01,1.000000000000000000e+00,-1.350080221891403198e-01,-3.109939575195312500e+00,3.903563261032104492e+00,-2.007805633544921875e+02,-9.204928588867187500e+01,-1.725822601318359375e+02,4.033146500587463379e-01,-6.667444610595703125e+01,-1.826887054443359375e+02,-2.343250274658203125e+00,7.562291717529296875e+01,3.135697174072265625e+01
6.678000092506408691e-01,1.000000000000000000e+00,-1.961535513401031494e-01,-3.056510210037231445e+00,3.912732839584350586e+00,-2.007294158935546875e+02,-9.197299194335937500e+01,-1.725225219726562500e+02,4.033146500587463379e-01,-6.667453765869140625e+01,-1.826887054443359375e+02,-2.343178272247314453e+00,7.562291717529296875e+01,3.135697174072265625e+01
6.717020273208618164e-01,1.000000000000000000e+00,-2.570407092571258545e-01,-3.002990484237670898e+00,3.921841382980346680e+00,-2.006789550781250000e+02,-9.189754486083984375e+01,-1.724611511230468750e+02,4.033146500587463379e-01,-6.667444610595703125e+01,-1.826887054443359375e+02,-2.343178272247314453e+00,7.562291717529296875e+01,3.135719108581542969e+01
6.756380200386047363e-01,1.000000000000000000e+00,-3.180139958858489990e-01,-2.949561119079589844e+00,3.930828094482421875e+00,-2.006287536621093750e+02,-9.182215881347656250e+01,-1.724007720947265625e+02,4.033146500587463379e-01,-6.667444610595703125e+01,-1.826887054443359375e+02,-2.343178272247314453e+00,7.562291717529296875e+01,3.135697174072265625e+01
6.796630024909973145e-01,1.000000000000000000e+00,-3.789298534393310547e-01,-2.895905733108520508e+00,3.940058708190917969e+00,-2.005779724121093750e+02,-9.174655914306640625e+01,-1.723409118652343750e+02,4.033146500587463379e-01,-6.667444610595703125e+01,-1.826887054443359375e+02,-2.343178272247314453e+00,7.562291717529296875e+01,3.135697174072265625e+01
6.836749911308288574e-01,1.000000000000000000e+00,-4.397882819175720215e-01,-2.842385768890380859e+00,3.949329853057861328e+00,-2.005278320312500000e+02,-9.167047882080078125e+01,-1.722800140380859375e+02,4.033146500587463379e-01,-6.667444610595703125e+01,-1.826887054443359375e+02,-2.343178272247314453e+00,7.562277984619140625e+01,3.135697174072265625e+01
6.876369714736938477e-01,1.000000000000000000e+00,-5.008764266967773438e-01,-2.789047241210937500e+00,3.958499670028686523e+00,-2.004774627685546875e+02,-9.159487152099609375e+01,-1.722195129394531250e+02,4.033146500587463379e-01,-6.667453765869140625e+01,-1.826887054443359375e+02,-2.343250274658203125e+00,7.562299346923828125e+01,3.135697174072265625e+01
6.923549771308898926e-01,1.000000000000000000e+00,-5.618783831596374512e-01,-2.735685825347900391e+00,3.967709779739379883e+00,-2.004258880615234375e+02,-9.151974487304687500e+01,-1.721595001220703125e+02,4.033146500587463379e-01,-6.667444610595703125e+01,-1.826887054443359375e+02,-2.343250274658203125e+00,7.562291717529296875e+01,3.135697174072265625e+01
6.960170269012451172e-01,1.000000000000000000e+00,-6.229377388954162598e-01,-2.682414770126342773e+00,3.976716756820678711e+00,-2.003757019042968750e+02,-9.144419860839843750e+01,-1.720989379882812500e+02,4.033146500587463379e-01,-6.667444610595703125e+01,-1.826887054443359375e+02,-2.343178272247314453e+00,7.562291717529296875e+01,3.135697174072265625e+01
6.992949843406677246e-01,1.000000000000000000e+00,-6.842555403709411621e-01,-2.628669023513793945e+00,3.985764503479003906e+00,-2.003255615234375000e+02,-9.136795806884765625e+01,-1.720382995605468750e+02,4.033146500587463379e-01,-6.667453765869140625e+01,-1.826887054443359375e+02,-2.343178272247314453e+00,7.562291717529296875e+01,3.135697174072265625e+01
7.036880254745483398e-01,1.000000000000000000e+00,-7.455446124076843262e-01,-2.575013399124145508e+00,3.995157957077026367e+00,-2.002742004394531250e+02,-9.129267883300781250e+01,-1.719788970947265625e+02,4.033146500587463379e-01,-6.667444610595703125e+01,-1.826887054443359375e+02,-2.343178272247314453e+00,7.562291717529296875e+01,3.135697174072265625e+01
7.077029943466186523e-01,1.000000000000000000e+00,-8.067762255668640137e-01,-2.521403074264526367e+00,4.004571437835693359e+00,-2.002238922119140625e+02,-9.121760559082031250e+01,-1.719184112548828125e+02,4.033146500587463379e-01,-6.667444610595703125e+01,-1.826887054443359375e+02,-2.343178272247314453e+00,7.562277984619140625e+01,3.135697174072265625e+01
7.116320133209228516e-01,1.000000000000000000e+00,-8.678930401802062988e-01,-2.467725038528442383e+00,4.013944149017333984e+00,-2.001730194091796875e+02,-9.114237976074218750e+01,-1.718573760986328125e+02,4.033146500587463379e-01,-6.667444610595703125e+01,-1.826887054443359375e+02,-2.343178272247314453e+00,7.562299346923828125e+01,3.135697174072265625e+01
7.163490056991577148e-01,1.000000000000000000e+00,-9.291533231735229492e-01,-2.414273023605346680e+00,4.023134231567382812e+00,-2.001215972900390625e+02,-9.106703948974609375e+01,-1.717978210449218750e+02,4.033146500587463379e-01,-6.667435455322265625e+01,-1.826887054443359375e+02,-2.343106746673583984e+00,7.562299346923828125e+01,3.135697174072265625e+01
7.200289964675903320e-01,1.000000000000000000e+00,-9.900979399681091309e-01,-2.360662698745727539e+00,4.032182216644287109e+00,-2.000717773437500000e+02,-9.099181365966796875e+01,-1.717373352050781250e+02,4.033146500587463379e-01,-6.667444610595703125e+01,-1.826887054443359375e+02,-2.343250274658203125e+00,7.562291717529296875e+01,3.135697174072265625e+01
7.235059738159179688e-01,1.000000000000000000e+00,-1.050985097885131836e+00,-2.307210922241210938e+00,4.041168689727783203e+00,-2.000212097167968750e+02,-9.091600036621093750e+01,-1.716765747070312500e+02,4.033146500587463379e-01,-6.667435455322265625e+01,-1.826887054443359375e+02,-2.343178272247314453e+00,7.562291717529296875e+01,3.135697174072265625e+01
7.276329994201660156e-01,1.000000000000000000e+00,-1.112245440483093262e+00,-2.253600597381591797e+00,4.050297737121582031e+00,-1.999702606201171875e+02,-9.084033966064453125e+01,-1.716169586181640625e+02,4.033146500587463379e-01,-6.667444610595703125e+01,-1.826887054443359375e+02,-2.343250274658203125e+00,7.562291717529296875e+01,3.135697174072265625e+01
7.317050099372863770e-01,1.000000000000000000e+00,-1.173103928565979004e+00,-2.199877262115478516e+00,4.059446811676025391e+00,-1.999196472167968750e+02,-9.076522064208984375e+01,-1.715563354492187500e+02,4.033146500587463379e-01,-6.667435455322265625e+01,-1.826887054443359375e+02,-2.343178272247314453e+00,7.562277984619140625e+01,3.135697174072265625e+01
7.356470227241516113e-01,1.000000000000000000e+00,-1.234105944633483887e+00,-2.146515846252441406e+00,4.068657398223876953e+00,-1.998687133789062500e+02,-9.069025421142578125e+01,-1.714949645996093750e+02,4.033146500587463379e-01,-6.667453765869140625e+01,-1.826887054443359375e+02,-2.343178272247314453e+00,7.562291717529296875e+01,3.135697174072265625e+01
7.410269975662231445e-01,1.000000000000000000e+00,-1.295050382614135742e+00,-2.093018531799316406e+00,4.077826976776123047e+00,-1.998180541992187500e+02,-9.061486816406250000e+01,-1.714351348876953125e+02,4.033146500587463379e-01,-6.667444610595703125e+01,-1.826887054443359375e+02,-2.343178272247314453e+00,7.562299346923828125e+01,3.135697174072265625e+01
7.456949949264526367e-01,1.000000000000000000e+00,-1.355822801589965820e+00,-2.039680004119873047e+00,4.086894989013671875e+00,-1.997682647705078125e+02,-9.053878784179687500e+01,-1.713745117187500000e+02,4.033146500587463379e-01,-6.667444610595703125e+01,-1.826887054443359375e+02,-2.343250274658203125e+00,7.562291717529296875e+01,3.135697174072265625e+01
7.484650015830993652e-01,1.000000000000000000e+00,-1.477568387985229492e+00,-1.932889342308044434e+00,4.105295181274414062e+00,-1.996665496826171875e+02,-9.038859558105468750e+01,-1.712539978027343750e+02,4.033146500587463379e-01,-6.667444610595703125e+01,-1.826887054443359375e+02,-2.343178272247314453e+00,7.562291717529296875e+01,3.135697174072265625e+01
7.516739964485168457e-01,1.000000000000000000e+00,-1.477568387985229492e+00,-1.932889342308044434e+00,4.105295181274414062e+00,-1.996665496826171875e+02,-9.038859558105468750e+01,-1.712539978027343750e+02,4.033146500587463379e-01,-6.667444610595703125e+01,-1.826887054443359375e+02,-2.343178272247314453e+00,7.562291717529296875e+01,3.135697174072265625e+01
7.557039856910705566e-01,1.000000000000000000e+00,-1.538541674613952637e+00,-1.879460215568542480e+00,4.114668369293212891e+00,-1.996164550781250000e+02,-9.031320953369140625e+01,-1.711931762695312500e+02,4.033146500587463379e-01,-6.667444610595703125e+01,-1.826887054443359375e+02,-2.343178272247314453e+00,7.562277984619140625e+01,3.135697174072265625e+01
7.597590088844299316e-01,1.000000000000000000e+00,-1.599629759788513184e+00,-1.826008200645446777e+00,4.124082088470458984e+00,-1.995656890869140625e+02,-9.023744201660156250e+01,-1.711320037841796875e+02,4.033146500587463379e-01,-6.667453765869140625e+01,-1.826887054443359375e+02,-2.343178272247314453e+00,7.562299346923828125e+01,3.135697174072265625e+01
7.637979984283447266e-01,1.000000000000000000e+00,-1.660488247871398926e+00,-1.772601604461669922e+00,4.133393764495849609e+00,-1.995152587890625000e+02,-9.016194915771484375e+01,-1.710723876953125000e+02,4.033146500587463379e-01,-6.667444610595703125e+01,-1.826887054443359375e+02,-2.343106746673583984e+00,7.562299346923828125e+01,3.135697174072265625e+01
7.678070068359375000e-01,1.000000000000000000e+00,-1.721289277076721191e+00,-1.719036698341369629e+00,4.142481803894042969e+00,-1.994647064208984375e+02,-9.008666229248046875e+01,-1.710118408203125000e+02,4.033146500587463379e-01,-6.667444610595703125e+01,-1.826887054443359375e+02,-2.343178272247314453e+00,7.562291717529296875e+01,3.135697174072265625e+01
7.725539803504943848e-01,1.000000000000000000e+00,-1.782147765159606934e+00,-1.665403723716735840e+00,4.151468753814697266e+00,-1.994134063720703125e+02,-9.001116943359375000e+01,-1.709508056640625000e+02,4.033146500587463379e-01,-6.667444610595703125e+01,-1.826887054443359375e+02,-2.343178272247314453e+00,7.562291717529296875e+01,3.135697174072265625e+01
7.757639884948730469e-01,1.000000000000000000e+00,-1.842862486839294434e+00,-1.611906647682189941e+00,4.160577297210693359e+00,-1.993629455566406250e+02,-8.993508911132812500e+01,-1.708913879394531250e+02,4.033146500587463379e-01,-6.667444610595703125e+01,-1.826887054443359375e+02,-2.343178272247314453e+00,7.562291717529296875e+01,3.135697174072265625e+01
7.797740101814270020e-01,1.000000000000000000e+00,-1.903663635253906250e+00,-1.558567881584167480e+00,4.169787883758544922e+00,-1.993124694824218750e+02,-8.986017608642578125e+01,-1.708313598632812500e+02,4.033146500587463379e-01,-6.667444610595703125e+01,-1.826887054443359375e+02,-2.343250274658203125e+00,7.562291717529296875e+01,3.135697174072265625e+01
7.839300036430358887e-01,1.000000000000000000e+00,-1.964177608489990234e+00,-1.505229234695434570e+00,4.178875923156738281e+00,-1.992613372802734375e+02,-8.978441619873046875e+01,-1.707704010009765625e+02,4.033146500587463379e-01,-6.667435455322265625e+01,-1.826887054443359375e+02,-2.343178272247314453e+00,7.562291717529296875e+01,3.135697174072265625e+01
7.880280017852783203e-01,1.000000000000000000e+00,-2.024749040603637695e+00,-1.451732039451599121e+00,4.188045978546142578e+00,-1.992109222412109375e+02,-8.970886993408203125e+01,-1.707103881835937500e+02,4.033146500587463379e-01,-6.667444610595703125e+01,-1.826887054443359375e+02,-2.343250274658203125e+00,7.562291717529296875e+01,3.135697174072265625e+01
7.920339703559875488e-01,1.000000000000000000e+00,-2.085521221160888672e+00,-1.398167014122009277e+00,4.197072982788085938e+00,-1.991599273681640625e+02,-8.963262939453125000e+01,-1.706500244140625000e+02,4.033146500587463379e-01,-6.667444610595703125e+01,-1.826887054443359375e+02,-2.343250274658203125e+00,7.562291717529296875e+01,3.135697174072265625e+01
7.946000099182128906e-01,1.000000000000000000e+00,-2.146236181259155273e+00,-1.344692587852478027e+00,4.206099987030029297e+00,-1.991092071533203125e+02,-8.955771636962890625e+01,-1.705889282226562500e+02,4.033146500587463379e-01,-6.667435455322265625e+01,-1.826885528564453125e+02,-2.343250274658203125e+00,7.562291717529296875e+01,3.135697174072265625e+01
7.999799847602844238e-01,1.000000000000000000e+00,-2.206865072250366211e+00,-1.291308522224426270e+00,4.215371608734130859e+00,-1.990591735839843750e+02,-8.948227691650390625e+01,-1.705292358398437500e+02,4.033146500587463379e-01,-6.667444610595703125e+01,-1.826887054443359375e+02,-2.343178272247314453e+00,7.562277984619140625e+01,3.135697174072265625e+01
8.026210069656372070e-01,1.000000000000000000e+00,-2.267637252807617188e+00,-1.238083004951477051e+00,4.224724292755126953e+00,-1.990080718994140625e+02,-8.940650939941406250e+01,-1.704692230224609375e+02,4.033146500587463379e-01,-6.667444610595703125e+01,-1.826887054443359375e+02,-2.343178272247314453e+00,7.562277984619140625e+01,3.135697174072265625e+01
8.081859946250915527e-01,1.000000000000000000e+00,-2.328409671783447266e+00,-1.184902667999267578e+00,4.234035968780517578e+00,-1.989576110839843750e+02,-8.933010864257812500e+01,-1.704079284667968750e+02,4.033146500587463379e-01,-6.667435455322265625e+01,-1.826887054443359375e+02,-2.343250274658203125e+00,7.562299346923828125e+01,3.135697174072265625e+01
8.121650218963623047e-01,1.000000000000000000e+00,-2.389239549636840820e+00,-1.131314992904663086e+00,4.243490219116210938e+00,-1.989075622558593750e+02,-8.925531005859375000e+01,-1.703472900390625000e+02,4.033146500587463379e-01,-6.667444610595703125e+01,-1.826887054443359375e+02,-2.343178272247314453e+00,7.562277984619140625e+01,3.135697174072265625e+01
8.146690130233764648e-01,1.000000000000000000e+00,-2.450069189071655273e+00,-1.077795267105102539e+00,4.252599239349365234e+00,-1.988565826416015625e+02,-8.917975616455078125e+01,-1.702873382568359375e+02,4.033146500587463379e-01,-6.667444610595703125e+01,-1.826887054443359375e+02,-2.343178272247314453e+00,7.562291717529296875e+01,3.135697174072265625e+01
8.209969997406005859e-01,1.000000000000000000e+00,-2.511013746261596680e+00,-1.024252891540527344e+00,4.261484146118164062e+00,-1.988060760498046875e+02,-8.910394287109375000e+01,-1.702261657714843750e+02,4.033146500587463379e-01,-6.667444610595703125e+01,-1.826887054443359375e+02,-2.343178272247314453e+00,7.562291717529296875e+01,3.135697174072265625e+01
8.225749731063842773e-01,1.000000000000000000e+00,-2.572159290313720703e+00,-9.707330465316772461e-01,4.270491123199462891e+00,-1.987560729980468750e+02,-8.902770233154296875e+01,-1.701664123535156250e+02,4.033146500587463379e-01,-6.667435455322265625e+01,-1.826887054443359375e+02,-2.343178272247314453e+00,7.562291717529296875e+01,3.135697174072265625e+01
8.283110260963439941e-01,1.000000000000000000e+00,-2.633218765258789062e+00,-9.173490405082702637e-01,4.279741764068603516e+00,-1.987047882080078125e+02,-8.895273590087890625e+01,-1.701060638427734375e+02,4.033146500587463379e-01,-6.667444610595703125e+01,-1.826887054443359375e+02,-2.343178272247314453e+00,7.562291717529296875e+01,3.135697174072265625e+01
8.323969841003417969e-01,1.000000000000000000e+00,-2.694163322448730469e+00,-8.638519644737243652e-01,4.288972377777099609e+00,-1.986543121337890625e+02,-8.887751007080078125e+01,-1.700453796386718750e+02,4.033146500587463379e-01,-6.667444610595703125e+01,-1.826885528564453125e+02,-2.343178272247314453e+00,7.562291717529296875e+01,3.135697174072265625e+01
8.363109827041625977e-01,1.000000000000000000e+00,-2.755193948745727539e+00,-8.106037378311157227e-01,4.298203468322753906e+00,-1.986043243408203125e+02,-8.880131530761718750e+01,-1.699851531982421875e+02,4.033146500587463379e-01,-6.667444610595703125e+01,-1.826887054443359375e+02,-2.343250274658203125e+00,7.562291717529296875e+01,3.135697174072265625e+01
8.403779864311218262e-01,1.000000000000000000e+00,-2.816253185272216797e+00,-7.569935321807861328e-01,4.307149410247802734e+00,-1.985532379150390625e+02,-8.872566223144531250e+01,-1.699254150390625000e+02,4.033146500587463379e-01,-6.667444610595703125e+01,-1.826887054443359375e+02,-2.343178272247314453e+00,7.562299346923828125e+01,3.135697174072265625e+01
8.450940251350402832e-01,1.000000000000000000e+00,-2.876996994018554688e+00,-7.035642266273498535e-01,4.316136360168457031e+00,-1.985025482177734375e+02,-8.865048980712890625e+01,-1.698641052246093750e+02,4.033146500587463379e-01,-6.667444610595703125e+01,-1.826887054443359375e+02,-2.343178272247314453e+00,7.562291717529296875e+01,3.135697174072265625e+01
8.465840220451354980e-01,1.000000000000000000e+00,-2.937884092330932617e+00,-6.502934098243713379e-01,4.325387001037597656e+00,-1.984520568847656250e+02,-8.857558441162109375e+01,-1.698040161132812500e+02,4.033146500587463379e-01,-6.667444610595703125e+01,-1.826887054443359375e+02,-2.343178272247314453e+00,7.562291717529296875e+01,3.135697174072265625e+01
8.522610068321228027e-01,1.000000000000000000e+00,-2.999087095260620117e+00,-5.969094634056091309e-01,4.334760189056396484e+00,-1.984006347656250000e+02,-8.849971008300781250e+01,-1.697445983886718750e+02,4.033146500587463379e-01,-6.667444610595703125e+01,-1.826887054443359375e+02,-2.343178272247314453e+00,7.562291717529296875e+01,3.135697174072265625e+01
8.565499782562255859e-01,1.000000000000000000e+00,-3.060060262680053711e+00,-5.437517166137695312e-01,4.344071865081787109e+00,-1.983505401611328125e+02,-8.842411041259765625e+01,-1.696841125488281250e+02,4.033146500587463379e-01,-6.667444610595703125e+01,-1.826887054443359375e+02,-2.343250274658203125e+00,7.562291717529296875e+01,3.135697174072265625e+01
8.605499863624572754e-01,1.000000000000000000e+00,-3.121119737625122070e+00,-4.904582798480987549e-01,4.353404045104980469e+00,-1.983002471923828125e+02,-8.834887695312500000e+01,-1.696237487792968750e+02,4.033146500587463379e-01,-6.667444610595703125e+01,-1.826887054443359375e+02,-2.343250274658203125e+00,7.562291717529296875e+01,3.135697174072265625e+01
8.643950223922729492e-01,1.000000000000000000e+00,-3.182092905044555664e+00,-4.372779726982116699e-01,4.362512588500976562e+00,-1.982491455078125000e+02,-8.827381134033203125e+01,-1.695641479492187500e+02,4.033146500587463379e-01,-6.667453765869140625e+01,-1.826887054443359375e+02,-2.343250274658203125e+00,7.562291717529296875e+01,3.135697174072265625e+01
8.693649768829345703e-01,1.000000000000000000e+00,-3.242980003356933594e+00,-3.838939964771270752e-01,4.371438503265380859e+00,-1.981985321044921875e+02,-8.819766998291015625e+01,-1.695031738281250000e+02,4.033146500587463379e-01,-6.667444610595703125e+01,-1.826887054443359375e+02,-2.343178272247314453e+00,7.562291717529296875e+01,3.135697174072265625e+01
8.726209998130798340e-01,1.000000000000000000e+00,-3.303953409194946289e+00,-3.304647505283355713e-01,4.380445480346679688e+00,-1.981479034423828125e+02,-8.812255096435546875e+01,-1.694428863525390625e+02,4.033146500587463379e-01,-6.667444610595703125e+01,-1.826887054443359375e+02,-2.343178272247314453e+00,7.562299346923828125e+01,3.135675048828125000e+01
8.764939904212951660e-01,1.000000000000000000e+00,-3.365012884140014648e+00,-2.770807743072509766e-01,4.389493465423583984e+00,-1.980973815917968750e+02,-8.804748535156250000e+01,-1.693834686279296875e+02,4.033146500587463379e-01,-6.667444610595703125e+01,-1.826887054443359375e+02,-2.343250274658203125e+00,7.562277984619140625e+01,3.135697174072265625e+01
8.807229995727539062e-01,1.000000000000000000e+00,-3.425785064697265625e+00,-2.236967980861663818e-01,4.398601531982421875e+00,-1.980475616455078125e+02,-8.797235870361328125e+01,-1.693227844238281250e+02,4.033146500587463379e-01,-6.667453765869140625e+01,-1.826887054443359375e+02,-2.343250274658203125e+00,7.562291717529296875e+01,3.135697174072265625e+01
8.847259879112243652e-01,1.000000000000000000e+00,-3.486959218978881836e+00,-1.703128069639205933e-01,4.407771110534667969e+00,-1.979969940185546875e+02,-8.789622497558593750e+01,-1.692617492675781250e+02,4.033146500587463379e-01,-6.667444610595703125e+01,-1.826887054443359375e+02,-2.343178272247314453e+00,7.562277984619140625e+01,3.135697174072265625e+01
8.889279961585998535e-01,1.000000000000000000e+00,-3.547932624816894531e+00,-1.168835759162902832e-01,4.416859626770019531e+00,-1.979462738037109375e+02,-8.782152557373046875e+01,-1.692022705078125000e+02,4.033146500587463379e-01,-6.667444610595703125e+01,-1.826887054443359375e+02,-2.343250274658203125e+00,7.562291717529296875e+01,3.135697174072265625e+01
8.935189843177795410e-01,1.000000000000000000e+00,-3.608848333358764648e+00,-6.356748193502426147e-02,4.425846576690673828e+00,-1.978958129882812500e+02,-8.774587249755859375e+01,-1.691415710449218750e+02,4.033146500587463379e-01,-6.667444610595703125e+01,-1.826887054443359375e+02,-2.343178272247314453e+00,7.562291717529296875e+01,3.135697174072265625e+01
8.967469930648803711e-01,1.000000000000000000e+00,-3.669793128967285156e+00,-1.016086991876363754e-02,4.435056686401367188e+00,-1.978449859619140625e+02,-8.767107391357421875e+01,-1.690807495117187500e+02,4.033146500587463379e-01,-6.667444610595703125e+01,-1.826887054443359375e+02,-2.343178272247314453e+00,7.562291717529296875e+01,3.135697174072265625e+01
9.007340073585510254e-01,1.000000000000000000e+00,-3.730479478836059570e+00,4.322311282157897949e-02,4.444429874420166016e+00,-1.977946777343750000e+02,-8.759552764892578125e+01,-1.690211334228515625e+02,4.033146500587463379e-01,-6.667444610595703125e+01,-1.826887054443359375e+02,-2.343178272247314453e+00,7.562299346923828125e+01,3.135697174072265625e+01
9.049019813537597656e-01,1.000000000000000000e+00,-3.791194200515747070e+00,9.658446907997131348e-02,4.453782558441162109e+00,-1.977446899414062500e+02,-8.752040100097656250e+01,-1.689611816406250000e+02,4.033146500587463379e-01,-6.667435455322265625e+01,-1.826887054443359375e+02,-2.343178272247314453e+00,7.562291717529296875e+01,3.135697174072265625e+01
9.089559912681579590e-01,1.000000000000000000e+00,-3.851880550384521484e+00,1.497874110937118530e-01,4.463074207305908203e+00,-1.976935424804687500e+02,-8.744484710693359375e+01,-1.689004821777343750e+02,4.033146500587463379e-01,-6.667444610595703125e+01,-1.826887054443359375e+02,-2.343250274658203125e+00,7.562291717529296875e+01,3.135697174072265625e+01
9.125310182571411133e-01,1.000000000000000000e+00,-3.912623882293701172e+00,2.031261175870895386e-01,4.472284317016601562e+00,-1.976428070068359375e+02,-8.736935424804687500e+01,-1.688408660888671875e+02,4.033146500587463379e-01,-6.667444610595703125e+01,-1.826887054443359375e+02,-2.343106746673583984e+00,7.562277984619140625e+01,3.135697174072265625e+01
9.156050086021423340e-01,1.000000000000000000e+00,-3.973396539688110352e+00,2.563517093658447266e-01,4.481331825256347656e+00,-1.975922546386718750e+02,-8.729390716552734375e+01,-1.687801055908203125e+02,4.033146500587463379e-01,-6.667444610595703125e+01,-1.826887054443359375e+02,-2.343178272247314453e+00,7.562299346923828125e+01,3.135697174072265625e+01
9.196050167083740234e-01,1.000000000000000000e+00,-4.034139633178710938e+00,3.095093965530395508e-01,4.490419864654541016e+00,-1.975416870117187500e+02,-8.721921539306640625e+01,-1.687193450927734375e+02,4.033146500587463379e-01,-6.667453765869140625e+01,-1.826887054443359375e+02,-2.343178272247314453e+00,7.562299346923828125e+01,3.135697174072265625e+01
9.247030019760131836e-01,1.000000000000000000e+00,-4.094739913940429688e+00,3.629612326622009277e-01,4.499650955200195312e+00,-1.974913635253906250e+02,-8.714430999755859375e+01,-1.686601409912109375e+02,4.033146500587463379e-01,-6.667444610595703125e+01,-1.826887054443359375e+02,-2.343250274658203125e+00,7.562291717529296875e+01,3.135697174072265625e+01
9.276069998741149902e-01,1.000000000000000000e+00,-4.155483722686767578e+00,4.163452386856079102e-01,4.508861064910888672e+00,-1.974405975341796875e+02,-8.706854248046875000e+01,-1.686003265380859375e+02,4.033146500587463379e-01,-6.667444610595703125e+01,-1.826887054443359375e+02,-2.343250274658203125e+00,7.562291717529296875e+01,3.135697174072265625e+01
9.316030144691467285e-01,1.000000000000000000e+00,-4.216198444366455078e+00,4.698876142501831055e-01,4.517827510833740234e+00,-1.973898162841796875e+02,-8.699294281005859375e+01,-1.685394287109375000e+02,4.033146500587463379e-01,-6.667444610595703125e+01,-1.826887054443359375e+02,-2.343250274658203125e+00,7.562291717529296875e+01,3.135697174072265625e+01
9.356129765510559082e-01,1.000000000000000000e+00,-4.276942253112792969e+00,5.232489705085754395e-01,4.526691913604736328e+00,-1.973396148681640625e+02,-8.691813659667968750e+01,-1.684796905517578125e+02,4.033146500587463379e-01,-6.667444610595703125e+01,-1.826887054443359375e+02,-2.343250274658203125e+00,7.562291717529296875e+01,3.135697174072265625e+01
9.395819902420043945e-01,1.000000000000000000e+00,-4.337657451629638672e+00,5.766329765319824219e-01,4.535637855529785156e+00,-1.972887878417968750e+02,-8.684349060058593750e+01,-1.684195251464843750e+02,4.033146500587463379e-01,-6.667444610595703125e+01,-1.826887054443359375e+02,-2.343250274658203125e+00,7.562291717529296875e+01,3.135697174072265625e+01
9.435700178146362305e-01,1.000000000000000000e+00,-4.398515701293945312e+00,6.299942731857299805e-01,4.544807910919189453e+00,-1.972382354736328125e+02,-8.676773071289062500e+01,-1.683585662841796875e+02,4.033146500587463379e-01,-6.667435455322265625e+01,-1.826887054443359375e+02,-2.343250274658203125e+00,7.562291717529296875e+01,3.135697174072265625e+01
9.476659893989562988e-01,1.000000000000000000e+00,-4.459517478942871094e+00,6.832651495933532715e-01,4.554160118103027344e+00,-1.971883392333984375e+02,-8.669207763671875000e+01,-1.682990112304687500e+02,4.033146500587463379e-01,-6.667444610595703125e+01,-1.826887054443359375e+02,-2.343250274658203125e+00,7.562291717529296875e+01,3.135697174072265625e+01
9.515789747238159180e-01,1.000000000000000000e+00,-4.520433425903320312e+00,7.367170453071594238e-01,4.563431739807128906e+00,-1.971380462646484375e+02,-8.661679840087890625e+01,-1.682386016845703125e+02,4.033146500587463379e-01,-6.667444610595703125e+01,-1.826887054443359375e+02,-2.343178272247314453e+00,7.562291717529296875e+01,3.135697174072265625e+01
9.556030035018920898e-01,1.000000000000000000e+00,-4.581377983093261719e+00,7.899878621101379395e-01,4.572682857513427734e+00,-1.970873107910156250e+02,-8.654151916503906250e+01,-1.681772155761718750e+02,4.033146500587463379e-01,-6.667444610595703125e+01,-1.826887054443359375e+02,-2.343178272247314453e+00,7.562291717529296875e+01,3.135697174072265625e+01
9.597489833831787109e-01,1.000000000000000000e+00,-4.642006874084472656e+00,8.431907892227172852e-01,4.581831932067871094e+00,-1.970375823974609375e+02,-8.646575164794921875e+01,-1.681176757812500000e+02,4.033146500587463379e-01,-6.667444610595703125e+01,-1.826887054443359375e+02,-2.343178272247314453e+00,7.562291717529296875e+01,3.135697174072265625e+01
9.636520147323608398e-01,1.000000000000000000e+00,-4.702692985534667969e+00,8.965520858764648438e-01,4.590757369995117188e+00,-1.969863891601562500e+02,-8.639099884033203125e+01,-1.680572509765625000e+02,4.033146500587463379e-01,-6.667444610595703125e+01,-1.826887054443359375e+02,-2.343250274658203125e+00,7.562291717529296875e+01,3.135697174072265625e+01
9.676269888877868652e-01,1.000000000000000000e+00,-4.763063430786132812e+00,9.497324824333190918e-01,4.599825382232666016e+00,-1.969359741210937500e+02,-8.631555938720703125e+01,-1.679964904785156250e+02,4.033146500587463379e-01,-6.667444610595703125e+01,-1.826887054443359375e+02,-2.343250274658203125e+00,7.562291717529296875e+01,3.135675048828125000e+01
9.716960191726684570e-01,1.000000000000000000e+00,-4.823635101318359375e+00,1.003003239631652832e+00,4.609035968780517578e+00,-1.968860931396484375e+02,-8.624033355712890625e+01,-1.679364013671875000e+02,4.033146500587463379e-01,-6.667444610595703125e+01,-1.826887054443359375e+02,-2.343250274658203125e+00,7.562291717529296875e+01,3.135697174072265625e+01
9.755730032920837402e-01,1.000000000000000000e+00,-4.884349822998046875e+00,1.056115627288818359e+00,4.618307113647460938e+00,-1.968351135253906250e+02,-8.616393280029296875e+01,-1.678761749267578125e+02,4.033146500587463379e-01,-6.667444610595703125e+01,-1.826887054443359375e+02,-2.343250274658203125e+00,7.562291717529296875e+01,3.135697174072265625e+01
9.795950055122375488e-01,1.000000000000000000e+00,-4.945121765136718750e+00,1.109431743621826172e+00,4.627415657043457031e+00,-1.967843933105468750e+02,-8.608944702148437500e+01,-1.678156127929687500e+02,4.033146500587463379e-01,-6.667444610595703125e+01,-1.826887054443359375e+02,-2.343178272247314453e+00,7.562277984619140625e+01,3.135697174072265625e+01
9.836390018463134766e-01,1.000000000000000000e+00,-5.005549907684326172e+00,1.162815809249877930e+00,4.636484146118164062e+00,-1.967341308593750000e+02,-8.601410675048828125e+01,-1.677558746337890625e+02,4.033146500587463379e-01,-6.667444610595703125e+01,-1.826887054443359375e+02,-2.343178272247314453e+00,7.562291717529296875e+01,3.135697174072265625e+01
9.875940084457397461e-01,1.000000000000000000e+00,-5.066379547119140625e+00,1.216131806373596191e+00,4.645409584045410156e+00,-1.966828308105468750e+02,-8.593904113769531250e+01,-1.676959991455078125e+02,4.033146500587463379e-01,-6.667435455322265625e+01,-1.826887054443359375e+02,-2.343106746673583984e+00,7.562291717529296875e+01,3.135697174072265625e+01
9.915789961814880371e-01,1.000000000000000000e+00,-5.127008438110351562e+00,1.269561052322387695e+00,4.654497623443603516e+00,-1.966326751708984375e+02,-8.586274719238281250e+01,-1.676349639892578125e+02,4.033146500587463379e-01,-6.667444610595703125e+01,-1.826887054443359375e+02,-2.343178272247314453e+00,7.562291717529296875e+01,3.135697174072265625e+01
9.956300258636474609e-01,1.000000000000000000e+00,-5.187838077545166016e+00,1.322967767715454102e+00,4.663870811462402344e+00,-1.965828094482421875e+02,-8.578784179687500000e+01,-1.675750122070312500e+02,4.033146500587463379e-01,-6.667453765869140625e+01,-1.826887054443359375e+02,-2.343178272247314453e+00,7.562291717529296875e+01,3.135697174072265625e+01
9.996070265769958496e-01,1.000000000000000000e+00,-5.248466968536376953e+00,1.376238465309143066e+00,4.673202991485595703e+00,-1.965317535400390625e+02,-8.571286773681640625e+01,-1.675159301757812500e+02,4.033146500587463379e-01,-6.667444610595703125e+01,-1.826887054443359375e+02,-2.343178272247314453e+00,7.562291717529296875e+01,3.135697174072265625e+01
1.003566026687622070e+00,1.000000000000000000e+00,-5.309182167053222656e+00,1.429441571235656738e+00,4.682454109191894531e+00,-1.964816131591796875e+02,-8.563754272460937500e+01,-1.674553833007812500e+02,4.033146500587463379e-01,-6.667444610595703125e+01,-1.826887054443359375e+02,-2.343178272247314453e+00,7.562277984619140625e+01,3.135697174072265625e+01
1.007624983787536621e+00,1.000000000000000000e+00,-5.369925498962402344e+00,1.482689738273620605e+00,4.691542148590087891e+00,-1.964308319091796875e+02,-8.556129455566406250e+01,-1.673949432373046875e+02,4.033146500587463379e-01,-6.667444610595703125e+01,-1.826887054443359375e+02,-2.343178272247314453e+00,7.562291717529296875e+01,3.135697174072265625e+01
1.011595010757446289e+00,1.000000000000000000e+00,-5.430553913116455078e+00,1.536051034927368164e+00,4.700488567352294922e+00,-1.963801727294921875e+02,-8.548654937744140625e+01,-1.673352813720703125e+02,4.033146500587463379e-01,-6.667444610595703125e+01,-1.826887054443359375e+02,-2.343178272247314453e+00,7.562299346923828125e+01,3.135697174072265625e+01
1.015571951866149902e+00,1.000000000000000000e+00,-5.491384029388427734e+00,1.589434981346130371e+00,4.709495544433593750e+00,-1.963302307128906250e+02,-8.541163635253906250e+01,-1.672749176025390625e+02,4.033146500587463379e-01,-6.667444610595703125e+01,-1.826887054443359375e+02,-2.343178272247314453e+00,7.562291717529296875e+01,3.135697174072265625e+01
1.019590020179748535e+00,1.000000000000000000e+00,-5.552070617675781250e+00,1.642615318298339844e+00,4.718603610992431641e+00,-1.962799835205078125e+02,-8.533619689941406250e+01,-1.672142944335937500e+02,4.033146500587463379e-01,-6.667444610595703125e+01,-1.826885528564453125e+02,-2.343178272247314453e+00,7.562291717529296875e+01,3.135697174072265625e+01
1.023579955101013184e+00,1.000000000000000000e+00,-5.612641811370849609e+00,1.695727825164794922e+00,4.727732658386230469e+00,-1.962293548583984375e+02,-8.526032257080078125e+01,-1.671550140380859375e+02,4.033146500587463379e-01,-6.667444610595703125e+01,-1.826887054443359375e+02,-2.343250274658203125e+00,7.562291717529296875e+01,3.135697174072265625e+01
1.027626991271972656e+00,1.000000000000000000e+00,-5.673241615295410156e+00,1.748840212821960449e+00,4.736902713775634766e+00,-1.961791534423828125e+02,-8.518531036376953125e+01,-1.670941162109375000e+02,4.033146500587463379e-01,-6.667453765869140625e+01,-1.826887054443359375e+02,-2.343178272247314453e+00,7.562299346923828125e+01,3.135697174072265625e+01
1.031671047210693359e+00,1.000000000000000000e+00,-5.733726978302001953e+00,1.801884770393371582e+00,4.746031761169433594e+00,-1.961284942626953125e+02,-8.511061096191406250e+01,-1.670335693359375000e+02,4.033146500587463379e-01,-6.667444610595703125e+01,-1.826887054443359375e+02,-2.343250274658203125e+00,7.562291717529296875e+01,3.135697174072265625e+01
1.035583019256591797e+00,1.000000000000000000e+00,-5.794384479522705078e+00,1.855404496192932129e+00,4.755018234252929688e+00,-1.960782318115234375e+02,-8.503522491455078125e+01,-1.669738769531250000e+02,4.033146500587463379e-01,-6.667435455322265625e+01,-1.826887054443359375e+02,-2.343178272247314453e+00,7.562291717529296875e+01,3.135697174072265625e+01
1.041939020156860352e+00,1.000000000000000000e+00,-5.855071067810058594e+00,1.908720493316650391e+00,4.764045238494873047e+00,-1.960282440185546875e+02,-8.495925140380859375e+01,-1.669129180908203125e+02,4.033146500587463379e-01,-6.667444610595703125e+01,-1.826887054443359375e+02,-2.343250274658203125e+00,7.562291717529296875e+01,3.135697174072265625e+01
1.043596029281616211e+00,1.000000000000000000e+00,-5.915843009948730469e+00,1.962127208709716797e+00,4.773336887359619141e+00,-1.959773101806640625e+02,-8.488401794433593750e+01,-1.668526153564453125e+02,4.033146500587463379e-01,-6.667444610595703125e+01,-1.826887054443359375e+02,-2.343178272247314453e+00,7.562277984619140625e+01,3.135697174072265625e+01
1.047683954238891602e+00,1.000000000000000000e+00,-5.976758956909179688e+00,2.015285015106201172e+00,4.782649040222167969e+00,-1.959263763427734375e+02,-8.480932617187500000e+01,-1.667930908203125000e+02,4.033146500587463379e-01,-6.667444610595703125e+01,-1.826887054443359375e+02,-2.343178272247314453e+00,7.562291717529296875e+01,3.135675048828125000e+01
1.051584005355834961e+00,1.000000000000000000e+00,-6.037502765655517578e+00,2.068600893020629883e+00,4.791981220245361328e+00,-1.958762359619140625e+02,-8.473351287841796875e+01,-1.667326507568359375e+02,4.033146500587463379e-01,-6.667444610595703125e+01,-1.826887054443359375e+02,-2.343178272247314453e+00,7.562291717529296875e+01,3.135697174072265625e+01
1.057976007461547852e+00,1.000000000000000000e+00,-6.037502765655517578e+00,2.068600893020629883e+00,4.791981220245361328e+00,-1.958762359619140625e+02,-8.473351287841796875e+01,-1.667326507568359375e+02,4.033146500587463379e-01,-6.667435455322265625e+01,-1.826887054443359375e+02,-2.343178272247314453e+00,7.562291717529296875e+01,3.135697174072265625e+01
1.059564948081970215e+00,1.000000000000000000e+00,-6.159075736999511719e+00,2.175097465515136719e+00,4.810218811035156250e+00,-1.957751464843750000e+02,-8.458326721191406250e+01,-1.666125488281250000e+02,4.033146500587463379e-01,-6.667444610595703125e+01,-1.826887054443359375e+02,-2.343178272247314453e+00,7.562291717529296875e+01,3.135697174072265625e+01
1.066043972969055176e+00,1.000000000000000000e+00,-6.159075736999511719e+00,2.175097465515136719e+00,4.810218811035156250e+00,-1.957751464843750000e+02,-8.458326721191406250e+01,-1.666125488281250000e+02,4.033146500587463379e-01,-6.667444610595703125e+01,-1.826887054443359375e+02,-2.343178272247314453e+00,7.562291717529296875e+01,3.135697174072265625e+01
1.067543029785156250e+00,1.000000000000000000e+00,-6.280735492706298828e+00,2.281661748886108398e+00,4.828355312347412109e+00,-1.956741180419921875e+02,-8.443238067626953125e+01,-1.664910278320312500e+02,4.033146500587463379e-01,-6.667444610595703125e+01,-1.826887054443359375e+02,-2.343250274658203125e+00,7.562291717529296875e+01,3.135697174072265625e+01
1.071614980697631836e+00,1.000000000000000000e+00,-6.280735492706298828e+00,2.281661748886108398e+00,4.828355312347412109e+00,-1.956741180419921875e+02,-8.443238067626953125e+01,-1.664910278320312500e+02,4.033146500587463379e-01,-6.667444610595703125e+01,-1.826887054443359375e+02,-2.343250274658203125e+00,7.562291717529296875e+01,3.135697174072265625e+01
1.076581954956054688e+00,1.000000000000000000e+00,-6.341593742370605469e+00,2.334864616394042969e+00,4.837544918060302734e+00,-1.956238708496093750e+02,-8.435752105712890625e+01,-1.664323577880859375e+02,4.033146500587463379e-01,-6.667435455322265625e+01,-1.826887054443359375e+02,-2.343178272247314453e+00,7.562291717529296875e+01,3.135697174072265625e+01
1.080003023147583008e+00,1.000000000000000000e+00,-6.463195800781250000e+00,2.441044092178344727e+00,4.855680942535400391e+00,-1.955226745605468750e+02,-8.420722198486328125e+01,-1.663114471435546875e+02,4.033146500587463379e-01,-6.667444610595703125e+01,-1.826887054443359375e+02,-2.343250274658203125e+00,7.562291717529296875e+01,3.135719108581542969e+01
1.083621978759765625e+00,1.000000000000000000e+00,-6.523796081542968750e+00,2.494360446929931641e+00,4.864464282989501953e+00,-1.954727478027343750e+02,-8.413178253173828125e+01,-1.662520446777343750e+02,4.033146500587463379e-01,-6.667453765869140625e+01,-1.826887054443359375e+02,-2.343250274658203125e+00,7.562291717529296875e+01,3.135697174072265625e+01
1.087697982788085938e+00,1.000000000000000000e+00,-6.523796081542968750e+00,2.494360446929931641e+00,4.864464282989501953e+00,-1.954727478027343750e+02,-8.413178253173828125e+01,-1.662520446777343750e+02,4.033146500587463379e-01,-6.667453765869140625e+01,-1.826887054443359375e+02,-2.343250274658203125e+00,7.562291717529296875e+01,3.135697174072265625e+01
1.091616988182067871e+00,1.000000000000000000e+00,-6.584654808044433594e+00,2.547404766082763672e+00,4.873512268066406250e+00,-1.954221801757812500e+02,-8.405682373046875000e+01,-1.661914062500000000e+02,4.033146500587463379e-01,-6.667444610595703125e+01,-1.826887054443359375e+02,-2.343178272247314453e+00,7.562291717529296875e+01,3.135697174072265625e+01
1.095613002777099609e+00,1.000000000000000000e+00,-6.645254611968994141e+00,2.600652933120727539e+00,4.882783412933349609e+00,-1.953715667724609375e+02,-8.398143005371093750e+01,-1.661305084228515625e+02,4.033146500587463379e-01,-6.667444610595703125e+01,-1.826887054443359375e+02,-2.343250274658203125e+00,7.562291717529296875e+01,3.135697174072265625e+01
1.099717974662780762e+00,1.000000000000000000e+00,-6.705883026123046875e+00,2.653969049453735352e+00,4.892135620117187500e+00,-1.953217926025390625e+02,-8.390652465820312500e+01,-1.660713653564453125e+02,4.033146500587463379e-01,-6.667444610595703125e+01,-1.826887054443359375e+02,-2.343178272247314453e+00,7.562291717529296875e+01,3.135697174072265625e+01
1.103646993637084961e+00,1.000000000000000000e+00,-6.766741752624511719e+00,2.707171916961669922e+00,4.901406764984130859e+00,-1.952709503173828125e+02,-8.383081054687500000e+01,-1.660112915039062500e+02,4.033146500587463379e-01,-6.667444610595703125e+01,-1.826887054443359375e+02,-2.343178272247314453e+00,7.562291717529296875e+01,3.135697174072265625e+01
1.107622027397155762e+00,1.000000000000000000e+00,-6.827428340911865234e+00,2.760533571243286133e+00,4.910637855529785156e+00,-1.952202301025390625e+02,-8.375627136230468750e+01,-1.659501190185546875e+02,4.033146500587463379e-01,-6.667444610595703125e+01,-1.826887054443359375e+02,-2.343178272247314453e+00,7.562291717529296875e+01,3.135697174072265625e+01
