rpiRobotics/ARM-21-02-F-19-Robot-Motion-Program/data_performance_abb/curve_2/curve_pose_opt2/100L/grad_result/real/run_4.csv
timestamp,cmd_num,J1,J2,J3,J4,J5,J6
1.429999974789097905e-04,-1.000000000000000000e+00,7.905914306640625000e+00,-1.016273498535156250e+01,2.696972608566284180e+00,-2.074677886962890625e+02,-1.020161590576171875e+02,-1.805540008544921875e+02,4.033146500587463379e-01,-6.667444610595703125e+01,-1.826887054443359375e+02,-2.343250274658203125e+00,7.562291717529296875e+01,3.135697174072265625e+01
5.739000160247087479e-03,1.000000000000000000e+00,7.905914306640625000e+00,-1.016273498535156250e+01,2.696931838989257812e+00,-2.074677886962890625e+02,-1.020161590576171875e+02,-1.805538024902343750e+02,4.033146500587463379e-01,-6.667444610595703125e+01,-1.826887054443359375e+02,-2.343394041061401367e+00,7.562291717529296875e+01,3.135675048828125000e+01
9.422999806702136993e-03,1.000000000000000000e+00,7.905857086181640625e+00,-1.016280364990234375e+01,2.697013139724731445e+00,-2.074677886962890625e+02,-1.020162582397460938e+02,-1.805540008544921875e+02,4.033146500587463379e-01,-6.667444610595703125e+01,-1.826887054443359375e+02,-2.343250274658203125e+00,7.562291717529296875e+01,3.135697174072265625e+01
1.546099968254566193e-02,1.000000000000000000e+00,7.905857086181640625e+00,-1.016273498535156250e+01,2.697013139724731445e+00,-2.074677886962890625e+02,-1.020162582397460938e+02,-1.805538024902343750e+02,4.033146500587463379e-01,-6.667444610595703125e+01,-1.826887054443359375e+02,-2.343250274658203125e+00,7.562291717529296875e+01,3.135675048828125000e+01
3.786600008606910706e-02,1.000000000000000000e+00,7.905857086181640625e+00,-1.016280364990234375e+01,2.696931838989257812e+00,-2.074677886962890625e+02,-1.020161590576171875e+02,-1.805540008544921875e+02,4.033146500587463379e-01,-6.667444610595703125e+01,-1.826887054443359375e+02,-2.343178272247314453e+00,7.562291717529296875e+01,3.135697174072265625e+01
4.056699946522712708e-02,1.000000000000000000e+00,7.905857086181640625e+00,-1.016273498535156250e+01,2.696931838989257812e+00,-2.074677886962890625e+02,-1.020162582397460938e+02,-1.805538024902343750e+02,4.033146500587463379e-01,-6.667453765869140625e+01,-1.826887054443359375e+02,-2.343250274658203125e+00,7.562291717529296875e+01,3.135719108581542969e+01
4.184599965810775757e-02,1.000000000000000000e+00,7.905857086181640625e+00,-1.016273498535156250e+01,2.696931838989257812e+00,-2.074677886962890625e+02,-1.020162582397460938e+02,-1.805538024902343750e+02,4.033146500587463379e-01,-6.667453765869140625e+01,-1.826887054443359375e+02,-2.343250274658203125e+00,7.562291717529296875e+01,3.135719108581542969e+01
5.212000012397766113e-02,1.000000000000000000e+00,7.905857086181640625e+00,-1.016273498535156250e+01,2.696972608566284180e+00,-2.074676208496093750e+02,-1.020161590576171875e+02,-1.805540008544921875e+02,4.033146500587463379e-01,-6.667435455322265625e+01,-1.826887054443359375e+02,-2.343250274658203125e+00,7.562277984619140625e+01,3.135697174072265625e+01
5.338099971413612366e-02,1.000000000000000000e+00,7.905857086181640625e+00,-1.016273498535156250e+01,2.696972608566284180e+00,-2.074676208496093750e+02,-1.020161590576171875e+02,-1.805540008544921875e+02,4.033146500587463379e-01,-6.667435455322265625e+01,-1.826887054443359375e+02,-2.343250274658203125e+00,7.562277984619140625e+01,3.135697174072265625e+01
5.647899955511093140e-02,1.000000000000000000e+00,7.905770778656005859e+00,-1.016269016265869141e+01,2.697013139724731445e+00,-2.074677886962890625e+02,-1.020162582397460938e+02,-1.805540008544921875e+02,4.033146500587463379e-01,-6.667444610595703125e+01,-1.826887054443359375e+02,-2.343250274658203125e+00,7.562277984619140625e+01,3.135697174072265625e+01
5.778099969029426575e-02,1.000000000000000000e+00,7.905770778656005859e+00,-1.016269016265869141e+01,2.697013139724731445e+00,-2.074677886962890625e+02,-1.020162582397460938e+02,-1.805540008544921875e+02,4.033146500587463379e-01,-6.667444610595703125e+01,-1.826887054443359375e+02,-2.343250274658203125e+00,7.562277984619140625e+01,3.135697174072265625e+01
6.357199698686599731e-02,1.000000000000000000e+00,7.905426502227783203e+00,-1.016246318817138672e+01,2.696972608566284180e+00,-2.074677886962890625e+02,-1.020161590576171875e+02,-1.805540008544921875e+02,4.033146500587463379e-01,-6.667444610595703125e+01,-1.826887054443359375e+02,-2.343250274658203125e+00,7.562291717529296875e+01,3.135697174072265625e+01
6.514000147581100464e-02,1.000000000000000000e+00,7.904537200927734375e+00,-1.016169452667236328e+01,2.696972608566284180e+00,-2.074677886962890625e+02,-1.020162582397460938e+02,-1.805538024902343750e+02,4.033146500587463379e-01,-6.667435455322265625e+01,-1.826887054443359375e+02,-2.343250274658203125e+00,7.562291717529296875e+01,3.135697174072265625e+01
6.762900203466415405e-02,1.000000000000000000e+00,7.904537200927734375e+00,-1.016169452667236328e+01,2.696972608566284180e+00,-2.074677886962890625e+02,-1.020162582397460938e+02,-1.805538024902343750e+02,4.033146500587463379e-01,-6.667435455322265625e+01,-1.826887054443359375e+02,-2.343250274658203125e+00,7.562291717529296875e+01,3.135697174072265625e+01
6.906200200319290161e-02,1.000000000000000000e+00,7.902785778045654297e+00,-1.016029071807861328e+01,2.697013139724731445e+00,-2.074677886962890625e+02,-1.020159912109375000e+02,-1.805538024902343750e+02,4.033146500587463379e-01,-6.667444610595703125e+01,-1.826887054443359375e+02,-2.343250274658203125e+00,7.562291717529296875e+01,3.135697174072265625e+01
7.219699770212173462e-02,1.000000000000000000e+00,7.902785778045654297e+00,-1.016029071807861328e+01,2.697013139724731445e+00,-2.074677886962890625e+02,-1.020159912109375000e+02,-1.805538024902343750e+02,4.033146500587463379e-01,-6.667444610595703125e+01,-1.826887054443359375e+02,-2.343250274658203125e+00,7.562277984619140625e+01,3.135697174072265625e+01
7.352600246667861938e-02,1.000000000000000000e+00,7.900087356567382812e+00,-1.015818595886230469e+01,2.697033405303955078e+00,-2.074677886962890625e+02,-1.020158920288085938e+02,-1.805538024902343750e+02,4.033146500587463379e-01,-6.667444610595703125e+01,-1.826887054443359375e+02,-2.343250274658203125e+00,7.562277984619140625e+01,3.135697174072265625e+01
7.675299793481826782e-02,1.000000000000000000e+00,7.896441459655761719e+00,-1.015522193908691406e+01,2.697114706039428711e+00,-2.074676208496093750e+02,-1.020154571533203125e+02,-1.805536651611328125e+02,4.033146500587463379e-01,-6.667444610595703125e+01,-1.826887054443359375e+02,-2.343394041061401367e+00,7.562291717529296875e+01,3.135697174072265625e+01
7.814300060272216797e-02,1.000000000000000000e+00,7.896441459655761719e+00,-1.015522193908691406e+01,2.697114706039428711e+00,-2.074676208496093750e+02,-1.020154571533203125e+02,-1.805536651611328125e+02,4.033146500587463379e-01,-6.667444610595703125e+01,-1.826887054443359375e+02,-2.343394041061401367e+00,7.562291717529296875e+01,3.135697174072265625e+01
8.059100061655044556e-02,1.000000000000000000e+00,7.891705036163330078e+00,-1.015110301971435547e+01,2.697216510772705078e+00,-2.074674224853515625e+02,-1.020141296386718750e+02,-1.805534515380859375e+02,4.033146500587463379e-01,-6.667444610595703125e+01,-1.826887054443359375e+02,-2.343250274658203125e+00,7.562291717529296875e+01,3.135697174072265625e+01
8.450099825859069824e-02,1.000000000000000000e+00,7.885906219482421875e+00,-1.014585304260253906e+01,2.697480678558349609e+00,-2.074664154052734375e+02,-1.020119400024414062e+02,-1.805527801513671875e+02,4.033146500587463379e-01,-6.667444610595703125e+01,-1.826887054443359375e+02,-2.343250274658203125e+00,7.562291717529296875e+01,3.135697174072265625e+01
8.786000311374664307e-02,1.000000000000000000e+00,7.885906219482421875e+00,-1.014585304260253906e+01,2.697480678558349609e+00,-2.074664154052734375e+02,-1.020119400024414062e+02,-1.805527801513671875e+02,4.033146500587463379e-01,-6.667444610595703125e+01,-1.826887054443359375e+02,-2.343250274658203125e+00,7.562291717529296875e+01,3.135697174072265625e+01
8.925999701023101807e-02,1.000000000000000000e+00,7.878585815429687500e+00,-1.013879299163818359e+01,2.698070287704467773e+00,-2.074643096923828125e+02,-1.020087432861328125e+02,-1.805507354736328125e+02,4.033146500587463379e-01,-6.667444610595703125e+01,-1.826887054443359375e+02,-2.343250274658203125e+00,7.562291717529296875e+01,3.135697174072265625e+01
9.051399677991867065e-02,1.000000000000000000e+00,7.878585815429687500e+00,-1.013879299163818359e+01,2.698070287704467773e+00,-2.074643096923828125e+02,-1.020087432861328125e+02,-1.805507354736328125e+02,4.033146500587463379e-01,-6.667444610595703125e+01,-1.826887054443359375e+02,-2.343250274658203125e+00,7.562291717529296875e+01,3.135697174072265625e+01
9.616500139236450195e-02,1.000000000000000000e+00,7.869543552398681641e+00,-1.012951469421386719e+01,2.698802471160888672e+00,-2.074611511230468750e+02,-1.020037307739257812e+02,-1.805471496582031250e+02,4.033146500587463379e-01,-6.667444610595703125e+01,-1.826887054443359375e+02,-2.343178272247314453e+00,7.562291717529296875e+01,3.135697174072265625e+01
9.753099828958511353e-02,1.000000000000000000e+00,7.858433246612548828e+00,-1.011747455596923828e+01,2.699758052825927734e+00,-2.074569854736328125e+02,-1.019970169067382812e+02,-1.805416564941406250e+02,4.033146500587463379e-01,-6.667444610595703125e+01,-1.826887054443359375e+02,-2.343178272247314453e+00,7.562291717529296875e+01,3.135697174072265625e+01
1.011660024523735046e-01,1.000000000000000000e+00,7.858433246612548828e+00,-1.011747455596923828e+01,2.699758052825927734e+00,-2.074569854736328125e+02,-1.019970169067382812e+02,-1.805416564941406250e+02,4.033146500587463379e-01,-6.667444610595703125e+01,-1.826887054443359375e+02,-2.343250274658203125e+00,7.562277984619140625e+01,3.135697174072265625e+01
1.040579974651336670e-01,1.000000000000000000e+00,7.844797611236572266e+00,-1.010296916961669922e+01,2.700998067855834961e+00,-2.074512481689453125e+02,-1.019875259399414062e+02,-1.805344696044921875e+02,4.033146500587463379e-01,-6.667444610595703125e+01,-1.826887054443359375e+02,-2.343250274658203125e+00,7.562277984619140625e+01,3.135697174072265625e+01
1.086860001087188721e-01,1.000000000000000000e+00,7.828578472137451172e+00,-1.008601951599121094e+01,2.702624797821044922e+00,-2.074432983398437500e+02,-1.019748916625976562e+02,-1.805251159667968750e+02,4.033146500587463379e-01,-6.667444610595703125e+01,-1.826887054443359375e+02,-2.343250274658203125e+00,7.562277984619140625e+01,3.135697174072265625e+01
1.121129989624023438e-01,1.000000000000000000e+00,7.810005664825439453e+00,-1.006694221496582031e+01,2.704881429672241211e+00,-2.074330596923828125e+02,-1.019592132568359375e+02,-1.805125579833984375e+02,4.033146500587463379e-01,-6.667444610595703125e+01,-1.826887054443359375e+02,-2.343178272247314453e+00,7.562291717529296875e+01,3.135697174072265625e+01
1.163289994001388550e-01,1.000000000000000000e+00,7.788991451263427734e+00,-1.004625892639160156e+01,2.707565307617187500e+00,-2.074201660156250000e+02,-1.019401321411132812e+02,-1.804972381591796875e+02,4.033146500587463379e-01,-6.667435455322265625e+01,-1.826887054443359375e+02,-2.343394041061401367e+00,7.562291717529296875e+01,3.135697174072265625e+01
1.213610023260116577e-01,1.000000000000000000e+00,7.740103721618652344e+00,-1.000147438049316406e+01,2.713990211486816406e+00,-2.073849792480468750e+02,-1.018905944824218750e+02,-1.804562072753906250e+02,4.033146500587463379e-01,-6.667444610595703125e+01,-1.826887054443359375e+02,-2.343250274658203125e+00,7.562277984619140625e+01,3.135697174072265625e+01
1.241699978709220886e-01,1.000000000000000000e+00,7.740103721618652344e+00,-1.000147438049316406e+01,2.713990211486816406e+00,-2.073849792480468750e+02,-1.018905944824218750e+02,-1.804562072753906250e+02,4.033146500587463379e-01,-6.667444610595703125e+01,-1.826887054443359375e+02,-2.343250274658203125e+00,7.562277984619140625e+01,3.135697174072265625e+01
1.287460029125213623e-01,1.000000000000000000e+00,7.711885452270507812e+00,-9.976830482482910156e+00,2.717690706253051758e+00,-2.073626403808593750e+02,-1.018592987060546875e+02,-1.804306335449218750e+02,4.033146500587463379e-01,-6.667444610595703125e+01,-1.826887054443359375e+02,-2.343394041061401367e+00,7.562291717529296875e+01,3.135697174072265625e+01
1.323000043630599976e-01,1.000000000000000000e+00,7.681197643280029297e+00,-9.950466156005859375e+00,2.721878767013549805e+00,-2.073374633789062500e+02,-1.018224029541015625e+02,-1.804014739990234375e+02,4.033146500587463379e-01,-6.667444610595703125e+01,-1.826887054443359375e+02,-2.343250274658203125e+00,7.562291717529296875e+01,3.135697174072265625e+01
1.363019943237304688e-01,1.000000000000000000e+00,7.648041248321533203e+00,-9.922134399414062500e+00,2.726494073867797852e+00,-2.073105468750000000e+02,-1.017790069580078125e+02,-1.803679809570312500e+02,4.033146500587463379e-01,-6.667453765869140625e+01,-1.826887054443359375e+02,-2.343250274658203125e+00,7.562291717529296875e+01,3.135697174072265625e+01
1.401039958000183105e-01,1.000000000000000000e+00,7.612272262573242188e+00,-9.892239570617675781e+00,2.731678962707519531e+00,-2.072802581787109375e+02,-1.017327804565429688e+02,-1.803303375244140625e+02,4.033146500587463379e-01,-6.667444610595703125e+01,-1.826887054443359375e+02,-2.343178272247314453e+00,7.562291717529296875e+01,3.135697174072265625e+01
1.442870050668716431e-01,1.000000000000000000e+00,7.573948860168457031e+00,-9.860941886901855469e+00,2.737331151962280273e+00,-2.072449798583984375e+02,-1.016836776733398438e+02,-1.802881622314453125e+02,4.033146500587463379e-01,-6.667444610595703125e+01,-1.826887054443359375e+02,-2.343394041061401367e+00,7.562291717529296875e+01,3.135697174072265625e+01
1.481609940528869629e-01,1.000000000000000000e+00,7.533329010009765625e+00,-9.827676773071289062e+00,2.743491649627685547e+00,-2.072055206298828125e+02,-1.016281204223632812e+02,-1.802422485351562500e+02,4.033146500587463379e-01,-6.667444610595703125e+01,-1.826887054443359375e+02,-2.343394041061401367e+00,7.562291717529296875e+01,3.135697174072265625e+01
1.527850031852722168e-01,1.000000000000000000e+00,7.491014957427978516e+00,-9.792780876159667969e+00,2.750018119812011719e+00,-2.071649627685546875e+02,-1.015681915283203125e+02,-1.801956481933593750e+02,4.033146500587463379e-01,-6.667444610595703125e+01,-1.826887054443359375e+02,-2.343250274658203125e+00,7.562291717529296875e+01,3.135697174072265625e+01
1.564670056104660034e-01,1.000000000000000000e+00,7.446921348571777344e+00,-9.756234169006347656e+00,2.756829261779785156e+00,-2.071239929199218750e+02,-1.015064544677734375e+02,-1.801462860107421875e+02,4.033146500587463379e-01,-6.667444610595703125e+01,-1.826887054443359375e+02,-2.343178272247314453e+00,7.562291717529296875e+01,3.135697174072265625e+01
1.611489951610565186e-01,1.000000000000000000e+00,7.400702953338623047e+00,-9.718057632446289062e+00,2.764107942581176758e+00,-2.070795745849609375e+02,-1.014407119750976562e+02,-1.800929870605468750e+02,4.033146500587463379e-01,-6.667444610595703125e+01,-1.826887054443359375e+02,-2.343250274658203125e+00,7.562291717529296875e+01,3.135675048828125000e+01
1.631209999322891235e-01,1.000000000000000000e+00,7.352217197418212891e+00,-9.677142143249511719e+00,2.771935939788818359e+00,-2.070322265625000000e+02,-1.013727874755859375e+02,-1.800364990234375000e+02,4.033146500587463379e-01,-6.667444610595703125e+01,-1.826887054443359375e+02,-2.343250274658203125e+00,7.562291717529296875e+01,3.135697174072265625e+01
1.671430021524429321e-01,1.000000000000000000e+00,7.301206111907958984e+00,-9.633511543273925781e+00,2.780292034149169922e+00,-2.069847564697265625e+02,-1.013018264770507812e+02,-1.799801330566406250e+02,4.033146500587463379e-01,-6.667444610595703125e+01,-1.826887054443359375e+02,-2.343250274658203125e+00,7.562291717529296875e+01,3.135697174072265625e+01
1.710619926452636719e-01,1.000000000000000000e+00,7.248470783233642578e+00,-9.587595939636230469e+00,2.788770437240600586e+00,-2.069365081787109375e+02,-1.012306518554687500e+02,-1.799230346679687500e+02,4.033146500587463379e-01,-6.667444610595703125e+01,-1.826887054443359375e+02,-2.343178272247314453e+00,7.562291717529296875e+01,3.135697174072265625e+01
1.750549972057342529e-01,1.000000000000000000e+00,7.194099903106689453e+00,-9.539892196655273438e+00,2.797350645065307617e+00,-2.068870544433593750e+02,-1.011581420898437500e+02,-1.798630065917968750e+02,4.033146500587463379e-01,-6.667444610595703125e+01,-1.826887054443359375e+02,-2.343250274658203125e+00,7.562291717529296875e+01,3.135697174072265625e+01
1.807779967784881592e-01,1.000000000000000000e+00,7.138122081756591797e+00,-9.490626335144042969e+00,2.806011915206909180e+00,-2.068371124267578125e+02,-1.010838165283203125e+02,-1.798034057617187500e+02,4.033146500587463379e-01,-6.667453765869140625e+01,-1.826887054443359375e+02,-2.343178272247314453e+00,7.562291717529296875e+01,3.135697174072265625e+01
1.846150010824203491e-01,1.000000000000000000e+00,7.081081867218017578e+00,-9.440365791320800781e+00,2.814470052719116211e+00,-2.067861785888671875e+02,-1.010082092285156250e+02,-1.797445983886718750e+02,4.033146500587463379e-01,-6.667444610595703125e+01,-1.826887054443359375e+02,-2.343250274658203125e+00,7.562291717529296875e+01,3.135697174072265625e+01
1.871680021286010742e-01,1.000000000000000000e+00,7.023122310638427734e+00,-9.389062881469726562e+00,2.823232889175415039e+00,-2.067353973388671875e+02,-1.009331970214843750e+02,-1.796832885742187500e+02,4.033146500587463379e-01,-6.667444610595703125e+01,-1.826887054443359375e+02,-2.343250274658203125e+00,7.562291717529296875e+01,3.135697174072265625e+01
1.911119967699050903e-01,1.000000000000000000e+00,6.964244842529296875e+00,-9.337081909179687500e+00,2.832300901412963867e+00,-2.066853179931640625e+02,-1.008577575683593750e+02,-1.796222534179687500e+02,4.033146500587463379e-01,-6.667444610595703125e+01,-1.826887054443359375e+02,-2.343250274658203125e+00,7.562277984619140625e+01,3.135697174072265625e+01
1.951140016317367554e-01,1.000000000000000000e+00,6.904334068298339844e+00,-9.284264564514160156e+00,2.841368913650512695e+00,-2.066344299316406250e+02,-1.007818908691406250e+02,-1.795619049072265625e+02,4.033146500587463379e-01,-6.667444610595703125e+01,-1.826887054443359375e+02,-2.343250274658203125e+00,7.562291717529296875e+01,3.135697174072265625e+01
1.990720033645629883e-01,1.000000000000000000e+00,6.843791007995605469e+00,-9.230925559997558594e+00,2.850599527359008789e+00,-2.065828094482421875e+02,-1.007053756713867188e+02,-1.795003967285156250e+02,4.033146500587463379e-01,-6.667444610595703125e+01,-1.826887054443359375e+02,-2.343178272247314453e+00,7.562291717529296875e+01,3.135697174072265625e+01
2.048799991607666016e-01,1.000000000000000000e+00,6.782703399658203125e+00,-9.177292823791503906e+00,2.859708309173583984e+00,-2.065323028564453125e+02,-1.006290817260742188e+02,-1.794392852783203125e+02,4.033146500587463379e-01,-6.667444610595703125e+01,-1.826887054443359375e+02,-2.343250274658203125e+00,7.562277984619140625e+01,3.135697174072265625e+01
2.088250070810317993e-01,1.000000000000000000e+00,6.721413612365722656e+00,-9.123320579528808594e+00,2.868776082992553711e+00,-2.064810485839843750e+02,-1.005530548095703125e+02,-1.793790740966796875e+02,4.033146500587463379e-01,-6.667444610595703125e+01,-1.826887054443359375e+02,-2.343250274658203125e+00,7.562291717529296875e+01,3.135697174072265625e+01
2.130299955606460571e-01,1.000000000000000000e+00,6.660038948059082031e+00,-9.069031715393066406e+00,2.878006696701049805e+00,-2.064302215576171875e+02,-1.004767074584960938e+02,-1.793174285888671875e+02,4.033146500587463379e-01,-6.667444610595703125e+01,-1.826887054443359375e+02,-2.343250274658203125e+00,7.562277984619140625e+01,3.135697174072265625e+01
2.150810062885284424e-01,1.000000000000000000e+00,6.598347663879394531e+00,-9.014922142028808594e+00,2.887542247772216797e+00,-2.063793792724609375e+02,-1.004002532958984375e+02,-1.792561187744140625e+02,4.033146500587463379e-01,-6.667444610595703125e+01,-1.826887054443359375e+02,-2.343178272247314453e+00,7.562277984619140625e+01,3.135697174072265625e+01
2.191829979419708252e-01,1.000000000000000000e+00,6.536943912506103516e+00,-8.960927963256835938e+00,2.897017002105712891e+00,-2.063279113769531250e+02,-1.003241119384765625e+02,-1.791954193115234375e+02,4.033146500587463379e-01,-6.667435455322265625e+01,-1.826887054443359375e+02,-2.343394041061401367e+00,7.562291717529296875e+01,3.135697174072265625e+01
2.231229990720748901e-01,1.000000000000000000e+00,6.475540161132812500e+00,-8.906955718994140625e+00,2.906430482864379883e+00,-2.062763977050781250e+02,-1.002480850219726562e+02,-1.791334381103515625e+02,4.033146500587463379e-01,-6.667444610595703125e+01,-1.826887054443359375e+02,-2.343250274658203125e+00,7.562291717529296875e+01,3.135697174072265625e+01
2.291229963302612305e-01,1.000000000000000000e+00,6.413935184478759766e+00,-8.852869987487792969e+00,2.915803670883178711e+00,-2.062254180908203125e+02,-1.001709899902343750e+02,-1.790724029541015625e+02,4.033146500587463379e-01,-6.667444610595703125e+01,-1.826887054443359375e+02,-2.343250274658203125e+00,7.562291717529296875e+01,3.135697174072265625e+01
2.330320030450820923e-01,1.000000000000000000e+00,6.352560043334960938e+00,-8.798739433288574219e+00,2.924830913543701172e+00,-2.061738586425781250e+02,-1.000948562622070312e+02,-1.790122528076171875e+02,4.033146500587463379e-01,-6.667444610595703125e+01,-1.826887054443359375e+02,-2.343250274658203125e+00,7.562291717529296875e+01,3.135697174072265625e+01
2.350690066814422607e-01,1.000000000000000000e+00,6.291213512420654297e+00,-8.744789123535156250e+00,2.933837890625000000e+00,-2.061230621337890625e+02,-1.000190887451171875e+02,-1.789508056640625000e+02,4.033146500587463379e-01,-6.667444610595703125e+01,-1.826887054443359375e+02,-2.343250274658203125e+00,7.562291717529296875e+01,3.135697174072265625e+01
2.390519976615905762e-01,1.000000000000000000e+00,6.229809761047363281e+00,-8.690930366516113281e+00,2.943109273910522461e+00,-2.060718231201171875e+02,-9.994316864013671875e+01,-1.788901214599609375e+02,4.033146500587463379e-01,-6.667444610595703125e+01,-1.826887054443359375e+02,-2.343178272247314453e+00,7.562291717529296875e+01,3.135697174072265625e+01
2.431199997663497925e-01,1.000000000000000000e+00,6.168606758117675781e+00,-8.637228965759277344e+00,2.952441453933715820e+00,-2.060204620361328125e+02,-9.986618804931640625e+01,-1.788296203613281250e+02,4.033146500587463379e-01,-6.667444610595703125e+01,-1.826887054443359375e+02,-2.343250274658203125e+00,7.562291717529296875e+01,3.135697174072265625e+01
2.471300065517425537e-01,1.000000000000000000e+00,6.107461452484130859e+00,-8.583551406860351562e+00,2.961794137954711914e+00,-2.059697418212890625e+02,-9.978977966308593750e+01,-1.787679138183593750e+02,4.033146500587463379e-01,-6.667444610595703125e+01,-1.826887054443359375e+02,-2.343178272247314453e+00,7.562291717529296875e+01,3.135697174072265625e+01
2.510859966278076172e-01,1.000000000000000000e+00,6.046373367309570312e+00,-8.529759407043457031e+00,2.971004486083984375e+00,-2.059183197021484375e+02,-9.971391296386718750e+01,-1.787069396972656250e+02,4.033146500587463379e-01,-6.667444610595703125e+01,-1.826887054443359375e+02,-2.343250274658203125e+00,7.562291717529296875e+01,3.135719108581542969e+01
2.551040053367614746e-01,1.000000000000000000e+00,5.985284805297851562e+00,-8.475923538208007812e+00,2.980092763900756836e+00,-2.058674316406250000e+02,-9.963761901855468750e+01,-1.786473999023437500e+02,4.033146500587463379e-01,-6.667444610595703125e+01,-1.826887054443359375e+02,-2.343250274658203125e+00,7.562291717529296875e+01,3.135697174072265625e+01
2.591429948806762695e-01,1.000000000000000000e+00,5.924024581909179688e+00,-8.422109603881835938e+00,2.989262342453002930e+00,-2.058166656494140625e+02,-9.956046295166015625e+01,-1.785860137939453125e+02,4.033146500587463379e-01,-6.667444610595703125e+01,-1.826887054443359375e+02,-2.343250274658203125e+00,7.562291717529296875e+01,3.135697174072265625e+01
2.632189989089965820e-01,1.000000000000000000e+00,5.862735748291015625e+00,-8.368589401245117188e+00,2.998655557632446289e+00,-2.057651977539062500e+02,-9.948416900634765625e+01,-1.785251922607421875e+02,4.033146500587463379e-01,-6.667444610595703125e+01,-1.826887054443359375e+02,-2.343178272247314453e+00,7.562277984619140625e+01,3.135697174072265625e+01
2.671630084514617920e-01,1.000000000000000000e+00,5.801417827606201172e+00,-8.315024375915527344e+00,3.008008241653442383e+00,-2.057141723632812500e+02,-9.940867614746093750e+01,-1.784648284912109375e+02,4.033146500587463379e-01,-6.667435455322265625e+01,-1.826887054443359375e+02,-2.343178272247314453e+00,7.562277984619140625e+01,3.135697174072265625e+01
2.710790038108825684e-01,1.000000000000000000e+00,5.740387439727783203e+00,-8.261572837829589844e+00,3.017259359359741211e+00,-2.056639099121093750e+02,-9.933232879638671875e+01,-1.784034576416015625e+02,4.033146500587463379e-01,-6.667444610595703125e+01,-1.826887054443359375e+02,-2.343394041061401367e+00,7.562291717529296875e+01,3.135697174072265625e+01
2.773430049419403076e-01,1.000000000000000000e+00,5.679356575012207031e+00,-8.208211898803710938e+00,3.026368141174316406e+00,-2.056120758056640625e+02,-9.925543975830078125e+01,-1.783424224853515625e+02,4.033146500587463379e-01,-6.667453765869140625e+01,-1.826887054443359375e+02,-2.343250274658203125e+00,7.562277984619140625e+01,3.135675048828125000e+01
2.796140015125274658e-01,1.000000000000000000e+00,5.618124961853027344e+00,-8.154487609863281250e+00,3.035334110260009766e+00,-2.055611419677734375e+02,-9.917941284179687500e+01,-1.782824096679687500e+02,4.033146500587463379e-01,-6.667444610595703125e+01,-1.826887054443359375e+02,-2.343250274658203125e+00,7.562291717529296875e+01,3.135697174072265625e+01
2.840520143508911133e-01,1.000000000000000000e+00,5.557036876678466797e+00,-8.100991249084472656e+00,3.044321060180664062e+00,-2.055106201171875000e+02,-9.910365295410156250e+01,-1.782212371826171875e+02,4.033146500587463379e-01,-6.667444610595703125e+01,-1.826887054443359375e+02,-2.343394041061401367e+00,7.562291717529296875e+01,3.135697174072265625e+01
2.870559990406036377e-01,1.000000000000000000e+00,5.495776653289794922e+00,-8.047426223754882812e+00,3.053449869155883789e+00,-2.054587402343750000e+02,-9.902762603759765625e+01,-1.781595916748046875e+02,4.033146500587463379e-01,-6.667435455322265625e+01,-1.826887054443359375e+02,-2.343394041061401367e+00,7.562291717529296875e+01,3.135697174072265625e+01
2.920799851417541504e-01,1.000000000000000000e+00,5.495776653289794922e+00,-8.047426223754882812e+00,3.053449869155883789e+00,-2.054587402343750000e+02,-9.902762603759765625e+01,-1.781595916748046875e+02,4.033146500587463379e-01,-6.667453765869140625e+01,-1.826887054443359375e+02,-2.343394041061401367e+00,7.562291717529296875e+01,3.135697174072265625e+01
2.950550019741058350e-01,1.000000000000000000e+00,5.373112201690673828e+00,-7.940590381622314453e+00,3.071972131729125977e+00,-2.053568267822265625e+02,-9.887477111816406250e+01,-1.780388031005859375e+02,4.033146500587463379e-01,-6.667435455322265625e+01,-1.826887054443359375e+02,-2.343178272247314453e+00,7.562291717529296875e+01,3.135697174072265625e+01
3.016610145568847656e-01,1.000000000000000000e+00,5.373112201690673828e+00,-7.940590381622314453e+00,3.071972131729125977e+00,-2.053568267822265625e+02,-9.887477111816406250e+01,-1.780388031005859375e+02,4.033146500587463379e-01,-6.667435455322265625e+01,-1.826887054443359375e+02,-2.343178272247314453e+00,7.562291717529296875e+01,3.135697174072265625e+01
3.040969967842102051e-01,1.000000000000000000e+00,5.250505447387695312e+00,-7.833618164062500000e+00,3.090311527252197266e+00,-2.052542572021484375e+02,-9.872249603271484375e+01,-1.779167938232421875e+02,4.033146500587463379e-01,-6.667435455322265625e+01,-1.826887054443359375e+02,-2.343250274658203125e+00,7.562291717529296875e+01,3.135697174072265625e+01
3.071410059928894043e-01,1.000000000000000000e+00,5.189072608947753906e+00,-7.779827117919921875e+00,3.099481105804443359e+00,-2.052034301757812500e+02,-9.864614868164062500e+01,-1.778566589355468750e+02,4.033146500587463379e-01,-6.667453765869140625e+01,-1.826887054443359375e+02,-2.343250274658203125e+00,7.562291717529296875e+01,3.135697174072265625e+01
3.120670020580291748e-01,1.000000000000000000e+00,5.189072608947753906e+00,-7.779827117919921875e+00,3.099481105804443359e+00,-2.052034301757812500e+02,-9.864614868164062500e+01,-1.778566589355468750e+02,4.033146500587463379e-01,-6.667453765869140625e+01,-1.826887054443359375e+02,-2.343250274658203125e+00,7.562291717529296875e+01,3.135697174072265625e+01
3.150570094585418701e-01,1.000000000000000000e+00,5.066523551940917969e+00,-7.672086238861083984e+00,3.118328571319580078e+00,-2.051012878417968750e+02,-9.849462127685546875e+01,-1.777350006103515625e+02,4.033146500587463379e-01,-6.667444610595703125e+01,-1.826887054443359375e+02,-2.343250274658203125e+00,7.562291717529296875e+01,3.135697174072265625e+01
3.192720115184783936e-01,1.000000000000000000e+00,5.066523551940917969e+00,-7.672086238861083984e+00,3.118328571319580078e+00,-2.051012878417968750e+02,-9.849462127685546875e+01,-1.777350006103515625e+02,4.033146500587463379e-01,-6.667444610595703125e+01,-1.826887054443359375e+02,-2.343250274658203125e+00,7.562291717529296875e+01,3.135697174072265625e+01
3.258540034294128418e-01,1.000000000000000000e+00,5.004746437072753906e+00,-7.618135929107666016e+00,3.127701520919799805e+00,-2.050500030517578125e+02,-9.841822052001953125e+01,-1.776743621826171875e+02,4.033146500587463379e-01,-6.667435455322265625e+01,-1.826887054443359375e+02,-2.343178272247314453e+00,7.562291717529296875e+01,3.135697174072265625e+01
3.281159996986389160e-01,1.000000000000000000e+00,4.881450653076171875e+00,-7.510349750518798828e+00,3.146142721176147461e+00,-2.049489135742187500e+02,-9.826611328125000000e+01,-1.775527648925781250e+02,4.033146500587463379e-01,-6.667444610595703125e+01,-1.826887054443359375e+02,-2.343250274658203125e+00,7.562291717529296875e+01,3.135697174072265625e+01
3.311609923839569092e-01,1.000000000000000000e+00,4.820046424865722656e+00,-7.456445693969726562e+00,3.155373334884643555e+00,-2.048976593017578125e+02,-9.819067382812500000e+01,-1.774925537109375000e+02,4.033146500587463379e-01,-6.667435455322265625e+01,-1.826887054443359375e+02,-2.343250274658203125e+00,7.562291717529296875e+01,3.135675048828125000e+01
3.360829949378967285e-01,1.000000000000000000e+00,4.820046424865722656e+00,-7.456445693969726562e+00,3.155373334884643555e+00,-2.048976593017578125e+02,-9.819067382812500000e+01,-1.774925537109375000e+02,4.033146500587463379e-01,-6.667435455322265625e+01,-1.826887054443359375e+02,-2.343250274658203125e+00,7.562291717529296875e+01,3.135675048828125000e+01
3.390969932079315186e-01,1.000000000000000000e+00,4.696722507476806641e+00,-7.348388195037841797e+00,3.174058198928833008e+00,-2.047958526611328125e+02,-9.803871917724609375e+01,-1.773712921142578125e+02,4.033146500587463379e-01,-6.667444610595703125e+01,-1.826887054443359375e+02,-2.343250274658203125e+00,7.562291717529296875e+01,3.135697174072265625e+01
3.432289958000183105e-01,1.000000000000000000e+00,4.696722507476806641e+00,-7.348388195037841797e+00,3.174058198928833008e+00,-2.047958526611328125e+02,-9.803871917724609375e+01,-1.773712921142578125e+02,4.033146500587463379e-01,-6.667444610595703125e+01,-1.826887054443359375e+02,-2.343250274658203125e+00,7.562291717529296875e+01,3.135697174072265625e+01
3.471130132675170898e-01,1.000000000000000000e+00,4.635433197021484375e+00,-7.294460296630859375e+00,3.183370113372802734e+00,-2.047446441650390625e+02,-9.796263885498046875e+01,-1.773106536865234375e+02,4.033146500587463379e-01,-6.667444610595703125e+01,-1.826887054443359375e+02,-2.343250274658203125e+00,7.562291717529296875e+01,3.135697174072265625e+01
3.511109948158264160e-01,1.000000000000000000e+00,4.574143886566162109e+00,-7.240646839141845703e+00,3.192620992660522461e+00,-2.046938629150390625e+02,-9.788650512695312500e+01,-1.772492218017578125e+02,4.033146500587463379e-01,-6.667435455322265625e+01,-1.826887054443359375e+02,-2.343178272247314453e+00,7.562277984619140625e+01,3.135697174072265625e+01
3.551839888095855713e-01,1.000000000000000000e+00,4.512711524963378906e+00,-7.186900138854980469e+00,3.201729774475097656e+00,-2.046431884765625000e+02,-9.781031036376953125e+01,-1.771889190673828125e+02,4.033146500587463379e-01,-6.667444610595703125e+01,-1.826887054443359375e+02,-2.343250274658203125e+00,7.562291717529296875e+01,3.135697174072265625e+01
3.591080009937286377e-01,1.000000000000000000e+00,4.451336383819580078e+00,-7.133177280426025391e+00,3.211021423339843750e+00,-2.045918273925781250e+02,-9.773481750488281250e+01,-1.771282958984375000e+02,4.033146500587463379e-01,-6.667435455322265625e+01,-1.826887054443359375e+02,-2.343250274658203125e+00,7.562291717529296875e+01,3.135697174072265625e+01
3.631739914417266846e-01,1.000000000000000000e+00,4.390190601348876953e+00,-7.079136848449707031e+00,3.220556974411010742e+00,-2.045408020019531250e+02,-9.765915679931640625e+01,-1.770665893554687500e+02,4.033146500587463379e-01,-6.667444610595703125e+01,-1.826887054443359375e+02,-2.343250274658203125e+00,7.562277984619140625e+01,3.135697174072265625e+01
3.671979904174804688e-01,1.000000000000000000e+00,4.328959465026855469e+00,-7.025209903717041016e+00,3.229929924011230469e+00,-2.044896545410156250e+02,-9.758286285400390625e+01,-1.770063629150390625e+02,4.033146500587463379e-01,-6.667435455322265625e+01,-1.826887054443359375e+02,-2.343250274658203125e+00,7.562291717529296875e+01,3.135697174072265625e+01
3.711299896240234375e-01,1.000000000000000000e+00,4.267727851867675781e+00,-6.971395492553710938e+00,3.239241838455200195e+00,-2.044384460449218750e+02,-9.750667572021484375e+01,-1.769457397460937500e+02,4.033146500587463379e-01,-6.667435455322265625e+01,-1.826887054443359375e+02,-2.343250274658203125e+00,7.562291717529296875e+01,3.135697174072265625e+01
3.753769993782043457e-01,1.000000000000000000e+00,4.206639289855957031e+00,-6.917400836944580078e+00,3.248452425003051758e+00,-2.043877105712890625e+02,-9.743118286132812500e+01,-1.768840179443359375e+02,4.033146500587463379e-01,-6.667444610595703125e+01,-1.826887054443359375e+02,-2.343250274658203125e+00,7.562291717529296875e+01,3.135697174072265625e+01
3.791100084781646729e-01,1.000000000000000000e+00,4.145752429962158203e+00,-6.863790512084960938e+00,3.257540464401245117e+00,-2.043367919921875000e+02,-9.735546875000000000e+01,-1.768235931396484375e+02,4.033146500587463379e-01,-6.667444610595703125e+01,-1.826887054443359375e+02,-2.343250274658203125e+00,7.562291717529296875e+01,3.135719108581542969e+01
3.831230103969573975e-01,1.000000000000000000e+00,4.084778785705566406e+00,-6.810112476348876953e+00,3.266669511795043945e+00,-2.042855987548828125e+02,-9.727970886230468750e+01,-1.767635803222656250e+02,4.033146500587463379e-01,-6.667435455322265625e+01,-1.826887054443359375e+02,-2.343250274658203125e+00,7.562291717529296875e+01,3.135697174072265625e+01
3.871720135211944580e-01,1.000000000000000000e+00,4.023547649383544922e+00,-6.756434440612792969e+00,3.275981426239013672e+00,-2.042351379394531250e+02,-9.720325469970703125e+01,-1.767021942138671875e+02,4.033146500587463379e-01,-6.667435455322265625e+01,-1.826887054443359375e+02,-2.343250274658203125e+00,7.562277984619140625e+01,3.135697174072265625e+01
3.910970091819763184e-01,1.000000000000000000e+00,3.962315797805786133e+00,-6.702710628509521484e+00,3.285273075103759766e+00,-2.041834564208984375e+02,-9.712728118896484375e+01,-1.766417846679687500e+02,4.033146500587463379e-01,-6.667444610595703125e+01,-1.826887054443359375e+02,-2.343250274658203125e+00,7.562277984619140625e+01,3.135697174072265625e+01
3.950949907302856445e-01,1.000000000000000000e+00,3.901170253753662109e+00,-6.648941993713378906e+00,3.294523954391479492e+00,-2.041328277587890625e+02,-9.705167388916015625e+01,-1.765811614990234375e+02,4.033146500587463379e-01,-6.667444610595703125e+01,-1.826887054443359375e+02,-2.343250274658203125e+00,7.562291717529296875e+01,3.135697174072265625e+01
3.991949856281280518e-01,1.000000000000000000e+00,3.840110778808593750e+00,-6.595580577850341797e+00,3.303653001785278320e+00,-2.040825347900390625e+02,-9.697559356689453125e+01,-1.765197143554687500e+02,4.033146500587463379e-01,-6.667444610595703125e+01,-1.826887054443359375e+02,-2.343178272247314453e+00,7.562291717529296875e+01,3.135697174072265625e+01
4.031659960746765137e-01,1.000000000000000000e+00,3.779108762741088867e+00,-6.541925430297851562e+00,3.312680482864379883e+00,-2.040312805175781250e+02,-9.689961242675781250e+01,-1.764594116210937500e+02,4.033146500587463379e-01,-6.667435455322265625e+01,-1.826887054443359375e+02,-2.343394041061401367e+00,7.562291717529296875e+01,3.135697174072265625e+01
4.071080088615417480e-01,1.000000000000000000e+00,3.717992067337036133e+00,-6.488472938537597656e+00,3.321951866149902344e+00,-2.039810333251953125e+02,-9.682348632812500000e+01,-1.763995361328125000e+02,4.033146500587463379e-01,-6.667435455322265625e+01,-1.826887054443359375e+02,-2.343250274658203125e+00,7.562277984619140625e+01,3.135697174072265625e+01
4.111720025539398193e-01,1.000000000000000000e+00,3.657104969024658203e+00,-6.435021400451660156e+00,3.331406116485595703e+00,-2.039304046630859375e+02,-9.674755859375000000e+01,-1.763384399414062500e+02,4.033146500587463379e-01,-6.667444610595703125e+01,-1.826887054443359375e+02,-2.343250274658203125e+00,7.562291717529296875e+01,3.135697174072265625e+01
4.151000082492828369e-01,1.000000000000000000e+00,3.595844507217407227e+00,-6.381546974182128906e+00,3.340900897979736328e+00,-2.038786315917968750e+02,-9.667105102539062500e+01,-1.762779388427734375e+02,4.033146500587463379e-01,-6.667444610595703125e+01,-1.826887054443359375e+02,-2.343178272247314453e+00,7.562291717529296875e+01,3.135697174072265625e+01
4.191110134124755859e-01,1.000000000000000000e+00,3.534641742706298828e+00,-6.327936649322509766e+00,3.350213050842285156e+00,-2.038282165527343750e+02,-9.659534454345703125e+01,-1.762175903320312500e+02,4.033146500587463379e-01,-6.667444610595703125e+01,-1.826887054443359375e+02,-2.343178272247314453e+00,7.562291717529296875e+01,3.135697174072265625e+01
4.239499866962432861e-01,1.000000000000000000e+00,3.473467350006103516e+00,-6.274326324462890625e+00,3.359382390975952148e+00,-2.037776031494140625e+02,-9.651941680908203125e+01,-1.761563415527343750e+02,4.033146500587463379e-01,-6.667444610595703125e+01,-1.826887054443359375e+02,-2.343394041061401367e+00,7.562291717529296875e+01,3.135697174072265625e+01
4.280959963798522949e-01,1.000000000000000000e+00,3.412322044372558594e+00,-6.220625400543212891e+00,3.368389606475830078e+00,-2.037261810302734375e+02,-9.644387054443359375e+01,-1.760958557128906250e+02,4.033146500587463379e-01,-6.667444610595703125e+01,-1.826887054443359375e+02,-2.343250274658203125e+00,7.562277984619140625e+01,3.135697174072265625e+01
4.320589900016784668e-01,1.000000000000000000e+00,3.351233959197998047e+00,-6.166789054870605469e+00,3.377498149871826172e+00,-2.036755218505859375e+02,-9.636746978759765625e+01,-1.760359039306640625e+02,4.033146500587463379e-01,-6.667435455322265625e+01,-1.826887054443359375e+02,-2.343250274658203125e+00,7.562291717529296875e+01,3.135697174072265625e+01
4.361500144004821777e-01,1.000000000000000000e+00,3.289973497390747070e+00,-6.112861633300781250e+00,3.386687994003295898e+00,-2.036243133544921875e+02,-9.629154205322265625e+01,-1.759741821289062500e+02,4.033146500587463379e-01,-6.667444610595703125e+01,-1.826887054443359375e+02,-2.343250274658203125e+00,7.562277984619140625e+01,3.135697174072265625e+01
4.400669932365417480e-01,1.000000000000000000e+00,3.228540897369384766e+00,-6.059093475341796875e+00,3.396060943603515625e+00,-2.035730133056640625e+02,-9.621599578857421875e+01,-1.759128875732421875e+02,4.033146500587463379e-01,-6.667444610595703125e+01,-1.826887054443359375e+02,-2.343394041061401367e+00,7.562277984619140625e+01,3.135675048828125000e+01
4.431580007076263428e-01,1.000000000000000000e+00,3.167079448699951172e+00,-6.005392074584960938e+00,3.405373096466064453e+00,-2.035227661132812500e+02,-9.614018249511718750e+01,-1.758530731201171875e+02,4.033146500587463379e-01,-6.667435455322265625e+01,-1.826887054443359375e+02,-2.343250274658203125e+00,7.562291717529296875e+01,3.135697174072265625e+01
4.478079974651336670e-01,1.000000000000000000e+00,3.105561017990112305e+00,-5.951714038848876953e+00,3.414603710174560547e+00,-2.034720306396484375e+02,-9.606340789794921875e+01,-1.757917633056640625e+02,4.033146500587463379e-01,-6.667444610595703125e+01,-1.826887054443359375e+02,-2.343250274658203125e+00,7.562277984619140625e+01,3.135697174072265625e+01
4.520919919013977051e-01,1.000000000000000000e+00,3.044157028198242188e+00,-5.897900581359863281e+00,3.423691987991333008e+00,-2.034207763671875000e+02,-9.598786163330078125e+01,-1.757306671142578125e+02,4.033146500587463379e-01,-6.667444610595703125e+01,-1.826887054443359375e+02,-2.343178272247314453e+00,7.562291717529296875e+01,3.135697174072265625e+01
4.551070034503936768e-01,1.000000000000000000e+00,2.982552289962768555e+00,-5.844040870666503906e+00,3.432881832122802734e+00,-2.033701171875000000e+02,-9.591252136230468750e+01,-1.756709136962890625e+02,4.033146500587463379e-01,-6.667444610595703125e+01,-1.826887054443359375e+02,-2.343250274658203125e+00,7.562277984619140625e+01,3.135697174072265625e+01
4.592739939689636230e-01,1.000000000000000000e+00,2.921033620834350586e+00,-5.790227413177490234e+00,3.442417621612548828e+00,-2.033189697265625000e+02,-9.583633422851562500e+01,-1.756094665527343750e+02,4.033146500587463379e-01,-6.667453765869140625e+01,-1.826887054443359375e+02,-2.343178272247314453e+00,7.562291717529296875e+01,3.135697174072265625e+01
4.632210135459899902e-01,1.000000000000000000e+00,2.859342336654663086e+00,-5.736413478851318359e+00,3.451912641525268555e+00,-2.032683410644531250e+02,-9.575960540771484375e+01,-1.755486297607421875e+02,4.033146500587463379e-01,-6.667444610595703125e+01,-1.826887054443359375e+02,-2.343178272247314453e+00,7.562291717529296875e+01,3.135697174072265625e+01
4.670979976654052734e-01,1.000000000000000000e+00,2.797766208648681641e+00,-5.682870864868164062e+00,3.461448192596435547e+00,-2.032183074951171875e+02,-9.568384552001953125e+01,-1.754884185791015625e+02,4.033146500587463379e-01,-6.667444610595703125e+01,-1.826887054443359375e+02,-2.343178272247314453e+00,7.562291717529296875e+01,3.135697174072265625e+01
4.718100130558013916e-01,1.000000000000000000e+00,2.736505985260009766e+00,-5.629328250885009766e+00,3.470780611038208008e+00,-2.031671600341796875e+02,-9.560877990722656250e+01,-1.754269714355468750e+02,4.033146500587463379e-01,-6.667435455322265625e+01,-1.826887054443359375e+02,-2.343178272247314453e+00,7.562277984619140625e+01,3.135697174072265625e+01
4.756560027599334717e-01,1.000000000000000000e+00,2.675159454345703125e+00,-5.575424194335937500e+00,3.479929685592651367e+00,-2.031163940429687500e+02,-9.553291320800781250e+01,-1.753665618896484375e+02,4.033146500587463379e-01,-6.667444610595703125e+01,-1.826887054443359375e+02,-2.343178272247314453e+00,7.562291717529296875e+01,3.135697174072265625e+01
4.801160097122192383e-01,1.000000000000000000e+00,2.613870620727539062e+00,-5.521496772766113281e+00,3.488997697830200195e+00,-2.030659790039062500e+02,-9.545645904541015625e+01,-1.753072204589843750e+02,4.033146500587463379e-01,-6.667435455322265625e+01,-1.826887054443359375e+02,-2.343250274658203125e+00,7.562291717529296875e+01,3.135697174072265625e+01
4.833689928054809570e-01,1.000000000000000000e+00,2.552294492721557617e+00,-5.467660427093505859e+00,3.498350381851196289e+00,-2.030148162841796875e+02,-9.538042449951171875e+01,-1.752461090087890625e+02,4.033146500587463379e-01,-6.667444610595703125e+01,-1.826887054443359375e+02,-2.343250274658203125e+00,7.562291717529296875e+01,3.135697174072265625e+01
4.871880114078521729e-01,1.000000000000000000e+00,2.490833282470703125e+00,-5.413891315460205078e+00,3.507601261138916016e+00,-2.029643249511718750e+02,-9.530519866943359375e+01,-1.751850128173828125e+02,4.033146500587463379e-01,-6.667444610595703125e+01,-1.826887054443359375e+02,-2.343178272247314453e+00,7.562291717529296875e+01,3.135697174072265625e+01
4.911380112171173096e-01,1.000000000000000000e+00,2.429716348648071289e+00,-5.360236167907714844e+00,3.516791343688964844e+00,-2.029137420654296875e+02,-9.522927856445312500e+01,-1.751253967285156250e+02,4.033146500587463379e-01,-6.667435455322265625e+01,-1.826887054443359375e+02,-2.343250274658203125e+00,7.562291717529296875e+01,3.135697174072265625e+01
4.958550035953521729e-01,1.000000000000000000e+00,2.368570566177368164e+00,-5.306489944458007812e+00,3.525879621505737305e+00,-2.028621826171875000e+02,-9.515309143066406250e+01,-1.750642242431640625e+02,4.033146500587463379e-01,-6.667435455322265625e+01,-1.826887054443359375e+02,-2.343250274658203125e+00,7.562277984619140625e+01,3.135697174072265625e+01
5.001729726791381836e-01,1.000000000000000000e+00,2.307482719421386719e+00,-5.252970218658447266e+00,3.534846067428588867e+00,-2.028112335205078125e+02,-9.507706451416015625e+01,-1.750036010742187500e+02,4.033146500587463379e-01,-6.667444610595703125e+01,-1.826887054443359375e+02,-2.343250274658203125e+00,7.562291717529296875e+01,3.135697174072265625e+01
5.033910274505615234e-01,1.000000000000000000e+00,2.246624231338500977e+00,-5.199269294738769531e+00,3.544076442718505859e+00,-2.027605133056640625e+02,-9.500193786621093750e+01,-1.749438476562500000e+02,4.033146500587463379e-01,-6.667453765869140625e+01,-1.826887054443359375e+02,-2.343250274658203125e+00,7.562277984619140625e+01,3.135697174072265625e+01
5.073320269584655762e-01,1.000000000000000000e+00,2.185392618179321289e+00,-5.145636558532714844e+00,3.553530931472778320e+00,-2.027094726562500000e+02,-9.492585754394531250e+01,-1.748826751708984375e+02,4.033146500587463379e-01,-6.667444610595703125e+01,-1.826887054443359375e+02,-2.343178272247314453e+00,7.562291717529296875e+01,3.135697174072265625e+01
5.111839771270751953e-01,1.000000000000000000e+00,2.123988628387451172e+00,-5.092116832733154297e+00,3.562842607498168945e+00,-2.026587982177734375e+02,-9.484998321533203125e+01,-1.748209686279296875e+02,4.033146500587463379e-01,-6.667444610595703125e+01,-1.826887054443359375e+02,-2.343394041061401367e+00,7.562291717529296875e+01,3.135697174072265625e+01
5.152829885482788086e-01,1.000000000000000000e+00,2.062670946121215820e+00,-5.038641929626464844e+00,3.572256326675415039e+00,-2.026076660156250000e+02,-9.477416992187500000e+01,-1.747612915039062500e+02,4.033146500587463379e-01,-6.667444610595703125e+01,-1.826887054443359375e+02,-2.343178272247314453e+00,7.562291717529296875e+01,3.135697174072265625e+01
5.201240181922912598e-01,1.000000000000000000e+00,2.001496791839599609e+00,-4.985258102416992188e+00,3.581507444381713867e+00,-2.025568847656250000e+02,-9.469862365722656250e+01,-1.747001190185546875e+02,4.033146500587463379e-01,-6.667444610595703125e+01,-1.826887054443359375e+02,-2.343394041061401367e+00,7.562277984619140625e+01,3.135697174072265625e+01
5.240179896354675293e-01,1.000000000000000000e+00,1.940580725669860840e+00,-4.931897163391113281e+00,3.590554952621459961e+00,-2.025065765380859375e+02,-9.462274932861328125e+01,-1.746390228271484375e+02,4.033146500587463379e-01,-6.667435455322265625e+01,-1.826887054443359375e+02,-2.343250274658203125e+00,7.562291717529296875e+01,3.135697174072265625e+01
5.272319912910461426e-01,1.000000000000000000e+00,1.879521489143371582e+00,-4.878603458404541016e+00,3.599582195281982422e+00,-2.024551696777343750e+02,-9.454720306396484375e+01,-1.745790710449218750e+02,4.033146500587463379e-01,-6.667435455322265625e+01,-1.826887054443359375e+02,-2.343250274658203125e+00,7.562291717529296875e+01,3.135697174072265625e+01
5.314660072326660156e-01,1.000000000000000000e+00,1.818548083305358887e+00,-4.824924945831298828e+00,3.608812808990478516e+00,-2.024045410156250000e+02,-9.447117614746093750e+01,-1.745182342529296875e+02,4.033146500587463379e-01,-6.667453765869140625e+01,-1.826887054443359375e+02,-2.343250274658203125e+00,7.562291717529296875e+01,3.135697174072265625e+01
5.354750156402587891e-01,1.000000000000000000e+00,1.757861971855163574e+00,-4.771382808685302734e+00,3.618104457855224609e+00,-2.023544006347656250e+02,-9.439546203613281250e+01,-1.744572601318359375e+02,4.033146500587463379e-01,-6.667435455322265625e+01,-1.826887054443359375e+02,-2.343250274658203125e+00,7.562291717529296875e+01,3.135697174072265625e+01
5.393649935722351074e-01,1.000000000000000000e+00,1.696773886680603027e+00,-4.717953681945800781e+00,3.627315044403076172e+00,-2.023029937744140625e+02,-9.431970214843750000e+01,-1.743973846435546875e+02,4.033146500587463379e-01,-6.667444610595703125e+01,-1.826887054443359375e+02,-2.343250274658203125e+00,7.562277984619140625e+01,3.135697174072265625e+01
5.444099903106689453e-01,1.000000000000000000e+00,1.635771989822387695e+00,-4.664298057556152344e+00,3.636464357376098633e+00,-2.022525329589843750e+02,-9.424457550048828125e+01,-1.743364105224609375e+02,4.033146500587463379e-01,-6.667444610595703125e+01,-1.826887054443359375e+02,-2.343178272247314453e+00,7.562291717529296875e+01,3.135697174072265625e+01
5.482209920883178711e-01,1.000000000000000000e+00,1.574769973754882812e+00,-4.610620021820068359e+00,3.645491361618041992e+00,-2.022019653320312500e+02,-9.416908264160156250e+01,-1.742749023437500000e+02,4.033146500587463379e-01,-6.667444610595703125e+01,-1.826887054443359375e+02,-2.343250274658203125e+00,7.562291717529296875e+01,3.135697174072265625e+01
5.517100095748901367e-01,1.000000000000000000e+00,1.513767957687377930e+00,-4.556919097900390625e+00,3.654600381851196289e+00,-2.021505584716796875e+02,-9.409321594238281250e+01,-1.742155609130859375e+02,4.033146500587463379e-01,-6.667435455322265625e+01,-1.826887054443359375e+02,-2.343178272247314453e+00,7.562291717529296875e+01,3.135697174072265625e+01
5.563009977340698242e-01,1.000000000000000000e+00,1.452794671058654785e+00,-4.503467559814453125e+00,3.663993597030639648e+00,-2.021001892089843750e+02,-9.401692199707031250e+01,-1.741557617187500000e+02,4.033146500587463379e-01,-6.667444610595703125e+01,-1.826887054443359375e+02,-2.343250274658203125e+00,7.562291717529296875e+01,3.135697174072265625e+01
5.595620274543762207e-01,1.000000000000000000e+00,1.392079710960388184e+00,-4.449947834014892578e+00,3.673427343368530273e+00,-2.020500488281250000e+02,-9.394179534912109375e+01,-1.740943756103515625e+02,4.033146500587463379e-01,-6.667435455322265625e+01,-1.826887054443359375e+02,-2.343250274658203125e+00,7.562291717529296875e+01,3.135697174072265625e+01
5.640910267829895020e-01,1.000000000000000000e+00,1.331077694892883301e+00,-4.396337032318115234e+00,3.682800531387329102e+00,-2.019983825683593750e+02,-9.386650848388671875e+01,-1.740344238281250000e+02,4.033146500587463379e-01,-6.667435455322265625e+01,-1.826887054443359375e+02,-2.343250274658203125e+00,7.562291717529296875e+01,3.135697174072265625e+01
5.676630139350891113e-01,1.000000000000000000e+00,1.269989728927612305e+00,-4.342681884765625000e+00,3.692092180252075195e+00,-2.019476470947265625e+02,-9.379090881347656250e+01,-1.739738616943359375e+02,4.033146500587463379e-01,-6.667444610595703125e+01,-1.826887054443359375e+02,-2.343250274658203125e+00,7.562291717529296875e+01,3.135697174072265625e+01
5.724350214004516602e-01,1.000000000000000000e+00,1.208729267120361328e+00,-4.289049148559570312e+00,3.701139450073242188e+00,-2.018968200683593750e+02,-9.371482849121093750e+01,-1.739127655029296875e+02,4.033146500587463379e-01,-6.667435455322265625e+01,-1.826887054443359375e+02,-2.343394041061401367e+00,7.562291717529296875e+01,3.135697174072265625e+01
5.756989717483520508e-01,1.000000000000000000e+00,1.147468924522399902e+00,-4.235325336456298828e+00,3.710248470306396484e+00,-2.018453063964843750e+02,-9.363912200927734375e+01,-1.738530120849609375e+02,4.033146500587463379e-01,-6.667444610595703125e+01,-1.826887054443359375e+02,-2.343178272247314453e+00,7.562291717529296875e+01,3.135697174072265625e+01
5.802479982376098633e-01,1.000000000000000000e+00,1.086237311363220215e+00,-4.181782722473144531e+00,3.719418048858642578e+00,-2.017951202392578125e+02,-9.356378173828125000e+01,-1.737926635742187500e+02,4.033146500587463379e-01,-6.667435455322265625e+01,-1.826887054443359375e+02,-2.343178272247314453e+00,7.562277984619140625e+01,3.135697174072265625e+01
5.837550163269042969e-01,1.000000000000000000e+00,1.025005698204040527e+00,-4.128308773040771484e+00,3.728607892990112305e+00,-2.017446594238281250e+02,-9.348754882812500000e+01,-1.737310180664062500e+02,4.033146500587463379e-01,-6.667435455322265625e+01,-1.826887054443359375e+02,-2.343178272247314453e+00,7.562291717529296875e+01,3.135697174072265625e+01
5.880910158157348633e-01,1.000000000000000000e+00,9.637453556060791016e-01,-4.074449062347412109e+00,3.737818002700805664e+00,-2.016931762695312500e+02,-9.341199493408203125e+01,-1.736711273193359375e+02,4.033146500587463379e-01,-6.667444610595703125e+01,-1.826887054443359375e+02,-2.343250274658203125e+00,7.562291717529296875e+01,3.135697174072265625e+01
5.926150083541870117e-01,1.000000000000000000e+00,9.027146100997924805e-01,-4.020658016204833984e+00,3.747110128402709961e+00,-2.016427764892578125e+02,-9.333622741699218750e+01,-1.736107788085937500e+02,4.033146500587463379e-01,-6.667444610595703125e+01,-1.826887054443359375e+02,-2.343178272247314453e+00,7.562277984619140625e+01,3.135697174072265625e+01
5.966899991035461426e-01,1.000000000000000000e+00,8.416839838027954102e-01,-3.966821432113647461e+00,3.756178140640258789e+00,-2.015916290283203125e+02,-9.326078796386718750e+01,-1.735493316650390625e+02,4.033146500587463379e-01,-6.667444610595703125e+01,-1.826887054443359375e+02,-2.343250274658203125e+00,7.562277984619140625e+01,3.135697174072265625e+01
6.001650094985961914e-01,1.000000000000000000e+00,7.806532979011535645e-01,-3.913210868835449219e+00,3.765326976776123047e+00,-2.015411682128906250e+02,-9.318454742431640625e+01,-1.734893951416015625e+02,4.033146500587463379e-01,-6.667444610595703125e+01,-1.826887054443359375e+02,-2.343178272247314453e+00,7.562291717529296875e+01,3.135697174072265625e+01
6.041569709777832031e-01,1.000000000000000000e+00,7.194216251373291016e-01,-3.859351873397827148e+00,3.774679660797119141e+00,-2.014910125732421875e+02,-9.310884094238281250e+01,-1.734295043945312500e+02,4.033146500587463379e-01,-6.667444610595703125e+01,-1.826887054443359375e+02,-2.343250274658203125e+00,7.562291717529296875e+01,3.135697174072265625e+01
6.080240011215209961e-01,1.000000000000000000e+00,6.581612825393676758e-01,-3.805832147598266602e+00,3.784194946289062500e+00,-2.014401397705078125e+02,-9.303371429443359375e+01,-1.733683929443359375e+02,4.033146500587463379e-01,-6.667444610595703125e+01,-1.826887054443359375e+02,-2.343394041061401367e+00,7.562277984619140625e+01,3.135697174072265625e+01
6.119830012321472168e-01,1.000000000000000000e+00,5.971305966377258301e-01,-3.752198934555053711e+00,3.793568134307861328e+00,-2.013892517089843750e+02,-9.295822143554687500e+01,-1.733080291748046875e+02,4.033146500587463379e-01,-6.667444610595703125e+01,-1.826887054443359375e+02,-2.343250274658203125e+00,7.562277984619140625e+01,3.135697174072265625e+01
6.168519854545593262e-01,1.000000000000000000e+00,5.360425114631652832e-01,-3.698362588882446289e+00,3.802879810333251953e+00,-2.013388366699218750e+02,-9.288187408447265625e+01,-1.732482299804687500e+02,4.033146500587463379e-01,-6.667444610595703125e+01,-1.826887054443359375e+02,-2.343250274658203125e+00,7.562291717529296875e+01,3.135697174072265625e+01
6.208639740943908691e-01,1.000000000000000000e+00,4.750692248344421387e-01,-3.644865512847900391e+00,3.811988830566406250e+00,-2.012875366210937500e+02,-9.280594635009765625e+01,-1.731869201660156250e+02,4.033146500587463379e-01,-6.667435455322265625e+01,-1.826887054443359375e+02,-2.343250274658203125e+00,7.562291717529296875e+01,3.135697174072265625e+01
6.241769790649414062e-01,1.000000000000000000e+00,4.141533672809600830e-01,-3.591390848159790039e+00,3.821016073226928711e+00,-2.012373504638671875e+02,-9.273082733154296875e+01,-1.731268310546875000e+02,4.033146500587463379e-01,-6.667444610595703125e+01,-1.826887054443359375e+02,-2.343250274658203125e+00,7.562277984619140625e+01,3.135697174072265625e+01
6.282280087471008301e-01,1.000000000000000000e+00,3.532087802886962891e-01,-3.538052320480346680e+00,3.830327987670898438e+00,-2.011870422363281250e+02,-9.265496063232421875e+01,-1.730672912597656250e+02,4.033146500587463379e-01,-6.667444610595703125e+01,-1.826887054443359375e+02,-2.343178272247314453e+00,7.562277984619140625e+01,3.135697174072265625e+01
6.321480274200439453e-01,1.000000000000000000e+00,2.919771373271942139e-01,-3.484577655792236328e+00,3.839558362960815430e+00,-2.011356811523437500e+02,-9.257855987548828125e+01,-1.730060577392578125e+02,4.033146500587463379e-01,-6.667435455322265625e+01,-1.826887054443359375e+02,-2.343250274658203125e+00,7.562291717529296875e+01,3.135697174072265625e+01
6.361489892005920410e-01,1.000000000000000000e+00,2.307742238044738770e-01,-3.431148529052734375e+00,3.848606348037719727e+00,-2.010848541259765625e+02,-9.250247192382812500e+01,-1.729458312988281250e+02,4.033146500587463379e-01,-6.667444610595703125e+01,-1.826887054443359375e+02,-2.343250274658203125e+00,7.562291717529296875e+01,3.135697174072265625e+01
6.411240100860595703e-01,1.000000000000000000e+00,1.695425659418106079e-01,-3.377651214599609375e+00,3.857592821121215820e+00,-2.010341186523437500e+02,-9.242745971679687500e+01,-1.728860168457031250e+02,4.033146500587463379e-01,-6.667444610595703125e+01,-1.826887054443359375e+02,-2.343250274658203125e+00,7.562277984619140625e+01,3.135697174072265625e+01
6.449689865112304688e-01,1.000000000000000000e+00,1.084544733166694641e-01,-3.324063777923583984e+00,3.866539001464843750e+00,-2.009832305908203125e+02,-9.235191345214843750e+01,-1.728247680664062500e+02,4.033146500587463379e-01,-6.667444610595703125e+01,-1.826887054443359375e+02,-2.343250274658203125e+00,7.562277984619140625e+01,3.135697174072265625e+01
6.483910083770751953e-01,1.000000000000000000e+00,4.756731539964675903e-02,-3.270611763000488281e+00,3.875647544860839844e+00,-2.009330444335937500e+02,-9.227571868896484375e+01,-1.727642211914062500e+02,4.033146500587463379e-01,-6.667444610595703125e+01,-1.826887054443359375e+02,-2.343250274658203125e+00,7.562277984619140625e+01,3.135697174072265625e+01
6.522340178489685059e-01,1.000000000000000000e+00,-1.349208038300275803e-02,-3.217024326324462891e+00,3.885081768035888672e+00,-2.008820037841796875e+02,-9.220001220703125000e+01,-1.727044067382812500e+02,4.033146500587463379e-01,-6.667444610595703125e+01,-1.826887054443359375e+02,-2.343178272247314453e+00,7.562291717529296875e+01,3.135697174072265625e+01
6.550390124320983887e-01,1.000000000000000000e+00,-7.437923550605773926e-02,-3.163527011871337891e+00,3.894454479217529297e+00,-2.008310699462890625e+02,-9.212456512451171875e+01,-1.726428985595703125e+02,4.033146500587463379e-01,-6.667444610595703125e+01,-1.826887054443359375e+02,-2.343250274658203125e+00,7.562277984619140625e+01,3.135697174072265625e+01
6.600800156593322754e-01,1.000000000000000000e+00,-1.352950930595397949e-01,-3.110052585601806641e+00,3.903766393661499023e+00,-2.007807006835937500e+02,-9.204918670654296875e+01,-1.725821380615234375e+02,4.033146500587463379e-01,-6.667444610595703125e+01,-1.826887054443359375e+02,-2.343394041061401367e+00,7.562291717529296875e+01,3.135697174072265625e+01
6.631150245666503906e-01,1.000000000000000000e+00,-1.962109655141830444e-01,-3.056691408157348633e+00,3.912997007369995117e+00,-2.007294158935546875e+02,-9.197309875488281250e+01,-1.725226593017578125e+02,4.033146500587463379e-01,-6.667444610595703125e+01,-1.826887054443359375e+02,-2.343178272247314453e+00,7.562277984619140625e+01,3.135697174072265625e+01
6.670429706573486328e-01,1.000000000000000000e+00,-2.571555376052856445e-01,-3.003148794174194336e+00,3.922085523605346680e+00,-2.006790466308593750e+02,-9.189744567871093750e+01,-1.724610137939453125e+02,4.033146500587463379e-01,-6.667444610595703125e+01,-1.826887054443359375e+02,-2.343394041061401367e+00,7.562291717529296875e+01,3.135697174072265625e+01
6.724690198898315430e-01,1.000000000000000000e+00,-3.180139958858489990e-01,-2.949651718139648438e+00,3.931092262268066406e+00,-2.006289062500000000e+02,-9.182195281982421875e+01,-1.724007720947265625e+02,4.033146500587463379e-01,-6.667444610595703125e+01,-1.826887054443359375e+02,-2.343250274658203125e+00,7.562277984619140625e+01,3.135697174072265625e+01
6.751639842987060547e-01,1.000000000000000000e+00,-3.789872825145721436e-01,-2.896086692810058594e+00,3.940302848815917969e+00,-2.005781250000000000e+02,-9.174645233154296875e+01,-1.723406982421875000e+02,4.033146500587463379e-01,-6.667444610595703125e+01,-1.826887054443359375e+02,-2.343250274658203125e+00,7.562277984619140625e+01,3.135697174072265625e+01
6.790729761123657227e-01,1.000000000000000000e+00,-4.398744106292724609e-01,-2.842544078826904297e+00,3.949573993682861328e+00,-2.005278320312500000e+02,-9.167031097412109375e+01,-1.722799377441406250e+02,4.033146500587463379e-01,-6.667444610595703125e+01,-1.826887054443359375e+02,-2.343178272247314453e+00,7.562277984619140625e+01,3.135697174072265625e+01
6.832060217857360840e-01,1.000000000000000000e+00,-5.009912252426147461e-01,-2.789250850677490234e+00,3.958784103393554688e+00,-2.004774627685546875e+02,-9.159476470947265625e+01,-1.722195129394531250e+02,4.033146500587463379e-01,-6.667444610595703125e+01,-1.826887054443359375e+02,-2.343250274658203125e+00,7.562291717529296875e+01,3.135697174072265625e+01
6.872289776802062988e-01,1.000000000000000000e+00,-5.619645118713378906e-01,-2.735844373703002930e+00,3.967892885208129883e+00,-2.004258880615234375e+02,-9.151964569091796875e+01,-1.721598358154296875e+02,4.033146500587463379e-01,-6.667444610595703125e+01,-1.826887054443359375e+02,-2.343250274658203125e+00,7.562291717529296875e+01,3.135697174072265625e+01
6.910579800605773926e-01,1.000000000000000000e+00,-6.230812668800354004e-01,-2.682528257369995117e+00,3.976940393447875977e+00,-2.003757934570312500e+02,-9.144398498535156250e+01,-1.720983886718750000e+02,4.033146500587463379e-01,-6.667444610595703125e+01,-1.826887054443359375e+02,-2.343250274658203125e+00,7.562291717529296875e+01,3.135697174072265625e+01
6.968569755554199219e-01,1.000000000000000000e+00,-6.843129396438598633e-01,-2.628895282745361328e+00,3.986008405685424805e+00,-2.003256072998046875e+02,-9.136795806884765625e+01,-1.720380249023437500e+02,4.033146500587463379e-01,-6.667453765869140625e+01,-1.826887054443359375e+02,-2.343394041061401367e+00,7.562291717529296875e+01,3.135697174072265625e+01
7.006260156631469727e-01,1.000000000000000000e+00,-7.455446124076843262e-01,-2.575239658355712891e+00,3.995320558547973633e+00,-2.002743072509765625e+02,-9.129277801513671875e+01,-1.719788970947265625e+02,4.033146500587463379e-01,-6.667444610595703125e+01,-1.826887054443359375e+02,-2.343250274658203125e+00,7.562291717529296875e+01,3.135697174072265625e+01
7.046939730644226074e-01,1.000000000000000000e+00,-8.066900968551635742e-01,-2.521651983261108398e+00,4.004856109619140625e+00,-2.002238922119140625e+02,-9.121760559082031250e+01,-1.719184112548828125e+02,4.033146500587463379e-01,-6.667444610595703125e+01,-1.826887054443359375e+02,-2.343250274658203125e+00,7.562291717529296875e+01,3.135675048828125000e+01
7.087180018424987793e-01,1.000000000000000000e+00,-8.678069114685058594e-01,-2.467928647994995117e+00,4.014167785644531250e+00,-2.001730194091796875e+02,-9.114237976074218750e+01,-1.718575134277343750e+02,4.033146500587463379e-01,-6.667435455322265625e+01,-1.826887054443359375e+02,-2.343250274658203125e+00,7.562277984619140625e+01,3.135697174072265625e+01
7.128289937973022461e-01,1.000000000000000000e+00,-9.290671944618225098e-01,-2.414476871490478516e+00,4.023439407348632812e+00,-2.001217041015625000e+02,-9.106693267822265625e+01,-1.717976837158203125e+02,4.033146500587463379e-01,-6.667444610595703125e+01,-1.826887054443359375e+02,-2.343465566635131836e+00,7.562291717529296875e+01,3.135697174072265625e+01
7.176399827003479004e-01,1.000000000000000000e+00,-9.900979399681091309e-01,-2.360775947570800781e+00,4.032486915588378906e+00,-2.000717773437500000e+02,-9.099149322509765625e+01,-1.717369995117187500e+02,4.033146500587463379e-01,-6.667435455322265625e+01,-1.826887054443359375e+02,-2.343250274658203125e+00,7.562291717529296875e+01,3.135697174072265625e+01
7.208909988403320312e-01,1.000000000000000000e+00,-1.050927758216857910e+00,-2.307324171066284180e+00,4.041351795196533203e+00,-2.000213623046875000e+02,-9.091589355468750000e+01,-1.716765747070312500e+02,4.033146500587463379e-01,-6.667444610595703125e+01,-1.826887054443359375e+02,-2.343250274658203125e+00,7.562291717529296875e+01,3.135697174072265625e+01
7.247980237007141113e-01,1.000000000000000000e+00,-1.112187981605529785e+00,-2.253759145736694336e+00,4.050521373748779297e+00,-1.999702606201171875e+02,-9.084049987792968750e+01,-1.716167602539062500e+02,4.033146500587463379e-01,-6.667444610595703125e+01,-1.826887054443359375e+02,-2.343250274658203125e+00,7.562277984619140625e+01,3.135697174072265625e+01
7.270510196685791016e-01,1.000000000000000000e+00,-1.173103928565979004e+00,-2.200103521347045898e+00,4.059711456298828125e+00,-1.999197998046875000e+02,-9.076511383056640625e+01,-1.715559997558593750e+02,4.033146500587463379e-01,-6.667444610595703125e+01,-1.826887054443359375e+02,-2.343250274658203125e+00,7.562291717529296875e+01,3.135697174072265625e+01
7.310360074043273926e-01,1.000000000000000000e+00,-1.234163284301757812e+00,-2.146583795547485352e+00,4.068819999694824219e+00,-1.998687133789062500e+02,-9.069025421142578125e+01,-1.714947509765625000e+02,4.033146500587463379e-01,-6.667444610595703125e+01,-1.826887054443359375e+02,-2.343394041061401367e+00,7.562277984619140625e+01,3.135697174072265625e+01
7.351239919662475586e-01,1.000000000000000000e+00,-1.294849514961242676e+00,-2.093086481094360352e+00,4.078050613403320312e+00,-1.998180541992187500e+02,-9.061476135253906250e+01,-1.714351348876953125e+02,4.033146500587463379e-01,-6.667444610595703125e+01,-1.826887054443359375e+02,-2.343178272247314453e+00,7.562291717529296875e+01,3.135697174072265625e+01
7.418209910392761230e-01,1.000000000000000000e+00,-1.355880141258239746e+00,-2.039793014526367188e+00,4.087057590484619141e+00,-1.997682647705078125e+02,-9.053878784179687500e+01,-1.713746490478515625e+02,4.033146500587463379e-01,-6.667444610595703125e+01,-1.826887054443359375e+02,-2.343250274658203125e+00,7.562291717529296875e+01,3.135697174072265625e+01
7.452960014343261719e-01,1.000000000000000000e+00,-1.416767358779907227e+00,-1.986341357231140137e+00,4.096186637878417969e+00,-1.997173309326171875e+02,-9.046345520019531250e+01,-1.713132019042968750e+02,4.033146500587463379e-01,-6.667444610595703125e+01,-1.826887054443359375e+02,-2.343250274658203125e+00,7.562291717529296875e+01,3.135697174072265625e+01
7.470610141754150391e-01,1.000000000000000000e+00,-1.477625846862792969e+00,-1.932889342308044434e+00,4.105457782745361328e+00,-1.996665496826171875e+02,-9.038848876953125000e+01,-1.712536621093750000e+02,4.033146500587463379e-01,-6.667444610595703125e+01,-1.826887054443359375e+02,-2.343178272247314453e+00,7.562291717529296875e+01,3.135697174072265625e+01
7.512220144271850586e-01,1.000000000000000000e+00,-1.538685202598571777e+00,-1.879505395889282227e+00,4.114912033081054688e+00,-1.996165618896484375e+02,-9.031315612792968750e+01,-1.711931762695312500e+02,4.033146500587463379e-01,-6.667444610595703125e+01,-1.826887054443359375e+02,-2.343250274658203125e+00,7.562277984619140625e+01,3.135697174072265625e+01
7.550929784774780273e-01,1.000000000000000000e+00,-1.599629759788513184e+00,-1.826053500175476074e+00,4.124244689941406250e+00,-1.995656890869140625e+02,-9.023728179931640625e+01,-1.711320037841796875e+02,4.033146500587463379e-01,-6.667444610595703125e+01,-1.826887054443359375e+02,-2.343250274658203125e+00,7.562277984619140625e+01,3.135675048828125000e+01
7.590829730033874512e-01,1.000000000000000000e+00,-1.660545706748962402e+00,-1.772692203521728516e+00,4.133515834808349609e+00,-1.995153808593750000e+02,-9.016189575195312500e+01,-1.710721893310546875e+02,4.033146500587463379e-01,-6.667444610595703125e+01,-1.826887054443359375e+02,-2.343250274658203125e+00,7.562291717529296875e+01,3.135697174072265625e+01
7.631629705429077148e-01,1.000000000000000000e+00,-1.721461534500122070e+00,-1.719081878662109375e+00,4.142624378204345703e+00,-1.994647979736328125e+02,-9.008655548095703125e+01,-1.710117034912109375e+02,4.033146500587463379e-01,-6.667444610595703125e+01,-1.826887054443359375e+02,-2.343250274658203125e+00,7.562277984619140625e+01,3.135697174072265625e+01
7.670990228652954102e-01,1.000000000000000000e+00,-1.782434821128845215e+00,-1.665403723716735840e+00,4.151610851287841797e+00,-1.994134521484375000e+02,-9.001106262207031250e+01,-1.709506683349609375e+02,4.033146500587463379e-01,-6.667444610595703125e+01,-1.826887054443359375e+02,-2.343178272247314453e+00,7.562277984619140625e+01,3.135697174072265625e+01
7.732809782028198242e-01,1.000000000000000000e+00,-1.843034744262695312e+00,-1.611974477767944336e+00,4.160760402679443359e+00,-1.993630523681640625e+02,-8.993508911132812500e+01,-1.708912506103515625e+02,4.033146500587463379e-01,-6.667444610595703125e+01,-1.826887054443359375e+02,-2.343250274658203125e+00,7.562277984619140625e+01,3.135697174072265625e+01
7.750390172004699707e-01,1.000000000000000000e+00,-1.903749823570251465e+00,-1.558748960494995117e+00,4.169868946075439453e+00,-1.993123626708984375e+02,-8.985990905761718750e+01,-1.708313598632812500e+02,4.033146500587463379e-01,-6.667435455322265625e+01,-1.826887054443359375e+02,-2.343178272247314453e+00,7.562277984619140625e+01,3.135697174072265625e+01
7.810239791870117188e-01,1.000000000000000000e+00,-1.964263796806335449e+00,-1.505342364311218262e+00,4.179018497467041016e+00,-1.992614288330078125e+02,-8.978441619873046875e+01,-1.707700653076171875e+02,4.033146500587463379e-01,-6.667435455322265625e+01,-1.826887054443359375e+02,-2.343250274658203125e+00,7.562291717529296875e+01,3.135697174072265625e+01
7.831540107727050781e-01,1.000000000000000000e+00,-2.024863719940185547e+00,-1.451732039451599121e+00,4.188147544860839844e+00,-1.992109222412109375e+02,-8.970860290527343750e+01,-1.707103881835937500e+02,4.033146500587463379e-01,-6.667435455322265625e+01,-1.826887054443359375e+02,-2.343178272247314453e+00,7.562277984619140625e+01,3.135697174072265625e+01
7.871530055999755859e-01,1.000000000000000000e+00,-2.085578680038452148e+00,-1.398257613182067871e+00,4.197113513946533203e+00,-1.991601867675781250e+02,-8.963246154785156250e+01,-1.706500244140625000e+02,4.033146500587463379e-01,-6.667444610595703125e+01,-1.826887054443359375e+02,-2.343394041061401367e+00,7.562291717529296875e+01,3.135697174072265625e+01
7.910720109939575195e-01,1.000000000000000000e+00,-2.146236181259155273e+00,-1.344805717468261719e+00,4.206039428710937500e+00,-1.991092987060546875e+02,-8.955760955810546875e+01,-1.705887145996093750e+02,4.033146500587463379e-01,-6.667444610595703125e+01,-1.826887054443359375e+02,-2.343394041061401367e+00,7.562277984619140625e+01,3.135697174072265625e+01
7.976530194282531738e-01,1.000000000000000000e+00,-2.206979990005493164e+00,-1.291399002075195312e+00,4.215371608734130859e+00,-1.990591735839843750e+02,-8.948216247558593750e+01,-1.705290374755859375e+02,4.033146500587463379e-01,-6.667444610595703125e+01,-1.826887054443359375e+02,-2.343250274658203125e+00,7.562277984619140625e+01,3.135697174072265625e+01
8.000569939613342285e-01,1.000000000000000000e+00,-2.267694711685180664e+00,-1.238128304481506348e+00,4.224764823913574219e+00,-1.990080718994140625e+02,-8.940646362304687500e+01,-1.704693603515625000e+02,4.033146500587463379e-01,-6.667444610595703125e+01,-1.826887054443359375e+02,-2.343250274658203125e+00,7.562291717529296875e+01,3.135697174072265625e+01
8.031449913978576660e-01,1.000000000000000000e+00,-2.328581809997558594e+00,-1.184947848320007324e+00,4.234097003936767578e+00,-1.989577178955078125e+02,-8.933026885986328125e+01,-1.704077911376953125e+02,4.033146500587463379e-01,-6.667444610595703125e+01,-1.826887054443359375e+02,-2.343250274658203125e+00,7.562270355224609375e+01,3.135697174072265625e+01
8.072800040245056152e-01,1.000000000000000000e+00,-2.389239549636840820e+00,-1.131450772285461426e+00,4.243327617645263672e+00,-1.989075622558593750e+02,-8.925519561767578125e+01,-1.703474273681640625e+02,4.033146500587463379e-01,-6.667444610595703125e+01,-1.826887054443359375e+02,-2.343394041061401367e+00,7.562277984619140625e+01,3.135697174072265625e+01
8.121989965438842773e-01,1.000000000000000000e+00,-2.450155258178710938e+00,-1.077795267105102539e+00,4.252558708190917969e+00,-1.988564758300781250e+02,-8.917975616455078125e+01,-1.702874755859375000e+02,4.033146500587463379e-01,-6.667435455322265625e+01,-1.826887054443359375e+02,-2.343394041061401367e+00,7.562291717529296875e+01,3.135697174072265625e+01
8.151230216026306152e-01,1.000000000000000000e+00,-2.511071205139160156e+00,-1.024298071861267090e+00,4.261443614959716797e+00,-1.988062744140625000e+02,-8.910372924804687500e+01,-1.702263031005859375e+02,4.033146500587463379e-01,-6.667444610595703125e+01,-1.826887054443359375e+02,-2.343178272247314453e+00,7.562277984619140625e+01,3.135697174072265625e+01
8.220199942588806152e-01,1.000000000000000000e+00,-2.511071205139160156e+00,-1.024298071861267090e+00,4.261443614959716797e+00,-1.988062744140625000e+02,-8.910372924804687500e+01,-1.702263031005859375e+02,4.033146500587463379e-01,-6.667444610595703125e+01,-1.826887054443359375e+02,-2.343178272247314453e+00,7.562277984619140625e+01,3.135697174072265625e+01
8.236110210418701172e-01,1.000000000000000000e+00,-2.633276224136352539e+00,-9.174622893333435059e-01,4.279741764068603516e+00,-1.987047882080078125e+02,-8.895273590087890625e+01,-1.701062011718750000e+02,4.033146500587463379e-01,-6.667444610595703125e+01,-1.826887054443359375e+02,-2.343250274658203125e+00,7.562277984619140625e+01,3.135697174072265625e+01
8.281000256538391113e-01,1.000000000000000000e+00,-2.694191932678222656e+00,-8.638972043991088867e-01,4.288931846618652344e+00,-1.986544647216796875e+02,-8.887734222412109375e+01,-1.700453796386718750e+02,4.033146500587463379e-01,-6.667435455322265625e+01,-1.826887054443359375e+02,-2.343250274658203125e+00,7.562291717529296875e+01,3.135697174072265625e+01
8.310790061950683594e-01,1.000000000000000000e+00,-2.755136489868164062e+00,-8.106490373611450195e-01,4.298101425170898438e+00,-1.986044921875000000e+02,-8.880120849609375000e+01,-1.699854888916015625e+02,4.033146500587463379e-01,-6.667444610595703125e+01,-1.826887054443359375e+02,-2.343250274658203125e+00,7.562277984619140625e+01,3.135697174072265625e+01
8.352649807929992676e-01,1.000000000000000000e+00,-2.755136489868164062e+00,-8.106490373611450195e-01,4.298101425170898438e+00,-1.986044921875000000e+02,-8.880120849609375000e+01,-1.699854888916015625e+02,4.033146500587463379e-01,-6.667444610595703125e+01,-1.826887054443359375e+02,-2.343250274658203125e+00,7.562277984619140625e+01,3.135697174072265625e+01
8.400949835777282715e-01,1.000000000000000000e+00,-2.816195964813232422e+00,-7.571519017219543457e-01,4.307149410247802734e+00,-1.985531768798828125e+02,-8.872550201416015625e+01,-1.699254760742187500e+02,4.033146500587463379e-01,-6.667435455322265625e+01,-1.826887054443359375e+02,-2.343250274658203125e+00,7.562291717529296875e+01,3.135697174072265625e+01
8.436200022697448730e-01,1.000000000000000000e+00,-2.937884092330932617e+00,-6.503839492797851562e-01,4.325387001037597656e+00,-1.984522552490234375e+02,-8.857541656494140625e+01,-1.698040161132812500e+02,4.033146500587463379e-01,-6.667444610595703125e+01,-1.826887054443359375e+02,-2.343250274658203125e+00,7.562277984619140625e+01,3.135697174072265625e+01
8.481040000915527344e-01,1.000000000000000000e+00,-2.999144315719604492e+00,-5.969094634056091309e-01,4.334719181060791016e+00,-1.984008483886718750e+02,-8.849960327148437500e+01,-1.697445983886718750e+02,4.033146500587463379e-01,-6.667444610595703125e+01,-1.826887054443359375e+02,-2.343178272247314453e+00,7.562277984619140625e+01,3.135697174072265625e+01
8.511360287666320801e-01,1.000000000000000000e+00,-3.059945583343505859e+00,-5.437517166137695312e-01,4.344051361083984375e+00,-1.983506469726562500e+02,-8.842411041259765625e+01,-1.696841125488281250e+02,4.033146500587463379e-01,-6.667444610595703125e+01,-1.826887054443359375e+02,-2.343250274658203125e+00,7.562291717529296875e+01,3.135697174072265625e+01
8.551020026206970215e-01,1.000000000000000000e+00,-3.059945583343505859e+00,-5.437517166137695312e-01,4.344051361083984375e+00,-1.983506469726562500e+02,-8.842411041259765625e+01,-1.696841125488281250e+02,4.033146500587463379e-01,-6.667444610595703125e+01,-1.826887054443359375e+02,-2.343250274658203125e+00,7.562291717529296875e+01,3.135697174072265625e+01
8.597940206527709961e-01,1.000000000000000000e+00,-3.121119737625122070e+00,-4.904582798480987549e-01,4.353261470794677734e+00,-1.983002471923828125e+02,-8.834887695312500000e+01,-1.696238861083984375e+02,4.033146500587463379e-01,-6.667444610595703125e+01,-1.826887054443359375e+02,-2.343250274658203125e+00,7.562277984619140625e+01,3.135697174072265625e+01
8.631749749183654785e-01,1.000000000000000000e+00,-3.243094921112060547e+00,-3.838487267494201660e-01,4.371356964111328125e+00,-1.981987915039062500e+02,-8.819756317138671875e+01,-1.695031738281250000e+02,4.033146500587463379e-01,-6.667444610595703125e+01,-1.826887054443359375e+02,-2.343250274658203125e+00,7.562291717529296875e+01,3.135697174072265625e+01
8.670979738235473633e-01,1.000000000000000000e+00,-3.243094921112060547e+00,-3.838487267494201660e-01,4.371356964111328125e+00,-1.981987915039062500e+02,-8.819756317138671875e+01,-1.695031738281250000e+02,4.033146500587463379e-01,-6.667444610595703125e+01,-1.826887054443359375e+02,-2.343250274658203125e+00,7.562291717529296875e+01,3.135697174072265625e+01
8.711450099945068359e-01,1.000000000000000000e+00,-3.304096937179565430e+00,-3.304647505283355713e-01,4.380384445190429688e+00,-1.981479034423828125e+02,-8.812244415283203125e+01,-1.694425354003906250e+02,4.033146500587463379e-01,-6.667435455322265625e+01,-1.826887054443359375e+02,-2.343250274658203125e+00,7.562277984619140625e+01,3.135697174072265625e+01
8.751170039176940918e-01,1.000000000000000000e+00,-3.365012884140014648e+00,-2.769449949264526367e-01,4.389411926269531250e+00,-1.980973815917968750e+02,-8.804721832275390625e+01,-1.693834686279296875e+02,4.033146500587463379e-01,-6.667444610595703125e+01,-1.826887054443359375e+02,-2.343178272247314453e+00,7.562277984619140625e+01,3.135697174072265625e+01
8.792449831962585449e-01,1.000000000000000000e+00,-3.425986051559448242e+00,-2.236515283584594727e-01,4.398520469665527344e+00,-1.980477142333984375e+02,-8.797235870361328125e+01,-1.693227844238281250e+02,4.033146500587463379e-01,-6.667444610595703125e+01,-1.826887054443359375e+02,-2.343250274658203125e+00,7.562291717529296875e+01,3.135697174072265625e+01
8.838539719581604004e-01,1.000000000000000000e+00,-3.487074136734008789e+00,-1.701544076204299927e-01,4.407710075378417969e+00,-1.979971008300781250e+02,-8.789622497558593750e+01,-1.692617492675781250e+02,4.033146500587463379e-01,-6.667444610595703125e+01,-1.826887054443359375e+02,-2.343250274658203125e+00,7.562291717529296875e+01,3.135697174072265625e+01
8.909869790077209473e-01,1.000000000000000000e+00,-3.609077930450439453e+00,-6.345432996749877930e-02,4.425765037536621094e+00,-1.978958129882812500e+02,-8.774587249755859375e+01,-1.691414337158203125e+02,4.033146500587463379e-01,-6.667444610595703125e+01,-1.826887054443359375e+02,-2.343250274658203125e+00,7.562291717529296875e+01,3.135697174072265625e+01
8.924049735069274902e-01,1.000000000000000000e+00,-3.669936656951904297e+00,-1.004772074520587921e-02,4.434955120086669922e+00,-1.978450164794921875e+02,-8.767107391357421875e+01,-1.690806121826171875e+02,4.033146500587463379e-01,-6.667444610595703125e+01,-1.826887054443359375e+02,-2.343394041061401367e+00,7.562277984619140625e+01,3.135697174072265625e+01
8.960880041122436523e-01,1.000000000000000000e+00,-3.730623006820678711e+00,4.331362992525100708e-02,4.444368839263916016e+00,-1.977946777343750000e+02,-8.759535980224609375e+01,-1.690214080810546875e+02,4.033146500587463379e-01,-6.667435455322265625e+01,-1.826887054443359375e+02,-2.343250274658203125e+00,7.562291717529296875e+01,3.135697174072265625e+01
8.990849852561950684e-01,1.000000000000000000e+00,-3.791337728500366211e+00,9.658446907997131348e-02,4.453701019287109375e+00,-1.977446899414062500e+02,-8.752040100097656250e+01,-1.689609222412109375e+02,4.033146500587463379e-01,-6.667444610595703125e+01,-1.826887054443359375e+02,-2.343250274658203125e+00,7.562277984619140625e+01,3.135697174072265625e+01
9.031950235366821289e-01,1.000000000000000000e+00,-3.791337728500366211e+00,9.658446907997131348e-02,4.453701019287109375e+00,-1.977446899414062500e+02,-8.752040100097656250e+01,-1.689609222412109375e+02,4.033146500587463379e-01,-6.667444610595703125e+01,-1.826887054443359375e+02,-2.343250274658203125e+00,7.562277984619140625e+01,3.135697174072265625e+01
9.079329967498779297e-01,1.000000000000000000e+00,-3.851937770843505859e+00,1.498553007841110229e-01,4.462992668151855469e+00,-1.976935424804687500e+02,-8.744464111328125000e+01,-1.689002075195312500e+02,4.033146500587463379e-01,-6.667444610595703125e+01,-1.826887054443359375e+02,-2.343250274658203125e+00,7.562277984619140625e+01,3.135697174072265625e+01
9.148210287094116211e-01,1.000000000000000000e+00,-3.912767410278320312e+00,2.032166421413421631e-01,4.472202777862548828e+00,-1.976429138183593750e+02,-8.736924743652343750e+01,-1.688406066894531250e+02,4.033146500587463379e-01,-6.667444610595703125e+01,-1.826887054443359375e+02,-2.343250274658203125e+00,7.562291717529296875e+01,3.135697174072265625e+01
9.163159728050231934e-01,1.000000000000000000e+00,-4.034197330474853516e+00,3.095093965530395508e-01,4.490338802337646484e+00,-1.975417938232421875e+02,-8.721921539306640625e+01,-1.687197570800781250e+02,4.033146500587463379e-01,-6.667444610595703125e+01,-1.826887054443359375e+02,-2.343250274658203125e+00,7.562277984619140625e+01,3.135697174072265625e+01
9.190729856491088867e-01,1.000000000000000000e+00,-4.094826221466064453e+00,3.629612326622009277e-01,4.499488353729248047e+00,-1.974914855957031250e+02,-8.714404296875000000e+01,-1.686598052978515625e+02,4.033146500587463379e-01,-6.667444610595703125e+01,-1.826887054443359375e+02,-2.343178272247314453e+00,7.562291717529296875e+01,3.135697174072265625e+01
9.231699705123901367e-01,1.000000000000000000e+00,-4.094826221466064453e+00,3.629612326622009277e-01,4.499488353729248047e+00,-1.974914855957031250e+02,-8.714404296875000000e+01,-1.686598052978515625e+02,4.033146500587463379e-01,-6.667444610595703125e+01,-1.826887054443359375e+02,-2.343178272247314453e+00,7.562291717529296875e+01,3.135697174072265625e+01
9.270830154418945312e-01,1.000000000000000000e+00,-4.155598640441894531e+00,4.163452386856079102e-01,4.508698463439941406e+00,-1.974408721923828125e+02,-8.706854248046875000e+01,-1.686001892089843750e+02,4.033146500587463379e-01,-6.667444610595703125e+01,-1.826887054443359375e+02,-2.343250274658203125e+00,7.562277984619140625e+01,3.135697174072265625e+01
9.318230152130126953e-01,1.000000000000000000e+00,-4.216399669647216797e+00,4.699102342128753662e-01,4.517624378204345703e+00,-1.973898162841796875e+02,-8.699294281005859375e+01,-1.685392913818359375e+02,4.033146500587463379e-01,-6.667444610595703125e+01,-1.826887054443359375e+02,-2.343250274658203125e+00,7.562291717529296875e+01,3.135697174072265625e+01
9.360889792442321777e-01,1.000000000000000000e+00,-4.277085781097412109e+00,5.231584310531616211e-01,4.526590347290039062e+00,-1.973397827148437500e+02,-8.691824340820312500e+01,-1.684796905517578125e+02,4.033146500587463379e-01,-6.667444610595703125e+01,-1.826887054443359375e+02,-2.343250274658203125e+00,7.562291717529296875e+01,3.135697174072265625e+01
9.410820007324218750e-01,1.000000000000000000e+00,-4.337800502777099609e+00,5.765197873115539551e-01,4.535475254058837891e+00,-1.972888946533203125e+02,-8.684322357177734375e+01,-1.684195251464843750e+02,4.033146500587463379e-01,-6.667444610595703125e+01,-1.826887054443359375e+02,-2.343250274658203125e+00,7.562291717529296875e+01,3.135697174072265625e+01
9.439560174942016602e-01,1.000000000000000000e+00,-4.459632396697998047e+00,6.833103895187377930e-01,4.554058551788330078e+00,-1.971885070800781250e+02,-8.669202423095703125e+01,-1.682986755371093750e+02,4.033146500587463379e-01,-6.667435455322265625e+01,-1.826887054443359375e+02,-2.343250274658203125e+00,7.562291717529296875e+01,3.135697174072265625e+01
9.481120109558105469e-01,1.000000000000000000e+00,-4.459632396697998047e+00,6.833103895187377930e-01,4.554058551788330078e+00,-1.971885070800781250e+02,-8.669202423095703125e+01,-1.682986755371093750e+02,4.033146500587463379e-01,-6.667435455322265625e+01,-1.826887054443359375e+02,-2.343250274658203125e+00,7.562291717529296875e+01,3.135697174072265625e+01
9.511340260505676270e-01,1.000000000000000000e+00,-4.520519733428955078e+00,7.367622852325439453e-01,4.563269138336181641e+00,-1.971378784179687500e+02,-8.661657714843750000e+01,-1.682386016845703125e+02,4.033146500587463379e-01,-6.667444610595703125e+01,-1.826887054443359375e+02,-2.343250274658203125e+00,7.562277984619140625e+01,3.135697174072265625e+01
9.558650255203247070e-01,1.000000000000000000e+00,-4.581234455108642578e+00,7.899426221847534180e-01,4.572520256042480469e+00,-1.970874176025390625e+02,-8.654167175292968750e+01,-1.681773529052734375e+02,4.033146500587463379e-01,-6.667435455322265625e+01,-1.826887054443359375e+02,-2.343250274658203125e+00,7.562277984619140625e+01,3.135697174072265625e+01
9.601150155067443848e-01,1.000000000000000000e+00,-4.642006874084472656e+00,8.431907892227172852e-01,4.581628799438476562e+00,-1.970375823974609375e+02,-8.646575164794921875e+01,-1.681176757812500000e+02,4.033146500587463379e-01,-6.667444610595703125e+01,-1.826887054443359375e+02,-2.343250274658203125e+00,7.562277984619140625e+01,3.135697174072265625e+01
9.635090231895446777e-01,1.000000000000000000e+00,-4.702692985534667969e+00,8.965520858764648438e-01,4.590615272521972656e+00,-1.969863891601562500e+02,-8.639084625244140625e+01,-1.680572509765625000e+02,4.033146500587463379e-01,-6.667444610595703125e+01,-1.826887054443359375e+02,-2.343394041061401367e+00,7.562291717529296875e+01,3.135697174072265625e+01
9.671099781990051270e-01,1.000000000000000000e+00,-4.763206958770751953e+00,9.497324824333190918e-01,4.599622249603271484e+00,-1.969358673095703125e+02,-8.631555938720703125e+01,-1.679962158203125000e+02,4.033146500587463379e-01,-6.667444610595703125e+01,-1.826887054443359375e+02,-2.343250274658203125e+00,7.562277984619140625e+01,3.135697174072265625e+01
9.710879921913146973e-01,1.000000000000000000e+00,-4.823835849761962891e+00,1.003161787986755371e+00,4.608893394470214844e+00,-1.968860931396484375e+02,-8.624006652832031250e+01,-1.679366149902343750e+02,4.033146500587463379e-01,-6.667444610595703125e+01,-1.826887054443359375e+02,-2.343250274658203125e+00,7.562277984619140625e+01,3.135697174072265625e+01
9.751369953155517578e-01,1.000000000000000000e+00,-4.884493350982666016e+00,1.056160926818847656e+00,4.618165016174316406e+00,-1.968350524902343750e+02,-8.616381835937500000e+01,-1.678765106201171875e+02,4.033146500587463379e-01,-6.667444610595703125e+01,-1.826887054443359375e+02,-2.343250274658203125e+00,7.562291717529296875e+01,3.135697174072265625e+01
9.798139929771423340e-01,1.000000000000000000e+00,-4.944950103759765625e+00,1.109499692916870117e+00,4.627233028411865234e+00,-1.967845458984375000e+02,-8.608934020996093750e+01,-1.678154754638671875e+02,4.033146500587463379e-01,-6.667444610595703125e+01,-1.826887054443359375e+02,-2.343250274658203125e+00,7.562277984619140625e+01,3.135697174072265625e+01
9.841139912605285645e-01,1.000000000000000000e+00,-5.005751132965087891e+00,1.162883639335632324e+00,4.636260509490966797e+00,-1.967340240478515625e+02,-8.601384735107421875e+01,-1.677558135986328125e+02,4.033146500587463379e-01,-6.667435455322265625e+01,-1.826887054443359375e+02,-2.343250274658203125e+00,7.562277984619140625e+01,3.135675048828125000e+01
9.878180027008056641e-01,1.000000000000000000e+00,-5.066494464874267578e+00,1.216267585754394531e+00,4.645185470581054688e+00,-1.966827239990234375e+02,-8.593888092041015625e+01,-1.676959228515625000e+02,4.033146500587463379e-01,-6.667444610595703125e+01,-1.826887054443359375e+02,-2.343178272247314453e+00,7.562277984619140625e+01,3.135697174072265625e+01
9.920870065689086914e-01,1.000000000000000000e+00,-5.127008438110351562e+00,1.269629001617431641e+00,4.654375553131103516e+00,-1.966329040527343750e+02,-8.586264038085937500e+01,-1.676352386474609375e+02,4.033146500587463379e-01,-6.667444610595703125e+01,-1.826887054443359375e+02,-2.343250274658203125e+00,7.562277984619140625e+01,3.135697174072265625e+01
9.951120018959045410e-01,1.000000000000000000e+00,-5.187895298004150391e+00,1.323080897331237793e+00,4.663667201995849609e+00,-1.965829010009765625e+02,-8.578784179687500000e+01,-1.675750122070312500e+02,4.033146500587463379e-01,-6.667444610595703125e+01,-1.826887054443359375e+02,-2.343178272247314453e+00,7.562291717529296875e+01,3.135697174072265625e+01
9.991629719734191895e-01,1.000000000000000000e+00,-5.248696327209472656e+00,1.376351594924926758e+00,4.673019886016845703e+00,-1.965317535400390625e+02,-8.571286773681640625e+01,-1.675159301757812500e+02,4.033146500587463379e-01,-6.667444610595703125e+01,-1.826887054443359375e+02,-2.343250274658203125e+00,7.562277984619140625e+01,3.135697174072265625e+01
1.003326058387756348e+00,1.000000000000000000e+00,-5.309382915496826172e+00,1.429554700851440430e+00,4.682271003723144531e+00,-1.964815063476562500e+02,-8.563754272460937500e+01,-1.674553833007812500e+02,4.033146500587463379e-01,-6.667444610595703125e+01,-1.826887054443359375e+02,-2.343250274658203125e+00,7.562291717529296875e+01,3.135697174072265625e+01
1.007254958152770996e+00,1.000000000000000000e+00,-5.370126724243164062e+00,1.482734918594360352e+00,4.691400051116943359e+00,-1.964308319091796875e+02,-8.556129455566406250e+01,-1.673949432373046875e+02,4.033146500587463379e-01,-6.667435455322265625e+01,-1.826887054443359375e+02,-2.343250274658203125e+00,7.562277984619140625e+01,3.135697174072265625e+01
1.011773943901062012e+00,1.000000000000000000e+00,-5.430640220642089844e+00,1.536051034927368164e+00,4.700325965881347656e+00,-1.963803100585937500e+02,-8.548638916015625000e+01,-1.673356170654296875e+02,4.033146500587463379e-01,-6.667444610595703125e+01,-1.826887054443359375e+02,-2.343250274658203125e+00,7.562291717529296875e+01,3.135697174072265625e+01
1.016093015670776367e+00,1.000000000000000000e+00,-5.491527557373046875e+00,1.589457631111145020e+00,4.709271430969238281e+00,-1.963305053710937500e+02,-8.541147613525390625e+01,-1.672747039794921875e+02,4.033146500587463379e-01,-6.667444610595703125e+01,-1.826887054443359375e+02,-2.343250274658203125e+00,7.562277984619140625e+01,3.135697174072265625e+01
1.019253015518188477e+00,1.000000000000000000e+00,-5.552185058593750000e+00,1.642660617828369141e+00,4.718319416046142578e+00,-1.962800750732421875e+02,-8.533603668212890625e+01,-1.672144927978515625e+02,4.033146500587463379e-01,-6.667444610595703125e+01,-1.826887054443359375e+02,-2.343250274658203125e+00,7.562277984619140625e+01,3.135697174072265625e+01
1.023234963417053223e+00,1.000000000000000000e+00,-5.612756729125976562e+00,1.695840954780578613e+00,4.727468490600585938e+00,-1.962293548583984375e+02,-8.526032257080078125e+01,-1.671550140380859375e+02,4.033146500587463379e-01,-6.667444610595703125e+01,-1.826887054443359375e+02,-2.343178272247314453e+00,7.562277984619140625e+01,3.135697174072265625e+01
1.028133988380432129e+00,1.000000000000000000e+00,-5.673241615295410156e+00,1.748794913291931152e+00,4.736618041992187500e+00,-1.961791534423828125e+02,-8.518520355224609375e+01,-1.670941162109375000e+02,4.033146500587463379e-01,-6.667435455322265625e+01,-1.826887054443359375e+02,-2.343250274658203125e+00,7.562277984619140625e+01,3.135697174072265625e+01
1.031381964683532715e+00,1.000000000000000000e+00,-5.733870506286621094e+00,1.801997900009155273e+00,4.745767116546630859e+00,-1.961283721923828125e+02,-8.511034393310546875e+01,-1.670332946777343750e+02,4.033146500587463379e-01,-6.667444610595703125e+01,-1.826885528564453125e+02,-2.343250274658203125e+00,7.562277984619140625e+01,3.135697174072265625e+01
1.036121010780334473e+00,1.000000000000000000e+00,-5.794499397277832031e+00,1.855336546897888184e+00,4.754754066467285156e+00,-1.960781402587890625e+02,-8.503506469726562500e+01,-1.669737396240234375e+02,4.033146500587463379e-01,-6.667444610595703125e+01,-1.826887054443359375e+02,-2.343178272247314453e+00,7.562277984619140625e+01,3.135697174072265625e+01
1.039479970932006836e+00,1.000000000000000000e+00,-5.855185508728027344e+00,1.908765792846679688e+00,4.763842105865478516e+00,-1.960284118652343750e+02,-8.495925140380859375e+01,-1.669130554199218750e+02,4.033146500587463379e-01,-6.667435455322265625e+01,-1.826887054443359375e+02,-2.343250274658203125e+00,7.562291717529296875e+01,3.135697174072265625e+01
1.043498992919921875e+00,1.000000000000000000e+00,-5.915957927703857422e+00,1.962172508239746094e+00,4.773072719573974609e+00,-1.959774169921875000e+02,-8.488401794433593750e+01,-1.668524780273437500e+02,4.033146500587463379e-01,-6.667444610595703125e+01,-1.826887054443359375e+02,-2.343178272247314453e+00,7.562277984619140625e+01,3.135697174072265625e+01
1.047317028045654297e+00,1.000000000000000000e+00,-5.976931095123291016e+00,2.015285015106201172e+00,4.782343864440917969e+00,-1.959264831542968750e+02,-8.480921936035156250e+01,-1.667930145263671875e+02,4.033146500587463379e-01,-6.667444610595703125e+01,-1.826887054443359375e+02,-2.343178272247314453e+00,7.562277984619140625e+01,3.135697174072265625e+01
1.052289962768554688e+00,1.000000000000000000e+00,-6.037674903869628906e+00,2.068555593490600586e+00,4.791656017303466797e+00,-1.958762359619140625e+02,-8.473351287841796875e+01,-1.667321166992187500e+02,4.033146500587463379e-01,-6.667444610595703125e+01,-1.826887054443359375e+02,-2.343250274658203125e+00,7.562277984619140625e+01,3.135697174072265625e+01
1.055580019950866699e+00,1.000000000000000000e+00,-6.098389625549316406e+00,2.121803760528564453e+00,4.800886631011962891e+00,-1.958254547119140625e+02,-8.465828704833984375e+01,-1.666717529296875000e+02,4.033146500587463379e-01,-6.667444610595703125e+01,-1.826887054443359375e+02,-2.343250274658203125e+00,7.562291717529296875e+01,3.135697174072265625e+01
1.060168027877807617e+00,1.000000000000000000e+00,-6.159219741821289062e+00,2.175029277801513672e+00,4.809954643249511719e+00,-1.957751464843750000e+02,-8.458300018310546875e+01,-1.666126861572265625e+02,4.033146500587463379e-01,-6.667444610595703125e+01,-1.826887054443359375e+02,-2.343178272247314453e+00,7.562291717529296875e+01,3.135697174072265625e+01
1.063742995262145996e+00,1.000000000000000000e+00,-6.219934463500976562e+00,2.228413581848144531e+00,4.818901062011718750e+00,-1.957248535156250000e+02,-8.450825500488281250e+01,-1.665517120361328125e+02,4.033146500587463379e-01,-6.667435455322265625e+01,-1.826887054443359375e+02,-2.343250274658203125e+00,7.562277984619140625e+01,3.135697174072265625e+01
1.068073034286499023e+00,1.000000000000000000e+00,-6.280792713165283203e+00,2.281684160232543945e+00,4.827968597412109375e+00,-1.956739654541015625e+02,-8.443238067626953125e+01,-1.664907531738281250e+02,4.033146500587463379e-01,-6.667444610595703125e+01,-1.826887054443359375e+02,-2.343178272247314453e+00,7.562277984619140625e+01,3.135697174072265625e+01
1.071555972099304199e+00,1.000000000000000000e+00,-6.341708660125732422e+00,2.334864616394042969e+00,4.837158679962158203e+00,-1.956240234375000000e+02,-8.435730743408203125e+01,-1.664319610595703125e+02,4.033146500587463379e-01,-6.667444610595703125e+01,-1.826887054443359375e+02,-2.343250274658203125e+00,7.562291717529296875e+01,3.135697174072265625e+01
1.075744032859802246e+00,1.000000000000000000e+00,-6.402595996856689453e+00,2.387931823730468750e+00,4.846226692199707031e+00,-1.955733032226562500e+02,-8.428202819824218750e+01,-1.663717346191406250e+02,4.033146500587463379e-01,-6.667435455322265625e+01,-1.826887054443359375e+02,-2.343178272247314453e+00,7.562277984619140625e+01,3.135697174072265625e+01
1.080067992210388184e+00,1.000000000000000000e+00,-6.463224411010742188e+00,2.440998792648315430e+00,4.855233669281005859e+00,-1.955226745605468750e+02,-8.420738983154296875e+01,-1.663112487792968750e+02,4.033146500587463379e-01,-6.667444610595703125e+01,-1.826887054443359375e+02,-2.343250274658203125e+00,7.562277984619140625e+01,3.135697174072265625e+01
1.084624052047729492e+00,1.000000000000000000e+00,-6.523968219757080078e+00,2.494246959686279297e+00,4.864159584045410156e+00,-1.954727478027343750e+02,-8.413151550292968750e+01,-1.662516937255859375e+02,4.033146500587463379e-01,-6.667435455322265625e+01,-1.826887054443359375e+02,-2.343250274658203125e+00,7.562291717529296875e+01,3.135697174072265625e+01
1.088147997856140137e+00,1.000000000000000000e+00,-6.584712028503417969e+00,2.547450065612792969e+00,4.873145580291748047e+00,-1.954221801757812500e+02,-8.405660247802734375e+01,-1.661910705566406250e+02,4.033146500587463379e-01,-6.667444610595703125e+01,-1.826887054443359375e+02,-2.343178272247314453e+00,7.562277984619140625e+01,3.135697174072265625e+01
1.091804981231689453e+00,1.000000000000000000e+00,-6.645311832427978516e+00,2.600743532180786133e+00,4.882417201995849609e+00,-1.953716583251953125e+02,-8.398143005371093750e+01,-1.661305084228515625e+02,4.033146500587463379e-01,-6.667435455322265625e+01,-1.826887054443359375e+02,-2.343250274658203125e+00,7.562291717529296875e+01,3.135697174072265625e+01
1.096073985099792480e+00,1.000000000000000000e+00,-6.705969333648681641e+00,2.653969049453735352e+00,4.891789913177490234e+00,-1.953217926025390625e+02,-8.390625762939453125e+01,-1.660713653564453125e+02,4.033146500587463379e-01,-6.667444610595703125e+01,-1.826887054443359375e+02,-2.343250274658203125e+00,7.562277984619140625e+01,3.135697174072265625e+01
1.100720047950744629e+00,1.000000000000000000e+00,-6.766684055328369141e+00,2.707217216491699219e+00,4.901041030883789062e+00,-1.952709503173828125e+02,-8.383070373535156250e+01,-1.660110778808593750e+02,4.033146500587463379e-01,-6.667444610595703125e+01,-1.826887054443359375e+02,-2.343250274658203125e+00,7.562277984619140625e+01,3.135697174072265625e+01
1.104133009910583496e+00,1.000000000000000000e+00,-6.827456951141357422e+00,2.760533571243286133e+00,4.910332679748535156e+00,-1.952203369140625000e+02,-8.375595855712890625e+01,-1.659499816894531250e+02,4.033146500587463379e-01,-6.667444610595703125e+01,-1.826887054443359375e+02,-2.343250274658203125e+00,7.562291717529296875e+01,3.135697174072265625e+01
1.108543992042541504e+00,1.000000000000000000e+00,-6.888085365295410156e+00,2.813826799392700195e+00,4.919299125671386719e+00,-1.951706085205078125e+02,-8.368115997314453125e+01,-1.658902282714843750e+02,4.033146500587463379e-01,-6.667444610595703125e+01,-1.826885528564453125e+02,-2.343178272247314453e+00,7.562291717529296875e+01,3.135697174072265625e+01
