rpiRobotics/ARM-21-02-F-19-Robot-Motion-Program/data_performance_abb/curve_2/curve_pose_opt2/100L/grad_result/real/run_1.csv
timestamp,cmd_num,J1,J2,J3,J4,J5,J6
1.400000037392601371e-04,-1.000000000000000000e+00,7.906000614166259766e+00,-1.016280364990234375e+01,2.697236776351928711e+00,-2.074677886962890625e+02,-1.020161590576171875e+02,-1.805538024902343750e+02,4.033146500587463379e-01,-6.667444610595703125e+01,-1.826887054443359375e+02,-2.343106746673583984e+00,7.562291717529296875e+01,3.135675048828125000e+01
3.817999968305230141e-03,1.000000000000000000e+00,7.905914306640625000e+00,-1.016280364990234375e+01,2.697236776351928711e+00,-2.074677886962890625e+02,-1.020162582397460938e+02,-1.805538024902343750e+02,4.033146500587463379e-01,-6.667435455322265625e+01,-1.826887054443359375e+02,-2.343178272247314453e+00,7.562277984619140625e+01,3.135697174072265625e+01
8.577999658882617950e-03,1.000000000000000000e+00,7.905914306640625000e+00,-1.016280364990234375e+01,2.697236776351928711e+00,-2.074677886962890625e+02,-1.020162582397460938e+02,-1.805538024902343750e+02,4.033146500587463379e-01,-6.667444610595703125e+01,-1.826887054443359375e+02,-2.343106746673583984e+00,7.562291717529296875e+01,3.135697174072265625e+01
1.209400035440921783e-02,1.000000000000000000e+00,7.905914306640625000e+00,-1.016280364990234375e+01,2.697277307510375977e+00,-2.074677886962890625e+02,-1.020162582397460938e+02,-1.805540008544921875e+02,4.033146500587463379e-01,-6.667444610595703125e+01,-1.826887054443359375e+02,-2.343106746673583984e+00,7.562291717529296875e+01,3.135697174072265625e+01
3.518500179052352905e-02,1.000000000000000000e+00,7.905857086181640625e+00,-1.016280364990234375e+01,2.697277307510375977e+00,-2.074678802490234375e+02,-1.020161590576171875e+02,-1.805540008544921875e+02,4.033146500587463379e-01,-6.667444610595703125e+01,-1.826887054443359375e+02,-2.343106746673583984e+00,7.562291717529296875e+01,3.135697174072265625e+01
3.656600043177604675e-02,1.000000000000000000e+00,7.905857086181640625e+00,-1.016280364990234375e+01,2.697277307510375977e+00,-2.074678802490234375e+02,-1.020161590576171875e+02,-1.805540008544921875e+02,4.033146500587463379e-01,-6.667444610595703125e+01,-1.826887054443359375e+02,-2.343106746673583984e+00,7.562291717529296875e+01,3.135697174072265625e+01
3.938699886202812195e-02,1.000000000000000000e+00,7.905914306640625000e+00,-1.016280364990234375e+01,2.697277307510375977e+00,-2.074677886962890625e+02,-1.020161590576171875e+02,-1.805540008544921875e+02,4.033146500587463379e-01,-6.667444610595703125e+01,-1.826887054443359375e+02,-2.343034982681274414e+00,7.562291717529296875e+01,3.135697174072265625e+01
4.617499932646751404e-02,1.000000000000000000e+00,7.905914306640625000e+00,-1.016280364990234375e+01,2.697277307510375977e+00,-2.074677886962890625e+02,-1.020161590576171875e+02,-1.805540008544921875e+02,4.033146500587463379e-01,-6.667444610595703125e+01,-1.826887054443359375e+02,-2.343034982681274414e+00,7.562291717529296875e+01,3.135697174072265625e+01
4.772400110960006714e-02,1.000000000000000000e+00,7.905857086181640625e+00,-1.016273498535156250e+01,2.697277307510375977e+00,-2.074677886962890625e+02,-1.020161590576171875e+02,-1.805540008544921875e+02,4.033146500587463379e-01,-6.667444610595703125e+01,-1.826887054443359375e+02,-2.343106746673583984e+00,7.562277984619140625e+01,3.135697174072265625e+01
4.899000003933906555e-02,1.000000000000000000e+00,7.905857086181640625e+00,-1.016273498535156250e+01,2.697277307510375977e+00,-2.074677886962890625e+02,-1.020161590576171875e+02,-1.805540008544921875e+02,4.033146500587463379e-01,-6.667444610595703125e+01,-1.826887054443359375e+02,-2.343106746673583984e+00,7.562277984619140625e+01,3.135697174072265625e+01
5.145300179719924927e-02,1.000000000000000000e+00,7.905857086181640625e+00,-1.016280364990234375e+01,2.697277307510375977e+00,-2.074678802490234375e+02,-1.020162582397460938e+02,-1.805540008544921875e+02,4.033146500587463379e-01,-6.667444610595703125e+01,-1.826887054443359375e+02,-2.343106746673583984e+00,7.562291717529296875e+01,3.135697174072265625e+01
5.273000150918960571e-02,1.000000000000000000e+00,7.905857086181640625e+00,-1.016280364990234375e+01,2.697277307510375977e+00,-2.074678802490234375e+02,-1.020162582397460938e+02,-1.805540008544921875e+02,4.033146500587463379e-01,-6.667444610595703125e+01,-1.826887054443359375e+02,-2.343106746673583984e+00,7.562291717529296875e+01,3.135697174072265625e+01
5.618600174784660339e-02,1.000000000000000000e+00,7.905770778656005859e+00,-1.016269016265869141e+01,2.697236776351928711e+00,-2.074677886962890625e+02,-1.020161590576171875e+02,-1.805538024902343750e+02,4.033146500587463379e-01,-6.667444610595703125e+01,-1.826887054443359375e+02,-2.343106746673583984e+00,7.562291717529296875e+01,3.135697174072265625e+01
6.057000160217285156e-02,1.000000000000000000e+00,7.905570030212402344e+00,-1.016246318817138672e+01,2.697277307510375977e+00,-2.074678802490234375e+02,-1.020159912109375000e+02,-1.805538024902343750e+02,4.033146500587463379e-01,-6.667444610595703125e+01,-1.826887054443359375e+02,-2.343178272247314453e+00,7.562291717529296875e+01,3.135697174072265625e+01
6.311500072479248047e-02,1.000000000000000000e+00,7.904537200927734375e+00,-1.016176128387451172e+01,2.697277307510375977e+00,-2.074677886962890625e+02,-1.020162582397460938e+02,-1.805540008544921875e+02,4.033146500587463379e-01,-6.667444610595703125e+01,-1.826887054443359375e+02,-2.343034982681274414e+00,7.562291717529296875e+01,3.135697174072265625e+01
6.450899690389633179e-02,1.000000000000000000e+00,7.904537200927734375e+00,-1.016176128387451172e+01,2.697277307510375977e+00,-2.074677886962890625e+02,-1.020162582397460938e+02,-1.805540008544921875e+02,4.033146500587463379e-01,-6.667444610595703125e+01,-1.826887054443359375e+02,-2.343034982681274414e+00,7.562291717529296875e+01,3.135697174072265625e+01
6.750799715518951416e-02,1.000000000000000000e+00,7.902785778045654297e+00,-1.016033554077148438e+01,2.697318077087402344e+00,-2.074677886962890625e+02,-1.020161590576171875e+02,-1.805538024902343750e+02,4.033146500587463379e-01,-6.667444610595703125e+01,-1.826887054443359375e+02,-2.343034982681274414e+00,7.562299346923828125e+01,3.135697174072265625e+01
6.878799945116043091e-02,1.000000000000000000e+00,7.902785778045654297e+00,-1.016033554077148438e+01,2.697318077087402344e+00,-2.074677886962890625e+02,-1.020161590576171875e+02,-1.805538024902343750e+02,4.033146500587463379e-01,-6.667444610595703125e+01,-1.826887054443359375e+02,-2.343034982681274414e+00,7.562299346923828125e+01,3.135697174072265625e+01
7.126200199127197266e-02,1.000000000000000000e+00,7.900173187255859375e+00,-1.015829944610595703e+01,2.697338342666625977e+00,-2.074677886962890625e+02,-1.020158920288085938e+02,-1.805538024902343750e+02,4.033146500587463379e-01,-6.667444610595703125e+01,-1.826887054443359375e+02,-2.343178272247314453e+00,7.562291717529296875e+01,3.135697174072265625e+01
7.254800200462341309e-02,1.000000000000000000e+00,7.900173187255859375e+00,-1.015829944610595703e+01,2.697338342666625977e+00,-2.074677886962890625e+02,-1.020158920288085938e+02,-1.805538024902343750e+02,4.033146500587463379e-01,-6.667444610595703125e+01,-1.826887054443359375e+02,-2.343178272247314453e+00,7.562291717529296875e+01,3.135697174072265625e+01
7.578799873590469360e-02,1.000000000000000000e+00,7.896527767181396484e+00,-1.015526676177978516e+01,2.697379112243652344e+00,-2.074676208496093750e+02,-1.020154571533203125e+02,-1.805536651611328125e+02,4.033146500587463379e-01,-6.667444610595703125e+01,-1.826887054443359375e+02,-2.343106746673583984e+00,7.562291717529296875e+01,3.135697174072265625e+01
7.959300279617309570e-02,1.000000000000000000e+00,7.896527767181396484e+00,-1.015526676177978516e+01,2.697379112243652344e+00,-2.074676208496093750e+02,-1.020154571533203125e+02,-1.805536651611328125e+02,4.033146500587463379e-01,-6.667444610595703125e+01,-1.826887054443359375e+02,-2.343106746673583984e+00,7.562291717529296875e+01,3.135697174072265625e+01
8.361399918794631958e-02,1.000000000000000000e+00,7.891790866851806641e+00,-1.015117168426513672e+01,2.697439908981323242e+00,-2.074672546386718750e+02,-1.020143966674804688e+02,-1.805536651611328125e+02,4.033146500587463379e-01,-6.667453765869140625e+01,-1.826887054443359375e+02,-2.343178272247314453e+00,7.562299346923828125e+01,3.135675048828125000e+01
8.757700026035308838e-02,1.000000000000000000e+00,7.885906219482421875e+00,-1.014585304260253906e+01,2.697704553604125977e+00,-2.074663085937500000e+02,-1.020121078491210938e+02,-1.805527801513671875e+02,4.033146500587463379e-01,-6.667444610595703125e+01,-1.826887054443359375e+02,-2.343106746673583984e+00,7.562291717529296875e+01,3.135697174072265625e+01
9.163299947977066040e-02,1.000000000000000000e+00,7.878585815429687500e+00,-1.013879299163818359e+01,2.698212623596191406e+00,-2.074643096923828125e+02,-1.020088500976562500e+02,-1.805508728027343750e+02,4.033146500587463379e-01,-6.667453765869140625e+01,-1.826887054443359375e+02,-2.343106746673583984e+00,7.562277984619140625e+01,3.135697174072265625e+01
9.558700025081634521e-02,1.000000000000000000e+00,7.869687080383300781e+00,-1.012946987152099609e+01,2.698924303054809570e+00,-2.074609832763671875e+02,-1.020038986206054688e+02,-1.805469360351562500e+02,4.033146500587463379e-01,-6.667444610595703125e+01,-1.826887054443359375e+02,-2.343106746673583984e+00,7.562291717529296875e+01,3.135697174072265625e+01
9.966599941253662109e-02,1.000000000000000000e+00,7.858519554138183594e+00,-1.011742973327636719e+01,2.699879884719848633e+00,-2.074567260742187500e+02,-1.019969100952148438e+02,-1.805415191650390625e+02,4.033146500587463379e-01,-6.667435455322265625e+01,-1.826887054443359375e+02,-2.343178272247314453e+00,7.562291717529296875e+01,3.135697174072265625e+01
1.036690026521682739e-01,1.000000000000000000e+00,7.844854831695556641e+00,-1.010301399230957031e+01,2.701079368591308594e+00,-2.074510345458984375e+02,-1.019875259399414062e+02,-1.805344696044921875e+02,4.033146500587463379e-01,-6.667453765869140625e+01,-1.826887054443359375e+02,-2.343106746673583984e+00,7.562291717529296875e+01,3.135697174072265625e+01
1.076859980821609497e-01,1.000000000000000000e+00,7.828779220581054688e+00,-1.008597373962402344e+01,2.702726364135742188e+00,-2.074430847167968750e+02,-1.019750442504882812e+02,-1.805247650146484375e+02,4.033146500587463379e-01,-6.667435455322265625e+01,-1.826887054443359375e+02,-2.343034982681274414e+00,7.562291717529296875e+01,3.135697174072265625e+01
1.119330003857612610e-01,1.000000000000000000e+00,7.810120105743408203e+00,-1.006689739227294922e+01,2.704922199249267578e+00,-2.074329681396484375e+02,-1.019594268798828125e+02,-1.805125579833984375e+02,4.033146500587463379e-01,-6.667444610595703125e+01,-1.826887054443359375e+02,-2.343106746673583984e+00,7.562291717529296875e+01,3.135697174072265625e+01
1.155859977006912231e-01,1.000000000000000000e+00,7.789134979248046875e+00,-1.004614543914794922e+01,2.707666873931884766e+00,-2.074200592041015625e+02,-1.019398651123046875e+02,-1.804971008300781250e+02,4.033146500587463379e-01,-6.667444610595703125e+01,-1.826885528564453125e+02,-2.343106746673583984e+00,7.562291717529296875e+01,3.135697174072265625e+01
1.199809983372688293e-01,1.000000000000000000e+00,7.740132808685302734e+00,-1.000142860412597656e+01,2.713990211486816406e+00,-2.073848724365234375e+02,-1.018907012939453125e+02,-1.804560089111328125e+02,4.033146500587463379e-01,-6.667444610595703125e+01,-1.826887054443359375e+02,-2.343034982681274414e+00,7.562291717529296875e+01,3.135697174072265625e+01
1.235850006341934204e-01,1.000000000000000000e+00,7.740132808685302734e+00,-1.000142860412597656e+01,2.713990211486816406e+00,-2.073848724365234375e+02,-1.018907012939453125e+02,-1.804560089111328125e+02,4.033146500587463379e-01,-6.667444610595703125e+01,-1.826887054443359375e+02,-2.343034982681274414e+00,7.562291717529296875e+01,3.135697174072265625e+01
1.277659982442855835e-01,1.000000000000000000e+00,7.711913585662841797e+00,-9.976739883422851562e+00,2.717690706253051758e+00,-2.073623352050781250e+02,-1.018595657348632812e+02,-1.804306335449218750e+02,4.033146500587463379e-01,-6.667444610595703125e+01,-1.826887054443359375e+02,-2.343106746673583984e+00,7.562291717529296875e+01,3.135697174072265625e+01
1.323350071907043457e-01,1.000000000000000000e+00,7.681283950805664062e+00,-9.950285911560058594e+00,2.721756935119628906e+00,-2.073372497558593750e+02,-1.018225173950195312e+02,-1.804011383056640625e+02,4.033146500587463379e-01,-6.667444610595703125e+01,-1.826887054443359375e+02,-2.343106746673583984e+00,7.562299346923828125e+01,3.135697174072265625e+01
1.355759948492050171e-01,1.000000000000000000e+00,7.648098468780517578e+00,-9.921930313110351562e+00,2.726412773132324219e+00,-2.073103485107421875e+02,-1.017793273925781250e+02,-1.803678436279296875e+02,4.033146500587463379e-01,-6.667453765869140625e+01,-1.826887054443359375e+02,-2.343106746673583984e+00,7.562277984619140625e+01,3.135697174072265625e+01
1.395740061998367310e-01,1.000000000000000000e+00,7.612329483032226562e+00,-9.892059326171875000e+00,2.731638193130493164e+00,-2.072799987792968750e+02,-1.017327804565429688e+02,-1.803301391601562500e+02,4.033146500587463379e-01,-6.667453765869140625e+01,-1.826887054443359375e+02,-2.343034982681274414e+00,7.562291717529296875e+01,3.135697174072265625e+01
1.436530053615570068e-01,1.000000000000000000e+00,7.574092388153076172e+00,-9.860761642456054688e+00,2.737371683120727539e+00,-2.072449798583984375e+02,-1.016838912963867188e+02,-1.802878875732421875e+02,4.033146500587463379e-01,-6.667453765869140625e+01,-1.826887054443359375e+02,-2.343106746673583984e+00,7.562291717529296875e+01,3.135697174072265625e+01
1.475770026445388794e-01,1.000000000000000000e+00,7.533443450927734375e+00,-9.827517509460449219e+00,2.743491649627685547e+00,-2.072054748535156250e+02,-1.016282272338867188e+02,-1.802421112060546875e+02,4.033146500587463379e-01,-6.667453765869140625e+01,-1.826887054443359375e+02,-2.343106746673583984e+00,7.562299346923828125e+01,3.135697174072265625e+01
1.519580036401748657e-01,1.000000000000000000e+00,7.491101264953613281e+00,-9.792691230773925781e+00,2.749936819076538086e+00,-2.071647491455078125e+02,-1.015681915283203125e+02,-1.801950531005859375e+02,4.033146500587463379e-01,-6.667444610595703125e+01,-1.826887054443359375e+02,-2.343106746673583984e+00,7.562291717529296875e+01,3.135697174072265625e+01
1.552879959344863892e-01,1.000000000000000000e+00,7.446691513061523438e+00,-9.756120681762695312e+00,2.756747961044311523e+00,-2.071237182617187500e+02,-1.015065612792968750e+02,-1.801460723876953125e+02,4.033146500587463379e-01,-6.667444610595703125e+01,-1.826887054443359375e+02,-2.343106746673583984e+00,7.562291717529296875e+01,3.135697174072265625e+01
1.596390008926391602e-01,1.000000000000000000e+00,7.400702953338623047e+00,-9.717830657958984375e+00,2.763925075531005859e+00,-2.070793762207031250e+02,-1.014408264160156250e+02,-1.800922241210937500e+02,4.033146500587463379e-01,-6.667444610595703125e+01,-1.826887054443359375e+02,-2.343106746673583984e+00,7.562291717529296875e+01,3.135697174072265625e+01
1.636079996824264526e-01,1.000000000000000000e+00,7.352016448974609375e+00,-9.676939010620117188e+00,2.771773099899291992e+00,-2.070320129394531250e+02,-1.013728942871093750e+02,-1.800358123779296875e+02,4.033146500587463379e-01,-6.667444610595703125e+01,-1.826887054443359375e+02,-2.343106746673583984e+00,7.562291717529296875e+01,3.135697174072265625e+01
1.675760000944137573e-01,1.000000000000000000e+00,7.301206111907958984e+00,-9.633330345153808594e+00,2.780068397521972656e+00,-2.069843902587890625e+02,-1.013019866943359375e+02,-1.799797973632812500e+02,4.033146500587463379e-01,-6.667435455322265625e+01,-1.826885528564453125e+02,-2.343106746673583984e+00,7.562291717529296875e+01,3.135697174072265625e+01
1.716459989547729492e-01,1.000000000000000000e+00,7.248327255249023438e+00,-9.587437629699707031e+00,2.788648605346679688e+00,-2.069364166259765625e+02,-1.012308120727539062e+02,-1.799228973388671875e+02,4.033146500587463379e-01,-6.667444610595703125e+01,-1.826887054443359375e+02,-2.343106746673583984e+00,7.562291717529296875e+01,3.135675048828125000e+01
1.761759966611862183e-01,1.000000000000000000e+00,7.193899154663085938e+00,-9.539665222167968750e+00,2.797309875488281250e+00,-2.068867950439453125e+02,-1.011581420898437500e+02,-1.798627471923828125e+02,4.033146500587463379e-01,-6.667435455322265625e+01,-1.826887054443359375e+02,-2.343106746673583984e+00,7.562277984619140625e+01,3.135697174072265625e+01
1.795810014009475708e-01,1.000000000000000000e+00,7.138236999511718750e+00,-9.490558624267578125e+00,2.805890083312988281e+00,-2.068369598388671875e+02,-1.010839767456054688e+02,-1.798034057617187500e+02,4.033146500587463379e-01,-6.667444610595703125e+01,-1.826887054443359375e+02,-2.343178272247314453e+00,7.562291717529296875e+01,3.135697174072265625e+01
1.837739944458007812e-01,1.000000000000000000e+00,7.081139087677001953e+00,-9.440275192260742188e+00,2.814470052719116211e+00,-2.067859191894531250e+02,-1.010084762573242188e+02,-1.797442016601562500e+02,4.033146500587463379e-01,-6.667444610595703125e+01,-1.826887054443359375e+02,-2.343034982681274414e+00,7.562291717529296875e+01,3.135697174072265625e+01
1.876499950885772705e-01,1.000000000000000000e+00,7.023036479949951172e+00,-9.388792037963867188e+00,2.823232889175415039e+00,-2.067352600097656250e+02,-1.009331970214843750e+02,-1.796832885742187500e+02,4.033146500587463379e-01,-6.667444610595703125e+01,-1.826887054443359375e+02,-2.343034982681274414e+00,7.562299346923828125e+01,3.135697174072265625e+01
1.916259974241256714e-01,1.000000000000000000e+00,6.964101314544677734e+00,-9.336743354797363281e+00,2.832300901412963867e+00,-2.066848907470703125e+02,-1.008578567504882812e+02,-1.796222534179687500e+02,4.033146500587463379e-01,-6.667444610595703125e+01,-1.826887054443359375e+02,-2.343034982681274414e+00,7.562299346923828125e+01,3.135697174072265625e+01
1.956650018692016602e-01,1.000000000000000000e+00,6.904247760772705078e+00,-9.284014701843261719e+00,2.841429948806762695e+00,-2.066340637207031250e+02,-1.007818908691406250e+02,-1.795619049072265625e+02,4.033146500587463379e-01,-6.667444610595703125e+01,-1.826887054443359375e+02,-2.343034982681274414e+00,7.562291717529296875e+01,3.135697174072265625e+01
2.004089951515197754e-01,1.000000000000000000e+00,6.843791007995605469e+00,-9.230721473693847656e+00,2.850558996200561523e+00,-2.065827026367187500e+02,-1.007054824829101562e+02,-1.795003967285156250e+02,4.033146500587463379e-01,-6.667453765869140625e+01,-1.826887054443359375e+02,-2.343106746673583984e+00,7.562277984619140625e+01,3.135697174072265625e+01
2.038310021162033081e-01,1.000000000000000000e+00,6.782846450805664062e+00,-9.177202224731445312e+00,2.859647274017333984e+00,-2.065321960449218750e+02,-1.006292953491210938e+02,-1.794390869140625000e+02,4.033146500587463379e-01,-6.667444610595703125e+01,-1.826887054443359375e+02,-2.343106746673583984e+00,7.562291717529296875e+01,3.135697174072265625e+01
2.076530009508132935e-01,1.000000000000000000e+00,6.721557617187500000e+00,-9.123251914978027344e+00,2.868715047836303711e+00,-2.064807281494140625e+02,-1.005531616210937500e+02,-1.793792724609375000e+02,4.033146500587463379e-01,-6.667444610595703125e+01,-1.826887054443359375e+02,-2.343106746673583984e+00,7.562291717529296875e+01,3.135697174072265625e+01
2.118480056524276733e-01,1.000000000000000000e+00,6.660038948059082031e+00,-9.068985939025878906e+00,2.877945899963378906e+00,-2.064297332763671875e+02,-1.004768066406250000e+02,-1.793169403076171875e+02,4.033146500587463379e-01,-6.667444610595703125e+01,-1.826887054443359375e+02,-2.343106746673583984e+00,7.562291717529296875e+01,3.135697174072265625e+01
2.158109992742538452e-01,1.000000000000000000e+00,6.598347663879394531e+00,-9.014764785766601562e+00,2.887501716613769531e+00,-2.063791198730468750e+02,-1.004003601074218750e+02,-1.792557830810546875e+02,4.033146500587463379e-01,-6.667444610595703125e+01,-1.826887054443359375e+02,-2.343106746673583984e+00,7.562291717529296875e+01,3.135697174072265625e+01
2.196920067071914673e-01,1.000000000000000000e+00,6.536943912506103516e+00,-8.960656166076660156e+00,2.896915435791015625e+00,-2.063277130126953125e+02,-1.003243789672851562e+02,-1.791952819824218750e+02,4.033146500587463379e-01,-6.667444610595703125e+01,-1.826887054443359375e+02,-2.343106746673583984e+00,7.562299346923828125e+01,3.135697174072265625e+01
2.246920019388198853e-01,1.000000000000000000e+00,6.475712299346923828e+00,-8.906706809997558594e+00,2.906328916549682617e+00,-2.062763977050781250e+02,-1.002482452392578125e+02,-1.791334381103515625e+02,4.033146500587463379e-01,-6.667444610595703125e+01,-1.826887054443359375e+02,-2.343106746673583984e+00,7.562277984619140625e+01,3.135697174072265625e+01
2.279960066080093384e-01,1.000000000000000000e+00,6.414078712463378906e+00,-8.852711677551269531e+00,2.915701866149902344e+00,-2.062253112792968750e+02,-1.001712570190429688e+02,-1.790725402832031250e+02,4.033146500587463379e-01,-6.667444610595703125e+01,-1.826887054443359375e+02,-2.343106746673583984e+00,7.562291717529296875e+01,3.135697174072265625e+01
2.319490015506744385e-01,1.000000000000000000e+00,6.352876186370849609e+00,-8.798648834228515625e+00,2.924830913543701172e+00,-2.061738586425781250e+02,-1.000951156616210938e+02,-1.790122528076171875e+02,4.033146500587463379e-01,-6.667444610595703125e+01,-1.826887054443359375e+02,-2.343178272247314453e+00,7.562291717529296875e+01,3.135697174072265625e+01
2.359630018472671509e-01,1.000000000000000000e+00,6.291471958160400391e+00,-8.744608879089355469e+00,2.933898925781250000e+00,-2.061229705810546875e+02,-1.000193023681640625e+02,-1.789510192871093750e+02,4.033146500587463379e-01,-6.667444610595703125e+01,-1.826887054443359375e+02,-2.343106746673583984e+00,7.562291717529296875e+01,3.135697174072265625e+01
2.385140061378479004e-01,1.000000000000000000e+00,6.229924678802490234e+00,-8.690727233886718750e+00,2.943271875381469727e+00,-2.060718231201171875e+02,-9.994316864013671875e+01,-1.788899078369140625e+02,4.033146500587463379e-01,-6.667444610595703125e+01,-1.826887054443359375e+02,-2.343178272247314453e+00,7.562291717529296875e+01,3.135697174072265625e+01
2.439049929380416870e-01,1.000000000000000000e+00,6.168721675872802734e+00,-8.637048721313476562e+00,2.952502489089965820e+00,-2.060202941894531250e+02,-9.986639404296875000e+01,-1.788296203613281250e+02,4.033146500587463379e-01,-6.667444610595703125e+01,-1.826887054443359375e+02,-2.343106746673583984e+00,7.562291717529296875e+01,3.135719108581542969e+01
2.487750053405761719e-01,1.000000000000000000e+00,6.107461452484130859e+00,-8.583483695983886719e+00,2.961834669113159180e+00,-2.059696350097656250e+02,-9.978988647460937500e+01,-1.787681884765625000e+02,4.033146500587463379e-01,-6.667444610595703125e+01,-1.826885528564453125e+02,-2.343106746673583984e+00,7.562291717529296875e+01,3.135697174072265625e+01
2.521260082721710205e-01,1.000000000000000000e+00,6.046373367309570312e+00,-8.529623985290527344e+00,2.971085786819458008e+00,-2.059182281494140625e+02,-9.971401214599609375e+01,-1.787069396972656250e+02,4.033146500587463379e-01,-6.667444610595703125e+01,-1.826887054443359375e+02,-2.343034982681274414e+00,7.562291717529296875e+01,3.135697174072265625e+01
2.546150088310241699e-01,1.000000000000000000e+00,5.985428333282470703e+00,-8.475811004638671875e+00,2.980092763900756836e+00,-2.058671722412109375e+02,-9.963777923583984375e+01,-1.786471862792968750e+02,4.033146500587463379e-01,-6.667453765869140625e+01,-1.826885528564453125e+02,-2.343034982681274414e+00,7.562291717529296875e+01,3.135719108581542969e+01
2.601340115070343018e-01,1.000000000000000000e+00,5.924139499664306641e+00,-8.422019004821777344e+00,2.989303112030029297e+00,-2.058166656494140625e+02,-9.956072998046875000e+01,-1.785860137939453125e+02,4.033146500587463379e-01,-6.667444610595703125e+01,-1.826887054443359375e+02,-2.343106746673583984e+00,7.562291717529296875e+01,3.135697174072265625e+01
2.641830146312713623e-01,1.000000000000000000e+00,5.862793445587158203e+00,-8.368453979492187500e+00,2.998655557632446289e+00,-2.057650909423828125e+02,-9.948416900634765625e+01,-1.785251922607421875e+02,4.033146500587463379e-01,-6.667435455322265625e+01,-1.826887054443359375e+02,-2.343106746673583984e+00,7.562291717529296875e+01,3.135697174072265625e+01
2.680569887161254883e-01,1.000000000000000000e+00,5.801532745361328125e+00,-8.314867019653320312e+00,3.008089542388916016e+00,-2.057140502929687500e+02,-9.940878295898437500e+01,-1.784648284912109375e+02,4.033146500587463379e-01,-6.667444610595703125e+01,-1.826887054443359375e+02,-2.343106746673583984e+00,7.562277984619140625e+01,3.135675048828125000e+01
2.705189883708953857e-01,1.000000000000000000e+00,5.740358829498291016e+00,-8.261323928833007812e+00,3.017299890518188477e+00,-2.056635894775390625e+02,-9.933243560791015625e+01,-1.784036560058593750e+02,4.033146500587463379e-01,-6.667444610595703125e+01,-1.826887054443359375e+02,-2.343106746673583984e+00,7.562299346923828125e+01,3.135719108581542969e+01
2.763200104236602783e-01,1.000000000000000000e+00,5.679356575012207031e+00,-8.207984924316406250e+00,3.026449441909790039e+00,-2.056118621826171875e+02,-9.925555419921875000e+01,-1.783425598144531250e+02,4.033146500587463379e-01,-6.667444610595703125e+01,-1.826887054443359375e+02,-2.343178272247314453e+00,7.562291717529296875e+01,3.135697174072265625e+01
2.803730070590972900e-01,1.000000000000000000e+00,5.618210792541503906e+00,-8.154306411743164062e+00,3.035395145416259766e+00,-2.055609741210937500e+02,-9.917952728271484375e+01,-1.782826080322265625e+02,4.033146500587463379e-01,-6.667435455322265625e+01,-1.826887054443359375e+02,-2.343178272247314453e+00,7.562291717529296875e+01,3.135697174072265625e+01
2.846400141716003418e-01,1.000000000000000000e+00,5.557123184204101562e+00,-8.100787162780761719e+00,3.044422626495361328e+00,-2.055104217529296875e+02,-9.910365295410156250e+01,-1.782213745117187500e+02,4.033146500587463379e-01,-6.667444610595703125e+01,-1.826887054443359375e+02,-2.343106746673583984e+00,7.562299346923828125e+01,3.135697174072265625e+01
2.883009910583496094e-01,1.000000000000000000e+00,5.495833873748779297e+00,-8.047267913818359375e+00,3.053612709045410156e+00,-2.054587402343750000e+02,-9.902757263183593750e+01,-1.781597290039062500e+02,4.033146500587463379e-01,-6.667444610595703125e+01,-1.826887054443359375e+02,-2.343106746673583984e+00,7.562291717529296875e+01,3.135697174072265625e+01
2.922070026397705078e-01,1.000000000000000000e+00,5.434487342834472656e+00,-7.993815422058105469e+00,3.062843084335327148e+00,-2.054077148437500000e+02,-9.895106506347656250e+01,-1.780998992919921875e+02,4.033146500587463379e-01,-6.667435455322265625e+01,-1.826887054443359375e+02,-2.343106746673583984e+00,7.562277984619140625e+01,3.135697174072265625e+01
2.971810102462768555e-01,1.000000000000000000e+00,5.373025894165039062e+00,-7.940409183502197266e+00,3.072012901306152344e+00,-2.053568267822265625e+02,-9.887477111816406250e+01,-1.780386810302734375e+02,4.033146500587463379e-01,-6.667444610595703125e+01,-1.826887054443359375e+02,-2.343106746673583984e+00,7.562299346923828125e+01,3.135697174072265625e+01
3.012360036373138428e-01,1.000000000000000000e+00,5.311737060546875000e+00,-7.886866569519042969e+00,3.081284046173095703e+00,-2.053049468994140625e+02,-9.879901123046875000e+01,-1.779769592285156250e+02,4.033146500587463379e-01,-6.667435455322265625e+01,-1.826887054443359375e+02,-2.343034982681274414e+00,7.562277984619140625e+01,3.135719108581542969e+01
3.044829964637756348e-01,1.000000000000000000e+00,5.250505447387695312e+00,-7.833392143249511719e+00,3.090352296829223633e+00,-2.052541503906250000e+02,-9.872276306152343750e+01,-1.779167938232421875e+02,4.033146500587463379e-01,-6.667444610595703125e+01,-1.826887054443359375e+02,-2.343034982681274414e+00,7.562277984619140625e+01,3.135697174072265625e+01
3.085879981517791748e-01,1.000000000000000000e+00,5.189187526702880859e+00,-7.779577732086181641e+00,3.099582672119140625e+00,-2.052033233642578125e+02,-9.864625549316406250e+01,-1.778563842773437500e+02,4.033146500587463379e-01,-6.667444610595703125e+01,-1.826887054443359375e+02,-2.343034982681274414e+00,7.562291717529296875e+01,3.135697174072265625e+01
3.125169873237609863e-01,1.000000000000000000e+00,5.127755165100097656e+00,-7.725674152374267578e+00,3.108935356140136719e+00,-2.051520690917968750e+02,-9.857028198242187500e+01,-1.777954864501953125e+02,4.033146500587463379e-01,-6.667444610595703125e+01,-1.826887054443359375e+02,-2.343106746673583984e+00,7.562291717529296875e+01,3.135697174072265625e+01
3.164919912815093994e-01,1.000000000000000000e+00,5.066293716430664062e+00,-7.671836853027343750e+00,3.118348836898803711e+00,-2.051011962890625000e+02,-9.849488830566406250e+01,-1.777350006103515625e+02,4.033146500587463379e-01,-6.667453765869140625e+01,-1.826887054443359375e+02,-2.343106746673583984e+00,7.562291717529296875e+01,3.135697174072265625e+01
3.214690089225769043e-01,1.000000000000000000e+00,5.004746437072753906e+00,-7.617955207824707031e+00,3.127823591232299805e+00,-2.050498352050781250e+02,-9.841822052001953125e+01,-1.776742858886718750e+02,4.033146500587463379e-01,-6.667444610595703125e+01,-1.826887054443359375e+02,-2.343034982681274414e+00,7.562291717529296875e+01,3.135697174072265625e+01
3.256190121173858643e-01,1.000000000000000000e+00,4.943083763122558594e+00,-7.564028263092041016e+00,3.137155771255493164e+00,-2.049989471435546875e+02,-9.834224700927734375e+01,-1.776127929687500000e+02,4.033146500587463379e-01,-6.667444610595703125e+01,-1.826887054443359375e+02,-2.343106746673583984e+00,7.562299346923828125e+01,3.135697174072265625e+01
3.288089931011199951e-01,1.000000000000000000e+00,4.881479263305664062e+00,-7.510282516479492188e+00,3.146244287490844727e+00,-2.049488067626953125e+02,-9.826631927490234375e+01,-1.775530395507812500e+02,4.033146500587463379e-01,-6.667444610595703125e+01,-1.826887054443359375e+02,-2.343106746673583984e+00,7.562291717529296875e+01,3.135675048828125000e+01
3.327749967575073242e-01,1.000000000000000000e+00,4.820046424865722656e+00,-7.456219673156738281e+00,3.155474901199340820e+00,-2.048975524902343750e+02,-9.819067382812500000e+01,-1.774924163818359375e+02,4.033146500587463379e-01,-6.667453765869140625e+01,-1.826887054443359375e+02,-2.343034982681274414e+00,7.562291717529296875e+01,3.135697174072265625e+01
3.365679979324340820e-01,1.000000000000000000e+00,4.758499145507812500e+00,-7.402291774749755859e+00,3.164847850799560547e+00,-2.048464050292968750e+02,-9.811442565917968750e+01,-1.774311676025390625e+02,4.033146500587463379e-01,-6.667444610595703125e+01,-1.826887054443359375e+02,-2.343034982681274414e+00,7.562299346923828125e+01,3.135697174072265625e+01
3.406549990177154541e-01,1.000000000000000000e+00,4.696664810180664062e+00,-7.348252296447753906e+00,3.174200534820556641e+00,-2.047959442138671875e+02,-9.803881835937500000e+01,-1.773711547851562500e+02,4.033146500587463379e-01,-6.667444610595703125e+01,-1.826887054443359375e+02,-2.343106746673583984e+00,7.562299346923828125e+01,3.135697174072265625e+01
3.457579910755157471e-01,1.000000000000000000e+00,4.635519027709960938e+00,-7.294347763061523438e+00,3.183471918106079102e+00,-2.047445373535156250e+02,-9.796263885498046875e+01,-1.773106536865234375e+02,4.033146500587463379e-01,-6.667444610595703125e+01,-1.826887054443359375e+02,-2.343034982681274414e+00,7.562291717529296875e+01,3.135697174072265625e+01
3.496150076389312744e-01,1.000000000000000000e+00,4.574287891387939453e+00,-7.240578651428222656e+00,3.192722558975219727e+00,-2.046937103271484375e+02,-9.788687133789062500e+01,-1.772492218017578125e+02,4.033146500587463379e-01,-6.667444610595703125e+01,-1.826887054443359375e+02,-2.343178272247314453e+00,7.562299346923828125e+01,3.135697174072265625e+01
3.526169955730438232e-01,1.000000000000000000e+00,4.512653827667236328e+00,-7.186787605285644531e+00,3.201892375946044922e+00,-2.046431884765625000e+02,-9.781031036376953125e+01,-1.771889190673828125e+02,4.033146500587463379e-01,-6.667435455322265625e+01,-1.826887054443359375e+02,-2.343106746673583984e+00,7.562291717529296875e+01,3.135697174072265625e+01
3.555350005626678467e-01,1.000000000000000000e+00,4.451394081115722656e+00,-7.133064270019531250e+00,3.211163759231567383e+00,-2.045916290283203125e+02,-9.773464965820312500e+01,-1.771282958984375000e+02,4.033146500587463379e-01,-6.667444610595703125e+01,-1.826887054443359375e+02,-2.343178272247314453e+00,7.562291717529296875e+01,3.135697174072265625e+01
3.595130145549774170e-01,1.000000000000000000e+00,4.390076160430908203e+00,-7.079023838043212891e+00,3.220658540725708008e+00,-2.045408020019531250e+02,-9.765927124023437500e+01,-1.770662536621093750e+02,4.033146500587463379e-01,-6.667444610595703125e+01,-1.826887054443359375e+02,-2.343178272247314453e+00,7.562277984619140625e+01,3.135697174072265625e+01
3.635790050029754639e-01,1.000000000000000000e+00,4.328901767730712891e+00,-7.025142192840576172e+00,3.230092525482177734e+00,-2.044896545410156250e+02,-9.758312988281250000e+01,-1.770065612792968750e+02,4.033146500587463379e-01,-6.667444610595703125e+01,-1.826887054443359375e+02,-2.343034982681274414e+00,7.562291717529296875e+01,3.135697174072265625e+01
3.675189912319183350e-01,1.000000000000000000e+00,4.267985820770263672e+00,-6.971260070800781250e+00,3.239384174346923828e+00,-2.044384460449218750e+02,-9.750667572021484375e+01,-1.769457397460937500e+02,4.033146500587463379e-01,-6.667444610595703125e+01,-1.826887054443359375e+02,-2.343034982681274414e+00,7.562291717529296875e+01,3.135697174072265625e+01
3.715179860591888428e-01,1.000000000000000000e+00,4.206840515136718750e+00,-6.917446136474609375e+00,3.248655557632446289e+00,-2.043878326416015625e+02,-9.743128204345703125e+01,-1.768842926025390625e+02,4.033146500587463379e-01,-6.667444610595703125e+01,-1.826887054443359375e+02,-2.343106746673583984e+00,7.562291717529296875e+01,3.135697174072265625e+01
3.755330145359039307e-01,1.000000000000000000e+00,4.145895957946777344e+00,-6.863699913024902344e+00,3.257743835449218750e+00,-2.043366241455078125e+02,-9.735562896728515625e+01,-1.768237304687500000e+02,4.033146500587463379e-01,-6.667444610595703125e+01,-1.826887054443359375e+02,-2.343178272247314453e+00,7.562291717529296875e+01,3.135697174072265625e+01
3.796969950199127197e-01,1.000000000000000000e+00,4.084778785705566406e+00,-6.809885978698730469e+00,3.266954183578491211e+00,-2.042854309082031250e+02,-9.727976226806640625e+01,-1.767635803222656250e+02,4.033146500587463379e-01,-6.667444610595703125e+01,-1.826887054443359375e+02,-2.343178272247314453e+00,7.562299346923828125e+01,3.135697174072265625e+01
3.835609853267669678e-01,1.000000000000000000e+00,4.023547649383544922e+00,-6.756320953369140625e+00,3.276286363601684570e+00,-2.042350158691406250e+02,-9.720336151123046875e+01,-1.767021942138671875e+02,4.033146500587463379e-01,-6.667444610595703125e+01,-1.826887054443359375e+02,-2.343106746673583984e+00,7.562299346923828125e+01,3.135697174072265625e+01
3.876039981842041016e-01,1.000000000000000000e+00,3.962516784667968750e+00,-6.702665328979492188e+00,3.285557746887207031e+00,-2.041834564208984375e+02,-9.712738037109375000e+01,-1.766417846679687500e+02,4.033146500587463379e-01,-6.667444610595703125e+01,-1.826887054443359375e+02,-2.343106746673583984e+00,7.562291717529296875e+01,3.135697174072265625e+01
3.915759921073913574e-01,1.000000000000000000e+00,3.901371240615844727e+00,-6.648987293243408203e+00,3.294808864593505859e+00,-2.041328277587890625e+02,-9.705194091796875000e+01,-1.765812988281250000e+02,4.033146500587463379e-01,-6.667444610595703125e+01,-1.826887054443359375e+02,-2.343106746673583984e+00,7.562291717529296875e+01,3.135697174072265625e+01
3.955349922180175781e-01,1.000000000000000000e+00,3.840168476104736328e+00,-6.595490455627441406e+00,3.303978443145751953e+00,-2.040825347900390625e+02,-9.697559356689453125e+01,-1.765201263427734375e+02,4.033146500587463379e-01,-6.667444610595703125e+01,-1.826887054443359375e+02,-2.343034982681274414e+00,7.562291717529296875e+01,3.135697174072265625e+01
3.995119929313659668e-01,1.000000000000000000e+00,3.779108762741088867e+00,-6.541925430297851562e+00,3.312985420227050781e+00,-2.040313873291015625e+02,-9.689961242675781250e+01,-1.764595489501953125e+02,4.033146500587463379e-01,-6.667444610595703125e+01,-1.826887054443359375e+02,-2.343178272247314453e+00,7.562291717529296875e+01,3.135697174072265625e+01
4.035489857196807861e-01,1.000000000000000000e+00,3.717992067337036133e+00,-6.488359928131103516e+00,3.322236299514770508e+00,-2.039807586669921875e+02,-9.682358551025390625e+01,-1.763997497558593750e+02,4.033146500587463379e-01,-6.667444610595703125e+01,-1.826887054443359375e+02,-2.343106746673583984e+00,7.562291717529296875e+01,3.135697174072265625e+01
4.075750112533569336e-01,1.000000000000000000e+00,3.656961441040039062e+00,-6.434908390045166016e+00,3.331690549850463867e+00,-2.039304046630859375e+02,-9.674766540527343750e+01,-1.763384399414062500e+02,4.033146500587463379e-01,-6.667444610595703125e+01,-1.826887054443359375e+02,-2.343106746673583984e+00,7.562291717529296875e+01,3.135697174072265625e+01
4.115470051765441895e-01,1.000000000000000000e+00,3.595700979232788086e+00,-6.381546974182128906e+00,3.341165304183959961e+00,-2.038788452148437500e+02,-9.667115783691406250e+01,-1.762778167724609375e+02,4.033146500587463379e-01,-6.667444610595703125e+01,-1.826887054443359375e+02,-2.343106746673583984e+00,7.562291717529296875e+01,3.135697174072265625e+01
4.155449867248535156e-01,1.000000000000000000e+00,3.534641742706298828e+00,-6.327778339385986328e+00,3.350497484207153320e+00,-2.038281250000000000e+02,-9.659534454345703125e+01,-1.762175903320312500e+02,4.033146500587463379e-01,-6.667453765869140625e+01,-1.826887054443359375e+02,-2.343106746673583984e+00,7.562299346923828125e+01,3.135697174072265625e+01
4.196090102195739746e-01,1.000000000000000000e+00,3.473323822021484375e+00,-6.274145126342773438e+00,3.359728097915649414e+00,-2.037776641845703125e+02,-9.651963043212890625e+01,-1.761563415527343750e+02,4.033146500587463379e-01,-6.667444610595703125e+01,-1.826887054443359375e+02,-2.343106746673583984e+00,7.562291717529296875e+01,3.135697174072265625e+01
4.235169887542724609e-01,1.000000000000000000e+00,3.412322044372558594e+00,-6.220421791076660156e+00,3.368714809417724609e+00,-2.037261810302734375e+02,-9.644397735595703125e+01,-1.760958557128906250e+02,4.033146500587463379e-01,-6.667444610595703125e+01,-1.826887054443359375e+02,-2.343106746673583984e+00,7.562299346923828125e+01,3.135697174072265625e+01
4.275310039520263672e-01,1.000000000000000000e+00,3.351119041442871094e+00,-6.166539669036865234e+00,3.377823352813720703e+00,-2.036756286621093750e+02,-9.636752319335937500e+01,-1.760359039306640625e+02,4.033146500587463379e-01,-6.667444610595703125e+01,-1.826887054443359375e+02,-2.343034982681274414e+00,7.562299346923828125e+01,3.135697174072265625e+01
4.316360056400299072e-01,1.000000000000000000e+00,3.289973497390747070e+00,-6.112658023834228516e+00,3.387033700942993164e+00,-2.036245727539062500e+02,-9.629165649414062500e+01,-1.759738616943359375e+02,4.033146500587463379e-01,-6.667444610595703125e+01,-1.826887054443359375e+02,-2.343178272247314453e+00,7.562299346923828125e+01,3.135697174072265625e+01
4.355359971523284912e-01,1.000000000000000000e+00,3.228540897369384766e+00,-6.058935165405273438e+00,3.396345853805541992e+00,-2.035729064941406250e+02,-9.621610260009765625e+01,-1.759130859375000000e+02,4.033146500587463379e-01,-6.667444610595703125e+01,-1.826887054443359375e+02,-2.343106746673583984e+00,7.562291717529296875e+01,3.135697174072265625e+01
4.395079910755157471e-01,1.000000000000000000e+00,3.167079448699951172e+00,-6.005279064178466797e+00,3.405698537826538086e+00,-2.035227661132812500e+02,-9.614039611816406250e+01,-1.758530731201171875e+02,4.033146500587463379e-01,-6.667444610595703125e+01,-1.826887054443359375e+02,-2.343106746673583984e+00,7.562299346923828125e+01,3.135697174072265625e+01
4.435699880123138428e-01,1.000000000000000000e+00,3.105618238449096680e+00,-5.951555728912353516e+00,3.414989948272705078e+00,-2.034720306396484375e+02,-9.606350708007812500e+01,-1.757914886474609375e+02,4.033146500587463379e-01,-6.667444610595703125e+01,-1.826887054443359375e+02,-2.343106746673583984e+00,7.562291717529296875e+01,3.135697174072265625e+01
4.475550055503845215e-01,1.000000000000000000e+00,3.044099569320678711e+00,-5.897651672363281250e+00,3.423996925354003906e+00,-2.034208831787109375e+02,-9.598774719238281250e+01,-1.757309265136718750e+02,4.033146500587463379e-01,-6.667444610595703125e+01,-1.826887054443359375e+02,-2.343106746673583984e+00,7.562291717529296875e+01,3.135697174072265625e+01
4.515259861946105957e-01,1.000000000000000000e+00,2.982523441314697266e+00,-5.843769550323486328e+00,3.433187007904052734e+00,-2.033701171875000000e+02,-9.591263580322265625e+01,-1.756709136962890625e+02,4.033146500587463379e-01,-6.667453765869140625e+01,-1.826887054443359375e+02,-2.343106746673583984e+00,7.562277984619140625e+01,3.135697174072265625e+01
4.555679857730865479e-01,1.000000000000000000e+00,2.920976161956787109e+00,-5.790046215057373047e+00,3.442722558975219727e+00,-2.033189697265625000e+02,-9.583649444580078125e+01,-1.756096649169921875e+02,4.033146500587463379e-01,-6.667453765869140625e+01,-1.826887054443359375e+02,-2.343106746673583984e+00,7.562299346923828125e+01,3.135697174072265625e+01
4.595859944820404053e-01,1.000000000000000000e+00,2.859399795532226562e+00,-5.736209392547607422e+00,3.452258110046386719e+00,-2.032685089111328125e+02,-9.575982666015625000e+01,-1.755486297607421875e+02,4.033146500587463379e-01,-6.667444610595703125e+01,-1.826887054443359375e+02,-2.343106746673583984e+00,7.562291717529296875e+01,3.135697174072265625e+01
4.636119902133941650e-01,1.000000000000000000e+00,2.797766208648681641e+00,-5.682644367218017578e+00,3.461814165115356445e+00,-2.032182006835937500e+02,-9.568401336669921875e+01,-1.754886932373046875e+02,4.033146500587463379e-01,-6.667453765869140625e+01,-1.826887054443359375e+02,-2.343034982681274414e+00,7.562291717529296875e+01,3.135697174072265625e+01
4.675979912281036377e-01,1.000000000000000000e+00,2.736505985260009766e+00,-5.629056930541992188e+00,3.471207380294799805e+00,-2.031671600341796875e+02,-9.560867309570312500e+01,-1.754272460937500000e+02,4.033146500587463379e-01,-6.667444610595703125e+01,-1.826887054443359375e+02,-2.343106746673583984e+00,7.562291717529296875e+01,3.135697174072265625e+01
4.715409874916076660e-01,1.000000000000000000e+00,2.675303220748901367e+00,-5.575152397155761719e+00,3.480295658111572266e+00,-2.031163940429687500e+02,-9.553291320800781250e+01,-1.753664245605468750e+02,4.033146500587463379e-01,-6.667453765869140625e+01,-1.826887054443359375e+02,-2.343106746673583984e+00,7.562291717529296875e+01,3.135697174072265625e+01
4.755750000476837158e-01,1.000000000000000000e+00,2.613755702972412109e+00,-5.521293163299560547e+00,3.489506006240844727e+00,-2.030659790039062500e+02,-9.545645904541015625e+01,-1.753070831298828125e+02,4.033146500587463379e-01,-6.667444610595703125e+01,-1.826887054443359375e+02,-2.343106746673583984e+00,7.562291717529296875e+01,3.135697174072265625e+01
4.795379936695098877e-01,1.000000000000000000e+00,2.552524089813232422e+00,-5.467433929443359375e+00,3.498675584793090820e+00,-2.030148162841796875e+02,-9.538079833984375000e+01,-1.752461090087890625e+02,4.033146500587463379e-01,-6.667444610595703125e+01,-1.826887054443359375e+02,-2.343178272247314453e+00,7.562291717529296875e+01,3.135697174072265625e+01
4.845679998397827148e-01,1.000000000000000000e+00,2.491235017776489258e+00,-5.413778305053710938e+00,3.507946968078613281e+00,-2.029643249511718750e+02,-9.530530548095703125e+01,-1.751853485107421875e+02,4.033146500587463379e-01,-6.667444610595703125e+01,-1.826887054443359375e+02,-2.343106746673583984e+00,7.562291717529296875e+01,3.135697174072265625e+01
4.875440001487731934e-01,1.000000000000000000e+00,2.429945945739746094e+00,-5.360077857971191406e+00,3.517137050628662109e+00,-2.029135894775390625e+02,-9.522911071777343750e+01,-1.751251983642578125e+02,4.033146500587463379e-01,-6.667444610595703125e+01,-1.826887054443359375e+02,-2.343178272247314453e+00,7.562291717529296875e+01,3.135697174072265625e+01
4.925349950790405273e-01,1.000000000000000000e+00,2.368771791458129883e+00,-5.306331634521484375e+00,3.526225328445434570e+00,-2.028621826171875000e+02,-9.515309143066406250e+01,-1.750642242431640625e+02,4.033146500587463379e-01,-6.667444610595703125e+01,-1.826887054443359375e+02,-2.343178272247314453e+00,7.562291717529296875e+01,3.135697174072265625e+01
4.959169924259185791e-01,1.000000000000000000e+00,2.307769775390625000e+00,-5.252789020538330078e+00,3.535211801528930664e+00,-2.028111877441406250e+02,-9.507706451416015625e+01,-1.750032653808593750e+02,4.033146500587463379e-01,-6.667444610595703125e+01,-1.826887054443359375e+02,-2.343034982681274414e+00,7.562291717529296875e+01,3.135697174072265625e+01
4.995450079441070557e-01,1.000000000000000000e+00,2.246767759323120117e+00,-5.199110984802246094e+00,3.544442653656005859e+00,-2.027602996826171875e+02,-9.500193786621093750e+01,-1.749437103271484375e+02,4.033146500587463379e-01,-6.667453765869140625e+01,-1.826887054443359375e+02,-2.343106746673583984e+00,7.562291717529296875e+01,3.135675048828125000e+01
5.045589804649353027e-01,1.000000000000000000e+00,2.246767759323120117e+00,-5.199110984802246094e+00,3.544442653656005859e+00,-2.027602996826171875e+02,-9.500193786621093750e+01,-1.749437103271484375e+02,4.033146500587463379e-01,-6.667453765869140625e+01,-1.826887054443359375e+02,-2.343106746673583984e+00,7.562291717529296875e+01,3.135675048828125000e+01
5.075529813766479492e-01,1.000000000000000000e+00,2.124161005020141602e+00,-5.091935634613037109e+00,3.563249588012695312e+00,-2.026590576171875000e+02,-9.485009002685546875e+01,-1.748213043212890625e+02,4.033146500587463379e-01,-6.667444610595703125e+01,-1.826887054443359375e+02,-2.343106746673583984e+00,7.562291717529296875e+01,3.135697174072265625e+01
5.115690231323242188e-01,1.000000000000000000e+00,2.124161005020141602e+00,-5.091935634613037109e+00,3.563249588012695312e+00,-2.026590576171875000e+02,-9.485009002685546875e+01,-1.748213043212890625e+02,4.033146500587463379e-01,-6.667444610595703125e+01,-1.826887054443359375e+02,-2.343106746673583984e+00,7.562291717529296875e+01,3.135697174072265625e+01
5.165690183639526367e-01,1.000000000000000000e+00,2.062871932983398438e+00,-5.038551807403564453e+00,3.572602033615112305e+00,-2.026078033447265625e+02,-9.477406311035156250e+01,-1.747610931396484375e+02,4.033146500587463379e-01,-6.667444610595703125e+01,-1.826887054443359375e+02,-2.343178272247314453e+00,7.562291717529296875e+01,3.135697174072265625e+01
5.199980139732360840e-01,1.000000000000000000e+00,1.940638184547424316e+00,-4.931648254394531250e+00,3.590961694717407227e+00,-2.025064697265625000e+02,-9.462274932861328125e+01,-1.746391601562500000e+02,4.033146500587463379e-01,-6.667453765869140625e+01,-1.826887054443359375e+02,-2.343106746673583984e+00,7.562291717529296875e+01,3.135697174072265625e+01
5.235450267791748047e-01,1.000000000000000000e+00,1.879521489143371582e+00,-4.878263950347900391e+00,3.600029706954956055e+00,-2.024551696777343750e+02,-9.454698944091796875e+01,-1.745790710449218750e+02,4.033146500587463379e-01,-6.667444610595703125e+01,-1.826887054443359375e+02,-2.343034982681274414e+00,7.562291717529296875e+01,3.135675048828125000e+01
5.279669761657714844e-01,1.000000000000000000e+00,1.879521489143371582e+00,-4.878263950347900391e+00,3.600029706954956055e+00,-2.024551696777343750e+02,-9.454698944091796875e+01,-1.745790710449218750e+02,4.033146500587463379e-01,-6.667444610595703125e+01,-1.826887054443359375e+02,-2.343034982681274414e+00,7.562291717529296875e+01,3.135675048828125000e+01
5.316200256347656250e-01,1.000000000000000000e+00,1.757804632186889648e+00,-4.771133899688720703e+00,3.618490934371948242e+00,-2.023541412353515625e+02,-9.439546203613281250e+01,-1.744575347900390625e+02,4.033146500587463379e-01,-6.667444610595703125e+01,-1.826887054443359375e+02,-2.343106746673583984e+00,7.562291717529296875e+01,3.135697174072265625e+01
5.366969704627990723e-01,1.000000000000000000e+00,1.696773886680603027e+00,-4.717659473419189453e+00,3.627701282501220703e+00,-2.023027343750000000e+02,-9.431954193115234375e+01,-1.743971710205078125e+02,4.033146500587463379e-01,-6.667444610595703125e+01,-1.826887054443359375e+02,-2.343106746673583984e+00,7.562291717529296875e+01,3.135697174072265625e+01
5.395349860191345215e-01,1.000000000000000000e+00,1.635771989822387695e+00,-4.664004325866699219e+00,3.636830329895019531e+00,-2.022524261474609375e+02,-9.424457550048828125e+01,-1.743362731933593750e+02,4.033146500587463379e-01,-6.667444610595703125e+01,-1.826887054443359375e+02,-2.343106746673583984e+00,7.562277984619140625e+01,3.135697174072265625e+01
5.436360239982604980e-01,1.000000000000000000e+00,1.635771989822387695e+00,-4.664004325866699219e+00,3.636830329895019531e+00,-2.022524261474609375e+02,-9.424457550048828125e+01,-1.743362731933593750e+02,4.033146500587463379e-01,-6.667444610595703125e+01,-1.826887054443359375e+02,-2.343106746673583984e+00,7.562277984619140625e+01,3.135697174072265625e+01
5.475779771804809570e-01,1.000000000000000000e+00,1.574827313423156738e+00,-4.610393524169921875e+00,3.645837306976318359e+00,-2.022019653320312500e+02,-9.416925048828125000e+01,-1.742751770019531250e+02,4.033146500587463379e-01,-6.667444610595703125e+01,-1.826887054443359375e+02,-2.343106746673583984e+00,7.562291717529296875e+01,3.135697174072265625e+01
5.515909790992736816e-01,1.000000000000000000e+00,1.513911485671997070e+00,-4.556873798370361328e+00,3.654986619949340820e+00,-2.021504516601562500e+02,-9.409332275390625000e+01,-1.742156982421875000e+02,4.033146500587463379e-01,-6.667444610595703125e+01,-1.826887054443359375e+02,-2.343106746673583984e+00,7.562291717529296875e+01,3.135697174072265625e+01
5.556240081787109375e-01,1.000000000000000000e+00,1.452966809272766113e+00,-4.503241062164306641e+00,3.664399862289428711e+00,-2.021001892089843750e+02,-9.401702880859375000e+01,-1.741552734375000000e+02,4.033146500587463379e-01,-6.667444610595703125e+01,-1.826887054443359375e+02,-2.343178272247314453e+00,7.562277984619140625e+01,3.135697174072265625e+01
5.595530271530151367e-01,1.000000000000000000e+00,1.391936182975769043e+00,-4.449698448181152344e+00,3.673854589462280273e+00,-2.020499420166015625e+02,-9.394179534912109375e+01,-1.740943756103515625e+02,4.033146500587463379e-01,-6.667444610595703125e+01,-1.826887054443359375e+02,-2.343178272247314453e+00,7.562291717529296875e+01,3.135697174072265625e+01
5.635579824447631836e-01,1.000000000000000000e+00,1.330934166908264160e+00,-4.396042823791503906e+00,3.683288335800170898e+00,-2.019981079101562500e+02,-9.386667633056640625e+01,-1.740344238281250000e+02,4.033146500587463379e-01,-6.667444610595703125e+01,-1.826887054443359375e+02,-2.343106746673583984e+00,7.562299346923828125e+01,3.135697174072265625e+01
5.676490068435668945e-01,1.000000000000000000e+00,1.269846200942993164e+00,-4.342364788055419922e+00,3.692539453506469727e+00,-2.019474945068359375e+02,-9.379101562500000000e+01,-1.739738616943359375e+02,4.033146500587463379e-01,-6.667444610595703125e+01,-1.826887054443359375e+02,-2.343178272247314453e+00,7.562291717529296875e+01,3.135697174072265625e+01
5.715749859809875488e-01,1.000000000000000000e+00,1.208671927452087402e+00,-4.288777351379394531e+00,3.701525926589965820e+00,-2.018967742919921875e+02,-9.371488189697265625e+01,-1.739127655029296875e+02,4.033146500587463379e-01,-6.667444610595703125e+01,-1.826887054443359375e+02,-2.343106746673583984e+00,7.562291717529296875e+01,3.135697174072265625e+01
5.755620002746582031e-01,1.000000000000000000e+00,1.147440195083618164e+00,-4.235212326049804688e+00,3.710573673248291016e+00,-2.018455200195312500e+02,-9.363922882080078125e+01,-1.738530120849609375e+02,4.033146500587463379e-01,-6.667444610595703125e+01,-1.826887054443359375e+02,-2.343178272247314453e+00,7.562291717529296875e+01,3.135697174072265625e+01
5.795549750328063965e-01,1.000000000000000000e+00,1.086208581924438477e+00,-4.181669712066650391e+00,3.719783782958984375e+00,-2.017949981689453125e+02,-9.356378173828125000e+01,-1.737925262451171875e+02,4.033146500587463379e-01,-6.667444610595703125e+01,-1.826887054443359375e+02,-2.343106746673583984e+00,7.562291717529296875e+01,3.135697174072265625e+01
5.836269855499267578e-01,1.000000000000000000e+00,1.024948239326477051e+00,-4.128149986267089844e+00,3.729014873504638672e+00,-2.017444305419921875e+02,-9.348781585693359375e+01,-1.737307434082031250e+02,4.033146500587463379e-01,-6.667444610595703125e+01,-1.826887054443359375e+02,-2.343034982681274414e+00,7.562299346923828125e+01,3.135719108581542969e+01
5.875800251960754395e-01,1.000000000000000000e+00,9.638027548789978027e-01,-4.074358463287353516e+00,3.738184452056884766e+00,-2.016933441162109375e+02,-9.341210174560546875e+01,-1.736711273193359375e+02,4.033146500587463379e-01,-6.667444610595703125e+01,-1.826887054443359375e+02,-2.343034982681274414e+00,7.562291717529296875e+01,3.135697174072265625e+01
5.916799902915954590e-01,1.000000000000000000e+00,9.026572108268737793e-01,-4.020499706268310547e+00,3.747414827346801758e+00,-2.016427764892578125e+02,-9.333622741699218750e+01,-1.736109161376953125e+02,4.033146500587463379e-01,-6.667444610595703125e+01,-1.826887054443359375e+02,-2.343178272247314453e+00,7.562291717529296875e+01,3.135697174072265625e+01
5.955600142478942871e-01,1.000000000000000000e+00,8.416839838027954102e-01,-3.966731071472167969e+00,3.756523370742797852e+00,-2.015914611816406250e+02,-9.326089477539062500e+01,-1.735493316650390625e+02,4.033146500587463379e-01,-6.667444610595703125e+01,-1.826887054443359375e+02,-2.343106746673583984e+00,7.562291717529296875e+01,3.135697174072265625e+01
5.995789766311645508e-01,1.000000000000000000e+00,7.805671691894531250e-01,-3.913120508193969727e+00,3.765672922134399414e+00,-2.015411682128906250e+02,-9.318465423583984375e+01,-1.734891815185546875e+02,4.033146500587463379e-01,-6.667444610595703125e+01,-1.826887054443359375e+02,-2.343106746673583984e+00,7.562299346923828125e+01,3.135697174072265625e+01
6.036030054092407227e-01,1.000000000000000000e+00,7.194216251373291016e-01,-3.859397172927856445e+00,3.775066137313842773e+00,-2.014911346435546875e+02,-9.310894775390625000e+01,-1.734291534423828125e+02,4.033146500587463379e-01,-6.667453765869140625e+01,-1.826887054443359375e+02,-2.343178272247314453e+00,7.562291717529296875e+01,3.135697174072265625e+01
6.075689792633056641e-01,1.000000000000000000e+00,6.582474112510681152e-01,-3.805719137191772461e+00,3.784560918807983398e+00,-2.014399871826171875e+02,-9.303376770019531250e+01,-1.733682556152343750e+02,4.033146500587463379e-01,-6.667444610595703125e+01,-1.826887054443359375e+02,-2.343106746673583984e+00,7.562291717529296875e+01,3.135697174072265625e+01
6.115829944610595703e-01,1.000000000000000000e+00,5.971018671989440918e-01,-3.752153873443603516e+00,3.793893575668334961e+00,-2.013891601562500000e+02,-9.295822143554687500e+01,-1.733080291748046875e+02,4.033146500587463379e-01,-6.667444610595703125e+01,-1.826887054443359375e+02,-2.343106746673583984e+00,7.562291717529296875e+01,3.135697174072265625e+01
6.157299876213073730e-01,1.000000000000000000e+00,5.363869667053222656e-01,-3.698407888412475586e+00,3.803205251693725586e+00,-2.013389587402343750e+02,-9.288187408447265625e+01,-1.732480926513671875e+02,4.033146500587463379e-01,-6.667444610595703125e+01,-1.826887054443359375e+02,-2.343106746673583984e+00,7.562291717529296875e+01,3.135697174072265625e+01
6.197800040245056152e-01,1.000000000000000000e+00,4.753276109695434570e-01,-3.644933462142944336e+00,3.812334060668945312e+00,-2.012877502441406250e+02,-9.280599975585937500e+01,-1.731867828369140625e+02,4.033146500587463379e-01,-6.667435455322265625e+01,-1.826887054443359375e+02,-2.343106746673583984e+00,7.562299346923828125e+01,3.135697174072265625e+01
6.235619783401489258e-01,1.000000000000000000e+00,4.142968952655792236e-01,-3.591390848159790039e+00,3.821422576904296875e+00,-2.012373504638671875e+02,-9.273082733154296875e+01,-1.731264953613281250e+02,4.033146500587463379e-01,-6.667444610595703125e+01,-1.826887054443359375e+02,-2.343106746673583984e+00,7.562299346923828125e+01,3.135697174072265625e+01
6.275659799575805664e-01,1.000000000000000000e+00,3.532661795616149902e-01,-3.537893772125244141e+00,3.830694198608398438e+00,-2.011868286132812500e+02,-9.265505981445312500e+01,-1.730671539306640625e+02,4.033146500587463379e-01,-6.667444610595703125e+01,-1.826887054443359375e+02,-2.343178272247314453e+00,7.562291717529296875e+01,3.135719108581542969e+01
6.316239833831787109e-01,1.000000000000000000e+00,2.920632660388946533e-01,-3.484532356262207031e+00,3.839904308319091797e+00,-2.011355743408203125e+02,-9.257871246337890625e+01,-1.730060577392578125e+02,4.033146500587463379e-01,-6.667444610595703125e+01,-1.826885528564453125e+02,-2.343106746673583984e+00,7.562299346923828125e+01,3.135697174072265625e+01
6.355909705162048340e-01,1.000000000000000000e+00,2.307742238044738770e-01,-3.431080579757690430e+00,3.848911046981811523e+00,-2.010849151611328125e+02,-9.250273895263671875e+01,-1.729458312988281250e+02,4.033146500587463379e-01,-6.667444610595703125e+01,-1.826887054443359375e+02,-2.343178272247314453e+00,7.562299346923828125e+01,3.135697174072265625e+01
6.402649879455566406e-01,1.000000000000000000e+00,1.695999950170516968e-01,-3.377719163894653320e+00,3.857938528060913086e+00,-2.010341186523437500e+02,-9.242755889892578125e+01,-1.728860168457031250e+02,4.033146500587463379e-01,-6.667444610595703125e+01,-1.826887054443359375e+02,-2.343106746673583984e+00,7.562291717529296875e+01,3.135697174072265625e+01
6.437889933586120605e-01,1.000000000000000000e+00,1.086267158389091492e-01,-3.324199438095092773e+00,3.866904735565185547e+00,-2.009831390380859375e+02,-9.235206604003906250e+01,-1.728247680664062500e+02,4.033146500587463379e-01,-6.667444610595703125e+01,-1.826887054443359375e+02,-2.343178272247314453e+00,7.562277984619140625e+01,3.135697174072265625e+01
6.475639939308166504e-01,1.000000000000000000e+00,4.773955792188644409e-02,-3.270679712295532227e+00,3.876054286956787109e+00,-2.009329376220703125e+02,-9.227571868896484375e+01,-1.727642211914062500e+02,4.033146500587463379e-01,-6.667453765869140625e+01,-1.826887054443359375e+02,-2.343106746673583984e+00,7.562299346923828125e+01,3.135697174072265625e+01
6.515579819679260254e-01,1.000000000000000000e+00,-1.329113263636827469e-02,-3.217114686965942383e+00,3.885386466979980469e+00,-2.008820037841796875e+02,-9.219985198974609375e+01,-1.727045288085937500e+02,4.033146500587463379e-01,-6.667453765869140625e+01,-1.826887054443359375e+02,-2.343106746673583984e+00,7.562299346923828125e+01,3.135697174072265625e+01
6.556289792060852051e-01,1.000000000000000000e+00,-7.429311424493789673e-02,-3.163436412811279297e+00,3.894718647003173828e+00,-2.008309631347656250e+02,-9.212477874755859375e+01,-1.726427612304687500e+02,4.033146500587463379e-01,-6.667453765869140625e+01,-1.826887054443359375e+02,-2.343034982681274414e+00,7.562291717529296875e+01,3.135697174072265625e+01
6.595529913902282715e-01,1.000000000000000000e+00,-1.351515650749206543e-01,-3.110007286071777344e+00,3.904071331024169922e+00,-2.007807006835937500e+02,-9.204928588867187500e+01,-1.725822601318359375e+02,4.033146500587463379e-01,-6.667444610595703125e+01,-1.826887054443359375e+02,-2.343106746673583984e+00,7.562299346923828125e+01,3.135697174072265625e+01
6.642739772796630859e-01,1.000000000000000000e+00,-1.962683647871017456e-01,-3.056623220443725586e+00,3.913342952728271484e+00,-2.007294158935546875e+02,-9.197309875488281250e+01,-1.725223846435546875e+02,4.033146500587463379e-01,-6.667444610595703125e+01,-1.826887054443359375e+02,-2.343106746673583984e+00,7.562291717529296875e+01,3.135697174072265625e+01
6.684330105781555176e-01,1.000000000000000000e+00,-2.571555376052856445e-01,-3.003148794174194336e+00,3.922390222549438477e+00,-2.006789550781250000e+02,-9.189744567871093750e+01,-1.724612884521484375e+02,4.033146500587463379e-01,-6.667444610595703125e+01,-1.826887054443359375e+02,-2.343106746673583984e+00,7.562291717529296875e+01,3.135697174072265625e+01
6.715620160102844238e-01,1.000000000000000000e+00,-3.181288242340087891e-01,-2.949561119079589844e+00,3.931397199630737305e+00,-2.006290130615234375e+02,-9.182205200195312500e+01,-1.724005126953125000e+02,4.033146500587463379e-01,-6.667444610595703125e+01,-1.826887054443359375e+02,-2.343034982681274414e+00,7.562299346923828125e+01,3.135697174072265625e+01
6.756020188331604004e-01,1.000000000000000000e+00,-3.789298534393310547e-01,-2.896018743515014648e+00,3.940688848495483398e+00,-2.005779724121093750e+02,-9.174655914306640625e+01,-1.723408355712890625e+02,4.033146500587463379e-01,-6.667453765869140625e+01,-1.826887054443359375e+02,-2.343034982681274414e+00,7.562291717529296875e+01,3.135697174072265625e+01
6.796280145645141602e-01,1.000000000000000000e+00,-4.398744106292724609e-01,-2.842544078826904297e+00,3.949960231781005859e+00,-2.005278320312500000e+02,-9.167057800292968750e+01,-1.722799377441406250e+02,4.033146500587463379e-01,-6.667444610595703125e+01,-1.826887054443359375e+02,-2.343106746673583984e+00,7.562291717529296875e+01,3.135697174072265625e+01
6.835709810256958008e-01,1.000000000000000000e+00,-5.009338259696960449e-01,-2.789182901382446289e+00,3.959170341491699219e+00,-2.004772491455078125e+02,-9.159476470947265625e+01,-1.722195129394531250e+02,4.033146500587463379e-01,-6.667453765869140625e+01,-1.826887054443359375e+02,-2.343106746673583984e+00,7.562299346923828125e+01,3.135697174072265625e+01
6.883360147476196289e-01,1.000000000000000000e+00,-5.619645118713378906e-01,-2.735799074172973633e+00,3.968218326568603516e+00,-2.004257965087890625e+02,-9.151964569091796875e+01,-1.721594238281250000e+02,4.033146500587463379e-01,-6.667444610595703125e+01,-1.826885528564453125e+02,-2.343034982681274414e+00,7.562299346923828125e+01,3.135697174072265625e+01
6.922029852867126465e-01,1.000000000000000000e+00,-6.231961250305175781e-01,-2.682460069656372070e+00,3.977286338806152344e+00,-2.003757934570312500e+02,-9.144398498535156250e+01,-1.720986633300781250e+02,4.033146500587463379e-01,-6.667453765869140625e+01,-1.826887054443359375e+02,-2.343106746673583984e+00,7.562299346923828125e+01,3.135697174072265625e+01
6.956769824028015137e-01,1.000000000000000000e+00,-6.843703389167785645e-01,-2.628782033920288086e+00,3.986394643783569336e+00,-2.003256683349609375e+02,-9.136806488037109375e+01,-1.720384368896484375e+02,4.033146500587463379e-01,-6.667444610595703125e+01,-1.826887054443359375e+02,-2.343178272247314453e+00,7.562291717529296875e+01,3.135697174072265625e+01
6.996309757232666016e-01,1.000000000000000000e+00,-7.455446124076843262e-01,-2.575239658355712891e+00,3.995767831802368164e+00,-2.002743530273437500e+02,-9.129289245605468750e+01,-1.719791717529296875e+02,4.033146500587463379e-01,-6.667453765869140625e+01,-1.826885528564453125e+02,-2.343178272247314453e+00,7.562277984619140625e+01,3.135697174072265625e+01
7.036399841308593750e-01,1.000000000000000000e+00,-8.066900968551635742e-01,-2.521651983261108398e+00,4.005242824554443359e+00,-2.002237854003906250e+02,-9.121765899658203125e+01,-1.719184112548828125e+02,4.033146500587463379e-01,-6.667444610595703125e+01,-1.826887054443359375e+02,-2.343106746673583984e+00,7.562291717529296875e+01,3.135697174072265625e+01
7.078610062599182129e-01,1.000000000000000000e+00,-8.678643107414245605e-01,-2.467951297760009766e+00,4.014575004577636719e+00,-2.001730194091796875e+02,-9.114232635498046875e+01,-1.718575134277343750e+02,4.033146500587463379e-01,-6.667444610595703125e+01,-1.826887054443359375e+02,-2.343178272247314453e+00,7.562291717529296875e+01,3.135697174072265625e+01
7.124369740486145020e-01,1.000000000000000000e+00,-9.292107224464416504e-01,-2.414363384246826172e+00,4.023825645446777344e+00,-2.001217041015625000e+02,-9.106693267822265625e+01,-1.717980346679687500e+02,4.033146500587463379e-01,-6.667444610595703125e+01,-1.826887054443359375e+02,-2.343034982681274414e+00,7.562299346923828125e+01,3.135697174072265625e+01
7.165619730949401855e-01,1.000000000000000000e+00,-9.901840686798095703e-01,-2.360707998275756836e+00,4.032832622528076172e+00,-2.000716094970703125e+02,-9.099149322509765625e+01,-1.717371368408203125e+02,4.033146500587463379e-01,-6.667444610595703125e+01,-1.826887054443359375e+02,-2.343106746673583984e+00,7.562291717529296875e+01,3.135719108581542969e+01
7.199040055274963379e-01,1.000000000000000000e+00,-1.050985097885131836e+00,-2.307324171066284180e+00,4.041778564453125000e+00,-2.000213623046875000e+02,-9.091600036621093750e+01,-1.716764373779296875e+02,4.033146500587463379e-01,-6.667444610595703125e+01,-1.826887054443359375e+02,-2.343106746673583984e+00,7.562291717529296875e+01,3.135697174072265625e+01
7.237790226936340332e-01,1.000000000000000000e+00,-1.112101912498474121e+00,-2.253759145736694336e+00,4.050948619842529297e+00,-1.999701690673828125e+02,-9.084049987792968750e+01,-1.716167602539062500e+02,4.033146500587463379e-01,-6.667444610595703125e+01,-1.826887054443359375e+02,-2.343178272247314453e+00,7.562291717529296875e+01,3.135697174072265625e+01
7.278059720993041992e-01,1.000000000000000000e+00,-1.173161268234252930e+00,-2.200058221817016602e+00,4.060097694396972656e+00,-1.999197998046875000e+02,-9.076522064208984375e+01,-1.715559997558593750e+02,4.033146500587463379e-01,-6.667453765869140625e+01,-1.826887054443359375e+02,-2.343106746673583984e+00,7.562291717529296875e+01,3.135697174072265625e+01
7.319160103797912598e-01,1.000000000000000000e+00,-1.234077215194702148e+00,-2.146651744842529297e+00,4.069348812103271484e+00,-1.998687133789062500e+02,-9.069025421142578125e+01,-1.714946136474609375e+02,4.033146500587463379e-01,-6.667444610595703125e+01,-1.826887054443359375e+02,-2.343034982681274414e+00,7.562299346923828125e+01,3.135697174072265625e+01
7.372199892997741699e-01,1.000000000000000000e+00,-1.295050382614135742e+00,-2.093086481094360352e+00,4.078497886657714844e+00,-1.998180541992187500e+02,-9.061476135253906250e+01,-1.714349975585937500e+02,4.033146500587463379e-01,-6.667435455322265625e+01,-1.826887054443359375e+02,-2.343106746673583984e+00,7.562291717529296875e+01,3.135697174072265625e+01
7.405819892883300781e-01,1.000000000000000000e+00,-1.355880141258239746e+00,-2.039793014526367188e+00,4.087565898895263672e+00,-1.997681121826171875e+02,-9.053889465332031250e+01,-1.713743743896484375e+02,4.033146500587463379e-01,-6.667444610595703125e+01,-1.826885528564453125e+02,-2.343106746673583984e+00,7.562291717529296875e+01,3.135697174072265625e+01
7.441350221633911133e-01,1.000000000000000000e+00,-1.416709899902343750e+00,-1.986409187316894531e+00,4.096633911132812500e+00,-1.997173309326171875e+02,-9.046355438232421875e+01,-1.713132019042968750e+02,4.033146500587463379e-01,-6.667444610595703125e+01,-1.826887054443359375e+02,-2.343034982681274414e+00,7.562291717529296875e+01,3.135719108581542969e+01
7.480199933052062988e-01,1.000000000000000000e+00,-1.477625846862792969e+00,-1.932957172393798828e+00,4.105966091156005859e+00,-1.996665496826171875e+02,-9.038848876953125000e+01,-1.712535247802734375e+02,4.033146500587463379e-01,-6.667444610595703125e+01,-1.826887054443359375e+02,-2.343106746673583984e+00,7.562291717529296875e+01,3.135697174072265625e+01
7.505519986152648926e-01,1.000000000000000000e+00,-1.538541674613952637e+00,-1.879505395889282227e+00,4.115440845489501953e+00,-1.996165618896484375e+02,-9.031315612792968750e+01,-1.711930389404296875e+02,4.033146500587463379e-01,-6.667444610595703125e+01,-1.826887054443359375e+02,-2.343106746673583984e+00,7.562291717529296875e+01,3.135697174072265625e+01
7.561119794845581055e-01,1.000000000000000000e+00,-1.599629759788513184e+00,-1.826098918914794922e+00,4.124813556671142578e+00,-1.995657806396484375e+02,-9.023744201660156250e+01,-1.711319427490234375e+02,4.033146500587463379e-01,-6.667435455322265625e+01,-1.826887054443359375e+02,-2.343106746673583984e+00,7.562291717529296875e+01,3.135697174072265625e+01
7.600709795951843262e-01,1.000000000000000000e+00,-1.660545706748962402e+00,-1.772601604461669922e+00,4.134105205535888672e+00,-1.995154266357421875e+02,-9.016194915771484375e+01,-1.710721893310546875e+02,4.033146500587463379e-01,-6.667444610595703125e+01,-1.826887054443359375e+02,-2.343034982681274414e+00,7.562291717529296875e+01,3.135697174072265625e+01
7.642909884452819824e-01,1.000000000000000000e+00,-1.721432805061340332e+00,-1.719036698341369629e+00,4.143234252929687500e+00,-1.994647979736328125e+02,-9.008645629882812500e+01,-1.710117034912109375e+02,4.033146500587463379e-01,-6.667444610595703125e+01,-1.826887054443359375e+02,-2.343106746673583984e+00,7.562291717529296875e+01,3.135697174072265625e+01
7.690070271492004395e-01,1.000000000000000000e+00,-1.782233834266662598e+00,-1.665471673011779785e+00,4.152200698852539062e+00,-1.994135589599609375e+02,-9.001090240478515625e+01,-1.709506683349609375e+02,4.033146500587463379e-01,-6.667444610595703125e+01,-1.826887054443359375e+02,-2.343034982681274414e+00,7.562291717529296875e+01,3.135697174072265625e+01
7.705000042915344238e-01,1.000000000000000000e+00,-1.842919945716857910e+00,-1.612019777297973633e+00,4.161329746246337891e+00,-1.993628845214843750e+02,-8.993535614013671875e+01,-1.708909759521484375e+02,4.033146500587463379e-01,-6.667444610595703125e+01,-1.826887054443359375e+02,-2.343178272247314453e+00,7.562291717529296875e+01,3.135697174072265625e+01
7.761350274085998535e-01,1.000000000000000000e+00,-1.903663635253906250e+00,-1.558635711669921875e+00,4.170499324798583984e+00,-1.993124694824218750e+02,-8.985990905761718750e+01,-1.708310241699218750e+02,4.033146500587463379e-01,-6.667453765869140625e+01,-1.826887054443359375e+02,-2.343106746673583984e+00,7.562291717529296875e+01,3.135697174072265625e+01
7.802579998970031738e-01,1.000000000000000000e+00,-1.964263796806335449e+00,-1.505274415016174316e+00,4.179648399353027344e+00,-1.992615356445312500e+02,-8.978441619873046875e+01,-1.707700653076171875e+02,4.033146500587463379e-01,-6.667444610595703125e+01,-1.826887054443359375e+02,-2.343178272247314453e+00,7.562291717529296875e+01,3.135697174072265625e+01
7.851960062980651855e-01,1.000000000000000000e+00,-2.024863719940185547e+00,-1.451777338981628418e+00,4.188696384429931641e+00,-1.992109222412109375e+02,-8.970860290527343750e+01,-1.707102508544921875e+02,4.033146500587463379e-01,-6.667444610595703125e+01,-1.826887054443359375e+02,-2.343106746673583984e+00,7.562291717529296875e+01,3.135697174072265625e+01
7.886059880256652832e-01,1.000000000000000000e+00,-2.085578680038452148e+00,-1.398212313652038574e+00,4.197723865509033203e+00,-1.991600341796875000e+02,-8.963246154785156250e+01,-1.706501617431640625e+02,4.033146500587463379e-01,-6.667444610595703125e+01,-1.826887054443359375e+02,-2.343106746673583984e+00,7.562291717529296875e+01,3.135697174072265625e+01
7.931010127067565918e-01,1.000000000000000000e+00,-2.146293640136718750e+00,-1.344783067703247070e+00,4.206710338592529297e+00,-1.991092987060546875e+02,-8.955782318115234375e+01,-1.705887145996093750e+02,4.034245014190673828e-01,-6.667444610595703125e+01,-1.826887054443359375e+02,-2.343178272247314453e+00,7.562291717529296875e+01,3.135697174072265625e+01
7.963370084762573242e-01,1.000000000000000000e+00,-2.206979990005493164e+00,-1.291308522224426270e+00,4.216042518615722656e+00,-1.990591735839843750e+02,-8.948216247558593750e+01,-1.705290374755859375e+02,4.033146500587463379e-01,-6.667444610595703125e+01,-1.826887054443359375e+02,-2.343106746673583984e+00,7.562291717529296875e+01,3.135697174072265625e+01
8.003100156784057617e-01,1.000000000000000000e+00,-2.267637252807617188e+00,-1.238196134567260742e+00,4.225496768951416016e+00,-1.990083465576171875e+02,-8.940666961669921875e+01,-1.704692230224609375e+02,4.033146500587463379e-01,-6.667453765869140625e+01,-1.826887054443359375e+02,-2.343106746673583984e+00,7.562277984619140625e+01,3.135697174072265625e+01
8.045390248298645020e-01,1.000000000000000000e+00,-2.328466892242431641e+00,-1.185015797615051270e+00,4.234808921813964844e+00,-1.989577178955078125e+02,-8.933048248291015625e+01,-1.704077911376953125e+02,4.033146500587463379e-01,-6.667444610595703125e+01,-1.826887054443359375e+02,-2.343106746673583984e+00,7.562291717529296875e+01,3.135697174072265625e+01
8.093320131301879883e-01,1.000000000000000000e+00,-2.389325380325317383e+00,-1.131405472755432129e+00,4.244141101837158203e+00,-1.989077301025390625e+02,-8.925531005859375000e+01,-1.703471527099609375e+02,4.033146500587463379e-01,-6.667444610595703125e+01,-1.826887054443359375e+02,-2.343106746673583984e+00,7.562299346923828125e+01,3.135697174072265625e+01
8.126569986343383789e-01,1.000000000000000000e+00,-2.450069189071655273e+00,-1.077885746955871582e+00,4.253229141235351562e+00,-1.988564758300781250e+02,-8.917959594726562500e+01,-1.702872009277343750e+02,4.033146500587463379e-01,-6.667444610595703125e+01,-1.826887054443359375e+02,-2.343106746673583984e+00,7.562299346923828125e+01,3.135697174072265625e+01
8.172559738159179688e-01,1.000000000000000000e+00,-2.511071205139160156e+00,-1.024298071861267090e+00,4.262134552001953125e+00,-1.988061676025390625e+02,-8.910356903076171875e+01,-1.702259674072265625e+02,4.033146500587463379e-01,-6.667444610595703125e+01,-1.826887054443359375e+02,-2.343034982681274414e+00,7.562291717529296875e+01,3.135697174072265625e+01
8.205670118331909180e-01,1.000000000000000000e+00,-2.572273969650268555e+00,-9.708009362220764160e-01,4.271243572235107422e+00,-1.987561798095703125e+02,-8.902770233154296875e+01,-1.701661529541015625e+02,4.033146500587463379e-01,-6.667444610595703125e+01,-1.826887054443359375e+02,-2.343106746673583984e+00,7.562291717529296875e+01,3.135697174072265625e+01
8.245210051536560059e-01,1.000000000000000000e+00,-2.633276224136352539e+00,-9.175075292587280273e-01,4.280514717102050781e+00,-1.987048797607421875e+02,-8.895273590087890625e+01,-1.701064147949218750e+02,4.033146500587463379e-01,-6.667444610595703125e+01,-1.826887054443359375e+02,-2.343178272247314453e+00,7.562291717529296875e+01,3.135697174072265625e+01
8.288270235061645508e-01,1.000000000000000000e+00,-2.694191932678222656e+00,-8.640103936195373535e-01,4.289725303649902344e+00,-1.986543579101562500e+02,-8.887724304199218750e+01,-1.700454406738281250e+02,4.033146500587463379e-01,-6.667444610595703125e+01,-1.826887054443359375e+02,-2.343106746673583984e+00,7.562291717529296875e+01,3.135697174072265625e+01
8.338530063629150391e-01,1.000000000000000000e+00,-2.755193948745727539e+00,-8.108300566673278809e-01,4.298935413360595703e+00,-1.986043701171875000e+02,-8.880120849609375000e+01,-1.699850769042968750e+02,4.033146500587463379e-01,-6.667444610595703125e+01,-1.826887054443359375e+02,-2.343178272247314453e+00,7.562291717529296875e+01,3.135697174072265625e+01
8.366320133209228516e-01,1.000000000000000000e+00,-2.816195964813232422e+00,-7.571972012519836426e-01,4.307962417602539062e+00,-1.985531158447265625e+02,-8.872576904296875000e+01,-1.699251403808593750e+02,4.033146500587463379e-01,-6.667444610595703125e+01,-1.826887054443359375e+02,-2.343034982681274414e+00,7.562291717529296875e+01,3.135697174072265625e+01
8.414030075073242188e-01,1.000000000000000000e+00,-2.876996994018554688e+00,-7.037000656127929688e-01,4.316949367523193359e+00,-1.985027160644531250e+02,-8.865059661865234375e+01,-1.698643798828125000e+02,4.033146500587463379e-01,-6.667444610595703125e+01,-1.826887054443359375e+02,-2.343178272247314453e+00,7.562291717529296875e+01,3.135697174072265625e+01
8.445990085601806641e-01,1.000000000000000000e+00,-2.937826633453369141e+00,-6.503386497497558594e-01,4.326220512390136719e+00,-1.984519958496093750e+02,-8.857541656494140625e+01,-1.698041534423828125e+02,4.033146500587463379e-01,-6.667444610595703125e+01,-1.826887054443359375e+02,-2.343106746673583984e+00,7.562291717529296875e+01,3.135697174072265625e+01
8.487020134925842285e-01,1.000000000000000000e+00,-2.999029636383056641e+00,-5.969547033309936523e-01,4.335573196411132812e+00,-1.984008483886718750e+02,-8.849971008300781250e+01,-1.697448120117187500e+02,4.033146500587463379e-01,-6.667444610595703125e+01,-1.826887054443359375e+02,-2.343106746673583984e+00,7.562291717529296875e+01,3.135697174072265625e+01
8.527699708938598633e-01,1.000000000000000000e+00,-3.060117721557617188e+00,-5.437970161437988281e-01,4.344946384429931641e+00,-1.983505401611328125e+02,-8.842426300048828125e+01,-1.696841125488281250e+02,4.033146500587463379e-01,-6.667444610595703125e+01,-1.826887054443359375e+02,-2.343106746673583984e+00,7.562291717529296875e+01,3.135697174072265625e+01
8.568680286407470703e-01,1.000000000000000000e+00,-3.121119737625122070e+00,-4.905714690685272217e-01,4.354217529296875000e+00,-1.983003387451171875e+02,-8.834887695312500000e+01,-1.696237487792968750e+02,4.033146500587463379e-01,-6.667444610595703125e+01,-1.826887054443359375e+02,-2.343106746673583984e+00,7.562277984619140625e+01,3.135697174072265625e+01
8.595079779624938965e-01,1.000000000000000000e+00,-3.182035446166992188e+00,-4.372101128101348877e-01,4.363326072692871094e+00,-1.982491455078125000e+02,-8.827369689941406250e+01,-1.695641479492187500e+02,4.033146500587463379e-01,-6.667444610595703125e+01,-1.826887054443359375e+02,-2.343034982681274414e+00,7.562291717529296875e+01,3.135697174072265625e+01
8.635889887809753418e-01,1.000000000000000000e+00,-3.242980003356933594e+00,-3.838487267494201660e-01,4.372292518615722656e+00,-1.981987915039062500e+02,-8.819766998291015625e+01,-1.695033874511718750e+02,4.033146500587463379e-01,-6.667444610595703125e+01,-1.826887054443359375e+02,-2.343106746673583984e+00,7.562291717529296875e+01,3.135697174072265625e+01
8.675299882888793945e-01,1.000000000000000000e+00,-3.304096937179565430e+00,-3.303289711475372314e-01,4.381340026855468750e+00,-1.981479034423828125e+02,-8.812244415283203125e+01,-1.694426727294921875e+02,4.033146500587463379e-01,-6.667444610595703125e+01,-1.826887054443359375e+02,-2.343106746673583984e+00,7.562291717529296875e+01,3.135697174072265625e+01
8.715890049934387207e-01,1.000000000000000000e+00,-3.365012884140014648e+00,-2.770128846168518066e-01,4.390367507934570312e+00,-1.980973815917968750e+02,-8.804748535156250000e+01,-1.693834686279296875e+02,4.033146500587463379e-01,-6.667435455322265625e+01,-1.826887054443359375e+02,-2.343178272247314453e+00,7.562291717529296875e+01,3.135697174072265625e+01
8.768360018730163574e-01,1.000000000000000000e+00,-3.425928592681884766e+00,-2.236515283584594727e-01,4.399476051330566406e+00,-1.980477142333984375e+02,-8.797246551513671875e+01,-1.693227844238281250e+02,4.033146500587463379e-01,-6.667444610595703125e+01,-1.826887054443359375e+02,-2.343106746673583984e+00,7.562313842773437500e+01,3.135697174072265625e+01
8.795009851455688477e-01,1.000000000000000000e+00,-3.487016677856445312e+00,-1.701544076204299927e-01,4.408584594726562500e+00,-1.979971008300781250e+02,-8.789611053466796875e+01,-1.692618865966796875e+02,4.033146500587463379e-01,-6.667444610595703125e+01,-1.826887054443359375e+02,-2.343106746673583984e+00,7.562291717529296875e+01,3.135697174072265625e+01
8.835319876670837402e-01,1.000000000000000000e+00,-3.547990083694458008e+00,-1.168156862258911133e-01,4.417734146118164062e+00,-1.979462738037109375e+02,-8.782110595703125000e+01,-1.692021331787109375e+02,4.033146500587463379e-01,-6.667453765869140625e+01,-1.826887054443359375e+02,-2.343178272247314453e+00,7.562291717529296875e+01,3.135675048828125000e+01
8.875749707221984863e-01,1.000000000000000000e+00,-3.609020709991455078e+00,-6.338644772768020630e-02,4.426781654357910156e+00,-1.978959045410156250e+02,-8.774576568603515625e+01,-1.691414337158203125e+02,4.033146500587463379e-01,-6.667444610595703125e+01,-1.826887054443359375e+02,-2.343106746673583984e+00,7.562291717529296875e+01,3.135697174072265625e+01
8.915020227432250977e-01,1.000000000000000000e+00,-3.669878959655761719e+00,-1.009298022836446762e-02,4.436032295227050781e+00,-1.978450164794921875e+02,-8.767128753662109375e+01,-1.690807495117187500e+02,4.033146500587463379e-01,-6.667453765869140625e+01,-1.826887054443359375e+02,-2.343178272247314453e+00,7.562313842773437500e+01,3.135697174072265625e+01
8.955159783363342285e-01,1.000000000000000000e+00,-3.730536699295043945e+00,4.322311282157897949e-02,4.445344448089599609e+00,-1.977948303222656250e+02,-8.759546661376953125e+01,-1.690211944580078125e+02,4.033146500587463379e-01,-6.667444610595703125e+01,-1.826887054443359375e+02,-2.343106746673583984e+00,7.562299346923828125e+01,3.135697174072265625e+01
8.995609879493713379e-01,1.000000000000000000e+00,-3.791280508041381836e+00,9.656183421611785889e-02,4.454697132110595703e+00,-1.977446899414062500e+02,-8.752028656005859375e+01,-1.689612426757812500e+02,4.033146500587463379e-01,-6.667444610595703125e+01,-1.826887054443359375e+02,-2.343178272247314453e+00,7.562291717529296875e+01,3.135697174072265625e+01
9.035059809684753418e-01,1.000000000000000000e+00,-3.851937770843505859e+00,1.498100310564041138e-01,4.464029312133789062e+00,-1.976935424804687500e+02,-8.744464111328125000e+01,-1.689004821777343750e+02,4.033146500587463379e-01,-6.667444610595703125e+01,-1.826887054443359375e+02,-2.343106746673583984e+00,7.562291717529296875e+01,3.135697174072265625e+01
9.075180292129516602e-01,1.000000000000000000e+00,-3.912681579589843750e+00,2.031261175870895386e-01,4.473198890686035156e+00,-1.976429748535156250e+02,-8.736946105957031250e+01,-1.688407287597656250e+02,4.033146500587463379e-01,-6.667444610595703125e+01,-1.826885528564453125e+02,-2.343178272247314453e+00,7.562291717529296875e+01,3.135697174072265625e+01
9.115560054779052734e-01,1.000000000000000000e+00,-3.973511219024658203e+00,2.563517093658447266e-01,4.482206344604492188e+00,-1.975924072265625000e+02,-8.729390716552734375e+01,-1.687802429199218750e+02,4.033146500587463379e-01,-6.667444610595703125e+01,-1.826887054443359375e+02,-2.343106746673583984e+00,7.562291717529296875e+01,3.135697174072265625e+01
9.154980182647705078e-01,1.000000000000000000e+00,-4.034197330474853516e+00,3.095772564411163330e-01,4.491396427154541016e+00,-1.975416870117187500e+02,-8.721937561035156250e+01,-1.687193450927734375e+02,4.033146500587463379e-01,-6.667444610595703125e+01,-1.826887054443359375e+02,-2.343106746673583984e+00,7.562291717529296875e+01,3.135697174072265625e+01
9.195479750633239746e-01,1.000000000000000000e+00,-4.094739913940429688e+00,3.629612326622009277e-01,4.500586032867431641e+00,-1.974914855957031250e+02,-8.714419555664062500e+01,-1.686600036621093750e+02,4.033146500587463379e-01,-6.667444610595703125e+01,-1.826887054443359375e+02,-2.343178272247314453e+00,7.562291717529296875e+01,3.135697174072265625e+01
9.235759973526000977e-01,1.000000000000000000e+00,-4.155540943145751953e+00,4.163226187229156494e-01,4.509776115417480469e+00,-1.974407653808593750e+02,-8.706854248046875000e+01,-1.686003265380859375e+02,4.033146500587463379e-01,-6.667444610595703125e+01,-1.826887054443359375e+02,-2.343106746673583984e+00,7.562291717529296875e+01,3.135719108581542969e+01
9.275349974632263184e-01,1.000000000000000000e+00,-4.216284751892089844e+00,4.697518646717071533e-01,4.518823623657226562e+00,-1.973898162841796875e+02,-8.699304962158203125e+01,-1.685390930175781250e+02,4.033146500587463379e-01,-6.667453765869140625e+01,-1.826887054443359375e+02,-2.343106746673583984e+00,7.562277984619140625e+01,3.135697174072265625e+01
9.315159916877746582e-01,1.000000000000000000e+00,-4.277028083801269531e+00,5.231131911277770996e-01,4.527647495269775391e+00,-1.973397827148437500e+02,-8.691813659667968750e+01,-1.684796905517578125e+02,4.033146500587463379e-01,-6.667444610595703125e+01,-1.826887054443359375e+02,-2.343106746673583984e+00,7.562291717529296875e+01,3.135697174072265625e+01
9.356920123100280762e-01,1.000000000000000000e+00,-4.337743282318115234e+00,5.764745473861694336e-01,4.536553382873535156e+00,-1.972887878417968750e+02,-8.684317779541015625e+01,-1.684195251464843750e+02,4.033146500587463379e-01,-6.667444610595703125e+01,-1.826887054443359375e+02,-2.343106746673583984e+00,7.562291717529296875e+01,3.135697174072265625e+01
9.395369887351989746e-01,1.000000000000000000e+00,-4.398601531982421875e+00,6.299942731857299805e-01,4.545641422271728516e+00,-1.972383728027343750e+02,-8.676767730712890625e+01,-1.683585662841796875e+02,4.033146500587463379e-01,-6.667444610595703125e+01,-1.826887054443359375e+02,-2.343106746673583984e+00,7.562291717529296875e+01,3.135697174072265625e+01
9.435690045356750488e-01,1.000000000000000000e+00,-4.459574699401855469e+00,6.831520199775695801e-01,4.555095672607421875e+00,-1.971885070800781250e+02,-8.669218444824218750e+01,-1.682986755371093750e+02,4.033146500587463379e-01,-6.667444610595703125e+01,-1.826887054443359375e+02,-2.343034982681274414e+00,7.562291717529296875e+01,3.135697174072265625e+01
9.500529766082763672e-01,1.000000000000000000e+00,-4.581349372863769531e+00,7.897841930389404297e-01,4.573658466339111328e+00,-1.970874176025390625e+02,-8.654151916503906250e+01,-1.681772155761718750e+02,4.033146500587463379e-01,-6.667444610595703125e+01,-1.826887054443359375e+02,-2.343106746673583984e+00,7.562299346923828125e+01,3.135697174072265625e+01
9.515600204467773438e-01,1.000000000000000000e+00,-4.581349372863769531e+00,7.897841930389404297e-01,4.573658466339111328e+00,-1.970874176025390625e+02,-8.654151916503906250e+01,-1.681772155761718750e+02,4.033146500587463379e-01,-6.667444610595703125e+01,-1.826887054443359375e+02,-2.343106746673583984e+00,7.562299346923828125e+01,3.135697174072265625e+01
9.554970264434814453e-01,1.000000000000000000e+00,-4.642006874084472656e+00,8.430550098419189453e-01,4.582807540893554688e+00,-1.970375823974609375e+02,-8.646591186523437500e+01,-1.681173400878906250e+02,4.033146500587463379e-01,-6.667453765869140625e+01,-1.826887054443359375e+02,-2.343106746673583984e+00,7.562291717529296875e+01,3.135697174072265625e+01
9.595170021057128906e-01,1.000000000000000000e+00,-4.702635765075683594e+00,8.963710665702819824e-01,4.591733455657958984e+00,-1.969864959716796875e+02,-8.639099884033203125e+01,-1.680569915771484375e+02,4.033146500587463379e-01,-6.667444610595703125e+01,-1.826887054443359375e+02,-2.343106746673583984e+00,7.562291717529296875e+01,3.135697174072265625e+01
9.634929895401000977e-01,1.000000000000000000e+00,-4.763120651245117188e+00,9.496872425079345703e-01,4.600781440734863281e+00,-1.969358673095703125e+02,-8.631555938720703125e+01,-1.679960784912109375e+02,4.033146500587463379e-01,-6.667444610595703125e+01,-1.826887054443359375e+02,-2.343106746673583984e+00,7.562291717529296875e+01,3.135697174072265625e+01
9.675279855728149414e-01,1.000000000000000000e+00,-4.823692321777343750e+00,1.002935409545898438e+00,4.610113620758056641e+00,-1.968861541748046875e+02,-8.624022674560546875e+01,-1.679366149902343750e+02,4.033146500587463379e-01,-6.667444610595703125e+01,-1.826887054443359375e+02,-2.343106746673583984e+00,7.562299346923828125e+01,3.135697174072265625e+01
9.715639948844909668e-01,1.000000000000000000e+00,-4.884435653686523438e+00,1.056002497673034668e+00,4.619323730468750000e+00,-1.968352203369140625e+02,-8.616393280029296875e+01,-1.678766479492187500e+02,4.033146500587463379e-01,-6.667444610595703125e+01,-1.826887054443359375e+02,-2.343106746673583984e+00,7.562291717529296875e+01,3.135697174072265625e+01
9.755010008811950684e-01,1.000000000000000000e+00,-4.945006847381591797e+00,1.109296083450317383e+00,4.628493309020996094e+00,-1.967846527099609375e+02,-8.608934020996093750e+01,-1.678156127929687500e+02,4.033146500587463379e-01,-6.667435455322265625e+01,-1.826887054443359375e+02,-2.343106746673583984e+00,7.562299346923828125e+01,3.135697174072265625e+01
9.795690178871154785e-01,1.000000000000000000e+00,-5.005693435668945312e+00,1.162770509719848633e+00,4.637439250946044922e+00,-1.967339324951171875e+02,-8.601410675048828125e+01,-1.677556762695312500e+02,4.033146500587463379e-01,-6.667435455322265625e+01,-1.826887054443359375e+02,-2.343106746673583984e+00,7.562291717529296875e+01,3.135697174072265625e+01
9.835039973258972168e-01,1.000000000000000000e+00,-5.066494464874267578e+00,1.216086626052856445e+00,4.646344661712646484e+00,-1.966828308105468750e+02,-8.593888092041015625e+01,-1.676959991455078125e+02,4.033146500587463379e-01,-6.667444610595703125e+01,-1.826887054443359375e+02,-2.343034982681274414e+00,7.562291717529296875e+01,3.135697174072265625e+01
9.899920225143432617e-01,1.000000000000000000e+00,-5.127123355865478516e+00,1.269561052322387695e+00,4.655473709106445312e+00,-1.966329040527343750e+02,-8.586264038085937500e+01,-1.676352386474609375e+02,4.033146500587463379e-01,-6.667444610595703125e+01,-1.826887054443359375e+02,-2.343178272247314453e+00,7.562291717529296875e+01,3.135697174072265625e+01
9.914849996566772461e-01,1.000000000000000000e+00,-5.187895298004150391e+00,1.323012948036193848e+00,4.664765357971191406e+00,-1.965829010009765625e+02,-8.578794097900390625e+01,-1.675751342773437500e+02,4.033146500587463379e-01,-6.667444610595703125e+01,-1.826887054443359375e+02,-2.343106746673583984e+00,7.562299346923828125e+01,3.135697174072265625e+01
9.965410232543945312e-01,1.000000000000000000e+00,-5.187895298004150391e+00,1.323012948036193848e+00,4.664765357971191406e+00,-1.965829010009765625e+02,-8.578794097900390625e+01,-1.675751342773437500e+02,4.033146500587463379e-01,-6.667444610595703125e+01,-1.826887054443359375e+02,-2.343106746673583984e+00,7.562291717529296875e+01,3.135697174072265625e+01
9.995539784431457520e-01,1.000000000000000000e+00,-5.309239387512207031e+00,1.429396271705627441e+00,4.683348655700683594e+00,-1.964816131591796875e+02,-8.563754272460937500e+01,-1.674553833007812500e+02,4.033146500587463379e-01,-6.667444610595703125e+01,-1.826887054443359375e+02,-2.343034982681274414e+00,7.562291717529296875e+01,3.135697174072265625e+01
1.004551053047180176e+00,1.000000000000000000e+00,-5.309239387512207031e+00,1.429396271705627441e+00,4.683348655700683594e+00,-1.964816131591796875e+02,-8.563754272460937500e+01,-1.674553833007812500e+02,4.033146500587463379e-01,-6.667444610595703125e+01,-1.826887054443359375e+02,-2.343034982681274414e+00,7.562291717529296875e+01,3.135697174072265625e+01
1.007567048072814941e+00,1.000000000000000000e+00,-5.430640220642089844e+00,1.536141633987426758e+00,4.701362609863281250e+00,-1.963801727294921875e+02,-8.548628234863281250e+01,-1.673354187011718750e+02,4.033146500587463379e-01,-6.667444610595703125e+01,-1.826887054443359375e+02,-2.343106746673583984e+00,7.562299346923828125e+01,3.135697174072265625e+01
1.014112949371337891e+00,1.000000000000000000e+00,-5.430640220642089844e+00,1.536141633987426758e+00,4.701362609863281250e+00,-1.963801727294921875e+02,-8.548628234863281250e+01,-1.673354187011718750e+02,4.033146500587463379e-01,-6.667444610595703125e+01,-1.826887054443359375e+02,-2.343106746673583984e+00,7.562299346923828125e+01,3.135697174072265625e+01
1.015589952468872070e+00,1.000000000000000000e+00,-5.552127838134765625e+00,1.642570137977600098e+00,4.719498634338378906e+00,-1.962801818847656250e+02,-8.533619689941406250e+01,-1.672146301269531250e+02,4.033146500587463379e-01,-6.667444610595703125e+01,-1.826887054443359375e+02,-2.343106746673583984e+00,7.562291717529296875e+01,3.135697174072265625e+01
1.020594000816345215e+00,1.000000000000000000e+00,-5.552127838134765625e+00,1.642570137977600098e+00,4.719498634338378906e+00,-1.962801818847656250e+02,-8.533619689941406250e+01,-1.672146301269531250e+02,4.033146500587463379e-01,-6.667444610595703125e+01,-1.826887054443359375e+02,-2.343106746673583984e+00,7.562291717529296875e+01,3.135697174072265625e+01
1.023599028587341309e+00,1.000000000000000000e+00,-5.673385143280029297e+00,1.748908042907714844e+00,4.737797260284423828e+00,-1.961792602539062500e+02,-8.518520355224609375e+01,-1.670941162109375000e+02,4.033146500587463379e-01,-6.667444610595703125e+01,-1.826887054443359375e+02,-2.343106746673583984e+00,7.562291717529296875e+01,3.135697174072265625e+01
1.027552008628845215e+00,1.000000000000000000e+00,-5.673385143280029297e+00,1.748908042907714844e+00,4.737797260284423828e+00,-1.961792602539062500e+02,-8.518520355224609375e+01,-1.670941162109375000e+02,4.033146500587463379e-01,-6.667444610595703125e+01,-1.826887054443359375e+02,-2.343106746673583984e+00,7.562291717529296875e+01,3.135697174072265625e+01
1.031569004058837891e+00,1.000000000000000000e+00,-5.733784198760986328e+00,1.801930069923400879e+00,4.746864795684814453e+00,-1.961286926269531250e+02,-8.511045837402343750e+01,-1.670334320068359375e+02,4.033146500587463379e-01,-6.667453765869140625e+01,-1.826887054443359375e+02,-2.343106746673583984e+00,7.562291717529296875e+01,3.135697174072265625e+01
1.035596013069152832e+00,1.000000000000000000e+00,-5.794441699981689453e+00,1.855404496192932129e+00,4.755872249603271484e+00,-1.960780792236328125e+02,-8.503511810302734375e+01,-1.669740142822265625e+02,4.033146500587463379e-01,-6.667453765869140625e+01,-1.826887054443359375e+02,-2.343106746673583984e+00,7.562291717529296875e+01,3.135697174072265625e+01
1.039540052413940430e+00,1.000000000000000000e+00,-5.855271339416503906e+00,1.908720493316650391e+00,4.764960289001464844e+00,-1.960284118652343750e+02,-8.495935821533203125e+01,-1.669129180908203125e+02,4.033146500587463379e-01,-6.667444610595703125e+01,-1.826887054443359375e+02,-2.343106746673583984e+00,7.562291717529296875e+01,3.135697174072265625e+01
1.043566942214965820e+00,1.000000000000000000e+00,-5.916101455688476562e+00,1.962127208709716797e+00,4.774251937866210938e+00,-1.959775238037109375e+02,-8.488391113281250000e+01,-1.668527526855468750e+02,4.033146500587463379e-01,-6.667444610595703125e+01,-1.826887054443359375e+02,-2.343106746673583984e+00,7.562299346923828125e+01,3.135697174072265625e+01
1.047575950622558594e+00,1.000000000000000000e+00,-5.976787567138671875e+00,2.015239715576171875e+00,4.783543586730957031e+00,-1.959266357421875000e+02,-8.480932617187500000e+01,-1.667932281494140625e+02,4.033146500587463379e-01,-6.667444610595703125e+01,-1.826887054443359375e+02,-2.343106746673583984e+00,7.562291717529296875e+01,3.135697174072265625e+01
1.051552057266235352e+00,1.000000000000000000e+00,-6.037502765655517578e+00,2.068442583084106445e+00,4.792876243591308594e+00,-1.958762359619140625e+02,-8.473366546630859375e+01,-1.667327270507812500e+02,4.033146500587463379e-01,-6.667453765869140625e+01,-1.826887054443359375e+02,-2.343034982681274414e+00,7.562291717529296875e+01,3.135697174072265625e+01
1.055608987808227539e+00,1.000000000000000000e+00,-6.098332405090332031e+00,2.121690750122070312e+00,4.801964282989501953e+00,-1.958254547119140625e+02,-8.465854644775390625e+01,-1.666718902587890625e+02,4.033146500587463379e-01,-6.667444610595703125e+01,-1.826887054443359375e+02,-2.343106746673583984e+00,7.562291717529296875e+01,3.135697174072265625e+01
1.059558033943176270e+00,1.000000000000000000e+00,-6.159133434295654297e+00,2.174916267395019531e+00,4.811072826385498047e+00,-1.957751464843750000e+02,-8.458326721191406250e+01,-1.666125488281250000e+02,4.033146500587463379e-01,-6.667435455322265625e+01,-1.826887054443359375e+02,-2.343034982681274414e+00,7.562291717529296875e+01,3.135697174072265625e+01
1.063541054725646973e+00,1.000000000000000000e+00,-6.219790458679199219e+00,2.228368282318115234e+00,4.819937705993652344e+00,-1.957247467041015625e+02,-8.450825500488281250e+01,-1.665518493652343750e+02,4.033146500587463379e-01,-6.667444610595703125e+01,-1.826887054443359375e+02,-2.343178272247314453e+00,7.562291717529296875e+01,3.135697174072265625e+01
1.067610025405883789e+00,1.000000000000000000e+00,-6.280792713165283203e+00,2.281571149826049805e+00,4.829107284545898438e+00,-1.956739654541015625e+02,-8.443254089355468750e+01,-1.664913024902343750e+02,4.033146500587463379e-01,-6.667435455322265625e+01,-1.826887054443359375e+02,-2.343106746673583984e+00,7.562277984619140625e+01,3.135697174072265625e+01
1.071573019027709961e+00,1.000000000000000000e+00,-6.341593742370605469e+00,2.334728717803955078e+00,4.838378429412841797e+00,-1.956238708496093750e+02,-8.435742187500000000e+01,-1.664320983886718750e+02,4.033146500587463379e-01,-6.667444610595703125e+01,-1.826887054443359375e+02,-2.343034982681274414e+00,7.562291717529296875e+01,3.135697174072265625e+01
1.075564980506896973e+00,1.000000000000000000e+00,-6.402595996856689453e+00,2.387841224670410156e+00,4.847527980804443359e+00,-1.955731964111328125e+02,-8.428197479248046875e+01,-1.663720703125000000e+02,4.033146500587463379e-01,-6.667444610595703125e+01,-1.826887054443359375e+02,-2.343034982681274414e+00,7.562299346923828125e+01,3.135697174072265625e+01
1.079607963562011719e+00,1.000000000000000000e+00,-6.463282108306884766e+00,2.440885782241821289e+00,4.856494426727294922e+00,-1.955225219726562500e+02,-8.420738983154296875e+01,-1.663115844726562500e+02,4.033146500587463379e-01,-6.667444610595703125e+01,-1.826887054443359375e+02,-2.343106746673583984e+00,7.562291717529296875e+01,3.135697174072265625e+01
1.083554983139038086e+00,1.000000000000000000e+00,-6.523853778839111328e+00,2.494133949279785156e+00,4.865277290344238281e+00,-1.954725799560546875e+02,-8.413157653808593750e+01,-1.662521820068359375e+02,4.033146500587463379e-01,-6.667444610595703125e+01,-1.826887054443359375e+02,-2.343106746673583984e+00,7.562277984619140625e+01,3.135697174072265625e+01
1.087604045867919922e+00,1.000000000000000000e+00,-6.584568500518798828e+00,2.547337055206298828e+00,4.874223709106445312e+00,-1.954221801757812500e+02,-8.405660247802734375e+01,-1.661914062500000000e+02,4.033146500587463379e-01,-6.667444610595703125e+01,-1.826887054443359375e+02,-2.343106746673583984e+00,7.562291717529296875e+01,3.135697174072265625e+01
1.091544985771179199e+00,1.000000000000000000e+00,-6.645254611968994141e+00,2.600607872009277344e+00,4.883555889129638672e+00,-1.953716583251953125e+02,-8.398154449462890625e+01,-1.661308441162109375e+02,4.033146500587463379e-01,-6.667444610595703125e+01,-1.826887054443359375e+02,-2.343106746673583984e+00,7.562299346923828125e+01,3.135697174072265625e+01
1.095707058906555176e+00,1.000000000000000000e+00,-6.705883026123046875e+00,2.653901100158691406e+00,4.892929077148437500e+00,-1.953217926025390625e+02,-8.390625762939453125e+01,-1.660717010498046875e+02,4.033146500587463379e-01,-6.667444610595703125e+01,-1.826887054443359375e+02,-2.343034982681274414e+00,7.562299346923828125e+01,3.135697174072265625e+01
1.099550008773803711e+00,1.000000000000000000e+00,-6.766741752624511719e+00,2.707104206085205078e+00,4.902139186859130859e+00,-1.952709503173828125e+02,-8.383081054687500000e+01,-1.660114288330078125e+02,4.033146500587463379e-01,-6.667453765869140625e+01,-1.826887054443359375e+02,-2.343106746673583984e+00,7.562299346923828125e+01,3.135697174072265625e+01
1.104166984558105469e+00,1.000000000000000000e+00,-6.888143062591552734e+00,2.813781738281250000e+00,4.920376777648925781e+00,-1.951707763671875000e+02,-8.368131256103515625e+01,-1.658902282714843750e+02,4.033146500587463379e-01,-6.667453765869140625e+01,-1.826887054443359375e+02,-2.343106746673583984e+00,7.562291717529296875e+01,3.135697174072265625e+01
1.107591032981872559e+00,1.000000000000000000e+00,-6.888143062591552734e+00,2.813781738281250000e+00,4.920376777648925781e+00,-1.951707763671875000e+02,-8.368131256103515625e+01,-1.658902282714843750e+02,4.033146500587463379e-01,-6.667453765869140625e+01,-1.826887054443359375e+02,-2.343106746673583984e+00,7.562291717529296875e+01,3.135697174072265625e+01
