rpiRobotics/ARM-21-02-F-19-Robot-Motion-Program/data_performance_abb/curve_2/curve_pose_opt2/100L/grad_result/real/run_0.csv
timestamp,cmd_num,J1,J2,J3,J4,J5,J6
1.630000042496249080e-04,-1.000000000000000000e+00,7.916737556457519531e+00,-1.017432117462158203e+01,2.697745084762573242e+00,-2.074702606201171875e+02,-1.020308685302734375e+02,-1.805503997802734375e+02,4.033146500587463379e-01,-6.667444610595703125e+01,-1.826887054443359375e+02,-2.343106746673583984e+00,7.562291717529296875e+01,3.135697174072265625e+01
4.701000172644853592e-03,1.000000000000000000e+00,7.916737556457519531e+00,-1.017427635192871094e+01,2.697704553604125977e+00,-2.074702606201171875e+02,-1.020308685302734375e+02,-1.805502014160156250e+02,4.033146500587463379e-01,-6.667444610595703125e+01,-1.826887054443359375e+02,-2.343034982681274414e+00,7.562291717529296875e+01,3.135697174072265625e+01
8.526000194251537323e-03,1.000000000000000000e+00,7.916737556457519531e+00,-1.017427635192871094e+01,2.697704553604125977e+00,-2.074702606201171875e+02,-1.020308685302734375e+02,-1.805502014160156250e+02,4.033146500587463379e-01,-6.667444610595703125e+01,-1.826887054443359375e+02,-2.343034982681274414e+00,7.562291717529296875e+01,3.135697174072265625e+01
1.243900042027235031e-02,1.000000000000000000e+00,7.916737556457519531e+00,-1.017427635192871094e+01,2.697745084762573242e+00,-2.074703674316406250e+02,-1.020308685302734375e+02,-1.805502014160156250e+02,4.033146500587463379e-01,-6.667444610595703125e+01,-1.826887054443359375e+02,-2.343034982681274414e+00,7.562299346923828125e+01,3.135697174072265625e+01
3.448199853301048279e-02,1.000000000000000000e+00,7.916737556457519531e+00,-1.017427635192871094e+01,2.697745084762573242e+00,-2.074703674316406250e+02,-1.020308685302734375e+02,-1.805503997802734375e+02,4.033146500587463379e-01,-6.667444610595703125e+01,-1.826887054443359375e+02,-2.343106746673583984e+00,7.562291717529296875e+01,3.135697174072265625e+01
3.690699860453605652e-02,1.000000000000000000e+00,7.916881084442138672e+00,-1.017427635192871094e+01,2.697745084762573242e+00,-2.074702606201171875e+02,-1.020308685302734375e+02,-1.805502014160156250e+02,4.033146500587463379e-01,-6.667444610595703125e+01,-1.826887054443359375e+02,-2.343034982681274414e+00,7.562291717529296875e+01,3.135697174072265625e+01
3.839800134301185608e-02,1.000000000000000000e+00,7.916881084442138672e+00,-1.017427635192871094e+01,2.697745084762573242e+00,-2.074702606201171875e+02,-1.020308685302734375e+02,-1.805502014160156250e+02,4.033146500587463379e-01,-6.667444610595703125e+01,-1.826887054443359375e+02,-2.343034982681274414e+00,7.562291717529296875e+01,3.135697174072265625e+01
4.130800068378448486e-02,1.000000000000000000e+00,7.916822910308837891e+00,-1.017427635192871094e+01,2.697704553604125977e+00,-2.074702606201171875e+02,-1.020308685302734375e+02,-1.805503997802734375e+02,4.033146500587463379e-01,-6.667444610595703125e+01,-1.826887054443359375e+02,-2.343034982681274414e+00,7.562291717529296875e+01,3.135697174072265625e+01
4.263100028038024902e-02,1.000000000000000000e+00,7.916822910308837891e+00,-1.017427635192871094e+01,2.697704553604125977e+00,-2.074702606201171875e+02,-1.020308685302734375e+02,-1.805503997802734375e+02,4.033146500587463379e-01,-6.667444610595703125e+01,-1.826887054443359375e+02,-2.343034982681274414e+00,7.562291717529296875e+01,3.135697174072265625e+01
4.516899958252906799e-02,1.000000000000000000e+00,7.916737556457519531e+00,-1.017427635192871094e+01,2.697745084762573242e+00,-2.074702606201171875e+02,-1.020308685302734375e+02,-1.805503997802734375e+02,4.033146500587463379e-01,-6.667444610595703125e+01,-1.826887054443359375e+02,-2.343106746673583984e+00,7.562291717529296875e+01,3.135697174072265625e+01
4.644500091671943665e-02,1.000000000000000000e+00,7.916737556457519531e+00,-1.017427635192871094e+01,2.697745084762573242e+00,-2.074702606201171875e+02,-1.020308685302734375e+02,-1.805503997802734375e+02,4.033146500587463379e-01,-6.667444610595703125e+01,-1.826887054443359375e+02,-2.343106746673583984e+00,7.562291717529296875e+01,3.135697174072265625e+01
5.364000052213668823e-02,1.000000000000000000e+00,7.916679382324218750e+00,-1.017423152923583984e+01,2.697704553604125977e+00,-2.074702606201171875e+02,-1.020308685302734375e+02,-1.805502014160156250e+02,4.033146500587463379e-01,-6.667444610595703125e+01,-1.826887054443359375e+02,-2.343034982681274414e+00,7.562291717529296875e+01,3.135675048828125000e+01
5.491900071501731873e-02,1.000000000000000000e+00,7.916679382324218750e+00,-1.017423152923583984e+01,2.697704553604125977e+00,-2.074702606201171875e+02,-1.020308685302734375e+02,-1.805502014160156250e+02,4.033146500587463379e-01,-6.667444610595703125e+01,-1.826887054443359375e+02,-2.343034982681274414e+00,7.562291717529296875e+01,3.135675048828125000e+01
5.832500010728836060e-02,1.000000000000000000e+00,7.916449546813964844e+00,-1.017395973205566406e+01,2.697704553604125977e+00,-2.074702606201171875e+02,-1.020308685302734375e+02,-1.805502014160156250e+02,4.033146500587463379e-01,-6.667435455322265625e+01,-1.826887054443359375e+02,-2.343106746673583984e+00,7.562291717529296875e+01,3.135697174072265625e+01
6.098299846053123474e-02,1.000000000000000000e+00,7.915589332580566406e+00,-1.017325782775878906e+01,2.697745084762573242e+00,-2.074702606201171875e+02,-1.020307693481445312e+02,-1.805502014160156250e+02,4.033146500587463379e-01,-6.667444610595703125e+01,-1.826887054443359375e+02,-2.343034982681274414e+00,7.562291717529296875e+01,3.135697174072265625e+01
6.459300220012664795e-02,1.000000000000000000e+00,7.913981437683105469e+00,-1.017192268371582031e+01,2.697806119918823242e+00,-2.074702606201171875e+02,-1.020308685302734375e+02,-1.805502014160156250e+02,4.033146500587463379e-01,-6.667444610595703125e+01,-1.826887054443359375e+02,-2.343106746673583984e+00,7.562291717529296875e+01,3.135697174072265625e+01
6.603699922561645508e-02,1.000000000000000000e+00,7.913981437683105469e+00,-1.017192268371582031e+01,2.697806119918823242e+00,-2.074702606201171875e+02,-1.020308685302734375e+02,-1.805502014160156250e+02,4.033146500587463379e-01,-6.667444610595703125e+01,-1.826887054443359375e+02,-2.343106746673583984e+00,7.562291717529296875e+01,3.135697174072265625e+01
6.845699995756149292e-02,1.000000000000000000e+00,7.913981437683105469e+00,-1.017192268371582031e+01,2.697806119918823242e+00,-2.074702606201171875e+02,-1.020308685302734375e+02,-1.805502014160156250e+02,4.033146500587463379e-01,-6.667444610595703125e+01,-1.826887054443359375e+02,-2.343106746673583984e+00,7.562291717529296875e+01,3.135697174072265625e+01
6.980200111865997314e-02,1.000000000000000000e+00,7.911339759826660156e+00,-1.016988658905029297e+01,2.697806119918823242e+00,-2.074700927734375000e+02,-1.020306015014648438e+02,-1.805503997802734375e+02,4.033146500587463379e-01,-6.667444610595703125e+01,-1.826887054443359375e+02,-2.343106746673583984e+00,7.562291717529296875e+01,3.135697174072265625e+01
7.319600135087966919e-02,1.000000000000000000e+00,7.911339759826660156e+00,-1.016988658905029297e+01,2.697806119918823242e+00,-2.074700927734375000e+02,-1.020306015014648438e+02,-1.805503997802734375e+02,4.033146500587463379e-01,-6.667444610595703125e+01,-1.826887054443359375e+02,-2.343106746673583984e+00,7.562291717529296875e+01,3.135697174072265625e+01
7.644999772310256958e-02,1.000000000000000000e+00,7.907608032226562500e+00,-1.016692161560058594e+01,2.697846889495849609e+00,-2.074700927734375000e+02,-1.020300674438476562e+02,-1.805502014160156250e+02,4.033146500587463379e-01,-6.667453765869140625e+01,-1.826887054443359375e+02,-2.343034982681274414e+00,7.562277984619140625e+01,3.135697174072265625e+01
7.921300083398818970e-02,1.000000000000000000e+00,7.902929306030273438e+00,-1.016280364990234375e+01,2.698009490966796875e+00,-2.074700927734375000e+02,-1.020290069580078125e+02,-1.805502014160156250e+02,4.033146500587463379e-01,-6.667444610595703125e+01,-1.826887054443359375e+02,-2.342891216278076172e+00,7.562291717529296875e+01,3.135697174072265625e+01
8.320999890565872192e-02,1.000000000000000000e+00,7.896872043609619141e+00,-1.015737152099609375e+01,2.698293924331665039e+00,-2.074693603515625000e+02,-1.020268173217773438e+02,-1.805497283935546875e+02,4.033146500587463379e-01,-6.667444610595703125e+01,-1.826887054443359375e+02,-2.343034982681274414e+00,7.562291717529296875e+01,3.135697174072265625e+01
8.726300299167633057e-02,1.000000000000000000e+00,7.889752388000488281e+00,-1.015022087097167969e+01,2.698761701583862305e+00,-2.074677886962890625e+02,-1.020237274169921875e+02,-1.805483703613281250e+02,4.033146500587463379e-01,-6.667444610595703125e+01,-1.826887054443359375e+02,-2.343034982681274414e+00,7.562277984619140625e+01,3.135697174072265625e+01
9.120699763298034668e-02,1.000000000000000000e+00,7.880825042724609375e+00,-1.014089679718017578e+01,2.699514150619506836e+00,-2.074645690917968750e+02,-1.020189819335937500e+02,-1.805447692871093750e+02,4.033146500587463379e-01,-6.667444610595703125e+01,-1.826887054443359375e+02,-2.343034982681274414e+00,7.562291717529296875e+01,3.135697174072265625e+01
9.522300213575363159e-02,1.000000000000000000e+00,7.869830131530761719e+00,-1.012906169891357422e+01,2.700510263442993164e+00,-2.074601440429687500e+02,-1.020121078491210938e+02,-1.805390777587890625e+02,4.033146500587463379e-01,-6.667453765869140625e+01,-1.826887054443359375e+02,-2.343034982681274414e+00,7.562291717529296875e+01,3.135697174072265625e+01
9.921599924564361572e-02,1.000000000000000000e+00,7.856108665466308594e+00,-1.011437511444091797e+01,2.701709747314453125e+00,-2.074544067382812500e+02,-1.020028228759765625e+02,-1.805319519042968750e+02,4.033146500587463379e-01,-6.667444610595703125e+01,-1.826887054443359375e+02,-2.343106746673583984e+00,7.562291717529296875e+01,3.135697174072265625e+01
1.033079996705055237e-01,1.000000000000000000e+00,7.839889526367187500e+00,-1.009737968444824219e+01,2.703315973281860352e+00,-2.074465637207031250e+02,-1.019906158447265625e+02,-1.805225982666015625e+02,4.033146500587463379e-01,-6.667444610595703125e+01,-1.826887054443359375e+02,-2.343106746673583984e+00,7.562291717529296875e+01,3.135697174072265625e+01
1.072259992361068726e-01,1.000000000000000000e+00,7.821287155151367188e+00,-1.007827949523925781e+01,2.705572843551635742e+00,-2.074366607666015625e+02,-1.019748916625976562e+02,-1.805103912353515625e+02,4.033146500587463379e-01,-6.667444610595703125e+01,-1.826887054443359375e+02,-2.343106746673583984e+00,7.562291717529296875e+01,3.135697174072265625e+01
1.127910017967224121e-01,1.000000000000000000e+00,7.800446033477783203e+00,-1.005746078491210938e+01,2.708215951919555664e+00,-2.074237976074218750e+02,-1.019553756713867188e+02,-1.804947357177734375e+02,4.033146500587463379e-01,-6.667435455322265625e+01,-1.826887054443359375e+02,-2.343034982681274414e+00,7.562291717529296875e+01,3.135697174072265625e+01
1.167310029268264771e-01,1.000000000000000000e+00,7.777164459228515625e+00,-1.003546428680419922e+01,2.711225032806396484e+00,-2.074079437255859375e+02,-1.019318695068359375e+02,-1.804758605957031250e+02,4.033146500587463379e-01,-6.667444610595703125e+01,-1.826887054443359375e+02,-2.343034982681274414e+00,7.562291717529296875e+01,3.135697174072265625e+01
1.209179982542991638e-01,1.000000000000000000e+00,7.751500606536865234e+00,-1.001249504089355469e+01,2.714539289474487305e+00,-2.073887176513671875e+02,-1.019047775268554688e+02,-1.804540405273437500e+02,4.033146500587463379e-01,-6.667453765869140625e+01,-1.826887054443359375e+02,-2.343034982681274414e+00,7.562291717529296875e+01,3.135697174072265625e+01
1.257590055465698242e-01,1.000000000000000000e+00,7.723368167877197266e+00,-9.987918853759765625e+00,2.718097209930419922e+00,-2.073661346435546875e+02,-1.018738555908203125e+02,-1.804285278320312500e+02,4.033146500587463379e-01,-6.667444610595703125e+01,-1.826887054443359375e+02,-2.343034982681274414e+00,7.562291717529296875e+01,3.135697174072265625e+01
1.272059977054595947e-01,1.000000000000000000e+00,7.692679882049560547e+00,-9.961351394653320312e+00,2.722204208374023438e+00,-2.073409881591796875e+02,-1.018377609252929688e+02,-1.803992462158203125e+02,4.033146500587463379e-01,-6.667453765869140625e+01,-1.826887054443359375e+02,-2.343034982681274414e+00,7.562291717529296875e+01,3.135697174072265625e+01
1.312739998102188110e-01,1.000000000000000000e+00,7.659581661224365234e+00,-9.933041572570800781e+00,2.726778984069824219e+00,-2.073137664794921875e+02,-1.017948379516601562e+02,-1.803656616210937500e+02,4.033146500587463379e-01,-6.667444610595703125e+01,-1.826887054443359375e+02,-2.343034982681274414e+00,7.562277984619140625e+01,3.135697174072265625e+01
1.352200061082839966e-01,1.000000000000000000e+00,7.623812675476074219e+00,-9.902989387512207031e+00,2.731943130493164062e+00,-2.072837982177734375e+02,-1.017473907470703125e+02,-1.803280944824218750e+02,4.033146500587463379e-01,-6.667444610595703125e+01,-1.826887054443359375e+02,-2.343034982681274414e+00,7.562277984619140625e+01,3.135697174072265625e+01
1.392019987106323242e-01,1.000000000000000000e+00,7.585489273071289062e+00,-9.871601104736328125e+00,2.737676620483398438e+00,-2.072488098144531250e+02,-1.016980743408203125e+02,-1.802857818603515625e+02,4.033146500587463379e-01,-6.667444610595703125e+01,-1.826887054443359375e+02,-2.343034982681274414e+00,7.562291717529296875e+01,3.135697174072265625e+01
1.432709991931915283e-01,1.000000000000000000e+00,7.544954776763916016e+00,-9.838312149047851562e+00,2.743715286254882812e+00,-2.072092590332031250e+02,-1.016433181762695312e+02,-1.802402038574218750e+02,4.033146500587463379e-01,-6.667444610595703125e+01,-1.826887054443359375e+02,-2.343106746673583984e+00,7.562299346923828125e+01,3.135697174072265625e+01
1.472090035676956177e-01,1.000000000000000000e+00,7.502613067626953125e+00,-9.803394317626953125e+00,2.750241756439208984e+00,-2.071683349609375000e+02,-1.015832824707031250e+02,-1.801933441162109375e+02,4.033146500587463379e-01,-6.667444610595703125e+01,-1.826887054443359375e+02,-2.343034982681274414e+00,7.562291717529296875e+01,3.135697174072265625e+01
1.512050032615661621e-01,1.000000000000000000e+00,7.458461761474609375e+00,-9.766846656799316406e+00,2.757012367248535156e+00,-2.071272583007812500e+02,-1.015213317871093750e+02,-1.801442413330078125e+02,4.033146500587463379e-01,-6.667444610595703125e+01,-1.826887054443359375e+02,-2.342891216278076172e+00,7.562277984619140625e+01,3.135697174072265625e+01
1.569599956274032593e-01,1.000000000000000000e+00,7.412300586700439453e+00,-9.728511810302734375e+00,2.764168977737426758e+00,-2.070832061767578125e+02,-1.014556961059570312e+02,-1.800904693603515625e+02,4.033146500587463379e-01,-6.667444610595703125e+01,-1.826887054443359375e+02,-2.343106746673583984e+00,7.562299346923828125e+01,3.135697174072265625e+01
1.592029929161071777e-01,1.000000000000000000e+00,7.363527774810791016e+00,-9.687529563903808594e+00,2.772078275680541992e+00,-2.070359649658203125e+02,-1.013875579833984375e+02,-1.800339813232421875e+02,4.033146500587463379e-01,-6.667444610595703125e+01,-1.826887054443359375e+02,-2.343034982681274414e+00,7.562291717529296875e+01,3.135697174072265625e+01
1.632439941167831421e-01,1.000000000000000000e+00,7.312717437744140625e+00,-9.643831253051757812e+00,2.780373573303222656e+00,-2.069882507324218750e+02,-1.013169708251953125e+02,-1.799778289794921875e+02,4.033146500587463379e-01,-6.667444610595703125e+01,-1.826887054443359375e+02,-2.343034982681274414e+00,7.562299346923828125e+01,3.135697174072265625e+01
1.672610044479370117e-01,1.000000000000000000e+00,7.259868144989013672e+00,-9.597937583923339844e+00,2.788913011550903320e+00,-2.069401397705078125e+02,-1.012453613281250000e+02,-1.799209899902343750e+02,4.033146500587463379e-01,-6.667444610595703125e+01,-1.826887054443359375e+02,-2.343034982681274414e+00,7.562291717529296875e+01,3.135697174072265625e+01
1.712020039558410645e-01,1.000000000000000000e+00,7.205497264862060547e+00,-9.550052642822265625e+00,2.797574281692504883e+00,-2.068903198242187500e+02,-1.011727981567382812e+02,-1.798607788085937500e+02,4.033146500587463379e-01,-6.667444610595703125e+01,-1.826887054443359375e+02,-2.343106746673583984e+00,7.562291717529296875e+01,3.135697174072265625e+01
1.752160042524337769e-01,1.000000000000000000e+00,7.149748325347900391e+00,-9.500697135925292969e+00,2.806093215942382812e+00,-2.068403778076171875e+02,-1.010984802246093750e+02,-1.798014373779296875e+02,4.033146500587463379e-01,-6.667444610595703125e+01,-1.826887054443359375e+02,-2.343034982681274414e+00,7.562291717529296875e+01,3.135697174072265625e+01
1.793510019779205322e-01,1.000000000000000000e+00,7.092650413513183594e+00,-9.450300216674804688e+00,2.814632654190063477e+00,-2.067898101806640625e+02,-1.010232543945312500e+02,-1.797426300048828125e+02,4.033146500587463379e-01,-6.667444610595703125e+01,-1.826887054443359375e+02,-2.343106746673583984e+00,7.562291717529296875e+01,3.135697174072265625e+01
1.832830011844635010e-01,1.000000000000000000e+00,7.034605503082275391e+00,-9.399021148681640625e+00,2.823354959487915039e+00,-2.067389831542968750e+02,-1.009477539062500000e+02,-1.796809997558593750e+02,4.033146500587463379e-01,-6.667453765869140625e+01,-1.826887054443359375e+02,-2.343034982681274414e+00,7.562277984619140625e+01,3.135697174072265625e+01
1.873369961977005005e-01,1.000000000000000000e+00,6.975498199462890625e+00,-9.346949577331542969e+00,2.832443237304687500e+00,-2.066885681152343750e+02,-1.008724136352539062e+02,-1.796202239990234375e+02,4.033146500587463379e-01,-6.667444610595703125e+01,-1.826887054443359375e+02,-2.343034982681274414e+00,7.562291717529296875e+01,3.135697174072265625e+01
1.912530064582824707e-01,1.000000000000000000e+00,6.915787696838378906e+00,-9.294198989868164062e+00,2.841511249542236328e+00,-2.066378479003906250e+02,-1.007965545654296875e+02,-1.795595245361328125e+02,4.033146500587463379e-01,-6.667444610595703125e+01,-1.826887054443359375e+02,-2.343034982681274414e+00,7.562291717529296875e+01,3.135697174072265625e+01
1.952169984579086304e-01,1.000000000000000000e+00,6.855330944061279297e+00,-9.240905761718750000e+00,2.850701093673706055e+00,-2.065863342285156250e+02,-1.007201995849609375e+02,-1.794981536865234375e+02,4.033146500587463379e-01,-6.667444610595703125e+01,-1.826887054443359375e+02,-2.343106746673583984e+00,7.562291717529296875e+01,3.135697174072265625e+01
1.992229968309402466e-01,1.000000000000000000e+00,6.794300556182861328e+00,-9.187250137329101562e+00,2.859809875488281250e+00,-2.065356597900390625e+02,-1.006437988281250000e+02,-1.794372558593750000e+02,4.033146500587463379e-01,-6.667444610595703125e+01,-1.826887054443359375e+02,-2.343034982681274414e+00,7.562291717529296875e+01,3.135697174072265625e+01
2.055989950895309448e-01,1.000000000000000000e+00,6.732925415039062500e+00,-9.133141517639160156e+00,2.868877887725830078e+00,-2.064844055175781250e+02,-1.005677108764648438e+02,-1.793769073486328125e+02,4.033146500587463379e-01,-6.667444610595703125e+01,-1.826887054443359375e+02,-2.343034982681274414e+00,7.562277984619140625e+01,3.135697174072265625e+01
2.072750031948089600e-01,1.000000000000000000e+00,6.671406745910644531e+00,-9.078806877136230469e+00,2.878047466278076172e+00,-2.064334869384765625e+02,-1.004914779663085938e+02,-1.793148498535156250e+02,4.033146500587463379e-01,-6.667444610595703125e+01,-1.826885528564453125e+02,-2.343106746673583984e+00,7.562291717529296875e+01,3.135697174072265625e+01
2.122309952974319458e-01,1.000000000000000000e+00,6.609859466552734375e+00,-9.024676322937011719e+00,2.887542247772216797e+00,-2.063827514648437500e+02,-1.004148635864257812e+02,-1.792536773681640625e+02,4.033146500587463379e-01,-6.667453765869140625e+01,-1.826887054443359375e+02,-2.343034982681274414e+00,7.562291717529296875e+01,3.135697174072265625e+01
2.152529954910278320e-01,1.000000000000000000e+00,6.548283100128173828e+00,-8.970682144165039062e+00,2.896976232528686523e+00,-2.063312377929687500e+02,-1.003388824462890625e+02,-1.791931152343750000e+02,4.033146500587463379e-01,-6.667444610595703125e+01,-1.826887054443359375e+02,-2.343034982681274414e+00,7.562291717529296875e+01,3.135697174072265625e+01
2.202109992504119873e-01,1.000000000000000000e+00,6.486907958984375000e+00,-8.916618347167968750e+00,2.906430482864379883e+00,-2.062798309326171875e+02,-1.002625885009765625e+02,-1.791313934326171875e+02,4.033146500587463379e-01,-6.667444610595703125e+01,-1.826887054443359375e+02,-2.343034982681274414e+00,7.562299346923828125e+01,3.135697174072265625e+01
2.237010002136230469e-01,1.000000000000000000e+00,6.425532817840576172e+00,-8.862578392028808594e+00,2.915803670883178711e+00,-2.062286834716796875e+02,-1.001860733032226562e+02,-1.790702972412109375e+02,4.033146500587463379e-01,-6.667453765869140625e+01,-1.826887054443359375e+02,-2.342891216278076172e+00,7.562291717529296875e+01,3.135697174072265625e+01
2.282969951629638672e-01,1.000000000000000000e+00,6.364099979400634766e+00,-8.808424949645996094e+00,2.924830913543701172e+00,-2.061771697998046875e+02,-1.001094055175781250e+02,-1.790095977783203125e+02,4.033146500587463379e-01,-6.667444610595703125e+01,-1.826887054443359375e+02,-2.343034982681274414e+00,7.562291717529296875e+01,3.135697174072265625e+01
2.312729954719543457e-01,1.000000000000000000e+00,6.302667617797851562e+00,-8.754452705383300781e+00,2.933837890625000000e+00,-2.061263885498046875e+02,-1.000338134765625000e+02,-1.789487762451171875e+02,4.033146500587463379e-01,-6.667444610595703125e+01,-1.826887054443359375e+02,-2.343034982681274414e+00,7.562299346923828125e+01,3.135697174072265625e+01
2.362139970064163208e-01,1.000000000000000000e+00,6.302667617797851562e+00,-8.754452705383300781e+00,2.933837890625000000e+00,-2.061263885498046875e+02,-1.000338134765625000e+02,-1.789487762451171875e+02,4.033146500587463379e-01,-6.667444610595703125e+01,-1.826887054443359375e+02,-2.343034982681274414e+00,7.562299346923828125e+01,3.135697174072265625e+01
2.392019927501678467e-01,1.000000000000000000e+00,6.180146694183349609e+00,-8.646846771240234375e+00,2.952400922775268555e+00,-2.060236206054687500e+02,-9.988116455078125000e+01,-1.788272552490234375e+02,4.033146500587463379e-01,-6.667444610595703125e+01,-1.826887054443359375e+02,-2.343034982681274414e+00,7.562291717529296875e+01,3.135697174072265625e+01
2.433679997920989990e-01,1.000000000000000000e+00,6.180146694183349609e+00,-8.646846771240234375e+00,2.952400922775268555e+00,-2.060236206054687500e+02,-9.988116455078125000e+01,-1.788272552490234375e+02,4.033146500587463379e-01,-6.667444610595703125e+01,-1.826887054443359375e+02,-2.343034982681274414e+00,7.562291717529296875e+01,3.135697174072265625e+01
2.509469985961914062e-01,1.000000000000000000e+00,6.118915081024169922e+00,-8.593327522277832031e+00,2.961692571640014648e+00,-2.059729003906250000e+02,-9.980422973632812500e+01,-1.787655944824218750e+02,4.033146500587463379e-01,-6.667444610595703125e+01,-1.826887054443359375e+02,-2.343034982681274414e+00,7.562291717529296875e+01,3.135697174072265625e+01
2.524900138378143311e-01,1.000000000000000000e+00,5.996825218200683594e+00,-8.485609054565429688e+00,2.980011463165283203e+00,-2.058703460693359375e+02,-9.965217590332031250e+01,-1.786449584960937500e+02,4.033146500587463379e-01,-6.667444610595703125e+01,-1.826887054443359375e+02,-2.343034982681274414e+00,7.562291717529296875e+01,3.135697174072265625e+01
2.552770078182220459e-01,1.000000000000000000e+00,5.935593605041503906e+00,-8.431817054748535156e+00,2.989201307296752930e+00,-2.058199310302734375e+02,-9.957539367675781250e+01,-1.785837860107421875e+02,4.033146500587463379e-01,-6.667444610595703125e+01,-1.826887054443359375e+02,-2.343106746673583984e+00,7.562299346923828125e+01,3.135697174072265625e+01
2.592560052871704102e-01,1.000000000000000000e+00,5.935593605041503906e+00,-8.431817054748535156e+00,2.989201307296752930e+00,-2.058199310302734375e+02,-9.957539367675781250e+01,-1.785837860107421875e+02,4.033146500587463379e-01,-6.667444610595703125e+01,-1.826887054443359375e+02,-2.343106746673583984e+00,7.562299346923828125e+01,3.135697174072265625e+01
2.632499933242797852e-01,1.000000000000000000e+00,5.874333381652832031e+00,-8.378252029418945312e+00,2.998533725738525391e+00,-2.057685241699218750e+02,-9.949867248535156250e+01,-1.785228118896484375e+02,4.033146500587463379e-01,-6.667444610595703125e+01,-1.826887054443359375e+02,-2.343106746673583984e+00,7.562291717529296875e+01,3.135697174072265625e+01
2.673220038414001465e-01,1.000000000000000000e+00,5.812958240509033203e+00,-8.324665069580078125e+00,3.007886409759521484e+00,-2.057171630859375000e+02,-9.942317962646484375e+01,-1.784624633789062500e+02,4.033146500587463379e-01,-6.667444610595703125e+01,-1.826887054443359375e+02,-2.343034982681274414e+00,7.562299346923828125e+01,3.135697174072265625e+01
2.712689936161041260e-01,1.000000000000000000e+00,5.751726150512695312e+00,-8.271100044250488281e+00,3.017117023468017578e+00,-2.056668090820312500e+02,-9.934677886962890625e+01,-1.784012298583984375e+02,4.033146500587463379e-01,-6.667444610595703125e+01,-1.826887054443359375e+02,-2.343034982681274414e+00,7.562291717529296875e+01,3.135697174072265625e+01
2.752630114555358887e-01,1.000000000000000000e+00,5.690752983093261719e+00,-8.217715263366699219e+00,3.026225805282592773e+00,-2.056149749755859375e+02,-9.927010345458984375e+01,-1.783401947021484375e+02,4.033146500587463379e-01,-6.667444610595703125e+01,-1.826887054443359375e+02,-2.342891216278076172e+00,7.562291717529296875e+01,3.135697174072265625e+01
2.793129980564117432e-01,1.000000000000000000e+00,5.629607677459716797e+00,-8.164105415344238281e+00,3.035130977630615234e+00,-2.055642089843750000e+02,-9.919387054443359375e+01,-1.782804412841796875e+02,4.033146500587463379e-01,-6.667444610595703125e+01,-1.826887054443359375e+02,-2.343034982681274414e+00,7.562299346923828125e+01,3.135697174072265625e+01
2.832539975643157959e-01,1.000000000000000000e+00,5.568290233612060547e+00,-8.110518455505371094e+00,3.044219255447387695e+00,-2.055135803222656250e+02,-9.911804962158203125e+01,-1.782189331054687500e+02,4.033146500587463379e-01,-6.667444610595703125e+01,-1.826887054443359375e+02,-2.343034982681274414e+00,7.562299346923828125e+01,3.135697174072265625e+01
2.872579991817474365e-01,1.000000000000000000e+00,5.507287979125976562e+00,-8.056975364685058594e+00,3.053327798843383789e+00,-2.054621124267578125e+02,-9.904228973388671875e+01,-1.781574096679687500e+02,4.033146500587463379e-01,-6.667435455322265625e+01,-1.826887054443359375e+02,-2.343034982681274414e+00,7.562291717529296875e+01,3.135719108581542969e+01
2.913320064544677734e-01,1.000000000000000000e+00,5.445970058441162109e+00,-8.003523826599121094e+00,3.062517881393432617e+00,-2.054109191894531250e+02,-9.896561431884765625e+01,-1.780977478027343750e+02,4.033146500587463379e-01,-6.667444610595703125e+01,-1.826887054443359375e+02,-2.342891216278076172e+00,7.562291717529296875e+01,3.135697174072265625e+01
2.952710092067718506e-01,1.000000000000000000e+00,5.384365558624267578e+00,-7.950094223022460938e+00,3.071809530258178711e+00,-2.053598785400390625e+02,-9.888921356201171875e+01,-1.780362396240234375e+02,4.033146500587463379e-01,-6.667444610595703125e+01,-1.826887054443359375e+02,-2.342891216278076172e+00,7.562291717529296875e+01,3.135697174072265625e+01
2.992630004882812500e-01,1.000000000000000000e+00,5.323219776153564453e+00,-7.896597862243652344e+00,3.081060647964477539e+00,-2.053081512451171875e+02,-9.881330108642578125e+01,-1.779748535156250000e+02,4.033146500587463379e-01,-6.667444610595703125e+01,-1.826887054443359375e+02,-2.343034982681274414e+00,7.562291717529296875e+01,3.135675048828125000e+01
3.032929897308349609e-01,1.000000000000000000e+00,5.261816024780273438e+00,-7.843009948730468750e+00,3.090148687362670898e+00,-2.052573699951171875e+02,-9.873731994628906250e+01,-1.779146423339843750e+02,4.033146500587463379e-01,-6.667444610595703125e+01,-1.826887054443359375e+02,-2.343034982681274414e+00,7.562291717529296875e+01,3.135697174072265625e+01
3.073480129241943359e-01,1.000000000000000000e+00,5.200498104095458984e+00,-7.789309024810791016e+00,3.099277734756469727e+00,-2.052065887451171875e+02,-9.866081237792968750e+01,-1.778542022705078125e+02,4.033146500587463379e-01,-6.667444610595703125e+01,-1.826887054443359375e+02,-2.343034982681274414e+00,7.562291717529296875e+01,3.135697174072265625e+01
3.113459944725036621e-01,1.000000000000000000e+00,5.138922214508056641e+00,-7.735404491424560547e+00,3.108711719512939453e+00,-2.051552429199218750e+02,-9.858462524414062500e+01,-1.777931060791015625e+02,4.033146500587463379e-01,-6.667444610595703125e+01,-1.826887054443359375e+02,-2.343034982681274414e+00,7.562291717529296875e+01,3.135697174072265625e+01
3.152480125427246094e-01,1.000000000000000000e+00,5.077575683593750000e+00,-7.681568145751953125e+00,3.118165969848632812e+00,-2.051042480468750000e+02,-9.850896453857421875e+01,-1.777330932617187500e+02,4.033146500587463379e-01,-6.667444610595703125e+01,-1.826887054443359375e+02,-2.343034982681274414e+00,7.562291717529296875e+01,3.135697174072265625e+01
3.192679882049560547e-01,1.000000000000000000e+00,5.016085624694824219e+00,-7.627641201019287109e+00,3.127538919448852539e+00,-2.050530395507812500e+02,-9.843288421630859375e+01,-1.776719207763671875e+02,4.033146500587463379e-01,-6.667444610595703125e+01,-1.826887054443359375e+02,-2.343034982681274414e+00,7.562291717529296875e+01,3.135697174072265625e+01
3.233299851417541504e-01,1.000000000000000000e+00,4.954394817352294922e+00,-7.573646068572998047e+00,3.136850833892822266e+00,-2.050021209716796875e+02,-9.835659027099609375e+01,-1.776103363037109375e+02,4.033146500587463379e-01,-6.667435455322265625e+01,-1.826887054443359375e+02,-2.343034982681274414e+00,7.562291717529296875e+01,3.135697174072265625e+01
3.272719979286193848e-01,1.000000000000000000e+00,4.892732143402099609e+00,-7.519741058349609375e+00,3.146020650863647461e+00,-2.049519195556640625e+02,-9.828072357177734375e+01,-1.775506591796875000e+02,4.033146500587463379e-01,-6.667444610595703125e+01,-1.826887054443359375e+02,-2.343106746673583984e+00,7.562299346923828125e+01,3.135697174072265625e+01
3.312439918518066406e-01,1.000000000000000000e+00,4.831127643585205078e+00,-7.465904712677001953e+00,3.155190229415893555e+00,-2.049005584716796875e+02,-9.820479583740234375e+01,-1.774901733398437500e+02,4.033146500587463379e-01,-6.667444610595703125e+01,-1.826887054443359375e+02,-2.343034982681274414e+00,7.562291717529296875e+01,3.135697174072265625e+01
3.353689908981323242e-01,1.000000000000000000e+00,4.769608497619628906e+00,-7.411909580230712891e+00,3.164563179016113281e+00,-2.048495178222656250e+02,-9.812892913818359375e+01,-1.774291381835937500e+02,4.033146500587463379e-01,-6.667444610595703125e+01,-1.826887054443359375e+02,-2.343106746673583984e+00,7.562277984619140625e+01,3.135697174072265625e+01
3.393020033836364746e-01,1.000000000000000000e+00,4.708061218261718750e+00,-7.357960700988769531e+00,3.173854827880859375e+00,-2.047988891601562500e+02,-9.805310821533203125e+01,-1.773691101074218750e+02,4.033146500587463379e-01,-6.667444610595703125e+01,-1.826887054443359375e+02,-2.343106746673583984e+00,7.562291717529296875e+01,3.135697174072265625e+01
3.434430062770843506e-01,1.000000000000000000e+00,4.646800994873046875e+00,-7.304010391235351562e+00,3.183166742324829102e+00,-2.047476348876953125e+02,-9.797719573974609375e+01,-1.773084259033203125e+02,4.033146500587463379e-01,-6.667444610595703125e+01,-1.826887054443359375e+02,-2.343106746673583984e+00,7.562291717529296875e+01,3.135697174072265625e+01
3.475500047206878662e-01,1.000000000000000000e+00,4.585253715515136719e+00,-7.250219345092773438e+00,3.192458391189575195e+00,-2.046968688964843750e+02,-9.790084075927734375e+01,-1.772469787597656250e+02,4.033146500587463379e-01,-6.667444610595703125e+01,-1.826887054443359375e+02,-2.343106746673583984e+00,7.562277984619140625e+01,3.135697174072265625e+01
3.514049947261810303e-01,1.000000000000000000e+00,4.523677349090576172e+00,-7.196382045745849609e+00,3.201628208160400391e+00,-2.046462554931640625e+02,-9.782476043701171875e+01,-1.771869049072265625e+02,4.033146500587463379e-01,-6.667435455322265625e+01,-1.826887054443359375e+02,-2.343034982681274414e+00,7.562299346923828125e+01,3.135697174072265625e+01
3.552500009536743164e-01,1.000000000000000000e+00,4.462474822998046875e+00,-7.142568588256835938e+00,3.210919857025146484e+00,-2.045948333740234375e+02,-9.774893951416015625e+01,-1.771261291503906250e+02,4.033146500587463379e-01,-6.667444610595703125e+01,-1.826887054443359375e+02,-2.343034982681274414e+00,7.562299346923828125e+01,3.135697174072265625e+01
3.593269884586334229e-01,1.000000000000000000e+00,4.401271343231201172e+00,-7.088845252990722656e+00,3.220292806625366211e+00,-2.045437469482421875e+02,-9.767366027832031250e+01,-1.770642089843750000e+02,4.033146500587463379e-01,-6.667435455322265625e+01,-1.826887054443359375e+02,-2.343106746673583984e+00,7.562291717529296875e+01,3.135697174072265625e+01
3.632589876651763916e-01,1.000000000000000000e+00,4.340212345123291016e+00,-7.034850120544433594e+00,3.229726791381835938e+00,-2.044927520751953125e+02,-9.759757995605468750e+01,-1.770043334960937500e+02,4.033146500587463379e-01,-6.667444610595703125e+01,-1.826887054443359375e+02,-2.343034982681274414e+00,7.562291717529296875e+01,3.135697174072265625e+01
3.675540089607238770e-01,1.000000000000000000e+00,4.279037952423095703e+00,-6.980990886688232422e+00,3.239079236984252930e+00,-2.044414062500000000e+02,-9.752107238769531250e+01,-1.769435729980468750e+02,4.033146500587463379e-01,-6.667444610595703125e+01,-1.826887054443359375e+02,-2.343034982681274414e+00,7.562299346923828125e+01,3.135697174072265625e+01
3.724389970302581787e-01,1.000000000000000000e+00,4.217835426330566406e+00,-6.927131652832031250e+00,3.248350381851196289e+00,-2.043908386230468750e+02,-9.744547271728515625e+01,-1.768819122314453125e+02,4.033146500587463379e-01,-6.667444610595703125e+01,-1.826887054443359375e+02,-2.343034982681274414e+00,7.562291717529296875e+01,3.135697174072265625e+01
3.762399852275848389e-01,1.000000000000000000e+00,4.156948089599609375e+00,-6.873543739318847656e+00,3.257377862930297852e+00,-2.043398437500000000e+02,-9.737002563476562500e+01,-1.768214263916015625e+02,4.033146500587463379e-01,-6.667444610595703125e+01,-1.826887054443359375e+02,-2.343034982681274414e+00,7.562299346923828125e+01,3.135697174072265625e+01
3.793320059776306152e-01,1.000000000000000000e+00,4.096003532409667969e+00,-6.819730281829833984e+00,3.266567945480346680e+00,-2.042883758544921875e+02,-9.729426574707031250e+01,-1.767614746093750000e+02,4.033146500587463379e-01,-6.667444610595703125e+01,-1.826887054443359375e+02,-2.343034982681274414e+00,7.562299346923828125e+01,3.135697174072265625e+01
3.854160010814666748e-01,1.000000000000000000e+00,3.973655223846435547e+00,-6.712419033050537109e+00,3.285273075103759766e+00,-2.041865692138671875e+02,-9.714157104492187500e+01,-1.766396789550781250e+02,4.033146500587463379e-01,-6.667444610595703125e+01,-1.826887054443359375e+02,-2.343178272247314453e+00,7.562291717529296875e+01,3.135697174072265625e+01
3.881930112838745117e-01,1.000000000000000000e+00,3.912423372268676758e+00,-6.658740997314453125e+00,3.294483184814453125e+00,-2.041357727050781250e+02,-9.706612396240234375e+01,-1.765788421630859375e+02,4.033146500587463379e-01,-6.667444610595703125e+01,-1.826887054443359375e+02,-2.343034982681274414e+00,7.562299346923828125e+01,3.135697174072265625e+01
3.912470042705535889e-01,1.000000000000000000e+00,3.912423372268676758e+00,-6.658740997314453125e+00,3.294483184814453125e+00,-2.041357727050781250e+02,-9.706612396240234375e+01,-1.765788421630859375e+02,4.033146500587463379e-01,-6.667444610595703125e+01,-1.826887054443359375e+02,-2.343034982681274414e+00,7.562299346923828125e+01,3.135697174072265625e+01
3.952539861202239990e-01,1.000000000000000000e+00,3.851277828216552734e+00,-6.605243682861328125e+00,3.303612232208251953e+00,-2.040855407714843750e+02,-9.698999023437500000e+01,-1.765174713134765625e+02,4.033146500587463379e-01,-6.667444610595703125e+01,-1.826887054443359375e+02,-2.342891216278076172e+00,7.562299346923828125e+01,3.135697174072265625e+01
3.998509943485260010e-01,1.000000000000000000e+00,3.790218353271484375e+00,-6.551678657531738281e+00,3.312680482864379883e+00,-2.040344390869140625e+02,-9.691374969482421875e+01,-1.764573822021484375e+02,4.033146500587463379e-01,-6.667444610595703125e+01,-1.826887054443359375e+02,-2.343106746673583984e+00,7.562291717529296875e+01,3.135697174072265625e+01
4.042499959468841553e-01,1.000000000000000000e+00,3.729216337203979492e+00,-6.498226642608642578e+00,3.321951866149902344e+00,-2.039838714599609375e+02,-9.683808898925781250e+01,-1.763973693847656250e+02,4.033146500587463379e-01,-6.667444610595703125e+01,-1.826887054443359375e+02,-2.343034982681274414e+00,7.562277984619140625e+01,3.135697174072265625e+01
4.073059856891632080e-01,1.000000000000000000e+00,3.668185472488403320e+00,-6.444819927215576172e+00,3.331365346908569336e+00,-2.039334716796875000e+02,-9.676216888427734375e+01,-1.763359985351562500e+02,4.033146500587463379e-01,-6.667444610595703125e+01,-1.826887054443359375e+02,-2.343106746673583984e+00,7.562291717529296875e+01,3.135697174072265625e+01
4.113590121269226074e-01,1.000000000000000000e+00,3.607011318206787109e+00,-6.391255378723144531e+00,3.340860366821289062e+00,-2.038816223144531250e+02,-9.668555450439453125e+01,-1.762754364013671875e+02,4.033146500587463379e-01,-6.667444610595703125e+01,-1.826887054443359375e+02,-2.343106746673583984e+00,7.562291717529296875e+01,3.135697174072265625e+01
4.152860045433044434e-01,1.000000000000000000e+00,3.545751333236694336e+00,-6.337712764739990234e+00,3.350213050842285156e+00,-2.038311157226562500e+02,-9.660963439941406250e+01,-1.762152099609375000e+02,4.033146500587463379e-01,-6.667444610595703125e+01,-1.826887054443359375e+02,-2.343034982681274414e+00,7.562291717529296875e+01,3.135697174072265625e+01
4.193199872970581055e-01,1.000000000000000000e+00,3.484375953674316406e+00,-6.283944129943847656e+00,3.359423160552978516e+00,-2.037808685302734375e+02,-9.653408050537109375e+01,-1.761540985107421875e+02,4.033146500587463379e-01,-6.667444610595703125e+01,-1.826887054443359375e+02,-2.343034982681274414e+00,7.562299346923828125e+01,3.135675048828125000e+01
4.240689873695373535e-01,1.000000000000000000e+00,3.423201799392700195e+00,-6.230220794677734375e+00,3.368328571319580078e+00,-2.037290802001953125e+02,-9.645816040039062500e+01,-1.760936126708984375e+02,4.033146500587463379e-01,-6.667444610595703125e+01,-1.826887054443359375e+02,-2.343106746673583984e+00,7.562291717529296875e+01,3.135697174072265625e+01
4.273639917373657227e-01,1.000000000000000000e+00,3.362084865570068359e+00,-6.176361083984375000e+00,3.377437114715576172e+00,-2.036785278320312500e+02,-9.638202667236328125e+01,-1.760333862304687500e+02,4.033146500587463379e-01,-6.667444610595703125e+01,-1.826887054443359375e+02,-2.343034982681274414e+00,7.562291717529296875e+01,3.135697174072265625e+01
4.313189983367919922e-01,1.000000000000000000e+00,3.301054477691650391e+00,-6.122547626495361328e+00,3.386667728424072266e+00,-2.036275329589843750e+02,-9.630588531494140625e+01,-1.759716186523437500e+02,4.033146500587463379e-01,-6.667444610595703125e+01,-1.826887054443359375e+02,-2.343034982681274414e+00,7.562291717529296875e+01,3.135697174072265625e+01
4.354259967803955078e-01,1.000000000000000000e+00,3.239564418792724609e+00,-6.068914890289306641e+00,3.396081209182739258e+00,-2.035759582519531250e+02,-9.623065948486328125e+01,-1.759106445312500000e+02,4.033146500587463379e-01,-6.667444610595703125e+01,-1.826887054443359375e+02,-2.343106746673583984e+00,7.562291717529296875e+01,3.135697174072265625e+01
4.394220113754272461e-01,1.000000000000000000e+00,3.178160429000854492e+00,-6.015191078186035156e+00,3.405373096466064453e+00,-2.035257568359375000e+02,-9.615463256835937500e+01,-1.758506927490234375e+02,4.033146500587463379e-01,-6.667435455322265625e+01,-1.826887054443359375e+02,-2.343106746673583984e+00,7.562291717529296875e+01,3.135697174072265625e+01
4.436329901218414307e-01,1.000000000000000000e+00,3.116498231887817383e+00,-5.961331844329833984e+00,3.414644241333007812e+00,-2.034750976562500000e+02,-9.607823181152343750e+01,-1.757889709472656250e+02,4.033146500587463379e-01,-6.667444610595703125e+01,-1.826887054443359375e+02,-2.343034982681274414e+00,7.562291717529296875e+01,3.135697174072265625e+01
4.482379853725433350e-01,1.000000000000000000e+00,3.055094242095947266e+00,-5.907518386840820312e+00,3.423753023147583008e+00,-2.034238433837890625e+02,-9.600198364257812500e+01,-1.757282867431640625e+02,4.033146500587463379e-01,-6.667444610595703125e+01,-1.826887054443359375e+02,-2.343106746673583984e+00,7.562299346923828125e+01,3.135697174072265625e+01
4.514890015125274658e-01,1.000000000000000000e+00,2.993518114089965820e+00,-5.853636264801025391e+00,3.432942867279052734e+00,-2.033731689453125000e+02,-9.592686462402343750e+01,-1.756688690185546875e+02,4.033146500587463379e-01,-6.667444610595703125e+01,-1.826885528564453125e+02,-2.343034982681274414e+00,7.562291717529296875e+01,3.135697174072265625e+01
4.554769992828369141e-01,1.000000000000000000e+00,2.932056903839111328e+00,-5.799799919128417969e+00,3.442376852035522461e+00,-2.033220672607421875e+02,-9.585094451904296875e+01,-1.756072387695312500e+02,4.033146500587463379e-01,-6.667444610595703125e+01,-1.826887054443359375e+02,-2.343034982681274414e+00,7.562291717529296875e+01,3.135719108581542969e+01
4.596000015735626221e-01,1.000000000000000000e+00,2.870394706726074219e+00,-5.746076107025146484e+00,3.451953172683715820e+00,-2.032713012695312500e+02,-9.577416229248046875e+01,-1.755460052490234375e+02,4.033146500587463379e-01,-6.667444610595703125e+01,-1.826887054443359375e+02,-2.343034982681274414e+00,7.562291717529296875e+01,3.135697174072265625e+01
4.636580049991607666e-01,1.000000000000000000e+00,2.808789730072021484e+00,-5.692578792572021484e+00,3.461529493331909180e+00,-2.032212066650390625e+02,-9.569818878173828125e+01,-1.754862518310546875e+02,4.033146500587463379e-01,-6.667444610595703125e+01,-1.826887054443359375e+02,-2.343034982681274414e+00,7.562291717529296875e+01,3.135697174072265625e+01
4.675390124320983887e-01,1.000000000000000000e+00,2.747472047805786133e+00,-5.638923645019531250e+00,3.470902442932128906e+00,-2.031701660156250000e+02,-9.562296295166015625e+01,-1.754246063232421875e+02,4.033146500587463379e-01,-6.667444610595703125e+01,-1.826887054443359375e+02,-2.342891216278076172e+00,7.562291717529296875e+01,3.135697174072265625e+01
4.723860025405883789e-01,1.000000000000000000e+00,2.686211585998535156e+00,-5.585041522979736328e+00,3.480031251907348633e+00,-2.031193389892578125e+02,-9.554741668701171875e+01,-1.753644561767578125e+02,4.033146500587463379e-01,-6.667444610595703125e+01,-1.826887054443359375e+02,-2.342891216278076172e+00,7.562291717529296875e+01,3.135697174072265625e+01
4.756779968738555908e-01,1.000000000000000000e+00,2.624779224395751953e+00,-5.531250476837158203e+00,3.489099264144897461e+00,-2.030688171386718750e+02,-9.547084808349609375e+01,-1.753051147460937500e+02,4.033146500587463379e-01,-6.667453765869140625e+01,-1.826887054443359375e+02,-2.343034982681274414e+00,7.562299346923828125e+01,3.135675048828125000e+01
4.795449972152709961e-01,1.000000000000000000e+00,2.563375234603881836e+00,-5.477414131164550781e+00,3.498431682586669922e+00,-2.030178222656250000e+02,-9.539487457275390625e+01,-1.752440032958984375e+02,4.033146500587463379e-01,-6.667444610595703125e+01,-1.826887054443359375e+02,-2.343034982681274414e+00,7.562291717529296875e+01,3.135697174072265625e+01
4.837999939918518066e-01,1.000000000000000000e+00,2.502086162567138672e+00,-5.423599720001220703e+00,3.507703065872192383e+00,-2.029671630859375000e+02,-9.531938171386718750e+01,-1.751828460693359375e+02,4.033146500587463379e-01,-6.667444610595703125e+01,-1.826887054443359375e+02,-2.343034982681274414e+00,7.562291717529296875e+01,3.135697174072265625e+01
4.882369935512542725e-01,1.000000000000000000e+00,2.440797090530395508e+00,-5.370012283325195312e+00,3.516893148422241211e+00,-2.029166412353515625e+02,-9.524366760253906250e+01,-1.751232910156250000e+02,4.033146500587463379e-01,-6.667444610595703125e+01,-1.826885528564453125e+02,-2.343106746673583984e+00,7.562291717529296875e+01,3.135697174072265625e+01
4.918600022792816162e-01,1.000000000000000000e+00,2.379651546478271484e+00,-5.316356658935546875e+00,3.526042222976684570e+00,-2.028652343750000000e+02,-9.516737365722656250e+01,-1.750621948242187500e+02,4.033146500587463379e-01,-6.667444610595703125e+01,-1.826887054443359375e+02,-2.343034982681274414e+00,7.562291717529296875e+01,3.135697174072265625e+01
4.966199994087219238e-01,1.000000000000000000e+00,2.318649768829345703e+00,-5.262768745422363281e+00,3.535008668899536133e+00,-2.028142395019531250e+02,-9.509145355224609375e+01,-1.750013580322265625e+02,4.033146500587463379e-01,-6.667444610595703125e+01,-1.826887054443359375e+02,-2.343106746673583984e+00,7.562291717529296875e+01,3.135697174072265625e+01
4.998689889907836914e-01,1.000000000000000000e+00,2.257704973220825195e+00,-5.208977699279785156e+00,3.544239282608032227e+00,-2.027633666992187500e+02,-9.501601409912109375e+01,-1.749415435791015625e+02,4.033146500587463379e-01,-6.667444610595703125e+01,-1.826887054443359375e+02,-2.342891216278076172e+00,7.562299346923828125e+01,3.135697174072265625e+01
5.042330026626586914e-01,1.000000000000000000e+00,2.196444749832153320e+00,-5.155344963073730469e+00,3.553571701049804688e+00,-2.027124176025390625e+02,-9.494052124023437500e+01,-1.748804321289062500e+02,4.033146500587463379e-01,-6.667444610595703125e+01,-1.826887054443359375e+02,-2.343106746673583984e+00,7.562291717529296875e+01,3.135697174072265625e+01
5.081459879875183105e-01,1.000000000000000000e+00,2.135127067565917969e+00,-5.101870059967041016e+00,3.562985181808471680e+00,-2.026619110107421875e+02,-9.486421966552734375e+01,-1.748191375732421875e+02,4.033146500587463379e-01,-6.667444610595703125e+01,-1.826887054443359375e+02,-2.343034982681274414e+00,7.562291717529296875e+01,3.135697174072265625e+01
5.120409727096557617e-01,1.000000000000000000e+00,2.073809146881103516e+00,-5.048395633697509766e+00,3.572358131408691406e+00,-2.026108703613281250e+02,-9.478856658935546875e+01,-1.747592620849609375e+02,4.033146500587463379e-01,-6.667444610595703125e+01,-1.826887054443359375e+02,-2.343034982681274414e+00,7.562299346923828125e+01,3.135697174072265625e+01
5.175870060920715332e-01,1.000000000000000000e+00,2.012606143951416016e+00,-4.995147705078125000e+00,3.581609010696411133e+00,-2.025598297119140625e+02,-9.471302032470703125e+01,-1.746980133056640625e+02,4.033146500587463379e-01,-6.667444610595703125e+01,-1.826887054443359375e+02,-2.343034982681274414e+00,7.562291717529296875e+01,3.135697174072265625e+01
5.213639736175537109e-01,1.000000000000000000e+00,1.951546907424926758e+00,-4.941718101501464844e+00,3.590697526931762695e+00,-2.025096282958984375e+02,-9.463719940185546875e+01,-1.746368408203125000e+02,4.033146500587463379e-01,-6.667444610595703125e+01,-1.826885528564453125e+02,-2.343034982681274414e+00,7.562291717529296875e+01,3.135675048828125000e+01
5.241690278053283691e-01,1.000000000000000000e+00,1.890602350234985352e+00,-4.888311862945556641e+00,3.599724769592285156e+00,-2.024582672119140625e+02,-9.456133270263671875e+01,-1.745769653320312500e+02,4.033146500587463379e-01,-6.667444610595703125e+01,-1.826887054443359375e+02,-2.343106746673583984e+00,7.562291717529296875e+01,3.135697174072265625e+01
5.280669927597045898e-01,1.000000000000000000e+00,1.829571604728698730e+00,-4.834746360778808594e+00,3.609016418457031250e+00,-2.024076538085937500e+02,-9.448573303222656250e+01,-1.745162048339843750e+02,4.033146500587463379e-01,-6.667444610595703125e+01,-1.826887054443359375e+02,-2.343034982681274414e+00,7.562291717529296875e+01,3.135697174072265625e+01
5.323320031166076660e-01,1.000000000000000000e+00,1.768598318099975586e+00,-4.781136512756347656e+00,3.618247032165527344e+00,-2.023572998046875000e+02,-9.440980529785156250e+01,-1.744553680419921875e+02,4.033146500587463379e-01,-6.667444610595703125e+01,-1.826887054443359375e+02,-2.343106746673583984e+00,7.562291717529296875e+01,3.135697174072265625e+01
5.362210273742675781e-01,1.000000000000000000e+00,1.707538962364196777e+00,-4.727662086486816406e+00,3.627498149871826172e+00,-2.023059997558593750e+02,-9.433399200439453125e+01,-1.743954162597656250e+02,4.033146500587463379e-01,-6.667444610595703125e+01,-1.826887054443359375e+02,-2.343178272247314453e+00,7.562291717529296875e+01,3.135697174072265625e+01
5.409700274467468262e-01,1.000000000000000000e+00,1.646479606628417969e+00,-4.674051761627197266e+00,3.636687755584716797e+00,-2.022554779052734375e+02,-9.425870513916015625e+01,-1.743343048095703125e+02,4.033146500587463379e-01,-6.667444610595703125e+01,-1.826887054443359375e+02,-2.343106746673583984e+00,7.562291717529296875e+01,3.135697174072265625e+01
5.450810194015502930e-01,1.000000000000000000e+00,1.585735917091369629e+00,-4.620373249053955078e+00,3.645714998245239258e+00,-2.022050170898437500e+02,-9.418347930908203125e+01,-1.742731323242187500e+02,4.033146500587463379e-01,-6.667444610595703125e+01,-1.826887054443359375e+02,-2.343106746673583984e+00,7.562299346923828125e+01,3.135697174072265625e+01
5.482940077781677246e-01,1.000000000000000000e+00,1.524705171585083008e+00,-4.566853523254394531e+00,3.654803514480590820e+00,-2.021535034179687500e+02,-9.410766601562500000e+01,-1.742137298583984375e+02,4.033146500587463379e-01,-6.667453765869140625e+01,-1.826887054443359375e+02,-2.343106746673583984e+00,7.562291717529296875e+01,3.135697174072265625e+01
5.522180199623107910e-01,1.000000000000000000e+00,1.463674545288085938e+00,-4.513288974761962891e+00,3.664237260818481445e+00,-2.021031341552734375e+02,-9.403141784667968750e+01,-1.741533813476562500e+02,4.033146500587463379e-01,-6.667444610595703125e+01,-1.826887054443359375e+02,-2.343034982681274414e+00,7.562291717529296875e+01,3.135697174072265625e+01
5.563769936561584473e-01,1.000000000000000000e+00,1.402816057205200195e+00,-4.459678649902343750e+00,3.673630952835083008e+00,-2.020530548095703125e+02,-9.395581817626953125e+01,-1.740923461914062500e+02,4.033146500587463379e-01,-6.667444610595703125e+01,-1.826887054443359375e+02,-2.343106746673583984e+00,7.562291717529296875e+01,3.135697174072265625e+01
5.604029893875122070e-01,1.000000000000000000e+00,1.341814041137695312e+00,-4.406067848205566406e+00,3.683024168014526367e+00,-2.020013885498046875e+02,-9.388079833984375000e+01,-1.740325317382812500e+02,4.033146500587463379e-01,-6.667444610595703125e+01,-1.826887054443359375e+02,-2.342891216278076172e+00,7.562291717529296875e+01,3.135697174072265625e+01
5.650810003280639648e-01,1.000000000000000000e+00,1.280611157417297363e+00,-4.352322101593017578e+00,3.692335844039916992e+00,-2.019506530761718750e+02,-9.380535888671875000e+01,-1.739717712402343750e+02,4.033146500587463379e-01,-6.667444610595703125e+01,-1.826887054443359375e+02,-2.343106746673583984e+00,7.562291717529296875e+01,3.135719108581542969e+01
5.691660046577453613e-01,1.000000000000000000e+00,1.219408154487609863e+00,-4.298711776733398438e+00,3.701363325119018555e+00,-2.018998718261718750e+02,-9.372911834716796875e+01,-1.739108734130859375e+02,4.033146500587463379e-01,-6.667444610595703125e+01,-1.826887054443359375e+02,-2.343034982681274414e+00,7.562299346923828125e+01,3.135697174072265625e+01
5.723639726638793945e-01,1.000000000000000000e+00,1.158262729644775391e+00,-4.245146751403808594e+00,3.710431098937988281e+00,-2.018484649658203125e+02,-9.365346527099609375e+01,-1.738513183593750000e+02,4.033146500587463379e-01,-6.667444610595703125e+01,-1.826887054443359375e+02,-2.343034982681274414e+00,7.562291717529296875e+01,3.135719108581542969e+01
5.761569738388061523e-01,1.000000000000000000e+00,1.097031116485595703e+00,-4.191672325134277344e+00,3.719580650329589844e+00,-2.017982177734375000e+02,-9.357807159423828125e+01,-1.737908325195312500e+02,4.033146500587463379e-01,-6.667444610595703125e+01,-1.826887054443359375e+02,-2.343034982681274414e+00,7.562299346923828125e+01,3.135697174072265625e+01
5.791860222816467285e-01,1.000000000000000000e+00,1.035828232765197754e+00,-4.138197898864746094e+00,3.728892803192138672e+00,-2.017474975585937500e+02,-9.350225830078125000e+01,-1.737291107177734375e+02,4.033146500587463379e-01,-6.667444610595703125e+01,-1.826887054443359375e+02,-2.343034982681274414e+00,7.562291717529296875e+01,3.135697174072265625e+01
5.844510197639465332e-01,1.000000000000000000e+00,9.745965003967285156e-01,-4.084315776824951172e+00,3.738062143325805664e+00,-2.016962890625000000e+02,-9.342607116699218750e+01,-1.736692352294921875e+02,4.033146500587463379e-01,-6.667444610595703125e+01,-1.826885528564453125e+02,-2.343034982681274414e+00,7.562299346923828125e+01,3.135697174072265625e+01
5.893229842185974121e-01,1.000000000000000000e+00,9.133936166763305664e-01,-4.030614852905273438e+00,3.747333288192749023e+00,-2.016458282470703125e+02,-9.335063171386718750e+01,-1.736090087890625000e+02,4.033146500587463379e-01,-6.667444610595703125e+01,-1.826887054443359375e+02,-2.343106746673583984e+00,7.562291717529296875e+01,3.135697174072265625e+01
5.911999940872192383e-01,1.000000000000000000e+00,8.523916006088256836e-01,-3.976801395416259766e+00,3.756421804428100586e+00,-2.015947265625000000e+02,-9.327486419677734375e+01,-1.735475616455078125e+02,4.033146500587463379e-01,-6.667444610595703125e+01,-1.826887054443359375e+02,-2.343106746673583984e+00,7.562291717529296875e+01,3.135697174072265625e+01
5.951910018920898438e-01,1.000000000000000000e+00,7.912461161613464355e-01,-3.923168182373046875e+00,3.765571355819702148e+00,-2.015440673828125000e+02,-9.319915771484375000e+01,-1.734873504638671875e+02,4.033146500587463379e-01,-6.667444610595703125e+01,-1.826887054443359375e+02,-2.343034982681274414e+00,7.562291717529296875e+01,3.135697174072265625e+01
5.993350148200988770e-01,1.000000000000000000e+00,7.301866412162780762e-01,-3.869444847106933594e+00,3.774985074996948242e+00,-2.014941406250000000e+02,-9.312301635742187500e+01,-1.734273986816406250e+02,4.033146500587463379e-01,-6.667444610595703125e+01,-1.826887054443359375e+02,-2.343034982681274414e+00,7.562291717529296875e+01,3.135697174072265625e+01
6.033170223236083984e-01,1.000000000000000000e+00,6.690411567687988281e-01,-3.815789461135864258e+00,3.784398317337036133e+00,-2.014432525634765625e+02,-9.304805755615234375e+01,-1.733667755126953125e+02,4.033146500587463379e-01,-6.667444610595703125e+01,-1.826887054443359375e+02,-2.343106746673583984e+00,7.562291717529296875e+01,3.135697174072265625e+01
6.072570085525512695e-01,1.000000000000000000e+00,6.079818010330200195e-01,-3.762314558029174805e+00,3.793812036514282227e+00,-2.013924713134765625e+02,-9.297224426269531250e+01,-1.733063354492187500e+02,4.033146500587463379e-01,-6.667444610595703125e+01,-1.826885528564453125e+02,-2.343034982681274414e+00,7.562299346923828125e+01,3.135697174072265625e+01
6.112490296363830566e-01,1.000000000000000000e+00,5.469797849655151367e-01,-3.708500862121582031e+00,3.803124189376831055e+00,-2.013417968750000000e+02,-9.289627075195312500e+01,-1.732462615966796875e+02,4.033146500587463379e-01,-6.667444610595703125e+01,-1.826887054443359375e+02,-2.343034982681274414e+00,7.562291717529296875e+01,3.135697174072265625e+01
6.151880025863647461e-01,1.000000000000000000e+00,4.859203696250915527e-01,-3.654958486557006836e+00,3.812212467193603516e+00,-2.012908020019531250e+02,-9.282013702392578125e+01,-1.731849517822265625e+02,4.033146500587463379e-01,-6.667444610595703125e+01,-1.826887054443359375e+02,-2.343106746673583984e+00,7.562291717529296875e+01,3.135697174072265625e+01
6.191880106925964355e-01,1.000000000000000000e+00,4.250045120716094971e-01,-3.601506710052490234e+00,3.821280479431152344e+00,-2.012402954101562500e+02,-9.274527740478515625e+01,-1.731250610351562500e+02,4.033146500587463379e-01,-6.667444610595703125e+01,-1.826887054443359375e+02,-2.343034982681274414e+00,7.562291717529296875e+01,3.135697174072265625e+01
6.232630014419555664e-01,1.000000000000000000e+00,3.642034828662872314e-01,-3.547964334487915039e+00,3.830551624298095703e+00,-2.011900482177734375e+02,-9.266925048828125000e+01,-1.730654449462890625e+02,4.033146500587463379e-01,-6.667444610595703125e+01,-1.826887054443359375e+02,-2.342891216278076172e+00,7.562277984619140625e+01,3.135697174072265625e+01
6.273000240325927734e-01,1.000000000000000000e+00,3.029144406318664551e-01,-3.494647979736328125e+00,3.839802503585815430e+00,-2.011387329101562500e+02,-9.259300231933593750e+01,-1.730040893554687500e+02,4.033146500587463379e-01,-6.667444610595703125e+01,-1.826887054443359375e+02,-2.343106746673583984e+00,7.562299346923828125e+01,3.135697174072265625e+01
6.311910152435302734e-01,1.000000000000000000e+00,2.416253834962844849e-01,-3.441173553466796875e+00,3.848870515823364258e+00,-2.010880737304687500e+02,-9.251697540283203125e+01,-1.729441375732421875e+02,4.033146500587463379e-01,-6.667444610595703125e+01,-1.826885528564453125e+02,-2.343034982681274414e+00,7.562299346923828125e+01,3.135697174072265625e+01
6.352490186691284180e-01,1.000000000000000000e+00,1.804798692464828491e-01,-3.387948036193847656e+00,3.857836961746215820e+00,-2.010373382568359375e+02,-9.244180297851562500e+01,-1.728842468261718750e+02,4.033146500587463379e-01,-6.667444610595703125e+01,-1.826887054443359375e+02,-2.343034982681274414e+00,7.562299346923828125e+01,3.135719108581542969e+01
6.392009854316711426e-01,1.000000000000000000e+00,1.193630695343017578e-01,-3.334360361099243164e+00,3.866904735565185547e+00,-2.009862976074218750e+02,-9.236620330810546875e+01,-1.728228759765625000e+02,4.033146500587463379e-01,-6.667444610595703125e+01,-1.826887054443359375e+02,-2.343034982681274414e+00,7.562299346923828125e+01,3.135697174072265625e+01
6.432189941406250000e-01,1.000000000000000000e+00,5.844719707965850830e-02,-3.280750036239624023e+00,3.875952720642089844e+00,-2.009358825683593750e+02,-9.229006195068359375e+01,-1.727627258300781250e+02,4.033146500587463379e-01,-6.667444610595703125e+01,-1.826887054443359375e+02,-2.343106746673583984e+00,7.562291717529296875e+01,3.135697174072265625e+01
6.473199725151062012e-01,1.000000000000000000e+00,-2.640903927385807037e-03,-3.227207660675048828e+00,3.885345935821533203e+00,-2.008852233886718750e+02,-9.221424865722656250e+01,-1.727029113769531250e+02,4.033146500587463379e-01,-6.667444610595703125e+01,-1.826887054443359375e+02,-2.343034982681274414e+00,7.562299346923828125e+01,3.135697174072265625e+01
6.511909961700439453e-01,1.000000000000000000e+00,-6.349935382604598999e-02,-3.173687934875488281e+00,3.894718647003173828e+00,-2.008342895507812500e+02,-9.213885498046875000e+01,-1.726411285400390625e+02,4.033146500587463379e-01,-6.667444610595703125e+01,-1.826887054443359375e+02,-2.343034982681274414e+00,7.562299346923828125e+01,3.135697174072265625e+01
6.551849842071533203e-01,1.000000000000000000e+00,-1.245300397276878357e-01,-3.120213270187377930e+00,3.904071331024169922e+00,-2.007837677001953125e+02,-9.206346893310546875e+01,-1.725806274414062500e+02,4.033146500587463379e-01,-6.667444610595703125e+01,-1.826887054443359375e+02,-2.343034982681274414e+00,7.562291717529296875e+01,3.135697174072265625e+01
6.593359708786010742e-01,1.000000000000000000e+00,-1.855320334434509277e-01,-3.066761493682861328e+00,3.913241147994995117e+00,-2.007327728271484375e+02,-9.198728179931640625e+01,-1.725206909179687500e+02,4.033146500587463379e-01,-6.667444610595703125e+01,-1.826887054443359375e+02,-2.343106746673583984e+00,7.562291717529296875e+01,3.135719108581542969e+01
6.632680296897888184e-01,1.000000000000000000e+00,-2.463043630123138428e-01,-3.013354778289794922e+00,3.922288656234741211e+00,-2.006821594238281250e+02,-9.191173553466796875e+01,-1.724595947265625000e+02,4.033146500587463379e-01,-6.667444610595703125e+01,-1.826887054443359375e+02,-2.343106746673583984e+00,7.562291717529296875e+01,3.135697174072265625e+01
6.673229932785034180e-01,1.000000000000000000e+00,-3.074211478233337402e-01,-2.959722042083740234e+00,3.931336641311645508e+00,-2.006321716308593750e+02,-9.183612823486328125e+01,-1.723990173339843750e+02,4.033146500587463379e-01,-6.667444610595703125e+01,-1.826887054443359375e+02,-2.343034982681274414e+00,7.562291717529296875e+01,3.135697174072265625e+01
6.713280081748962402e-01,1.000000000000000000e+00,-3.683944344520568848e-01,-2.906202077865600586e+00,3.940648317337036133e+00,-2.005812377929687500e+02,-9.176068115234375000e+01,-1.723393554687500000e+02,4.033146500587463379e-01,-6.667444610595703125e+01,-1.826887054443359375e+02,-2.343106746673583984e+00,7.562291717529296875e+01,3.135697174072265625e+01
6.751899719238281250e-01,1.000000000000000000e+00,-4.293389916419982910e-01,-2.852705240249633789e+00,3.949919700622558594e+00,-2.005308685302734375e+02,-9.168450164794921875e+01,-1.722782440185546875e+02,4.033146500587463379e-01,-6.667444610595703125e+01,-1.826887054443359375e+02,-2.342891216278076172e+00,7.562277984619140625e+01,3.135697174072265625e+01
6.791830062866210938e-01,1.000000000000000000e+00,-4.901687502861022949e-01,-2.799366474151611328e+00,3.959109306335449219e+00,-2.004807739257812500e+02,-9.160900115966796875e+01,-1.722180786132812500e+02,4.033146500587463379e-01,-6.667444610595703125e+01,-1.826887054443359375e+02,-2.343106746673583984e+00,7.562291717529296875e+01,3.135697174072265625e+01
6.832000017166137695e-01,1.000000000000000000e+00,-5.511994361877441406e-01,-2.746050357818603516e+00,3.968218326568603516e+00,-2.004291687011718750e+02,-9.153388214111328125e+01,-1.721581420898437500e+02,4.033146500587463379e-01,-6.667444610595703125e+01,-1.826887054443359375e+02,-2.343106746673583984e+00,7.562299346923828125e+01,3.135697174072265625e+01
6.872760057449340820e-01,1.000000000000000000e+00,-6.124023795127868652e-01,-2.692598581314086914e+00,3.977245569229125977e+00,-2.003789215087890625e+02,-9.145827484130859375e+01,-1.720972290039062500e+02,4.033146500587463379e-01,-6.667435455322265625e+01,-1.826887054443359375e+02,-2.343034982681274414e+00,7.562291717529296875e+01,3.135697174072265625e+01
6.911870241165161133e-01,1.000000000000000000e+00,-6.736053228378295898e-01,-2.639123916625976562e+00,3.986313581466674805e+00,-2.003287200927734375e+02,-9.138192749023437500e+01,-1.720367431640625000e+02,4.033146500587463379e-01,-6.667444610595703125e+01,-1.826885528564453125e+02,-2.343034982681274414e+00,7.562277984619140625e+01,3.135697174072265625e+01
6.952030062675476074e-01,1.000000000000000000e+00,-7.348369359970092773e-01,-2.585491180419921875e+00,3.995767831802368164e+00,-2.002778320312500000e+02,-9.130702209472656250e+01,-1.719776763916015625e+02,4.033146500587463379e-01,-6.667444610595703125e+01,-1.826887054443359375e+02,-2.343034982681274414e+00,7.562291717529296875e+01,3.135697174072265625e+01
6.992470026016235352e-01,1.000000000000000000e+00,-7.960111498832702637e-01,-2.531858205795288086e+00,4.005201816558837891e+00,-2.002270507812500000e+02,-9.123168182373046875e+01,-1.719169158935546875e+02,4.033146500587463379e-01,-6.667444610595703125e+01,-1.826887054443359375e+02,-2.343106746673583984e+00,7.562291717529296875e+01,3.135697174072265625e+01
7.031949758529663086e-01,1.000000000000000000e+00,-8.570992350578308105e-01,-2.478202581405639648e+00,4.014533996582031250e+00,-2.001762237548828125e+02,-9.115650177001953125e+01,-1.718561553955078125e+02,4.033146500587463379e-01,-6.667453765869140625e+01,-1.826887054443359375e+02,-2.343034982681274414e+00,7.562291717529296875e+01,3.135697174072265625e+01
7.072960138320922852e-01,1.000000000000000000e+00,-9.183595776557922363e-01,-2.424705505371093750e+00,4.023764610290527344e+00,-2.001249694824218750e+02,-9.108095550537109375e+01,-1.717966766357421875e+02,4.033146500587463379e-01,-6.667444610595703125e+01,-1.826887054443359375e+02,-2.343034982681274414e+00,7.562291717529296875e+01,3.135697174072265625e+01
7.112759947776794434e-01,1.000000000000000000e+00,-9.793903231620788574e-01,-2.371117591857910156e+00,4.032812118530273438e+00,-2.000750885009765625e+02,-9.100572967529296875e+01,-1.717359161376953125e+02,4.033146500587463379e-01,-6.667444610595703125e+01,-1.826887054443359375e+02,-2.343106746673583984e+00,7.562291717529296875e+01,3.135697174072265625e+01
7.176010012626647949e-01,1.000000000000000000e+00,-1.040449619293212891e+00,-2.317688465118408203e+00,4.041778564453125000e+00,-2.000245208740234375e+02,-9.093012237548828125e+01,-1.716754150390625000e+02,4.033146500587463379e-01,-6.667444610595703125e+01,-1.826887054443359375e+02,-2.343034982681274414e+00,7.562299346923828125e+01,3.135697174072265625e+01
7.191950082778930664e-01,1.000000000000000000e+00,-1.101365566253662109e+00,-2.264100790023803711e+00,4.050887584686279297e+00,-1.999735870361328125e+02,-9.085457611083984375e+01,-1.716154022216796875e+02,4.033146500587463379e-01,-6.667444610595703125e+01,-1.826887054443359375e+02,-2.343106746673583984e+00,7.562291717529296875e+01,3.135697174072265625e+01
7.233340144157409668e-01,1.000000000000000000e+00,-1.162453651428222656e+00,-2.210332155227661133e+00,4.060077667236328125e+00,-1.999231262207031250e+02,-9.077902984619140625e+01,-1.715547027587890625e+02,4.033146500587463379e-01,-6.667444610595703125e+01,-1.826887054443359375e+02,-2.343034982681274414e+00,7.562291717529296875e+01,3.135697174072265625e+01
7.282239794731140137e-01,1.000000000000000000e+00,-1.223484277725219727e+00,-2.156948089599609375e+00,4.069247245788574219e+00,-1.998720397949218750e+02,-9.070427703857421875e+01,-1.714934082031250000e+02,4.033146500587463379e-01,-6.667444610595703125e+01,-1.826887054443359375e+02,-2.343034982681274414e+00,7.562291717529296875e+01,3.135675048828125000e+01
7.311890125274658203e-01,1.000000000000000000e+00,-1.284400224685668945e+00,-2.103451013565063477e+00,4.078395843505859375e+00,-1.998214111328125000e+02,-9.062910461425781250e+01,-1.714337158203125000e+02,4.033146500587463379e-01,-6.667444610595703125e+01,-1.826887054443359375e+02,-2.343106746673583984e+00,7.562291717529296875e+01,3.135697174072265625e+01
7.385010123252868652e-01,1.000000000000000000e+00,-1.284400224685668945e+00,-2.103451013565063477e+00,4.078395843505859375e+00,-1.998214111328125000e+02,-9.062910461425781250e+01,-1.714337158203125000e+02,4.033146500587463379e-01,-6.667444610595703125e+01,-1.826887054443359375e+02,-2.343106746673583984e+00,7.562291717529296875e+01,3.135697174072265625e+01
7.399179935455322266e-01,1.000000000000000000e+00,-1.406059622764587402e+00,-1.996750950813293457e+00,4.096532344818115234e+00,-1.997205963134765625e+02,-9.047747802734375000e+01,-1.713121185302734375e+02,4.033146500587463379e-01,-6.667444610595703125e+01,-1.826887054443359375e+02,-2.343034982681274414e+00,7.562291717529296875e+01,3.135697174072265625e+01
7.431859970092773438e-01,1.000000000000000000e+00,-1.466860771179199219e+00,-1.943344473838806152e+00,4.105844020843505859e+00,-1.996698760986328125e+02,-9.040261840820312500e+01,-1.712523803710937500e+02,4.033146500587463379e-01,-6.667444610595703125e+01,-1.826887054443359375e+02,-2.343034982681274414e+00,7.562291717529296875e+01,3.135697174072265625e+01
7.473499774932861328e-01,1.000000000000000000e+00,-1.466860771179199219e+00,-1.943344473838806152e+00,4.105844020843505859e+00,-1.996698760986328125e+02,-9.040261840820312500e+01,-1.712523803710937500e+02,4.033146500587463379e-01,-6.667444610595703125e+01,-1.826887054443359375e+02,-2.343034982681274414e+00,7.562291717529296875e+01,3.135697174072265625e+01
7.521910071372985840e-01,1.000000000000000000e+00,-1.527920126914978027e+00,-1.889983177185058594e+00,4.115379810333251953e+00,-1.996198425292968750e+02,-9.032733154296875000e+01,-1.711920166015625000e+02,4.033146500587463379e-01,-6.667444610595703125e+01,-1.826887054443359375e+02,-2.343106746673583984e+00,7.562291717529296875e+01,3.135697174072265625e+01
7.552220225334167480e-01,1.000000000000000000e+00,-1.649952769279479980e+00,-1.782988786697387695e+00,4.134024143218994141e+00,-1.995185241699218750e+02,-9.017612457275390625e+01,-1.710711059570312500e+02,4.033146500587463379e-01,-6.667444610595703125e+01,-1.826887054443359375e+02,-2.343034982681274414e+00,7.562291717529296875e+01,3.135697174072265625e+01
7.593219876289367676e-01,1.000000000000000000e+00,-1.649952769279479980e+00,-1.782988786697387695e+00,4.134024143218994141e+00,-1.995185241699218750e+02,-9.017612457275390625e+01,-1.710711059570312500e+02,4.033146500587463379e-01,-6.667444610595703125e+01,-1.826887054443359375e+02,-2.343034982681274414e+00,7.562291717529296875e+01,3.135697174072265625e+01
7.632399797439575195e-01,1.000000000000000000e+00,-1.710811257362365723e+00,-1.729401111602783203e+00,4.143193721771240234e+00,-1.994681701660156250e+02,-9.010073852539062500e+01,-1.710106048583984375e+02,4.033146500587463379e-01,-6.667444610595703125e+01,-1.826887054443359375e+02,-2.343106746673583984e+00,7.562299346923828125e+01,3.135697174072265625e+01
7.673000097274780273e-01,1.000000000000000000e+00,-1.771698355674743652e+00,-1.675768256187438965e+00,4.152119636535644531e+00,-1.994167785644531250e+02,-9.002519226074218750e+01,-1.709494323730468750e+02,4.033146500587463379e-01,-6.667453765869140625e+01,-1.826887054443359375e+02,-2.343034982681274414e+00,7.562291717529296875e+01,3.135697174072265625e+01
7.712299823760986328e-01,1.000000000000000000e+00,-1.832384586334228516e+00,-1.622361660003662109e+00,4.161227703094482422e+00,-1.993661499023437500e+02,-8.994932556152343750e+01,-1.708899688720703125e+02,4.033146500587463379e-01,-6.667444610595703125e+01,-1.826887054443359375e+02,-2.343106746673583984e+00,7.562291717529296875e+01,3.135697174072265625e+01
7.753030061721801758e-01,1.000000000000000000e+00,-1.893157124519348145e+00,-1.569068193435668945e+00,4.170397281646728516e+00,-1.993158569335937500e+02,-8.987419891357421875e+01,-1.708299407958984375e+02,4.033146500587463379e-01,-6.667444610595703125e+01,-1.826887054443359375e+02,-2.343106746673583984e+00,7.562291717529296875e+01,3.135697174072265625e+01
7.792429924011230469e-01,1.000000000000000000e+00,-1.953814506530761719e+00,-1.515616297721862793e+00,4.179607868194580078e+00,-1.992648010253906250e+02,-8.979843902587890625e+01,-1.707691192626953125e+02,4.033146500587463379e-01,-6.667444610595703125e+01,-1.826887054443359375e+02,-2.343034982681274414e+00,7.562291717529296875e+01,3.135697174072265625e+01
7.833009958267211914e-01,1.000000000000000000e+00,-2.014299631118774414e+00,-1.462232351303100586e+00,4.188757419586181641e+00,-1.992142486572265625e+02,-8.972304534912109375e+01,-1.707092285156250000e+02,4.033146500587463379e-01,-6.667444610595703125e+01,-1.826887054443359375e+02,-2.343034982681274414e+00,7.562299346923828125e+01,3.135697174072265625e+01
7.873299717903137207e-01,1.000000000000000000e+00,-2.074871063232421875e+00,-1.408644676208496094e+00,4.197723865509033203e+00,-1.991633605957031250e+02,-8.964659881591796875e+01,-1.706488037109375000e+02,4.033146500587463379e-01,-6.667453765869140625e+01,-1.826887054443359375e+02,-2.343034982681274414e+00,7.562277984619140625e+01,3.135719108581542969e+01
7.912330031394958496e-01,1.000000000000000000e+00,-2.135614633560180664e+00,-1.355124950408935547e+00,4.206710338592529297e+00,-1.991126251220703125e+02,-8.957184600830078125e+01,-1.705874938964843750e+02,4.033146500587463379e-01,-6.667444610595703125e+01,-1.826887054443359375e+02,-2.343034982681274414e+00,7.562291717529296875e+01,3.135697174072265625e+01
7.952830195426940918e-01,1.000000000000000000e+00,-2.196444272994995117e+00,-1.301718235015869141e+00,4.216042518615722656e+00,-1.990624847412109375e+02,-8.949624633789062500e+01,-1.705280303955078125e+02,4.033146500587463379e-01,-6.667444610595703125e+01,-1.826887054443359375e+02,-2.343106746673583984e+00,7.562299346923828125e+01,3.135697174072265625e+01
7.993040084838867188e-01,1.000000000000000000e+00,-2.257216930389404297e+00,-1.248470067977905273e+00,4.225334167480468750e+00,-1.990116119384765625e+02,-8.942085266113281250e+01,-1.704680633544921875e+02,4.033146500587463379e-01,-6.667444610595703125e+01,-1.826887054443359375e+02,-2.343034982681274414e+00,7.562291717529296875e+01,3.135697174072265625e+01
8.032320141792297363e-01,1.000000000000000000e+00,-2.317989110946655273e+00,-1.195312380790710449e+00,4.234767913818359375e+00,-1.989610290527343750e+02,-8.934434509277343750e+01,-1.704064941406250000e+02,4.033146500587463379e-01,-6.667444610595703125e+01,-1.826887054443359375e+02,-2.343034982681274414e+00,7.562291717529296875e+01,3.135697174072265625e+01
8.073049783706665039e-01,1.000000000000000000e+00,-2.378646612167358398e+00,-1.141815304756164551e+00,4.244141101837158203e+00,-1.989110870361328125e+02,-8.926943206787109375e+01,-1.703459320068359375e+02,4.033146500587463379e-01,-6.667444610595703125e+01,-1.826887054443359375e+02,-2.343106746673583984e+00,7.562291717529296875e+01,3.135697174072265625e+01
8.113179802894592285e-01,1.000000000000000000e+00,-2.439332962036132812e+00,-1.088272929191589355e+00,4.253229141235351562e+00,-1.988600006103515625e+02,-8.919361877441406250e+01,-1.702860565185546875e+02,4.033146500587463379e-01,-6.667444610595703125e+01,-1.826887054443359375e+02,-2.343106746673583984e+00,7.562291717529296875e+01,3.135697174072265625e+01
8.152559995651245117e-01,1.000000000000000000e+00,-2.500449657440185547e+00,-1.034707784652709961e+00,4.262195587158203125e+00,-1.988093872070312500e+02,-8.911801147460937500e+01,-1.702252960205078125e+02,4.033146500587463379e-01,-6.667444610595703125e+01,-1.826887054443359375e+02,-2.343106746673583984e+00,7.562291717529296875e+01,3.135697174072265625e+01
8.192269802093505859e-01,1.000000000000000000e+00,-2.561595201492309570e+00,-9.811428189277648926e-01,4.271243572235107422e+00,-1.987593994140625000e+02,-8.904177856445312500e+01,-1.701649322509765625e+02,4.033146500587463379e-01,-6.667435455322265625e+01,-1.826887054443359375e+02,-2.343106746673583984e+00,7.562291717529296875e+01,3.135697174072265625e+01
8.232910037040710449e-01,1.000000000000000000e+00,-2.622683286666870117e+00,-9.278720021247863770e-01,4.280474185943603516e+00,-1.987083587646484375e+02,-8.896670532226562500e+01,-1.701048583984375000e+02,4.033146500587463379e-01,-6.667444610595703125e+01,-1.826887054443359375e+02,-2.343106746673583984e+00,7.562291717529296875e+01,3.135697174072265625e+01
8.272979855537414551e-01,1.000000000000000000e+00,-2.683627843856811523e+00,-8.744879961013793945e-01,4.289643764495849609e+00,-1.986579589843750000e+02,-8.889136505126953125e+01,-1.700440826416015625e+02,4.033146500587463379e-01,-6.667444610595703125e+01,-1.826887054443359375e+02,-2.343034982681274414e+00,7.562291717529296875e+01,3.135697174072265625e+01
8.317440152168273926e-01,1.000000000000000000e+00,-2.744601249694824219e+00,-8.211492896080017090e-01,4.298792839050292969e+00,-1.986075286865234375e+02,-8.881533813476562500e+01,-1.699841308593750000e+02,4.033146500587463379e-01,-6.667444610595703125e+01,-1.826887054443359375e+02,-2.343034982681274414e+00,7.562291717529296875e+01,3.135697174072265625e+01
8.362209796905517578e-01,1.000000000000000000e+00,-2.805603027343750000e+00,-7.675616741180419922e-01,4.307820320129394531e+00,-1.985565490722656250e+02,-8.873952484130859375e+01,-1.699240417480468750e+02,4.033146500587463379e-01,-6.667444610595703125e+01,-1.826887054443359375e+02,-2.343106746673583984e+00,7.562291717529296875e+01,3.135697174072265625e+01
8.395419716835021973e-01,1.000000000000000000e+00,-2.927320003509521484e+00,-6.608389616012573242e-01,4.326098442077636719e+00,-1.984556274414062500e+02,-8.858970642089843750e+01,-1.698029937744140625e+02,4.033146500587463379e-01,-6.667444610595703125e+01,-1.826887054443359375e+02,-2.343106746673583984e+00,7.562277984619140625e+01,3.135697174072265625e+01
8.432549834251403809e-01,1.000000000000000000e+00,-2.927320003509521484e+00,-6.608389616012573242e-01,4.326098442077636719e+00,-1.984556274414062500e+02,-8.858970642089843750e+01,-1.698029937744140625e+02,4.033146500587463379e-01,-6.667444610595703125e+01,-1.826887054443359375e+02,-2.343106746673583984e+00,7.562277984619140625e+01,3.135697174072265625e+01
8.473380208015441895e-01,1.000000000000000000e+00,-2.988408088684082031e+00,-6.074550151824951172e-01,4.335491657257080078e+00,-1.984041748046875000e+02,-8.851378631591796875e+01,-1.697435913085937500e+02,4.033146500587463379e-01,-6.667444610595703125e+01,-1.826887054443359375e+02,-2.343034982681274414e+00,7.562291717529296875e+01,3.135697174072265625e+01
8.512369990348815918e-01,1.000000000000000000e+00,-3.049496173858642578e+00,-5.542067885398864746e-01,4.344824314117431641e+00,-1.983538665771484375e+02,-8.843818664550781250e+01,-1.696829528808593750e+02,4.033146500587463379e-01,-6.667444610595703125e+01,-1.826887054443359375e+02,-2.343034982681274414e+00,7.562291717529296875e+01,3.135697174072265625e+01
8.559780120849609375e-01,1.000000000000000000e+00,-3.110498189926147461e+00,-5.010264515876770020e-01,4.354095458984375000e+00,-1.983037719726562500e+02,-8.836295318603515625e+01,-1.696227416992187500e+02,4.033146500587463379e-01,-6.667444610595703125e+01,-1.826887054443359375e+02,-2.343106746673583984e+00,7.562277984619140625e+01,3.135697174072265625e+01
8.593180179595947266e-01,1.000000000000000000e+00,-3.171385288238525391e+00,-4.477556049823760986e-01,4.363265037536621094e+00,-1.982527313232421875e+02,-8.828798675537109375e+01,-1.695634613037109375e+02,4.033146500587463379e-01,-6.667444610595703125e+01,-1.826887054443359375e+02,-2.343106746673583984e+00,7.562277984619140625e+01,3.135697174072265625e+01
8.634039759635925293e-01,1.000000000000000000e+00,-3.232387304306030273e+00,-3.943942785263061523e-01,4.372190475463867188e+00,-1.982022705078125000e+02,-8.821180725097656250e+01,-1.695026397705078125e+02,4.033146500587463379e-01,-6.667435455322265625e+01,-1.826885528564453125e+02,-2.343034982681274414e+00,7.562299346923828125e+01,3.135697174072265625e+01
8.673250079154968262e-01,1.000000000000000000e+00,-3.293475389480590820e+00,-3.409197628498077393e-01,4.381217956542968750e+00,-1.981512145996093750e+02,-8.813657379150390625e+01,-1.694416656494140625e+02,4.033146500587463379e-01,-6.667435455322265625e+01,-1.826885528564453125e+02,-2.343106746673583984e+00,7.562299346923828125e+01,3.135697174072265625e+01
8.713939785957336426e-01,1.000000000000000000e+00,-3.354592084884643555e+00,-2.875584363937377930e-01,4.390285968780517578e+00,-1.981008758544921875e+02,-8.806128692626953125e+01,-1.693824615478515625e+02,4.033146500587463379e-01,-6.667435455322265625e+01,-1.826887054443359375e+02,-2.343034982681274414e+00,7.562299346923828125e+01,3.135697174072265625e+01
8.752949833869934082e-01,1.000000000000000000e+00,-3.415364742279052734e+00,-2.340839207172393799e-01,4.399374485015869141e+00,-1.980512542724609375e+02,-8.798648834228515625e+01,-1.693215026855468750e+02,4.033146500587463379e-01,-6.667444610595703125e+01,-1.826887054443359375e+02,-2.343106746673583984e+00,7.562299346923828125e+01,3.135697174072265625e+01
8.800029754638671875e-01,1.000000000000000000e+00,-3.476423978805541992e+00,-1.806773096323013306e-01,4.408442497253417969e+00,-1.980007934570312500e+02,-8.791040039062500000e+01,-1.692610015869140625e+02,4.033146500587463379e-01,-6.667444610595703125e+01,-1.826887054443359375e+02,-2.343034982681274414e+00,7.562291717529296875e+01,3.135697174072265625e+01
8.843290209770202637e-01,1.000000000000000000e+00,-3.537397384643554688e+00,-1.274291127920150757e-01,4.417591571807861328e+00,-1.979498596191406250e+02,-8.783539581298828125e+01,-1.692012634277343750e+02,4.033146500587463379e-01,-6.667435455322265625e+01,-1.826887054443359375e+02,-2.343106746673583984e+00,7.562291717529296875e+01,3.135697174072265625e+01
8.876799941062927246e-01,1.000000000000000000e+00,-3.598456621170043945e+00,-7.413565367460250854e-02,4.426619052886962891e+00,-1.978994903564453125e+02,-8.775983428955078125e+01,-1.691405029296875000e+02,4.033146500587463379e-01,-6.667444610595703125e+01,-1.826887054443359375e+02,-2.343106746673583984e+00,7.562291717529296875e+01,3.135697174072265625e+01
8.912500143051147461e-01,1.000000000000000000e+00,-3.659315347671508789e+00,-2.070641331374645233e-02,4.435808658599853516e+00,-1.978486175537109375e+02,-8.768509674072265625e+01,-1.690797882080078125e+02,4.033146500587463379e-01,-6.667444610595703125e+01,-1.826887054443359375e+02,-2.343034982681274414e+00,7.562291717529296875e+01,3.135697174072265625e+01
8.954200148582458496e-01,1.000000000000000000e+00,-3.719944000244140625e+00,3.267756849527359009e-02,4.445161342620849609e+00,-1.977980957031250000e+02,-8.760938262939453125e+01,-1.690203094482421875e+02,4.033146500587463379e-01,-6.667444610595703125e+01,-1.826887054443359375e+02,-2.343106746673583984e+00,7.562299346923828125e+01,3.135719108581542969e+01
8.992869853973388672e-01,1.000000000000000000e+00,-3.780888319015502930e+00,8.610680699348449707e-02,4.454534530639648438e+00,-1.977482147216796875e+02,-8.753430938720703125e+01,-1.689601745605468750e+02,4.033146500587463379e-01,-6.667435455322265625e+01,-1.826887054443359375e+02,-2.343034982681274414e+00,7.562291717529296875e+01,3.135697174072265625e+01
9.039559960365295410e-01,1.000000000000000000e+00,-3.841574668884277344e+00,1.393097490072250366e-01,4.463785648345947266e+00,-1.976971740722656250e+02,-8.745881652832031250e+01,-1.688998107910156250e+02,4.033146500587463379e-01,-6.667444610595703125e+01,-1.826887054443359375e+02,-2.343034982681274414e+00,7.562291717529296875e+01,3.135697174072265625e+01
9.082739949226379395e-01,1.000000000000000000e+00,-3.902059793472290039e+00,1.925353258848190308e-01,4.473036289215087891e+00,-1.976464080810546875e+02,-8.738368988037109375e+01,-1.688401947021484375e+02,4.033146500587463379e-01,-6.667444610595703125e+01,-1.826887054443359375e+02,-2.343034982681274414e+00,7.562291717529296875e+01,3.135697174072265625e+01
9.117829799652099609e-01,1.000000000000000000e+00,-3.962889432907104492e+00,2.458514124155044556e-01,4.482023239135742188e+00,-1.975957183837890625e+02,-8.730783081054687500e+01,-1.687795104980468750e+02,4.033146500587463379e-01,-6.667444610595703125e+01,-1.826887054443359375e+02,-2.343034982681274414e+00,7.562299346923828125e+01,3.135697174072265625e+01
9.162480235099792480e-01,1.000000000000000000e+00,-4.023690700531005859e+00,2.989186048507690430e-01,4.491172790527343750e+00,-1.975453186035156250e+02,-8.723334503173828125e+01,-1.687187957763671875e+02,4.033146500587463379e-01,-6.667444610595703125e+01,-1.826887054443359375e+02,-2.343034982681274414e+00,7.562291717529296875e+01,3.135697174072265625e+01
9.194160103797912598e-01,1.000000000000000000e+00,-4.084319591522216797e+00,3.524836003780364990e-01,4.500402927398681641e+00,-1.974950103759765625e+02,-8.715816497802734375e+01,-1.686590728759765625e+02,4.033146500587463379e-01,-6.667444610595703125e+01,-1.826887054443359375e+02,-2.343106746673583984e+00,7.562291717529296875e+01,3.135697174072265625e+01
9.233700037002563477e-01,1.000000000000000000e+00,-4.145149230957031250e+00,4.058675765991210938e-01,4.509633541107177734e+00,-1.974443969726562500e+02,-8.708261871337890625e+01,-1.685993804931640625e+02,4.033146500587463379e-01,-6.667444610595703125e+01,-1.826887054443359375e+02,-2.343034982681274414e+00,7.562291717529296875e+01,3.135697174072265625e+01
9.283949732780456543e-01,1.000000000000000000e+00,-4.205892562866210938e+00,4.592289626598358154e-01,4.518661022186279297e+00,-1.973935089111328125e+02,-8.700691223144531250e+01,-1.685388336181640625e+02,4.033146500587463379e-01,-6.667453765869140625e+01,-1.826887054443359375e+02,-2.343178272247314453e+00,7.562299346923828125e+01,3.135697174072265625e+01
9.314079880714416504e-01,1.000000000000000000e+00,-4.266493320465087891e+00,5.125450491905212402e-01,4.527505397796630859e+00,-1.973433074951171875e+02,-8.693226623535156250e+01,-1.684792175292968750e+02,4.033146500587463379e-01,-6.667444610595703125e+01,-1.826887054443359375e+02,-2.343106746673583984e+00,7.562291717529296875e+01,3.135675048828125000e+01
9.359920024871826172e-01,1.000000000000000000e+00,-4.327236652374267578e+00,5.659742355346679688e-01,4.536349773406982422e+00,-1.972923736572265625e+02,-8.685736083984375000e+01,-1.684187774658203125e+02,4.033146500587463379e-01,-6.667444610595703125e+01,-1.826887054443359375e+02,-2.343106746673583984e+00,7.562291717529296875e+01,3.135697174072265625e+01
9.404349923133850098e-01,1.000000000000000000e+00,-4.449182987213134766e+00,6.725838184356689453e-01,4.554892063140869141e+00,-1.971921844482421875e+02,-8.670615386962890625e+01,-1.682983398437500000e+02,4.033146500587463379e-01,-6.667453765869140625e+01,-1.826887054443359375e+02,-2.343178272247314453e+00,7.562291717529296875e+01,3.135697174072265625e+01
9.434649944305419922e-01,1.000000000000000000e+00,-4.449182987213134766e+00,6.725838184356689453e-01,4.554892063140869141e+00,-1.971921844482421875e+02,-8.670615386962890625e+01,-1.682983398437500000e+02,4.033146500587463379e-01,-6.667453765869140625e+01,-1.826887054443359375e+02,-2.343178272247314453e+00,7.562291717529296875e+01,3.135697174072265625e+01
9.475229978561401367e-01,1.000000000000000000e+00,-4.510012626647949219e+00,7.260809540748596191e-01,4.564204216003417969e+00,-1.971415710449218750e+02,-8.663066101074218750e+01,-1.682381134033203125e+02,4.033146500587463379e-01,-6.667453765869140625e+01,-1.826887054443359375e+02,-2.343034982681274414e+00,7.562291717529296875e+01,3.135697174072265625e+01
9.513400197029113770e-01,1.000000000000000000e+00,-4.570813655853271484e+00,7.793744206428527832e-01,4.573455333709716797e+00,-1.970910491943359375e+02,-8.655580902099609375e+01,-1.681765441894531250e+02,4.033146500587463379e-01,-6.667444610595703125e+01,-1.826887054443359375e+02,-2.343034982681274414e+00,7.562291717529296875e+01,3.135697174072265625e+01
9.555130004882812500e-01,1.000000000000000000e+00,-4.631557941436767578e+00,8.325773477554321289e-01,4.582563877105712891e+00,-1.970411682128906250e+02,-8.647982788085937500e+01,-1.681170654296875000e+02,4.033146500587463379e-01,-6.667435455322265625e+01,-1.826887054443359375e+02,-2.343034982681274414e+00,7.562291717529296875e+01,3.135697174072265625e+01
9.601659774780273438e-01,1.000000000000000000e+00,-4.692128658294677734e+00,8.859161138534545898e-01,4.591530323028564453e+00,-1.969902954101562500e+02,-8.640496826171875000e+01,-1.680567169189453125e+02,4.033146500587463379e-01,-6.667444610595703125e+01,-1.826887054443359375e+02,-2.343106746673583984e+00,7.562291717529296875e+01,3.135697174072265625e+01
9.634699821472167969e-01,1.000000000000000000e+00,-4.752614498138427734e+00,9.391189813613891602e-01,4.600577831268310547e+00,-1.969394989013671875e+02,-8.632968902587890625e+01,-1.679958801269531250e+02,4.033146500587463379e-01,-6.667444610595703125e+01,-1.826887054443359375e+02,-2.343034982681274414e+00,7.562291717529296875e+01,3.135697174072265625e+01
9.676979780197143555e-01,1.000000000000000000e+00,-4.813156604766845703e+00,9.923445582389831543e-01,4.609788417816162109e+00,-1.968896331787109375e+02,-8.625435638427734375e+01,-1.679359283447265625e+02,4.033146500587463379e-01,-6.667453765869140625e+01,-1.826887054443359375e+02,-2.343034982681274414e+00,7.562291717529296875e+01,3.135697174072265625e+01
9.722319841384887695e-01,1.000000000000000000e+00,-4.873957633972167969e+00,1.045457005500793457e+00,4.619039058685302734e+00,-1.968388977050781250e+02,-8.617810821533203125e+01,-1.678761138916015625e+02,4.033146500587463379e-01,-6.667444610595703125e+01,-1.826887054443359375e+02,-2.343034982681274414e+00,7.562299346923828125e+01,3.135697174072265625e+01
9.756950139999389648e-01,1.000000000000000000e+00,-4.934643745422363281e+00,1.098886251449584961e+00,4.628168106079101562e+00,-1.967883911132812500e+02,-8.610298919677734375e+01,-1.678150787353515625e+02,4.033146500587463379e-01,-6.667444610595703125e+01,-1.826887054443359375e+02,-2.343034982681274414e+00,7.562291717529296875e+01,3.135697174072265625e+01
9.796969890594482422e-01,1.000000000000000000e+00,-4.995273113250732422e+00,1.152225017547607422e+00,4.637215614318847656e+00,-1.967377624511718750e+02,-8.602792358398437500e+01,-1.677553405761718750e+02,4.033146500587463379e-01,-6.667444610595703125e+01,-1.826887054443359375e+02,-2.343034982681274414e+00,7.562291717529296875e+01,3.135697174072265625e+01
9.843969941139221191e-01,1.000000000000000000e+00,-5.055987834930419922e+00,1.205495834350585938e+00,4.646121025085449219e+00,-1.966865081787109375e+02,-8.595306396484375000e+01,-1.676953735351562500e+02,4.033146500587463379e-01,-6.667453765869140625e+01,-1.826887054443359375e+02,-2.343034982681274414e+00,7.562291717529296875e+01,3.135697174072265625e+01
9.878060221672058105e-01,1.000000000000000000e+00,-5.116673946380615234e+00,1.258924961090087891e+00,4.655209541320800781e+00,-1.966363677978515625e+02,-8.587677001953125000e+01,-1.676344146728515625e+02,4.033146500587463379e-01,-6.667444610595703125e+01,-1.826887054443359375e+02,-2.343106746673583984e+00,7.562291717529296875e+01,3.135697174072265625e+01
9.924119710922241211e-01,1.000000000000000000e+00,-5.177388668060302734e+00,1.312376856803894043e+00,4.664602756500244141e+00,-1.965866394042968750e+02,-8.580196380615234375e+01,-1.675747375488281250e+02,4.033146500587463379e-01,-6.667444610595703125e+01,-1.826887054443359375e+02,-2.343034982681274414e+00,7.562291717529296875e+01,3.135697174072265625e+01
9.958469867706298828e-01,1.000000000000000000e+00,-5.238190174102783203e+00,1.365670442581176758e+00,4.673975944519042969e+00,-1.965354461669921875e+02,-8.572668457031250000e+01,-1.675153198242187500e+02,4.033146500587463379e-01,-6.667444610595703125e+01,-1.826887054443359375e+02,-2.342891216278076172e+00,7.562291717529296875e+01,3.135697174072265625e+01
1.000252008438110352e+00,1.000000000000000000e+00,-5.298761367797851562e+00,1.418828010559082031e+00,4.683287620544433594e+00,-1.964852905273437500e+02,-8.565139770507812500e+01,-1.674549102783203125e+02,4.033146500587463379e-01,-6.667444610595703125e+01,-1.826887054443359375e+02,-2.343034982681274414e+00,7.562291717529296875e+01,3.135697174072265625e+01
1.003875017166137695e+00,1.000000000000000000e+00,-5.359591007232666016e+00,1.472121596336364746e+00,4.692335128784179688e+00,-1.964347381591796875e+02,-8.557526397705078125e+01,-1.673946228027343750e+02,4.033146500587463379e-01,-6.667444610595703125e+01,-1.826887054443359375e+02,-2.343034982681274414e+00,7.562291717529296875e+01,3.135719108581542969e+01
1.008741021156311035e+00,1.000000000000000000e+00,-5.420162200927734375e+00,1.525437593460083008e+00,4.701240539550781250e+00,-1.963840637207031250e+02,-8.550045776367187500e+01,-1.673350677490234375e+02,4.033146500587463379e-01,-6.667444610595703125e+01,-1.826887054443359375e+02,-2.343106746673583984e+00,7.562291717529296875e+01,3.135697174072265625e+01
1.011891961097717285e+00,1.000000000000000000e+00,-5.480963706970214844e+00,1.578776359558105469e+00,4.710227489471435547e+00,-1.963341827392578125e+02,-8.542565917968750000e+01,-1.672747039794921875e+02,4.033146500587463379e-01,-6.667435455322265625e+01,-1.826887054443359375e+02,-2.343106746673583984e+00,7.562299346923828125e+01,3.135697174072265625e+01
1.016376972198486328e+00,1.000000000000000000e+00,-5.541621208190917969e+00,1.632001876831054688e+00,4.719336032867431641e+00,-1.962839355468750000e+02,-8.535032653808593750e+01,-1.672142944335937500e+02,4.033146500587463379e-01,-6.667453765869140625e+01,-1.826887054443359375e+02,-2.343106746673583984e+00,7.562291717529296875e+01,3.135697174072265625e+01
1.019971013069152832e+00,1.000000000000000000e+00,-5.602249622344970703e+00,1.685204744338989258e+00,4.728505611419677734e+00,-1.962330932617187500e+02,-8.527418518066406250e+01,-1.671546783447265625e+02,4.033146500587463379e-01,-6.667444610595703125e+01,-1.826887054443359375e+02,-2.343034982681274414e+00,7.562291717529296875e+01,3.135697174072265625e+01
1.024893999099731445e+00,1.000000000000000000e+00,-5.662821292877197266e+00,1.738272070884704590e+00,4.737654685974121094e+00,-1.961830139160156250e+02,-8.519901275634765625e+01,-1.670935668945312500e+02,4.033146500587463379e-01,-6.667444610595703125e+01,-1.826887054443359375e+02,-2.343178272247314453e+00,7.562299346923828125e+01,3.135697174072265625e+01
1.028303027153015137e+00,1.000000000000000000e+00,-5.723478794097900391e+00,1.791407108306884766e+00,4.746763229370117188e+00,-1.961322784423828125e+02,-8.512426757812500000e+01,-1.670329437255859375e+02,4.033146500587463379e-01,-6.667435455322265625e+01,-1.826887054443359375e+02,-2.343106746673583984e+00,7.562299346923828125e+01,3.135697174072265625e+01
1.032732009887695312e+00,1.000000000000000000e+00,-5.783963680267333984e+00,1.844791054725646973e+00,4.755709648132324219e+00,-1.960820312500000000e+02,-8.504919433593750000e+01,-1.669738769531250000e+02,4.033146500587463379e-01,-6.667435455322265625e+01,-1.826887054443359375e+02,-2.343106746673583984e+00,7.562291717529296875e+01,3.135697174072265625e+01
1.036226034164428711e+00,1.000000000000000000e+00,-5.844650268554687500e+00,1.898129820823669434e+00,4.764757156372070312e+00,-1.960319976806640625e+02,-8.497327423095703125e+01,-1.669127044677734375e+02,4.033146500587463379e-01,-6.667444610595703125e+01,-1.826887054443359375e+02,-2.343034982681274414e+00,7.562291717529296875e+01,3.135697174072265625e+01
1.039988994598388672e+00,1.000000000000000000e+00,-5.905508518218994141e+00,1.951513767242431641e+00,4.774028778076171875e+00,-1.959812164306640625e+02,-8.489783477783203125e+01,-1.668521575927734375e+02,4.033146500587463379e-01,-6.667444610595703125e+01,-1.826887054443359375e+02,-2.343034982681274414e+00,7.562299346923828125e+01,3.135697174072265625e+01
1.044252038002014160e+00,1.000000000000000000e+00,-5.966367244720458984e+00,2.004648923873901367e+00,4.783421993255615234e+00,-1.959303283691406250e+02,-8.482313537597656250e+01,-1.667930145263671875e+02,4.033146500587463379e-01,-6.667444610595703125e+01,-1.826885528564453125e+02,-2.343106746673583984e+00,7.562299346923828125e+01,3.135697174072265625e+01
1.048989057540893555e+00,1.000000000000000000e+00,-6.027139663696289062e+00,2.057964801788330078e+00,4.792713642120361328e+00,-1.958799743652343750e+02,-8.474763488769531250e+01,-1.667321777343750000e+02,4.033146500587463379e-01,-6.667435455322265625e+01,-1.826887054443359375e+02,-2.343106746673583984e+00,7.562299346923828125e+01,3.135697174072265625e+01
1.052314043045043945e+00,1.000000000000000000e+00,-6.087969303131103516e+00,2.111348867416381836e+00,4.801964282989501953e+00,-1.958292999267578125e+02,-8.467224884033203125e+01,-1.666716918945312500e+02,4.033146500587463379e-01,-6.667444610595703125e+01,-1.826887054443359375e+02,-2.343034982681274414e+00,7.562299346923828125e+01,3.135697174072265625e+01
1.056928038597106934e+00,1.000000000000000000e+00,-6.148626327514648438e+00,2.164370775222778320e+00,4.810849189758300781e+00,-1.957789459228515625e+02,-8.459686279296875000e+01,-1.666122741699218750e+02,4.033146500587463379e-01,-6.667444610595703125e+01,-1.826887054443359375e+02,-2.343106746673583984e+00,7.562299346923828125e+01,3.135697174072265625e+01
1.060392022132873535e+00,1.000000000000000000e+00,-6.209370136260986328e+00,2.217799901962280273e+00,4.819856166839599609e+00,-1.957286834716796875e+02,-8.452237701416015625e+01,-1.665515899658203125e+02,4.033146500587463379e-01,-6.667444610595703125e+01,-1.826887054443359375e+02,-2.343034982681274414e+00,7.562299346923828125e+01,3.135697174072265625e+01
1.064460039138793945e+00,1.000000000000000000e+00,-6.270314693450927734e+00,2.271048069000244141e+00,4.829005718231201172e+00,-1.956777496337890625e+02,-8.444650268554687500e+01,-1.664908905029296875e+02,4.033146500587463379e-01,-6.667444610595703125e+01,-1.826887054443359375e+02,-2.343106746673583984e+00,7.562299346923828125e+01,3.135697174072265625e+01
1.068514943122863770e+00,1.000000000000000000e+00,-6.331230640411376953e+00,2.324205875396728516e+00,4.838134765625000000e+00,-1.956276550292968750e+02,-8.437117004394531250e+01,-1.664320983886718750e+02,4.033146500587463379e-01,-6.667444610595703125e+01,-1.826887054443359375e+02,-2.343034982681274414e+00,7.562291717529296875e+01,3.135675048828125000e+01
1.073240995407104492e+00,1.000000000000000000e+00,-6.392146587371826172e+00,2.377386331558227539e+00,4.847324848175048828e+00,-1.955771942138671875e+02,-8.429594421386718750e+01,-1.663717346191406250e+02,4.033146500587463379e-01,-6.667444610595703125e+01,-1.826887054443359375e+02,-2.343106746673583984e+00,7.562291717529296875e+01,3.135697174072265625e+01
1.076401948928833008e+00,1.000000000000000000e+00,-6.452775001525878906e+00,2.430476188659667969e+00,4.856290817260742188e+00,-1.955265350341796875e+02,-8.422129821777343750e+01,-1.663111114501953125e+02,4.033146500587463379e-01,-6.667444610595703125e+01,-1.826887054443359375e+02,-2.342891216278076172e+00,7.562291717529296875e+01,3.135697174072265625e+01
1.080957055091857910e+00,1.000000000000000000e+00,-6.513375759124755859e+00,2.483656406402587891e+00,4.865135192871093750e+00,-1.954764404296875000e+02,-8.414585876464843750e+01,-1.662516937255859375e+02,4.033146500587463379e-01,-6.667444610595703125e+01,-1.826887054443359375e+02,-2.343106746673583984e+00,7.562291717529296875e+01,3.135697174072265625e+01
1.084431052207946777e+00,1.000000000000000000e+00,-6.574205398559570312e+00,2.536836624145507812e+00,4.874122142791748047e+00,-1.954261322021484375e+02,-8.407047271728515625e+01,-1.661910705566406250e+02,4.033146500587463379e-01,-6.667444610595703125e+01,-1.826887054443359375e+02,-2.343034982681274414e+00,7.562291717529296875e+01,3.135697174072265625e+01
1.087190032005310059e+00,1.000000000000000000e+00,-6.634747505187988281e+00,2.590062141418457031e+00,4.883393287658691406e+00,-1.953755645751953125e+02,-8.399550628662109375e+01,-1.661307067871093750e+02,4.033146500587463379e-01,-6.667444610595703125e+01,-1.826887054443359375e+02,-2.343034982681274414e+00,7.562291717529296875e+01,3.135697174072265625e+01
1.091207981109619141e+00,1.000000000000000000e+00,-6.695434093475341797e+00,2.643446207046508789e+00,4.892765998840332031e+00,-1.953257904052734375e+02,-8.392022705078125000e+01,-1.660715026855468750e+02,4.033146500587463379e-01,-6.667444610595703125e+01,-1.826887054443359375e+02,-2.343106746673583984e+00,7.562291717529296875e+01,3.135697174072265625e+01
1.095188975334167480e+00,1.000000000000000000e+00,-6.756177902221679688e+00,2.696626663208007812e+00,4.902037620544433594e+00,-1.952750091552734375e+02,-8.384468078613281250e+01,-1.660112915039062500e+02,4.033146500587463379e-01,-6.667444610595703125e+01,-1.826887054443359375e+02,-2.343178272247314453e+00,7.562291717529296875e+01,3.135697174072265625e+01
1.100685000419616699e+00,1.000000000000000000e+00,-6.817036151885986328e+00,2.750010490417480469e+00,4.911308765411376953e+00,-1.952241363525390625e+02,-8.376998138427734375e+01,-1.659499816894531250e+02,4.033146500587463379e-01,-6.667444610595703125e+01,-1.826887054443359375e+02,-2.343178272247314453e+00,7.562299346923828125e+01,3.135697174072265625e+01
1.103212952613830566e+00,1.000000000000000000e+00,-6.877750873565673828e+00,2.803213357925415039e+00,4.920213699340820312e+00,-1.951745605468750000e+02,-8.369523620605468750e+01,-1.658905639648437500e+02,4.033146500587463379e-01,-6.667444610595703125e+01,-1.826887054443359375e+02,-2.343034982681274414e+00,7.562291717529296875e+01,3.135697174072265625e+01
1.108749032020568848e+00,1.000000000000000000e+00,-6.938436985015869141e+00,2.856484174728393555e+00,4.929139614105224609e+00,-1.951237792968750000e+02,-8.361989593505859375e+01,-1.658301544189453125e+02,4.033146500587463379e-01,-6.667444610595703125e+01,-1.826887054443359375e+02,-2.343106746673583984e+00,7.562299346923828125e+01,3.135697174072265625e+01
