rpiRobotics/ARM-21-02-F-19-Robot-Motion-Program/data_performance_abb/curve_1/baseline/0.9/curve_exe_v125.9765625_z10.csv
timestamp, cmd_num, J1, J2, J3, J4, J5, J6
0, -1, 12.2141, 16.81, 14.9108, -146.703, -102.046, 141.17
0.002, -1, 12.2141, 16.81, 14.9108, -146.703, -102.046, 141.17
0.006, -1, 12.2141, 16.81, 14.9108, -146.703, -102.046, 141.17
0.008, -1, 12.2141, 16.81, 14.9108, -146.703, -102.046, 141.17
0.011, -1, 12.2141, 16.81, 14.9108, -146.703, -102.046, 141.17
0.016, -1, 12.2141, 16.81, 14.9108, -146.703, -102.046, 141.17
0.02, -1, 12.2141, 16.81, 14.9108, -146.703, -102.046, 141.17
0.024, -1, 12.2141, 16.81, 14.9108, -146.703, -102.046, 141.17
0.028, -1, 12.2141, 16.81, 14.9108, -146.703, -102.046, 141.17
0.032, -1, 12.2141, 16.81, 14.9108, -146.703, -102.046, 141.17
0.036, -1, 12.214, 16.81, 14.9108, -146.703, -102.046, 141.17
0.04, -1, 12.2137, 16.81, 14.9107, -146.703, -102.046, 141.17
0.044, -1, 12.213, 16.8099, 14.9107, -146.703, -102.046, 141.17
0.048, -1, 12.2117, 16.8097, 14.9105, -146.703, -102.046, 141.17
0.052, -1, 12.2097, 16.8094, 14.9103, -146.703, -102.046, 141.17
0.056, -1, 12.2067, 16.8089, 14.91, -146.703, -102.046, 141.169
0.06, -1, 12.2027, 16.8082, 14.9095, -146.703, -102.046, 141.168
0.064, -1, 12.1975, 16.8072, 14.909, -146.703, -102.046, 141.166
0.068, -1, 12.191, 16.8058, 14.9083, -146.704, -102.046, 141.163
0.072, -1, 12.1831, 16.804, 14.9076, -146.705, -102.045, 141.158
0.076, -1, 12.1733, 16.8018, 14.9068, -146.706, -102.045, 141.152
0.08, -1, 12.1613, 16.7989, 14.906, -146.708, -102.044, 141.142
0.084, -1, 12.1469, 16.7953, 14.9052, -146.71, -102.043, 141.129
0.088, -1, 12.1297, 16.791, 14.9045, -146.714, -102.042, 141.112
0.092, -1, 12.1097, 16.7858, 14.904, -146.718, -102.04, 141.09
0.096, -1, 12.087, 16.7799, 14.9038, -146.723, -102.038, 141.063
0.1, -1, 12.0616, 16.7731, 14.9041, -146.73, -102.036, 141.029
0.104, -1, 12.0333, 16.7654, 14.9049, -146.737, -102.032, 140.987
0.108, -1, 12.0021, 16.7568, 14.9064, -146.747, -102.029, 140.939
0.112, -1, 11.9679, 16.7473, 14.9084, -146.757, -102.024, 140.882
0.116, -1, 11.9306, 16.7368, 14.9111, -146.77, -102.019, 140.817
0.12, -1, 11.89, 16.7253, 14.9143, -146.784, -102.013, 140.744
0.124, -1, 11.8462, 16.7129, 14.9182, -146.799, -102.007, 140.663
0.128, -1, 11.7994, 16.6995, 14.9226, -146.816, -102, 140.574
0.131, -1, 11.7496, 16.6852, 14.9275, -146.834, -101.992, 140.479
0.136, -1, 11.6969, 16.6701, 14.9329, -146.853, -101.984, 140.377
0.139, -1, 11.6415, 16.6541, 14.9386, -146.873, -101.975, 140.269
0.144, -1, 11.5832, 16.6374, 14.9445, -146.895, -101.966, 140.155
0.148, -1, 11.5222, 16.6199, 14.9505, -146.917, -101.957, 140.038
0.152, -1, 11.4587, 16.6018, 14.9566, -146.94, -101.947, 139.917
0.156, -1, 11.3929, 16.5829, 14.9626, -146.964, -101.937, 139.793
0.16, -1, 11.3251, 16.5636, 14.9686, -146.987, -101.927, 139.667
0.164, -1, 11.2556, 16.5438, 14.9745, -147.012, -101.917, 139.538
0.168, -1, 11.1847, 16.5236, 14.9803, -147.036, -101.907, 139.409
0.172, -1, 11.1126, 16.5031, 14.9861, -147.061, -101.897, 139.278
0.176, -1, 11.0395, 16.4824, 14.9917, -147.086, -101.886, 139.147
0.18, -1, 10.9654, 16.4615, 14.9973, -147.111, -101.876, 139.015
0.184, -1, 10.8906, 16.4404, 15.0028, -147.136, -101.865, 138.882
0.188, -1, 10.8151, 16.4192, 15.0083, -147.161, -101.855, 138.75
0.192, -1, 10.7391, 16.398, 15.0138, -147.186, -101.844, 138.617
0.196, -1, 10.6628, 16.3766, 15.0192, -147.211, -101.834, 138.484
0.2, -1, 10.5863, 16.3553, 15.0246, -147.237, -101.823, 138.351
0.204, -1, 10.5096, 16.3339, 15.03, -147.262, -101.813, 138.218
0.208, -1, 10.4328, 16.3125, 15.0353, -147.287, -101.802, 138.084
0.212, -1, 10.356, 16.2911, 15.0407, -147.312, -101.792, 137.951
0.216, -1, 10.2791, 16.2696, 15.0461, -147.338, -101.781, 137.818
0.22, -1, 10.2021, 16.2482, 15.0515, -147.363, -101.77, 137.684
0.224, -1, 10.1251, 16.2268, 15.0568, -147.388, -101.76, 137.551
0.228, -1, 10.0481, 16.2053, 15.0622, -147.413, -101.749, 137.418
0.232, -1, 9.97113, 16.1839, 15.0675, -147.438, -101.739, 137.284
0.236, -1, 9.8941, 16.1624, 15.0729, -147.464, -101.728, 137.151
0.24, -1, 9.81706, 16.1409, 15.0783, -147.489, -101.718, 137.018
0.244, -1, 9.74001, 16.1195, 15.0836, -147.514, -101.707, 136.884
0.248, -1, 9.66295, 16.098, 15.089, -147.54, -101.697, 136.751
0.252, -1, 9.58589, 16.0766, 15.0944, -147.565, -101.686, 136.618
0.256, -1, 9.50882, 16.0551, 15.0997, -147.59, -101.676, 136.484
0.26, -1, 9.43174, 16.0336, 15.1051, -147.615, -101.665, 136.351
0.264, -1, 9.35465, 16.0122, 15.1105, -147.641, -101.654, 136.217
0.268, -1, 9.27756, 15.9907, 15.1158, -147.666, -101.644, 136.084
0.272, -1, 9.20046, 15.9692, 15.1212, -147.691, -101.633, 135.95
0.276, -1, 9.12336, 15.9478, 15.1266, -147.716, -101.623, 135.817
0.28, -1, 9.04625, 15.9263, 15.1319, -147.742, -101.612, 135.683
0.284, -1, 8.96913, 15.9048, 15.1373, -147.767, -101.602, 135.55
0.288, -1, 8.89201, 15.8833, 15.1427, -147.792, -101.591, 135.416
0.292, -1, 8.81488, 15.8618, 15.148, -147.818, -101.581, 135.283
0.296, -1, 8.73774, 15.8404, 15.1534, -147.843, -101.57, 135.149
0.3, -1, 8.6606, 15.8189, 15.1588, -147.868, -101.559, 135.016
0.304, -1, 8.58345, 15.7974, 15.1642, -147.893, -101.549, 134.882
0.308, -1, 8.50629, 15.7759, 15.1695, -147.919, -101.538, 134.749
0.312, -1, 8.42913, 15.7544, 15.1749, -147.944, -101.528, 134.615
0.316, -1, 8.35196, 15.7329, 15.1803, -147.969, -101.517, 134.482
0.32, -1, 8.27479, 15.7114, 15.1856, -147.995, -101.507, 134.348
0.324, -1, 8.19761, 15.6899, 15.191, -148.02, -101.496, 134.214
0.328, -1, 8.12042, 15.6684, 15.1964, -148.045, -101.485, 134.081
0.332, -1, 8.04323, 15.6469, 15.2018, -148.07, -101.475, 133.947
0.336, -1, 7.96603, 15.6254, 15.2071, -148.096, -101.464, 133.813
0.34, -1, 7.88882, 15.6039, 15.2125, -148.121, -101.454, 133.68
0.344, -1, 7.81161, 15.5824, 15.2179, -148.146, -101.443, 133.546
0.348, -1, 7.73439, 15.5609, 15.2233, -148.172, -101.433, 133.412
0.352, -1, 7.65717, 15.5394, 15.2286, -148.197, -101.422, 133.279
0.356, -1, 7.57994, 15.5179, 15.234, -148.222, -101.412, 133.145
0.36, -1, 7.5027, 15.4964, 15.2394, -148.248, -101.401, 133.011
0.364, -1, 7.42545, 15.4749, 15.2448, -148.273, -101.39, 132.878
0.368, -1, 7.3482, 15.4534, 15.2502, -148.298, -101.38, 132.744
0.372, -1, 7.27095, 15.4319, 15.2555, -148.324, -101.369, 132.61
0.376, -1, 7.19369, 15.4103, 15.2609, -148.349, -101.359, 132.476
0.38, -1, 7.11642, 15.3888, 15.2663, -148.374, -101.348, 132.343
0.384, -1, 7.03914, 15.3673, 15.2717, -148.4, -101.337, 132.209
0.388, -1, 6.96186, 15.3458, 15.277, -148.425, -101.327, 132.075
0.392, -1, 6.88457, 15.3243, 15.2824, -148.45, -101.316, 131.941
0.396, -1, 6.80728, 15.3027, 15.2878, -148.476, -101.306, 131.808
0.4, -1, 6.72998, 15.2812, 15.2932, -148.501, -101.295, 131.674
0.404, -1, 6.65267, 15.2597, 15.2986, -148.526, -101.285, 131.54
0.408, -1, 6.57536, 15.2381, 15.304, -148.552, -101.274, 131.406
0.412, -1, 6.49804, 15.2166, 15.3093, -148.577, -101.263, 131.272
0.416, -1, 6.42071, 15.1951, 15.3147, -148.602, -101.253, 131.138
0.42, -1, 6.34338, 15.1735, 15.3201, -148.628, -101.242, 131.004
0.424, -1, 6.26604, 15.152, 15.3255, -148.653, -101.232, 130.871
0.428, -1, 6.18869, 15.1305, 15.3309, -148.678, -101.221, 130.737
0.432, -1, 6.11134, 15.1089, 15.3363, -148.704, -101.21, 130.603
0.436, -1, 6.03398, 15.0874, 15.3416, -148.729, -101.2, 130.469
0.44, -1, 5.95661, 15.0658, 15.347, -148.755, -101.189, 130.335
0.444, -1, 5.87924, 15.0443, 15.3524, -148.78, -101.179, 130.201
0.448, -1, 5.80186, 15.0227, 15.3578, -148.805, -101.168, 130.067
0.452, -1, 5.72448, 15.0012, 15.3632, -148.831, -101.158, 129.933
0.456, -1, 5.64709, 14.9796, 15.3686, -148.856, -101.147, 129.799
0.46, -1, 5.56969, 14.9581, 15.374, -148.881, -101.136, 129.665
0.464, -1, 5.49229, 14.9365, 15.3793, -148.907, -101.126, 129.531
0.468, -1, 5.41487, 14.915, 15.3847, -148.932, -101.115, 129.397
0.472, -1, 5.33746, 14.8934, 15.3901, -148.957, -101.105, 129.263
0.476, -1, 5.26003, 14.8718, 15.3955, -148.983, -101.094, 129.129
0.48, -1, 5.1826, 14.8503, 15.4009, -149.008, -101.083, 128.995
0.484, -1, 5.10517, 14.8287, 15.4063, -149.034, -101.073, 128.861
0.488, -1, 5.02772, 14.8071, 15.4117, -149.059, -101.062, 128.727
0.492, -1, 4.95027, 14.7856, 15.4171, -149.084, -101.052, 128.593
0.496, -1, 4.87281, 14.764, 15.4225, -149.11, -101.041, 128.459
0.5, -1, 4.79535, 14.7424, 15.4279, -149.135, -101.03, 128.325
0.504, -1, 4.71788, 14.7208, 15.4333, -149.161, -101.02, 128.191
0.508, -1, 4.6404, 14.6993, 15.4387, -149.186, -101.009, 128.056
0.512, -1, 4.56292, 14.6777, 15.444, -149.211, -100.999, 127.922
0.516, -1, 4.48543, 14.6561, 15.4494, -149.237, -100.988, 127.788
0.52, -1, 4.40793, 14.6345, 15.4548, -149.262, -100.977, 127.654
0.524, -1, 4.33043, 14.6129, 15.4602, -149.288, -100.967, 127.52
0.528, -1, 4.25292, 14.5914, 15.4656, -149.313, -100.956, 127.386
0.532, -1, 4.1754, 14.5698, 15.471, -149.338, -100.946, 127.252
0.536, -1, 4.09788, 14.5482, 15.4764, -149.364, -100.935, 127.117
0.54, -1, 4.02035, 14.5266, 15.4818, -149.389, -100.924, 126.983
0.544, -1, 3.94281, 14.505, 15.4872, -149.415, -100.914, 126.849
0.548, -1, 3.86527, 14.4834, 15.4926, -149.44, -100.903, 126.715
0.552, -1, 3.78772, 14.4618, 15.498, -149.466, -100.892, 126.58
0.556, -1, 3.71016, 14.4402, 15.5034, -149.491, -100.882, 126.446
0.56, -1, 3.6326, 14.4186, 15.5088, -149.516, -100.871, 126.312
0.564, -1, 3.55503, 14.397, 15.5142, -149.542, -100.861, 126.178
0.568, -1, 3.47745, 14.3754, 15.5196, -149.567, -100.85, 126.043
0.572, -1, 3.39987, 14.3538, 15.525, -149.593, -100.839, 125.909
0.576, -1, 3.32228, 14.3322, 15.5304, -149.618, -100.829, 125.775
0.58, -1, 3.24468, 14.3106, 15.5358, -149.644, -100.818, 125.64
0.584, -1, 3.16708, 14.289, 15.5412, -149.669, -100.808, 125.506
0.588, -1, 3.08947, 14.2673, 15.5466, -149.694, -100.797, 125.372
0.592, -1, 3.01185, 14.2457, 15.552, -149.72, -100.786, 125.237
0.596, -1, 2.93423, 14.2241, 15.5574, -149.745, -100.776, 125.103
0.6, -1, 2.8566, 14.2025, 15.5628, -149.771, -100.765, 124.969
0.604, -1, 2.77896, 14.1809, 15.5682, -149.796, -100.754, 124.834
0.608, -1, 2.70132, 14.1592, 15.5736, -149.822, -100.744, 124.7
0.612, -1, 2.62367, 14.1376, 15.579, -149.847, -100.733, 124.565
0.616, -1, 2.54601, 14.116, 15.5845, -149.873, -100.722, 124.431
0.62, -1, 2.46835, 14.0944, 15.5899, -149.898, -100.712, 124.296
0.624, -1, 2.39068, 14.0727, 15.5953, -149.923, -100.701, 124.162
0.628, -1, 2.313, 14.0511, 15.6007, -149.949, -100.691, 124.028
0.632, -1, 2.23532, 14.0295, 15.6061, -149.974, -100.68, 123.893
0.636, -1, 2.15763, 14.0078, 15.6115, -150, -100.669, 123.759
0.64, -1, 2.07993, 13.9862, 15.6169, -150.025, -100.659, 123.624
0.644, -1, 2.00223, 13.9646, 15.6223, -150.051, -100.648, 123.49
0.648, -1, 1.92452, 13.9429, 15.6277, -150.076, -100.637, 123.355
0.652, -1, 1.8468, 13.9213, 15.6331, -150.102, -100.627, 123.22
0.656, -1, 1.76908, 13.8996, 15.6385, -150.127, -100.616, 123.086
0.66, -1, 1.69135, 13.878, 15.6439, -150.153, -100.606, 122.951
0.664, -1, 1.61361, 13.8563, 15.6494, -150.178, -100.595, 122.817
0.668, -1, 1.53587, 13.8347, 15.6548, -150.204, -100.584, 122.682
0.672, -1, 1.45812, 13.813, 15.6602, -150.229, -100.574, 122.548
0.676, -1, 1.38036, 13.7914, 15.6656, -150.255, -100.563, 122.413
0.68, -1, 1.3026, 13.7697, 15.671, -150.28, -100.552, 122.278
0.684, -1, 1.22483, 13.748, 15.6764, -150.306, -100.542, 122.144
0.688, -1, 1.14705, 13.7264, 15.6818, -150.331, -100.531, 122.009
0.692, -1, 1.06927, 13.7047, 15.6873, -150.357, -100.52, 121.875
0.696, -1, 0.991475, 13.6831, 15.6927, -150.382, -100.51, 121.74
0.7, -1, 0.913677, 13.6614, 15.6981, -150.408, -100.499, 121.605
0.704, -1, 0.835873, 13.6397, 15.7035, -150.433, -100.488, 121.47
0.708, -1, 0.758062, 13.6181, 15.7089, -150.459, -100.478, 121.336
0.712, -1, 0.680244, 13.5964, 15.7143, -150.484, -100.467, 121.201
0.716, -1, 0.602419, 13.5747, 15.7198, -150.51, -100.456, 121.066
0.72, -1, 0.524587, 13.553, 15.7252, -150.535, -100.446, 120.932
0.724, -1, 0.446748, 13.5314, 15.7306, -150.561, -100.435, 120.797
0.728, -1, 0.368903, 13.5097, 15.736, -150.586, -100.425, 120.662
0.732, -1, 0.29105, 13.488, 15.7414, -150.612, -100.414, 120.527
0.736, -1, 0.213191, 13.4663, 15.7469, -150.637, -100.403, 120.393
0.74, -1, 0.135324, 13.4446, 15.7523, -150.663, -100.393, 120.258
0.744, -1, 0.0574511, 13.4229, 15.7577, -150.688, -100.382, 120.123
0.748, -1, -0.0204292, 13.4013, 15.7631, -150.714, -100.371, 119.988
0.752, -1, -0.0983164, 13.3796, 15.7685, -150.739, -100.361, 119.853
0.756, -1, -0.176211, 13.3579, 15.774, -150.765, -100.35, 119.718
0.76, -1, -0.254112, 13.3362, 15.7794, -150.79, -100.339, 119.584
0.764, -1, -0.33202, 13.3145, 15.7848, -150.816, -100.329, 119.449
0.768, -1, -0.409935, 13.2928, 15.7902, -150.842, -100.318, 119.314
0.772, -1, -0.487856, 13.2711, 15.7957, -150.867, -100.307, 119.179
0.776, -1, -0.565785, 13.2494, 15.8011, -150.893, -100.297, 119.044
0.78, -1, -0.643721, 13.2277, 15.8065, -150.918, -100.286, 118.909
0.784, -1, -0.721665, 13.206, 15.8119, -150.944, -100.275, 118.774
0.788, -1, -0.799615, 13.1843, 15.8174, -150.969, -100.265, 118.639
0.792, -1, -0.877572, 13.1625, 15.8228, -150.995, -100.254, 118.504
0.796, -1, -0.955537, 13.1408, 15.8282, -151.02, -100.243, 118.369
0.8, -1, -1.03351, 13.1191, 15.8336, -151.046, -100.233, 118.234
0.804, -1, -1.11149, 13.0974, 15.8391, -151.072, -100.222, 118.099
0.808, -1, -1.18947, 13.0757, 15.8445, -151.097, -100.211, 117.964
0.812, -1, -1.26747, 13.054, 15.8499, -151.123, -100.201, 117.829
0.816, -1, -1.34547, 13.0322, 15.8554, -151.148, -100.19, 117.694
0.82, -1, -1.42347, 13.0105, 15.8608, -151.174, -100.179, 117.559
0.824, -1, -1.50149, 12.9888, 15.8662, -151.199, -100.169, 117.424
0.828, -1, -1.57951, 12.9671, 15.8716, -151.225, -100.158, 117.289
0.832, -1, -1.65754, 12.9453, 15.8771, -151.251, -100.147, 117.154
0.836, -1, -1.73558, 12.9236, 15.8825, -151.276, -100.136, 117.019
0.84, -1, -1.81362, 12.9019, 15.8879, -151.302, -100.126, 116.884
0.844, -1, -1.89167, 12.8801, 15.8934, -151.327, -100.115, 116.749
0.848, -1, -1.96973, 12.8584, 15.8988, -151.353, -100.104, 116.614
0.852, -1, -2.04779, 12.8366, 15.9042, -151.378, -100.094, 116.479
0.856, -1, -2.12586, 12.8149, 15.9097, -151.404, -100.083, 116.343
0.86, -1, -2.20394, 12.7932, 15.9151, -151.43, -100.072, 116.208
0.864, -1, -2.28203, 12.7714, 15.9206, -151.455, -100.062, 116.073
0.868, -1, -2.36012, 12.7497, 15.926, -151.481, -100.051, 115.938
0.872, -1, -2.43822, 12.7279, 15.9314, -151.506, -100.04, 115.803
0.876, -1, -2.51633, 12.7062, 15.9369, -151.532, -100.03, 115.668
0.88, -1, -2.59445, 12.6844, 15.9423, -151.558, -100.019, 115.532
0.884, -1, -2.67257, 12.6626, 15.9477, -151.583, -100.008, 115.397
0.888, -1, -2.7507, 12.6409, 15.9532, -151.609, -99.9975, 115.262
0.892, -1, -2.82884, 12.6191, 15.9586, -151.635, -99.9868, 115.127
0.896, -1, -2.90698, 12.5974, 15.9641, -151.66, -99.9761, 114.991
0.9, -1, -2.98513, 12.5756, 15.9695, -151.686, -99.9654, 114.856
0.904, -1, -3.06329, 12.5538, 15.9749, -151.711, -99.9547, 114.721
0.908, -1, -3.14146, 12.5321, 15.9804, -151.737, -99.944, 114.585
0.912, -1, -3.21963, 12.5103, 15.9858, -151.763, -99.9333, 114.45
0.916, -1, -3.29781, 12.4885, 15.9913, -151.788, -99.9226, 114.315
0.92, -1, -3.376, 12.4667, 15.9967, -151.814, -99.9119, 114.179
0.924, -1, -3.45419, 12.445, 16.0022, -151.84, -99.9012, 114.044
0.928, -1, -3.53239, 12.4232, 16.0076, -151.865, -99.8905, 113.909
0.932, -1, -3.6106, 12.4014, 16.013, -151.891, -99.8798, 113.773
0.936, -1, -3.68882, 12.3796, 16.0185, -151.916, -99.8691, 113.638
0.94, -1, -3.76704, 12.3578, 16.0239, -151.942, -99.8584, 113.502
0.944, -1, -3.84527, 12.3361, 16.0294, -151.968, -99.8477, 113.367
0.948, -1, -3.92351, 12.3143, 16.0348, -151.993, -99.837, 113.232
0.952, -1, -4.00176, 12.2925, 16.0403, -152.019, -99.8263, 113.096
0.956, -1, -4.08001, 12.2707, 16.0457, -152.045, -99.8156, 112.961
0.96, -1, -4.15827, 12.2489, 16.0512, -152.07, -99.8049, 112.825
0.964, -1, -4.23654, 12.2271, 16.0566, -152.096, -99.7941, 112.69
0.968, -1, -4.31481, 12.2053, 16.0621, -152.122, -99.7834, 112.554
0.972, -1, -4.39309, 12.1835, 16.0675, -152.147, -99.7727, 112.419
0.976, -1, -4.47138, 12.1617, 16.073, -152.173, -99.762, 112.283
0.98, -1, -4.54968, 12.1399, 16.0784, -152.199, -99.7513, 112.148
0.984, -1, -4.62798, 12.1181, 16.0839, -152.224, -99.7406, 112.012
0.988, -1, -4.70629, 12.0963, 16.0893, -152.25, -99.7298, 111.877
0.992, -1, -4.78461, 12.0744, 16.0948, -152.276, -99.7191, 111.741
0.996, -1, -4.86294, 12.0526, 16.1002, -152.301, -99.7084, 111.605
1, -1, -4.94127, 12.0308, 16.1057, -152.327, -99.6977, 111.47
1.004, -1, -5.01961, 12.009, 16.1111, -152.353, -99.687, 111.334
1.008, -1, -5.09796, 11.9872, 16.1166, -152.378, -99.6762, 111.199
1.012, -1, -5.17631, 11.9654, 16.122, -152.404, -99.6655, 111.063
1.016, -1, -5.25467, 11.9435, 16.1275, -152.43, -99.6548, 110.927
1.02, -1, -5.33304, 11.9217, 16.1329, -152.455, -99.6441, 110.792
1.024, -1, -5.41142, 11.8999, 16.1384, -152.481, -99.6333, 110.656
1.027, -1, -5.4898, 11.8781, 16.1439, -152.507, -99.6226, 110.52
1.032, -1, -5.56819, 11.8562, 16.1493, -152.533, -99.6119, 110.384
1.036, -1, -5.64659, 11.8344, 16.1548, -152.558, -99.6011, 110.249
1.04, -1, -5.725, 11.8126, 16.1602, -152.584, -99.5904, 110.113
1.044, -1, -5.80341, 11.7907, 16.1657, -152.61, -99.5797, 109.977
1.048, -1, -5.88183, 11.7689, 16.1712, -152.635, -99.5689, 109.842
1.052, -1, -5.96026, 11.747, 16.1766, -152.661, -99.5582, 109.706
1.055, -1, -6.03869, 11.7252, 16.1821, -152.687, -99.5475, 109.57
1.06, -1, -6.11713, 11.7033, 16.1875, -152.712, -99.5367, 109.434
1.064, -1, -6.19558, 11.6815, 16.193, -152.738, -99.526, 109.298
1.068, -1, -6.27404, 11.6597, 16.1985, -152.764, -99.5153, 109.163
1.072, -1, -6.35251, 11.6378, 16.2039, -152.79, -99.5045, 109.027
1.076, -1, -6.43098, 11.6159, 16.2094, -152.815, -99.4938, 108.891
1.08, -1, -6.50946, 11.5941, 16.2148, -152.841, -99.483, 108.755
1.084, -1, -6.58794, 11.5722, 16.2203, -152.867, -99.4723, 108.619
1.088, -1, -6.66644, 11.5504, 16.2258, -152.893, -99.4616, 108.483
1.091, -1, -6.74494, 11.5285, 16.2312, -152.918, -99.4508, 108.347
1.096, -1, -6.82345, 11.5066, 16.2367, -152.944, -99.4401, 108.212
1.1, -1, -6.90196, 11.4848, 16.2422, -152.97, -99.4293, 108.076
1.104, -1, -6.98049, 11.4629, 16.2476, -152.995, -99.4186, 107.94
1.108, -1, -7.05902, 11.441, 16.2531, -153.021, -99.4078, 107.804
1.112, -1, -7.13756, 11.4192, 16.2586, -153.047, -99.3971, 107.668
1.116, -1, -7.2161, 11.3973, 16.264, -153.073, -99.3863, 107.532
1.119, -1, -7.29466, 11.3754, 16.2695, -153.098, -99.3756, 107.396
1.124, -1, -7.37322, 11.3535, 16.275, -153.124, -99.3648, 107.26
1.128, -1, -7.45179, 11.3317, 16.2804, -153.15, -99.3541, 107.124
1.132, -1, -7.53037, 11.3098, 16.2859, -153.176, -99.3433, 106.988
1.136, -1, -7.60895, 11.2879, 16.2914, -153.202, -99.3325, 106.852
1.14, -1, -7.68754, 11.266, 16.2969, -153.227, -99.3218, 106.716
1.144, -1, -7.76614, 11.2441, 16.3023, -153.253, -99.311, 106.58
1.147, -1, -7.84475, 11.2222, 16.3078, -153.279, -99.3003, 106.444
1.152, -1, -7.92337, 11.2003, 16.3133, -153.305, -99.2895, 106.308
1.156, -1, -8.00199, 11.1784, 16.3187, -153.33, -99.2788, 106.171
1.16, -1, -8.08062, 11.1565, 16.3242, -153.356, -99.268, 106.035
1.164, -1, -8.15926, 11.1346, 16.3297, -153.382, -99.2572, 105.899
1.168, -1, -8.2379, 11.1127, 16.3352, -153.408, -99.2465, 105.763
1.172, -1, -8.31656, 11.0908, 16.3406, -153.433, -99.2357, 105.627
1.175, -1, -8.39522, 11.0689, 16.3461, -153.459, -99.2249, 105.491
1.18, -1, -8.47389, 11.047, 16.3516, -153.485, -99.2142, 105.355
1.184, -1, -8.55256, 11.0251, 16.3571, -153.511, -99.2034, 105.218
1.188, -1, -8.63125, 11.0032, 16.3625, -153.537, -99.1926, 105.082
1.192, -1, -8.70994, 10.9813, 16.368, -153.562, -99.1819, 104.946
1.196, -1, -8.78864, 10.9594, 16.3735, -153.588, -99.1711, 104.81
1.2, -1, -8.86735, 10.9374, 16.379, -153.614, -99.1603, 104.673
1.204, -1, -8.94607, 10.9155, 16.3845, -153.64, -99.1495, 104.537
1.208, -1, -9.02479, 10.8936, 16.3899, -153.666, -99.1388, 104.401
1.212, -1, -9.10352, 10.8717, 16.3954, -153.691, -99.128, 104.265
1.216, -1, -9.18227, 10.8497, 16.4009, -153.717, -99.1172, 104.128
1.22, -1, -9.26101, 10.8278, 16.4064, -153.743, -99.1064, 103.992
1.224, -1, -9.33977, 10.8059, 16.4119, -153.769, -99.0956, 103.856
1.228, -1, -9.41853, 10.7839, 16.4174, -153.795, -99.0849, 103.719
1.232, -1, -9.4973, 10.762, 16.4228, -153.821, -99.0741, 103.583
1.236, -1, -9.57608, 10.7401, 16.4283, -153.846, -99.0633, 103.447
1.24, -1, -9.65487, 10.7181, 16.4338, -153.872, -99.0525, 103.31
1.244, -1, -9.73367, 10.6962, 16.4393, -153.898, -99.0417, 103.174
1.248, -1, -9.81247, 10.6742, 16.4448, -153.924, -99.0309, 103.037
1.252, -1, -9.89128, 10.6523, 16.4503, -153.95, -99.0202, 102.901
1.256, -1, -9.9701, 10.6303, 16.4558, -153.976, -99.0094, 102.764
1.26, -1, -10.0489, 10.6084, 16.4612, -154.001, -98.9986, 102.628
1.264, -1, -10.1278, 10.5864, 16.4667, -154.027, -98.9878, 102.492
1.267, -1, -10.2066, 10.5645, 16.4722, -154.053, -98.977, 102.355
1.272, -1, -10.2855, 10.5425, 16.4777, -154.079, -98.9662, 102.219
1.276, -1, -10.3643, 10.5205, 16.4832, -154.105, -98.9554, 102.082
1.28, -1, -10.4432, 10.4986, 16.4887, -154.131, -98.9446, 101.945
1.284, -1, -10.5221, 10.4766, 16.4942, -154.156, -98.9338, 101.809
1.288, -1, -10.6009, 10.4546, 16.4997, -154.182, -98.923, 101.672
1.292, -1, -10.6798, 10.4327, 16.5052, -154.208, -98.9122, 101.536
1.295, -1, -10.7587, 10.4107, 16.5107, -154.234, -98.9014, 101.399
1.3, -1, -10.8376, 10.3887, 16.5161, -154.26, -98.8906, 101.263
1.304, -1, -10.9165, 10.3667, 16.5216, -154.286, -98.8798, 101.126
1.308, -1, -10.9955, 10.3448, 16.5271, -154.312, -98.869, 100.989
1.312, -1, -11.0744, 10.3228, 16.5326, -154.338, -98.8582, 100.853
1.316, -1, -11.1533, 10.3008, 16.5381, -154.363, -98.8474, 100.716
1.32, -1, -11.2323, 10.2788, 16.5436, -154.389, -98.8366, 100.579
1.324, -1, -11.3112, 10.2568, 16.5491, -154.415, -98.8258, 100.443
1.328, -1, -11.3902, 10.2348, 16.5546, -154.441, -98.815, 100.306
1.332, -1, -11.4692, 10.2128, 16.5601, -154.467, -98.8042, 100.169
1.336, -1, -11.5481, 10.1908, 16.5656, -154.493, -98.7934, 100.033
1.34, -1, -11.6271, 10.1688, 16.5711, -154.519, -98.7826, 99.896
1.344, -1, -11.7061, 10.1468, 16.5766, -154.545, -98.7718, 99.7592
1.348, -1, -11.7851, 10.1248, 16.5821, -154.571, -98.7609, 99.6225
1.352, -1, -11.8641, 10.1028, 16.5876, -154.596, -98.7501, 99.4857
1.356, -1, -11.9432, 10.0808, 16.5931, -154.622, -98.7393, 99.3489
1.36, -1, -12.0222, 10.0588, 16.5986, -154.648, -98.7285, 99.2121
1.364, -1, -12.1012, 10.0368, 16.6041, -154.674, -98.7177, 99.0753
1.368, -1, -12.1803, 10.0148, 16.6096, -154.7, -98.7069, 98.9385
1.372, -1, -12.2593, 9.99279, 16.6151, -154.726, -98.696, 98.8016
1.376, -1, -12.3384, 9.97077, 16.6206, -154.752, -98.6852, 98.6648
1.38, -1, -12.4174, 9.94875, 16.6261, -154.778, -98.6744, 98.5279
1.384, -1, -12.4965, 9.92673, 16.6316, -154.804, -98.6636, 98.391
1.388, -1, -12.5756, 9.90471, 16.6371, -154.83, -98.6527, 98.2541
1.392, -1, -12.6547, 9.88268, 16.6426, -154.856, -98.6419, 98.1172
1.396, -1, -12.7338, 9.86065, 16.6481, -154.882, -98.6311, 97.9803
1.4, -1, -12.8129, 9.83862, 16.6537, -154.907, -98.6203, 97.8433
1.404, -1, -12.892, 9.81659, 16.6592, -154.933, -98.6094, 97.7064
1.408, -1, -12.9711, 9.79455, 16.6647, -154.959, -98.5986, 97.5694
1.412, -1, -13.0502, 9.77252, 16.6702, -154.985, -98.5878, 97.4324
1.416, -1, -13.1294, 9.75048, 16.6757, -155.011, -98.5769, 97.2954
1.42, -1, -13.2085, 9.72844, 16.6812, -155.037, -98.5661, 97.1584
1.424, -1, -13.2877, 9.70639, 16.6867, -155.063, -98.5553, 97.0214
1.428, -1, -13.3668, 9.68435, 16.6922, -155.089, -98.5444, 96.8844
1.432, -1, -13.446, 9.6623, 16.6977, -155.115, -98.5336, 96.7473
1.436, -1, -13.5252, 9.64025, 16.7032, -155.141, -98.5228, 96.6103
1.44, -1, -13.6044, 9.6182, 16.7087, -155.167, -98.5119, 96.4732
1.444, -1, -13.6836, 9.59614, 16.7143, -155.193, -98.5011, 96.3361
1.448, -1, -13.7628, 9.57408, 16.7198, -155.219, -98.4902, 96.199
1.452, -1, -13.842, 9.55202, 16.7253, -155.245, -98.4794, 96.0619
1.456, -1, -13.9212, 9.52996, 16.7308, -155.271, -98.4686, 95.9247
1.46, -1, -14.0004, 9.5079, 16.7363, -155.297, -98.4577, 95.7876
1.464, -1, -14.0797, 9.48583, 16.7418, -155.323, -98.4469, 95.6504
1.468, -1, -14.1589, 9.46376, 16.7474, -155.349, -98.436, 95.5133
1.472, -1, -14.2381, 9.44169, 16.7529, -155.375, -98.4252, 95.3761
1.476, -1, -14.3174, 9.41962, 16.7584, -155.401, -98.4143, 95.2389
1.48, -1, -14.3967, 9.39754, 16.7639, -155.427, -98.4035, 95.1016
1.484, -1, -14.4759, 9.37547, 16.7694, -155.453, -98.3926, 94.9644
1.488, -1, -14.5552, 9.35339, 16.7749, -155.479, -98.3818, 94.8272
1.492, -1, -14.6345, 9.33131, 16.7805, -155.505, -98.3709, 94.6899
1.496, -1, -14.7138, 9.30922, 16.786, -155.531, -98.3601, 94.5526
1.5, -1, -14.7931, 9.28713, 16.7915, -155.557, -98.3492, 94.4154
1.504, -1, -14.8724, 9.26504, 16.797, -155.583, -98.3384, 94.2781
1.508, -1, -14.9518, 9.24295, 16.8025, -155.609, -98.3275, 94.1407
1.512, -1, -15.0311, 9.22086, 16.8081, -155.635, -98.3167, 94.0034
1.516, -1, -15.1104, 9.19876, 16.8136, -155.661, -98.3058, 93.8661
1.52, -1, -15.1898, 9.17667, 16.8191, -155.687, -98.2949, 93.7287
1.524, -1, -15.2692, 9.15457, 16.8246, -155.713, -98.2841, 93.5913
1.528, -1, -15.3485, 9.13246, 16.8302, -155.739, -98.2732, 93.4539
1.532, -1, -15.4279, 9.11036, 16.8357, -155.765, -98.2623, 93.3165
1.536, -1, -15.5073, 9.08825, 16.8412, -155.791, -98.2515, 93.1791
1.54, -1, -15.5867, 9.06614, 16.8467, -155.817, -98.2406, 93.0417
1.544, -1, -15.6661, 9.04403, 16.8523, -155.843, -98.2297, 92.9042
1.548, -1, -15.7455, 9.02191, 16.8578, -155.869, -98.2189, 92.7668
1.552, -1, -15.8249, 8.99979, 16.8633, -155.895, -98.208, 92.6293
1.556, -1, -15.9043, 8.97768, 16.8689, -155.921, -98.1971, 92.4918
1.56, -1, -15.9838, 8.95555, 16.8744, -155.947, -98.1863, 92.3543
1.564, -1, -16.0632, 8.93343, 16.8799, -155.973, -98.1754, 92.2168
1.568, -1, -16.1426, 8.9113, 16.8854, -155.999, -98.1645, 92.0792
1.572, -1, -16.2221, 8.88917, 16.891, -156.025, -98.1536, 91.9417
1.576, -1, -16.3016, 8.86704, 16.8965, -156.051, -98.1428, 91.8041
1.58, -1, -16.3811, 8.84491, 16.902, -156.077, -98.1319, 91.6665
1.584, -1, -16.4605, 8.82277, 16.9076, -156.103, -98.121, 91.5289
1.588, -1, -16.54, 8.80063, 16.9131, -156.129, -98.1101, 91.3913
1.592, -1, -16.6195, 8.77849, 16.9186, -156.155, -98.0992, 91.2537
1.596, -1, -16.699, 8.75635, 16.9242, -156.181, -98.0884, 91.1161
1.6, -1, -16.7786, 8.7342, 16.9297, -156.207, -98.0775, 90.9784
1.604, -1, -16.8581, 8.71206, 16.9353, -156.234, -98.0666, 90.8407
1.608, -1, -16.9376, 8.68991, 16.9408, -156.26, -98.0557, 90.7031
1.612, -1, -17.0172, 8.66775, 16.9463, -156.286, -98.0448, 90.5654
1.616, -1, -17.0967, 8.6456, 16.9519, -156.312, -98.0339, 90.4276
1.62, -1, -17.1763, 8.62344, 16.9574, -156.338, -98.023, 90.2899
1.624, -1, -17.2559, 8.60128, 16.9629, -156.364, -98.0121, 90.1522
1.628, -1, -17.3354, 8.57912, 16.9685, -156.39, -98.0013, 90.0144
1.632, -1, -17.415, 8.55695, 16.974, -156.416, -97.9903, 89.8766
1.636, -1, -17.4946, 8.53478, 16.9796, -156.442, -97.9795, 89.7388
1.64, -1, -17.5742, 8.51261, 16.9851, -156.468, -97.9686, 89.601
1.644, -1, -17.6538, 8.49044, 16.9907, -156.494, -97.9577, 89.4632
1.648, -1, -17.7335, 8.46827, 16.9962, -156.52, -97.9468, 89.3254
1.652, -1, -17.8131, 8.44609, 17.0017, -156.547, -97.9359, 89.1875
1.656, -1, -17.8927, 8.42391, 17.0073, -156.573, -97.925, 89.0497
1.66, -1, -17.9724, 8.40173, 17.0128, -156.599, -97.9141, 88.9118
1.664, -1, -18.052, 8.37955, 17.0184, -156.625, -97.9032, 88.7739
1.668, -1, -18.1317, 8.35736, 17.0239, -156.651, -97.8923, 88.636
1.672, -1, -18.2114, 8.33517, 17.0295, -156.677, -97.8814, 88.4981
1.676, -1, -18.2911, 8.31298, 17.035, -156.703, -97.8704, 88.3601
1.68, -1, -18.3708, 8.29078, 17.0406, -156.729, -97.8595, 88.2222
1.684, -1, -18.4505, 8.26859, 17.0461, -156.756, -97.8486, 88.0842
1.688, -1, -18.5302, 8.24639, 17.0517, -156.782, -97.8377, 87.9462
1.692, -1, -18.6099, 8.22419, 17.0572, -156.808, -97.8268, 87.8082
1.696, -1, -18.6896, 8.20199, 17.0628, -156.834, -97.8159, 87.6702
1.7, -1, -18.7694, 8.17978, 17.0683, -156.86, -97.805, 87.5322
1.704, -1, -18.8491, 8.15757, 17.0739, -156.886, -97.7941, 87.3941
1.708, -1, -18.9288, 8.13536, 17.0794, -156.912, -97.7831, 87.2561
1.712, -1, -19.0086, 8.11315, 17.085, -156.939, -97.7722, 87.118
1.716, -1, -19.0884, 8.09093, 17.0905, -156.965, -97.7613, 86.9799
1.72, -1, -19.1682, 8.06872, 17.0961, -156.991, -97.7504, 86.8418
1.724, -1, -19.2479, 8.0465, 17.1016, -157.017, -97.7395, 86.7037
1.728, -1, -19.3277, 8.02427, 17.1072, -157.043, -97.7286, 86.5656
1.732, -1, -19.4075, 8.00205, 17.1127, -157.069, -97.7176, 86.4274
1.736, -1, -19.4874, 7.97982, 17.1183, -157.095, -97.7067, 86.2893
1.74, -1, -19.5672, 7.95759, 17.1238, -157.122, -97.6958, 86.1511
1.744, -1, -19.647, 7.93536, 17.1294, -157.148, -97.6849, 86.0129
1.748, -1, -19.7268, 7.91312, 17.135, -157.174, -97.6739, 85.8747
1.752, -1, -19.8067, 7.89089, 17.1405, -157.2, -97.663, 85.7365
1.756, -1, -19.8865, 7.86865, 17.1461, -157.226, -97.6521, 85.5982
1.76, -1, -19.9664, 7.84641, 17.1516, -157.252, -97.6411, 85.46
1.764, -1, -20.0463, 7.82416, 17.1572, -157.279, -97.6302, 85.3217
1.768, -1, -20.1262, 7.80191, 17.1628, -157.305, -97.6193, 85.1834
1.772, -1, -20.2061, 7.77967, 17.1683, -157.331, -97.6083, 85.0451
1.776, -1, -20.286, 7.75741, 17.1739, -157.357, -97.5974, 84.9068
1.78, -1, -20.3659, 7.73516, 17.1794, -157.383, -97.5865, 84.7685
1.784, -1, -20.4458, 7.7129, 17.185, -157.41, -97.5755, 84.6301
1.788, -1, -20.5257, 7.69064, 17.1906, -157.436, -97.5646, 84.4918
1.792, -1, -20.6056, 7.66838, 17.1961, -157.462, -97.5536, 84.3534
1.796, -1, -20.6856, 7.64612, 17.2017, -157.488, -97.5427, 84.215
1.8, -1, -20.7655, 7.62385, 17.2073, -157.514, -97.5318, 84.0766
1.804, -1, -20.8455, 7.60159, 17.2128, -157.541, -97.5208, 83.9382
1.808, -1, -20.9255, 7.57932, 17.2184, -157.567, -97.5099, 83.7998
1.812, -1, -21.0054, 7.55704, 17.224, -157.593, -97.4989, 83.6613
1.816, -1, -21.0854, 7.53477, 17.2295, -157.619, -97.488, 83.5229
1.82, -1, -21.1654, 7.51249, 17.2351, -157.646, -97.477, 83.3844
1.824, -1, -21.2454, 7.49021, 17.2407, -157.672, -97.4661, 83.2459
1.828, -1, -21.3254, 7.46793, 17.2462, -157.698, -97.4551, 83.1074
1.832, -1, -21.4055, 7.44564, 17.2518, -157.724, -97.4442, 82.9688
1.836, -1, -21.4855, 7.42335, 17.2574, -157.75, -97.4332, 82.8303
1.84, -1, -21.5655, 7.40106, 17.263, -157.777, -97.4223, 82.6918
1.844, -1, -21.6456, 7.37877, 17.2685, -157.803, -97.4113, 82.5532
1.848, -1, -21.7256, 7.35648, 17.2741, -157.829, -97.4003, 82.4146
1.852, -1, -21.8057, 7.33418, 17.2797, -157.855, -97.3894, 82.276
1.856, -1, -21.8858, 7.31188, 17.2853, -157.882, -97.3784, 82.1374
1.86, -1, -21.9658, 7.28958, 17.2908, -157.908, -97.3675, 81.9988
1.864, -1, -22.0459, 7.26727, 17.2964, -157.934, -97.3565, 81.8601
1.868, -1, -22.126, 7.24496, 17.302, -157.96, -97.3455, 81.7215
1.872, -1, -22.2061, 7.22265, 17.3076, -157.987, -97.3346, 81.5828
1.876, -1, -22.2863, 7.20034, 17.3131, -158.013, -97.3236, 81.4441
1.88, -1, -22.3664, 7.17803, 17.3187, -158.039, -97.3126, 81.3054
1.884, -1, -22.4465, 7.15571, 17.3243, -158.066, -97.3017, 81.1667
1.888, -1, -22.5267, 7.13339, 17.3299, -158.092, -97.2907, 81.0279
1.892, -1, -22.6068, 7.11107, 17.3354, -158.118, -97.2797, 80.8892
1.896, -1, -22.687, 7.08874, 17.341, -158.144, -97.2688, 80.7504
1.9, -1, -22.7672, 7.06642, 17.3466, -158.171, -97.2578, 80.6116
1.904, -1, -22.8473, 7.04409, 17.3522, -158.197, -97.2468, 80.4728
1.908, -1, -22.9275, 7.02176, 17.3578, -158.223, -97.2358, 80.334
1.912, -1, -23.0077, 6.99942, 17.3634, -158.249, -97.2249, 80.1952
1.916, -1, -23.0879, 6.97708, 17.3689, -158.276, -97.2139, 80.0564
1.92, -1, -23.1681, 6.95474, 17.3745, -158.302, -97.2029, 79.9175
1.924, -1, -23.2484, 6.9324, 17.3801, -158.328, -97.1919, 79.7786
1.928, -1, -23.3286, 6.91006, 17.3857, -158.355, -97.1809, 79.6397
1.932, -1, -23.4088, 6.88771, 17.3913, -158.381, -97.17, 79.5008
1.936, -1, -23.4891, 6.86536, 17.3969, -158.407, -97.159, 79.3619
1.94, -1, -23.5694, 6.84301, 17.4025, -158.434, -97.148, 79.223
1.944, -1, -23.6496, 6.82065, 17.408, -158.46, -97.137, 79.084
1.948, -1, -23.7299, 6.7983, 17.4136, -158.486, -97.126, 78.945
1.952, -1, -23.8102, 6.77594, 17.4192, -158.513, -97.115, 78.806
1.956, -1, -23.8905, 6.75357, 17.4248, -158.539, -97.104, 78.667
1.96, -1, -23.9708, 6.73121, 17.4304, -158.565, -97.093, 78.528
1.964, -1, -24.0511, 6.70884, 17.436, -158.592, -97.082, 78.389
1.968, -1, -24.1315, 6.68647, 17.4416, -158.618, -97.0711, 78.2499
1.972, -1, -24.2118, 6.6641, 17.4472, -158.644, -97.0601, 78.1109
1.976, -1, -24.2921, 6.64172, 17.4528, -158.671, -97.0491, 77.9718
1.98, -1, -24.3725, 6.61934, 17.4584, -158.697, -97.0381, 77.8327
1.984, -1, -24.4528, 6.59696, 17.464, -158.723, -97.0271, 77.6936
1.988, -1, -24.5332, 6.57458, 17.4696, -158.75, -97.0161, 77.5544
1.992, -1, -24.6136, 6.55219, 17.4752, -158.776, -97.0051, 77.4153
1.996, -1, -24.694, 6.5298, 17.4807, -158.802, -96.9941, 77.2761
1.999, -1, -24.7744, 6.50741, 17.4863, -158.829, -96.983, 77.1369
2.004, -1, -24.8548, 6.48502, 17.4919, -158.855, -96.972, 76.9977
2.008, -1, -24.9352, 6.46262, 17.4975, -158.881, -96.961, 76.8585
2.012, -1, -25.0156, 6.44023, 17.5031, -158.908, -96.95, 76.7193
2.015, -1, -25.0961, 6.41782, 17.5087, -158.934, -96.939, 76.5801
2.019, -1, -25.1765, 6.39542, 17.5143, -158.96, -96.928, 76.4408
2.024, -1, -25.257, 6.37301, 17.5199, -158.987, -96.917, 76.3015
2.028, -1, -25.3375, 6.35061, 17.5255, -159.013, -96.906, 76.1622
2.031, -1, -25.4179, 6.32819, 17.5311, -159.04, -96.895, 76.0229
2.036, -1, -25.4984, 6.30578, 17.5367, -159.066, -96.8839, 75.8836
2.04, -1, -25.5789, 6.28336, 17.5423, -159.092, -96.8729, 75.7443
2.044, -1, -25.6594, 6.26094, 17.548, -159.119, -96.8619, 75.6049
2.048, -1, -25.7399, 6.23852, 17.5536, -159.145, -96.8509, 75.4655
2.051, -1, -25.8204, 6.2161, 17.5592, -159.172, -96.8399, 75.3262
2.055, -1, -25.901, 6.19367, 17.5648, -159.198, -96.8289, 75.1868
2.06, -1, -25.9815, 6.17124, 17.5704, -159.224, -96.8178, 75.0473
2.064, -1, -26.062, 6.14881, 17.576, -159.251, -96.8068, 74.9079
2.068, -1, -26.1426, 6.12638, 17.5816, -159.277, -96.7958, 74.7684
2.071, -1, -26.2232, 6.10394, 17.5872, -159.304, -96.7848, 74.629
2.076, -1, -26.3037, 6.0815, 17.5928, -159.33, -96.7737, 74.4895
2.08, -1, -26.3843, 6.05906, 17.5984, -159.356, -96.7627, 74.35
2.084, -1, -26.4649, 6.03661, 17.604, -159.383, -96.7517, 74.2105
2.087, -1, -26.5455, 6.01417, 17.6096, -159.409, -96.7406, 74.071
2.092, -1, -26.6261, 5.99172, 17.6153, -159.436, -96.7296, 73.9314
2.096, -1, -26.7067, 5.96926, 17.6209, -159.462, -96.7186, 73.7919
2.1, -1, -26.7874, 5.94681, 17.6265, -159.488, -96.7075, 73.6523
2.104, -1, -26.868, 5.92435, 17.6321, -159.515, -96.6965, 73.5127
2.107, -1, -26.9487, 5.90189, 17.6377, -159.541, -96.6855, 73.3731
2.111, -1, -27.0293, 5.87943, 17.6433, -159.568, -96.6744, 73.2335
2.116, -1, -27.11, 5.85696, 17.6489, -159.594, -96.6634, 73.0938
2.12, -1, -27.1907, 5.8345, 17.6546, -159.621, -96.6523, 72.9542
2.124, -1, -27.2713, 5.81203, 17.6602, -159.647, -96.6413, 72.8145
2.127, -1, -27.352, 5.78955, 17.6658, -159.674, -96.6302, 72.6748
2.132, -1, -27.4327, 5.76708, 17.6714, -159.7, -96.6192, 72.5351
2.136, -1, -27.5135, 5.7446, 17.677, -159.727, -96.6081, 72.3954
2.14, -1, -27.5942, 5.72212, 17.6826, -159.753, -96.5971, 72.2556
2.143, -1, -27.6749, 5.69964, 17.6883, -159.779, -96.586, 72.1159
2.148, -1, -27.7556, 5.67715, 17.6939, -159.806, -96.575, 71.9761
2.152, -1, -27.8364, 5.65466, 17.6995, -159.832, -96.5639, 71.8363
2.156, -1, -27.9172, 5.63217, 17.7051, -159.859, -96.5529, 71.6965
2.16, -1, -27.9979, 5.60968, 17.7107, -159.885, -96.5418, 71.5567
2.163, -1, -28.0787, 5.58718, 17.7164, -159.912, -96.5308, 71.4169
2.168, -1, -28.1595, 5.56469, 17.722, -159.938, -96.5197, 71.277
2.172, -1, -28.2403, 5.54219, 17.7276, -159.965, -96.5087, 71.1372
2.176, -1, -28.3211, 5.51968, 17.7332, -159.991, -96.4976, 70.9973
2.179, -1, -28.4019, 5.49718, 17.7389, -160.018, -96.4865, 70.8574
2.184, -1, -28.4827, 5.47467, 17.7445, -160.044, -96.4755, 70.7175
2.188, -1, -28.5635, 5.45216, 17.7501, -160.071, -96.4644, 70.5776
2.192, -1, -28.6444, 5.42964, 17.7558, -160.097, -96.4533, 70.4376
2.196, -1, -28.7252, 5.40713, 17.7614, -160.124, -96.4423, 70.2977
2.199, -1, -28.8061, 5.38461, 17.767, -160.15, -96.4312, 70.1577
2.204, -1, -28.887, 5.36209, 17.7726, -160.177, -96.4201, 70.0177
2.208, -1, -28.9678, 5.33956, 17.7783, -160.203, -96.4091, 69.8777
2.212, -1, -29.0487, 5.31704, 17.7839, -160.23, -96.398, 69.7377
2.216, -1, -29.1296, 5.29451, 17.7895, -160.256, -96.3869, 69.5976
2.219, -1, -29.2105, 5.27198, 17.7952, -160.283, -96.3759, 69.4576
2.224, -1, -29.2914, 5.24944, 17.8008, -160.309, -96.3648, 69.3175
2.228, -1, -29.3724, 5.22691, 17.8064, -160.336, -96.3537, 69.1774
2.232, -1, -29.4533, 5.20437, 17.8121, -160.362, -96.3426, 69.0373
2.235, -1, -29.5342, 5.18183, 17.8177, -160.389, -96.3316, 68.8972
2.24, -1, -29.6152, 5.15928, 17.8233, -160.416, -96.3205, 68.7571
2.244, -1, -29.6961, 5.13674, 17.829, -160.442, -96.3094, 68.617
2.248, -1, -29.7771, 5.11419, 17.8346, -160.469, -96.2983, 68.4768
2.252, -1, -29.8581, 5.09164, 17.8402, -160.495, -96.2872, 68.3366
2.255, -1, -29.9391, 5.06908, 17.8459, -160.522, -96.2761, 68.1964
2.259, -1, -30.0201, 5.04652, 17.8515, -160.548, -96.2651, 68.0562
2.264, -1, -30.1011, 5.02396, 17.8572, -160.575, -96.254, 67.916
2.268, -1, -30.1821, 5.0014, 17.8628, -160.601, -96.2429, 67.7757
2.272, -1, -30.2631, 4.97884, 17.8684, -160.628, -96.2318, 67.6355
2.275, -1, -30.3441, 4.95627, 17.8741, -160.654, -96.2207, 67.4952
2.28, -1, -30.4252, 4.9337, 17.8797, -160.681, -96.2096, 67.3549
2.284, -1, -30.5062, 4.91113, 17.8854, -160.708, -96.1985, 67.2146
2.288, -1, -30.5873, 4.88855, 17.891, -160.734, -96.1874, 67.0743
2.291, -1, -30.6684, 4.86597, 17.8967, -160.761, -96.1763, 66.9339
2.296, -1, -30.7495, 4.84339, 17.9023, -160.787, -96.1652, 66.7936
2.3, -1, -30.8305, 4.82081, 17.9079, -160.814, -96.1541, 66.6532
2.304, -1, -30.9116, 4.79823, 17.9136, -160.84, -96.143, 66.5128
2.308, -1, -30.9928, 4.77564, 17.9192, -160.867, -96.1319, 66.3724
2.311, -1, -31.0739, 4.75305, 17.9249, -160.894, -96.1208, 66.232
2.316, -1, -31.155, 4.73045, 17.9305, -160.92, -96.1097, 66.0915
2.32, -1, -31.2361, 4.70786, 17.9362, -160.947, -96.0986, 65.9511
2.324, -1, -31.3173, 4.68526, 17.9418, -160.973, -96.0875, 65.8106
2.328, -1, -31.3984, 4.66266, 17.9475, -161, -96.0764, 65.6701
2.331, -1, -31.4796, 4.64005, 17.9531, -161.027, -96.0653, 65.5296
2.336, -1, -31.5608, 4.61744, 17.9588, -161.053, -96.0542, 65.3891
2.34, -1, -31.642, 4.59483, 17.9644, -161.08, -96.0431, 65.2486
2.344, -1, -31.7232, 4.57222, 17.9701, -161.107, -96.0319, 65.108
2.347, -1, -31.8044, 4.54961, 17.9757, -161.133, -96.0208, 64.9674
2.352, -1, -31.8856, 4.52699, 17.9814, -161.16, -96.0097, 64.8268
2.356, -1, -31.9668, 4.50437, 17.987, -161.186, -95.9986, 64.6862
2.36, -1, -32.048, 4.48175, 17.9927, -161.213, -95.9875, 64.5456
2.364, -1, -32.1293, 4.45912, 17.9984, -161.24, -95.9764, 64.405
2.367, -1, -32.2105, 4.4365, 18.004, -161.266, -95.9652, 64.2643
2.372, -1, -32.2918, 4.41386, 18.0097, -161.293, -95.9541, 64.1237
2.376, -1, -32.3731, 4.39123, 18.0153, -161.32, -95.943, 63.983
2.38, -1, -32.4543, 4.3686, 18.021, -161.346, -95.9319, 63.8423
2.383, -1, -32.5356, 4.34596, 18.0266, -161.373, -95.9207, 63.7015
2.388, -1, -32.6169, 4.32332, 18.0323, -161.4, -95.9096, 63.5608
2.392, -1, -32.6982, 4.30067, 18.038, -161.426, -95.8985, 63.4201
2.396, -1, -32.7795, 4.27803, 18.0436, -161.453, -95.8874, 63.2793
2.4, -1, -32.8609, 4.25538, 18.0493, -161.479, -95.8762, 63.1385
2.403, -1, -32.9422, 4.23273, 18.0549, -161.506, -95.8651, 62.9977
2.408, -1, -33.0236, 4.21007, 18.0606, -161.533, -95.854, 62.8569
2.412, -1, -33.1049, 4.18741, 18.0663, -161.559, -95.8428, 62.7161
2.416, -1, -33.1863, 4.16475, 18.0719, -161.586, -95.8317, 62.5752
2.42, -1, -33.2676, 4.14209, 18.0776, -161.613, -95.8205, 62.4344
2.423, -1, -33.349, 4.11943, 18.0833, -161.64, -95.8094, 62.2935
2.428, -1, -33.4304, 4.09676, 18.0889, -161.666, -95.7983, 62.1526
2.432, -1, -33.5118, 4.07409, 18.0946, -161.693, -95.7871, 62.0117
2.436, -1, -33.5932, 4.05142, 18.1003, -161.72, -95.776, 61.8707
2.439, -1, -33.6747, 4.02874, 18.1059, -161.746, -95.7648, 61.7298
2.444, -1, -33.7561, 4.00607, 18.1116, -161.773, -95.7537, 61.5888
2.448, -1, -33.8375, 3.98339, 18.1173, -161.8, -95.7425, 61.4478
2.452, -1, -33.919, 3.9607, 18.1229, -161.826, -95.7314, 61.3069
2.456, -1, -34.0004, 3.93802, 18.1286, -161.853, -95.7202, 61.1658
2.459, -1, -34.0818, 3.91534, 18.1343, -161.88, -95.7091, 61.0248
2.464, -1, -34.1631, 3.89268, 18.14, -161.906, -95.6979, 60.8838
2.468, -1, -34.2441, 3.87007, 18.1457, -161.933, -95.6868, 60.7427
2.472, -1, -34.3247, 3.84754, 18.1515, -161.96, -95.6756, 60.6018
2.476, -1, -34.4046, 3.82513, 18.1573, -161.987, -95.6645, 60.4609
2.479, -1, -34.4839, 3.80289, 18.1632, -162.013, -95.6534, 60.3203
2.484, -1, -34.5623, 3.78085, 18.1692, -162.04, -95.6423, 60.1801
2.488, -1, -34.6399, 3.75906, 18.1752, -162.066, -95.6312, 60.0406
2.492, -1, -34.7164, 3.73757, 18.1813, -162.092, -95.6202, 59.9021
2.495, -1, -34.7917, 3.71647, 18.1875, -162.118, -95.6093, 59.7649
2.5, -1, -34.8654, 3.69584, 18.1936, -162.144, -95.5986, 59.6295
2.504, -1, -34.9372, 3.67578, 18.1999, -162.169, -95.588, 59.4965
2.508, -1, -35.0068, 3.65637, 18.2061, -162.193, -95.5777, 59.3664
2.512, -1, -35.074, 3.63766, 18.2122, -162.217, -95.5676, 59.2401
2.515, -1, -35.1386, 3.61969, 18.2181, -162.24, -95.5579, 59.1181
2.52, -1, -35.2005, 3.6025, 18.2238, -162.262, -95.5486, 59.0013
2.524, -1, -35.2595, 3.58612, 18.2292, -162.283, -95.5398, 58.8904
2.528, -1, -35.3154, 3.57061, 18.2342, -162.303, -95.5315, 58.7861
2.531, -1, -35.368, 3.55603, 18.2388, -162.321, -95.5238, 58.6889
2.536, -1, -35.4171, 3.54244, 18.2428, -162.338, -95.5167, 58.5994
2.54, -1, -35.4626, 3.52985, 18.2464, -162.354, -95.5102, 58.5178
2.544, -1, -35.5044, 3.51826, 18.2495, -162.368, -95.5044, 58.4445
2.548, -1, -35.5427, 3.50764, 18.2519, -162.38, -95.4992, 58.3794
2.551, -1, -35.5777, 3.49796, 18.2538, -162.391, -95.4947, 58.3225
2.556, -1, -35.6093, 3.48919, 18.2551, -162.4, -95.4909, 58.2736
2.56, -1, -35.6376, 3.48134, 18.256, -162.408, -95.4877, 58.2321
2.564, -1, -35.6627, 3.4744, 18.2564, -162.415, -95.485, 58.1975
2.568, -1, -35.6846, 3.46835, 18.2565, -162.42, -95.4828, 58.1692
2.571, -1, -35.7034, 3.46317, 18.2564, -162.424, -95.481, 58.1464
2.576, -1, -35.7195, 3.45879, 18.2561, -162.428, -95.4797, 58.1284
2.58, -1, -35.7331, 3.45512, 18.2557, -162.431, -95.4786, 58.1144
2.584, -1, -35.7447, 3.45209, 18.2552, -162.433, -95.4778, 58.1039
2.587, -1, -35.7544, 3.44962, 18.2547, -162.434, -95.4773, 58.0961
2.592, -1, -35.7624, 3.44764, 18.2542, -162.435, -95.4769, 58.0905
2.596, -1, -35.7688, 3.4461, 18.2537, -162.436, -95.4766, 58.0866
2.6, 2, -35.7738, 3.44494, 18.2533, -162.437, -95.4764, 58.0838
2.604, 2, -35.7775, 3.44409, 18.253, -162.437, -95.4763, 58.082
2.607, 2, -35.7802, 3.4435, 18.2528, -162.437, -95.4762, 58.0807
2.612, 2, -35.782, 3.4431, 18.2527, -162.437, -95.4761, 58.0798
2.616, 2, -35.7832, 3.44283, 18.2526, -162.438, -95.4761, 58.0792
2.62, 2, -35.7841, 3.44264, 18.2525, -162.438, -95.4761, 58.0788
2.624, 2, -35.7847, 3.44251, 18.2525, -162.438, -95.476, 58.0786
2.627, 2, -35.785, 3.44243, 18.2524, -162.438, -95.476, 58.0784
2.632, 2, -35.7853, 3.44237, 18.2524, -162.438, -95.476, 58.0783
2.636, 2, -35.7855, 3.44233, 18.2524, -162.438, -95.476, 58.0782
2.64, 2, -35.7856, 3.4423, 18.2524, -162.438, -95.476, 58.0781
2.643, 2, -35.7857, 3.44229, 18.2524, -162.438, -95.476, 58.0781
2.648, 2, -35.7857, 3.44228, 18.2524, -162.438, -95.476, 58.078
2.652, 2, -35.7858, 3.44227, 18.2524, -162.438, -95.476, 58.078
2.656, 2, -35.7858, 3.44226, 18.2524, -162.438, -95.476, 58.078
2.66, 2, -35.7858, 3.44226, 18.2524, -162.438, -95.476, 58.078
2.663, 2, -35.7858, 3.44225, 18.2524, -162.438, -95.476, 58.078
2.668, 2, -35.7858, 3.44225, 18.2524, -162.438, -95.476, 58.078
2.672, 2, -35.7858, 3.44225, 18.2524, -162.438, -95.476, 58.078
2.676, 2, -35.7858, 3.44225, 18.2524, -162.438, -95.476, 58.078
2.679, 2, -35.7858, 3.44225, 18.2524, -162.438, -95.476, 58.078
2.684, 2, -35.7858, 3.44225, 18.2524, -162.438, -95.476, 58.078
2.688, 2, -35.7858, 3.44225, 18.2524, -162.438, -95.476, 58.078
2.692, 2, -35.7858, 3.44225, 18.2524, -162.438, -95.476, 58.078
2.696, 2, -35.7858, 3.44225, 18.2524, -162.438, -95.476, 58.078
2.699, 2, -35.7858, 3.44225, 18.2524, -162.438, -95.476, 58.078
2.704, 2, -35.7858, 3.44225, 18.2524, -162.438, -95.476, 58.078
2.708, 2, -35.7858, 3.44225, 18.2524, -162.438, -95.476, 58.078
2.712, 2, -35.7858, 3.44225, 18.2524, -162.438, -95.476, 58.078
2.716, 2, -35.7858, 3.44225, 18.2524, -162.438, -95.476, 58.078
2.719, 2, -35.7858, 3.44225, 18.2524, -162.438, -95.476, 58.078
2.724, 2, -35.7858, 3.44225, 18.2524, -162.438, -95.476, 58.078
2.728, 2, -35.7858, 3.44225, 18.2524, -162.438, -95.476, 58.078
2.732, 2, -35.7858, 3.44225, 18.2524, -162.438, -95.476, 58.078
2.735, 2, -35.7858, 3.44225, 18.2524, -162.438, -95.476, 58.078
2.74, 2, -35.7858, 3.44225, 18.2524, -162.438, -95.476, 58.078
2.744, 2, -35.7858, 3.44225, 18.2524, -162.438, -95.476, 58.078
2.748, 2, -35.7858, 3.44225, 18.2524, -162.438, -95.476, 58.078
2.752, 2, -35.7858, 3.44225, 18.2524, -162.438, -95.476, 58.078
2.755, 2, -35.7858, 3.44225, 18.2524, -162.438, -95.476, 58.078
2.76, 2, -35.7858, 3.44225, 18.2524, -162.438, -95.476, 58.078
2.764, 2, -35.7858, 3.44225, 18.2524, -162.438, -95.476, 58.078
2.768, 2, -35.7858, 3.44225, 18.2524, -162.438, -95.476, 58.078
2.772, 2, -35.7858, 3.44225, 18.2524, -162.438, -95.476, 58.078
2.775, 2, -35.7858, 3.44225, 18.2524, -162.438, -95.476, 58.078
2.78, 2, -35.7858, 3.44225, 18.2524, -162.438, -95.476, 58.078
2.784, 2, -35.7858, 3.44225, 18.2524, -162.438, -95.476, 58.078
2.788, 2, -35.7858, 3.44225, 18.2524, -162.438, -95.476, 58.078
2.791, 2, -35.7858, 3.44225, 18.2524, -162.438, -95.476, 58.078
2.796, 2, -35.7858, 3.44225, 18.2524, -162.438, -95.476, 58.078
2.8, 2, -35.7858, 3.44225, 18.2524, -162.438, -95.476, 58.078
2.804, 2, -35.7858, 3.44225, 18.2524, -162.438, -95.476, 58.078
2.808, 2, -35.7858, 3.44225, 18.2524, -162.438, -95.476, 58.078
2.811, 2, -35.7858, 3.44225, 18.2524, -162.438, -95.476, 58.078
2.816, 2, -35.7858, 3.44225, 18.2524, -162.438, -95.476, 58.078
2.82, 2, -35.7858, 3.44225, 18.2524, -162.438, -95.476, 58.078
2.824, 2, -35.7858, 3.44225, 18.2524, -162.438, -95.476, 58.078
2.828, 2, -35.7858, 3.44225, 18.2524, -162.438, -95.476, 58.078
2.831, 2, -35.7858, 3.44225, 18.2524, -162.438, -95.476, 58.078
2.836, 2, -35.7858, 3.44225, 18.2524, -162.438, -95.476, 58.078
2.84, 2, -35.7858, 3.44225, 18.2524, -162.438, -95.476, 58.078
2.844, 2, -35.7858, 3.44225, 18.2524, -162.438, -95.476, 58.078
2.847, 2, -35.7858, 3.44225, 18.2524, -162.438, -95.476, 58.078
2.852, 2, -35.7858, 3.44225, 18.2524, -162.438, -95.476, 58.078
2.856, 2, -35.7858, 3.44225, 18.2524, -162.438, -95.476, 58.078
2.86, 2, -35.7858, 3.44225, 18.2524, -162.438, -95.476, 58.078
2.864, 2, -35.7858, 3.44225, 18.2524, -162.438, -95.476, 58.078
2.867, 2, -35.7858, 3.44225, 18.2524, -162.438, -95.476, 58.078
2.872, 2, -35.7858, 3.44225, 18.2524, -162.438, -95.476, 58.078
2.876, 2, -35.7858, 3.44225, 18.2524, -162.438, -95.476, 58.078
2.88, 2, -35.7858, 3.44225, 18.2524, -162.438, -95.476, 58.078
2.883, 2, -35.7858, 3.44225, 18.2524, -162.438, -95.476, 58.078
2.888, 2, -35.7858, 3.44225, 18.2524, -162.438, -95.476, 58.078
2.892, 2, -35.7858, 3.44225, 18.2524, -162.438, -95.476, 58.078
2.896, 2, -35.7858, 3.44225, 18.2524, -162.438, -95.476, 58.078
2.9, 2, -35.7858, 3.44225, 18.2524, -162.438, -95.476, 58.078
2.903, 2, -35.7858, 3.44225, 18.2524, -162.438, -95.476, 58.078
2.908, 2, -35.7858, 3.44225, 18.2524, -162.438, -95.476, 58.078
2.912, 2, -35.7858, 3.44225, 18.2524, -162.438, -95.476, 58.078
2.916, 2, -35.7858, 3.44225, 18.2524, -162.438, -95.476, 58.078
2.92, 2, -35.7858, 3.44225, 18.2524, -162.438, -95.476, 58.078
2.923, 2, -35.7858, 3.44225, 18.2524, -162.438, -95.476, 58.078
2.928, 2, -35.7858, 3.44225, 18.2524, -162.438, -95.476, 58.078
2.932, 2, -35.7858, 3.44225, 18.2524, -162.438, -95.476, 58.078
2.936, 2, -35.7858, 3.44225, 18.2524, -162.438, -95.476, 58.078
2.939, 2, -35.7858, 3.44225, 18.2524, -162.438, -95.476, 58.078
2.944, 2, -35.7858, 3.44225, 18.2524, -162.438, -95.476, 58.078
2.948, 2, -35.7858, 3.44225, 18.2524, -162.438, -95.476, 58.078
2.952, 2, -35.7858, 3.44225, 18.2524, -162.438, -95.476, 58.078
2.956, 2, -35.7858, 3.44225, 18.2524, -162.438, -95.476, 58.078
2.959, 2, -35.7858, 3.44225, 18.2524, -162.438, -95.476, 58.078
2.964, 2, -35.7858, 3.44225, 18.2524, -162.438, -95.476, 58.078
2.968, 2, -35.7858, 3.44225, 18.2524, -162.438, -95.476, 58.078
2.972, 2, -35.7858, 3.44225, 18.2524, -162.438, -95.476, 58.078
2.976, 2, -35.7858, 3.44225, 18.2524, -162.438, -95.476, 58.078
2.98, 2, -35.7858, 3.44225, 18.2524, -162.438, -95.476, 58.078
2.984, 2, -35.7858, 3.44225, 18.2524, -162.438, -95.476, 58.078
2.988, 2, -35.7858, 3.44225, 18.2524, -162.438, -95.476, 58.078
2.992, 2, -35.7858, 3.44225, 18.2524, -162.438, -95.476, 58.078
2.995, 2, -35.7858, 3.44225, 18.2524, -162.438, -95.476, 58.078
3, 2, -35.7858, 3.44225, 18.2524, -162.438, -95.476, 58.078
3.004, 2, -35.7858, 3.44225, 18.2524, -162.438, -95.476, 58.078
3.008, 2, -35.7858, 3.44225, 18.2524, -162.438, -95.476, 58.078
3.012, 2, -35.7858, 3.44225, 18.2524, -162.438, -95.476, 58.078
3.015, 2, -35.7858, 3.44225, 18.2524, -162.438, -95.476, 58.078
3.02, 2, -35.7858, 3.44225, 18.2524, -162.438, -95.476, 58.078
3.024, 2, -35.7858, 3.44225, 18.2524, -162.438, -95.476, 58.078
3.028, 2, -35.7858, 3.44225, 18.2524, -162.438, -95.476, 58.078
3.031, 2, -35.7858, 3.44225, 18.2524, -162.438, -95.476, 58.078
3.036, 2, -35.7858, 3.44225, 18.2524, -162.438, -95.476, 58.078
3.04, 2, -35.7858, 3.44225, 18.2524, -162.438, -95.476, 58.078
3.044, 2, -35.7858, 3.44225, 18.2524, -162.438, -95.476, 58.078
3.048, 2, -35.7858, 3.44225, 18.2524, -162.438, -95.476, 58.078
3.051, 2, -35.7858, 3.44225, 18.2524, -162.438, -95.476, 58.078
3.056, 2, -35.7858, 3.44225, 18.2524, -162.438, -95.476, 58.078
3.06, 2, -35.7858, 3.44225, 18.2524, -162.438, -95.476, 58.078
3.064, 2, -35.7858, 3.44225, 18.2524, -162.438, -95.476, 58.078
3.068, 2, -35.7858, 3.44225, 18.2524, -162.438, -95.476, 58.078
3.071, 2, -35.7858, 3.44225, 18.2524, -162.438, -95.476, 58.078
3.076, 2, -35.7858, 3.44225, 18.2524, -162.438, -95.476, 58.078
3.08, 2, -35.7858, 3.44225, 18.2524, -162.438, -95.476, 58.078
3.084, 2, -35.7858, 3.44225, 18.2524, -162.438, -95.476, 58.078
3.087, 2, -35.7858, 3.44225, 18.2524, -162.438, -95.476, 58.078
3.092, 2, -35.7858, 3.44225, 18.2524, -162.438, -95.476, 58.078
3.096, 2, -35.7858, 3.44225, 18.2524, -162.438, -95.476, 58.078
3.1, 2, -35.7858, 3.44225, 18.2524, -162.438, -95.476, 58.078
3.104, 2, -35.7858, 3.44225, 18.2524, -162.438, -95.476, 58.078
3.107, 2, -35.7858, 3.44225, 18.2524, -162.438, -95.476, 58.078
3.112, 2, -35.7858, 3.44225, 18.2524, -162.438, -95.476, 58.078
3.116, 2, -35.7858, 3.44225, 18.2524, -162.438, -95.476, 58.078
3.12, 2, -35.7858, 3.44225, 18.2524, -162.438, -95.476, 58.078
3.124, 2, -35.7858, 3.44225, 18.2524, -162.438, -95.476, 58.078
3.128, 2, -35.7858, 3.44225, 18.2524, -162.438, -95.476, 58.078
3.132, 2, -35.7858, 3.44225, 18.2524, -162.438, -95.476, 58.078
3.136, 2, -35.7858, 3.44225, 18.2524, -162.438, -95.476, 58.078
3.14, 2, -35.7858, 3.44225, 18.2524, -162.438, -95.476, 58.078
3.143, 2, -35.7858, 3.44225, 18.2524, -162.438, -95.476, 58.078
3.148, 2, -35.7858, 3.44225, 18.2524, -162.438, -95.476, 58.078
3.152, 2, -35.7858, 3.44225, 18.2524, -162.438, -95.476, 58.078
3.156, 2, -35.7858, 3.44225, 18.2524, -162.438, -95.476, 58.078
3.16, 2, -35.7858, 3.44225, 18.2524, -162.438, -95.476, 58.078
3.163, 2, -35.7858, 3.44225, 18.2524, -162.438, -95.476, 58.078
3.168, 2, -35.7858, 3.44225, 18.2524, -162.438, -95.476, 58.078
3.172, 2, -35.7858, 3.44225, 18.2524, -162.438, -95.476, 58.078
3.176, 2, -35.7858, 3.44225, 18.2524, -162.438, -95.476, 58.078
3.179, 2, -35.7858, 3.44225, 18.2524, -162.438, -95.476, 58.078
3.184, 2, -35.7858, 3.44225, 18.2524, -162.438, -95.476, 58.078
3.188, 2, -35.7858, 3.44225, 18.2524, -162.438, -95.476, 58.078
3.192, 2, -35.7858, 3.44225, 18.2524, -162.438, -95.476, 58.078
3.196, 2, -35.7858, 3.44225, 18.2524, -162.438, -95.476, 58.078
3.199, 2, -35.7858, 3.44225, 18.2524, -162.438, -95.476, 58.078
3.204, 2, -35.7858, 3.44225, 18.2524, -162.438, -95.476, 58.078
3.208, 2, -35.7858, 3.44225, 18.2524, -162.438, -95.476, 58.078
3.212, 2, -35.7858, 3.44225, 18.2524, -162.438, -95.476, 58.078
3.216, 2, -35.7858, 3.44225, 18.2524, -162.438, -95.476, 58.078
3.22, 2, -35.7858, 3.44225, 18.2524, -162.438, -95.476, 58.078
3.224, 2, -35.7858, 3.44225, 18.2524, -162.438, -95.476, 58.078
3.228, 2, -35.7858, 3.44225, 18.2524, -162.438, -95.476, 58.078
3.232, 2, -35.7858, 3.44225, 18.2524, -162.438, -95.476, 58.078
3.235, 2, -35.7858, 3.44225, 18.2524, -162.438, -95.476, 58.078
3.24, 2, -35.7858, 3.44225, 18.2524, -162.438, -95.476, 58.078
3.244, 2, -35.7858, 3.44225, 18.2524, -162.438, -95.476, 58.078
3.248, 2, -35.7858, 3.44225, 18.2524, -162.438, -95.476, 58.078
3.252, 2, -35.7858, 3.44225, 18.2524, -162.438, -95.476, 58.078
3.255, 2, -35.7858, 3.44225, 18.2524, -162.438, -95.476, 58.078
3.26, 2, -35.7858, 3.44225, 18.2524, -162.438, -95.476, 58.078
3.264, 2, -35.7858, 3.44225, 18.2524, -162.438, -95.476, 58.078
3.268, 2, -35.7858, 3.44225, 18.2524, -162.438, -95.476, 58.078
3.272, 2, -35.7858, 3.44225, 18.2524, -162.438, -95.476, 58.078
3.276, 2, -35.7858, 3.44225, 18.2524, -162.438, -95.476, 58.078
3.28, 2, -35.7858, 3.44225, 18.2524, -162.438, -95.476, 58.078
3.284, 2, -35.7858, 3.44225, 18.2524, -162.438, -95.476, 58.078
3.288, 2, -35.7858, 3.44225, 18.2524, -162.438, -95.476, 58.078
3.291, 2, -35.7858, 3.44225, 18.2524, -162.438, -95.476, 58.078
3.296, 2, -35.7858, 3.44225, 18.2524, -162.438, -95.476, 58.078
3.3, 2, -35.7858, 3.44225, 18.2524, -162.438, -95.476, 58.078
3.304, 2, -35.7858, 3.44225, 18.2524, -162.438, -95.476, 58.078
3.308, 2, -35.7858, 3.44225, 18.2524, -162.438, -95.476, 58.078
3.312, 2, -35.7858, 3.44225, 18.2524, -162.438, -95.476, 58.078
3.316, 2, -35.7858, 3.44225, 18.2524, -162.438, -95.476, 58.078
3.32, 2, -35.7858, 3.44225, 18.2524, -162.438, -95.476, 58.078
3.324, 2, -35.7858, 3.44225, 18.2524, -162.438, -95.476, 58.078
3.328, 2, -35.7858, 3.44225, 18.2524, -162.438, -95.476, 58.078
3.332, 2, -35.7858, 3.44225, 18.2524, -162.438, -95.476, 58.078
3.336, 2, -35.7858, 3.44225, 18.2524, -162.438, -95.476, 58.078
3.34, 2, -35.7858, 3.44225, 18.2524, -162.438, -95.476, 58.078
3.344, 2, -35.7858, 3.44225, 18.2524, -162.438, -95.476, 58.078
3.347, 2, -35.7858, 3.44225, 18.2524, -162.438, -95.476, 58.078
3.352, 2, -35.7858, 3.44225, 18.2524, -162.438, -95.476, 58.078
3.356, 2, -35.7858, 3.44225, 18.2524, -162.438, -95.476, 58.078
3.36, 2, -35.7858, 3.44225, 18.2524, -162.438, -95.476, 58.078
3.364, 2, -35.7858, 3.44225, 18.2524, -162.438, -95.476, 58.078
3.368, 2, -35.7858, 3.44225, 18.2524, -162.438, -95.476, 58.078
3.372, 2, -35.7858, 3.44225, 18.2524, -162.438, -95.476, 58.078
3.376, 2, -35.7858, 3.44225, 18.2524, -162.438, -95.476, 58.078
3.38, 2, -35.7858, 3.44225, 18.2524, -162.438, -95.476, 58.078
3.383, 2, -35.7858, 3.44225, 18.2524, -162.438, -95.476, 58.078
3.388, 2, -35.7858, 3.44225, 18.2524, -162.438, -95.476, 58.078
3.392, 2, -35.7858, 3.44225, 18.2524, -162.438, -95.476, 58.078
3.396, 2, -35.7858, 3.44225, 18.2524, -162.438, -95.476, 58.078
3.4, 2, -35.7858, 3.44225, 18.2524, -162.438, -95.476, 58.078
3.403, 2, -35.7858, 3.44225, 18.2524, -162.438, -95.476, 58.078
3.408, 2, -35.7858, 3.44225, 18.2524, -162.438, -95.476, 58.078
3.412, 2, -35.7858, 3.44225, 18.2524, -162.438, -95.476, 58.078
3.416, 2, -35.7858, 3.44225, 18.2524, -162.438, -95.476, 58.078
3.42, 2, -35.7858, 3.44225, 18.2524, -162.438, -95.476, 58.078
3.424, 2, -35.7858, 3.44225, 18.2524, -162.438, -95.476, 58.078
3.428, 2, -35.7858, 3.44225, 18.2524, -162.438, -95.476, 58.078
3.432, 2, -35.7858, 3.44225, 18.2524, -162.438, -95.476, 58.078
3.436, 2, -35.7858, 3.44225, 18.2524, -162.438, -95.476, 58.078
3.439, 2, -35.7858, 3.44225, 18.2524, -162.438, -95.476, 58.078
3.444, 2, -35.7858, 3.44225, 18.2524, -162.438, -95.476, 58.078
3.448, 2, -35.7858, 3.44225, 18.2524, -162.438, -95.476, 58.078
3.452, 2, -35.7858, 3.44225, 18.2524, -162.438, -95.476, 58.078
3.456, 2, -35.7858, 3.44225, 18.2524, -162.438, -95.476, 58.078
3.46, 2, -35.7858, 3.44225, 18.2524, -162.438, -95.476, 58.078
3.464, 2, -35.7858, 3.44225, 18.2524, -162.438, -95.476, 58.078
3.468, 2, -35.7858, 3.44225, 18.2524, -162.438, -95.476, 58.078
3.472, 2, -35.7858, 3.44225, 18.2524, -162.438, -95.476, 58.078
3.476, 2, -35.7858, 3.44225, 18.2524, -162.438, -95.476, 58.078
3.48, 2, -35.7858, 3.44225, 18.2524, -162.438, -95.476, 58.078
3.484, 2, -35.7858, 3.44225, 18.2524, -162.438, -95.476, 58.078
3.488, 2, -35.7858, 3.44225, 18.2524, -162.438, -95.476, 58.078
3.492, 2, -35.7858, 3.44225, 18.2524, -162.438, -95.476, 58.078
3.495, 2, -35.7858, 3.44225, 18.2524, -162.438, -95.476, 58.078
3.5, 2, -35.7858, 3.44225, 18.2524, -162.438, -95.476, 58.078
3.504, 2, -35.7858, 3.44225, 18.2524, -162.438, -95.476, 58.078
3.508, 2, -35.7858, 3.44225, 18.2524, -162.438, -95.476, 58.078
3.512, 2, -35.7858, 3.44225, 18.2524, -162.438, -95.476, 58.078
3.516, 2, -35.7858, 3.44225, 18.2524, -162.438, -95.476, 58.078
3.52, 2, -35.7858, 3.44225, 18.2524, -162.438, -95.476, 58.078
3.524, 2, -35.7858, 3.44225, 18.2524, -162.438, -95.476, 58.078
3.528, 2, -35.7858, 3.44225, 18.2524, -162.438, -95.476, 58.078
3.531, 2, -35.7858, 3.44225, 18.2524, -162.438, -95.476, 58.078
3.536, 2, -35.7858, 3.44225, 18.2524, -162.438, -95.476, 58.078
3.54, 2, -35.7858, 3.44225, 18.2524, -162.438, -95.476, 58.078
3.544, 2, -35.7858, 3.44225, 18.2524, -162.438, -95.476, 58.078
3.548, 2, -35.7858, 3.44225, 18.2524, -162.438, -95.476, 58.078
3.552, 2, -35.7858, 3.44225, 18.2524, -162.438, -95.476, 58.078
3.556, 2, -35.7858, 3.44225, 18.2524, -162.438, -95.476, 58.078
3.56, 2, -35.7858, 3.44225, 18.2524, -162.438, -95.476, 58.078
3.564, 2, -35.7858, 3.44225, 18.2524, -162.438, -95.476, 58.078
3.568, 2, -35.7858, 3.44225, 18.2524, -162.438, -95.476, 58.078
3.572, 2, -35.7858, 3.44225, 18.2524, -162.438, -95.476, 58.078
3.576, 2, -35.7858, 3.44225, 18.2524, -162.438, -95.476, 58.078
3.58, 2, -35.7858, 3.44225, 18.2524, -162.438, -95.476, 58.078
3.584, 2, -35.7858, 3.44225, 18.2524, -162.438, -95.476, 58.078
3.587, 2, -35.7858, 3.44225, 18.2524, -162.438, -95.476, 58.078
3.592, 2, -35.7858, 3.44225, 18.2524, -162.438, -95.476, 58.078
3.596, 2, -35.7858, 3.44225, 18.2524, -162.438, -95.476, 58.078
3.6, 2, -35.7858, 3.44225, 18.2524, -162.438, -95.476, 58.078
3.604, 2, -35.7858, 3.44225, 18.2524, -162.438, -95.476, 58.078
3.608, 2, -35.7858, 3.44225, 18.2524, -162.438, -95.476, 58.078
3.612, 2, -35.7858, 3.44225, 18.2524, -162.438, -95.476, 58.078
3.616, 2, -35.7858, 3.44225, 18.2524, -162.438, -95.476, 58.078
3.62, 2, -35.7858, 3.44225, 18.2524, -162.438, -95.476, 58.078
3.624, 2, -35.7858, 3.44225, 18.2524, -162.438, -95.476, 58.078
3.628, 2, -35.7858, 3.44225, 18.2524, -162.438, -95.476, 58.078
3.632, 2, -35.7858, 3.44225, 18.2524, -162.438, -95.476, 58.078
3.636, 2, -35.7858, 3.44225, 18.2524, -162.438, -95.476, 58.078
3.64, 2, -35.7858, 3.44225, 18.2524, -162.438, -95.476, 58.078
3.644, 2, -35.7858, 3.44225, 18.2524, -162.438, -95.476, 58.078
3.648, 2, -35.7858, 3.44225, 18.2524, -162.438, -95.476, 58.078
3.652, 2, -35.7858, 3.44225, 18.2524, -162.438, -95.476, 58.078
3.656, 2, -35.7858, 3.44225, 18.2524, -162.438, -95.476, 58.078
3.66, 2, -35.7858, 3.44225, 18.2524, -162.438, -95.476, 58.078
3.664, 2, -35.7858, 3.44225, 18.2524, -162.438, -95.476, 58.078
3.668, 2, -35.7858, 3.44225, 18.2524, -162.438, -95.476, 58.078
3.672, 2, -35.7858, 3.44225, 18.2524, -162.438, -95.476, 58.078
3.676, 4, -35.7858, 3.44225, 18.2524, -162.438, -95.476, 58.078
3.679, 4, -35.7858, 3.44225, 18.2524, -162.438, -95.476, 58.078
3.684, 4, -35.7858, 3.44225, 18.2524, -162.438, -95.476, 58.078
3.688, 4, -35.7858, 3.44225, 18.2524, -162.438, -95.476, 58.078
3.692, 4, -35.7858, 3.44225, 18.2524, -162.438, -95.476, 58.078
3.696, 4, -35.7858, 3.44225, 18.2524, -162.438, -95.476, 58.078
3.7, 4, -35.7858, 3.44225, 18.2524, -162.438, -95.476, 58.078
3.704, 4, -35.7858, 3.44225, 18.2524, -162.438, -95.476, 58.078
3.708, 4, -35.7858, 3.44225, 18.2524, -162.438, -95.476, 58.078
3.712, 4, -35.7858, 3.44225, 18.2524, -162.438, -95.476, 58.078
3.716, 4, -35.7858, 3.44225, 18.2524, -162.438, -95.476, 58.078
3.72, 4, -35.7858, 3.44225, 18.2524, -162.438, -95.476, 58.078
3.724, 4, -35.7858, 3.44225, 18.2524, -162.438, -95.476, 58.078
3.728, 4, -35.7858, 3.44225, 18.2524, -162.438, -95.476, 58.078
3.732, 4, -35.7858, 3.44225, 18.2524, -162.438, -95.476, 58.078
3.735, 4, -35.7858, 3.44225, 18.2524, -162.438, -95.476, 58.078
3.74, 4, -35.7858, 3.44225, 18.2524, -162.438, -95.476, 58.078
3.744, 4, -35.7858, 3.44225, 18.2524, -162.438, -95.476, 58.078
3.748, 4, -35.7858, 3.44225, 18.2524, -162.438, -95.476, 58.078
3.752, 4, -35.7858, 3.44225, 18.2524, -162.438, -95.476, 58.078
3.756, 4, -35.7858, 3.44225, 18.2524, -162.438, -95.476, 58.078
3.76, 4, -35.7858, 3.44225, 18.2524, -162.438, -95.476, 58.078
3.764, 4, -35.7858, 3.44225, 18.2524, -162.438, -95.476, 58.078
3.768, 4, -35.7858, 3.44225, 18.2524, -162.438, -95.476, 58.078
3.772, 4, -35.7858, 3.44225, 18.2524, -162.438, -95.476, 58.078
3.776, 4, -35.7858, 3.44225, 18.2524, -162.438, -95.476, 58.078
3.78, 4, -35.7858, 3.44225, 18.2524, -162.438, -95.476, 58.078
3.784, 4, -35.7858, 3.44225, 18.2524, -162.438, -95.476, 58.078
3.788, 4, -35.7858, 3.44225, 18.2524, -162.438, -95.476, 58.078
3.792, 4, -35.7858, 3.44225, 18.2524, -162.438, -95.476, 58.078
3.796, 4, -35.7858, 3.44225, 18.2524, -162.438, -95.476, 58.078
3.8, 4, -35.7858, 3.44225, 18.2524, -162.438, -95.476, 58.078
3.804, 4, -35.7858, 3.44225, 18.2524, -162.438, -95.476, 58.078
3.808, 4, -35.7858, 3.44222, 18.2524, -162.438, -95.476, 58.078
3.812, 4, -35.7857, 3.44211, 18.2524, -162.438, -95.476, 58.078
3.816, 4, -35.7854, 3.44184, 18.2525, -162.438, -95.476, 58.078
3.82, 4, -35.7848, 3.44127, 18.2526, -162.438, -95.476, 58.078
3.824, 4, -35.7838, 3.44029, 18.2529, -162.438, -95.476, 58.0779
3.828, 4, -35.7824, 3.43877, 18.2534, -162.438, -95.4759, 58.0777
3.832, 4, -35.7805, 3.4366, 18.2543, -162.437, -95.4757, 58.0775
3.836, 4, -35.7781, 3.43372, 18.2555, -162.437, -95.4753, 58.077
3.84, 4, -35.7754, 3.43007, 18.2573, -162.436, -95.4747, 58.0762
3.844, 4, -35.7722, 3.42565, 18.2597, -162.436, -95.4738, 58.0751
3.848, 5, -35.7687, 3.42038, 18.263, -162.434, -95.4724, 58.0735
3.852, 5, -35.7649, 3.4142, 18.2672, -162.433, -95.4705, 58.0713
3.856, 5, -35.7607, 3.40703, 18.2726, -162.43, -95.468, 58.0685
3.86, 5, -35.7561, 3.39879, 18.2791, -162.428, -95.4649, 58.0649
3.864, 5, -35.7511, 3.38948, 18.287, -162.424, -95.4609, 58.0605
3.868, 5, -35.7457, 3.3791, 18.2963, -162.42, -95.4561, 58.0552
3.872, 5, -35.74, 3.36766, 18.3071, -162.415, -95.4505, 58.0489
3.876, 5, -35.7341, 3.35521, 18.3194, -162.41, -95.444, 58.0418
3.88, 5, -35.7278, 3.34176, 18.3331, -162.404, -95.4367, 58.0337
3.884, 5, -35.7212, 3.3273, 18.3482, -162.397, -95.4285, 58.0247
3.888, 5, -35.7142, 3.31178, 18.3646, -162.389, -95.4196, 58.0149
3.892, 5, -35.7068, 3.29518, 18.3823, -162.381, -95.41, 58.0044
3.896, 5, -35.6989, 3.27747, 18.401, -162.373, -95.3998, 57.9933
3.9, 5, -35.6906, 3.25872, 18.4208, -162.363, -95.3891, 57.9815
3.904, 5, -35.6818, 3.23899, 18.4413, -162.354, -95.378, 57.9693
3.908, 5, -35.6725, 3.21839, 18.4626, -162.344, -95.3666, 57.9568
3.912, 5, -35.6628, 3.19701, 18.4844, -162.334, -95.3548, 57.9439
3.916, 5, -35.6528, 3.17496, 18.5067, -162.324, -95.3429, 57.9307
3.92, 5, -35.6423, 3.15235, 18.5294, -162.314, -95.3308, 57.9174
3.924, 5, -35.6315, 3.12925, 18.5523, -162.304, -95.3186, 57.904
3.928, 5, -35.6204, 3.10575, 18.5754, -162.293, -95.3064, 57.8905
3.932, 5, -35.609, 3.08194, 18.5987, -162.283, -95.294, 57.8769
3.936, 5, -35.5974, 3.05789, 18.6221, -162.272, -95.2817, 57.8633
3.94, 5, -35.5856, 3.03368, 18.6455, -162.261, -95.2693, 57.8496
3.944, 5, -35.5737, 3.00935, 18.669, -162.251, -95.2569, 57.8359
3.948, 5, -35.5618, 2.98495, 18.6925, -162.24, -95.2445, 57.8222
3.952, 5, -35.5498, 2.9605, 18.7161, -162.23, -95.2321, 57.8085
3.956, 5, -35.5377, 2.93602, 18.7396, -162.219, -95.2197, 57.7949
3.96, 5, -35.5257, 2.91152, 18.7631, -162.208, -95.2073, 57.7812
3.964, 5, -35.5136, 2.887, 18.7867, -162.198, -95.1949, 57.7675
3.968, 5, -35.5015, 2.86248, 18.8102, -162.187, -95.1825, 57.7538
3.972, 5, -35.4894, 2.83795, 18.8337, -162.176, -95.1702, 57.7401
3.976, 5, -35.4773, 2.81342, 18.8573, -162.166, -95.1578, 57.7264
3.98, 5, -35.4651, 2.78889, 18.8808, -162.155, -95.1454, 57.7128
3.984, 5, -35.453, 2.76436, 18.9043, -162.144, -95.133, 57.6991
3.988, 5, -35.4409, 2.73983, 18.9278, -162.134, -95.1206, 57.6855
3.992, 5, -35.4287, 2.7153, 18.9512, -162.123, -95.1083, 57.6718
3.996, 5, -35.4166, 2.69078, 18.9747, -162.112, -95.0959, 57.6581
3.999, 5, -35.4044, 2.66626, 18.9982, -162.102, -95.0835, 57.6445
4.004, 5, -35.3922, 2.64174, 19.0216, -162.091, -95.0712, 57.6309
4.008, 5, -35.3801, 2.61722, 19.0451, -162.08, -95.0588, 57.6172
4.012, 5, -35.3679, 2.59271, 19.0685, -162.07, -95.0465, 57.6036
4.016, 5, -35.3557, 2.5682, 19.0919, -162.059, -95.0341, 57.59
4.02, 5, -35.3435, 2.54369, 19.1153, -162.048, -95.0218, 57.5764
4.024, 5, -35.3313, 2.51919, 19.1387, -162.038, -95.0095, 57.5627
4.028, 5, -35.3191, 2.49469, 19.1621, -162.027, -94.9971, 57.5491
4.032, 5, -35.3069, 2.47019, 19.1855, -162.016, -94.9848, 57.5355
4.036, 5, -35.2947, 2.44569, 19.2089, -162.006, -94.9725, 57.5219
4.04, 5, -35.2825, 2.4212, 19.2322, -161.995, -94.9601, 57.5084
4.044, 5, -35.2703, 2.39671, 19.2556, -161.984, -94.9478, 57.4948
4.048, 5, -35.2581, 2.37223, 19.2789, -161.973, -94.9355, 57.4812
4.052, 5, -35.2458, 2.34775, 19.3023, -161.963, -94.9232, 57.4676
4.056, 5, -35.2336, 2.32327, 19.3256, -161.952, -94.9109, 57.454
4.06, 5, -35.2214, 2.29879, 19.3489, -161.941, -94.8986, 57.4405
4.064, 5, -35.2091, 2.27432, 19.3722, -161.931, -94.8863, 57.4269
4.068, 5, -35.1969, 2.24985, 19.3955, -161.92, -94.874, 57.4134
4.072, 5, -35.1846, 2.22538, 19.4188, -161.909, -94.8617, 57.3998
4.076, 5, -35.1724, 2.20092, 19.442, -161.898, -94.8494, 57.3863
4.08, 5, -35.1601, 2.17646, 19.4653, -161.888, -94.8372, 57.3727
4.084, 5, -35.1478, 2.15201, 19.4886, -161.877, -94.8249, 57.3592
4.088, 5, -35.1355, 2.12755, 19.5118, -161.866, -94.8126, 57.3457
4.092, 5, -35.1233, 2.1031, 19.535, -161.856, -94.8003, 57.3322
4.096, 5, -35.111, 2.07865, 19.5583, -161.845, -94.7881, 57.3187
4.1, 5, -35.0987, 2.05421, 19.5815, -161.834, -94.7758, 57.3052
4.104, 5, -35.0864, 2.02977, 19.6047, -161.823, -94.7636, 57.2917
4.108, 5, -35.0741, 2.00533, 19.6279, -161.813, -94.7513, 57.2782
4.112, 5, -35.0617, 1.9809, 19.651, -161.802, -94.7391, 57.2647
4.116, 5, -35.0494, 1.95647, 19.6742, -161.791, -94.7268, 57.2512
4.12, 5, -35.0371, 1.93204, 19.6974, -161.781, -94.7146, 57.2377
4.124, 5, -35.0248, 1.90761, 19.7205, -161.77, -94.7023, 57.2242
4.128, 5, -35.0124, 1.88319, 19.7437, -161.759, -94.6901, 57.2108
4.132, 5, -35.0001, 1.85877, 19.7668, -161.748, -94.6779, 57.1973
4.136, 5, -34.9878, 1.83436, 19.7899, -161.738, -94.6656, 57.1838
4.14, 5, -34.9754, 1.80994, 19.813, -161.727, -94.6534, 57.1704
4.144, 5, -34.963, 1.78554, 19.8361, -161.716, -94.6412, 57.1569
4.148, 5, -34.9507, 1.76113, 19.8592, -161.705, -94.629, 57.1435
4.152, 5, -34.9383, 1.73673, 19.8823, -161.695, -94.6168, 57.1301
4.156, 5, -34.9259, 1.71233, 19.9054, -161.684, -94.6046, 57.1166
4.16, 5, -34.9136, 1.68793, 19.9284, -161.673, -94.5924, 57.1032
4.164, 5, -34.9012, 1.66354, 19.9515, -161.662, -94.5802, 57.0898
4.168, 5, -34.8888, 1.63915, 19.9745, -161.651, -94.568, 57.0764
4.172, 5, -34.8764, 1.61476, 19.9976, -161.641, -94.5558, 57.063
4.176, 5, -34.864, 1.59038, 20.0206, -161.63, -94.5436, 57.0496
4.18, 5, -34.8516, 1.566, 20.0436, -161.619, -94.5314, 57.0362
4.184, 5, -34.8392, 1.54162, 20.0666, -161.608, -94.5193, 57.0228
4.188, 5, -34.8268, 1.51724, 20.0896, -161.598, -94.5071, 57.0094
4.192, 5, -34.8143, 1.49287, 20.1126, -161.587, -94.4949, 56.996
4.196, 5, -34.8019, 1.4685, 20.1356, -161.576, -94.4827, 56.9826
4.2, 5, -34.7895, 1.44414, 20.1585, -161.565, -94.4706, 56.9693
4.204, 5, -34.777, 1.41978, 20.1815, -161.554, -94.4584, 56.9559
4.208, 5, -34.7646, 1.39542, 20.2044, -161.544, -94.4463, 56.9426
4.212, 5, -34.7521, 1.37106, 20.2274, -161.533, -94.4341, 56.9292
4.216, 5, -34.7397, 1.34671, 20.2503, -161.522, -94.422, 56.9159
4.22, 5, -34.7272, 1.32236, 20.2732, -161.511, -94.4098, 56.9025
4.224, 5, -34.7147, 1.29801, 20.2961, -161.501, -94.3977, 56.8892
4.228, 5, -34.7023, 1.27367, 20.319, -161.49, -94.3856, 56.8759
4.232, 5, -34.6898, 1.24933, 20.3419, -161.479, -94.3734, 56.8625
4.236, 5, -34.6773, 1.22499, 20.3647, -161.468, -94.3613, 56.8492
4.24, 5, -34.6648, 1.20066, 20.3876, -161.457, -94.3492, 56.8359
4.244, 5, -34.6523, 1.17633, 20.4105, -161.447, -94.3371, 56.8226
4.248, 5, -34.6398, 1.152, 20.4333, -161.436, -94.3249, 56.8093
4.252, 5, -34.6273, 1.12767, 20.4561, -161.425, -94.3128, 56.796
4.256, 5, -34.6148, 1.10335, 20.479, -161.414, -94.3007, 56.7827
4.26, 5, -34.6023, 1.07903, 20.5018, -161.403, -94.2886, 56.7694
4.264, 5, -34.5897, 1.05472, 20.5246, -161.392, -94.2765, 56.7562
4.268, 5, -34.5772, 1.03041, 20.5474, -161.382, -94.2644, 56.7429
4.272, 5, -34.5647, 1.0061, 20.5702, -161.371, -94.2523, 56.7296
4.276, 5, -34.5521, 0.981791, 20.5929, -161.36, -94.2402, 56.7164
4.28, 5, -34.5396, 0.957487, 20.6157, -161.349, -94.2281, 56.7031
4.284, 5, -34.527, 0.933187, 20.6385, -161.338, -94.2161, 56.6899
4.288, 5, -34.5145, 0.908891, 20.6612, -161.328, -94.204, 56.6766
4.292, 5, -34.5019, 0.884597, 20.684, -161.317, -94.1919, 56.6634
4.296, 5, -34.4893, 0.860306, 20.7067, -161.306, -94.1798, 56.6502
4.3, 5, -34.4767, 0.836019, 20.7294, -161.295, -94.1678, 56.6369
4.304, 5, -34.4642, 0.811734, 20.7521, -161.284, -94.1557, 56.6237
4.308, 5, -34.4516, 0.787453, 20.7748, -161.273, -94.1436, 56.6105
4.312, 5, -34.439, 0.763175, 20.7975, -161.262, -94.1316, 56.5973
4.316, 5, -34.4264, 0.7389, 20.8202, -161.252, -94.1195, 56.5841
4.32, 5, -34.4138, 0.714628, 20.8428, -161.241, -94.1075, 56.5709
4.324, 5, -34.4012, 0.690359, 20.8655, -161.23, -94.0954, 56.5577
4.328, 5, -34.3885, 0.666093, 20.8881, -161.219, -94.0834, 56.5445
4.332, 5, -34.3759, 0.641831, 20.9108, -161.208, -94.0714, 56.5313
4.336, 5, -34.3633, 0.617571, 20.9334, -161.197, -94.0593, 56.5182
4.34, 5, -34.3507, 0.593315, 20.956, -161.187, -94.0473, 56.505
4.344, 5, -34.338, 0.569062, 20.9786, -161.176, -94.0353, 56.4918
4.348, 5, -34.3254, 0.544812, 21.0012, -161.165, -94.0232, 56.4787
4.352, 5, -34.3127, 0.520565, 21.0238, -161.154, -94.0112, 56.4655
4.356, 5, -34.3001, 0.496322, 21.0464, -161.143, -93.9992, 56.4524
4.36, 5, -34.2874, 0.472081, 21.069, -161.132, -93.9872, 56.4392
4.364, 5, -34.2747, 0.447844, 21.0915, -161.121, -93.9752, 56.4261
4.368, 5, -34.2621, 0.42361, 21.1141, -161.111, -93.9632, 56.413
4.372, 5, -34.2494, 0.399379, 21.1366, -161.1, -93.9512, 56.3999
4.376, 5, -34.2367, 0.375151, 21.1592, -161.089, -93.9392, 56.3867
4.38, 5, -34.224, 0.350926, 21.1817, -161.078, -93.9272, 56.3736
4.384, 5, -34.2113, 0.326704, 21.2042, -161.067, -93.9152, 56.3605
4.388, 5, -34.1986, 0.302486, 21.2267, -161.056, -93.9032, 56.3474
4.392, 5, -34.1859, 0.278271, 21.2492, -161.045, -93.8912, 56.3343
4.396, 5, -34.1732, 0.254059, 21.2717, -161.034, -93.8792, 56.3213
4.4, 5, -34.1605, 0.22985, 21.2942, -161.023, -93.8672, 56.3082
4.404, 5, -34.1477, 0.205644, 21.3166, -161.013, -93.8553, 56.2951
4.408, 5, -34.135, 0.181441, 21.3391, -161.002, -93.8433, 56.282
4.412, 5, -34.1223, 0.157242, 21.3615, -160.991, -93.8313, 56.269
4.416, 5, -34.1095, 0.133046, 21.384, -160.98, -93.8193, 56.2559
4.42, 5, -34.0968, 0.108853, 21.4064, -160.969, -93.8074, 56.2429
4.424, 5, -34.084, 0.084663, 21.4288, -160.958, -93.7954, 56.2298
4.428, 5, -34.0713, 0.0604764, 21.4512, -160.947, -93.7835, 56.2168
4.432, 5, -34.0585, 0.0362929, 21.4736, -160.936, -93.7715, 56.2037
4.436, 5, -34.0457, 0.0121126, 21.496, -160.925, -93.7596, 56.1907
4.44, 5, -34.0329, -0.0120645, 21.5184, -160.914, -93.7476, 56.1777
4.444, 5, -34.0201, -0.0362384, 21.5407, -160.904, -93.7357, 56.1647
4.448, 5, -34.0074, -0.0604091, 21.5631, -160.893, -93.7237, 56.1517
4.452, 5, -33.9946, -0.0845766, 21.5854, -160.882, -93.7118, 56.1387
4.456, 5, -33.9818, -0.108741, 21.6078, -160.871, -93.6999, 56.1257
4.46, 5, -33.9689, -0.132902, 21.6301, -160.86, -93.6879, 56.1127
4.464, 5, -33.9561, -0.15706, 21.6524, -160.849, -93.676, 56.0997
4.468, 5, -33.9433, -0.181215, 21.6747, -160.838, -93.6641, 56.0867
4.472, 5, -33.9305, -0.205366, 21.697, -160.827, -93.6522, 56.0737
4.476, 5, -33.9176, -0.229514, 21.7193, -160.816, -93.6402, 56.0608
4.48, 5, -33.9048, -0.25366, 21.7416, -160.805, -93.6283, 56.0478
4.484, 5, -33.892, -0.277801, 21.7639, -160.794, -93.6164, 56.0349
4.488, 5, -33.8791, -0.30194, 21.7861, -160.783, -93.6045, 56.0219
4.492, 5, -33.8663, -0.326076, 21.8084, -160.773, -93.5926, 56.009
4.496, 5, -33.8534, -0.350208, 21.8306, -160.762, -93.5807, 55.996
4.5, 5, -33.8405, -0.374337, 21.8529, -160.751, -93.5688, 55.9831
4.504, 5, -33.8276, -0.398463, 21.8751, -160.74, -93.5569, 55.9702
4.508, 5, -33.8148, -0.422585, 21.8973, -160.729, -93.545, 55.9572
4.512, 5, -33.8019, -0.446704, 21.9195, -160.718, -93.5331, 55.9443
4.516, 5, -33.789, -0.470821, 21.9417, -160.707, -93.5212, 55.9314
4.52, 5, -33.7761, -0.494934, 21.9639, -160.696, -93.5093, 55.9185
4.524, 5, -33.7632, -0.519043, 21.9861, -160.685, -93.4975, 55.9056
4.528, 5, -33.7503, -0.54315, 22.0082, -160.674, -93.4856, 55.8927
4.532, 5, -33.7374, -0.567253, 22.0304, -160.663, -93.4737, 55.8798
4.536, 5, -33.7244, -0.591353, 22.0525, -160.652, -93.4618, 55.867
4.54, 5, -33.7115, -0.615449, 22.0747, -160.641, -93.45, 55.8541
4.544, 5, -33.6986, -0.639543, 22.0968, -160.63, -93.4381, 55.8412
4.548, 5, -33.6856, -0.663633, 22.1189, -160.619, -93.4262, 55.8284
4.552, 5, -33.6727, -0.68772, 22.141, -160.608, -93.4144, 55.8155
4.556, 5, -33.6597, -0.711804, 22.1631, -160.597, -93.4025, 55.8026
4.56, 5, -33.6468, -0.735884, 22.1852, -160.586, -93.3907, 55.7898
4.564, 5, -33.6338, -0.759962, 22.2073, -160.575, -93.3788, 55.777
4.568, 5, -33.6208, -0.784036, 22.2293, -160.565, -93.367, 55.7641
4.572, 5, -33.6079, -0.808106, 22.2514, -160.554, -93.3551, 55.7513
4.576, 5, -33.5949, -0.832174, 22.2735, -160.543, -93.3433, 55.7385
4.58, 5, -33.5819, -0.856238, 22.2955, -160.532, -93.3314, 55.7257
4.584, 5, -33.5689, -0.880299, 22.3175, -160.521, -93.3196, 55.7129
4.588, 5, -33.5559, -0.904357, 22.3396, -160.51, -93.3078, 55.7001
4.592, 5, -33.5429, -0.928411, 22.3616, -160.499, -93.2959, 55.6873
4.596, 5, -33.5299, -0.952463, 22.3836, -160.488, -93.2841, 55.6745
4.6, 5, -33.5168, -0.976511, 22.4056, -160.477, -93.2723, 55.6617
4.604, 5, -33.5038, -1.00056, 22.4275, -160.466, -93.2605, 55.6489
4.608, 5, -33.4908, -1.0246, 22.4495, -160.455, -93.2486, 55.6362
4.612, 5, -33.4777, -1.04863, 22.4715, -160.444, -93.2368, 55.6234
4.616, 5, -33.4647, -1.07267, 22.4934, -160.433, -93.225, 55.6106
4.62, 5, -33.4517, -1.0967, 22.5154, -160.422, -93.2132, 55.5979
4.624, 5, -33.4386, -1.12073, 22.5373, -160.411, -93.2014, 55.5851
4.628, 5, -33.4255, -1.14475, 22.5592, -160.4, -93.1896, 55.5724
4.632, 5, -33.4125, -1.16878, 22.5812, -160.389, -93.1778, 55.5597
4.636, 5, -33.3994, -1.19279, 22.6031, -160.378, -93.166, 55.5469
4.64, 5, -33.3863, -1.21681, 22.625, -160.367, -93.1542, 55.5342
4.644, 5, -33.3732, -1.24082, 22.6469, -160.356, -93.1424, 55.5215
4.648, 5, -33.3601, -1.26483, 22.6687, -160.345, -93.1306, 55.5088
4.652, 5, -33.347, -1.28884, 22.6906, -160.334, -93.1188, 55.4961
4.656, 5, -33.3339, -1.31284, 22.7125, -160.323, -93.107, 55.4834
4.66, 5, -33.3208, -1.33684, 22.7343, -160.312, -93.0952, 55.4707
4.664, 5, -33.3077, -1.36083, 22.7562, -160.301, -93.0835, 55.458
4.668, 5, -33.2946, -1.38482, 22.778, -160.29, -93.0717, 55.4453
4.672, 5, -33.2814, -1.40881, 22.7998, -160.279, -93.0599, 55.4326
4.676, 5, -33.2683, -1.4328, 22.8216, -160.268, -93.0481, 55.42
4.68, 5, -33.2552, -1.45678, 22.8434, -160.257, -93.0364, 55.4073
4.684, 5, -33.242, -1.48076, 22.8652, -160.246, -93.0246, 55.3947
4.688, 5, -33.2289, -1.50473, 22.887, -160.235, -93.0128, 55.382
4.692, 5, -33.2157, -1.52871, 22.9088, -160.224, -93.0011, 55.3694
4.696, 5, -33.2025, -1.55268, 22.9306, -160.213, -92.9893, 55.3567
4.7, 5, -33.1894, -1.57664, 22.9523, -160.202, -92.9776, 55.3441
4.704, 5, -33.1762, -1.6006, 22.9741, -160.191, -92.9658, 55.3315
4.708, 5, -33.163, -1.62456, 22.9958, -160.18, -92.954, 55.3189
4.712, 5, -33.1498, -1.64852, 23.0175, -160.169, -92.9423, 55.3062
4.716, 5, -33.1366, -1.67247, 23.0392, -160.158, -92.9305, 55.2936
4.72, 5, -33.1234, -1.69642, 23.061, -160.146, -92.9188, 55.281
4.724, 5, -33.1102, -1.72037, 23.0827, -160.135, -92.9071, 55.2684
4.728, 5, -33.097, -1.74431, 23.1043, -160.124, -92.8953, 55.2559
4.732, 5, -33.0837, -1.76825, 23.126, -160.113, -92.8836, 55.2433
4.736, 5, -33.0705, -1.79218, 23.1477, -160.102, -92.8718, 55.2307
4.74, 5, -33.0573, -1.81612, 23.1694, -160.091, -92.8601, 55.2181
4.744, 5, -33.044, -1.84004, 23.191, -160.08, -92.8484, 55.2056
4.748, 5, -33.0308, -1.86397, 23.2127, -160.069, -92.8367, 55.193
4.752, 5, -33.0175, -1.88789, 23.2343, -160.058, -92.8249, 55.1805
4.756, 5, -33.0043, -1.91181, 23.2559, -160.047, -92.8132, 55.1679
4.76, 5, -32.991, -1.93573, 23.2775, -160.036, -92.8015, 55.1554
4.764, 5, -32.9777, -1.95964, 23.2991, -160.025, -92.7898, 55.1428
4.768, 5, -32.9644, -1.98355, 23.3207, -160.014, -92.7781, 55.1303
4.772, 5, -32.9511, -2.00745, 23.3423, -160.003, -92.7663, 55.1178
4.776, 5, -32.9378, -2.03136, 23.3639, -159.992, -92.7546, 55.1053
4.78, 5, -32.9245, -2.05526, 23.3855, -159.981, -92.7429, 55.0928
4.784, 5, -32.9112, -2.07915, 23.407, -159.97, -92.7312, 55.0803
4.788, 5, -32.8979, -2.10304, 23.4286, -159.959, -92.7195, 55.0678
4.792, 5, -32.8846, -2.12693, 23.4501, -159.948, -92.7078, 55.0553
4.796, 5, -32.8713, -2.15082, 23.4716, -159.937, -92.6961, 55.0428
4.8, 5, -32.858, -2.1747, 23.4932, -159.926, -92.6844, 55.0303
4.804, 5, -32.8446, -2.19858, 23.5147, -159.914, -92.6727, 55.0179
4.808, 5, -32.8313, -2.22245, 23.5362, -159.903, -92.661, 55.0054
4.812, 5, -32.8179, -2.24633, 23.5577, -159.892, -92.6493, 54.993
4.816, 5, -32.8046, -2.2702, 23.5792, -159.881, -92.6377, 54.9805
4.82, 5, -32.7912, -2.29406, 23.6006, -159.87, -92.626, 54.9681
4.824, 5, -32.7778, -2.31792, 23.6221, -159.859, -92.6143, 54.9556
4.828, 5, -32.7645, -2.34178, 23.6436, -159.848, -92.6026, 54.9432
4.832, 5, -32.7511, -2.36564, 23.665, -159.837, -92.5909, 54.9308
4.836, 5, -32.7377, -2.38949, 23.6864, -159.826, -92.5792, 54.9183
4.84, 5, -32.7243, -2.41334, 23.7079, -159.815, -92.5676, 54.9059
4.844, 5, -32.7109, -2.43718, 23.7293, -159.804, -92.5559, 54.8935
4.848, 5, -32.6975, -2.46102, 23.7507, -159.793, -92.5442, 54.8811
4.852, 5, -32.6841, -2.48486, 23.7721, -159.782, -92.5326, 54.8687
4.856, 5, -32.6706, -2.5087, 23.7935, -159.77, -92.5209, 54.8563
4.86, 5, -32.6572, -2.53253, 23.8149, -159.759, -92.5092, 54.844
4.864, 5, -32.6438, -2.55636, 23.8362, -159.748, -92.4976, 54.8316
4.868, 5, -32.6303, -2.58018, 23.8576, -159.737, -92.4859, 54.8192
4.872, 5, -32.6169, -2.604, 23.879, -159.726, -92.4743, 54.8069
4.876, 5, -32.6034, -2.62782, 23.9003, -159.715, -92.4626, 54.7945
4.88, 5, -32.59, -2.65164, 23.9216, -159.704, -92.451, 54.7822
4.884, 5, -32.5765, -2.67545, 23.943, -159.693, -92.4393, 54.7698
4.888, 5, -32.563, -2.69926, 23.9643, -159.682, -92.4277, 54.7575
4.892, 5, -32.5496, -2.72306, 23.9856, -159.671, -92.416, 54.7451
4.896, 5, -32.5361, -2.74686, 24.0069, -159.66, -92.4044, 54.7328
4.9, 5, -32.5226, -2.77066, 24.0282, -159.648, -92.3927, 54.7205
4.904, 5, -32.5091, -2.79445, 24.0495, -159.637, -92.3811, 54.7082
4.908, 5, -32.4956, -2.81824, 24.0707, -159.626, -92.3694, 54.6959
4.912, 5, -32.4821, -2.84203, 24.092, -159.615, -92.3578, 54.6836
4.916, 5, -32.4685, -2.86582, 24.1132, -159.604, -92.3462, 54.6713
4.92, 5, -32.455, -2.8896, 24.1345, -159.593, -92.3345, 54.659
4.924, 5, -32.4415, -2.91337, 24.1557, -159.582, -92.3229, 54.6467
4.928, 5, -32.428, -2.93715, 24.1769, -159.571, -92.3113, 54.6344
4.932, 5, -32.4144, -2.96092, 24.1982, -159.56, -92.2997, 54.6222
4.936, 5, -32.4009, -2.98468, 24.2194, -159.548, -92.288, 54.6099
4.94, 5, -32.3873, -3.00845, 24.2406, -159.537, -92.2764, 54.5977
4.944, 5, -32.3737, -3.03221, 24.2617, -159.526, -92.2648, 54.5854
4.948, 5, -32.3602, -3.05596, 24.2829, -159.515, -92.2532, 54.5732
4.952, 5, -32.3466, -3.07972, 24.3041, -159.504, -92.2416, 54.5609
4.956, 5, -32.333, -3.10347, 24.3252, -159.493, -92.2299, 54.5487
4.96, 5, -32.3194, -3.12721, 24.3464, -159.482, -92.2183, 54.5365
4.964, 5, -32.3058, -3.15096, 24.3675, -159.471, -92.2067, 54.5243
4.968, 5, -32.2922, -3.1747, 24.3887, -159.459, -92.1951, 54.5121
4.972, 5, -32.2786, -3.19843, 24.4098, -159.448, -92.1835, 54.4998
4.976, 5, -32.265, -3.22216, 24.4309, -159.437, -92.1719, 54.4876
4.98, 5, -32.2514, -3.24589, 24.452, -159.426, -92.1603, 54.4755
4.984, 5, -32.2377, -3.26962, 24.4731, -159.415, -92.1487, 54.4633
4.988, 5, -32.2241, -3.29334, 24.4942, -159.404, -92.1371, 54.4511
4.992, 5, -32.2105, -3.31706, 24.5153, -159.393, -92.1255, 54.4389
4.996, 5, -32.1968, -3.34078, 24.5363, -159.382, -92.1139, 54.4268
5, 5, -32.1832, -3.36449, 24.5574, -159.37, -92.1023, 54.4146
5.004, 5, -32.1695, -3.3882, 24.5784, -159.359, -92.0907, 54.4024
5.008, 5, -32.1558, -3.4119, 24.5995, -159.348, -92.0791, 54.3903
5.012, 5, -32.1422, -3.4356, 24.6205, -159.337, -92.0675, 54.3782
5.016, 5, -32.1285, -3.4593, 24.6415, -159.326, -92.056, 54.366
5.02, 5, -32.1148, -3.483, 24.6625, -159.315, -92.0444, 54.3539
5.024, 5, -32.1011, -3.50669, 24.6835, -159.304, -92.0328, 54.3418
5.028, 5, -32.0874, -3.53038, 24.7045, -159.292, -92.0212, 54.3297
5.032, 5, -32.0737, -3.55406, 24.7255, -159.281, -92.0096, 54.3176
5.036, 5, -32.06, -3.57774, 24.7465, -159.27, -91.9981, 54.3055
5.04, 5, -32.0462, -3.60142, 24.7675, -159.259, -91.9865, 54.2934
5.044, 5, -32.0325, -3.62509, 24.7884, -159.248, -91.9749, 54.2813
5.048, 5, -32.0188, -3.64876, 24.8094, -159.237, -91.9633, 54.2692
5.052, 5, -32.005, -3.67243, 24.8303, -159.225, -91.9518, 54.2571
5.056, 5, -31.9913, -3.69609, 24.8512, -159.214, -91.9402, 54.245
5.06, 5, -31.9775, -3.71975, 24.8721, -159.203, -91.9286, 54.233
5.064, 5, -31.9638, -3.74341, 24.8931, -159.192, -91.9171, 54.2209
5.068, 5, -31.95, -3.76706, 24.914, -159.181, -91.9055, 54.2089
5.072, 5, -31.9362, -3.79071, 24.9348, -159.17, -91.8939, 54.1968
5.076, 5, -31.9224, -3.81436, 24.9557, -159.158, -91.8824, 54.1848
5.08, 5, -31.9087, -3.838, 24.9766, -159.147, -91.8708, 54.1728
5.084, 5, -31.8949, -3.86164, 24.9975, -159.136, -91.8593, 54.1607
5.088, 5, -31.8811, -3.88527, 25.0183, -159.125, -91.8477, 54.1487
5.092, 5, -31.8672, -3.90891, 25.0392, -159.114, -91.8362, 54.1367
5.096, 5, -31.8534, -3.93254, 25.06, -159.103, -91.8246, 54.1247
5.1, 5, -31.8396, -3.95616, 25.0808, -159.091, -91.8131, 54.1127
5.104, 5, -31.8258, -3.97978, 25.1017, -159.08, -91.8015, 54.1007
5.108, 5, -31.8119, -4.0034, 25.1225, -159.069, -91.79, 54.0887
5.112, 5, -31.7981, -4.02701, 25.1433, -159.058, -91.7784, 54.0768
5.116, 5, -31.7843, -4.05063, 25.164, -159.047, -91.7669, 54.0648
5.12, 5, -31.7704, -4.07423, 25.1848, -159.036, -91.7553, 54.0528
5.124, 5, -31.7565, -4.09784, 25.2056, -159.024, -91.7438, 54.0409
5.128, 5, -31.7427, -4.12144, 25.2264, -159.013, -91.7322, 54.0289
5.132, 5, -31.7288, -4.14504, 25.2471, -159.002, -91.7207, 54.017
5.136, 5, -31.7149, -4.16863, 25.2679, -158.991, -91.7092, 54.005
5.14, 5, -31.701, -4.19222, 25.2886, -158.98, -91.6976, 53.9931
5.144, 5, -31.6871, -4.21581, 25.3093, -158.968, -91.6861, 53.9812
5.148, 5, -31.6732, -4.23939, 25.3301, -158.957, -91.6746, 53.9693
5.152, 5, -31.6593, -4.26297, 25.3508, -158.946, -91.663, 53.9574
5.156, 5, -31.6454, -4.28654, 25.3715, -158.935, -91.6515, 53.9454
5.16, 5, -31.6315, -4.31012, 25.3922, -158.924, -91.64, 53.9336
5.164, 5, -31.6175, -4.33369, 25.4128, -158.913, -91.6285, 53.9217
5.168, 5, -31.6036, -4.35725, 25.4335, -158.901, -91.6169, 53.9098
5.172, 5, -31.5897, -4.38081, 25.4542, -158.89, -91.6054, 53.8979
5.176, 5, -31.5757, -4.40437, 25.4748, -158.879, -91.5939, 53.886
5.18, 5, -31.5617, -4.42793, 25.4955, -158.868, -91.5824, 53.8742
5.184, 5, -31.5478, -4.45148, 25.5161, -158.857, -91.5708, 53.8623
5.188, 5, -31.5338, -4.47503, 25.5367, -158.845, -91.5593, 53.8504
5.192, 5, -31.5198, -4.49857, 25.5574, -158.834, -91.5478, 53.8386
5.196, 5, -31.5058, -4.52211, 25.578, -158.823, -91.5363, 53.8268
5.2, 5, -31.4919, -4.54565, 25.5986, -158.812, -91.5248, 53.8149
5.204, 5, -31.4779, -4.56918, 25.6192, -158.8, -91.5133, 53.8031
5.208, 5, -31.4639, -4.59271, 25.6397, -158.789, -91.5018, 53.7913
5.212, 5, -31.4498, -4.61624, 25.6603, -158.778, -91.4902, 53.7795
5.216, 5, -31.4358, -4.63976, 25.6809, -158.767, -91.4787, 53.7677
5.22, 5, -31.4218, -4.66328, 25.7014, -158.756, -91.4672, 53.7559
5.224, 5, -31.4078, -4.6868, 25.722, -158.744, -91.4557, 53.7441
5.228, 5, -31.3937, -4.71031, 25.7425, -158.733, -91.4442, 53.7323
5.232, 5, -31.3797, -4.73382, 25.763, -158.722, -91.4327, 53.7205
5.236, 5, -31.3656, -4.75732, 25.7836, -158.711, -91.4212, 53.7087
5.24, 5, -31.3516, -4.78083, 25.8041, -158.7, -91.4097, 53.697
5.244, 5, -31.3375, -4.80432, 25.8246, -158.688, -91.3982, 53.6852
5.248, 5, -31.3234, -4.82782, 25.8451, -158.677, -91.3867, 53.6735
5.252, 5, -31.3093, -4.85131, 25.8655, -158.666, -91.3752, 53.6617
5.256, 5, -31.2953, -4.8748, 25.886, -158.655, -91.3637, 53.65
5.26, 5, -31.2812, -4.89828, 25.9065, -158.643, -91.3522, 53.6382
5.264, 5, -31.2671, -4.92176, 25.9269, -158.632, -91.3408, 53.6265
5.268, 5, -31.253, -4.94524, 25.9474, -158.621, -91.3293, 53.6148
5.272, 5, -31.2388, -4.96871, 25.9678, -158.61, -91.3178, 53.6031
5.276, 5, -31.2247, -4.99218, 25.9882, -158.599, -91.3063, 53.5914
5.28, 5, -31.2106, -5.01565, 26.0087, -158.587, -91.2948, 53.5797
5.284, 5, -31.1964, -5.03911, 26.0291, -158.576, -91.2833, 53.568
5.288, 5, -31.1823, -5.06257, 26.0495, -158.565, -91.2718, 53.5563
5.292, 5, -31.1682, -5.08602, 26.0699, -158.554, -91.2603, 53.5446
5.296, 5, -31.154, -5.10948, 26.0902, -158.542, -91.2488, 53.5329
5.3, 5, -31.1398, -5.13292, 26.1106, -158.531, -91.2374, 53.5213
5.304, 5, -31.1257, -5.15637, 26.131, -158.52, -91.2259, 53.5096
5.308, 5, -31.1115, -5.17981, 26.1513, -158.509, -91.2144, 53.498
5.312, 5, -31.0973, -5.20325, 26.1717, -158.497, -91.2029, 53.4863
5.316, 5, -31.0831, -5.22668, 26.192, -158.486, -91.1914, 53.4747
5.32, 5, -31.0689, -5.25011, 26.2124, -158.475, -91.18, 53.463
5.324, 5, -31.0547, -5.27354, 26.2327, -158.464, -91.1685, 53.4514
5.328, 5, -31.0405, -5.29696, 26.253, -158.452, -91.157, 53.4398
5.332, 5, -31.0263, -5.32038, 26.2733, -158.441, -91.1456, 53.4282
5.336, 5, -31.012, -5.3438, 26.2936, -158.43, -91.1341, 53.4166
5.34, 5, -30.9978, -5.36721, 26.3139, -158.419, -91.1226, 53.405
5.344, 5, -30.9836, -5.39062, 26.3341, -158.408, -91.1111, 53.3934
5.348, 5, -30.9693, -5.41402, 26.3544, -158.396, -91.0997, 53.3818
5.352, 5, -30.9551, -5.43743, 26.3747, -158.385, -91.0882, 53.3702
5.356, 5, -30.9408, -5.46082, 26.3949, -158.374, -91.0767, 53.3586
5.36, 5, -30.9265, -5.48422, 26.4151, -158.363, -91.0653, 53.3471
5.364, 5, -30.9123, -5.50761, 26.4354, -158.351, -91.0538, 53.3355
5.368, 5, -30.898, -5.53099, 26.4556, -158.34, -91.0423, 53.324
5.372, 5, -30.8837, -5.55438, 26.4758, -158.329, -91.0309, 53.3124
5.376, 5, -30.8694, -5.57776, 26.496, -158.317, -91.0194, 53.3009
5.38, 5, -30.8551, -5.60114, 26.5162, -158.306, -91.0079, 53.2893
5.384, 5, -30.8408, -5.62451, 26.5364, -158.295, -90.9965, 53.2778
5.388, 5, -30.8265, -5.64788, 26.5566, -158.284, -90.985, 53.2663
5.392, 5, -30.8121, -5.67124, 26.5767, -158.272, -90.9736, 53.2548
5.396, 5, -30.7978, -5.6946, 26.5969, -158.261, -90.9621, 53.2433
5.4, 5, -30.7835, -5.71796, 26.617, -158.25, -90.9507, 53.2318
5.404, 5, -30.7691, -5.74132, 26.6372, -158.239, -90.9392, 53.2203
5.408, 5, -30.7548, -5.76467, 26.6573, -158.227, -90.9277, 53.2088
5.412, 5, -30.7404, -5.78802, 26.6774, -158.216, -90.9163, 53.1973
5.416, 5, -30.726, -5.81136, 26.6975, -158.205, -90.9048, 53.1859
5.42, 5, -30.7117, -5.8347, 26.7177, -158.194, -90.8934, 53.1744
5.424, 5, -30.6973, -5.85804, 26.7377, -158.182, -90.8819, 53.1629
5.428, 5, -30.6829, -5.88137, 26.7578, -158.171, -90.8705, 53.1515
5.432, 5, -30.6685, -5.9047, 26.7779, -158.16, -90.859, 53.14
5.436, 5, -30.6541, -5.92802, 26.798, -158.149, -90.8476, 53.1286
5.44, 5, -30.6397, -5.95134, 26.818, -158.137, -90.8361, 53.1172
5.444, 5, -30.6253, -5.97466, 26.8381, -158.126, -90.8247, 53.1058
5.448, 5, -30.6108, -5.99798, 26.8581, -158.115, -90.8133, 53.0943
5.452, 5, -30.5964, -6.02129, 26.8782, -158.103, -90.8018, 53.0829
5.456, 5, -30.582, -6.0446, 26.8982, -158.092, -90.7904, 53.0715
5.46, 5, -30.5675, -6.0679, 26.9182, -158.081, -90.7789, 53.0601
5.464, 5, -30.5531, -6.0912, 26.9382, -158.07, -90.7675, 53.0487
5.468, 5, -30.5386, -6.1145, 26.9582, -158.058, -90.756, 53.0374
5.472, 5, -30.5242, -6.13779, 26.9782, -158.047, -90.7446, 53.026
5.476, 5, -30.5097, -6.16108, 26.9982, -158.036, -90.7332, 53.0146
5.48, 5, -30.4952, -6.18436, 27.0181, -158.024, -90.7217, 53.0033
5.484, 5, -30.4807, -6.20765, 27.0381, -158.013, -90.7103, 52.9919
5.488, 5, -30.4662, -6.23092, 27.0581, -158.002, -90.6988, 52.9806
5.492, 5, -30.4517, -6.2542, 27.078, -157.991, -90.6874, 52.9692
5.496, 5, -30.4372, -6.27747, 27.0979, -157.979, -90.676, 52.9579
5.5, 5, -30.4227, -6.30074, 27.1179, -157.968, -90.6645, 52.9465
5.504, 5, -30.4082, -6.324, 27.1378, -157.957, -90.6531, 52.9352
5.508, 5, -30.3936, -6.34726, 27.1577, -157.945, -90.6417, 52.9239
5.512, 5, -30.3791, -6.37052, 27.1776, -157.934, -90.6302, 52.9126
5.516, 5, -30.3645, -6.39377, 27.1975, -157.923, -90.6188, 52.9013
5.52, 5, -30.35, -6.41702, 27.2174, -157.912, -90.6074, 52.89
5.524, 5, -30.3354, -6.44026, 27.2372, -157.9, -90.5959, 52.8787
5.528, 5, -30.3209, -6.4635, 27.2571, -157.889, -90.5845, 52.8675
5.532, 5, -30.3063, -6.48674, 27.277, -157.878, -90.5731, 52.8562
5.536, 5, -30.2917, -6.50997, 27.2968, -157.866, -90.5616, 52.8449
5.54, 5, -30.2771, -6.53321, 27.3166, -157.855, -90.5502, 52.8337
5.544, 5, -30.2625, -6.55643, 27.3365, -157.844, -90.5388, 52.8224
5.548, 5, -30.2479, -6.57966, 27.3563, -157.832, -90.5274, 52.8112
5.552, 5, -30.2333, -6.60287, 27.3761, -157.821, -90.5159, 52.7999
5.556, 5, -30.2187, -6.62609, 27.3959, -157.81, -90.5045, 52.7887
5.56, 5, -30.2041, -6.6493, 27.4157, -157.799, -90.4931, 52.7775
5.564, 5, -30.1894, -6.67251, 27.4355, -157.787, -90.4817, 52.7663
5.568, 5, -30.1748, -6.69572, 27.4552, -157.776, -90.4702, 52.755
5.572, 5, -30.1601, -6.71892, 27.475, -157.765, -90.4588, 52.7438
5.576, 5, -30.1455, -6.74211, 27.4948, -157.753, -90.4474, 52.7326
5.58, 5, -30.1308, -6.76531, 27.5145, -157.742, -90.436, 52.7215
5.584, 5, -30.1162, -6.7885, 27.5343, -157.731, -90.4245, 52.7103
5.588, 5, -30.1015, -6.81168, 27.554, -157.719, -90.4131, 52.6991
5.592, 5, -30.0868, -6.83487, 27.5737, -157.708, -90.4017, 52.6879
5.596, 5, -30.0721, -6.85804, 27.5934, -157.697, -90.3903, 52.6768
5.6, 5, -30.0574, -6.88122, 27.6131, -157.685, -90.3789, 52.6656
5.604, 5, -30.0427, -6.90439, 27.6328, -157.674, -90.3674, 52.6545
5.608, 5, -30.028, -6.92757, 27.6525, -157.663, -90.356, 52.6433
5.612, 5, -30.0133, -6.95076, 27.6722, -157.651, -90.3446, 52.6322
5.616, 5, -29.9986, -6.97398, 27.6919, -157.64, -90.3332, 52.6211
5.62, 5, -29.9839, -6.99725, 27.7115, -157.629, -90.3217, 52.6099
5.624, 5, -29.9693, -7.02059, 27.7312, -157.618, -90.3103, 52.5988
5.628, 5, -29.9547, -7.04401, 27.7509, -157.606, -90.2988, 52.5876
5.632, 5, -29.9401, -7.06754, 27.7706, -157.595, -90.2873, 52.5765
5.636, 5, -29.9256, -7.09119, 27.7904, -157.583, -90.2757, 52.5652
5.64, 5, -29.9111, -7.11497, 27.8102, -157.572, -90.2641, 52.5539
5.644, 5, -29.8967, -7.13891, 27.8302, -157.56, -90.2523, 52.5425
5.648, 5, -29.8824, -7.16302, 27.8502, -157.549, -90.2403, 52.531
5.652, 5, -29.8681, -7.18733, 27.8704, -157.537, -90.2282, 52.5193
5.656, 5, -29.8539, -7.21188, 27.8907, -157.525, -90.2158, 52.5074
5.66, 5, -29.8399, -7.23667, 27.9112, -157.513, -90.2032, 52.4953
5.664, 5, -29.8259, -7.26173, 27.9319, -157.501, -90.1903, 52.483
5.668, 5, -29.812, -7.28708, 27.9529, -157.488, -90.1771, 52.4704
5.672, 5, -29.7982, -7.31273, 27.9742, -157.475, -90.1635, 52.4575
5.676, 5, -29.7845, -7.33871, 27.9957, -157.463, -90.1495, 52.4443
5.68, 5, -29.771, -7.36503, 28.0176, -157.449, -90.1351, 52.4307
5.684, 5, -29.7576, -7.39173, 28.0397, -157.436, -90.1203, 52.4168
5.688, 5, -29.7443, -7.41882, 28.0622, -157.422, -90.1051, 52.4025
5.692, 5, -29.7312, -7.44633, 28.0851, -157.408, -90.0895, 52.3878
5.696, 5, -29.7183, -7.47427, 28.1082, -157.394, -90.0734, 52.3728
5.7, 5, -29.7055, -7.50266, 28.1318, -157.38, -90.0569, 52.3573
5.704, 5, -29.6929, -7.53151, 28.1557, -157.365, -90.0399, 52.3415
5.708, 5, -29.6805, -7.56082, 28.18, -157.35, -90.0225, 52.3253
5.712, 5, -29.6683, -7.59061, 28.2046, -157.334, -90.0047, 52.3087
5.716, 5, -29.6562, -7.62087, 28.2296, -157.319, -89.9864, 52.2917
5.72, 5, -29.6444, -7.65161, 28.255, -157.303, -89.9677, 52.2743
5.724, 6, -29.6327, -7.68283, 28.2808, -157.287, -89.9485, 52.2565
5.728, 6, -29.6213, -7.71454, 28.3069, -157.27, -89.9289, 52.2382
5.732, 6, -29.61, -7.74674, 28.3334, -157.253, -89.9089, 52.2196
5.736, 6, -29.5989, -7.77942, 28.3604, -157.236, -89.8884, 52.2006
5.74, 6, -29.588, -7.81259, 28.3876, -157.219, -89.8675, 52.1812
5.744, 6, -29.5773, -7.84625, 28.4153, -157.202, -89.8461, 52.1613
5.748, 6, -29.5668, -7.8804, 28.4434, -157.184, -89.8243, 52.1411
5.752, 6, -29.5565, -7.91504, 28.4718, -157.166, -89.8021, 52.1204
5.756, 6, -29.5464, -7.95017, 28.5006, -157.147, -89.7794, 52.0993
5.76, 6, -29.5365, -7.98579, 28.5299, -157.129, -89.7563, 52.0778
5.764, 6, -29.5268, -8.0219, 28.5595, -157.11, -89.7327, 52.056
5.768, 6, -29.5172, -8.05851, 28.5895, -157.09, -89.7087, 52.0337
5.772, 6, -29.5079, -8.0956, 28.6198, -157.071, -89.6843, 52.0109
5.776, 6, -29.4988, -8.13318, 28.6506, -157.051, -89.6594, 51.9878
5.78, 6, -29.4899, -8.17125, 28.6817, -157.031, -89.6341, 51.9643
5.784, 6, -29.4811, -8.20981, 28.7132, -157.01, -89.6083, 51.9404
5.788, 6, -29.4726, -8.24886, 28.7451, -156.99, -89.5822, 51.916
5.792, 6, -29.4642, -8.28839, 28.7774, -156.969, -89.5556, 51.8913
5.796, 6, -29.4561, -8.3284, 28.8101, -156.947, -89.5285, 51.8661
5.8, 6, -29.4481, -8.3689, 28.8431, -156.926, -89.5011, 51.8405
5.804, 6, -29.4404, -8.40987, 28.8765, -156.904, -89.4732, 51.8146
5.808, 6, -29.4328, -8.45131, 28.9102, -156.882, -89.4448, 51.7882
5.812, 6, -29.4254, -8.4932, 28.9444, -156.86, -89.4161, 51.7614
5.816, 6, -29.4181, -8.53553, 28.9789, -156.837, -89.3869, 51.7342
5.82, 6, -29.411, -8.57827, 29.0137, -156.814, -89.3572, 51.7067
5.824, 6, -29.4041, -8.6214, 29.0489, -156.791, -89.3272, 51.6787
5.828, 6, -29.3973, -8.66491, 29.0844, -156.767, -89.2968, 51.6504
5.832, 6, -29.3906, -8.70876, 29.1202, -156.743, -89.2659, 51.6217
5.836, 6, -29.3841, -8.75296, 29.1564, -156.719, -89.2347, 51.5927
5.84, 6, -29.3777, -8.79748, 29.1928, -156.695, -89.2032, 51.5634
5.844, 6, -29.3714, -8.8423, 29.2294, -156.67, -89.1714, 51.5337
5.848, 6, -29.3652, -8.8874, 29.2663, -156.646, -89.1393, 51.5039
5.852, 6, -29.3591, -8.93275, 29.3033, -156.621, -89.1069, 51.4737
5.856, 6, -29.3531, -8.97833, 29.3406, -156.596, -89.0744, 51.4434
5.86, 6, -29.3471, -9.02411, 29.3779, -156.571, -89.0417, 51.413
5.864, 6, -29.3413, -9.07008, 29.4154, -156.545, -89.0088, 51.3824
5.868, 6, -29.3355, -9.11622, 29.453, -156.52, -88.9759, 51.3517
5.872, 6, -29.3298, -9.16251, 29.4906, -156.495, -88.9428, 51.3209
5.876, 6, -29.3241, -9.20893, 29.5283, -156.469, -88.9097, 51.29
5.88, 6, -29.3185, -9.25547, 29.5661, -156.443, -88.8766, 51.2591
5.884, 6, -29.3129, -9.30209, 29.6038, -156.418, -88.8435, 51.2281
5.888, 6, -29.3074, -9.34878, 29.6416, -156.392, -88.8103, 51.1971
5.892, 6, -29.3019, -9.39552, 29.6794, -156.367, -88.7772, 51.1661
5.896, 6, -29.2964, -9.44229, 29.7172, -156.341, -88.744, 51.1351
5.9, 6, -29.2908, -9.48909, 29.755, -156.315, -88.7109, 51.1041
5.904, 6, -29.2853, -9.53591, 29.7929, -156.29, -88.6778, 51.0731
5.908, 6, -29.2799, -9.58273, 29.8307, -156.264, -88.6447, 51.042
5.912, 6, -29.2744, -9.62957, 29.8685, -156.238, -88.6116, 51.0109
