rpiRobotics/ARM-21-02-F-19-Robot-Motion-Program/data_performance_abb/curve_2/curve_pose_opt2/greedy0.02/realrobot/run_2.csv
timestamp,cmd_num,J1,J2,J3,J4,J5,J6
2.030000032391399145e-04,-1.000000000000000000e+00,8.512833595275878906e+00,-1.042646408081054688e+01,3.620788335800170898e+00,-2.087635192871093750e+02,-1.015728302001953125e+02,-1.814822845458984375e+02,4.030399620532989502e-01,-6.667101287841796875e+01,-1.826867065429687500e+02,-2.342245101928710938e+00,7.562124633789062500e+01,3.135653114318847656e+01
6.657000165432691574e-03,1.000000000000000000e+00,8.512748718261718750e+00,-1.042646408081054688e+01,3.620788335800170898e+00,-2.087635192871093750e+02,-1.015729370117187500e+02,-1.814821472167968750e+02,4.030399620532989502e-01,-6.667101287841796875e+01,-1.826867065429687500e+02,-2.342245101928710938e+00,7.562124633789062500e+01,3.135675048828125000e+01
1.035299990326166153e-02,1.000000000000000000e+00,8.512748718261718750e+00,-1.042646408081054688e+01,3.620788335800170898e+00,-2.087635192871093750e+02,-1.015729370117187500e+02,-1.814821472167968750e+02,4.030399620532989502e-01,-6.667101287841796875e+01,-1.826867065429687500e+02,-2.342245101928710938e+00,7.562124633789062500e+01,3.135642242431640625e+01
1.483100000768899918e-02,1.000000000000000000e+00,8.512748718261718750e+00,-1.042646408081054688e+01,3.620747804641723633e+00,-2.087636108398437500e+02,-1.015729370117187500e+02,-1.814821472167968750e+02,4.030399620532989502e-01,-6.667101287841796875e+01,-1.826867065429687500e+02,-2.342245101928710938e+00,7.562124633789062500e+01,3.135642242431640625e+01
3.909299895167350769e-02,1.000000000000000000e+00,8.512748718261718750e+00,-1.042646408081054688e+01,3.620788335800170898e+00,-2.087635192871093750e+02,-1.015729370117187500e+02,-1.814822845458984375e+02,4.030399620532989502e-01,-6.667101287841796875e+01,-1.826867065429687500e+02,-2.342245101928710938e+00,7.562124633789062500e+01,3.135653114318847656e+01
4.034600034356117249e-02,1.000000000000000000e+00,8.512748718261718750e+00,-1.042646408081054688e+01,3.620788335800170898e+00,-2.087635192871093750e+02,-1.015729370117187500e+02,-1.814822845458984375e+02,4.030399620532989502e-01,-6.667101287841796875e+01,-1.826867065429687500e+02,-2.342245101928710938e+00,7.562124633789062500e+01,3.135653114318847656e+01
4.293400049209594727e-02,1.000000000000000000e+00,8.512748718261718750e+00,-1.042646408081054688e+01,3.620747804641723633e+00,-2.087636108398437500e+02,-1.015729370117187500e+02,-1.814821472167968750e+02,4.030399620532989502e-01,-6.667101287841796875e+01,-1.826867065429687500e+02,-2.342173099517822266e+00,7.562117004394531250e+01,3.135675048828125000e+01
5.131800100207328796e-02,1.000000000000000000e+00,8.512690544128417969e+00,-1.042653274536132812e+01,3.620788335800170898e+00,-2.087635192871093750e+02,-1.015729370117187500e+02,-1.814822845458984375e+02,4.028751850128173828e-01,-6.667101287841796875e+01,-1.826867065429687500e+02,-2.342316627502441406e+00,7.562124633789062500e+01,3.135653114318847656e+01
5.260699987411499023e-02,1.000000000000000000e+00,8.512690544128417969e+00,-1.042653274536132812e+01,3.620788335800170898e+00,-2.087635192871093750e+02,-1.015729370117187500e+02,-1.814822845458984375e+02,4.028751850128173828e-01,-6.667101287841796875e+01,-1.826867065429687500e+02,-2.342316627502441406e+00,7.562124633789062500e+01,3.135653114318847656e+01
5.596800148487091064e-02,1.000000000000000000e+00,8.512690544128417969e+00,-1.042646408081054688e+01,3.620747804641723633e+00,-2.087635192871093750e+02,-1.015729370117187500e+02,-1.814821472167968750e+02,4.030399620532989502e-01,-6.667101287841796875e+01,-1.826867065429687500e+02,-2.342173099517822266e+00,7.562124633789062500e+01,3.135653114318847656e+01
5.850100144743919373e-02,1.000000000000000000e+00,8.512403488159179688e+00,-1.042614746093750000e+01,3.620788335800170898e+00,-2.087636108398437500e+02,-1.015728302001953125e+02,-1.814822845458984375e+02,4.030399620532989502e-01,-6.667111206054687500e+01,-1.826867065429687500e+02,-2.342245101928710938e+00,7.562124633789062500e+01,3.135653114318847656e+01
6.289800256490707397e-02,1.000000000000000000e+00,8.512403488159179688e+00,-1.042614746093750000e+01,3.620788335800170898e+00,-2.087636108398437500e+02,-1.015728302001953125e+02,-1.814822845458984375e+02,4.030399620532989502e-01,-6.667101287841796875e+01,-1.826867065429687500e+02,-2.342245101928710938e+00,7.562117004394531250e+01,3.135653114318847656e+01
6.432999670505523682e-02,1.000000000000000000e+00,8.511370658874511719e+00,-1.042537784576416016e+01,3.620788335800170898e+00,-2.087635192871093750e+02,-1.015729370117187500e+02,-1.814822845458984375e+02,4.030399620532989502e-01,-6.667101287841796875e+01,-1.826867065429687500e+02,-2.342245101928710938e+00,7.562117004394531250e+01,3.135653114318847656e+01
6.702300161123275757e-02,1.000000000000000000e+00,8.509475708007812500e+00,-1.042401981353759766e+01,3.620829343795776367e+00,-2.087635192871093750e+02,-1.015728302001953125e+02,-1.814821472167968750e+02,4.030399620532989502e-01,-6.667111206054687500e+01,-1.826867065429687500e+02,-2.342245101928710938e+00,7.562124633789062500e+01,3.135653114318847656e+01
6.829699873924255371e-02,1.000000000000000000e+00,8.509475708007812500e+00,-1.042401981353759766e+01,3.620829343795776367e+00,-2.087635192871093750e+02,-1.015728302001953125e+02,-1.814821472167968750e+02,4.030399620532989502e-01,-6.667111206054687500e+01,-1.826867065429687500e+02,-2.342245101928710938e+00,7.562124633789062500e+01,3.135653114318847656e+01
7.272300124168395996e-02,1.000000000000000000e+00,8.506661415100097656e+00,-1.042193794250488281e+01,3.620829343795776367e+00,-2.087635192871093750e+02,-1.015727844238281250e+02,-1.814820098876953125e+02,4.030399620532989502e-01,-6.667101287841796875e+01,-1.826867065429687500e+02,-2.342245101928710938e+00,7.562117004394531250e+01,3.135653114318847656e+01
7.588499784469604492e-02,1.000000000000000000e+00,8.502729415893554688e+00,-1.041886043548583984e+01,3.620889902114868164e+00,-2.087635192871093750e+02,-1.015723495483398438e+02,-1.814818725585937500e+02,4.030399620532989502e-01,-6.667101287841796875e+01,-1.826867065429687500e+02,-2.342173099517822266e+00,7.562124633789062500e+01,3.135653114318847656e+01
7.852999866008758545e-02,1.000000000000000000e+00,8.502729415893554688e+00,-1.041886043548583984e+01,3.620889902114868164e+00,-2.087635192871093750e+02,-1.015723495483398438e+02,-1.814818725585937500e+02,4.030399620532989502e-01,-6.667101287841796875e+01,-1.826867065429687500e+02,-2.342245101928710938e+00,7.562117004394531250e+01,3.135653114318847656e+01
7.982400059700012207e-02,1.000000000000000000e+00,8.497705459594726562e+00,-1.041465091705322266e+01,3.621032476425170898e+00,-2.087629852294921875e+02,-1.015714950561523438e+02,-1.814816589355468750e+02,4.030399620532989502e-01,-6.667101287841796875e+01,-1.826867065429687500e+02,-2.342245101928710938e+00,7.562117004394531250e+01,3.135653114318847656e+01
8.233000338077545166e-02,1.000000000000000000e+00,8.497705459594726562e+00,-1.041465091705322266e+01,3.621032476425170898e+00,-2.087629852294921875e+02,-1.015714950561523438e+02,-1.814816589355468750e+02,4.030399620532989502e-01,-6.667101287841796875e+01,-1.826867065429687500e+02,-2.342245101928710938e+00,7.562117004394531250e+01,3.135653114318847656e+01
8.364699780941009521e-02,1.000000000000000000e+00,8.491620063781738281e+00,-1.040924263000488281e+01,3.621357917785644531e+00,-2.087617645263671875e+02,-1.015693664550781250e+02,-1.814804382324218750e+02,4.030399620532989502e-01,-6.667101287841796875e+01,-1.826867065429687500e+02,-2.342245101928710938e+00,7.562124633789062500e+01,3.135653114318847656e+01
8.501099795103073120e-02,1.000000000000000000e+00,8.491620063781738281e+00,-1.040924263000488281e+01,3.621357917785644531e+00,-2.087617645263671875e+02,-1.015693664550781250e+02,-1.814804382324218750e+02,4.030399620532989502e-01,-6.667101287841796875e+01,-1.826867065429687500e+02,-2.342245101928710938e+00,7.562124633789062500e+01,3.135653114318847656e+01
8.832900226116180420e-02,1.000000000000000000e+00,8.484069824218750000e+00,-1.040211486816406250e+01,3.621845722198486328e+00,-2.087592926025390625e+02,-1.015661163330078125e+02,-1.814786071777343750e+02,4.030399620532989502e-01,-6.667101287841796875e+01,-1.826867065429687500e+02,-2.342245101928710938e+00,7.562124633789062500e+01,3.135642242431640625e+01
9.091400355100631714e-02,1.000000000000000000e+00,8.474711418151855469e+00,-1.039288139343261719e+01,3.622455835342407227e+00,-2.087554931640625000e+02,-1.015615234375000000e+02,-1.814749450683593750e+02,4.030399620532989502e-01,-6.667101287841796875e+01,-1.826867065429687500e+02,-2.342245101928710938e+00,7.562117004394531250e+01,3.135653114318847656e+01
9.443400055170059204e-02,1.000000000000000000e+00,8.474711418151855469e+00,-1.039288139343261719e+01,3.622455835342407227e+00,-2.087554931640625000e+02,-1.015615234375000000e+02,-1.814749450683593750e+02,4.030399620532989502e-01,-6.667101287841796875e+01,-1.826867065429687500e+02,-2.342245101928710938e+00,7.562117004394531250e+01,3.135653114318847656e+01
9.583199769258499146e-02,1.000000000000000000e+00,8.463430404663085938e+00,-1.038113594055175781e+01,3.623350143432617188e+00,-2.087506713867187500e+02,-1.015549240112304688e+02,-1.814696655273437500e+02,4.030399620532989502e-01,-6.667101287841796875e+01,-1.826867065429687500e+02,-2.342245101928710938e+00,7.562124633789062500e+01,3.135653114318847656e+01
1.025599986314773560e-01,1.000000000000000000e+00,8.463430404663085938e+00,-1.038113594055175781e+01,3.623350143432617188e+00,-2.087506713867187500e+02,-1.015549240112304688e+02,-1.814696655273437500e+02,4.030399620532989502e-01,-6.667101287841796875e+01,-1.826867065429687500e+02,-2.342245101928710938e+00,7.562124633789062500e+01,3.135653114318847656e+01
1.039870008826255798e-01,1.000000000000000000e+00,8.432541847229003906e+00,-1.034934139251708984e+01,3.626237630844116211e+00,-2.087350158691406250e+02,-1.015337524414062500e+02,-1.814514160156250000e+02,4.030399620532989502e-01,-6.667101287841796875e+01,-1.826867065429687500e+02,-2.342245101928710938e+00,7.562117004394531250e+01,3.135653114318847656e+01
1.092199981212615967e-01,1.000000000000000000e+00,8.432541847229003906e+00,-1.034934139251708984e+01,3.626237630844116211e+00,-2.087350158691406250e+02,-1.015337524414062500e+02,-1.814514160156250000e+02,4.030399620532989502e-01,-6.667101287841796875e+01,-1.826867065429687500e+02,-2.342245101928710938e+00,7.562117004394531250e+01,3.135653114318847656e+01
1.125229969620704651e-01,1.000000000000000000e+00,8.390657424926757812e+00,-1.030912780761718750e+01,3.631096839904785156e+00,-2.087079467773437500e+02,-1.015002212524414062e+02,-1.814219207763671875e+02,4.030399620532989502e-01,-6.667101287841796875e+01,-1.826867065429687500e+02,-2.342245101928710938e+00,7.562117004394531250e+01,3.135653114318847656e+01
1.168629974126815796e-01,1.000000000000000000e+00,8.366343498229980469e+00,-1.028699588775634766e+01,3.634085416793823242e+00,-2.086895599365234375e+02,-1.014780883789062500e+02,-1.814017791748046875e+02,4.030399620532989502e-01,-6.667101287841796875e+01,-1.826867065429687500e+02,-2.342245101928710938e+00,7.562124633789062500e+01,3.135653114318847656e+01
1.195859983563423157e-01,1.000000000000000000e+00,8.339502334594726562e+00,-1.026373195648193359e+01,3.637460470199584961e+00,-2.086672821044921875e+02,-1.014520721435546875e+02,-1.813782501220703125e+02,4.030399620532989502e-01,-6.667101287841796875e+01,-1.826867065429687500e+02,-2.342245101928710938e+00,7.562124633789062500e+01,3.135642242431640625e+01
1.233299970626831055e-01,1.000000000000000000e+00,8.339502334594726562e+00,-1.026373195648193359e+01,3.637460470199584961e+00,-2.086672821044921875e+02,-1.014520721435546875e+02,-1.813782501220703125e+02,4.030399620532989502e-01,-6.667101287841796875e+01,-1.826867065429687500e+02,-2.342245101928710938e+00,7.562124633789062500e+01,3.135642242431640625e+01
1.323190033435821533e-01,1.000000000000000000e+00,8.242559432983398438e+00,-1.018382549285888672e+01,3.650757551193237305e+00,-2.085815734863281250e+02,-1.013433609008789062e+02,-1.812836456298828125e+02,4.030399620532989502e-01,-6.667101287841796875e+01,-1.826867065429687500e+02,-2.342316627502441406e+00,7.562124633789062500e+01,3.135653114318847656e+01
1.354109942913055420e-01,1.000000000000000000e+00,8.242559432983398438e+00,-1.018382549285888672e+01,3.650757551193237305e+00,-2.085815734863281250e+02,-1.013433609008789062e+02,-1.812836456298828125e+02,4.030399620532989502e-01,-6.667101287841796875e+01,-1.826867065429687500e+02,-2.342245101928710938e+00,7.562117004394531250e+01,3.135653114318847656e+01
1.368290036916732788e-01,1.000000000000000000e+00,8.204694747924804688e+00,-1.015372848510742188e+01,3.656287908554077148e+00,-2.085450134277343750e+02,-1.012987365722656250e+02,-1.812432250976562500e+02,4.030399620532989502e-01,-6.667101287841796875e+01,-1.826867065429687500e+02,-2.342245101928710938e+00,7.562117004394531250e+01,3.135653114318847656e+01
1.395410001277923584e-01,1.000000000000000000e+00,8.164420127868652344e+00,-1.012213706970214844e+01,3.662122964859008789e+00,-2.085032501220703125e+02,-1.012511215209960938e+02,-1.811977233886718750e+02,4.030399620532989502e-01,-6.667101287841796875e+01,-1.826867065429687500e+02,-2.342245101928710938e+00,7.562124633789062500e+01,3.135675048828125000e+01
1.441839933395385742e-01,1.000000000000000000e+00,8.121330261230468750e+00,-1.008893871307373047e+01,3.668324232101440430e+00,-2.084593658447265625e+02,-1.011976470947265625e+02,-1.811487426757812500e+02,4.030399620532989502e-01,-6.667101287841796875e+01,-1.826867065429687500e+02,-2.342245101928710938e+00,7.562117004394531250e+01,3.135653114318847656e+01
1.473129987716674805e-01,1.000000000000000000e+00,8.121330261230468750e+00,-1.008893871307373047e+01,3.668324232101440430e+00,-2.084593658447265625e+02,-1.011976470947265625e+02,-1.811487426757812500e+02,4.030399620532989502e-01,-6.667101287841796875e+01,-1.826867065429687500e+02,-2.342245101928710938e+00,7.562117004394531250e+01,3.135653114318847656e+01
1.516499966382980347e-01,1.000000000000000000e+00,8.076490402221679688e+00,-1.005383968353271484e+01,3.674972772598266602e+00,-2.084140777587890625e+02,-1.011393737792968750e+02,-1.810982360839843750e+02,4.030399620532989502e-01,-6.667101287841796875e+01,-1.826867065429687500e+02,-2.342245101928710938e+00,7.562124633789062500e+01,3.135642242431640625e+01
1.552380025386810303e-01,1.000000000000000000e+00,8.029582977294921875e+00,-1.001720142364501953e+01,3.682088851928710938e+00,-2.083652954101562500e+02,-1.010786972045898438e+02,-1.810445861816406250e+02,4.030399620532989502e-01,-6.667101287841796875e+01,-1.826867065429687500e+02,-2.342245101928710938e+00,7.562117004394531250e+01,3.135653114318847656e+01
1.606190055608749390e-01,1.000000000000000000e+00,7.980580806732177734e+00,-9.978572845458984375e+00,3.689672470092773438e+00,-2.083129425048828125e+02,-1.010150909423828125e+02,-1.809859924316406250e+02,4.030399620532989502e-01,-6.667101287841796875e+01,-1.826867065429687500e+02,-2.342245101928710938e+00,7.562124633789062500e+01,3.135653114318847656e+01
1.642179936170578003e-01,1.000000000000000000e+00,7.875427722930908203e+00,-9.893688201904296875e+00,3.705775499343872070e+00,-2.082039031982421875e+02,-1.008811111450195312e+02,-1.808656768798828125e+02,4.030399620532989502e-01,-6.667101287841796875e+01,-1.826867065429687500e+02,-2.342316627502441406e+00,7.562124633789062500e+01,3.135653114318847656e+01
1.673039942979812622e-01,1.000000000000000000e+00,7.875427722930908203e+00,-9.893688201904296875e+00,3.705775499343872070e+00,-2.082039031982421875e+02,-1.008811111450195312e+02,-1.808656768798828125e+02,4.030399620532989502e-01,-6.667101287841796875e+01,-1.826867065429687500e+02,-2.342316627502441406e+00,7.562124633789062500e+01,3.135653114318847656e+01
1.712410002946853638e-01,1.000000000000000000e+00,7.819363594055175781e+00,-9.847658157348632812e+00,3.714273929595947266e+00,-2.081478576660156250e+02,-1.008112106323242188e+02,-1.808026123046875000e+02,4.030399620532989502e-01,-6.667101287841796875e+01,-1.826867065429687500e+02,-2.342245101928710938e+00,7.562117004394531250e+01,3.135653114318847656e+01
1.757780015468597412e-01,1.000000000000000000e+00,7.761749267578125000e+00,-9.799434661865234375e+00,3.722853899002075195e+00,-2.080911254882812500e+02,-1.007396621704101562e+02,-1.807383880615234375e+02,4.030399620532989502e-01,-6.667101287841796875e+01,-1.826867065429687500e+02,-2.342173099517822266e+00,7.562124633789062500e+01,3.135653114318847656e+01
1.802359968423843384e-01,1.000000000000000000e+00,7.702727794647216797e+00,-9.749875068664550781e+00,3.731698274612426758e+00,-2.080325469970703125e+02,-1.006676330566406250e+02,-1.806744537353515625e+02,4.030399620532989502e-01,-6.667101287841796875e+01,-1.826865997314453125e+02,-2.342245101928710938e+00,7.562117004394531250e+01,3.135653114318847656e+01
1.832440048456192017e-01,1.000000000000000000e+00,7.642271518707275391e+00,-9.699319839477539062e+00,3.740623950958251953e+00,-2.079738311767578125e+02,-1.005950164794921875e+02,-1.806091308593750000e+02,4.030399620532989502e-01,-6.667101287841796875e+01,-1.826867065429687500e+02,-2.342316627502441406e+00,7.562124633789062500e+01,3.135642242431640625e+01
1.873870044946670532e-01,1.000000000000000000e+00,7.580723762512207031e+00,-9.647293090820312500e+00,3.749610900878906250e+00,-2.079147644042968750e+02,-1.005214385986328125e+02,-1.805432128906250000e+02,4.030399620532989502e-01,-6.667101287841796875e+01,-1.826867065429687500e+02,-2.342173099517822266e+00,7.562117004394531250e+01,3.135653114318847656e+01
1.913380026817321777e-01,1.000000000000000000e+00,7.518315315246582031e+00,-9.594633102416992188e+00,3.758739709854125977e+00,-2.078560943603515625e+02,-1.004472732543945312e+02,-1.804778289794921875e+02,4.030399620532989502e-01,-6.667101287841796875e+01,-1.826867065429687500e+02,-2.342245101928710938e+00,7.562124633789062500e+01,3.135642242431640625e+01
1.953909993171691895e-01,1.000000000000000000e+00,7.455332756042480469e+00,-9.541498184204101562e+00,3.768071889877319336e+00,-2.077969970703125000e+02,-1.003737030029296875e+02,-1.804114379882812500e+02,4.030399620532989502e-01,-6.667101287841796875e+01,-1.826867065429687500e+02,-2.342173099517822266e+00,7.562124633789062500e+01,3.135653114318847656e+01
2.000810056924819946e-01,1.000000000000000000e+00,7.391717910766601562e+00,-9.487774848937988281e+00,3.777627944946289062e+00,-2.077374725341796875e+02,-1.002999649047851562e+02,-1.803455352783203125e+02,4.030399620532989502e-01,-6.667101287841796875e+01,-1.826867065429687500e+02,-2.342173099517822266e+00,7.562124633789062500e+01,3.135653114318847656e+01
2.033350020647048950e-01,1.000000000000000000e+00,7.327356815338134766e+00,-9.433802604675292969e+00,3.787224769592285156e+00,-2.076784362792968750e+02,-1.002258529663085938e+02,-1.802797393798828125e+02,4.030399620532989502e-01,-6.667101287841796875e+01,-1.826867065429687500e+02,-2.342245101928710938e+00,7.562124633789062500e+01,3.135653114318847656e+01
2.073719948530197144e-01,1.000000000000000000e+00,7.262479782104492188e+00,-9.379264831542968750e+00,3.796841621398925781e+00,-2.076186370849609375e+02,-1.001509933471679688e+02,-1.802131500244140625e+02,4.030399620532989502e-01,-6.667101287841796875e+01,-1.826867065429687500e+02,-2.342245101928710938e+00,7.562139129638671875e+01,3.135653114318847656e+01
2.114370018243789673e-01,1.000000000000000000e+00,7.197660446166992188e+00,-9.324975967407226562e+00,3.806397438049316406e+00,-2.075595550537109375e+02,-1.000774765014648438e+02,-1.801475677490234375e+02,4.030399620532989502e-01,-6.667101287841796875e+01,-1.826867065429687500e+02,-2.342316627502441406e+00,7.562117004394531250e+01,3.135675048828125000e+01
2.153840065002441406e-01,1.000000000000000000e+00,7.132725238800048828e+00,-9.270278930664062500e+00,3.815831184387207031e+00,-2.075001220703125000e+02,-1.000035781860351562e+02,-1.800819244384765625e+02,4.030399620532989502e-01,-6.667101287841796875e+01,-1.826867065429687500e+02,-2.342245101928710938e+00,7.562117004394531250e+01,3.135642242431640625e+01
2.193229943513870239e-01,1.000000000000000000e+00,7.067904949188232422e+00,-9.215514183044433594e+00,3.825346469879150391e+00,-2.074411773681640625e+02,-9.992968750000000000e+01,-1.800150604248046875e+02,4.030399620532989502e-01,-6.667101287841796875e+01,-1.826867065429687500e+02,-2.342245101928710938e+00,7.562124633789062500e+01,3.135675048828125000e+01
2.242430001497268677e-01,1.000000000000000000e+00,7.003085136413574219e+00,-9.160818099975585938e+00,3.834882259368896484e+00,-2.073821411132812500e+02,-9.985450744628906250e+01,-1.799496154785156250e+02,4.030399620532989502e-01,-6.667101287841796875e+01,-1.826867065429687500e+02,-2.342245101928710938e+00,7.562124633789062500e+01,3.135653114318847656e+01
2.275339961051940918e-01,1.000000000000000000e+00,6.938064575195312500e+00,-9.106122016906738281e+00,3.844377040863037109e+00,-2.073221435546875000e+02,-9.978055572509765625e+01,-1.798826141357421875e+02,4.030399620532989502e-01,-6.667111206054687500e+01,-1.826867065429687500e+02,-2.342245101928710938e+00,7.562124633789062500e+01,3.135653114318847656e+01
2.313320040702819824e-01,1.000000000000000000e+00,6.873215675354003906e+00,-9.051469802856445312e+00,3.853872299194335938e+00,-2.072630310058593750e+02,-9.970650482177734375e+01,-1.798164978027343750e+02,4.030399620532989502e-01,-6.667101287841796875e+01,-1.826867065429687500e+02,-2.342316627502441406e+00,7.562124633789062500e+01,3.135653114318847656e+01
2.355760037899017334e-01,1.000000000000000000e+00,6.808510303497314453e+00,-8.996932029724121094e+00,3.863183975219726562e+00,-2.072038269042968750e+02,-9.963212585449218750e+01,-1.797511901855468750e+02,4.030399620532989502e-01,-6.667101287841796875e+01,-1.826867065429687500e+02,-2.342245101928710938e+00,7.562117004394531250e+01,3.135653114318847656e+01
2.395929992198944092e-01,1.000000000000000000e+00,6.743834018707275391e+00,-8.942461967468261719e+00,3.872475624084472656e+00,-2.071441040039062500e+02,-9.955711364746093750e+01,-1.796847229003906250e+02,4.030399620532989502e-01,-6.667101287841796875e+01,-1.826867065429687500e+02,-2.342316627502441406e+00,7.562117004394531250e+01,3.135653114318847656e+01
2.436600029468536377e-01,1.000000000000000000e+00,6.679243564605712891e+00,-8.888104438781738281e+00,3.881929874420166016e+00,-2.070846862792968750e+02,-9.948305511474609375e+01,-1.796181945800781250e+02,4.030399620532989502e-01,-6.667101287841796875e+01,-1.826867065429687500e+02,-2.342245101928710938e+00,7.562139129638671875e+01,3.135653114318847656e+01
2.484920024871826172e-01,1.000000000000000000e+00,6.614681720733642578e+00,-8.833680152893066406e+00,3.891607999801635742e+00,-2.070250549316406250e+02,-9.940931701660156250e+01,-1.795524749755859375e+02,4.030399620532989502e-01,-6.667111206054687500e+01,-1.826867065429687500e+02,-2.342245101928710938e+00,7.562117004394531250e+01,3.135653114318847656e+01
2.516489923000335693e-01,1.000000000000000000e+00,6.550063133239746094e+00,-8.779549598693847656e+00,3.901123285293579102e+00,-2.069661102294921875e+02,-9.933541870117187500e+01,-1.794858856201171875e+02,4.030399620532989502e-01,-6.667101287841796875e+01,-1.826867065429687500e+02,-2.342245101928710938e+00,7.562117004394531250e+01,3.135653114318847656e+01
2.569519877433776855e-01,1.000000000000000000e+00,6.485730648040771484e+00,-8.725486755371093750e+00,3.910679101943969727e+00,-2.069066009521484375e+02,-9.926039886474609375e+01,-1.794201660156250000e+02,4.030399620532989502e-01,-6.667101287841796875e+01,-1.826867065429687500e+02,-2.342245101928710938e+00,7.562117004394531250e+01,3.135653114318847656e+01
2.597320079803466797e-01,1.000000000000000000e+00,6.421226978302001953e+00,-8.671467781066894531e+00,3.920153856277465820e+00,-2.068473358154296875e+02,-9.918650817871093750e+01,-1.793544616699218750e+02,4.030399620532989502e-01,-6.667101287841796875e+01,-1.826867065429687500e+02,-2.342316627502441406e+00,7.562124633789062500e+01,3.135653114318847656e+01
2.642369866371154785e-01,1.000000000000000000e+00,6.356980800628662109e+00,-8.617745399475097656e+00,3.929384469985961914e+00,-2.067877655029296875e+02,-9.911282348632812500e+01,-1.792878570556640625e+02,4.030399620532989502e-01,-6.667101287841796875e+01,-1.826867065429687500e+02,-2.342316627502441406e+00,7.562124633789062500e+01,3.135653114318847656e+01
2.677919864654541016e-01,1.000000000000000000e+00,6.292448043823242188e+00,-8.563614845275878906e+00,3.938818693161010742e+00,-2.067281341552734375e+02,-9.903892517089843750e+01,-1.792225494384765625e+02,4.030399620532989502e-01,-6.667101287841796875e+01,-1.826867065429687500e+02,-2.342245101928710938e+00,7.562124633789062500e+01,3.135653114318847656e+01
2.726300060749053955e-01,1.000000000000000000e+00,6.227800369262695312e+00,-8.509733200073242188e+00,3.948374509811401367e+00,-2.066691894531250000e+02,-9.896428680419921875e+01,-1.791564178466796875e+02,4.030399620532989502e-01,-6.667101287841796875e+01,-1.826867065429687500e+02,-2.342316627502441406e+00,7.562124633789062500e+01,3.135653114318847656e+01
2.758469879627227783e-01,1.000000000000000000e+00,6.163267135620117188e+00,-8.455714225769042969e+00,3.957747220993041992e+00,-2.066095581054687500e+02,-9.889006805419921875e+01,-1.790901031494140625e+02,4.030399620532989502e-01,-6.667101287841796875e+01,-1.826867065429687500e+02,-2.342316627502441406e+00,7.562124633789062500e+01,3.135653114318847656e+01
2.809439897537231445e-01,1.000000000000000000e+00,6.098762989044189453e+00,-8.401629447937011719e+00,3.967160940170288086e+00,-2.065506744384765625e+02,-9.881628417968750000e+01,-1.790247955322265625e+02,4.030399620532989502e-01,-6.667101287841796875e+01,-1.826867065429687500e+02,-2.342245101928710938e+00,7.562117004394531250e+01,3.135653114318847656e+01
2.842879891395568848e-01,1.000000000000000000e+00,6.034029006958007812e+00,-8.347746849060058594e+00,3.976310253143310547e+00,-2.064911499023437500e+02,-9.874222564697265625e+01,-1.789589538574218750e+02,4.030399620532989502e-01,-6.667101287841796875e+01,-1.826865997314453125e+02,-2.342245101928710938e+00,7.562117004394531250e+01,3.135653114318847656e+01
2.881729900836944580e-01,1.000000000000000000e+00,5.969237804412841797e+00,-8.293571472167968750e+00,3.985581398010253906e+00,-2.064316406250000000e+02,-9.866769409179687500e+01,-1.788930969238281250e+02,4.030399620532989502e-01,-6.667101287841796875e+01,-1.826867065429687500e+02,-2.342245101928710938e+00,7.562117004394531250e+01,3.135653114318847656e+01
2.920649945735931396e-01,1.000000000000000000e+00,5.904274463653564453e+00,-8.239622116088867188e+00,3.995035648345947266e+00,-2.063728027343750000e+02,-9.859374237060546875e+01,-1.788272552490234375e+02,4.030399620532989502e-01,-6.667101287841796875e+01,-1.826867065429687500e+02,-2.342245101928710938e+00,7.562124633789062500e+01,3.135653114318847656e+01
2.967579960823059082e-01,1.000000000000000000e+00,5.839339733123779297e+00,-8.185468673706054688e+00,4.004652500152587891e+00,-2.063130645751953125e+02,-9.852000427246093750e+01,-1.787603149414062500e+02,4.030399620532989502e-01,-6.667101287841796875e+01,-1.826867065429687500e+02,-2.342173099517822266e+00,7.562117004394531250e+01,3.135653114318847656e+01
3.000450134277343750e-01,1.000000000000000000e+00,5.774146556854248047e+00,-8.131360054016113281e+00,4.014208793640136719e+00,-2.062536010742187500e+02,-9.844642639160156250e+01,-1.786943206787109375e+02,4.030399620532989502e-01,-6.667101287841796875e+01,-1.826867065429687500e+02,-2.342245101928710938e+00,7.562124633789062500e+01,3.135653114318847656e+01
3.039000034332275391e-01,1.000000000000000000e+00,5.709154129028320312e+00,-8.077252388000488281e+00,4.023784637451171875e+00,-2.061942291259765625e+02,-9.837173461914062500e+01,-1.786293487548828125e+02,4.030399620532989502e-01,-6.667101287841796875e+01,-1.826867065429687500e+02,-2.342245101928710938e+00,7.562124633789062500e+01,3.135653114318847656e+01
3.084380030632019043e-01,1.000000000000000000e+00,5.644334316253662109e+00,-8.023076057434082031e+00,4.033096790313720703e+00,-2.061350860595703125e+02,-9.829858398437500000e+01,-1.785627593994140625e+02,4.030399620532989502e-01,-6.667101287841796875e+01,-1.826867065429687500e+02,-2.342316627502441406e+00,7.562124633789062500e+01,3.135653114318847656e+01
3.121809959411621094e-01,1.000000000000000000e+00,5.579313278198242188e+00,-7.968877315521240234e+00,4.042449474334716797e+00,-2.060757141113281250e+02,-9.822436523437500000e+01,-1.784971771240234375e+02,4.030399620532989502e-01,-6.667101287841796875e+01,-1.826867065429687500e+02,-2.342173099517822266e+00,7.562117004394531250e+01,3.135653114318847656e+01
3.160629868507385254e-01,1.000000000000000000e+00,5.514378547668457031e+00,-7.914633750915527344e+00,4.051924228668212891e+00,-2.060164642333984375e+02,-9.815073394775390625e+01,-1.784315338134765625e+02,4.030399620532989502e-01,-6.667111206054687500e+01,-1.826867065429687500e+02,-2.342245101928710938e+00,7.562124633789062500e+01,3.135653114318847656e+01
3.210450112819671631e-01,1.000000000000000000e+00,5.449185371398925781e+00,-7.860276699066162109e+00,4.061561584472656250e+00,-2.059573059082031250e+02,-9.807641601562500000e+01,-1.783648071289062500e+02,4.030399620532989502e-01,-6.667101287841796875e+01,-1.826867065429687500e+02,-2.342173099517822266e+00,7.562124633789062500e+01,3.135653114318847656e+01
3.242320120334625244e-01,1.000000000000000000e+00,5.384049415588378906e+00,-7.805873870849609375e+00,4.071158409118652344e+00,-2.058979339599609375e+02,-9.800289154052734375e+01,-1.782991485595703125e+02,4.030399620532989502e-01,-6.667101287841796875e+01,-1.826867065429687500e+02,-2.342245101928710938e+00,7.562117004394531250e+01,3.135653114318847656e+01
3.283089995384216309e-01,1.000000000000000000e+00,5.318971157073974609e+00,-7.751336097717285156e+00,4.080653190612792969e+00,-2.058386840820312500e+02,-9.792840576171875000e+01,-1.782337799072265625e+02,4.030399620532989502e-01,-6.667101287841796875e+01,-1.826867065429687500e+02,-2.342173099517822266e+00,7.562124633789062500e+01,3.135653114318847656e+01
3.323920071125030518e-01,1.000000000000000000e+00,5.253863811492919922e+00,-7.696752548217773438e+00,4.090026378631591797e+00,-2.057790527343750000e+02,-9.785424041748046875e+01,-1.781671752929687500e+02,4.030399620532989502e-01,-6.667101287841796875e+01,-1.826867065429687500e+02,-2.342173099517822266e+00,7.562124633789062500e+01,3.135653114318847656e+01
3.363519906997680664e-01,1.000000000000000000e+00,5.188786029815673828e+00,-7.642146587371826172e+00,4.099500656127929688e+00,-2.057197875976562500e+02,-9.778002929687500000e+01,-1.781024169921875000e+02,4.030399620532989502e-01,-6.667101287841796875e+01,-1.826867065429687500e+02,-2.342173099517822266e+00,7.562124633789062500e+01,3.135653114318847656e+01
3.404760062694549561e-01,1.000000000000000000e+00,5.123649597167968750e+00,-7.587404727935791016e+00,4.109056949615478516e+00,-2.056610717773437500e+02,-9.770677185058593750e+01,-1.780362396240234375e+02,4.030399620532989502e-01,-6.667101287841796875e+01,-1.826867065429687500e+02,-2.342245101928710938e+00,7.562124633789062500e+01,3.135653114318847656e+01
3.449839949607849121e-01,1.000000000000000000e+00,5.058485507965087891e+00,-7.532776832580566406e+00,4.118876934051513672e+00,-2.056011199951171875e+02,-9.763298034667968750e+01,-1.779697113037109375e+02,4.030399620532989502e-01,-6.667101287841796875e+01,-1.826867065429687500e+02,-2.342245101928710938e+00,7.562139129638671875e+01,3.135653114318847656e+01
3.484379947185516357e-01,1.000000000000000000e+00,4.993206501007080078e+00,-7.478305816650390625e+00,4.128656387329101562e+00,-2.055422363281250000e+02,-9.755908203125000000e+01,-1.779051361083984375e+02,4.030399620532989502e-01,-6.667101287841796875e+01,-1.826867065429687500e+02,-2.342245101928710938e+00,7.562117004394531250e+01,3.135653114318847656e+01
3.521549999713897705e-01,1.000000000000000000e+00,4.928041934967041016e+00,-7.423812866210937500e+00,4.138212203979492188e+00,-2.054829711914062500e+02,-9.748481750488281250e+01,-1.778395690917968750e+02,4.030399620532989502e-01,-6.667101287841796875e+01,-1.826867065429687500e+02,-2.342316627502441406e+00,7.562124633789062500e+01,3.135653114318847656e+01
3.563739955425262451e-01,1.000000000000000000e+00,4.863135814666748047e+00,-7.369252681732177734e+00,4.147646427154541016e+00,-2.054232940673828125e+02,-9.741156005859375000e+01,-1.777734375000000000e+02,4.030399620532989502e-01,-6.667101287841796875e+01,-1.826867065429687500e+02,-2.342245101928710938e+00,7.562124633789062500e+01,3.135653114318847656e+01
3.604409992694854736e-01,1.000000000000000000e+00,4.798488140106201172e+00,-7.314737319946289062e+00,4.157161712646484375e+00,-2.053642425537109375e+02,-9.733771514892578125e+01,-1.777080078125000000e+02,4.030399620532989502e-01,-6.667101287841796875e+01,-1.826867065429687500e+02,-2.342245101928710938e+00,7.562117004394531250e+01,3.135653114318847656e+01
3.631829917430877686e-01,1.000000000000000000e+00,4.733869075775146484e+00,-7.260402202606201172e+00,4.166819095611572266e+00,-2.053044128417968750e+02,-9.726361083984375000e+01,-1.776413421630859375e+02,4.030399620532989502e-01,-6.667101287841796875e+01,-1.826867065429687500e+02,-2.342173099517822266e+00,7.562117004394531250e+01,3.135653114318847656e+01
3.671999871730804443e-01,1.000000000000000000e+00,4.669307231903076172e+00,-7.205999851226806641e+00,4.176313877105712891e+00,-2.052454071044921875e+02,-9.718923187255859375e+01,-1.775752716064453125e+02,4.030399620532989502e-01,-6.667101287841796875e+01,-1.826867065429687500e+02,-2.342245101928710938e+00,7.562117004394531250e+01,3.135653114318847656e+01
3.712179958820343018e-01,1.000000000000000000e+00,4.604774475097656250e+00,-7.151778697967529297e+00,4.185849666595458984e+00,-2.051860504150390625e+02,-9.711528778076171875e+01,-1.775106506347656250e+02,4.030399620532989502e-01,-6.667101287841796875e+01,-1.826867065429687500e+02,-2.342245101928710938e+00,7.562117004394531250e+01,3.135653114318847656e+01
3.752450048923492432e-01,1.000000000000000000e+00,4.540040493011474609e+00,-7.097625732421875000e+00,4.195202350616455078e+00,-2.051265258789062500e+02,-9.704164886474609375e+01,-1.774439849853515625e+02,4.030399620532989502e-01,-6.667101287841796875e+01,-1.826867065429687500e+02,-2.342245101928710938e+00,7.562124633789062500e+01,3.135653114318847656e+01
3.792000114917755127e-01,1.000000000000000000e+00,4.475650787353515625e+00,-7.043381690979003906e+00,4.204412460327148438e+00,-2.050672607421875000e+02,-9.696727752685546875e+01,-1.773780670166015625e+02,4.030399620532989502e-01,-6.667101287841796875e+01,-1.826867065429687500e+02,-2.342245101928710938e+00,7.562124633789062500e+01,3.135653114318847656e+01
3.832589983940124512e-01,1.000000000000000000e+00,4.411232948303222656e+00,-6.988979339599609375e+00,4.213866710662841797e+00,-2.050079193115234375e+02,-9.689332580566406250e+01,-1.773125610351562500e+02,4.030399620532989502e-01,-6.667101287841796875e+01,-1.826867065429687500e+02,-2.342245101928710938e+00,7.562124633789062500e+01,3.135653114318847656e+01
3.872289955615997314e-01,1.000000000000000000e+00,4.346757411956787109e+00,-6.934645175933837891e+00,4.223484039306640625e+00,-2.049490814208984375e+02,-9.681937408447265625e+01,-1.772458953857421875e+02,4.030399620532989502e-01,-6.667101287841796875e+01,-1.826867065429687500e+02,-2.342245101928710938e+00,7.562124633789062500e+01,3.135675048828125000e+01
3.924350142478942871e-01,1.000000000000000000e+00,4.282052040100097656e+00,-6.880559444427490234e+00,4.233100891113281250e+00,-2.048893890380859375e+02,-9.674569702148437500e+01,-1.771805877685546875e+02,4.030399620532989502e-01,-6.667111206054687500e+01,-1.826867065429687500e+02,-2.342245101928710938e+00,7.562124633789062500e+01,3.135653114318847656e+01
3.966149985790252686e-01,1.000000000000000000e+00,4.217347145080566406e+00,-6.826360702514648438e+00,4.242718219757080078e+00,-2.048303375244140625e+02,-9.667105102539062500e+01,-1.771141967773437500e+02,4.030399620532989502e-01,-6.667101287841796875e+01,-1.826867065429687500e+02,-2.342245101928710938e+00,7.562139129638671875e+01,3.135642242431640625e+01
3.992350101470947266e-01,1.000000000000000000e+00,4.152929306030273438e+00,-6.772275447845458984e+00,4.252192497253417969e+00,-2.047708740234375000e+02,-9.659725952148437500e+01,-1.770481414794921875e+02,4.030399620532989502e-01,-6.667101287841796875e+01,-1.826867065429687500e+02,-2.342245101928710938e+00,7.562117004394531250e+01,3.135653114318847656e+01
4.032849967479705811e-01,1.000000000000000000e+00,4.088539600372314453e+00,-6.718302726745605469e+00,4.261443614959716797e+00,-2.047113952636718750e+02,-9.652373504638671875e+01,-1.769831695556640625e+02,4.030399620532989502e-01,-6.667101287841796875e+01,-1.826867065429687500e+02,-2.342245101928710938e+00,7.562117004394531250e+01,3.135653114318847656e+01
4.072090089321136475e-01,1.000000000000000000e+00,4.023834228515625000e+00,-6.664036273956298828e+00,4.270836830139160156e+00,-2.046527862548828125e+02,-9.645005798339843750e+01,-1.769167022705078125e+02,4.030399620532989502e-01,-6.667101287841796875e+01,-1.826867065429687500e+02,-2.342316627502441406e+00,7.562124633789062500e+01,3.135653114318847656e+01
4.111829996109008789e-01,1.000000000000000000e+00,3.959100484848022461e+00,-6.609837532043457031e+00,4.280474185943603516e+00,-2.045932464599609375e+02,-9.637541198730468750e+01,-1.768507995605468750e+02,4.030399620532989502e-01,-6.667101287841796875e+01,-1.826867065429687500e+02,-2.342245101928710938e+00,7.562117004394531250e+01,3.135653114318847656e+01
4.152539968490600586e-01,1.000000000000000000e+00,3.894280672073364258e+00,-6.555616378784179688e+00,4.290070533752441406e+00,-2.045339508056640625e+02,-9.630136108398437500e+01,-1.767859497070312500e+02,4.030399620532989502e-01,-6.667101287841796875e+01,-1.826867065429687500e+02,-2.342245101928710938e+00,7.562124633789062500e+01,3.135653114318847656e+01
4.191839993000030518e-01,1.000000000000000000e+00,3.829518079757690430e+00,-6.501485347747802734e+00,4.299626827239990234e+00,-2.044743194580078125e+02,-9.622794342041015625e+01,-1.767195587158203125e+02,4.030399620532989502e-01,-6.667101287841796875e+01,-1.826867065429687500e+02,-2.342245101928710938e+00,7.562117004394531250e+01,3.135653114318847656e+01
4.231770038604736328e-01,1.000000000000000000e+00,3.764899015426635742e+00,-6.447422504425048828e+00,4.308938503265380859e+00,-2.044153289794921875e+02,-9.615415191650390625e+01,-1.766539916992187500e+02,4.030399620532989502e-01,-6.667101287841796875e+01,-1.826867065429687500e+02,-2.342245101928710938e+00,7.562124633789062500e+01,3.135653114318847656e+01
4.272499978542327881e-01,1.000000000000000000e+00,3.700308799743652344e+00,-6.393269538879394531e+00,4.318311691284179688e+00,-2.043565368652343750e+02,-9.607935333251953125e+01,-1.765884704589843750e+02,4.030399620532989502e-01,-6.667101287841796875e+01,-1.826867065429687500e+02,-2.342245101928710938e+00,7.562117004394531250e+01,3.135653114318847656e+01
4.311839938163757324e-01,1.000000000000000000e+00,3.635632038116455078e+00,-6.339047908782958984e+00,4.327948570251464844e+00,-2.042969665527343750e+02,-9.600523376464843750e+01,-1.765217437744140625e+02,4.030399620532989502e-01,-6.667101287841796875e+01,-1.826867065429687500e+02,-2.342245101928710938e+00,7.562124633789062500e+01,3.135653114318847656e+01
4.351930022239685059e-01,1.000000000000000000e+00,3.570640087127685547e+00,-6.284532546997070312e+00,4.337606430053710938e+00,-2.042380218505859375e+02,-9.593214416503906250e+01,-1.764560241699218750e+02,4.030399620532989502e-01,-6.667101287841796875e+01,-1.826867065429687500e+02,-2.342245101928710938e+00,7.562124633789062500e+01,3.135653114318847656e+01
4.391860067844390869e-01,1.000000000000000000e+00,3.505418062210083008e+00,-6.230107784271240234e+00,4.347284317016601562e+00,-2.041782379150390625e+02,-9.585803222656250000e+01,-1.763907165527343750e+02,4.030399620532989502e-01,-6.667111206054687500e+01,-1.826867065429687500e+02,-2.342245101928710938e+00,7.562117004394531250e+01,3.135653114318847656e+01
4.432680010795593262e-01,1.000000000000000000e+00,3.440483331680297852e+00,-6.175614833831787109e+00,4.356880664825439453e+00,-2.041194000244140625e+02,-9.578371429443359375e+01,-1.763243255615234375e+02,4.030399620532989502e-01,-6.667101287841796875e+01,-1.826867065429687500e+02,-2.342245101928710938e+00,7.562117004394531250e+01,3.135653114318847656e+01
4.471809864044189453e-01,1.000000000000000000e+00,3.375576972961425781e+00,-6.121076583862304688e+00,4.366273880004882812e+00,-2.040606231689453125e+02,-9.570959472656250000e+01,-1.762588043212890625e+02,4.030399620532989502e-01,-6.667101287841796875e+01,-1.826867065429687500e+02,-2.342316627502441406e+00,7.562117004394531250e+01,3.135642242431640625e+01
4.512020051479339600e-01,1.000000000000000000e+00,3.310470104217529297e+00,-6.066651821136474609e+00,4.375728130340576172e+00,-2.040011596679687500e+02,-9.563618469238281250e+01,-1.761931762695312500e+02,4.030399620532989502e-01,-6.667101287841796875e+01,-1.826867065429687500e+02,-2.342245101928710938e+00,7.562124633789062500e+01,3.135653114318847656e+01
4.552960097789764404e-01,1.000000000000000000e+00,3.245334386825561523e+00,-6.012135982513427734e+00,4.385182857513427734e+00,-2.039426727294921875e+02,-9.556256103515625000e+01,-1.761269226074218750e+02,4.030399620532989502e-01,-6.667111206054687500e+01,-1.826867065429687500e+02,-2.342245101928710938e+00,7.562117004394531250e+01,3.135653114318847656e+01
4.592219889163970947e-01,1.000000000000000000e+00,3.180169820785522461e+00,-5.957643032073974609e+00,4.394718170166015625e+00,-2.038827362060546875e+02,-9.548796844482421875e+01,-1.760617523193359375e+02,4.030399620532989502e-01,-6.667111206054687500e+01,-1.826867065429687500e+02,-2.342245101928710938e+00,7.562117004394531250e+01,3.135653114318847656e+01
4.632970094680786133e-01,1.000000000000000000e+00,3.114890575408935547e+00,-5.903263568878173828e+00,4.404294490814208984e+00,-2.038239593505859375e+02,-9.541390991210937500e+01,-1.759958953857421875e+02,4.030399620532989502e-01,-6.667101287841796875e+01,-1.826867065429687500e+02,-2.342245101928710938e+00,7.562124633789062500e+01,3.135653114318847656e+01
4.672130048274993896e-01,1.000000000000000000e+00,3.049783468246459961e+00,-5.848748207092285156e+00,4.413871288299560547e+00,-2.037648925781250000e+02,-9.534011840820312500e+01,-1.759295043945312500e+02,4.030399620532989502e-01,-6.667092895507812500e+01,-1.826867065429687500e+02,-2.342173099517822266e+00,7.562124633789062500e+01,3.135653114318847656e+01
4.711720049381256104e-01,1.000000000000000000e+00,2.984676361083984375e+00,-5.794322967529296875e+00,4.423243999481201172e+00,-2.037056579589843750e+02,-9.526665496826171875e+01,-1.758643341064453125e+02,4.030399620532989502e-01,-6.667101287841796875e+01,-1.826867065429687500e+02,-2.342173099517822266e+00,7.562124633789062500e+01,3.135653114318847656e+01
4.774070084095001221e-01,1.000000000000000000e+00,2.919798851013183594e+00,-5.739898204803466797e+00,4.432759284973144531e+00,-2.036464843750000000e+02,-9.519190216064453125e+01,-1.757983551025390625e+02,4.030399620532989502e-01,-6.667101287841796875e+01,-1.826867065429687500e+02,-2.342316627502441406e+00,7.562124633789062500e+01,3.135653114318847656e+01
4.791960120201110840e-01,1.000000000000000000e+00,2.854806661605834961e+00,-5.685654640197753906e+00,4.442477703094482422e+00,-2.035867156982421875e+02,-9.511795043945312500e+01,-1.757326202392578125e+02,4.030399620532989502e-01,-6.667111206054687500e+01,-1.826867065429687500e+02,-2.342173099517822266e+00,7.562124633789062500e+01,3.135653114318847656e+01
4.831950068473815918e-01,1.000000000000000000e+00,2.789986848831176758e+00,-5.631546020507812500e+00,4.452196598052978516e+00,-2.035277099609375000e+02,-9.504438018798828125e+01,-1.756675262451171875e+02,4.030399620532989502e-01,-6.667111206054687500e+01,-1.826867065429687500e+02,-2.342245101928710938e+00,7.562124633789062500e+01,3.135653114318847656e+01
4.872640073299407959e-01,1.000000000000000000e+00,2.725109338760375977e+00,-5.577098369598388672e+00,4.461853981018066406e+00,-2.034688262939453125e+02,-9.497106170654296875e+01,-1.756016082763671875e+02,4.030399620532989502e-01,-6.667101287841796875e+01,-1.826867065429687500e+02,-2.342316627502441406e+00,7.562117004394531250e+01,3.135653114318847656e+01
4.911870062351226807e-01,1.000000000000000000e+00,2.660260677337646484e+00,-5.522787094116210938e+00,4.471430301666259766e+00,-2.034096679687500000e+02,-9.489669036865234375e+01,-1.755354766845703125e+02,4.030399620532989502e-01,-6.667101287841796875e+01,-1.826867065429687500e+02,-2.342173099517822266e+00,7.562117004394531250e+01,3.135653114318847656e+01
4.962430000305175781e-01,1.000000000000000000e+00,2.660260677337646484e+00,-5.522787094116210938e+00,4.471430301666259766e+00,-2.034096679687500000e+02,-9.489669036865234375e+01,-1.755354766845703125e+02,4.030399620532989502e-01,-6.667092895507812500e+01,-1.826867065429687500e+02,-2.342316627502441406e+00,7.562117004394531250e+01,3.135653114318847656e+01
5.001009702682495117e-01,1.000000000000000000e+00,2.530649423599243164e+00,-5.414072513580322266e+00,4.490237236022949219e+00,-2.032908477783203125e+02,-9.474916076660156250e+01,-1.754032287597656250e+02,4.030399620532989502e-01,-6.667101287841796875e+01,-1.826867065429687500e+02,-2.342173099517822266e+00,7.562124633789062500e+01,3.135653114318847656e+01
5.031759738922119141e-01,1.000000000000000000e+00,2.465973138809204102e+00,-5.359828948974609375e+00,4.499833583831787109e+00,-2.032323150634765625e+02,-9.467568969726562500e+01,-1.753380737304687500e+02,4.030399620532989502e-01,-6.667101287841796875e+01,-1.826867065429687500e+02,-2.342245101928710938e+00,7.562117004394531250e+01,3.135653114318847656e+01
5.097510218620300293e-01,1.000000000000000000e+00,2.465973138809204102e+00,-5.359828948974609375e+00,4.499833583831787109e+00,-2.032323150634765625e+02,-9.467568969726562500e+01,-1.753380737304687500e+02,4.030399620532989502e-01,-6.667101287841796875e+01,-1.826867065429687500e+02,-2.342245101928710938e+00,7.562117004394531250e+01,3.135653114318847656e+01
5.122370123863220215e-01,1.000000000000000000e+00,2.336591243743896484e+00,-5.251454353332519531e+00,4.518661022186279297e+00,-2.031136474609375000e+02,-9.452774047851562500e+01,-1.752057647705078125e+02,4.030399620532989502e-01,-6.667101287841796875e+01,-1.826867065429687500e+02,-2.342245101928710938e+00,7.562117004394531250e+01,3.135653114318847656e+01
5.152509808540344238e-01,1.000000000000000000e+00,2.271886110305786133e+00,-5.197074413299560547e+00,4.527912139892578125e+00,-2.030544891357421875e+02,-9.445336914062500000e+01,-1.751402435302734375e+02,4.030399620532989502e-01,-6.667101287841796875e+01,-1.826868133544921875e+02,-2.342245101928710938e+00,7.562124633789062500e+01,3.135653114318847656e+01
5.202119946479797363e-01,1.000000000000000000e+00,2.271886110305786133e+00,-5.197074413299560547e+00,4.527912139892578125e+00,-2.030544891357421875e+02,-9.445336914062500000e+01,-1.751402435302734375e+02,4.030399620532989502e-01,-6.667101287841796875e+01,-1.826868133544921875e+02,-2.342245101928710938e+00,7.562124633789062500e+01,3.135653114318847656e+01
5.235329866409301758e-01,1.000000000000000000e+00,2.142562150955200195e+00,-5.088903427124023438e+00,4.546678066253662109e+00,-2.029365081787109375e+02,-9.430578613281250000e+01,-1.750078582763671875e+02,4.030399620532989502e-01,-6.667101287841796875e+01,-1.826867065429687500e+02,-2.342245101928710938e+00,7.562124633789062500e+01,3.135653114318847656e+01
5.276709794998168945e-01,1.000000000000000000e+00,2.077799558639526367e+00,-5.034772396087646484e+00,4.556396961212158203e+00,-2.028770294189453125e+02,-9.423252868652343750e+01,-1.749429016113281250e+02,4.030399620532989502e-01,-6.667101287841796875e+01,-1.826867065429687500e+02,-2.342245101928710938e+00,7.562124633789062500e+01,3.135642242431640625e+01
5.322210192680358887e-01,1.000000000000000000e+00,2.013065576553344727e+00,-4.980732440948486328e+00,4.565911769866943359e+00,-2.028177185058593750e+02,-9.415895080566406250e+01,-1.748767089843750000e+02,4.030399620532989502e-01,-6.667111206054687500e+01,-1.826867065429687500e+02,-2.342245101928710938e+00,7.562124633789062500e+01,3.135653114318847656e+01
5.352039933204650879e-01,1.000000000000000000e+00,1.948360323905944824e+00,-4.926669120788574219e+00,4.575468063354492188e+00,-2.027585144042968750e+02,-9.408511352539062500e+01,-1.748105926513671875e+02,4.030399620532989502e-01,-6.667101287841796875e+01,-1.826867065429687500e+02,-2.342245101928710938e+00,7.562117004394531250e+01,3.135642242431640625e+01
5.425360202789306641e-01,1.000000000000000000e+00,1.818978905677795410e+00,-4.818588733673095703e+00,4.594193458557128906e+00,-2.026403656005859375e+02,-9.393747711181640625e+01,-1.746790313720703125e+02,4.030399620532989502e-01,-6.667101287841796875e+01,-1.826867065429687500e+02,-2.342245101928710938e+00,7.562117004394531250e+01,3.135653114318847656e+01
5.438809990882873535e-01,1.000000000000000000e+00,1.818978905677795410e+00,-4.818588733673095703e+00,4.594193458557128906e+00,-2.026403656005859375e+02,-9.393747711181640625e+01,-1.746790313720703125e+02,4.030399620532989502e-01,-6.667101287841796875e+01,-1.826867065429687500e+02,-2.342245101928710938e+00,7.562117004394531250e+01,3.135653114318847656e+01
5.482739806175231934e-01,1.000000000000000000e+00,1.754417181015014648e+00,-4.764277458190917969e+00,4.603708744049072266e+00,-2.025810089111328125e+02,-9.386427307128906250e+01,-1.746134490966796875e+02,4.030399620532989502e-01,-6.667101287841796875e+01,-1.826867065429687500e+02,-2.342245101928710938e+00,7.562124633789062500e+01,3.135653114318847656e+01
5.512620210647583008e-01,1.000000000000000000e+00,1.689683318138122559e+00,-4.709965229034423828e+00,4.613285064697265625e+00,-2.025220642089843750e+02,-9.379037475585937500e+01,-1.745482788085937500e+02,4.030399620532989502e-01,-6.667101287841796875e+01,-1.826867065429687500e+02,-2.342245101928710938e+00,7.562124633789062500e+01,3.135642242431640625e+01
5.552849769592285156e-01,1.000000000000000000e+00,1.689683318138122559e+00,-4.709965229034423828e+00,4.613285064697265625e+00,-2.025220642089843750e+02,-9.379037475585937500e+01,-1.745482788085937500e+02,4.030399620532989502e-01,-6.667101287841796875e+01,-1.826867065429687500e+02,-2.342245101928710938e+00,7.562124633789062500e+01,3.135642242431640625e+01
5.592240095138549805e-01,1.000000000000000000e+00,1.624891996383666992e+00,-4.655517578125000000e+00,4.622841358184814453e+00,-2.024625396728515625e+02,-9.371600341796875000e+01,-1.744822998046875000e+02,4.030399620532989502e-01,-6.667101287841796875e+01,-1.826867065429687500e+02,-2.342245101928710938e+00,7.562117004394531250e+01,3.135653114318847656e+01
5.633149743080139160e-01,1.000000000000000000e+00,1.560158133506774902e+00,-4.601161003112792969e+00,4.632336139678955078e+00,-2.024034881591796875e+02,-9.364221191406250000e+01,-1.744169158935546875e+02,4.030399620532989502e-01,-6.667101287841796875e+01,-1.826867065429687500e+02,-2.342245101928710938e+00,7.562124633789062500e+01,3.135653114318847656e+01
5.672219991683959961e-01,1.000000000000000000e+00,1.495453000068664551e+00,-4.546916961669921875e+00,4.641668319702148438e+00,-2.023445434570312500e+02,-9.356868743896484375e+01,-1.743506011962890625e+02,4.030399620532989502e-01,-6.667101287841796875e+01,-1.826867065429687500e+02,-2.342316627502441406e+00,7.562124633789062500e+01,3.135653114318847656e+01
5.712429881095886230e-01,1.000000000000000000e+00,1.430776476860046387e+00,-4.492650032043457031e+00,4.651000499725341797e+00,-2.022850341796875000e+02,-9.349463653564453125e+01,-1.742839813232421875e+02,4.030399620532989502e-01,-6.667101287841796875e+01,-1.826867065429687500e+02,-2.342245101928710938e+00,7.562117004394531250e+01,3.135653114318847656e+01
5.752940177917480469e-01,1.000000000000000000e+00,1.365956544876098633e+00,-4.438270568847656250e+00,4.660699367523193359e+00,-2.022262420654296875e+02,-9.342041778564453125e+01,-1.742188262939453125e+02,4.030399620532989502e-01,-6.667101287841796875e+01,-1.826867065429687500e+02,-2.342316627502441406e+00,7.562117004394531250e+01,3.135653114318847656e+01
5.792329907417297363e-01,1.000000000000000000e+00,1.301251411437988281e+00,-4.383709907531738281e+00,4.670377254486083984e+00,-2.021666259765625000e+02,-9.334667968750000000e+01,-1.741530303955078125e+02,4.030399620532989502e-01,-6.667101287841796875e+01,-1.826867065429687500e+02,-2.342316627502441406e+00,7.562124633789062500e+01,3.135653114318847656e+01
5.832290053367614746e-01,1.000000000000000000e+00,1.236345291137695312e+00,-4.329307556152343750e+00,4.680034637451171875e+00,-2.021074218750000000e+02,-9.327316284179687500e+01,-1.740870513916015625e+02,4.030399620532989502e-01,-6.667101287841796875e+01,-1.826868133544921875e+02,-2.342245101928710938e+00,7.562124633789062500e+01,3.135653114318847656e+01
5.872380137443542480e-01,1.000000000000000000e+00,1.171381711959838867e+00,-4.275063514709472656e+00,4.689610958099365234e+00,-2.020488433837890625e+02,-9.319899749755859375e+01,-1.740216064453125000e+02,4.030399620532989502e-01,-6.667101287841796875e+01,-1.826867065429687500e+02,-2.342316627502441406e+00,7.562117004394531250e+01,3.135642242431640625e+01
5.912960171699523926e-01,1.000000000000000000e+00,1.106418251991271973e+00,-4.220751762390136719e+00,4.698943138122558594e+00,-2.019890441894531250e+02,-9.312483215332031250e+01,-1.739552154541015625e+02,4.030399620532989502e-01,-6.667101287841796875e+01,-1.826867065429687500e+02,-2.342245101928710938e+00,7.562124633789062500e+01,3.135653114318847656e+01
5.952420234680175781e-01,1.000000000000000000e+00,1.041712999343872070e+00,-4.166688442230224609e+00,4.708295822143554688e+00,-2.019300689697265625e+02,-9.305184173583984375e+01,-1.738897094726562500e+02,4.030399620532989502e-01,-6.667092895507812500e+01,-1.826867065429687500e+02,-2.342173099517822266e+00,7.562124633789062500e+01,3.135642242431640625e+01
5.992230176925659180e-01,1.000000000000000000e+00,9.769791960716247559e-01,-4.112173557281494141e+00,4.717790603637695312e+00,-2.018705291748046875e+02,-9.297794342041015625e+01,-1.738247375488281250e+02,4.030399620532989502e-01,-6.667101287841796875e+01,-1.826867065429687500e+02,-2.342245101928710938e+00,7.562117004394531250e+01,3.135642242431640625e+01
6.032760143280029297e-01,1.000000000000000000e+00,9.121878743171691895e-01,-4.057635307312011719e+00,4.727346420288085938e+00,-2.018116455078125000e+02,-9.290394592285156250e+01,-1.737588195800781250e+02,4.030399620532989502e-01,-6.667101287841796875e+01,-1.826867065429687500e+02,-2.342316627502441406e+00,7.562117004394531250e+01,3.135653114318847656e+01
6.072930097579956055e-01,1.000000000000000000e+00,8.474253416061401367e-01,-4.003210067749023438e+00,4.736882209777832031e+00,-2.017527465820312500e+02,-9.282908630371093750e+01,-1.736929626464843750e+02,4.030399620532989502e-01,-6.667101287841796875e+01,-1.826867065429687500e+02,-2.342245101928710938e+00,7.562124633789062500e+01,3.135653114318847656e+01
6.112400293350219727e-01,1.000000000000000000e+00,7.825478911399841309e-01,-3.948694705963134766e+00,4.746499061584472656e+00,-2.016930847167968750e+02,-9.275610351562500000e+01,-1.736280059814453125e+02,4.030399620532989502e-01,-6.667101287841796875e+01,-1.826867065429687500e+02,-2.342316627502441406e+00,7.562124633789062500e+01,3.135653114318847656e+01
6.152219772338867188e-01,1.000000000000000000e+00,7.179575562477111816e-01,-3.894383192062377930e+00,4.755628108978271484e+00,-2.016341400146484375e+02,-9.268220520019531250e+01,-1.735616760253906250e+02,4.030399620532989502e-01,-6.667101287841796875e+01,-1.826867065429687500e+02,-2.342245101928710938e+00,7.562124633789062500e+01,3.135653114318847656e+01
6.193209886550903320e-01,1.000000000000000000e+00,6.533098220825195312e-01,-3.839957952499389648e+00,4.765021324157714844e+00,-2.015746154785156250e+02,-9.260777282714843750e+01,-1.734961700439453125e+02,4.030399620532989502e-01,-6.667101287841796875e+01,-1.826867065429687500e+02,-2.342245101928710938e+00,7.562124633789062500e+01,3.135653114318847656e+01
6.232380270957946777e-01,1.000000000000000000e+00,5.886908173561096191e-01,-3.785691261291503906e+00,4.774699211120605469e+00,-2.015157775878906250e+02,-9.253302764892578125e+01,-1.734307861328125000e+02,4.030399620532989502e-01,-6.667092895507812500e+01,-1.826867065429687500e+02,-2.342245101928710938e+00,7.562124633789062500e+01,3.135653114318847656e+01
6.283119916915893555e-01,1.000000000000000000e+00,5.240717530250549316e-01,-3.731244087219238281e+00,4.784377098083496094e+00,-2.014568786621093750e+02,-9.245970916748046875e+01,-1.733652648925781250e+02,4.030399620532989502e-01,-6.667101287841796875e+01,-1.826867065429687500e+02,-2.342245101928710938e+00,7.562117004394531250e+01,3.135675048828125000e+01
6.322150230407714844e-01,1.000000000000000000e+00,3.948623538017272949e-01,-3.622778415679931641e+00,4.803550243377685547e+00,-2.013384246826171875e+02,-9.231213378906250000e+01,-1.732340545654296875e+02,4.030399620532989502e-01,-6.667101287841796875e+01,-1.826867065429687500e+02,-2.342173099517822266e+00,7.562124633789062500e+01,3.135653114318847656e+01
6.362050175666809082e-01,1.000000000000000000e+00,3.948623538017272949e-01,-3.622778415679931641e+00,4.803550243377685547e+00,-2.013384246826171875e+02,-9.231213378906250000e+01,-1.732340545654296875e+02,4.030399620532989502e-01,-6.667101287841796875e+01,-1.826867065429687500e+02,-2.342173099517822266e+00,7.562124633789062500e+01,3.135653114318847656e+01
6.402739882469177246e-01,1.000000000000000000e+00,3.302433192729949951e-01,-3.568602800369262695e+00,4.812882423400878906e+00,-2.012788543701171875e+02,-9.223796844482421875e+01,-1.731675262451171875e+02,4.030399620532989502e-01,-6.667101287841796875e+01,-1.826867065429687500e+02,-2.342245101928710938e+00,7.562117004394531250e+01,3.135675048828125000e+01
6.452299952507019043e-01,1.000000000000000000e+00,2.653946280479431152e-01,-3.514426708221435547e+00,4.822194099426269531e+00,-2.012201690673828125e+02,-9.216455841064453125e+01,-1.731023559570312500e+02,4.030399620532989502e-01,-6.667101287841796875e+01,-1.826867065429687500e+02,-2.342245101928710938e+00,7.562124633789062500e+01,3.135653114318847656e+01
6.479499936103820801e-01,1.000000000000000000e+00,1.359556019306182861e-01,-3.406210184097290039e+00,4.841245174407958984e+00,-2.011015472412109375e+02,-9.201665496826171875e+01,-1.729706420898437500e+02,4.030399620532989502e-01,-6.667101287841796875e+01,-1.826867065429687500e+02,-2.342316627502441406e+00,7.562124633789062500e+01,3.135653114318847656e+01
6.522970199584960938e-01,1.000000000000000000e+00,1.359556019306182861e-01,-3.406210184097290039e+00,4.841245174407958984e+00,-2.011015472412109375e+02,-9.201665496826171875e+01,-1.729706420898437500e+02,4.030399620532989502e-01,-6.667101287841796875e+01,-1.826867065429687500e+02,-2.342316627502441406e+00,7.562124633789062500e+01,3.135653114318847656e+01
6.562979817390441895e-01,1.000000000000000000e+00,7.122173160314559937e-02,-3.352011680603027344e+00,4.850597858428955078e+00,-2.010424041748046875e+02,-9.194244384765625000e+01,-1.729051971435546875e+02,4.030399620532989502e-01,-6.667101287841796875e+01,-1.826867065429687500e+02,-2.342245101928710938e+00,7.562117004394531250e+01,3.135642242431640625e+01
6.593760251998901367e-01,1.000000000000000000e+00,6.401742808520793915e-03,-3.297812938690185547e+00,4.859950542449951172e+00,-2.009832305908203125e+02,-9.186859893798828125e+01,-1.728387451171875000e+02,4.030399620532989502e-01,-6.667101287841796875e+01,-1.826867065429687500e+02,-2.342245101928710938e+00,7.562117004394531250e+01,3.135653114318847656e+01
6.632379889488220215e-01,1.000000000000000000e+00,-5.827471613883972168e-02,-3.243614435195922852e+00,4.869201660156250000e+00,-2.009244537353515625e+02,-9.179512786865234375e+01,-1.727729644775390625e+02,4.030399620532989502e-01,-6.667092895507812500e+01,-1.826867065429687500e+02,-2.342245101928710938e+00,7.562124633789062500e+01,3.135653114318847656e+01
6.679959893226623535e-01,1.000000000000000000e+00,-1.229511722922325134e-01,-3.189189434051513672e+00,4.878594875335693359e+00,-2.008650512695312500e+02,-9.172075653076171875e+01,-1.727079315185546875e+02,4.030399620532989502e-01,-6.667101287841796875e+01,-1.826867065429687500e+02,-2.342173099517822266e+00,7.562124633789062500e+01,3.135653114318847656e+01
6.712960004806518555e-01,1.000000000000000000e+00,-1.877998709678649902e-01,-3.134787082672119141e+00,4.888252258300781250e+00,-2.008059997558593750e+02,-9.164695739746093750e+01,-1.726411285400390625e+02,4.030399620532989502e-01,-6.667101287841796875e+01,-1.826867065429687500e+02,-2.342245101928710938e+00,7.562117004394531250e+01,3.135653114318847656e+01
6.758610010147094727e-01,1.000000000000000000e+00,-2.526198625564575195e-01,-3.080520629882812500e+00,4.897829055786132812e+00,-2.007468414306640625e+02,-9.157333374023437500e+01,-1.725758209228515625e+02,4.030399620532989502e-01,-6.667101287841796875e+01,-1.826867065429687500e+02,-2.342316627502441406e+00,7.562117004394531250e+01,3.135653114318847656e+01
6.802219748497009277e-01,1.000000000000000000e+00,-3.173537254333496094e-01,-3.026389837265014648e+00,4.907445907592773438e+00,-2.006874694824218750e+02,-9.150007629394531250e+01,-1.725107879638671875e+02,4.030399620532989502e-01,-6.667101287841796875e+01,-1.826867065429687500e+02,-2.342245101928710938e+00,7.562117004394531250e+01,3.135653114318847656e+01
6.833879947662353516e-01,1.000000000000000000e+00,-3.821162879467010498e-01,-2.972304344177246094e+00,4.916900157928466797e+00,-2.006289062500000000e+02,-9.142570495605468750e+01,-1.724442596435546875e+02,4.030399620532989502e-01,-6.667092895507812500e+01,-1.826867065429687500e+02,-2.342316627502441406e+00,7.562124633789062500e+01,3.135653114318847656e+01
6.872569918632507324e-01,1.000000000000000000e+00,-4.468788802623748779e-01,-2.917969703674316406e+00,4.926212310791015625e+00,-2.005696411132812500e+02,-9.135207366943359375e+01,-1.723787384033203125e+02,4.030399620532989502e-01,-6.667101287841796875e+01,-1.826867065429687500e+02,-2.342245101928710938e+00,7.562124633789062500e+01,3.135653114318847656e+01
6.926689743995666504e-01,1.000000000000000000e+00,-5.116414427757263184e-01,-2.863635301589965820e+00,4.935646057128906250e+00,-2.005109710693359375e+02,-9.127833557128906250e+01,-1.723136444091796875e+02,4.030399620532989502e-01,-6.667101287841796875e+01,-1.826867065429687500e+02,-2.342173099517822266e+00,7.562117004394531250e+01,3.135653114318847656e+01
6.971790194511413574e-01,1.000000000000000000e+00,-5.764614343643188477e-01,-2.809346199035644531e+00,4.945201873779296875e+00,-2.004514007568359375e+02,-9.120507812500000000e+01,-1.722473144531250000e+02,4.030399620532989502e-01,-6.667101287841796875e+01,-1.826867065429687500e+02,-2.342245101928710938e+00,7.562124633789062500e+01,3.135653114318847656e+01
7.003989815711975098e-01,1.000000000000000000e+00,-7.064172029495239258e-01,-2.701016664505004883e+00,4.964252948760986328e+00,-2.003335113525390625e+02,-9.105782318115234375e+01,-1.721161041259765625e+02,4.030399620532989502e-01,-6.667101287841796875e+01,-1.826867065429687500e+02,-2.342316627502441406e+00,7.562117004394531250e+01,3.135653114318847656e+01
7.033060193061828613e-01,1.000000000000000000e+00,-7.064172029495239258e-01,-2.701016664505004883e+00,4.964252948760986328e+00,-2.003335113525390625e+02,-9.105782318115234375e+01,-1.721161041259765625e+02,4.030399620532989502e-01,-6.667101287841796875e+01,-1.826867065429687500e+02,-2.342316627502441406e+00,7.562117004394531250e+01,3.135653114318847656e+01
7.074480056762695312e-01,1.000000000000000000e+00,-7.714093923568725586e-01,-2.646840810775756836e+00,4.973605632781982422e+00,-2.002741394042968750e+02,-9.098397064208984375e+01,-1.720498962402343750e+02,4.030399620532989502e-01,-6.667101287841796875e+01,-1.826867065429687500e+02,-2.342245101928710938e+00,7.562117004394531250e+01,3.135653114318847656e+01
7.114080190658569336e-01,1.000000000000000000e+00,-8.363155126571655273e-01,-2.592393159866333008e+00,4.982958316802978516e+00,-2.002152557373046875e+02,-9.091002655029296875e+01,-1.719847869873046875e+02,4.030399620532989502e-01,-6.667101287841796875e+01,-1.826867065429687500e+02,-2.342173099517822266e+00,7.562139129638671875e+01,3.135653114318847656e+01
7.153009772300720215e-01,1.000000000000000000e+00,-9.011929631233215332e-01,-2.538058519363403320e+00,4.992493629455566406e+00,-2.001555328369140625e+02,-9.083612823486328125e+01,-1.719190216064453125e+02,4.030399620532989502e-01,-6.667101287841796875e+01,-1.826867065429687500e+02,-2.342245101928710938e+00,7.562117004394531250e+01,3.135653114318847656e+01
7.193650007247924805e-01,1.000000000000000000e+00,-9.660990238189697266e-01,-2.483520746231079102e+00,5.002171516418457031e+00,-2.000965270996093750e+02,-9.076271820068359375e+01,-1.718528137207031250e+02,4.030399620532989502e-01,-6.667101287841796875e+01,-1.826867065429687500e+02,-2.342245101928710938e+00,7.562124633789062500e+01,3.135653114318847656e+01
7.234410047531127930e-01,1.000000000000000000e+00,-1.030976414680480957e+00,-2.429208993911743164e+00,5.011849403381347656e+00,-2.000378417968750000e+02,-9.068962097167968750e+01,-1.717873840332031250e+02,4.030399620532989502e-01,-6.667101287841796875e+01,-1.826867065429687500e+02,-2.342245101928710938e+00,7.562117004394531250e+01,3.135653114318847656e+01
7.275149822235107422e-01,1.000000000000000000e+00,-1.095968604087829590e+00,-2.374897003173828125e+00,5.021385192871093750e+00,-1.999785919189453125e+02,-9.061582946777343750e+01,-1.717216033935546875e+02,4.030399620532989502e-01,-6.667101287841796875e+01,-1.826867065429687500e+02,-2.342316627502441406e+00,7.562124633789062500e+01,3.135653114318847656e+01
7.315949797630310059e-01,1.000000000000000000e+00,-1.160587668418884277e+00,-2.320675611495971680e+00,5.030778408050537109e+00,-1.999196472167968750e+02,-9.054177093505859375e+01,-1.716558837890625000e+02,4.030399620532989502e-01,-6.667101287841796875e+01,-1.826867065429687500e+02,-2.342245101928710938e+00,7.562117004394531250e+01,3.135653114318847656e+01
7.392200231552124023e-01,1.000000000000000000e+00,-1.225120663642883301e+00,-2.266273498535156250e+00,5.040029525756835938e+00,-1.998599700927734375e+02,-9.046819305419921875e+01,-1.715909729003906250e+02,4.028751850128173828e-01,-6.667101287841796875e+01,-1.826867065429687500e+02,-2.342245101928710938e+00,7.562124633789062500e+01,3.135653114318847656e+01
7.414050102233886719e-01,1.000000000000000000e+00,-1.354416131973266602e+00,-2.157581806182861328e+00,5.058775424957275391e+00,-1.997423400878906250e+02,-9.032136535644531250e+01,-1.714584045410156250e+02,4.030399620532989502e-01,-6.667101287841796875e+01,-1.826867065429687500e+02,-2.342173099517822266e+00,7.562117004394531250e+01,3.135653114318847656e+01
7.440000176429748535e-01,1.000000000000000000e+00,-1.419092655181884766e+00,-2.103292703628540039e+00,5.068290710449218750e+00,-1.996827239990234375e+02,-9.024709320068359375e+01,-1.713935089111328125e+02,4.030399620532989502e-01,-6.667111206054687500e+01,-1.826867065429687500e+02,-2.342316627502441406e+00,7.562124633789062500e+01,3.135653114318847656e+01
7.476310133934020996e-01,1.000000000000000000e+00,-1.419092655181884766e+00,-2.103292703628540039e+00,5.068290710449218750e+00,-1.996827239990234375e+02,-9.024709320068359375e+01,-1.713935089111328125e+02,4.030399620532989502e-01,-6.667111206054687500e+01,-1.826867065429687500e+02,-2.342316627502441406e+00,7.562124633789062500e+01,3.135653114318847656e+01
7.515919804573059082e-01,1.000000000000000000e+00,-1.483625531196594238e+00,-2.049161911010742188e+00,5.077785491943359375e+00,-1.996240386962890625e+02,-9.017336273193359375e+01,-1.713274383544921875e+02,4.030399620532989502e-01,-6.667101287841796875e+01,-1.826867065429687500e+02,-2.342316627502441406e+00,7.562117004394531250e+01,3.135653114318847656e+01
7.556470036506652832e-01,1.000000000000000000e+00,-1.548129677772521973e+00,-1.995076537132263184e+00,5.087117671966552734e+00,-1.995644683837890625e+02,-9.009956359863281250e+01,-1.712621459960937500e+02,4.030399620532989502e-01,-6.667101287841796875e+01,-1.826867065429687500e+02,-2.342245101928710938e+00,7.562117004394531250e+01,3.135653114318847656e+01
7.603729963302612305e-01,1.000000000000000000e+00,-1.612892270088195801e+00,-1.940877676010131836e+00,5.096510887145996094e+00,-1.995056915283203125e+02,-9.002593994140625000e+01,-1.711967010498046875e+02,4.030399620532989502e-01,-6.667101287841796875e+01,-1.826867065429687500e+02,-2.342316627502441406e+00,7.562117004394531250e+01,3.135653114318847656e+01
7.636669874191284180e-01,1.000000000000000000e+00,-1.677511334419250488e+00,-1.886611223220825195e+00,5.106107711791992188e+00,-1.994465789794921875e+02,-8.995140075683593750e+01,-1.711301727294921875e+02,4.030399620532989502e-01,-6.667101287841796875e+01,-1.826867065429687500e+02,-2.342173099517822266e+00,7.562124633789062500e+01,3.135653114318847656e+01
7.683690190315246582e-01,1.000000000000000000e+00,-1.742159128189086914e+00,-1.832412600517272949e+00,5.115724563598632812e+00,-1.993871765136718750e+02,-8.987814331054687500e+01,-1.710650024414062500e+02,4.030399620532989502e-01,-6.667101287841796875e+01,-1.826867065429687500e+02,-2.342173099517822266e+00,7.562124633789062500e+01,3.135675048828125000e+01
7.718880176544189453e-01,1.000000000000000000e+00,-1.806749463081359863e+00,-1.778145909309387207e+00,5.125381946563720703e+00,-1.993279724121093750e+02,-8.980425262451171875e+01,-1.709990692138671875e+02,4.030399620532989502e-01,-6.667101287841796875e+01,-1.826867065429687500e+02,-2.342245101928710938e+00,7.562117004394531250e+01,3.135653114318847656e+01
7.762219905853271484e-01,1.000000000000000000e+00,-1.871339678764343262e+00,-1.723834276199340820e+00,5.134897232055664062e+00,-1.992688598632812500e+02,-8.973067474365234375e+01,-1.709326782226562500e+02,4.030399620532989502e-01,-6.667101287841796875e+01,-1.826867065429687500e+02,-2.342316627502441406e+00,7.562139129638671875e+01,3.135642242431640625e+01
7.798569798469543457e-01,1.000000000000000000e+00,-1.935844063758850098e+00,-1.669477105140686035e+00,5.144229888916015625e+00,-1.992097625732421875e+02,-8.965570831298828125e+01,-1.708677825927734375e+02,4.030399620532989502e-01,-6.667101287841796875e+01,-1.826867065429687500e+02,-2.342316627502441406e+00,7.562124633789062500e+01,3.135653114318847656e+01
7.845140099525451660e-01,1.000000000000000000e+00,-2.000118494033813477e+00,-1.615188002586364746e+00,5.153623104095458984e+00,-1.991505584716796875e+02,-8.958283233642578125e+01,-1.708020172119140625e+02,4.030399620532989502e-01,-6.667101287841796875e+01,-1.826867065429687500e+02,-2.342245101928710938e+00,7.562124633789062500e+01,3.135642242431640625e+01
7.878839969635009766e-01,1.000000000000000000e+00,-2.064594030380249023e+00,-1.561079740524291992e+00,5.163219451904296875e+00,-1.990914459228515625e+02,-8.950909423828125000e+01,-1.707356719970703125e+02,4.030399620532989502e-01,-6.667101287841796875e+01,-1.826867065429687500e+02,-2.342245101928710938e+00,7.562124633789062500e+01,3.135653114318847656e+01
7.924100160598754883e-01,1.000000000000000000e+00,-2.129069566726684570e+00,-1.506745457649230957e+00,5.172694206237792969e+00,-1.990324707031250000e+02,-8.943534851074218750e+01,-1.706701049804687500e+02,4.030399620532989502e-01,-6.667101287841796875e+01,-1.826867065429687500e+02,-2.342245101928710938e+00,7.562117004394531250e+01,3.135653114318847656e+01
7.959820032119750977e-01,1.000000000000000000e+00,-2.193631172180175781e+00,-1.452456235885620117e+00,5.182026386260986328e+00,-1.989730987548828125e+02,-8.936029052734375000e+01,-1.706039123535156250e+02,4.030399620532989502e-01,-6.667101287841796875e+01,-1.826867065429687500e+02,-2.342316627502441406e+00,7.562124633789062500e+01,3.135653114318847656e+01
7.999809980392456055e-01,1.000000000000000000e+00,-2.258164167404174805e+00,-1.398167014122009277e+00,5.191318035125732422e+00,-1.989142608642578125e+02,-8.928692626953125000e+01,-1.705379333496093750e+02,4.030399620532989502e-01,-6.667101287841796875e+01,-1.826867065429687500e+02,-2.342245101928710938e+00,7.562124633789062500e+01,3.135653114318847656e+01
8.040789961814880371e-01,1.000000000000000000e+00,-2.322696924209594727e+00,-1.343968391418457031e+00,5.200589656829833984e+00,-1.988547515869140625e+02,-8.921302795410156250e+01,-1.704730224609375000e+02,4.030399620532989502e-01,-6.667101287841796875e+01,-1.826867065429687500e+02,-2.342245101928710938e+00,7.562117004394531250e+01,3.135653114318847656e+01
8.087369799613952637e-01,1.000000000000000000e+00,-2.387172460556030273e+00,-1.289724469184875488e+00,5.210023403167724609e+00,-1.987958984375000000e+02,-8.913896942138671875e+01,-1.704067077636718750e+02,4.030399620532989502e-01,-6.667101287841796875e+01,-1.826867065429687500e+02,-2.342173099517822266e+00,7.562124633789062500e+01,3.135653114318847656e+01
8.121389746665954590e-01,1.000000000000000000e+00,-2.451820135116577148e+00,-1.235525727272033691e+00,5.219782829284667969e+00,-1.987365417480468750e+02,-8.906416320800781250e+01,-1.703409118652343750e+02,4.030399620532989502e-01,-6.667101287841796875e+01,-1.826867065429687500e+02,-2.342316627502441406e+00,7.562124633789062500e+01,3.135653114318847656e+01
8.163710236549377441e-01,1.000000000000000000e+00,-2.516640186309814453e+00,-1.181598782539367676e+00,5.229359149932861328e+00,-1.986772308349609375e+02,-8.899053192138671875e+01,-1.702751312255859375e+02,4.030399620532989502e-01,-6.667101287841796875e+01,-1.826867065429687500e+02,-2.342245101928710938e+00,7.562117004394531250e+01,3.135697174072265625e+01
8.202369809150695801e-01,1.000000000000000000e+00,-2.581517696380615234e+00,-1.127196431159973145e+00,5.238915443420410156e+00,-1.986188201904296875e+02,-8.891722869873046875e+01,-1.702092132568359375e+02,4.030399620532989502e-01,-6.667101287841796875e+01,-1.826865997314453125e+02,-2.342245101928710938e+00,7.562117004394531250e+01,3.135653114318847656e+01
8.243600130081176758e-01,1.000000000000000000e+00,-2.646423816680908203e+00,-1.072952389717102051e+00,5.248369693756103516e+00,-1.985591888427734375e+02,-8.884327697753906250e+01,-1.701442413330078125e+02,4.030399620532989502e-01,-6.667101287841796875e+01,-1.826867065429687500e+02,-2.342316627502441406e+00,7.562117004394531250e+01,3.135653114318847656e+01
8.283029794692993164e-01,1.000000000000000000e+00,-2.711186408996582031e+00,-1.018527388572692871e+00,5.257762908935546875e+00,-1.984999237060546875e+02,-8.876890563964843750e+01,-1.700783996582031250e+02,4.030399620532989502e-01,-6.667101287841796875e+01,-1.826867065429687500e+02,-2.342245101928710938e+00,7.562124633789062500e+01,3.135653114318847656e+01
8.330230116844177246e-01,1.000000000000000000e+00,-2.776006460189819336e+00,-9.641930460929870605e-01,5.267115592956542969e+00,-1.984407653808593750e+02,-8.869538116455078125e+01,-1.700124053955078125e+02,4.030399620532989502e-01,-6.667101287841796875e+01,-1.826867065429687500e+02,-2.342245101928710938e+00,7.562117004394531250e+01,3.135653114318847656e+01
8.363119959831237793e-01,1.000000000000000000e+00,-2.840826511383056641e+00,-9.098133444786071777e-01,5.276752471923828125e+00,-1.983813629150390625e+02,-8.862196350097656250e+01,-1.699472351074218750e+02,4.030399620532989502e-01,-6.667101287841796875e+01,-1.826867065429687500e+02,-2.342245101928710938e+00,7.562117004394531250e+01,3.135653114318847656e+01
8.403419852256774902e-01,1.000000000000000000e+00,-2.905646324157714844e+00,-8.555015325546264648e-01,5.286328792572021484e+00,-1.983227233886718750e+02,-8.854827880859375000e+01,-1.698807067871093750e+02,4.030399620532989502e-01,-6.667101287841796875e+01,-1.826867065429687500e+02,-2.342245101928710938e+00,7.562117004394531250e+01,3.135653114318847656e+01
8.443689942359924316e-01,1.000000000000000000e+00,-2.970638513565063477e+00,-8.013707995414733887e-01,5.295742511749267578e+00,-1.982632598876953125e+02,-8.847385406494140625e+01,-1.698145294189453125e+02,4.030399620532989502e-01,-6.667101287841796875e+01,-1.826867065429687500e+02,-2.342245101928710938e+00,7.562124633789062500e+01,3.135653114318847656e+01
8.482750058174133301e-01,1.000000000000000000e+00,-3.035544633865356445e+00,-7.470589280128479004e-01,5.305034160614013672e+00,-1.982043762207031250e+02,-8.840011596679687500e+01,-1.697495574951171875e+02,4.030399620532989502e-01,-6.667111206054687500e+01,-1.826867065429687500e+02,-2.342245101928710938e+00,7.562117004394531250e+01,3.135653114318847656e+01
8.524630069732666016e-01,1.000000000000000000e+00,-3.100364685058593750e+00,-6.927924156188964844e-01,5.314264774322509766e+00,-1.981448059082031250e+02,-8.832648468017578125e+01,-1.696832885742187500e+02,4.030399620532989502e-01,-6.667101287841796875e+01,-1.826867065429687500e+02,-2.342245101928710938e+00,7.562124633789062500e+01,3.135653114318847656e+01
8.571360111236572266e-01,1.000000000000000000e+00,-3.165184497833251953e+00,-6.385710835456848145e-01,5.323739528656005859e+00,-1.980856323242187500e+02,-8.825270080566406250e+01,-1.696177215576171875e+02,4.030399620532989502e-01,-6.667101287841796875e+01,-1.826867065429687500e+02,-2.342245101928710938e+00,7.562124633789062500e+01,3.135653114318847656e+01
8.602470159530639648e-01,1.000000000000000000e+00,-3.230033397674560547e+00,-5.843724608421325684e-01,5.333539485931396484e+00,-1.980271148681640625e+02,-8.817816162109375000e+01,-1.695524749755859375e+02,4.030399620532989502e-01,-6.667101287841796875e+01,-1.826867065429687500e+02,-2.342245101928710938e+00,7.562117004394531250e+01,3.135653114318847656e+01
8.644210100173950195e-01,1.000000000000000000e+00,-3.294968128204345703e+00,-5.302190780639648438e-01,5.343237400054931641e+00,-1.979676513671875000e+02,-8.810458374023437500e+01,-1.694858856201171875e+02,4.030399620532989502e-01,-6.667101287841796875e+01,-1.826867065429687500e+02,-2.342245101928710938e+00,7.562124633789062500e+01,3.135653114318847656e+01
8.672220110893249512e-01,1.000000000000000000e+00,-3.359759330749511719e+00,-4.759977459907531738e-01,5.352773189544677734e+00,-1.979088134765625000e+02,-8.803143310546875000e+01,-1.694205017089843750e+02,4.030399620532989502e-01,-6.667111206054687500e+01,-1.826867065429687500e+02,-2.342245101928710938e+00,7.562117004394531250e+01,3.135642242431640625e+01
8.725870251655578613e-01,1.000000000000000000e+00,-3.424579381942749023e+00,-4.221159517765045166e-01,5.362206935882568359e+00,-1.978493041992187500e+02,-8.795796203613281250e+01,-1.693556060791015625e+02,4.030399620532989502e-01,-6.667101287841796875e+01,-1.826867065429687500e+02,-2.342245101928710938e+00,7.562124633789062500e+01,3.135653114318847656e+01
8.751929998397827148e-01,1.000000000000000000e+00,-3.489600419998168945e+00,-3.678720295429229736e-01,5.371315956115722656e+00,-1.977901916503906250e+02,-8.788364410400390625e+01,-1.692892913818359375e+02,4.030399620532989502e-01,-6.667101287841796875e+01,-1.826867065429687500e+02,-2.342316627502441406e+00,7.562124633789062500e+01,3.135653114318847656e+01
8.791880011558532715e-01,1.000000000000000000e+00,-3.554506540298461914e+00,-3.135149478912353516e-01,5.380688667297363281e+00,-1.977314605712890625e+02,-8.781011199951171875e+01,-1.692239074707031250e+02,4.030399620532989502e-01,-6.667092895507812500e+01,-1.826867065429687500e+02,-2.342245101928710938e+00,7.562117004394531250e+01,3.135653114318847656e+01
8.831639885902404785e-01,1.000000000000000000e+00,-3.619355201721191406e+00,-2.591352462768554688e-01,5.390203952789306641e+00,-1.976720428466796875e+02,-8.773654174804687500e+01,-1.691583251953125000e+02,4.030399620532989502e-01,-6.667101287841796875e+01,-1.826867065429687500e+02,-2.342316627502441406e+00,7.562117004394531250e+01,3.135642242431640625e+01
8.872590065002441406e-01,1.000000000000000000e+00,-3.684060335159301758e+00,-2.049139589071273804e-01,5.399678707122802734e+00,-1.976133117675781250e+02,-8.766317749023437500e+01,-1.690924072265625000e+02,4.030399620532989502e-01,-6.667092895507812500e+01,-1.826867065429687500e+02,-2.342245101928710938e+00,7.562117004394531250e+01,3.135642242431640625e+01
8.911809921264648438e-01,1.000000000000000000e+00,-3.748765707015991211e+00,-1.507379263639450073e-01,5.409132957458496094e+00,-1.975534820556640625e+02,-8.758912658691406250e+01,-1.690273132324218750e+02,4.030399620532989502e-01,-6.667101287841796875e+01,-1.826867065429687500e+02,-2.342316627502441406e+00,7.562117004394531250e+01,3.135642242431640625e+01
8.951629996299743652e-01,1.000000000000000000e+00,-3.813470602035522461e+00,-9.658452868461608887e-02,5.418465137481689453e+00,-1.974946899414062500e+02,-8.751549530029296875e+01,-1.689618682861328125e+02,4.030399620532989502e-01,-6.667101287841796875e+01,-1.826867065429687500e+02,-2.342245101928710938e+00,7.562117004394531250e+01,3.135642242431640625e+01
8.992469906806945801e-01,1.000000000000000000e+00,-3.878061056137084961e+00,-4.222746938467025757e-02,5.427736282348632812e+00,-1.974354858398437500e+02,-8.744127655029296875e+01,-1.688960113525390625e+02,4.030399620532989502e-01,-6.667101287841796875e+01,-1.826867065429687500e+02,-2.342245101928710938e+00,7.562124633789062500e+01,3.135642242431640625e+01
9.031699895858764648e-01,1.000000000000000000e+00,-3.942708730697631836e+00,1.197119150310754776e-02,5.437292575836181641e+00,-1.973764495849609375e+02,-8.736770629882812500e+01,-1.688309783935546875e+02,4.030399620532989502e-01,-6.667101287841796875e+01,-1.826867065429687500e+02,-2.342245101928710938e+00,7.562117004394531250e+01,3.135653114318847656e+01
9.088540077209472656e-01,1.000000000000000000e+00,-4.007413864135742188e+00,6.635088473558425903e-02,5.447072029113769531e+00,-1.973175048828125000e+02,-8.729354095458984375e+01,-1.687644348144531250e+02,4.030399620532989502e-01,-6.667101287841796875e+01,-1.826867065429687500e+02,-2.342245101928710938e+00,7.562124633789062500e+01,3.135653114318847656e+01
9.112470149993896484e-01,1.000000000000000000e+00,-4.071975708007812500e+00,1.205042824149131775e-01,5.456749916076660156e+00,-1.972579345703125000e+02,-8.722071075439453125e+01,-1.686985931396484375e+02,4.030399620532989502e-01,-6.667101287841796875e+01,-1.826867065429687500e+02,-2.342245101928710938e+00,7.562139129638671875e+01,3.135653114318847656e+01
9.151679873466491699e-01,1.000000000000000000e+00,-4.136623382568359375e+00,1.745445430278778076e-01,5.466326236724853516e+00,-1.971991271972656250e+02,-8.714713287353515625e+01,-1.686333618164062500e+02,4.030399620532989502e-01,-6.667092895507812500e+01,-1.826867065429687500e+02,-2.342245101928710938e+00,7.562117004394531250e+01,3.135653114318847656e+01
9.191619753837585449e-01,1.000000000000000000e+00,-4.201271057128906250e+00,2.286300510168075562e-01,5.475739479064941406e+00,-1.971399230957031250e+02,-8.707296752929687500e+01,-1.685671691894531250e+02,4.030399620532989502e-01,-6.667101287841796875e+01,-1.826867065429687500e+02,-2.342316627502441406e+00,7.562117004394531250e+01,3.135653114318847656e+01
9.232550263404846191e-01,1.000000000000000000e+00,-4.265717983245849609e+00,2.827155590057373047e-01,5.485031127929687500e+00,-1.970812072753906250e+02,-8.699912261962890625e+01,-1.685017242431640625e+02,4.030399620532989502e-01,-6.667101287841796875e+01,-1.826867065429687500e+02,-2.342245101928710938e+00,7.562139129638671875e+01,3.135653114318847656e+01
9.271699786186218262e-01,1.000000000000000000e+00,-4.330222129821777344e+00,3.369821012020111084e-01,5.494546413421630859e+00,-1.970223693847656250e+02,-8.692602539062500000e+01,-1.684360046386718750e+02,4.030399620532989502e-01,-6.667092895507812500e+01,-1.826867065429687500e+02,-2.342245101928710938e+00,7.562124633789062500e+01,3.135653114318847656e+01
9.332339763641357422e-01,1.000000000000000000e+00,-4.395071029663085938e+00,3.912712931632995605e-01,5.504122734069824219e+00,-1.969624328613281250e+02,-8.685250854492187500e+01,-1.683696136474609375e+02,4.030399620532989502e-01,-6.667101287841796875e+01,-1.826867065429687500e+02,-2.342245101928710938e+00,7.562117004394531250e+01,3.135642242431640625e+01
9.352589845657348633e-01,1.000000000000000000e+00,-4.459862232208251953e+00,4.456283748149871826e-01,5.513556957244873047e+00,-1.969039001464843750e+02,-8.677850341796875000e+01,-1.683039093017578125e+02,4.030399620532989502e-01,-6.667101287841796875e+01,-1.826867065429687500e+02,-2.342173099517822266e+00,7.562117004394531250e+01,3.135642242431640625e+01
9.393259882926940918e-01,1.000000000000000000e+00,-4.524653434753417969e+00,4.999854266643524170e-01,5.522828102111816406e+00,-1.968445892333984375e+02,-8.670445251464843750e+01,-1.682387390136718750e+02,4.030399620532989502e-01,-6.667101287841796875e+01,-1.826867065429687500e+02,-2.342245101928710938e+00,7.562124633789062500e+01,3.135653114318847656e+01
9.432370066642761230e-01,1.000000000000000000e+00,-4.589186191558837891e+00,5.542067289352416992e-01,5.532018184661865234e+00,-1.967854461669921875e+02,-8.663055419921875000e+01,-1.681722106933593750e+02,4.030399620532989502e-01,-6.667101287841796875e+01,-1.826867065429687500e+02,-2.342245101928710938e+00,7.562117004394531250e+01,3.135653114318847656e+01
9.473609924316406250e-01,1.000000000000000000e+00,-4.653920173645019531e+00,6.085185408592224121e-01,5.541330337524414062e+00,-1.967261352539062500e+02,-8.655697631835937500e+01,-1.681074981689453125e+02,4.030399620532989502e-01,-6.667101287841796875e+01,-1.826867065429687500e+02,-2.342245101928710938e+00,7.562117004394531250e+01,3.135675048828125000e+01
9.511730074882507324e-01,1.000000000000000000e+00,-4.718539237976074219e+00,6.626719236373901367e-01,5.550967216491699219e+00,-1.966667022705078125e+02,-8.648249053955078125e+01,-1.680413208007812500e+02,4.030399620532989502e-01,-6.667101287841796875e+01,-1.826867065429687500e+02,-2.342245101928710938e+00,7.562117004394531250e+01,3.135653114318847656e+01
9.551849961280822754e-01,1.000000000000000000e+00,-4.782957553863525391e+00,7.171421051025390625e-01,5.560543537139892578e+00,-1.966081237792968750e+02,-8.640908050537109375e+01,-1.679752044677734375e+02,4.030399620532989502e-01,-6.667111206054687500e+01,-1.826867065429687500e+02,-2.342173099517822266e+00,7.562124633789062500e+01,3.135653114318847656e+01
9.592990279197692871e-01,1.000000000000000000e+00,-4.847490310668945312e+00,7.714312672615051270e-01,5.570180892944335938e+00,-1.965488281250000000e+02,-8.633539581298828125e+01,-1.679102325439453125e+02,4.030399620532989502e-01,-6.667101287841796875e+01,-1.826867065429687500e+02,-2.342245101928710938e+00,7.562124633789062500e+01,3.135653114318847656e+01
9.631760120391845703e-01,1.000000000000000000e+00,-4.911879539489746094e+00,8.255394697189331055e-01,5.579757690429687500e+00,-1.964900360107421875e+02,-8.626171112060546875e+01,-1.678442382812500000e+02,4.030399620532989502e-01,-6.667101287841796875e+01,-1.826867065429687500e+02,-2.342316627502441406e+00,7.562117004394531250e+01,3.135653114318847656e+01
9.671819806098937988e-01,1.000000000000000000e+00,-4.976556301116943359e+00,8.798738718032836914e-01,5.589089870452880859e+00,-1.964308319091796875e+02,-8.618728637695312500e+01,-1.677782592773437500e+02,4.030399620532989502e-01,-6.667101287841796875e+01,-1.826865997314453125e+02,-2.342245101928710938e+00,7.562124633789062500e+01,3.135642242431640625e+01
9.712010025978088379e-01,1.000000000000000000e+00,-5.041089057922363281e+00,9.339820742607116699e-01,5.598483085632324219e+00,-1.963712005615234375e+02,-8.611375427246093750e+01,-1.677133636474609375e+02,4.030399620532989502e-01,-6.667101287841796875e+01,-1.826867065429687500e+02,-2.342316627502441406e+00,7.562124633789062500e+01,3.135653114318847656e+01
9.751589894294738770e-01,1.000000000000000000e+00,-5.105506896972656250e+00,9.880675673484802246e-01,5.607957839965820312e+00,-1.963126831054687500e+02,-8.604039001464843750e+01,-1.676466979980468750e+02,4.030399620532989502e-01,-6.667101287841796875e+01,-1.826867065429687500e+02,-2.342316627502441406e+00,7.562124633789062500e+01,3.135653114318847656e+01
9.820010066032409668e-01,1.000000000000000000e+00,-5.170212268829345703e+00,1.042220950126647949e+00,5.617574691772460938e+00,-1.962534332275390625e+02,-8.596676635742187500e+01,-1.675810394287109375e+02,4.030399620532989502e-01,-6.667101287841796875e+01,-1.826867065429687500e+02,-2.342173099517822266e+00,7.562117004394531250e+01,3.135653114318847656e+01
9.835410118103027344e-01,1.000000000000000000e+00,-5.234917640686035156e+00,1.096487522125244141e+00,5.627089977264404297e+00,-1.961944427490234375e+02,-8.589201354980468750e+01,-1.675158081054687500e+02,4.030399620532989502e-01,-6.667101287841796875e+01,-1.826867065429687500e+02,-2.342245101928710938e+00,7.562117004394531250e+01,3.135653114318847656e+01
9.892709851264953613e-01,1.000000000000000000e+00,-5.299479007720947266e+00,1.150844573974609375e+00,5.636523723602294922e+00,-1.961351318359375000e+02,-8.581801605224609375e+01,-1.674496917724609375e+02,4.030399620532989502e-01,-6.667101287841796875e+01,-1.826867065429687500e+02,-2.342316627502441406e+00,7.562124633789062500e+01,3.135653114318847656e+01
9.912170171737670898e-01,1.000000000000000000e+00,-5.364212989807128906e+00,1.205020666122436523e+00,5.645734310150146484e+00,-1.960760803222656250e+02,-8.574501800537109375e+01,-1.673841705322265625e+02,4.030399620532989502e-01,-6.667101287841796875e+01,-1.826867065429687500e+02,-2.342245101928710938e+00,7.562117004394531250e+01,3.135653114318847656e+01
9.961820244789123535e-01,1.000000000000000000e+00,-5.428917884826660156e+00,1.259377598762512207e+00,5.655148029327392578e+00,-1.960171813964843750e+02,-8.567118072509765625e+01,-1.673180541992187500e+02,4.030399620532989502e-01,-6.667101287841796875e+01,-1.826867065429687500e+02,-2.342245101928710938e+00,7.562117004394531250e+01,3.135653114318847656e+01
9.991620182991027832e-01,1.000000000000000000e+00,-5.493709564208984375e+00,1.313847899436950684e+00,5.664703845977783203e+00,-1.959576721191406250e+02,-8.559648132324218750e+01,-1.672522583007812500e+02,4.030399620532989502e-01,-6.667101287841796875e+01,-1.826867065429687500e+02,-2.342245101928710938e+00,7.562124633789062500e+01,3.135653114318847656e+01
1.006317973136901855e+00,1.000000000000000000e+00,-5.493709564208984375e+00,1.313847899436950684e+00,5.664703845977783203e+00,-1.959576721191406250e+02,-8.559648132324218750e+01,-1.672522583007812500e+02,4.030399620532989502e-01,-6.667101287841796875e+01,-1.826867065429687500e+02,-2.342245101928710938e+00,7.562124633789062500e+01,3.135653114318847656e+01
1.007711052894592285e+00,1.000000000000000000e+00,-5.622975826263427734e+00,1.422154664993286133e+00,5.683856010437011719e+00,-1.958393707275390625e+02,-8.544964599609375000e+01,-1.671212463378906250e+02,4.030399620532989502e-01,-6.667101287841796875e+01,-1.826867065429687500e+02,-2.342316627502441406e+00,7.562124633789062500e+01,3.135653114318847656e+01
1.011208057403564453e+00,1.000000000000000000e+00,-5.687594890594482422e+00,1.476308107376098633e+00,5.693371295928955078e+00,-1.957804718017578125e+02,-8.537580871582031250e+01,-1.670548553466796875e+02,4.030399620532989502e-01,-6.667101287841796875e+01,-1.826867065429687500e+02,-2.342245101928710938e+00,7.562117004394531250e+01,3.135653114318847656e+01
1.016224980354309082e+00,1.000000000000000000e+00,-5.687594890594482422e+00,1.476308107376098633e+00,5.693371295928955078e+00,-1.957804718017578125e+02,-8.537580871582031250e+01,-1.670548553466796875e+02,4.030399620532989502e-01,-6.667101287841796875e+01,-1.826867065429687500e+02,-2.342173099517822266e+00,7.562117004394531250e+01,3.135653114318847656e+01
1.019168019294738770e+00,1.000000000000000000e+00,-5.816833496093750000e+00,1.584863781929016113e+00,5.712056636810302734e+00,-1.956619110107421875e+02,-8.522780609130859375e+01,-1.669239654541015625e+02,4.030399620532989502e-01,-6.667101287841796875e+01,-1.826867065429687500e+02,-2.342316627502441406e+00,7.562124633789062500e+01,3.135653114318847656e+01
1.023247003555297852e+00,1.000000000000000000e+00,-5.816833496093750000e+00,1.584863781929016113e+00,5.712056636810302734e+00,-1.956619110107421875e+02,-8.522780609130859375e+01,-1.669239654541015625e+02,4.030399620532989502e-01,-6.667101287841796875e+01,-1.826867065429687500e+02,-2.342316627502441406e+00,7.562124633789062500e+01,3.135653114318847656e+01
1.029719948768615723e+00,1.000000000000000000e+00,-5.881567478179931641e+00,1.638926625251770020e+00,5.721469879150390625e+00,-1.956032714843750000e+02,-8.515449523925781250e+01,-1.668581848144531250e+02,4.030399620532989502e-01,-6.667111206054687500e+01,-1.826867065429687500e+02,-2.342316627502441406e+00,7.562117004394531250e+01,3.135653114318847656e+01
1.031988024711608887e+00,1.000000000000000000e+00,-6.010891437530517578e+00,1.747165560722351074e+00,5.740256786346435547e+00,-1.954850158691406250e+02,-8.500643157958984375e+01,-1.667275085449218750e+02,4.030399620532989502e-01,-6.667101287841796875e+01,-1.826867065429687500e+02,-2.342245101928710938e+00,7.562124633789062500e+01,3.135653114318847656e+01
1.035163044929504395e+00,1.000000000000000000e+00,-6.075596332550048828e+00,1.801205873489379883e+00,5.749629497528076172e+00,-1.954256134033203125e+02,-8.493248748779296875e+01,-1.666613159179687500e+02,4.030399620532989502e-01,-6.667101287841796875e+01,-1.826867065429687500e+02,-2.342173099517822266e+00,7.562117004394531250e+01,3.135653114318847656e+01
1.039288043975830078e+00,1.000000000000000000e+00,-6.075596332550048828e+00,1.801205873489379883e+00,5.749629497528076172e+00,-1.954256134033203125e+02,-8.493248748779296875e+01,-1.666613159179687500e+02,4.030399620532989502e-01,-6.667101287841796875e+01,-1.826867065429687500e+02,-2.342173099517822266e+00,7.562117004394531250e+01,3.135653114318847656e+01
1.043213963508605957e+00,1.000000000000000000e+00,-6.140388011932373047e+00,1.855494976043701172e+00,5.758982181549072266e+00,-1.953661804199218750e+02,-8.485880279541015625e+01,-1.665957946777343750e+02,4.030399620532989502e-01,-6.667101287841796875e+01,-1.826867065429687500e+02,-2.342245101928710938e+00,7.562117004394531250e+01,3.135653114318847656e+01
1.047227025032043457e+00,1.000000000000000000e+00,-6.205150604248046875e+00,1.909784078598022461e+00,5.768416404724121094e+00,-1.953076629638671875e+02,-8.478533172607421875e+01,-1.665292816162109375e+02,4.030399620532989502e-01,-6.667101287841796875e+01,-1.826867065429687500e+02,-2.342245101928710938e+00,7.562124633789062500e+01,3.135653114318847656e+01
1.051298975944519043e+00,1.000000000000000000e+00,-6.270085334777832031e+00,1.964209198951721191e+00,5.778073787689208984e+00,-1.952479400634765625e+02,-8.471084594726562500e+01,-1.664637603759765625e+02,4.030399620532989502e-01,-6.667101287841796875e+01,-1.826867065429687500e+02,-2.342173099517822266e+00,7.562117004394531250e+01,3.135653114318847656e+01
1.055230975151062012e+00,1.000000000000000000e+00,-6.335105895996093750e+00,2.018317222595214844e+00,5.787609100341796875e+00,-1.951893157958984375e+02,-8.463722229003906250e+01,-1.663991394042968750e+02,4.030399620532989502e-01,-6.667101287841796875e+01,-1.826867065429687500e+02,-2.342245101928710938e+00,7.562117004394531250e+01,3.135653114318847656e+01
1.059209942817687988e+00,1.000000000000000000e+00,-6.400127410888671875e+00,2.072561264038085938e+00,5.797124385833740234e+00,-1.951301574707031250e+02,-8.456348419189453125e+01,-1.663325347900390625e+02,4.030399620532989502e-01,-6.667101287841796875e+01,-1.826868133544921875e+02,-2.342316627502441406e+00,7.562117004394531250e+01,3.135642242431640625e+01
1.063287019729614258e+00,1.000000000000000000e+00,-6.464890003204345703e+00,2.126805067062377930e+00,5.806578636169433594e+00,-1.950707855224609375e+02,-8.449038696289062500e+01,-1.662666168212890625e+02,4.030399620532989502e-01,-6.667101287841796875e+01,-1.826867065429687500e+02,-2.342316627502441406e+00,7.562117004394531250e+01,3.135653114318847656e+01
1.067208051681518555e+00,1.000000000000000000e+00,-6.529479980468750000e+00,2.180981159210205078e+00,5.815870761871337891e+00,-1.950120086669921875e+02,-8.441600799560546875e+01,-1.662009124755859375e+02,4.030399620532989502e-01,-6.667101287841796875e+01,-1.826867065429687500e+02,-2.342245101928710938e+00,7.562117004394531250e+01,3.135653114318847656e+01
1.071223020553588867e+00,1.000000000000000000e+00,-6.594271183013916016e+00,2.235338211059570312e+00,5.825365543365478516e+00,-1.949522247314453125e+02,-8.434237670898437500e+01,-1.661344299316406250e+02,4.030399620532989502e-01,-6.667101287841796875e+01,-1.826867065429687500e+02,-2.342316627502441406e+00,7.562117004394531250e+01,3.135653114318847656e+01
1.075286984443664551e+00,1.000000000000000000e+00,-6.658803939819335938e+00,2.289491653442382812e+00,5.834982395172119141e+00,-1.948933258056640625e+02,-8.426848602294921875e+01,-1.660694732666015625e+02,4.030399620532989502e-01,-6.667101287841796875e+01,-1.826867065429687500e+02,-2.342245101928710938e+00,7.562117004394531250e+01,3.135653114318847656e+01
1.079210996627807617e+00,1.000000000000000000e+00,-6.723480701446533203e+00,2.343735456466674805e+00,5.844457149505615234e+00,-1.948342895507812500e+02,-8.419528198242187500e+01,-1.660040283203125000e+02,4.030399620532989502e-01,-6.667101287841796875e+01,-1.826867065429687500e+02,-2.342245101928710938e+00,7.562117004394531250e+01,3.135653114318847656e+01
1.083204030990600586e+00,1.000000000000000000e+00,-6.788300514221191406e+00,2.397775650024414062e+00,5.853768825531005859e+00,-1.947749786376953125e+02,-8.412080383300781250e+01,-1.659376373291015625e+02,4.030399620532989502e-01,-6.667101287841796875e+01,-1.826867065429687500e+02,-2.342245101928710938e+00,7.562124633789062500e+01,3.135653114318847656e+01
1.087311029434204102e+00,1.000000000000000000e+00,-6.852833271026611328e+00,2.451861143112182617e+00,5.862897872924804688e+00,-1.947157745361328125e+02,-8.404753875732421875e+01,-1.658720550537109375e+02,4.030399620532989502e-01,-6.667101287841796875e+01,-1.826867065429687500e+02,-2.342316627502441406e+00,7.562124633789062500e+01,3.135653114318847656e+01
1.091220021247863770e+00,1.000000000000000000e+00,-6.917538642883300781e+00,2.506060123443603516e+00,5.872087955474853516e+00,-1.946564636230468750e+02,-8.397343444824218750e+01,-1.658062744140625000e+02,4.030399620532989502e-01,-6.667101287841796875e+01,-1.826867065429687500e+02,-2.342245101928710938e+00,7.562124633789062500e+01,3.135642242431640625e+01
1.095209956169128418e+00,1.000000000000000000e+00,-6.982215404510498047e+00,2.560145616531372070e+00,5.881623744964599609e+00,-1.945980529785156250e+02,-8.389974975585937500e+01,-1.657407073974609375e+02,4.030399620532989502e-01,-6.667101287841796875e+01,-1.826867065429687500e+02,-2.342245101928710938e+00,7.562124633789062500e+01,3.135653114318847656e+01
1.099215984344482422e+00,1.000000000000000000e+00,-7.047063827514648438e+00,2.614457368850708008e+00,5.891342163085937500e+00,-1.945388793945312500e+02,-8.382558441162109375e+01,-1.656758728027343750e+02,4.030399620532989502e-01,-6.667111206054687500e+01,-1.826867065429687500e+02,-2.342173099517822266e+00,7.562124633789062500e+01,3.135653114318847656e+01
1.103240966796875000e+00,1.000000000000000000e+00,-7.111740112304687500e+00,2.668633222579956055e+00,5.900857448577880859e+00,-1.944797973632812500e+02,-8.375233459472656250e+01,-1.656096801757812500e+02,4.030399620532989502e-01,-6.667101287841796875e+01,-1.826867065429687500e+02,-2.342316627502441406e+00,7.562124633789062500e+01,3.135653114318847656e+01
1.107257962226867676e+00,1.000000000000000000e+00,-7.176445484161376953e+00,2.722944974899291992e+00,5.910352230072021484e+00,-1.944203186035156250e+02,-8.367897033691406250e+01,-1.655436859130859375e+02,4.030399620532989502e-01,-6.667101287841796875e+01,-1.826867065429687500e+02,-2.342245101928710938e+00,7.562117004394531250e+01,3.135653114318847656e+01
