rpiRobotics/ARM-21-02-F-19-Robot-Motion-Program/data_performance_abb/curve_2/curve_pose_opt2/greedy0.02/realrobot/run_4.csv
timestamp,cmd_num,J1,J2,J3,J4,J5,J6
1.420000044163316488e-04,-1.000000000000000000e+00,8.512633323669433594e+00,-1.042646408081054688e+01,3.620788335800170898e+00,-2.087635192871093750e+02,-1.015729980468750000e+02,-1.814822845458984375e+02,4.030399620532989502e-01,-6.667101287841796875e+01,-1.826865997314453125e+02,-2.342245101928710938e+00,7.562124633789062500e+01,3.135642242431640625e+01
3.628999926149845123e-03,1.000000000000000000e+00,8.512633323669433594e+00,-1.042646408081054688e+01,3.620788335800170898e+00,-2.087636108398437500e+02,-1.015729370117187500e+02,-1.814821472167968750e+02,4.030399620532989502e-01,-6.667101287841796875e+01,-1.826865997314453125e+02,-2.342245101928710938e+00,7.562124633789062500e+01,3.135642242431640625e+01
9.181999601423740387e-03,1.000000000000000000e+00,8.512576103210449219e+00,-1.042646408081054688e+01,3.620829343795776367e+00,-2.087635192871093750e+02,-1.015729370117187500e+02,-1.814821472167968750e+02,4.030399620532989502e-01,-6.667101287841796875e+01,-1.826867065429687500e+02,-2.342245101928710938e+00,7.562124633789062500e+01,3.135642242431640625e+01
1.267900038510560989e-02,1.000000000000000000e+00,8.512576103210449219e+00,-1.042646408081054688e+01,3.620788335800170898e+00,-2.087635192871093750e+02,-1.015729980468750000e+02,-1.814822845458984375e+02,4.030399620532989502e-01,-6.667101287841796875e+01,-1.826865997314453125e+02,-2.342316627502441406e+00,7.562102508544921875e+01,3.135642242431640625e+01
3.737400099635124207e-02,1.000000000000000000e+00,8.512633323669433594e+00,-1.042646408081054688e+01,3.620747804641723633e+00,-2.087635192871093750e+02,-1.015729370117187500e+02,-1.814821472167968750e+02,4.030399620532989502e-01,-6.667111206054687500e+01,-1.826865997314453125e+02,-2.342245101928710938e+00,7.562124633789062500e+01,3.135642242431640625e+01
3.867699950933456421e-02,1.000000000000000000e+00,8.512633323669433594e+00,-1.042646408081054688e+01,3.620747804641723633e+00,-2.087635192871093750e+02,-1.015729370117187500e+02,-1.814821472167968750e+02,4.030399620532989502e-01,-6.667111206054687500e+01,-1.826865997314453125e+02,-2.342245101928710938e+00,7.562124633789062500e+01,3.135642242431640625e+01
4.132699966430664062e-02,1.000000000000000000e+00,8.512576103210449219e+00,-1.042646408081054688e+01,3.620788335800170898e+00,-2.087635192871093750e+02,-1.015729980468750000e+02,-1.814821472167968750e+02,4.030399620532989502e-01,-6.667111206054687500e+01,-1.826864318847656250e+02,-2.342245101928710938e+00,7.562117004394531250e+01,3.135642242431640625e+01
4.258700087666511536e-02,1.000000000000000000e+00,8.512576103210449219e+00,-1.042646408081054688e+01,3.620788335800170898e+00,-2.087635192871093750e+02,-1.015729980468750000e+02,-1.814821472167968750e+02,4.030399620532989502e-01,-6.667111206054687500e+01,-1.826864318847656250e+02,-2.342245101928710938e+00,7.562117004394531250e+01,3.135642242431640625e+01
5.206900089979171753e-02,1.000000000000000000e+00,8.512576103210449219e+00,-1.042646408081054688e+01,3.620788335800170898e+00,-2.087635192871093750e+02,-1.015728302001953125e+02,-1.814822845458984375e+02,4.030399620532989502e-01,-6.667101287841796875e+01,-1.826865997314453125e+02,-2.342173099517822266e+00,7.562117004394531250e+01,3.135642242431640625e+01
5.339900031685829163e-02,1.000000000000000000e+00,8.512460708618164062e+00,-1.042641925811767578e+01,3.620788335800170898e+00,-2.087636108398437500e+02,-1.015729370117187500e+02,-1.814821472167968750e+02,4.030399620532989502e-01,-6.667101287841796875e+01,-1.826865997314453125e+02,-2.342173099517822266e+00,7.562117004394531250e+01,3.135642242431640625e+01
5.615999922156333923e-02,1.000000000000000000e+00,8.512460708618164062e+00,-1.042641925811767578e+01,3.620788335800170898e+00,-2.087636108398437500e+02,-1.015729370117187500e+02,-1.814821472167968750e+02,4.030399620532989502e-01,-6.667101287841796875e+01,-1.826865997314453125e+02,-2.342173099517822266e+00,7.562117004394531250e+01,3.135642242431640625e+01
5.751100182533264160e-02,1.000000000000000000e+00,8.512087821960449219e+00,-1.042607975006103516e+01,3.620788335800170898e+00,-2.087635192871093750e+02,-1.015729980468750000e+02,-1.814821472167968750e+02,4.030399620532989502e-01,-6.667101287841796875e+01,-1.826865997314453125e+02,-2.342245101928710938e+00,7.562117004394531250e+01,3.135653114318847656e+01
5.891099944710731506e-02,1.000000000000000000e+00,8.512087821960449219e+00,-1.042607975006103516e+01,3.620788335800170898e+00,-2.087635192871093750e+02,-1.015729980468750000e+02,-1.814821472167968750e+02,4.030399620532989502e-01,-6.667101287841796875e+01,-1.826865997314453125e+02,-2.342245101928710938e+00,7.562117004394531250e+01,3.135653114318847656e+01
6.294199824333190918e-02,1.000000000000000000e+00,8.511054039001464844e+00,-1.042537784576416016e+01,3.620788335800170898e+00,-2.087635192871093750e+02,-1.015729980468750000e+02,-1.814822845458984375e+02,4.030399620532989502e-01,-6.667092895507812500e+01,-1.826865997314453125e+02,-2.342245101928710938e+00,7.562102508544921875e+01,3.135642242431640625e+01
6.544200330972671509e-02,1.000000000000000000e+00,8.509303092956542969e+00,-1.042401981353759766e+01,3.620829343795776367e+00,-2.087634124755859375e+02,-1.015726699829101562e+02,-1.814822845458984375e+02,4.030399620532989502e-01,-6.667101287841796875e+01,-1.826865997314453125e+02,-2.342173099517822266e+00,7.562117004394531250e+01,3.135642242431640625e+01
6.675499677658081055e-02,1.000000000000000000e+00,8.509303092956542969e+00,-1.042401981353759766e+01,3.620829343795776367e+00,-2.087634124755859375e+02,-1.015726699829101562e+02,-1.814822845458984375e+02,4.030399620532989502e-01,-6.667101287841796875e+01,-1.826865997314453125e+02,-2.342173099517822266e+00,7.562117004394531250e+01,3.135642242431640625e+01
6.937500089406967163e-02,1.000000000000000000e+00,8.506432533264160156e+00,-1.042189311981201172e+01,3.620829343795776367e+00,-2.087635192871093750e+02,-1.015725173950195312e+02,-1.814821472167968750e+02,4.030399620532989502e-01,-6.667101287841796875e+01,-1.826865997314453125e+02,-2.342245101928710938e+00,7.562117004394531250e+01,3.135642242431640625e+01
7.390300184488296509e-02,1.000000000000000000e+00,8.502585411071777344e+00,-1.041879272460937500e+01,3.620930910110473633e+00,-2.087634124755859375e+02,-1.015723495483398438e+02,-1.814820098876953125e+02,4.030399620532989502e-01,-6.667101287841796875e+01,-1.826865997314453125e+02,-2.342245101928710938e+00,7.562124633789062500e+01,3.135642242431640625e+01
7.632199674844741821e-02,1.000000000000000000e+00,8.502585411071777344e+00,-1.041879272460937500e+01,3.620930910110473633e+00,-2.087634124755859375e+02,-1.015723495483398438e+02,-1.814820098876953125e+02,4.030399620532989502e-01,-6.667101287841796875e+01,-1.826865997314453125e+02,-2.342245101928710938e+00,7.562124633789062500e+01,3.135642242431640625e+01
7.763099670410156250e-02,1.000000000000000000e+00,8.497590065002441406e+00,-1.041456031799316406e+01,3.621073007583618164e+00,-2.087628784179687500e+02,-1.015714950561523438e+02,-1.814815368652343750e+02,4.030399620532989502e-01,-6.667111206054687500e+01,-1.826865997314453125e+02,-2.342245101928710938e+00,7.562102508544921875e+01,3.135653114318847656e+01
7.904300093650817871e-02,1.000000000000000000e+00,8.497590065002441406e+00,-1.041456031799316406e+01,3.621073007583618164e+00,-2.087628784179687500e+02,-1.015714950561523438e+02,-1.814815368652343750e+02,4.030399620532989502e-01,-6.667111206054687500e+01,-1.826865997314453125e+02,-2.342245101928710938e+00,7.562102508544921875e+01,3.135653114318847656e+01
8.539299666881561279e-02,1.000000000000000000e+00,8.491361618041992188e+00,-1.040908432006835938e+01,3.621317148208618164e+00,-2.087616729736328125e+02,-1.015693664550781250e+02,-1.814805755615234375e+02,4.030399620532989502e-01,-6.667101287841796875e+01,-1.826865997314453125e+02,-2.342245101928710938e+00,7.562117004394531250e+01,3.135653114318847656e+01
8.673000335693359375e-02,1.000000000000000000e+00,8.483811378479003906e+00,-1.040202426910400391e+01,3.621784687042236328e+00,-2.087590942382812500e+02,-1.015659561157226562e+02,-1.814786071777343750e+02,4.030399620532989502e-01,-6.667101287841796875e+01,-1.826865997314453125e+02,-2.342245101928710938e+00,7.562117004394531250e+01,3.135653114318847656e+01
8.942200243473052979e-02,1.000000000000000000e+00,8.474654197692871094e+00,-1.039276790618896484e+01,3.622455835342407227e+00,-2.087554931640625000e+02,-1.015615234375000000e+02,-1.814751434326171875e+02,4.030399620532989502e-01,-6.667101287841796875e+01,-1.826865997314453125e+02,-2.342245101928710938e+00,7.562124633789062500e+01,3.135642242431640625e+01
9.098999947309494019e-02,1.000000000000000000e+00,8.474654197692871094e+00,-1.039276790618896484e+01,3.622455835342407227e+00,-2.087554931640625000e+02,-1.015615234375000000e+02,-1.814751434326171875e+02,4.030399620532989502e-01,-6.667101287841796875e+01,-1.826865997314453125e+02,-2.342245101928710938e+00,7.562124633789062500e+01,3.135642242431640625e+01
9.722600132226943970e-02,1.000000000000000000e+00,8.463200569152832031e+00,-1.038113594055175781e+01,3.623350143432617188e+00,-2.087506713867187500e+02,-1.015548706054687500e+02,-1.814695281982421875e+02,4.030399620532989502e-01,-6.667111206054687500e+01,-1.826865997314453125e+02,-2.342173099517822266e+00,7.562124633789062500e+01,3.135642242431640625e+01
9.893599897623062134e-02,1.000000000000000000e+00,8.449162483215332031e+00,-1.036656284332275391e+01,3.624489068984985352e+00,-2.087440795898437500e+02,-1.015455398559570312e+02,-1.814617156982421875e+02,4.030399620532989502e-01,-6.667101287841796875e+01,-1.826865997314453125e+02,-2.342245101928710938e+00,7.562102508544921875e+01,3.135642242431640625e+01
1.029919981956481934e-01,1.000000000000000000e+00,8.432339668273925781e+00,-1.034938716888427734e+01,3.626278162002563477e+00,-2.087347564697265625e+02,-1.015337524414062500e+02,-1.814512786865234375e+02,4.030399620532989502e-01,-6.667101287841796875e+01,-1.826865997314453125e+02,-2.342173099517822266e+00,7.562117004394531250e+01,3.135642242431640625e+01
1.070130020380020142e-01,1.000000000000000000e+00,8.412647247314453125e+00,-1.032999229431152344e+01,3.628392457962036133e+00,-2.087231140136718750e+02,-1.015186157226562500e+02,-1.814380645751953125e+02,4.030399620532989502e-01,-6.667101287841796875e+01,-1.826865997314453125e+02,-2.342245101928710938e+00,7.562117004394531250e+01,3.135642242431640625e+01
1.109960004687309265e-01,1.000000000000000000e+00,8.390514373779296875e+00,-1.030908298492431641e+01,3.631137371063232422e+00,-2.087079467773437500e+02,-1.015002212524414062e+02,-1.814216461181640625e+02,4.030399620532989502e-01,-6.667101287841796875e+01,-1.826867065429687500e+02,-2.342316627502441406e+00,7.562117004394531250e+01,3.135642242431640625e+01
1.150489971041679382e-01,1.000000000000000000e+00,8.366199493408203125e+00,-1.028695106506347656e+01,3.634085416793823242e+00,-2.086895599365234375e+02,-1.014780883789062500e+02,-1.814013671875000000e+02,4.030399620532989502e-01,-6.667101287841796875e+01,-1.826865997314453125e+02,-2.342316627502441406e+00,7.562117004394531250e+01,3.135619926452636719e+01
1.189439967274665833e-01,1.000000000000000000e+00,8.339359283447265625e+00,-1.026368713378906250e+01,3.637460470199584961e+00,-2.086671142578125000e+02,-1.014519653320312500e+02,-1.813775634765625000e+02,4.030399620532989502e-01,-6.667101287841796875e+01,-1.826867065429687500e+02,-2.342245101928710938e+00,7.562102508544921875e+01,3.135619926452636719e+01
1.229799985885620117e-01,1.000000000000000000e+00,8.309733390808105469e+00,-1.023890686035156250e+01,3.641242265701293945e+00,-2.086417388916015625e+02,-1.014215240478515625e+02,-1.813503723144531250e+02,4.030399620532989502e-01,-6.667101287841796875e+01,-1.826864318847656250e+02,-2.342245101928710938e+00,7.562124633789062500e+01,3.135642242431640625e+01
1.289110034704208374e-01,1.000000000000000000e+00,8.277409553527832031e+00,-1.021234035491943359e+01,3.645756006240844727e+00,-2.086131896972656250e+02,-1.013852691650390625e+02,-1.813187713623046875e+02,4.030399620532989502e-01,-6.667111206054687500e+01,-1.826865997314453125e+02,-2.342173099517822266e+00,7.562124633789062500e+01,3.135619926452636719e+01
1.335210055112838745e-01,1.000000000000000000e+00,8.242559432983398438e+00,-1.018378067016601562e+01,3.650798082351684570e+00,-2.085815734863281250e+02,-1.013434677124023438e+02,-1.812833099365234375e+02,4.030399620532989502e-01,-6.667101287841796875e+01,-1.826865997314453125e+02,-2.342316627502441406e+00,7.562102508544921875e+01,3.135642242431640625e+01
1.370950043201446533e-01,1.000000000000000000e+00,8.204810142517089844e+00,-1.015366077423095703e+01,3.656409978866577148e+00,-2.085450134277343750e+02,-1.012985763549804688e+02,-1.812429504394531250e+02,4.030399620532989502e-01,-6.667101287841796875e+01,-1.826867065429687500e+02,-2.342245101928710938e+00,7.562117004394531250e+01,3.135642242431640625e+01
1.389259994029998779e-01,1.000000000000000000e+00,8.164304733276367188e+00,-1.012206935882568359e+01,3.662163496017456055e+00,-2.085032501220703125e+02,-1.012509613037109375e+02,-1.811974487304687500e+02,4.030399620532989502e-01,-6.667101287841796875e+01,-1.826865997314453125e+02,-2.342173099517822266e+00,7.562102508544921875e+01,3.135642242431640625e+01
1.429910063743591309e-01,1.000000000000000000e+00,8.121330261230468750e+00,-1.008900642395019531e+01,3.668405532836914062e+00,-2.084593658447265625e+02,-1.011974868774414062e+02,-1.811484069824218750e+02,4.030399620532989502e-01,-6.667111206054687500e+01,-1.826867065429687500e+02,-2.342245101928710938e+00,7.562102508544921875e+01,3.135642242431640625e+01
1.469819992780685425e-01,1.000000000000000000e+00,8.076547622680664062e+00,-1.005395317077636719e+01,3.675094842910766602e+00,-2.084140777587890625e+02,-1.011392059326171875e+02,-1.810980224609375000e+02,4.030399620532989502e-01,-6.667111206054687500e+01,-1.826865997314453125e+02,-2.342245101928710938e+00,7.562117004394531250e+01,3.135642242431640625e+01
1.531369984149932861e-01,1.000000000000000000e+00,8.029641151428222656e+00,-1.001715660095214844e+01,3.682149887084960938e+00,-2.083650360107421875e+02,-1.010785903930664062e+02,-1.810443115234375000e+02,4.030399620532989502e-01,-6.667101287841796875e+01,-1.826865997314453125e+02,-2.342245101928710938e+00,7.562117004394531250e+01,3.135642242431640625e+01
1.549150049686431885e-01,1.000000000000000000e+00,7.980580806732177734e+00,-9.978527069091796875e+00,3.689672470092773438e+00,-2.083129425048828125e+02,-1.010149917602539062e+02,-1.809858551025390625e+02,4.030399620532989502e-01,-6.667101287841796875e+01,-1.826865997314453125e+02,-2.342245101928710938e+00,7.562124633789062500e+01,3.135642242431640625e+01
1.589259952306747437e-01,1.000000000000000000e+00,7.929454326629638672e+00,-9.937544822692871094e+00,3.697561264038085938e+00,-2.082594299316406250e+02,-1.009491958618164062e+02,-1.809256286621093750e+02,4.030399620532989502e-01,-6.667101287841796875e+01,-1.826867065429687500e+02,-2.342316627502441406e+00,7.562117004394531250e+01,3.135642242431640625e+01
1.652110069990158081e-01,1.000000000000000000e+00,7.875485897064208984e+00,-9.893823623657226562e+00,3.705836534500122070e+00,-2.082039031982421875e+02,-1.008812103271484375e+02,-1.808656768798828125e+02,4.030399620532989502e-01,-6.667111206054687500e+01,-1.826865997314453125e+02,-2.342173099517822266e+00,7.562117004394531250e+01,3.135642242431640625e+01
1.669120043516159058e-01,1.000000000000000000e+00,7.819478034973144531e+00,-9.847703933715820312e+00,3.714334964752197266e+00,-2.081478576660156250e+02,-1.008111038208007812e+02,-1.808024749755859375e+02,4.030399620532989502e-01,-6.667101287841796875e+01,-1.826865997314453125e+02,-2.342245101928710938e+00,7.562124633789062500e+01,3.135642242431640625e+01
1.709650009870529175e-01,1.000000000000000000e+00,7.761749267578125000e+00,-9.799547195434570312e+00,3.722955703735351562e+00,-2.080909729003906250e+02,-1.007397079467773438e+02,-1.807383880615234375e+02,4.030399620532989502e-01,-6.667111206054687500e+01,-1.826865997314453125e+02,-2.342173099517822266e+00,7.562124633789062500e+01,3.135642242431640625e+01
1.771609932184219360e-01,1.000000000000000000e+00,7.702670097351074219e+00,-9.749987602233886719e+00,3.731739282608032227e+00,-2.080325469970703125e+02,-1.006677322387695312e+02,-1.806740417480468750e+02,4.030399620532989502e-01,-6.667111206054687500e+01,-1.826865997314453125e+02,-2.342173099517822266e+00,7.562124633789062500e+01,3.135619926452636719e+01
1.789139956235885620e-01,1.000000000000000000e+00,7.642185211181640625e+00,-9.699274063110351562e+00,3.740664482116699219e+00,-2.079736633300781250e+02,-1.005950164794921875e+02,-1.806087341308593750e+02,4.030399620532989502e-01,-6.667101287841796875e+01,-1.826865997314453125e+02,-2.342245101928710938e+00,7.562117004394531250e+01,3.135642242431640625e+01
1.830220073461532593e-01,1.000000000000000000e+00,7.580723762512207031e+00,-9.647383689880371094e+00,3.749651432037353516e+00,-2.079147644042968750e+02,-1.005215988159179688e+02,-1.805430145263671875e+02,4.030399620532989502e-01,-6.667101287841796875e+01,-1.826865997314453125e+02,-2.342316627502441406e+00,7.562117004394531250e+01,3.135642242431640625e+01
1.870130002498626709e-01,1.000000000000000000e+00,7.518171787261962891e+00,-9.594746589660644531e+00,3.758739709854125977e+00,-2.078560943603515625e+02,-1.004472732543945312e+02,-1.804777069091796875e+02,4.030399620532989502e-01,-6.667101287841796875e+01,-1.826865997314453125e+02,-2.342245101928710938e+00,7.562124633789062500e+01,3.135642242431640625e+01
1.909770071506500244e-01,1.000000000000000000e+00,7.455246448516845703e+00,-9.541656494140625000e+00,3.768051385879516602e+00,-2.077969970703125000e+02,-1.003738021850585938e+02,-1.804111022949218750e+02,4.030399620532989502e-01,-6.667101287841796875e+01,-1.826864318847656250e+02,-2.342173099517822266e+00,7.562102508544921875e+01,3.135642242431640625e+01
1.950860023498535156e-01,1.000000000000000000e+00,7.391660690307617188e+00,-9.488000869750976562e+00,3.777668714523315430e+00,-2.077374725341796875e+02,-1.002999649047851562e+02,-1.803451843261718750e+02,4.028751850128173828e-01,-6.667101287841796875e+01,-1.826865997314453125e+02,-2.342245101928710938e+00,7.562117004394531250e+01,3.135653114318847656e+01
1.999379992485046387e-01,1.000000000000000000e+00,7.327042102813720703e+00,-9.433915138244628906e+00,3.787265300750732422e+00,-2.076784362792968750e+02,-1.002258529663085938e+02,-1.802793273925781250e+02,4.030399620532989502e-01,-6.667101287841796875e+01,-1.826865997314453125e+02,-2.342316627502441406e+00,7.562102508544921875e+01,3.135642242431640625e+01
2.029159963130950928e-01,1.000000000000000000e+00,7.262308120727539062e+00,-9.379378318786621094e+00,3.796882152557373047e+00,-2.076184844970703125e+02,-1.001508407592773438e+02,-1.802128143310546875e+02,4.028751850128173828e-01,-6.667101287841796875e+01,-1.826865997314453125e+02,-2.342245101928710938e+00,7.562124633789062500e+01,3.135642242431640625e+01
2.092500030994415283e-01,1.000000000000000000e+00,7.262308120727539062e+00,-9.379378318786621094e+00,3.796882152557373047e+00,-2.076184844970703125e+02,-1.001508407592773438e+02,-1.802128143310546875e+02,4.028751850128173828e-01,-6.667101287841796875e+01,-1.826865997314453125e+02,-2.342245101928710938e+00,7.562124633789062500e+01,3.135642242431640625e+01
2.109529972076416016e-01,1.000000000000000000e+00,7.132437705993652344e+00,-9.270414352416992188e+00,3.815831184387207031e+00,-2.075001220703125000e+02,-1.000037384033203125e+02,-1.800815887451171875e+02,4.030399620532989502e-01,-6.667101287841796875e+01,-1.826865997314453125e+02,-2.342245101928710938e+00,7.562124633789062500e+01,3.135642242431640625e+01
2.174780070781707764e-01,1.000000000000000000e+00,7.132437705993652344e+00,-9.270414352416992188e+00,3.815831184387207031e+00,-2.075001220703125000e+02,-1.000037384033203125e+02,-1.800815887451171875e+02,4.030399620532989502e-01,-6.667101287841796875e+01,-1.826865997314453125e+02,-2.342245101928710938e+00,7.562124633789062500e+01,3.135642242431640625e+01
2.189420014619827271e-01,1.000000000000000000e+00,7.002884387969970703e+00,-9.161021232604980469e+00,3.834943294525146484e+00,-2.073821411132812500e+02,-9.985450744628906250e+01,-1.799491424560546875e+02,4.030399620532989502e-01,-6.667101287841796875e+01,-1.826865997314453125e+02,-2.342173099517822266e+00,7.562117004394531250e+01,3.135642242431640625e+01
2.239630073308944702e-01,1.000000000000000000e+00,7.002884387969970703e+00,-9.161021232604980469e+00,3.834943294525146484e+00,-2.073821411132812500e+02,-9.985450744628906250e+01,-1.799491424560546875e+02,4.030399620532989502e-01,-6.667101287841796875e+01,-1.826865997314453125e+02,-2.342173099517822266e+00,7.562117004394531250e+01,3.135642242431640625e+01
2.269140034914016724e-01,1.000000000000000000e+00,6.873100757598876953e+00,-9.051629066467285156e+00,3.853831291198730469e+00,-2.072629394531250000e+02,-9.970650482177734375e+01,-1.798162231445312500e+02,4.030399620532989502e-01,-6.667101287841796875e+01,-1.826865997314453125e+02,-2.342245101928710938e+00,7.562124633789062500e+01,3.135642242431640625e+01
2.319989949464797974e-01,1.000000000000000000e+00,6.873100757598876953e+00,-9.051629066467285156e+00,3.853831291198730469e+00,-2.072629394531250000e+02,-9.970650482177734375e+01,-1.798162231445312500e+02,4.030399620532989502e-01,-6.667101287841796875e+01,-1.826865997314453125e+02,-2.342245101928710938e+00,7.562124633789062500e+01,3.135642242431640625e+01
2.349759936332702637e-01,1.000000000000000000e+00,6.743575572967529297e+00,-8.942574501037597656e+00,3.872516632080078125e+00,-2.071438903808593750e+02,-9.955711364746093750e+01,-1.796843872070312500e+02,4.030399620532989502e-01,-6.667101287841796875e+01,-1.826865997314453125e+02,-2.342245101928710938e+00,7.562117004394531250e+01,3.135642242431640625e+01
2.399979978799819946e-01,1.000000000000000000e+00,6.743575572967529297e+00,-8.942574501037597656e+00,3.872516632080078125e+00,-2.071438903808593750e+02,-9.955711364746093750e+01,-1.796843872070312500e+02,4.030399620532989502e-01,-6.667101287841796875e+01,-1.826865997314453125e+02,-2.342245101928710938e+00,7.562117004394531250e+01,3.135642242431640625e+01
2.429500073194503784e-01,1.000000000000000000e+00,6.614423751831054688e+00,-8.833861351013183594e+00,3.891648769378662109e+00,-2.070248565673828125e+02,-9.940931701660156250e+01,-1.795521392822265625e+02,4.030399620532989502e-01,-6.667101287841796875e+01,-1.826865997314453125e+02,-2.342316627502441406e+00,7.562117004394531250e+01,3.135642242431640625e+01
2.479880005121231079e-01,1.000000000000000000e+00,6.614423751831054688e+00,-8.833861351013183594e+00,3.891648769378662109e+00,-2.070248565673828125e+02,-9.940931701660156250e+01,-1.795521392822265625e+02,4.030399620532989502e-01,-6.667101287841796875e+01,-1.826865997314453125e+02,-2.342316627502441406e+00,7.562117004394531250e+01,3.135642242431640625e+01
2.509680092334747314e-01,1.000000000000000000e+00,6.485444068908691406e+00,-8.725622177124023438e+00,3.910720109939575195e+00,-2.069066009521484375e+02,-9.926056671142578125e+01,-1.794199676513671875e+02,4.030399620532989502e-01,-6.667101287841796875e+01,-1.826865997314453125e+02,-2.342245101928710938e+00,7.562124633789062500e+01,3.135642242431640625e+01
2.560839951038360596e-01,1.000000000000000000e+00,6.485444068908691406e+00,-8.725622177124023438e+00,3.910720109939575195e+00,-2.069066009521484375e+02,-9.926056671142578125e+01,-1.794199676513671875e+02,4.030399620532989502e-01,-6.667101287841796875e+01,-1.826865997314453125e+02,-2.342245101928710938e+00,7.562124633789062500e+01,3.135642242431640625e+01
2.589530050754547119e-01,1.000000000000000000e+00,6.356751441955566406e+00,-8.617813110351562500e+00,3.929425001144409180e+00,-2.067877655029296875e+02,-9.911303710937500000e+01,-1.792875213623046875e+02,4.030399620532989502e-01,-6.667111206054687500e+01,-1.826865997314453125e+02,-2.342245101928710938e+00,7.562117004394531250e+01,3.135653114318847656e+01
2.639850080013275146e-01,1.000000000000000000e+00,6.356751441955566406e+00,-8.617813110351562500e+00,3.929425001144409180e+00,-2.067877655029296875e+02,-9.911303710937500000e+01,-1.792875213623046875e+02,4.030399620532989502e-01,-6.667111206054687500e+01,-1.826865997314453125e+02,-2.342245101928710938e+00,7.562117004394531250e+01,3.135653114318847656e+01
2.669709920883178711e-01,1.000000000000000000e+00,6.227771759033203125e+00,-8.509778022766113281e+00,3.948313474655151367e+00,-2.066690826416015625e+02,-9.896434020996093750e+01,-1.791561584472656250e+02,4.030399620532989502e-01,-6.667101287841796875e+01,-1.826867065429687500e+02,-2.342245101928710938e+00,7.562117004394531250e+01,3.135642242431640625e+01
2.719689905643463135e-01,1.000000000000000000e+00,6.227771759033203125e+00,-8.509778022766113281e+00,3.948313474655151367e+00,-2.066690826416015625e+02,-9.896434020996093750e+01,-1.791561584472656250e+02,4.030399620532989502e-01,-6.667101287841796875e+01,-1.826867065429687500e+02,-2.342245101928710938e+00,7.562117004394531250e+01,3.135642242431640625e+01
2.749339938163757324e-01,1.000000000000000000e+00,6.098533630371093750e+00,-8.401697158813476562e+00,3.967099905014038086e+00,-2.065504760742187500e+02,-9.881628417968750000e+01,-1.790246582031250000e+02,4.030399620532989502e-01,-6.667101287841796875e+01,-1.826865997314453125e+02,-2.342245101928710938e+00,7.562117004394531250e+01,3.135642242431640625e+01
2.799859941005706787e-01,1.000000000000000000e+00,6.098533630371093750e+00,-8.401697158813476562e+00,3.967099905014038086e+00,-2.065504760742187500e+02,-9.881628417968750000e+01,-1.790246582031250000e+02,4.030399620532989502e-01,-6.667101287841796875e+01,-1.826865997314453125e+02,-2.342245101928710938e+00,7.562117004394531250e+01,3.135642242431640625e+01
2.839210033416748047e-01,1.000000000000000000e+00,5.969237804412841797e+00,-8.293684959411621094e+00,3.985581398010253906e+00,-2.064316406250000000e+02,-9.866779327392578125e+01,-1.788926086425781250e+02,4.030399620532989502e-01,-6.667111206054687500e+01,-1.826865997314453125e+02,-2.342245101928710938e+00,7.562117004394531250e+01,3.135642242431640625e+01
2.869270145893096924e-01,1.000000000000000000e+00,5.904188632965087891e+00,-8.239734649658203125e+00,3.995076656341552734e+00,-2.063727416992187500e+02,-9.859384155273437500e+01,-1.788272552490234375e+02,4.030399620532989502e-01,-6.667101287841796875e+01,-1.826865997314453125e+02,-2.342173099517822266e+00,7.562102508544921875e+01,3.135642242431640625e+01
2.919709980487823486e-01,1.000000000000000000e+00,5.904188632965087891e+00,-8.239734649658203125e+00,3.995076656341552734e+00,-2.063727416992187500e+02,-9.859384155273437500e+01,-1.788272552490234375e+02,4.030399620532989502e-01,-6.667101287841796875e+01,-1.826865997314453125e+02,-2.342173099517822266e+00,7.562102508544921875e+01,3.135642242431640625e+01
2.959339916706085205e-01,1.000000000000000000e+00,5.773945331573486328e+00,-8.131495475769042969e+00,4.014249324798583984e+00,-2.062536010742187500e+02,-9.844653320312500000e+01,-1.786943206787109375e+02,4.030399620532989502e-01,-6.667101287841796875e+01,-1.826865997314453125e+02,-2.342245101928710938e+00,7.562124633789062500e+01,3.135642242431640625e+01
2.989139854907989502e-01,1.000000000000000000e+00,5.708924293518066406e+00,-8.077478408813476562e+00,4.023764610290527344e+00,-2.061941223144531250e+02,-9.837188720703125000e+01,-1.786293487548828125e+02,4.030399620532989502e-01,-6.667111206054687500e+01,-1.826865997314453125e+02,-2.342173099517822266e+00,7.562117004394531250e+01,3.135642242431640625e+01
3.040260076522827148e-01,1.000000000000000000e+00,5.708924293518066406e+00,-8.077478408813476562e+00,4.023764610290527344e+00,-2.061941223144531250e+02,-9.837188720703125000e+01,-1.786293487548828125e+02,4.030399620532989502e-01,-6.667111206054687500e+01,-1.826865997314453125e+02,-2.342173099517822266e+00,7.562117004394531250e+01,3.135642242431640625e+01
3.069869875907897949e-01,1.000000000000000000e+00,5.579169750213623047e+00,-7.969036102294921875e+00,4.042428970336914062e+00,-2.060758209228515625e+02,-9.822451782226562500e+01,-1.784969787597656250e+02,4.030399620532989502e-01,-6.667101287841796875e+01,-1.826865997314453125e+02,-2.342245101928710938e+00,7.562117004394531250e+01,3.135642242431640625e+01
3.119660019874572754e-01,1.000000000000000000e+00,5.579169750213623047e+00,-7.969036102294921875e+00,4.042428970336914062e+00,-2.060758209228515625e+02,-9.822451782226562500e+01,-1.784969787597656250e+02,4.030399620532989502e-01,-6.667101287841796875e+01,-1.826865997314453125e+02,-2.342245101928710938e+00,7.562117004394531250e+01,3.135642242431640625e+01
3.149439990520477295e-01,1.000000000000000000e+00,5.449041843414306641e+00,-7.860548019409179688e+00,4.061500549316406250e+00,-2.059575653076171875e+02,-9.807646179199218750e+01,-1.783644561767578125e+02,4.028751850128173828e-01,-6.667101287841796875e+01,-1.826865997314453125e+02,-2.342245101928710938e+00,7.562117004394531250e+01,3.135642242431640625e+01
3.199670016765594482e-01,1.000000000000000000e+00,5.449041843414306641e+00,-7.860548019409179688e+00,4.061500549316406250e+00,-2.059575653076171875e+02,-9.807646179199218750e+01,-1.783644561767578125e+02,4.028751850128173828e-01,-6.667101287841796875e+01,-1.826865997314453125e+02,-2.342245101928710938e+00,7.562117004394531250e+01,3.135642242431640625e+01
3.249860107898712158e-01,1.000000000000000000e+00,5.318799018859863281e+00,-7.751630306243896484e+00,4.080633163452148438e+00,-2.058386840820312500e+02,-9.792840576171875000e+01,-1.782339782714843750e+02,4.030399620532989502e-01,-6.667101287841796875e+01,-1.826867065429687500e+02,-2.342173099517822266e+00,7.562124633789062500e+01,3.135642242431640625e+01
3.278880119323730469e-01,1.000000000000000000e+00,5.253748893737792969e+00,-7.697046756744384766e+00,4.089904308319091797e+00,-2.057792205810546875e+02,-9.785445404052734375e+01,-1.781675262451171875e+02,4.030399620532989502e-01,-6.667101287841796875e+01,-1.826865997314453125e+02,-2.342245101928710938e+00,7.562117004394531250e+01,3.135642242431640625e+01
3.329530060291290283e-01,1.000000000000000000e+00,5.253748893737792969e+00,-7.697046756744384766e+00,4.089904308319091797e+00,-2.057792205810546875e+02,-9.785445404052734375e+01,-1.781675262451171875e+02,4.030399620532989502e-01,-6.667101287841796875e+01,-1.826865997314453125e+02,-2.342245101928710938e+00,7.562117004394531250e+01,3.135642242431640625e+01
3.356069922447204590e-01,1.000000000000000000e+00,5.123363018035888672e+00,-7.587472915649414062e+00,4.109056949615478516e+00,-2.056610717773437500e+02,-9.770687866210937500e+01,-1.780361022949218750e+02,4.030399620532989502e-01,-6.667101287841796875e+01,-1.826865997314453125e+02,-2.342245101928710938e+00,7.562117004394531250e+01,3.135642242431640625e+01
3.400259912014007568e-01,1.000000000000000000e+00,5.123363018035888672e+00,-7.587472915649414062e+00,4.109056949615478516e+00,-2.056610717773437500e+02,-9.770687866210937500e+01,-1.780361022949218750e+02,4.030399620532989502e-01,-6.667101287841796875e+01,-1.826865997314453125e+02,-2.342245101928710938e+00,7.562117004394531250e+01,3.135642242431640625e+01
3.449189960956573486e-01,1.000000000000000000e+00,5.058198451995849609e+00,-7.532889366149902344e+00,4.118917465209960938e+00,-2.056012268066406250e+02,-9.763324737548828125e+01,-1.779699859619140625e+02,4.030399620532989502e-01,-6.667101287841796875e+01,-1.826865997314453125e+02,-2.342245101928710938e+00,7.562117004394531250e+01,3.135642242431640625e+01
3.476769924163818359e-01,1.000000000000000000e+00,4.927927017211914062e+00,-7.424062252044677734e+00,4.138273239135742188e+00,-2.054829711914062500e+02,-9.748481750488281250e+01,-1.778392944335937500e+02,4.030399620532989502e-01,-6.667101287841796875e+01,-1.826865997314453125e+02,-2.342245101928710938e+00,7.562117004394531250e+01,3.135642242431640625e+01
3.520390093326568604e-01,1.000000000000000000e+00,4.927927017211914062e+00,-7.424062252044677734e+00,4.138273239135742188e+00,-2.054829711914062500e+02,-9.748481750488281250e+01,-1.778392944335937500e+02,4.030399620532989502e-01,-6.667101287841796875e+01,-1.826865997314453125e+02,-2.342245101928710938e+00,7.562117004394531250e+01,3.135642242431640625e+01
3.559310138225555420e-01,1.000000000000000000e+00,4.862992286682128906e+00,-7.369478702545166016e+00,4.147605419158935547e+00,-2.054232940673828125e+02,-9.741166687011718750e+01,-1.777734375000000000e+02,4.030399620532989502e-01,-6.667101287841796875e+01,-1.826865997314453125e+02,-2.342245101928710938e+00,7.562117004394531250e+01,3.135642242431640625e+01
3.599820137023925781e-01,1.000000000000000000e+00,4.798315525054931641e+00,-7.314895153045654297e+00,4.157161712646484375e+00,-2.053641510009765625e+02,-9.733814239501953125e+01,-1.777075958251953125e+02,4.030399620532989502e-01,-6.667101287841796875e+01,-1.826865997314453125e+02,-2.342245101928710938e+00,7.562124633789062500e+01,3.135642242431640625e+01
3.629890084266662598e-01,1.000000000000000000e+00,4.733610630035400391e+00,-7.260538101196289062e+00,4.166758060455322266e+00,-2.053045196533203125e+02,-9.726376342773437500e+01,-1.776413421630859375e+02,4.030399620532989502e-01,-6.667101287841796875e+01,-1.826865997314453125e+02,-2.342245101928710938e+00,7.562117004394531250e+01,3.135642242431640625e+01
3.673509955406188965e-01,1.000000000000000000e+00,4.669163703918457031e+00,-7.206158638000488281e+00,4.176273345947265625e+00,-2.052453155517578125e+02,-9.718939208984375000e+01,-1.775757598876953125e+02,4.030399620532989502e-01,-6.667101287841796875e+01,-1.826865997314453125e+02,-2.342173099517822266e+00,7.562117004394531250e+01,3.135653114318847656e+01
3.709680140018463135e-01,1.000000000000000000e+00,4.604630470275878906e+00,-7.152027606964111328e+00,4.185748100280761719e+00,-2.051859436035156250e+02,-9.711555480957031250e+01,-1.775100402832031250e+02,4.030399620532989502e-01,-6.667101287841796875e+01,-1.826865997314453125e+02,-2.342173099517822266e+00,7.562117004394531250e+01,3.135642242431640625e+01
3.759439885616302490e-01,1.000000000000000000e+00,4.539954185485839844e+00,-7.097965240478515625e+00,4.195141315460205078e+00,-2.051266937255859375e+02,-9.704187011718750000e+01,-1.774436492919921875e+02,4.030399620532989502e-01,-6.667101287841796875e+01,-1.826867065429687500e+02,-2.342245101928710938e+00,7.562117004394531250e+01,3.135642242431640625e+01
3.799729943275451660e-01,1.000000000000000000e+00,4.475593566894531250e+00,-7.043630599975585938e+00,4.204351425170898438e+00,-2.050675354003906250e+02,-9.696738433837890625e+01,-1.773780670166015625e+02,4.030399620532989502e-01,-6.667111206054687500e+01,-1.826865997314453125e+02,-2.342245101928710938e+00,7.562117004394531250e+01,3.135642242431640625e+01
3.839969933032989502e-01,1.000000000000000000e+00,4.411118030548095703e+00,-6.989137649536132812e+00,4.213968276977539062e+00,-2.050077514648437500e+02,-9.689348602294921875e+01,-1.773123474121093750e+02,4.030399620532989502e-01,-6.667101287841796875e+01,-1.826865997314453125e+02,-2.342245101928710938e+00,7.562124633789062500e+01,3.135642242431640625e+01
3.879559934139251709e-01,1.000000000000000000e+00,4.346528053283691406e+00,-6.934712886810302734e+00,4.223524570465087891e+00,-2.049489135742187500e+02,-9.681953430175781250e+01,-1.772457580566406250e+02,4.030399620532989502e-01,-6.667101287841796875e+01,-1.826865997314453125e+02,-2.342173099517822266e+00,7.562102508544921875e+01,3.135642242431640625e+01
3.909569978713989258e-01,1.000000000000000000e+00,4.281937599182128906e+00,-6.880650043487548828e+00,4.233100891113281250e+00,-2.048895416259765625e+02,-9.674579620361328125e+01,-1.771804504394531250e+02,4.030399620532989502e-01,-6.667101287841796875e+01,-1.826865997314453125e+02,-2.342245101928710938e+00,7.562117004394531250e+01,3.135619926452636719e+01
3.950499892234802246e-01,1.000000000000000000e+00,4.217289447784423828e+00,-6.826473712921142578e+00,4.242718219757080078e+00,-2.048304443359375000e+02,-9.667126464843750000e+01,-1.771141967773437500e+02,4.030399620532989502e-01,-6.667111206054687500e+01,-1.826865997314453125e+02,-2.342316627502441406e+00,7.562117004394531250e+01,3.135642242431640625e+01
3.997699916362762451e-01,1.000000000000000000e+00,4.152756690979003906e+00,-6.772433757781982422e+00,4.252151966094970703e+00,-2.047709808349609375e+02,-9.659763336181640625e+01,-1.770480041503906250e+02,4.030399620532989502e-01,-6.667101287841796875e+01,-1.826865997314453125e+02,-2.342316627502441406e+00,7.562124633789062500e+01,3.135642242431640625e+01
4.039930105209350586e-01,1.000000000000000000e+00,4.088338851928710938e+00,-6.718393325805664062e+00,4.261484146118164062e+00,-2.047115020751953125e+02,-9.652405548095703125e+01,-1.769828948974609375e+02,4.030399620532989502e-01,-6.667101287841796875e+01,-1.826865997314453125e+02,-2.342245101928710938e+00,7.562117004394531250e+01,3.135642242431640625e+01
4.078159928321838379e-01,1.000000000000000000e+00,4.023662567138671875e+00,-6.664081573486328125e+00,4.270897865295410156e+00,-2.046527862548828125e+02,-9.645005798339843750e+01,-1.769165802001953125e+02,4.030399620532989502e-01,-6.667101287841796875e+01,-1.826865997314453125e+02,-2.342245101928710938e+00,7.562117004394531250e+01,3.135642242431640625e+01
4.119539856910705566e-01,1.000000000000000000e+00,3.958899736404418945e+00,-6.609905242919921875e+00,4.280474185943603516e+00,-2.045932464599609375e+02,-9.637557220458984375e+01,-1.768506622314453125e+02,4.030399620532989502e-01,-6.667101287841796875e+01,-1.826865997314453125e+02,-2.342316627502441406e+00,7.562117004394531250e+01,3.135642242431640625e+01
4.159820079803466797e-01,1.000000000000000000e+00,3.894079685211181641e+00,-6.555661678314208984e+00,4.290070533752441406e+00,-2.045340118408203125e+02,-9.630156707763671875e+01,-1.767856903076171875e+02,4.030399620532989502e-01,-6.667101287841796875e+01,-1.826865997314453125e+02,-2.342316627502441406e+00,7.562124633789062500e+01,3.135642242431640625e+01
4.192250072956085205e-01,1.000000000000000000e+00,3.829518079757690430e+00,-6.501575946807861328e+00,4.299585819244384766e+00,-2.044744720458984375e+02,-9.622826385498046875e+01,-1.767193603515625000e+02,4.030399620532989502e-01,-6.667101287841796875e+01,-1.826865997314453125e+02,-2.342316627502441406e+00,7.562124633789062500e+01,3.135619926452636719e+01
4.239870011806488037e-01,1.000000000000000000e+00,3.764697790145874023e+00,-6.447468280792236328e+00,4.308979034423828125e+00,-2.044153289794921875e+02,-9.615404510498046875e+01,-1.766537170410156250e+02,4.030399620532989502e-01,-6.667101287841796875e+01,-1.826865997314453125e+02,-2.342173099517822266e+00,7.562117004394531250e+01,3.135642242431640625e+01
4.279600083827972412e-01,1.000000000000000000e+00,3.699964284896850586e+00,-6.393314361572265625e+00,4.318270683288574219e+00,-2.043565368652343750e+02,-9.607950592041015625e+01,-1.765882720947265625e+02,4.030399620532989502e-01,-6.667101287841796875e+01,-1.826865997314453125e+02,-2.342316627502441406e+00,7.562117004394531250e+01,3.135642242431640625e+01
4.320150017738342285e-01,1.000000000000000000e+00,3.635402441024780273e+00,-6.339047908782958984e+00,4.327948570251464844e+00,-2.042971191406250000e+02,-9.600534820556640625e+01,-1.765217437744140625e+02,4.030399620532989502e-01,-6.667101287841796875e+01,-1.826865997314453125e+02,-2.342245101928710938e+00,7.562117004394531250e+01,3.135642242431640625e+01
4.351960122585296631e-01,1.000000000000000000e+00,3.570324182510375977e+00,-6.284668445587158203e+00,4.337606430053710938e+00,-2.042381744384765625e+02,-9.593230438232421875e+01,-1.764562377929687500e+02,4.030399620532989502e-01,-6.667101287841796875e+01,-1.826865997314453125e+02,-2.342245101928710938e+00,7.562117004394531250e+01,3.135642242431640625e+01
4.392139911651611328e-01,1.000000000000000000e+00,3.505303382873535156e+00,-6.230220794677734375e+00,4.347284317016601562e+00,-2.041784057617187500e+02,-9.585829925537109375e+01,-1.763908538818359375e+02,4.030399620532989502e-01,-6.667101287841796875e+01,-1.826865997314453125e+02,-2.342173099517822266e+00,7.562102508544921875e+01,3.135642242431640625e+01
4.432939887046813965e-01,1.000000000000000000e+00,3.440339565277099609e+00,-6.175750255584716797e+00,4.356880664825439453e+00,-2.041194000244140625e+02,-9.578392028808593750e+01,-1.763243255615234375e+02,4.030399620532989502e-01,-6.667101287841796875e+01,-1.826865997314453125e+02,-2.342245101928710938e+00,7.562102508544921875e+01,3.135642242431640625e+01
4.482379853725433350e-01,1.000000000000000000e+00,3.375347614288330078e+00,-6.121212005615234375e+00,4.366314888000488281e+00,-2.040606231689453125e+02,-9.570981597900390625e+01,-1.762590179443359375e+02,4.030399620532989502e-01,-6.667101287841796875e+01,-1.826865997314453125e+02,-2.342245101928710938e+00,7.562102508544921875e+01,3.135642242431640625e+01
4.512810111045837402e-01,1.000000000000000000e+00,3.310269117355346680e+00,-6.066764831542968750e+00,4.375728130340576172e+00,-2.040013122558593750e+02,-9.563618469238281250e+01,-1.761929626464843750e+02,4.030399620532989502e-01,-6.667111206054687500e+01,-1.826865997314453125e+02,-2.342245101928710938e+00,7.562117004394531250e+01,3.135642242431640625e+01
4.561330080032348633e-01,1.000000000000000000e+00,3.245133399963378906e+00,-6.012317180633544922e+00,4.385202884674072266e+00,-2.039426727294921875e+02,-9.556266021728515625e+01,-1.761270446777343750e+02,4.030399620532989502e-01,-6.667101287841796875e+01,-1.826865997314453125e+02,-2.342245101928710938e+00,7.562117004394531250e+01,3.135642242431640625e+01
4.594269990921020508e-01,1.000000000000000000e+00,3.179969072341918945e+00,-5.957756519317626953e+00,4.394718170166015625e+00,-2.038827362060546875e+02,-9.548796844482421875e+01,-1.760617523193359375e+02,4.030399620532989502e-01,-6.667101287841796875e+01,-1.826865997314453125e+02,-2.342245101928710938e+00,7.562102508544921875e+01,3.135642242431640625e+01
4.639880061149597168e-01,1.000000000000000000e+00,3.114775657653808594e+00,-5.903308868408203125e+00,4.404335498809814453e+00,-2.038238372802734375e+02,-9.541407012939453125e+01,-1.759957580566406250e+02,4.030399620532989502e-01,-6.667111206054687500e+01,-1.826865997314453125e+02,-2.342245101928710938e+00,7.562117004394531250e+01,3.135642242431640625e+01
4.679780006408691406e-01,1.000000000000000000e+00,3.049525260925292969e+00,-5.848884105682373047e+00,4.413871288299560547e+00,-2.037649536132812500e+02,-9.534033203125000000e+01,-1.759293670654296875e+02,4.030399620532989502e-01,-6.667101287841796875e+01,-1.826865997314453125e+02,-2.342316627502441406e+00,7.562117004394531250e+01,3.135653114318847656e+01
4.714719951152801514e-01,1.000000000000000000e+00,2.984446763992309570e+00,-5.794413566589355469e+00,4.423285007476806641e+00,-2.037054290771484375e+02,-9.526675415039062500e+01,-1.758641967773437500e+02,4.030399620532989502e-01,-6.667101287841796875e+01,-1.826865997314453125e+02,-2.342173099517822266e+00,7.562124633789062500e+01,3.135642242431640625e+01
4.756760001182556152e-01,1.000000000000000000e+00,2.919540643692016602e+00,-5.740011215209960938e+00,4.432759284973144531e+00,-2.036465454101562500e+02,-9.519206237792968750e+01,-1.757983551025390625e+02,4.030399620532989502e-01,-6.667111206054687500e+01,-1.826865997314453125e+02,-2.342245101928710938e+00,7.562117004394531250e+01,3.135642242431640625e+01
4.802930057048797607e-01,1.000000000000000000e+00,2.854663372039794922e+00,-5.685767650604248047e+00,4.442518711090087891e+00,-2.035868072509765625e+02,-9.511821746826171875e+01,-1.757326202392578125e+02,4.030399620532989502e-01,-6.667111206054687500e+01,-1.826865997314453125e+02,-2.342316627502441406e+00,7.562117004394531250e+01,3.135642242431640625e+01
4.835230112075805664e-01,1.000000000000000000e+00,2.789843320846557617e+00,-5.631614208221435547e+00,4.452237129211425781e+00,-2.035279235839843750e+02,-9.504453277587890625e+01,-1.756676635742187500e+02,4.030399620532989502e-01,-6.667101287841796875e+01,-1.826864318847656250e+02,-2.342316627502441406e+00,7.562117004394531250e+01,3.135653114318847656e+01
4.879580140113830566e-01,1.000000000000000000e+00,2.725051879882812500e+00,-5.577143669128417969e+00,4.461894512176513672e+00,-2.034689941406250000e+02,-9.497106170654296875e+01,-1.756013336181640625e+02,4.030399620532989502e-01,-6.667101287841796875e+01,-1.826865997314453125e+02,-2.342245101928710938e+00,7.562102508544921875e+01,3.135642242431640625e+01
4.919619858264923096e-01,1.000000000000000000e+00,2.660059928894042969e+00,-5.522741794586181641e+00,4.471430301666259766e+00,-2.034097900390625000e+02,-9.489669036865234375e+01,-1.755354766845703125e+02,4.030399620532989502e-01,-6.667101287841796875e+01,-1.826865997314453125e+02,-2.342245101928710938e+00,7.562117004394531250e+01,3.135642242431640625e+01
4.956859946250915527e-01,1.000000000000000000e+00,2.595182418823242188e+00,-5.468248844146728516e+00,4.480803012847900391e+00,-2.033505706787109375e+02,-9.482321929931640625e+01,-1.754700317382812500e+02,4.030399620532989502e-01,-6.667101287841796875e+01,-1.826865997314453125e+02,-2.342316627502441406e+00,7.562124633789062500e+01,3.135642242431640625e+01
4.996530115604400635e-01,1.000000000000000000e+00,2.530390977859497070e+00,-5.414027214050292969e+00,4.490237236022949219e+00,-2.032908477783203125e+02,-9.474927520751953125e+01,-1.754032287597656250e+02,4.030399620532989502e-01,-6.667111206054687500e+01,-1.826865997314453125e+02,-2.342245101928710938e+00,7.562102508544921875e+01,3.135642242431640625e+01
5.044779777526855469e-01,1.000000000000000000e+00,2.465685844421386719e+00,-5.359828948974609375e+00,4.499833583831787109e+00,-2.032322082519531250e+02,-9.467591094970703125e+01,-1.753381958007812500e+02,4.030399620532989502e-01,-6.667101287841796875e+01,-1.826865997314453125e+02,-2.342245101928710938e+00,7.562117004394531250e+01,3.135619926452636719e+01
5.079590082168579102e-01,1.000000000000000000e+00,2.401153087615966797e+00,-5.305403709411621094e+00,4.509287834167480469e+00,-2.031728057861328125e+02,-9.460121154785156250e+01,-1.752726898193359375e+02,4.030399620532989502e-01,-6.667101287841796875e+01,-1.826865997314453125e+02,-2.342245101928710938e+00,7.562117004394531250e+01,3.135642242431640625e+01
5.119559764862060547e-01,1.000000000000000000e+00,2.336361646652221680e+00,-5.251386165618896484e+00,4.518620491027832031e+00,-2.031135406494140625e+02,-9.452795410156250000e+01,-1.752057647705078125e+02,4.030399620532989502e-01,-6.667101287841796875e+01,-1.826865997314453125e+02,-2.342245101928710938e+00,7.562117004394531250e+01,3.135642242431640625e+01
5.159490108489990234e-01,1.000000000000000000e+00,2.271800041198730469e+00,-5.197074413299560547e+00,4.527912139892578125e+00,-2.030545959472656250e+02,-9.445368194580078125e+01,-1.751405944824218750e+02,4.030399620532989502e-01,-6.667101287841796875e+01,-1.826865997314453125e+02,-2.342316627502441406e+00,7.562117004394531250e+01,3.135642242431640625e+01
5.200110077857971191e-01,1.000000000000000000e+00,2.207123517990112305e+00,-5.142898082733154297e+00,4.537223815917968750e+00,-2.029952850341796875e+02,-9.437978363037109375e+01,-1.750742645263671875e+02,4.030399620532989502e-01,-6.667101287841796875e+01,-1.826865997314453125e+02,-2.342245101928710938e+00,7.562124633789062500e+01,3.135642242431640625e+01
5.240859985351562500e-01,1.000000000000000000e+00,2.142275094985961914e+00,-5.088722229003906250e+00,4.546678066253662109e+00,-2.029364471435546875e+02,-9.430578613281250000e+01,-1.750080718994140625e+02,4.030399620532989502e-01,-6.667101287841796875e+01,-1.826865997314453125e+02,-2.342173099517822266e+00,7.562117004394531250e+01,3.135642242431640625e+01
5.288109779357910156e-01,1.000000000000000000e+00,2.077655792236328125e+00,-5.034636497497558594e+00,4.556335926055908203e+00,-2.028770294189453125e+02,-9.423268890380859375e+01,-1.749430236816406250e+02,4.030399620532989502e-01,-6.667101287841796875e+01,-1.826864318847656250e+02,-2.342245101928710938e+00,7.562117004394531250e+01,3.135642242431640625e+01
5.320230126380920410e-01,1.000000000000000000e+00,2.012950658798217773e+00,-4.980687141418457031e+00,4.565851211547851562e+00,-2.028177185058593750e+02,-9.415933227539062500e+01,-1.748770446777343750e+02,4.030399620532989502e-01,-6.667101287841796875e+01,-1.826865997314453125e+02,-2.342316627502441406e+00,7.562117004394531250e+01,3.135642242431640625e+01
5.360280275344848633e-01,1.000000000000000000e+00,1.948130726814270020e+00,-4.926488399505615234e+00,4.575468063354492188e+00,-2.027584228515625000e+02,-9.408511352539062500e+01,-1.748105926513671875e+02,4.030399620532989502e-01,-6.667101287841796875e+01,-1.826865997314453125e+02,-2.342245101928710938e+00,7.562117004394531250e+01,3.135642242431640625e+01
5.402079820632934570e-01,1.000000000000000000e+00,1.883368134498596191e+00,-4.872516155242919922e+00,4.584901809692382812e+00,-2.026992034912109375e+02,-9.401084136962890625e+01,-1.747452850341796875e+02,4.030399620532989502e-01,-6.667101287841796875e+01,-1.826865997314453125e+02,-2.342245101928710938e+00,7.562117004394531250e+01,3.135642242431640625e+01
5.440940260887145996e-01,1.000000000000000000e+00,1.818777799606323242e+00,-4.818385124206542969e+00,4.594193458557128906e+00,-2.026402740478515625e+02,-9.393779754638671875e+01,-1.746787567138671875e+02,4.030399620532989502e-01,-6.667101287841796875e+01,-1.826865997314453125e+02,-2.342245101928710938e+00,7.562102508544921875e+01,3.135642242431640625e+01
5.481029748916625977e-01,1.000000000000000000e+00,1.754302263259887695e+00,-4.764163970947265625e+00,4.603607177734375000e+00,-2.025810089111328125e+02,-9.386448669433593750e+01,-1.746137847900390625e+02,4.030399620532989502e-01,-6.667101287841796875e+01,-1.826864318847656250e+02,-2.342245101928710938e+00,7.562117004394531250e+01,3.135642242431640625e+01
5.528860092163085938e-01,1.000000000000000000e+00,1.689568400382995605e+00,-4.709829330444335938e+00,4.613244533538818359e+00,-2.025220642089843750e+02,-9.379048156738281250e+01,-1.745484161376953125e+02,4.030399620532989502e-01,-6.667101287841796875e+01,-1.826864318847656250e+02,-2.342316627502441406e+00,7.562117004394531250e+01,3.135619926452636719e+01
5.561580061912536621e-01,1.000000000000000000e+00,1.624748468399047852e+00,-4.655426979064941406e+00,4.622841358184814453e+00,-2.024625396728515625e+02,-9.371621704101562500e+01,-1.744822998046875000e+02,4.030399620532989502e-01,-6.667101287841796875e+01,-1.826865997314453125e+02,-2.342245101928710938e+00,7.562102508544921875e+01,3.135642242431640625e+01
5.604050159454345703e-01,1.000000000000000000e+00,1.559985876083374023e+00,-4.601161003112792969e+00,4.632295608520507812e+00,-2.024034881591796875e+02,-9.364237213134765625e+01,-1.744165802001953125e+02,4.031498432159423828e-01,-6.667101287841796875e+01,-1.826865997314453125e+02,-2.342173099517822266e+00,7.562117004394531250e+01,3.135642242431640625e+01
5.639920234680175781e-01,1.000000000000000000e+00,1.495137214660644531e+00,-4.546781063079833984e+00,4.641668319702148438e+00,-2.023443908691406250e+02,-9.356868743896484375e+01,-1.743504638671875000e+02,4.030399620532989502e-01,-6.667101287841796875e+01,-1.826865997314453125e+02,-2.342245101928710938e+00,7.562124633789062500e+01,3.135642242431640625e+01
5.669090151786804199e-01,1.000000000000000000e+00,1.430460691452026367e+00,-4.492582321166992188e+00,4.650959968566894531e+00,-2.022850341796875000e+02,-9.349473571777343750e+01,-1.742838592529296875e+02,4.030399620532989502e-01,-6.667111206054687500e+01,-1.826865997314453125e+02,-2.342245101928710938e+00,7.562117004394531250e+01,3.135642242431640625e+01
5.723729729652404785e-01,1.000000000000000000e+00,1.365669488906860352e+00,-4.438225269317626953e+00,4.660577297210693359e+00,-2.022261352539062500e+02,-9.342068481445312500e+01,-1.742189636230468750e+02,4.030399620532989502e-01,-6.667101287841796875e+01,-1.826867065429687500e+02,-2.342245101928710938e+00,7.562117004394531250e+01,3.135642242431640625e+01
5.749279856681823730e-01,1.000000000000000000e+00,1.300878167152404785e+00,-4.383709907531738281e+00,4.670336246490478516e+00,-2.021665191650390625e+02,-9.334684753417968750e+01,-1.741530303955078125e+02,4.030399620532989502e-01,-6.667101287841796875e+01,-1.826865997314453125e+02,-2.342316627502441406e+00,7.562124633789062500e+01,3.135642242431640625e+01
5.804129838943481445e-01,1.000000000000000000e+00,1.236029505729675293e+00,-4.329329967498779297e+00,4.679953098297119141e+00,-2.021074523925781250e+02,-9.327316284179687500e+01,-1.740870513916015625e+02,4.030399620532989502e-01,-6.667101287841796875e+01,-1.826865997314453125e+02,-2.342245101928710938e+00,7.562124633789062500e+01,3.135653114318847656e+01
5.829769968986511230e-01,1.000000000000000000e+00,1.171123385429382324e+00,-4.275108814239501953e+00,4.689427852630615234e+00,-2.020488433837890625e+02,-9.319915771484375000e+01,-1.740217437744140625e+02,4.030399620532989502e-01,-6.667101287841796875e+01,-1.826865997314453125e+02,-2.342245101928710938e+00,7.562117004394531250e+01,3.135619926452636719e+01
5.869039893150329590e-01,1.000000000000000000e+00,1.106217265129089355e+00,-4.220819473266601562e+00,4.698841571807861328e+00,-2.019890441894531250e+02,-9.312493896484375000e+01,-1.739554138183593750e+02,4.030399620532989502e-01,-6.667101287841796875e+01,-1.826865997314453125e+02,-2.342245101928710938e+00,7.562117004394531250e+01,3.135642242431640625e+01
5.909140110015869141e-01,1.000000000000000000e+00,1.041483402252197266e+00,-4.166643619537353516e+00,4.708133220672607422e+00,-2.019300689697265625e+02,-9.305194854736328125e+01,-1.738895721435546875e+02,4.030399620532989502e-01,-6.667111206054687500e+01,-1.826865997314453125e+02,-2.342245101928710938e+00,7.562124633789062500e+01,3.135642242431640625e+01
5.963630080223083496e-01,1.000000000000000000e+00,9.767782092094421387e-01,-4.112082958221435547e+00,4.717689037322998047e+00,-2.018705291748046875e+02,-9.297799682617187500e+01,-1.738248748779296875e+02,4.030399620532989502e-01,-6.667101287841796875e+01,-1.826865997314453125e+02,-2.342245101928710938e+00,7.562117004394531250e+01,3.135642242431640625e+01
5.989009737968444824e-01,1.000000000000000000e+00,9.119008183479309082e-01,-4.057635307312011719e+00,4.727326393127441406e+00,-2.018116455078125000e+02,-9.290415954589843750e+01,-1.737588195800781250e+02,4.030399620532989502e-01,-6.667101287841796875e+01,-1.826865997314453125e+02,-2.342245101928710938e+00,7.562102508544921875e+01,3.135642242431640625e+01
6.029909849166870117e-01,1.000000000000000000e+00,8.472817540168762207e-01,-4.003210067749023438e+00,4.736902713775634766e+00,-2.017523803710937500e+02,-9.282935333251953125e+01,-1.736929626464843750e+02,4.028751850128173828e-01,-6.667101287841796875e+01,-1.826867065429687500e+02,-2.342245101928710938e+00,7.562117004394531250e+01,3.135653114318847656e+01
6.070150136947631836e-01,1.000000000000000000e+00,7.822895646095275879e-01,-3.948694705963134766e+00,4.746376991271972656e+00,-2.016930847167968750e+02,-9.275610351562500000e+01,-1.736280059814453125e+02,4.030399620532989502e-01,-6.667101287841796875e+01,-1.826865997314453125e+02,-2.342245101928710938e+00,7.562117004394531250e+01,3.135642242431640625e+01
6.109899878501892090e-01,1.000000000000000000e+00,7.177278995513916016e-01,-3.894337892532348633e+00,4.755607604980468750e+00,-2.016341400146484375e+02,-9.268209838867187500e+01,-1.735616760253906250e+02,4.030399620532989502e-01,-6.667101287841796875e+01,-1.826865997314453125e+02,-2.342245101928710938e+00,7.562117004394531250e+01,3.135653114318847656e+01
6.149190068244934082e-01,1.000000000000000000e+00,6.529653668403625488e-01,-3.839844942092895508e+00,4.764960289001464844e+00,-2.015747222900390625e+02,-9.260777282714843750e+01,-1.734963073730468750e+02,4.030399620532989502e-01,-6.667101287841796875e+01,-1.826865997314453125e+02,-2.342316627502441406e+00,7.562124633789062500e+01,3.135642242431640625e+01
6.208490133285522461e-01,1.000000000000000000e+00,5.884898304939270020e-01,-3.785645961761474609e+00,4.774658679962158203e+00,-2.015156707763671875e+02,-9.253329467773437500e+01,-1.734311981201171875e+02,4.030399620532989502e-01,-6.667101287841796875e+01,-1.826867065429687500e+02,-2.342245101928710938e+00,7.562117004394531250e+01,3.135642242431640625e+01
6.254709959030151367e-01,1.000000000000000000e+00,5.239569544792175293e-01,-3.731244087219238281e+00,4.784377098083496094e+00,-2.014568786621093750e+02,-9.246002960205078125e+01,-1.733651428222656250e+02,4.030399620532989502e-01,-6.667101287841796875e+01,-1.826865997314453125e+02,-2.342245101928710938e+00,7.562124633789062500e+01,3.135642242431640625e+01
6.288080215454101562e-01,1.000000000000000000e+00,4.591943621635437012e-01,-3.676954746246337891e+00,4.793993949890136719e+00,-2.013976745605468750e+02,-9.238645935058593750e+01,-1.732997741699218750e+02,4.030399620532989502e-01,-6.667101287841796875e+01,-1.826865997314453125e+02,-2.342245101928710938e+00,7.562117004394531250e+01,3.135642242431640625e+01
6.326310038566589355e-01,1.000000000000000000e+00,3.946327269077301025e-01,-3.622801065444946289e+00,4.803509235382080078e+00,-2.013384246826171875e+02,-9.231224060058593750e+01,-1.732337799072265625e+02,4.030399620532989502e-01,-6.667101287841796875e+01,-1.826865997314453125e+02,-2.342245101928710938e+00,7.562117004394531250e+01,3.135642242431640625e+01
6.369389891624450684e-01,1.000000000000000000e+00,3.300997912883758545e-01,-3.568580150604248047e+00,4.812800884246826172e+00,-2.012787322998046875e+02,-9.223796844482421875e+01,-1.731673889160156250e+02,4.030399620532989502e-01,-6.667111206054687500e+01,-1.826865997314453125e+02,-2.342173099517822266e+00,7.562117004394531250e+01,3.135642242431640625e+01
6.416620016098022461e-01,1.000000000000000000e+00,2.652797996997833252e-01,-3.514426708221435547e+00,4.822194099426269531e+00,-2.012201690673828125e+02,-9.216445159912109375e+01,-1.731023559570312500e+02,4.031498432159423828e-01,-6.667111206054687500e+01,-1.826865997314453125e+02,-2.342173099517822266e+00,7.562117004394531250e+01,3.135642242431640625e+01
6.447849869728088379e-01,1.000000000000000000e+00,2.005746364593505859e-01,-3.460250616073608398e+00,4.831750392913818359e+00,-2.011610717773437500e+02,-9.209119415283203125e+01,-1.730367126464843750e+02,4.030399620532989502e-01,-6.667111206054687500e+01,-1.826865997314453125e+02,-2.342245101928710938e+00,7.562117004394531250e+01,3.135642242431640625e+01
6.496880054473876953e-01,1.000000000000000000e+00,1.358120739459991455e-01,-3.406210184097290039e+00,4.841245174407958984e+00,-2.011017608642578125e+02,-9.201686859130859375e+01,-1.729704437255859375e+02,4.030399620532989502e-01,-6.667101287841796875e+01,-1.826865997314453125e+02,-2.342245101928710938e+00,7.562117004394531250e+01,3.135642242431640625e+01
6.529669761657714844e-01,1.000000000000000000e+00,7.099208235740661621e-02,-3.352079629898071289e+00,4.850679397583007812e+00,-2.010424041748046875e+02,-9.194249725341796875e+01,-1.729051971435546875e+02,4.030399620532989502e-01,-6.667101287841796875e+01,-1.826865997314453125e+02,-2.342245101928710938e+00,7.562117004394531250e+01,3.135642242431640625e+01
6.568940281867980957e-01,1.000000000000000000e+00,6.200795061886310577e-03,-3.297722578048706055e+00,4.860011577606201172e+00,-2.009832305908203125e+02,-9.186870574951171875e+01,-1.728387451171875000e+02,4.030399620532989502e-01,-6.667101287841796875e+01,-1.826865997314453125e+02,-2.342173099517822266e+00,7.562117004394531250e+01,3.135642242431640625e+01
6.611250042915344238e-01,1.000000000000000000e+00,-5.850436538457870483e-02,-3.243704795837402344e+00,4.869262218475341797e+00,-2.009245605468750000e+02,-9.179534149169921875e+01,-1.727729644775390625e+02,4.030399620532989502e-01,-6.667101287841796875e+01,-1.826865997314453125e+02,-2.342245101928710938e+00,7.562117004394531250e+01,3.135642242431640625e+01
6.629970073699951172e-01,1.000000000000000000e+00,-1.231808215379714966e-01,-3.189325332641601562e+00,4.878594875335693359e+00,-2.008650512695312500e+02,-9.172102355957031250e+01,-1.727079315185546875e+02,4.030399620532989502e-01,-6.667101287841796875e+01,-1.826865997314453125e+02,-2.342245101928710938e+00,7.562124633789062500e+01,3.135642242431640625e+01
6.692789793014526367e-01,1.000000000000000000e+00,-1.881156414747238159e-01,-3.134900093078613281e+00,4.888252258300781250e+00,-2.008061523437500000e+02,-9.164707183837890625e+01,-1.726411285400390625e+02,4.030399620532989502e-01,-6.667111206054687500e+01,-1.826865997314453125e+02,-2.342173099517822266e+00,7.562117004394531250e+01,3.135642242431640625e+01
6.709229946136474609e-01,1.000000000000000000e+00,-2.530217468738555908e-01,-3.080565929412841797e+00,4.897829055786132812e+00,-2.007466735839843750e+02,-9.157333374023437500e+01,-1.725756835937500000e+02,4.030399620532989502e-01,-6.667101287841796875e+01,-1.826865997314453125e+02,-2.342245101928710938e+00,7.562117004394531250e+01,3.135642242431640625e+01
6.749529838562011719e-01,1.000000000000000000e+00,-3.175833821296691895e-01,-3.026502847671508789e+00,4.907445907592773438e+00,-2.006873626708984375e+02,-9.150007629394531250e+01,-1.725106506347656250e+02,4.030399620532989502e-01,-6.667101287841796875e+01,-1.826865997314453125e+02,-2.342245101928710938e+00,7.562124633789062500e+01,3.135642242431640625e+01
6.789439916610717773e-01,1.000000000000000000e+00,-3.824320733547210693e-01,-2.972417354583740234e+00,4.916900157928466797e+00,-2.006289062500000000e+02,-9.142580413818359375e+01,-1.724441986083984375e+02,4.030399620532989502e-01,-6.667101287841796875e+01,-1.826865997314453125e+02,-2.342245101928710938e+00,7.562117004394531250e+01,3.135642242431640625e+01
6.829680204391479492e-01,1.000000000000000000e+00,-4.470798373222351074e-01,-2.918128252029418945e+00,4.926212310791015625e+00,-2.005694885253906250e+02,-9.135217285156250000e+01,-1.723787384033203125e+02,4.030399620532989502e-01,-6.667092895507812500e+01,-1.826865997314453125e+02,-2.342245101928710938e+00,7.562117004394531250e+01,3.135642242431640625e+01
6.869090199470520020e-01,1.000000000000000000e+00,-5.118423700332641602e-01,-2.863748550415039062e+00,4.935686588287353516e+00,-2.005108642578125000e+02,-9.127854919433593750e+01,-1.723134307861328125e+02,4.030399620532989502e-01,-6.667101287841796875e+01,-1.826865997314453125e+02,-2.342173099517822266e+00,7.562117004394531250e+01,3.135642242431640625e+01
6.919280290603637695e-01,1.000000000000000000e+00,-5.766623616218566895e-01,-2.809482097625732422e+00,4.945201873779296875e+00,-2.004514923095703125e+02,-9.120529174804687500e+01,-1.722473907470703125e+02,4.030399620532989502e-01,-6.667101287841796875e+01,-1.826867065429687500e+02,-2.342316627502441406e+00,7.562117004394531250e+01,3.135642242431640625e+01
6.949210166931152344e-01,1.000000000000000000e+00,-6.415684819221496582e-01,-2.755260705947875977e+00,4.954778194427490234e+00,-2.003919219970703125e+02,-9.113145446777343750e+01,-1.721820831298828125e+02,4.030399620532989502e-01,-6.667101287841796875e+01,-1.826865997314453125e+02,-2.342173099517822266e+00,7.562117004394531250e+01,3.135619926452636719e+01
7.020170092582702637e-01,1.000000000000000000e+00,-7.066755294799804688e-01,-2.701129913330078125e+00,4.964334011077880859e+00,-2.003335571289062500e+02,-9.105782318115234375e+01,-1.721158294677734375e+02,4.030399620532989502e-01,-6.667101287841796875e+01,-1.826865997314453125e+02,-2.342245101928710938e+00,7.562117004394531250e+01,3.135642242431640625e+01
7.038909792900085449e-01,1.000000000000000000e+00,-7.716677784919738770e-01,-2.646908521652221680e+00,4.973666667938232422e+00,-2.002739868164062500e+02,-9.098397064208984375e+01,-1.720496215820312500e+02,4.030399620532989502e-01,-6.667101287841796875e+01,-1.826865997314453125e+02,-2.342316627502441406e+00,7.562124633789062500e+01,3.135619926452636719e+01
7.079619765281677246e-01,1.000000000000000000e+00,-8.364591002464294434e-01,-2.592529058456420898e+00,4.982958316802978516e+00,-2.002151489257812500e+02,-9.091024017333984375e+01,-1.719850616455078125e+02,4.028751850128173828e-01,-6.667101287841796875e+01,-1.826867065429687500e+02,-2.342316627502441406e+00,7.562117004394531250e+01,3.135642242431640625e+01
7.109919786453247070e-01,1.000000000000000000e+00,-9.013364315032958984e-01,-2.538126707077026367e+00,4.992493629455566406e+00,-2.001556243896484375e+02,-9.083639526367187500e+01,-1.719186706542968750e+02,4.028751850128173828e-01,-6.667111206054687500e+01,-1.826865997314453125e+02,-2.342245101928710938e+00,7.562117004394531250e+01,3.135642242431640625e+01
7.176120281219482422e-01,1.000000000000000000e+00,-9.013364315032958984e-01,-2.538126707077026367e+00,4.992493629455566406e+00,-2.001556243896484375e+02,-9.083639526367187500e+01,-1.719186706542968750e+02,4.028751850128173828e-01,-6.667111206054687500e+01,-1.826865997314453125e+02,-2.342245101928710938e+00,7.562117004394531250e+01,3.135642242431640625e+01
7.199980020523071289e-01,1.000000000000000000e+00,-1.031119942665100098e+00,-2.429299354553222656e+00,5.011889934539794922e+00,-2.000380096435546875e+02,-9.068972015380859375e+01,-1.717872467041015625e+02,4.030399620532989502e-01,-6.667111206054687500e+01,-1.826865997314453125e+02,-2.342245101928710938e+00,7.562117004394531250e+01,3.135642242431640625e+01
7.229800224304199219e-01,1.000000000000000000e+00,-1.096169590950012207e+00,-2.374897003173828125e+00,5.021506786346435547e+00,-1.999785919189453125e+02,-9.061609649658203125e+01,-1.717212524414062500e+02,4.030399620532989502e-01,-6.667101287841796875e+01,-1.826865997314453125e+02,-2.342245101928710938e+00,7.562117004394531250e+01,3.135653114318847656e+01
7.279310226440429688e-01,1.000000000000000000e+00,-1.096169590950012207e+00,-2.374897003173828125e+00,5.021506786346435547e+00,-1.999785919189453125e+02,-9.061609649658203125e+01,-1.717212524414062500e+02,4.030399620532989502e-01,-6.667101287841796875e+01,-1.826865997314453125e+02,-2.342245101928710938e+00,7.562117004394531250e+01,3.135653114318847656e+01
7.309219837188720703e-01,1.000000000000000000e+00,-1.225321650505065918e+00,-2.266341209411621094e+00,5.040029525756835938e+00,-1.998599700927734375e+02,-9.046829986572265625e+01,-1.715909729003906250e+02,4.030399620532989502e-01,-6.667101287841796875e+01,-1.826864318847656250e+02,-2.342245101928710938e+00,7.562117004394531250e+01,3.135642242431640625e+01
7.360010147094726562e-01,1.000000000000000000e+00,-1.225321650505065918e+00,-2.266341209411621094e+00,5.040029525756835938e+00,-1.998599700927734375e+02,-9.046829986572265625e+01,-1.715909729003906250e+02,4.030399620532989502e-01,-6.667101287841796875e+01,-1.826864318847656250e+02,-2.342245101928710938e+00,7.562117004394531250e+01,3.135642242431640625e+01
7.399230003356933594e-01,1.000000000000000000e+00,-1.354645848274230957e+00,-2.157627105712890625e+00,5.058856487274169922e+00,-1.997422485351562500e+02,-9.032146453857421875e+01,-1.714584045410156250e+02,4.030399620532989502e-01,-6.667101287841796875e+01,-1.826865997314453125e+02,-2.342245101928710938e+00,7.562117004394531250e+01,3.135642242431640625e+01
7.429190278053283691e-01,1.000000000000000000e+00,-1.419379711151123047e+00,-2.103360652923583984e+00,5.068331241607666016e+00,-1.996828155517578125e+02,-9.024720001220703125e+01,-1.713931579589843750e+02,4.030399620532989502e-01,-6.667101287841796875e+01,-1.826865997314453125e+02,-2.342245101928710938e+00,7.562117004394531250e+01,3.135642242431640625e+01
7.479479908943176270e-01,1.000000000000000000e+00,-1.419379711151123047e+00,-2.103360652923583984e+00,5.068331241607666016e+00,-1.996828155517578125e+02,-9.024720001220703125e+01,-1.713931579589843750e+02,4.030399620532989502e-01,-6.667101287841796875e+01,-1.826865997314453125e+02,-2.342245101928710938e+00,7.562117004394531250e+01,3.135642242431640625e+01
7.510139942169189453e-01,1.000000000000000000e+00,-1.548502922058105469e+00,-1.995076537132263184e+00,5.087158679962158203e+00,-1.995644683837890625e+02,-9.009967803955078125e+01,-1.712620849609375000e+02,4.030399620532989502e-01,-6.667101287841796875e+01,-1.826865997314453125e+02,-2.342173099517822266e+00,7.562117004394531250e+01,3.135642242431640625e+01
7.560250163078308105e-01,1.000000000000000000e+00,-1.548502922058105469e+00,-1.995076537132263184e+00,5.087158679962158203e+00,-1.995644683837890625e+02,-9.009967803955078125e+01,-1.712620849609375000e+02,4.030399620532989502e-01,-6.667101287841796875e+01,-1.826865997314453125e+02,-2.342173099517822266e+00,7.562117004394531250e+01,3.135642242431640625e+01
7.594829797744750977e-01,1.000000000000000000e+00,-1.677654862403869629e+00,-1.886701703071594238e+00,5.106107711791992188e+00,-1.994465789794921875e+02,-8.995150756835937500e+01,-1.711303100585937500e+02,4.030399620532989502e-01,-6.667101287841796875e+01,-1.826867065429687500e+02,-2.342245101928710938e+00,7.562117004394531250e+01,3.135642242431640625e+01
7.660319805145263672e-01,1.000000000000000000e+00,-1.742359995841979980e+00,-1.832457780838012695e+00,5.115724563598632812e+00,-1.993872222900390625e+02,-8.987814331054687500e+01,-1.710650024414062500e+02,4.030399620532989502e-01,-6.667111206054687500e+01,-1.826865997314453125e+02,-2.342245101928710938e+00,7.562117004394531250e+01,3.135619926452636719e+01
7.674319744110107422e-01,1.000000000000000000e+00,-1.806921601295471191e+00,-1.778304457664489746e+00,5.125381946563720703e+00,-1.993279724121093750e+02,-8.980440521240234375e+01,-1.709989318847656250e+02,4.030399620532989502e-01,-6.667101287841796875e+01,-1.826865997314453125e+02,-2.342245101928710938e+00,7.562102508544921875e+01,3.135642242431640625e+01
7.738659977912902832e-01,1.000000000000000000e+00,-1.806921601295471191e+00,-1.778304457664489746e+00,5.125381946563720703e+00,-1.993279724121093750e+02,-8.980440521240234375e+01,-1.709989318847656250e+02,4.030399620532989502e-01,-6.667101287841796875e+01,-1.826865997314453125e+02,-2.342245101928710938e+00,7.562102508544921875e+01,3.135642242431640625e+01
7.759630084037780762e-01,1.000000000000000000e+00,-1.936044931411743164e+00,-1.669567584991455078e+00,5.144270420074462891e+00,-1.992098541259765625e+02,-8.965598297119140625e+01,-1.708676452636718750e+02,4.030399620532989502e-01,-6.667101287841796875e+01,-1.826865997314453125e+02,-2.342245101928710938e+00,7.562124633789062500e+01,3.135642242431640625e+01
7.799130082130432129e-01,1.000000000000000000e+00,-2.000405550003051758e+00,-1.615301132202148438e+00,5.153663635253906250e+00,-1.991504516601562500e+02,-8.958293151855468750e+01,-1.708016662597656250e+02,4.030399620532989502e-01,-6.667101287841796875e+01,-1.826865997314453125e+02,-2.342245101928710938e+00,7.562117004394531250e+01,3.135653114318847656e+01
7.838919758796691895e-01,1.000000000000000000e+00,-2.064909934997558594e+00,-1.561215639114379883e+00,5.163219451904296875e+00,-1.990914459228515625e+02,-8.950930023193359375e+01,-1.707355346679687500e+02,4.030399620532989502e-01,-6.667101287841796875e+01,-1.826867065429687500e+02,-2.342245101928710938e+00,7.562117004394531250e+01,3.135642242431640625e+01
7.876309752464294434e-01,1.000000000000000000e+00,-2.129500150680541992e+00,-1.506858587265014648e+00,5.172694206237792969e+00,-1.990325622558593750e+02,-8.943540954589843750e+01,-1.706703033447265625e+02,4.030399620532989502e-01,-6.667111206054687500e+01,-1.826865997314453125e+02,-2.342245101928710938e+00,7.562117004394531250e+01,3.135642242431640625e+01
7.940880060195922852e-01,1.000000000000000000e+00,-2.129500150680541992e+00,-1.506858587265014648e+00,5.172694206237792969e+00,-1.990325622558593750e+02,-8.943540954589843750e+01,-1.706703033447265625e+02,4.030399620532989502e-01,-6.667101287841796875e+01,-1.826865997314453125e+02,-2.342245101928710938e+00,7.562117004394531250e+01,3.135642242431640625e+01
7.955660223960876465e-01,1.000000000000000000e+00,-2.258480072021484375e+00,-1.398280143737792969e+00,5.191256999969482422e+00,-1.989142608642578125e+02,-8.928687286376953125e+01,-1.705375823974609375e+02,4.030399620532989502e-01,-6.667101287841796875e+01,-1.826865997314453125e+02,-2.342245101928710938e+00,7.562117004394531250e+01,3.135642242431640625e+01
8.020480275154113770e-01,1.000000000000000000e+00,-2.258480072021484375e+00,-1.398280143737792969e+00,5.191256999969482422e+00,-1.989142608642578125e+02,-8.928687286376953125e+01,-1.705375823974609375e+02,4.030399620532989502e-01,-6.667101287841796875e+01,-1.826865997314453125e+02,-2.342245101928710938e+00,7.562117004394531250e+01,3.135642242431640625e+01
8.034319877624511719e-01,1.000000000000000000e+00,-2.387373447418212891e+00,-1.289860248565673828e+00,5.210023403167724609e+00,-1.987958984375000000e+02,-8.913923645019531250e+01,-1.704064941406250000e+02,4.030399620532989502e-01,-6.667111206054687500e+01,-1.826865997314453125e+02,-2.342173099517822266e+00,7.562102508544921875e+01,3.135642242431640625e+01
8.070909976959228516e-01,1.000000000000000000e+00,-2.387373447418212891e+00,-1.289860248565673828e+00,5.210023403167724609e+00,-1.987958984375000000e+02,-8.913923645019531250e+01,-1.704064941406250000e+02,4.030399620532989502e-01,-6.667111206054687500e+01,-1.826865997314453125e+02,-2.342173099517822266e+00,7.562102508544921875e+01,3.135642242431640625e+01
8.116289973258972168e-01,1.000000000000000000e+00,-2.451963901519775391e+00,-1.235819935798645020e+00,5.219721794128417969e+00,-1.987367401123046875e+02,-8.906433105468750000e+01,-1.703409118652343750e+02,4.030399620532989502e-01,-6.667101287841796875e+01,-1.826865997314453125e+02,-2.342316627502441406e+00,7.562117004394531250e+01,3.135642242431640625e+01
8.169280290603637695e-01,1.000000000000000000e+00,-2.516841173171997070e+00,-1.181757092475891113e+00,5.229298114776611328e+00,-1.986773376464843750e+02,-8.899069976806640625e+01,-1.702752685546875000e+02,4.030399620532989502e-01,-6.667101287841796875e+01,-1.826865997314453125e+02,-2.342316627502441406e+00,7.562117004394531250e+01,3.135642242431640625e+01
8.197209835052490234e-01,1.000000000000000000e+00,-2.646682024002075195e+00,-1.072997689247131348e+00,5.248369693756103516e+00,-1.985592498779296875e+02,-8.884327697753906250e+01,-1.701442413330078125e+02,4.030399620532989502e-01,-6.667111206054687500e+01,-1.826867065429687500e+02,-2.342173099517822266e+00,7.562102508544921875e+01,3.135653114318847656e+01
8.259739875793457031e-01,1.000000000000000000e+00,-2.646682024002075195e+00,-1.072997689247131348e+00,5.248369693756103516e+00,-1.985592498779296875e+02,-8.884327697753906250e+01,-1.701442413330078125e+02,4.030399620532989502e-01,-6.667111206054687500e+01,-1.826867065429687500e+02,-2.342173099517822266e+00,7.562102508544921875e+01,3.135653114318847656e+01
8.275089859962463379e-01,1.000000000000000000e+00,-2.776236057281494141e+00,-9.642382860183715820e-01,5.267115592956542969e+00,-1.984407653808593750e+02,-8.869527435302734375e+01,-1.700122833251953125e+02,4.030399620532989502e-01,-6.667101287841796875e+01,-1.826865997314453125e+02,-2.342316627502441406e+00,7.562117004394531250e+01,3.135642242431640625e+01
8.319730162620544434e-01,1.000000000000000000e+00,-2.776236057281494141e+00,-9.642382860183715820e-01,5.267115592956542969e+00,-1.984407653808593750e+02,-8.869527435302734375e+01,-1.700122833251953125e+02,4.030399620532989502e-01,-6.667101287841796875e+01,-1.826865997314453125e+02,-2.342316627502441406e+00,7.562117004394531250e+01,3.135642242431640625e+01
8.370169997215270996e-01,1.000000000000000000e+00,-2.841199398040771484e+00,-9.099264740943908691e-01,5.276691436767578125e+00,-1.983814697265625000e+02,-8.862228393554687500e+01,-1.699470977783203125e+02,4.030399620532989502e-01,-6.667101287841796875e+01,-1.826865997314453125e+02,-2.342245101928710938e+00,7.562117004394531250e+01,3.135642242431640625e+01
8.394989967346191406e-01,1.000000000000000000e+00,-2.970839500427246094e+00,-8.014839291572570801e-01,5.295701980590820312e+00,-1.982634124755859375e+02,-8.847385406494140625e+01,-1.698145294189453125e+02,4.030399620532989502e-01,-6.667101287841796875e+01,-1.826865997314453125e+02,-2.342245101928710938e+00,7.562117004394531250e+01,3.135642242431640625e+01
8.439599871635437012e-01,1.000000000000000000e+00,-2.970839500427246094e+00,-8.014839291572570801e-01,5.295701980590820312e+00,-1.982634124755859375e+02,-8.847385406494140625e+01,-1.698145294189453125e+02,4.030399620532989502e-01,-6.667101287841796875e+01,-1.826865997314453125e+02,-2.342245101928710938e+00,7.562117004394531250e+01,3.135642242431640625e+01
8.490229845046997070e-01,1.000000000000000000e+00,-3.035745620727539062e+00,-7.471042275428771973e-01,5.304973125457763672e+00,-1.982042083740234375e+02,-8.840011596679687500e+01,-1.697495574951171875e+02,4.030399620532989502e-01,-6.667101287841796875e+01,-1.826865997314453125e+02,-2.342245101928710938e+00,7.562117004394531250e+01,3.135653114318847656e+01
8.514950275421142578e-01,1.000000000000000000e+00,-3.165471792221069336e+00,-6.385710835456848145e-01,5.323698997497558594e+00,-1.980857543945312500e+02,-8.825270080566406250e+01,-1.696180572509765625e+02,4.031498432159423828e-01,-6.667111206054687500e+01,-1.826865997314453125e+02,-2.342173099517822266e+00,7.562117004394531250e+01,3.135642242431640625e+01
8.559880256652832031e-01,1.000000000000000000e+00,-3.165471792221069336e+00,-6.385710835456848145e-01,5.323698997497558594e+00,-1.980857543945312500e+02,-8.825270080566406250e+01,-1.696180572509765625e+02,4.031498432159423828e-01,-6.667111206054687500e+01,-1.826865997314453125e+02,-2.342173099517822266e+00,7.562117004394531250e+01,3.135642242431640625e+01
8.600069880485534668e-01,1.000000000000000000e+00,-3.230205774307250977e+00,-5.844177007675170898e-01,5.333417415618896484e+00,-1.980271148681640625e+02,-8.817858123779296875e+01,-1.695524749755859375e+02,4.030399620532989502e-01,-6.667101287841796875e+01,-1.826865997314453125e+02,-2.342245101928710938e+00,7.562117004394531250e+01,3.135642242431640625e+01
8.640009760856628418e-01,1.000000000000000000e+00,-3.295111656188964844e+00,-5.303322076797485352e-01,5.343095302581787109e+00,-1.979676513671875000e+02,-8.810485076904296875e+01,-1.694860992431640625e+02,4.030399620532989502e-01,-6.667101287841796875e+01,-1.826865997314453125e+02,-2.342245101928710938e+00,7.562117004394531250e+01,3.135642242431640625e+01
8.679429888725280762e-01,1.000000000000000000e+00,-3.359903097152709961e+00,-4.761109352111816406e-01,5.352712154388427734e+00,-1.979089202880859375e+02,-8.803153991699218750e+01,-1.694205017089843750e+02,4.031498432159423828e-01,-6.667101287841796875e+01,-1.826865997314453125e+02,-2.342245101928710938e+00,7.562102508544921875e+01,3.135642242431640625e+01
8.719570040702819824e-01,1.000000000000000000e+00,-3.424780368804931641e+00,-4.221838116645812988e-01,5.362145900726318359e+00,-1.978490753173828125e+02,-8.795806884765625000e+01,-1.693556060791015625e+02,4.030399620532989502e-01,-6.667101287841796875e+01,-1.826865997314453125e+02,-2.342245101928710938e+00,7.562117004394531250e+01,3.135642242431640625e+01
8.760070204734802246e-01,1.000000000000000000e+00,-3.489858627319335938e+00,-3.679625391960144043e-01,5.371315956115722656e+00,-1.977901306152343750e+02,-8.788364410400390625e+01,-1.692894287109375000e+02,4.030399620532989502e-01,-6.667101287841796875e+01,-1.826865997314453125e+02,-2.342245101928710938e+00,7.562117004394531250e+01,3.135642242431640625e+01
8.794770240783691406e-01,1.000000000000000000e+00,-3.554621219635009766e+00,-3.136507272720336914e-01,5.380668163299560547e+00,-1.977314605712890625e+02,-8.781033325195312500e+01,-1.692240447998046875e+02,4.030399620532989502e-01,-6.667101287841796875e+01,-1.826865997314453125e+02,-2.342316627502441406e+00,7.562117004394531250e+01,3.135642242431640625e+01
8.839790225028991699e-01,1.000000000000000000e+00,-3.619527339935302734e+00,-2.594068050384521484e-01,5.390061855316162109e+00,-1.976721496582031250e+02,-8.773675537109375000e+01,-1.691583251953125000e+02,4.030399620532989502e-01,-6.667111206054687500e+01,-1.826865997314453125e+02,-2.342245101928710938e+00,7.562117004394531250e+01,3.135642242431640625e+01
8.869590163230895996e-01,1.000000000000000000e+00,-3.684289932250976562e+00,-2.050950080156326294e-01,5.399597167968750000e+00,-1.976131591796875000e+02,-8.766296386718750000e+01,-1.690924072265625000e+02,4.030399620532989502e-01,-6.667101287841796875e+01,-1.826865997314453125e+02,-2.342316627502441406e+00,7.562117004394531250e+01,3.135642242431640625e+01
8.910170197486877441e-01,1.000000000000000000e+00,-3.749081373214721680e+00,-1.507831960916519165e-01,5.409071922302246094e+00,-1.975534820556640625e+02,-8.758895874023437500e+01,-1.690273132324218750e+02,4.030399620532989502e-01,-6.667101287841796875e+01,-1.826865997314453125e+02,-2.342245101928710938e+00,7.562117004394531250e+01,3.135642242431640625e+01
8.949450254440307617e-01,1.000000000000000000e+00,-3.813757896423339844e+00,-9.665242582559585571e-02,5.418404102325439453e+00,-1.974945373535156250e+02,-8.751549530029296875e+01,-1.689618682861328125e+02,4.030399620532989502e-01,-6.667101287841796875e+01,-1.826865997314453125e+02,-2.342245101928710938e+00,7.562124633789062500e+01,3.135642242431640625e+01
9.000080227851867676e-01,1.000000000000000000e+00,-3.878347873687744141e+00,-4.231798648834228516e-02,5.427655220031738281e+00,-1.974355926513671875e+02,-8.744149017333984375e+01,-1.688960113525390625e+02,4.030399620532989502e-01,-6.667101287841796875e+01,-1.826865997314453125e+02,-2.342245101928710938e+00,7.562117004394531250e+01,3.135642242431640625e+01
9.039520025253295898e-01,1.000000000000000000e+00,-3.943053245544433594e+00,1.183541212230920792e-02,5.437150001525878906e+00,-1.973764495849609375e+02,-8.736770629882812500e+01,-1.688311157226562500e+02,4.030399620532989502e-01,-6.667101287841796875e+01,-1.826864318847656250e+02,-2.342245101928710938e+00,7.562117004394531250e+01,3.135642242431640625e+01
9.079620242118835449e-01,1.000000000000000000e+00,-4.007614612579345703e+00,6.610196083784103394e-02,5.446868896484375000e+00,-1.973173370361328125e+02,-8.729380798339843750e+01,-1.687645721435546875e+02,4.030399620532989502e-01,-6.667111206054687500e+01,-1.826865997314453125e+02,-2.342245101928710938e+00,7.562117004394531250e+01,3.135619926452636719e+01
9.111350178718566895e-01,1.000000000000000000e+00,-4.072205543518066406e+00,1.202553510665893555e-01,5.456587314605712891e+00,-1.972580718994140625e+02,-8.722071075439453125e+01,-1.686983184814453125e+02,4.030399620532989502e-01,-6.667111206054687500e+01,-1.826864318847656250e+02,-2.342245101928710938e+00,7.562117004394531250e+01,3.135642242431640625e+01
9.150940179824829102e-01,1.000000000000000000e+00,-4.136824131011962891e+00,1.744540184736251831e-01,5.466204166412353516e+00,-1.971991271972656250e+02,-8.714713287353515625e+01,-1.686333618164062500e+02,4.030399620532989502e-01,-6.667101287841796875e+01,-1.826865997314453125e+02,-2.342245101928710938e+00,7.562117004394531250e+01,3.135642242431640625e+01
9.190449714660644531e-01,1.000000000000000000e+00,-4.201443195343017578e+00,2.286300510168075562e-01,5.475658416748046875e+00,-1.971399230957031250e+02,-8.707323455810546875e+01,-1.685673065185546875e+02,4.030399620532989502e-01,-6.667101287841796875e+01,-1.826865997314453125e+02,-2.342173099517822266e+00,7.562117004394531250e+01,3.135642242431640625e+01
9.230470061302185059e-01,1.000000000000000000e+00,-4.266090869903564453e+00,2.827155590057373047e-01,5.484909534454345703e+00,-1.970812072753906250e+02,-8.699923706054687500e+01,-1.685017242431640625e+02,4.030399620532989502e-01,-6.667101287841796875e+01,-1.826865997314453125e+02,-2.342245101928710938e+00,7.562117004394531250e+01,3.135653114318847656e+01
9.278879761695861816e-01,1.000000000000000000e+00,-4.330595493316650391e+00,3.369368314743041992e-01,5.494444847106933594e+00,-1.970224761962890625e+02,-8.692613983154296875e+01,-1.684362030029296875e+02,4.030399620532989502e-01,-6.667101287841796875e+01,-1.826865997314453125e+02,-2.342316627502441406e+00,7.562117004394531250e+01,3.135642242431640625e+01
9.319369792938232422e-01,1.000000000000000000e+00,-4.395328998565673828e+00,3.911807537078857422e-01,5.504021167755126953e+00,-1.969625244140625000e+02,-8.685287475585937500e+01,-1.683698272705078125e+02,4.030399620532989502e-01,-6.667101287841796875e+01,-1.826865997314453125e+02,-2.342245101928710938e+00,7.562124633789062500e+01,3.135642242431640625e+01
9.360100030899047852e-01,1.000000000000000000e+00,-4.460091590881347656e+00,4.454925656318664551e-01,5.513454914093017578e+00,-1.969039001464843750e+02,-8.677871704101562500e+01,-1.683041076660156250e+02,4.030399620532989502e-01,-6.667111206054687500e+01,-1.826865997314453125e+02,-2.342245101928710938e+00,7.562117004394531250e+01,3.135642242431640625e+01
9.399740099906921387e-01,1.000000000000000000e+00,-4.524911403656005859e+00,4.998043775558471680e-01,5.522767066955566406e+00,-1.968445892333984375e+02,-8.670445251464843750e+01,-1.682387390136718750e+02,4.030399620532989502e-01,-6.667101287841796875e+01,-1.826865997314453125e+02,-2.342173099517822266e+00,7.562117004394531250e+01,3.135642242431640625e+01
9.439470171928405762e-01,1.000000000000000000e+00,-4.589530944824218750e+00,5.540935397148132324e-01,5.531916618347167969e+00,-1.967854461669921875e+02,-8.663066101074218750e+01,-1.681722106933593750e+02,4.030399620532989502e-01,-6.667111206054687500e+01,-1.826865997314453125e+02,-2.342245101928710938e+00,7.562117004394531250e+01,3.135653114318847656e+01
9.471200108528137207e-01,1.000000000000000000e+00,-4.654092311859130859e+00,6.085185408592224121e-01,5.541228294372558594e+00,-1.967263336181640625e+02,-8.655708312988281250e+01,-1.681073608398437500e+02,4.030399620532989502e-01,-6.667111206054687500e+01,-1.826865997314453125e+02,-2.342316627502441406e+00,7.562117004394531250e+01,3.135642242431640625e+01
9.520699977874755859e-01,1.000000000000000000e+00,-4.718539237976074219e+00,6.626719236373901367e-01,5.550764083862304688e+00,-1.966668090820312500e+02,-8.648259735107421875e+01,-1.680411834716796875e+02,4.030399620532989502e-01,-6.667101287841796875e+01,-1.826865997314453125e+02,-2.342173099517822266e+00,7.562117004394531250e+01,3.135642242431640625e+01
9.561240077018737793e-01,1.000000000000000000e+00,-4.783186912536621094e+00,7.171421051025390625e-01,5.560401439666748047e+00,-1.966081237792968750e+02,-8.640923309326171875e+01,-1.679752044677734375e+02,4.030399620532989502e-01,-6.667101287841796875e+01,-1.826865997314453125e+02,-2.342316627502441406e+00,7.562117004394531250e+01,3.135642242431640625e+01
9.595090150833129883e-01,1.000000000000000000e+00,-4.847720146179199219e+00,7.714765667915344238e-01,5.570058822631835938e+00,-1.965488281250000000e+02,-8.633549499511718750e+01,-1.679100952148437500e+02,4.030399620532989502e-01,-6.667101287841796875e+01,-1.826865997314453125e+02,-2.342245101928710938e+00,7.562117004394531250e+01,3.135642242431640625e+01
9.639660120010375977e-01,1.000000000000000000e+00,-4.912281513214111328e+00,8.255621194839477539e-01,5.579594612121582031e+00,-1.964900360107421875e+02,-8.626197814941406250e+01,-1.678442382812500000e+02,4.028751850128173828e-01,-6.667101287841796875e+01,-1.826865997314453125e+02,-2.342316627502441406e+00,7.562117004394531250e+01,3.135642242431640625e+01
9.674350023269653320e-01,1.000000000000000000e+00,-4.976699352264404297e+00,8.798060417175292969e-01,5.588947296142578125e+00,-1.964308319091796875e+02,-8.618728637695312500e+01,-1.677786712646484375e+02,4.030399620532989502e-01,-6.667111206054687500e+01,-1.826867065429687500e+02,-2.342316627502441406e+00,7.562117004394531250e+01,3.135642242431640625e+01
9.719589948654174805e-01,1.000000000000000000e+00,-5.041146278381347656e+00,9.339368343353271484e-01,5.598422050476074219e+00,-1.963713684082031250e+02,-8.611386871337890625e+01,-1.677133636474609375e+02,4.030399620532989502e-01,-6.667101287841796875e+01,-1.826867065429687500e+02,-2.342173099517822266e+00,7.562102508544921875e+01,3.135642242431640625e+01
9.761459827423095703e-01,1.000000000000000000e+00,-5.105793952941894531e+00,9.880675673484802246e-01,5.607957839965820312e+00,-1.963126831054687500e+02,-8.604039001464843750e+01,-1.676464233398437500e+02,4.030399620532989502e-01,-6.667111206054687500e+01,-1.826867065429687500e+02,-2.342245101928710938e+00,7.562124633789062500e+01,3.135642242431640625e+01
9.795200228691101074e-01,1.000000000000000000e+00,-5.170556545257568359e+00,1.042288780212402344e+00,5.617513656616210938e+00,-1.962533264160156250e+02,-8.596665954589843750e+01,-1.675810394287109375e+02,4.030399620532989502e-01,-6.667101287841796875e+01,-1.826865997314453125e+02,-2.342245101928710938e+00,7.562117004394531250e+01,3.135642242431640625e+01
9.835479855537414551e-01,1.000000000000000000e+00,-5.235204219818115234e+00,1.096487522125244141e+00,5.626947402954101562e+00,-1.961945343017578125e+02,-8.589228057861328125e+01,-1.675159301757812500e+02,4.030399620532989502e-01,-6.667101287841796875e+01,-1.826865997314453125e+02,-2.342245101928710938e+00,7.562117004394531250e+01,3.135642242431640625e+01
9.879549741744995117e-01,1.000000000000000000e+00,-5.299766063690185547e+00,1.150753974914550781e+00,5.636381626129150391e+00,-1.961352844238281250e+02,-8.581838226318359375e+01,-1.674498901367187500e+02,4.030399620532989502e-01,-6.667101287841796875e+01,-1.826865997314453125e+02,-2.342245101928710938e+00,7.562117004394531250e+01,3.135642242431640625e+01
9.915300011634826660e-01,1.000000000000000000e+00,-5.364470958709716797e+00,1.204884767532348633e+00,5.645551204681396484e+00,-1.960760803222656250e+02,-8.574497222900390625e+01,-1.673840332031250000e+02,4.030399620532989502e-01,-6.667101287841796875e+01,-1.826865997314453125e+02,-2.342245101928710938e+00,7.562117004394531250e+01,3.135642242431640625e+01
9.959419965744018555e-01,1.000000000000000000e+00,-5.429204940795898438e+00,1.259287118911743164e+00,5.654984951019287109e+00,-1.960171813964843750e+02,-8.567107391357421875e+01,-1.673180541992187500e+02,4.030399620532989502e-01,-6.667101287841796875e+01,-1.826865997314453125e+02,-2.342245101928710938e+00,7.562117004394531250e+01,3.135642242431640625e+01
1.000370979309082031e+00,1.000000000000000000e+00,-5.493938922882080078e+00,1.313757300376892090e+00,5.664622306823730469e+00,-1.959576721191406250e+02,-8.559674835205078125e+01,-1.672519226074218750e+02,4.030399620532989502e-01,-6.667111206054687500e+01,-1.826864318847656250e+02,-2.342316627502441406e+00,7.562117004394531250e+01,3.135642242431640625e+01
1.004709959030151367e+00,1.000000000000000000e+00,-5.558644294738769531e+00,1.367955923080444336e+00,5.674198627471923828e+00,-1.958987274169921875e+02,-8.552285766601562500e+01,-1.671870269775390625e+02,4.030399620532989502e-01,-6.667111206054687500e+01,-1.826865997314453125e+02,-2.342245101928710938e+00,7.562117004394531250e+01,3.135642242431640625e+01
1.007953047752380371e+00,1.000000000000000000e+00,-5.623177051544189453e+00,1.422041535377502441e+00,5.683754444122314453e+00,-1.958393707275390625e+02,-8.544976043701171875e+01,-1.671213836669921875e+02,4.030399620532989502e-01,-6.667101287841796875e+01,-1.826864318847656250e+02,-2.342245101928710938e+00,7.562117004394531250e+01,3.135642242431640625e+01
1.011844038963317871e+00,1.000000000000000000e+00,-5.687882423400878906e+00,1.476217508316040039e+00,5.693249702453613281e+00,-1.957803649902343750e+02,-8.537607574462890625e+01,-1.670548553466796875e+02,4.030399620532989502e-01,-6.667101287841796875e+01,-1.826865997314453125e+02,-2.342245101928710938e+00,7.562117004394531250e+01,3.135642242431640625e+01
1.016011953353881836e+00,1.000000000000000000e+00,-5.752357482910156250e+00,1.530552029609680176e+00,5.702520847320556641e+00,-1.957212524414062500e+02,-8.530170440673828125e+01,-1.669894104003906250e+02,4.030399620532989502e-01,-6.667101287841796875e+01,-1.826865997314453125e+02,-2.342245101928710938e+00,7.562117004394531250e+01,3.135642242431640625e+01
1.019945979118347168e+00,1.000000000000000000e+00,-5.817177772521972656e+00,1.584795951843261719e+00,5.711934566497802734e+00,-1.956620178222656250e+02,-8.522790527343750000e+01,-1.669241027832031250e+02,4.030399620532989502e-01,-6.667101287841796875e+01,-1.826867065429687500e+02,-2.342245101928710938e+00,7.562117004394531250e+01,3.135642242431640625e+01
1.024641036987304688e+00,1.000000000000000000e+00,-5.881940364837646484e+00,1.638971924781799316e+00,5.721368312835693359e+00,-1.956034393310546875e+02,-8.515460205078125000e+01,-1.668582458496093750e+02,4.030399620532989502e-01,-6.667101287841796875e+01,-1.826865997314453125e+02,-2.342245101928710938e+00,7.562117004394531250e+01,3.135642242431640625e+01
1.028835058212280273e+00,1.000000000000000000e+00,-5.946558952331542969e+00,1.693102717399597168e+00,5.730782032012939453e+00,-1.955438690185546875e+02,-8.508113098144531250e+01,-1.667936248779296875e+02,4.030399620532989502e-01,-6.667111206054687500e+01,-1.826865997314453125e+02,-2.342245101928710938e+00,7.562117004394531250e+01,3.135642242431640625e+01
1.031988978385925293e+00,1.000000000000000000e+00,-6.011235713958740234e+00,1.747120380401611328e+00,5.740175247192382812e+00,-1.954850158691406250e+02,-8.500659942626953125e+01,-1.667272338867187500e+02,4.030399620532989502e-01,-6.667111206054687500e+01,-1.826865997314453125e+02,-2.342245101928710938e+00,7.562117004394531250e+01,3.135653114318847656e+01
1.036016941070556641e+00,1.000000000000000000e+00,-6.075969696044921875e+00,1.801092743873596191e+00,5.749609470367431641e+00,-1.954256134033203125e+02,-8.493259429931640625e+01,-1.666609802246093750e+02,4.030399620532989502e-01,-6.667111206054687500e+01,-1.826865997314453125e+02,-2.342245101928710938e+00,7.562124633789062500e+01,3.135642242431640625e+01
1.040006041526794434e+00,1.000000000000000000e+00,-6.140617847442626953e+00,1.855449676513671875e+00,5.758901119232177734e+00,-1.953663482666015625e+02,-8.485880279541015625e+01,-1.665960693359375000e+02,4.030399620532989502e-01,-6.667101287841796875e+01,-1.826865997314453125e+02,-2.342316627502441406e+00,7.562117004394531250e+01,3.135642242431640625e+01
1.044031977653503418e+00,1.000000000000000000e+00,-6.205437183380126953e+00,1.909897446632385254e+00,5.768355369567871094e+00,-1.953076629638671875e+02,-8.478543853759765625e+01,-1.665294189453125000e+02,4.030399620532989502e-01,-6.667111206054687500e+01,-1.826865997314453125e+02,-2.342245101928710938e+00,7.562117004394531250e+01,3.135642242431640625e+01
1.048707008361816406e+00,1.000000000000000000e+00,-6.270429611206054688e+00,1.964299678802490234e+00,5.777951717376708984e+00,-1.952479400634765625e+02,-8.471096038818359375e+01,-1.664638977050781250e+02,4.030399620532989502e-01,-6.667101287841796875e+01,-1.826865997314453125e+02,-2.342173099517822266e+00,7.562117004394531250e+01,3.135642242431640625e+01
1.052942037582397461e+00,1.000000000000000000e+00,-6.335393428802490234e+00,2.018453121185302734e+00,5.787528038024902344e+00,-1.951893157958984375e+02,-8.463732910156250000e+01,-1.663987884521484375e+02,4.030399620532989502e-01,-6.667101287841796875e+01,-1.826865997314453125e+02,-2.342245101928710938e+00,7.562117004394531250e+01,3.135642242431640625e+01
1.056228995323181152e+00,1.000000000000000000e+00,-6.400413990020751953e+00,2.072628974914550781e+00,5.797083854675292969e+00,-1.951302185058593750e+02,-8.456391143798828125e+01,-1.663325347900390625e+02,4.030399620532989502e-01,-6.667101287841796875e+01,-1.826865997314453125e+02,-2.342245101928710938e+00,7.562117004394531250e+01,3.135642242431640625e+01
1.060088038444519043e+00,1.000000000000000000e+00,-6.464975833892822266e+00,2.126691818237304688e+00,5.806497573852539062e+00,-1.950708465576171875e+02,-8.449054718017578125e+01,-1.662666168212890625e+02,4.030399620532989502e-01,-6.667101287841796875e+01,-1.826865997314453125e+02,-2.342245101928710938e+00,7.562124633789062500e+01,3.135642242431640625e+01
1.064000010490417480e+00,1.000000000000000000e+00,-6.529594898223876953e+00,2.180867910385131836e+00,5.815829753875732422e+00,-1.950119018554687500e+02,-8.441590881347656250e+01,-1.662012329101562500e+02,4.030399620532989502e-01,-6.667111206054687500e+01,-1.826867065429687500e+02,-2.342316627502441406e+00,7.562117004394531250e+01,3.135642242431640625e+01
1.067906975746154785e+00,1.000000000000000000e+00,-6.594415187835693359e+00,2.235383510589599609e+00,5.825304508209228516e+00,-1.949521179199218750e+02,-8.434259033203125000e+01,-1.661344299316406250e+02,4.030399620532989502e-01,-6.667111206054687500e+01,-1.826865997314453125e+02,-2.342245101928710938e+00,7.562117004394531250e+01,3.135642242431640625e+01
1.070902943611145020e+00,1.000000000000000000e+00,-6.659177303314208984e+00,2.289627313613891602e+00,5.834921360015869141e+00,-1.948934326171875000e+02,-8.426869964599609375e+01,-1.660693511962890625e+02,4.030399620532989502e-01,-6.667101287841796875e+01,-1.826865997314453125e+02,-2.342245101928710938e+00,7.562117004394531250e+01,3.135642242431640625e+01
1.077072024345397949e+00,1.000000000000000000e+00,-6.723767757415771484e+00,2.343780755996704102e+00,5.844355106353759766e+00,-1.948343811035156250e+02,-8.419538879394531250e+01,-1.660038909912109375e+02,4.030399620532989502e-01,-6.667101287841796875e+01,-1.826865997314453125e+02,-2.342245101928710938e+00,7.562117004394531250e+01,3.135642242431640625e+01
1.078894972801208496e+00,1.000000000000000000e+00,-6.788530349731445312e+00,2.397820949554443359e+00,5.853687763214111328e+00,-1.947749786376953125e+02,-8.412090301513671875e+01,-1.659373779296875000e+02,4.030399620532989502e-01,-6.667111206054687500e+01,-1.826865997314453125e+02,-2.342245101928710938e+00,7.562117004394531250e+01,3.135642242431640625e+01
1.084298968315124512e+00,1.000000000000000000e+00,-6.853178024291992188e+00,2.451906442642211914e+00,5.862857341766357422e+00,-1.947159271240234375e+02,-8.404770660400390625e+01,-1.658724060058593750e+02,4.030399620532989502e-01,-6.667101287841796875e+01,-1.826865997314453125e+02,-2.342245101928710938e+00,7.562117004394531250e+01,3.135642242431640625e+01
1.086971044540405273e+00,1.000000000000000000e+00,-6.917797088623046875e+00,2.505991935729980469e+00,5.871986389160156250e+00,-1.946564636230468750e+02,-8.397370147705078125e+01,-1.658061370849609375e+02,4.031498432159423828e-01,-6.667101287841796875e+01,-1.826867065429687500e+02,-2.342245101928710938e+00,7.562117004394531250e+01,3.135642242431640625e+01
1.090929031372070312e+00,1.000000000000000000e+00,-6.982501983642578125e+00,2.560145616531372070e+00,5.881501674652099609e+00,-1.945980529785156250e+02,-8.389974975585937500e+01,-1.657404937744140625e+02,4.030399620532989502e-01,-6.667101287841796875e+01,-1.826865997314453125e+02,-2.342316627502441406e+00,7.562117004394531250e+01,3.135642242431640625e+01
1.094964981079101562e+00,1.000000000000000000e+00,-7.047264575958251953e+00,2.614502429962158203e+00,5.891281127929687500e+00,-1.945388793945312500e+02,-8.382558441162109375e+01,-1.656756591796875000e+02,4.030399620532989502e-01,-6.667101287841796875e+01,-1.826865997314453125e+02,-2.342173099517822266e+00,7.562124633789062500e+01,3.135642242431640625e+01
1.100600957870483398e+00,1.000000000000000000e+00,-7.111883640289306641e+00,2.668633222579956055e+00,5.900816917419433594e+00,-1.944797973632812500e+02,-8.375260162353515625e+01,-1.656097412109375000e+02,4.030399620532989502e-01,-6.667101287841796875e+01,-1.826865997314453125e+02,-2.342245101928710938e+00,7.562117004394531250e+01,3.135653114318847656e+01
1.104747056961059570e+00,1.000000000000000000e+00,-7.176589012145996094e+00,2.722944974899291992e+00,5.910291194915771484e+00,-1.944202117919921875e+02,-8.367913055419921875e+01,-1.655438232421875000e+02,4.030399620532989502e-01,-6.667101287841796875e+01,-1.826867065429687500e+02,-2.342245101928710938e+00,7.562117004394531250e+01,3.135642242431640625e+01
1.108600020408630371e+00,1.000000000000000000e+00,-7.241437435150146484e+00,2.777279615402221680e+00,5.919623851776123047e+00,-1.943610076904296875e+02,-8.360544586181640625e+01,-1.654785919189453125e+02,4.030399620532989502e-01,-6.667101287841796875e+01,-1.826865997314453125e+02,-2.342245101928710938e+00,7.562117004394531250e+01,3.135653114318847656e+01
