rpiRobotics/ARM-21-02-F-19-Robot-Motion-Program/data_performance_abb/curve_2/curve_pose_opt2/greedy0.02/realrobot/run_3.csv
timestamp,cmd_num,J1,J2,J3,J4,J5,J6
1.420000044163316488e-04,-1.000000000000000000e+00,8.512690544128417969e+00,-1.042680358886718750e+01,3.620889902114868164e+00,-2.087634124755859375e+02,-1.015728302001953125e+02,-1.814820098876953125e+02,4.031498432159423828e-01,-6.667101287841796875e+01,-1.826867065429687500e+02,-2.342245101928710938e+00,7.562117004394531250e+01,3.135653114318847656e+01
5.249999929219484329e-03,1.000000000000000000e+00,8.512748718261718750e+00,-1.042680358886718750e+01,3.620930910110473633e+00,-2.087634124755859375e+02,-1.015728302001953125e+02,-1.814821472167968750e+02,4.030399620532989502e-01,-6.667101287841796875e+01,-1.826867065429687500e+02,-2.342173099517822266e+00,7.562102508544921875e+01,3.135653114318847656e+01
9.022999554872512817e-03,1.000000000000000000e+00,8.512690544128417969e+00,-1.042680358886718750e+01,3.620889902114868164e+00,-2.087634124755859375e+02,-1.015728302001953125e+02,-1.814821472167968750e+02,4.030399620532989502e-01,-6.667101287841796875e+01,-1.826867065429687500e+02,-2.342173099517822266e+00,7.562117004394531250e+01,3.135653114318847656e+01
1.489599980413913727e-02,1.000000000000000000e+00,8.512748718261718750e+00,-1.042680358886718750e+01,3.620889902114868164e+00,-2.087635192871093750e+02,-1.015729370117187500e+02,-1.814821472167968750e+02,4.030399620532989502e-01,-6.667101287841796875e+01,-1.826867065429687500e+02,-2.342245101928710938e+00,7.562117004394531250e+01,3.135653114318847656e+01
3.890699893236160278e-02,1.000000000000000000e+00,8.512690544128417969e+00,-1.042680358886718750e+01,3.620829343795776367e+00,-2.087634124755859375e+02,-1.015729980468750000e+02,-1.814821472167968750e+02,4.030399620532989502e-01,-6.667101287841796875e+01,-1.826867065429687500e+02,-2.342245101928710938e+00,7.562117004394531250e+01,3.135653114318847656e+01
4.031800106167793274e-02,1.000000000000000000e+00,8.512690544128417969e+00,-1.042680358886718750e+01,3.620889902114868164e+00,-2.087635192871093750e+02,-1.015729370117187500e+02,-1.814822845458984375e+02,4.030399620532989502e-01,-6.667101287841796875e+01,-1.826867065429687500e+02,-2.342245101928710938e+00,7.562117004394531250e+01,3.135653114318847656e+01
4.254800081253051758e-02,1.000000000000000000e+00,8.512690544128417969e+00,-1.042680358886718750e+01,3.620889902114868164e+00,-2.087635192871093750e+02,-1.015729370117187500e+02,-1.814822845458984375e+02,4.030399620532989502e-01,-6.667101287841796875e+01,-1.826867065429687500e+02,-2.342245101928710938e+00,7.562117004394531250e+01,3.135653114318847656e+01
4.952900111675262451e-02,1.000000000000000000e+00,8.512833595275878906e+00,-1.042680358886718750e+01,3.620889902114868164e+00,-2.087634124755859375e+02,-1.015728302001953125e+02,-1.814821472167968750e+02,4.030399620532989502e-01,-6.667101287841796875e+01,-1.826867065429687500e+02,-2.342245101928710938e+00,7.562124633789062500e+01,3.135653114318847656e+01
5.201400071382522583e-02,1.000000000000000000e+00,8.512748718261718750e+00,-1.042680358886718750e+01,3.620930910110473633e+00,-2.087635192871093750e+02,-1.015728302001953125e+02,-1.814820098876953125e+02,4.030399620532989502e-01,-6.667101287841796875e+01,-1.826867065429687500e+02,-2.342245101928710938e+00,7.562117004394531250e+01,3.135653114318847656e+01
5.335399881005287170e-02,1.000000000000000000e+00,8.512748718261718750e+00,-1.042680358886718750e+01,3.620930910110473633e+00,-2.087635192871093750e+02,-1.015728302001953125e+02,-1.814820098876953125e+02,4.030399620532989502e-01,-6.667101287841796875e+01,-1.826867065429687500e+02,-2.342245101928710938e+00,7.562117004394531250e+01,3.135653114318847656e+01
5.663400143384933472e-02,1.000000000000000000e+00,8.512633323669433594e+00,-1.042675876617431641e+01,3.620889902114868164e+00,-2.087635192871093750e+02,-1.015729370117187500e+02,-1.814821472167968750e+02,4.030399620532989502e-01,-6.667101287841796875e+01,-1.826867065429687500e+02,-2.342245101928710938e+00,7.562124633789062500e+01,3.135653114318847656e+01
5.951299890875816345e-02,1.000000000000000000e+00,8.512203216552734375e+00,-1.042646408081054688e+01,3.620889902114868164e+00,-2.087635192871093750e+02,-1.015728302001953125e+02,-1.814821472167968750e+02,4.030399620532989502e-01,-6.667101287841796875e+01,-1.826867065429687500e+02,-2.342173099517822266e+00,7.562124633789062500e+01,3.135653114318847656e+01
6.169399991631507874e-02,1.000000000000000000e+00,8.512203216552734375e+00,-1.042646408081054688e+01,3.620889902114868164e+00,-2.087635192871093750e+02,-1.015728302001953125e+02,-1.814821472167968750e+02,4.030399620532989502e-01,-6.667101287841796875e+01,-1.826867065429687500e+02,-2.342173099517822266e+00,7.562124633789062500e+01,3.135653114318847656e+01
6.441400200128555298e-02,1.000000000000000000e+00,8.511255264282226562e+00,-1.042576217651367188e+01,3.620889902114868164e+00,-2.087634124755859375e+02,-1.015729370117187500e+02,-1.814821472167968750e+02,4.030399620532989502e-01,-6.667101287841796875e+01,-1.826867065429687500e+02,-2.342245101928710938e+00,7.562117004394531250e+01,3.135642242431640625e+01
6.573899835348129272e-02,1.000000000000000000e+00,8.511255264282226562e+00,-1.042576217651367188e+01,3.620889902114868164e+00,-2.087634124755859375e+02,-1.015729370117187500e+02,-1.814821472167968750e+02,4.030399620532989502e-01,-6.667101287841796875e+01,-1.826867065429687500e+02,-2.342245101928710938e+00,7.562117004394531250e+01,3.135642242431640625e+01
6.978499889373779297e-02,1.000000000000000000e+00,8.509303092956542969e+00,-1.042429161071777344e+01,3.620930910110473633e+00,-2.087634124755859375e+02,-1.015727844238281250e+02,-1.814821472167968750e+02,4.030399620532989502e-01,-6.667111206054687500e+01,-1.826867065429687500e+02,-2.342316627502441406e+00,7.562117004394531250e+01,3.135653114318847656e+01
7.224500179290771484e-02,1.000000000000000000e+00,8.506375312805175781e+00,-1.042220973968505859e+01,3.620971441268920898e+00,-2.087634124755859375e+02,-1.015726699829101562e+02,-1.814821472167968750e+02,4.030399620532989502e-01,-6.667101287841796875e+01,-1.826867065429687500e+02,-2.342245101928710938e+00,7.562117004394531250e+01,3.135653114318847656e+01
7.354599982500076294e-02,1.000000000000000000e+00,8.506375312805175781e+00,-1.042220973968505859e+01,3.620971441268920898e+00,-2.087634124755859375e+02,-1.015726699829101562e+02,-1.814821472167968750e+02,4.030399620532989502e-01,-6.667101287841796875e+01,-1.826867065429687500e+02,-2.342245101928710938e+00,7.562117004394531250e+01,3.135653114318847656e+01
7.679399847984313965e-02,1.000000000000000000e+00,8.502356529235839844e+00,-1.041913223266601562e+01,3.621032476425170898e+00,-2.087633056640625000e+02,-1.015721969604492188e+02,-1.814820098876953125e+02,4.030399620532989502e-01,-6.667101287841796875e+01,-1.826867065429687500e+02,-2.342245101928710938e+00,7.562117004394531250e+01,3.135653114318847656e+01
7.930299639701843262e-02,1.000000000000000000e+00,8.502356529235839844e+00,-1.041913223266601562e+01,3.621032476425170898e+00,-2.087633056640625000e+02,-1.015721969604492188e+02,-1.814820098876953125e+02,4.030399620532989502e-01,-6.667101287841796875e+01,-1.826867065429687500e+02,-2.342245101928710938e+00,7.562117004394531250e+01,3.135653114318847656e+01
8.186600357294082642e-02,1.000000000000000000e+00,8.497332572937011719e+00,-1.041481018066406250e+01,3.621113538742065430e+00,-2.087628784179687500e+02,-1.015712356567382812e+02,-1.814816589355468750e+02,4.030399620532989502e-01,-6.667101287841796875e+01,-1.826867065429687500e+02,-2.342245101928710938e+00,7.562117004394531250e+01,3.135653114318847656e+01
8.453299850225448608e-02,1.000000000000000000e+00,8.491044998168945312e+00,-1.040933322906494141e+01,3.621459484100341797e+00,-2.087615661621093750e+02,-1.015692138671875000e+02,-1.814807739257812500e+02,4.030399620532989502e-01,-6.667101287841796875e+01,-1.826867065429687500e+02,-2.342316627502441406e+00,7.562117004394531250e+01,3.135653114318847656e+01
8.784200251102447510e-02,1.000000000000000000e+00,8.483408927917480469e+00,-1.040227222442626953e+01,3.621886253356933594e+00,-2.087590942382812500e+02,-1.015659027099609375e+02,-1.814784851074218750e+02,4.030399620532989502e-01,-6.667101287841796875e+01,-1.826867065429687500e+02,-2.342245101928710938e+00,7.562117004394531250e+01,3.135653114318847656e+01
8.916600048542022705e-02,1.000000000000000000e+00,8.483408927917480469e+00,-1.040227222442626953e+01,3.621886253356933594e+00,-2.087590942382812500e+02,-1.015659027099609375e+02,-1.814784851074218750e+02,4.030399620532989502e-01,-6.667101287841796875e+01,-1.826867065429687500e+02,-2.342245101928710938e+00,7.562117004394531250e+01,3.135653114318847656e+01
9.235300123691558838e-02,1.000000000000000000e+00,8.474051475524902344e+00,-1.039308452606201172e+01,3.622496366500854492e+00,-2.087554016113281250e+02,-1.015613708496093750e+02,-1.814749450683593750e+02,4.030399620532989502e-01,-6.667101287841796875e+01,-1.826867065429687500e+02,-2.342173099517822266e+00,7.562117004394531250e+01,3.135642242431640625e+01
9.527800232172012329e-02,1.000000000000000000e+00,8.474051475524902344e+00,-1.039308452606201172e+01,3.622496366500854492e+00,-2.087554016113281250e+02,-1.015613708496093750e+02,-1.814749450683593750e+02,4.030399620532989502e-01,-6.667101287841796875e+01,-1.826867065429687500e+02,-2.342173099517822266e+00,7.562117004394531250e+01,3.135642242431640625e+01
9.991399943828582764e-02,1.000000000000000000e+00,8.462655067443847656e+00,-1.038131713867187500e+01,3.623350143432617188e+00,-2.087504425048828125e+02,-1.015546569824218750e+02,-1.814693908691406250e+02,4.030399620532989502e-01,-6.667101287841796875e+01,-1.826867065429687500e+02,-2.342173099517822266e+00,7.562117004394531250e+01,3.135653114318847656e+01
1.038580015301704407e-01,1.000000000000000000e+00,8.448531150817871094e+00,-1.036674308776855469e+01,3.624489068984985352e+00,-2.087437591552734375e+02,-1.015455856323242188e+02,-1.814615173339843750e+02,4.030399620532989502e-01,-6.667101287841796875e+01,-1.826867065429687500e+02,-2.342245101928710938e+00,7.562117004394531250e+01,3.135653114318847656e+01
1.078400015830993652e-01,1.000000000000000000e+00,8.431536674499511719e+00,-1.034947776794433594e+01,3.626095056533813477e+00,-2.087347564697265625e+02,-1.015334854125976562e+02,-1.814511566162109375e+02,4.030399620532989502e-01,-6.667111206054687500e+01,-1.826867065429687500e+02,-2.342316627502441406e+00,7.562117004394531250e+01,3.135653114318847656e+01
1.118279993534088135e-01,1.000000000000000000e+00,8.411786079406738281e+00,-1.033015155792236328e+01,3.628250360488891602e+00,-2.087226867675781250e+02,-1.015184478759765625e+02,-1.814380645751953125e+02,4.030399620532989502e-01,-6.667101287841796875e+01,-1.826867065429687500e+02,-2.342245101928710938e+00,7.562117004394531250e+01,3.135653114318847656e+01
1.161179989576339722e-01,1.000000000000000000e+00,8.389423370361328125e+00,-1.030919551849365234e+01,3.630913734436035156e+00,-2.087076721191406250e+02,-1.015000000000000000e+02,-1.814211730957031250e+02,4.030399620532989502e-01,-6.667101287841796875e+01,-1.826867065429687500e+02,-2.342245101928710938e+00,7.562117004394531250e+01,3.135642242431640625e+01
1.194859966635704041e-01,1.000000000000000000e+00,8.365108489990234375e+00,-1.028699588775634766e+01,3.633902311325073242e+00,-2.086893463134765625e+02,-1.014781951904296875e+02,-1.814013671875000000e+02,4.030399620532989502e-01,-6.667111206054687500e+01,-1.826867065429687500e+02,-2.342245101928710938e+00,7.562117004394531250e+01,3.135653114318847656e+01
1.238609999418258667e-01,1.000000000000000000e+00,8.338239669799804688e+00,-1.026373195648193359e+01,3.637236595153808594e+00,-2.086669158935546875e+02,-1.014518585205078125e+02,-1.813775634765625000e+02,4.030399620532989502e-01,-6.667101287841796875e+01,-1.826867065429687500e+02,-2.342245101928710938e+00,7.562117004394531250e+01,3.135653114318847656e+01
1.283330023288726807e-01,1.000000000000000000e+00,8.308556556701660156e+00,-1.023899745941162109e+01,3.640977859497070312e+00,-2.086413726806640625e+02,-1.014212570190429688e+02,-1.813503112792968750e+02,4.030399620532989502e-01,-6.667101287841796875e+01,-1.826867065429687500e+02,-2.342316627502441406e+00,7.562117004394531250e+01,3.135653114318847656e+01
1.317950040102005005e-01,1.000000000000000000e+00,8.276145935058593750e+00,-1.021234035491943359e+01,3.645227193832397461e+00,-2.086129150390625000e+02,-1.013852691650390625e+02,-1.813190460205078125e+02,4.030399620532989502e-01,-6.667101287841796875e+01,-1.826867065429687500e+02,-2.342173099517822266e+00,7.562117004394531250e+01,3.135653114318847656e+01
1.357959955930709839e-01,1.000000000000000000e+00,8.241181373596191406e+00,-1.018378067016601562e+01,3.650290012359619141e+00,-2.085812072753906250e+02,-1.013433609008789062e+02,-1.812833709716796875e+02,4.030399620532989502e-01,-6.667101287841796875e+01,-1.826867065429687500e+02,-2.342245101928710938e+00,7.562102508544921875e+01,3.135653114318847656e+01
1.398690044879913330e-01,1.000000000000000000e+00,8.203346252441406250e+00,-1.015372848510742188e+01,3.655819892883300781e+00,-2.085448608398437500e+02,-1.012983627319335938e+02,-1.812428131103515625e+02,4.030399620532989502e-01,-6.667101287841796875e+01,-1.826867065429687500e+02,-2.342173099517822266e+00,7.562117004394531250e+01,3.135642242431640625e+01
1.437990069389343262e-01,1.000000000000000000e+00,8.162812232971191406e+00,-1.012206935882568359e+01,3.661675453186035156e+00,-2.085030975341796875e+02,-1.012507019042968750e+02,-1.811972503662109375e+02,4.030399620532989502e-01,-6.667101287841796875e+01,-1.826867065429687500e+02,-2.342316627502441406e+00,7.562117004394531250e+01,3.135653114318847656e+01
1.478320062160491943e-01,1.000000000000000000e+00,8.119837760925292969e+00,-1.008889389038085938e+01,3.667836427688598633e+00,-2.084591064453125000e+02,-1.011974868774414062e+02,-1.811484069824218750e+02,4.030399620532989502e-01,-6.667101287841796875e+01,-1.826867065429687500e+02,-2.342245101928710938e+00,7.562117004394531250e+01,3.135653114318847656e+01
1.525160074234008789e-01,1.000000000000000000e+00,8.074882507324218750e+00,-1.005383968353271484e+01,3.674464225769042969e+00,-2.084139556884765625e+02,-1.011391067504882812e+02,-1.810979614257812500e+02,4.030399620532989502e-01,-6.667101287841796875e+01,-1.826867065429687500e+02,-2.342245101928710938e+00,7.562117004394531250e+01,3.135642242431640625e+01
1.558810025453567505e-01,1.000000000000000000e+00,8.027947425842285156e+00,-1.001711082458496094e+01,3.681560277938842773e+00,-2.083651885986328125e+02,-1.010785903930664062e+02,-1.810441131591796875e+02,4.030399620532989502e-01,-6.667101287841796875e+01,-1.826867065429687500e+02,-2.342245101928710938e+00,7.562117004394531250e+01,3.135653114318847656e+01
1.608030050992965698e-01,1.000000000000000000e+00,7.979030609130859375e+00,-9.978460311889648438e+00,3.689103364944458008e+00,-2.083128356933593750e+02,-1.010149917602539062e+02,-1.809857788085937500e+02,4.028751850128173828e-01,-6.667101287841796875e+01,-1.826867065429687500e+02,-2.342245101928710938e+00,7.562117004394531250e+01,3.135653114318847656e+01
1.640609949827194214e-01,1.000000000000000000e+00,7.927559852600097656e+00,-9.937477111816406250e+00,3.696930885314941406e+00,-2.082591094970703125e+02,-1.009489822387695312e+02,-1.809254913330078125e+02,4.030399620532989502e-01,-6.667101287841796875e+01,-1.826867065429687500e+02,-2.342245101928710938e+00,7.562117004394531250e+01,3.135642242431640625e+01
1.678870022296905518e-01,1.000000000000000000e+00,7.873705387115478516e+00,-9.893642425537109375e+00,3.705124855041503906e+00,-2.082036895751953125e+02,-1.008810577392578125e+02,-1.808654785156250000e+02,4.030399620532989502e-01,-6.667101287841796875e+01,-1.826867065429687500e+02,-2.342245101928710938e+00,7.562117004394531250e+01,3.135653114318847656e+01
1.718879938125610352e-01,1.000000000000000000e+00,7.817640781402587891e+00,-9.847567558288574219e+00,3.713542222976684570e+00,-2.081475982666015625e+02,-1.008110504150390625e+02,-1.808024749755859375e+02,4.030399620532989502e-01,-6.667101287841796875e+01,-1.826867065429687500e+02,-2.342245101928710938e+00,7.562117004394531250e+01,3.135653114318847656e+01
1.766790002584457397e-01,1.000000000000000000e+00,7.759969234466552734e+00,-9.799388885498046875e+00,3.722182989120483398e+00,-2.080907592773437500e+02,-1.007393951416015625e+02,-1.807383880615234375e+02,4.030399620532989502e-01,-6.667101287841796875e+01,-1.826867065429687500e+02,-2.342173099517822266e+00,7.562102508544921875e+01,3.135653114318847656e+01
1.800269931554794312e-01,1.000000000000000000e+00,7.700976848602294922e+00,-9.749806404113769531e+00,3.731068134307861328e+00,-2.080322418212890625e+02,-1.006674652099609375e+02,-1.806740417480468750e+02,4.030399620532989502e-01,-6.667092895507812500e+01,-1.826867065429687500e+02,-2.342245101928710938e+00,7.562117004394531250e+01,3.135653114318847656e+01
1.840469986200332642e-01,1.000000000000000000e+00,7.640548706054687500e+00,-9.699274063110351562e+00,3.739993810653686523e+00,-2.079735717773437500e+02,-1.005946960449218750e+02,-1.806087341308593750e+02,4.030399620532989502e-01,-6.667101287841796875e+01,-1.826865997314453125e+02,-2.342245101928710938e+00,7.562117004394531250e+01,3.135653114318847656e+01
1.880619972944259644e-01,1.000000000000000000e+00,7.579001903533935547e+00,-9.647337913513183594e+00,3.749000787734985352e+00,-2.079145660400390625e+02,-1.005213317871093750e+02,-1.805430145263671875e+02,4.030399620532989502e-01,-6.667111206054687500e+01,-1.826867065429687500e+02,-2.342245101928710938e+00,7.562117004394531250e+01,3.135653114318847656e+01
1.919980049133300781e-01,1.000000000000000000e+00,7.516736030578613281e+00,-9.594633102416992188e+00,3.758007764816284180e+00,-2.078558807373046875e+02,-1.004470138549804688e+02,-1.804778289794921875e+02,4.030399620532989502e-01,-6.667101287841796875e+01,-1.826867065429687500e+02,-2.342173099517822266e+00,7.562117004394531250e+01,3.135642242431640625e+01
1.947830021381378174e-01,1.000000000000000000e+00,7.453638553619384766e+00,-9.541498184204101562e+00,3.767258644104003906e+00,-2.077967376708984375e+02,-1.003735351562500000e+02,-1.804111022949218750e+02,4.030399620532989502e-01,-6.667101287841796875e+01,-1.826867065429687500e+02,-2.342245101928710938e+00,7.562117004394531250e+01,3.135653114318847656e+01
2.008659988641738892e-01,1.000000000000000000e+00,7.390024185180664062e+00,-9.487865447998046875e+00,3.776855230331420898e+00,-2.077372741699218750e+02,-1.002996978759765625e+02,-1.803453979492187500e+02,4.030399620532989502e-01,-6.667101287841796875e+01,-1.826867065429687500e+02,-2.342316627502441406e+00,7.562117004394531250e+01,3.135653114318847656e+01
2.043550014495849609e-01,1.000000000000000000e+00,7.325605869293212891e+00,-9.433848381042480469e+00,3.786431550979614258e+00,-2.076782684326171875e+02,-1.002258529663085938e+02,-1.802793273925781250e+02,4.030399620532989502e-01,-6.667101287841796875e+01,-1.826867065429687500e+02,-2.342245101928710938e+00,7.562117004394531250e+01,3.135642242431640625e+01
2.083420008420944214e-01,1.000000000000000000e+00,7.260872840881347656e+00,-9.379378318786621094e+00,3.796089410781860352e+00,-2.076183776855468750e+02,-1.001507339477539062e+02,-1.802128143310546875e+02,4.030399620532989502e-01,-6.667101287841796875e+01,-1.826867065429687500e+02,-2.342245101928710938e+00,7.562102508544921875e+01,3.135653114318847656e+01
2.122520059347152710e-01,1.000000000000000000e+00,7.195822715759277344e+00,-9.324862480163574219e+00,3.805584192276000977e+00,-2.075592803955078125e+02,-1.000771560668945312e+02,-1.801474914550781250e+02,4.030399620532989502e-01,-6.667111206054687500e+01,-1.826867065429687500e+02,-2.342245101928710938e+00,7.562117004394531250e+01,3.135653114318847656e+01
2.162310034036636353e-01,1.000000000000000000e+00,7.131031513214111328e+00,-9.270278930664062500e+00,3.815017938613891602e+00,-2.075000152587890625e+02,-1.000032577514648438e+02,-1.800815887451171875e+02,4.030399620532989502e-01,-6.667101287841796875e+01,-1.826867065429687500e+02,-2.342245101928710938e+00,7.562117004394531250e+01,3.135653114318847656e+01
2.188459932804107666e-01,1.000000000000000000e+00,7.066096782684326172e+00,-9.215559005737304688e+00,3.824513196945190430e+00,-2.074409179687500000e+02,-9.992942047119140625e+01,-1.800150604248046875e+02,4.030399620532989502e-01,-6.667101287841796875e+01,-1.826867065429687500e+02,-2.342316627502441406e+00,7.562124633789062500e+01,3.135642242431640625e+01
2.251919955015182495e-01,1.000000000000000000e+00,7.001132965087890625e+00,-9.160862922668457031e+00,3.834069013595581055e+00,-2.073818664550781250e+02,-9.985429382324218750e+01,-1.799494781494140625e+02,4.030399620532989502e-01,-6.667101287841796875e+01,-1.826867065429687500e+02,-2.342245101928710938e+00,7.562117004394531250e+01,3.135642242431640625e+01
2.267359942197799683e-01,1.000000000000000000e+00,6.936284065246582031e+00,-9.106122016906738281e+00,3.843604564666748047e+00,-2.073219299316406250e+02,-9.978028869628906250e+01,-1.798826141357421875e+02,4.030399620532989502e-01,-6.667101287841796875e+01,-1.826867065429687500e+02,-2.342316627502441406e+00,7.562124633789062500e+01,3.135653114318847656e+01
2.308669984340667725e-01,1.000000000000000000e+00,6.871464729309082031e+00,-9.051424980163574219e+00,3.853038787841796875e+00,-2.072626647949218750e+02,-9.970629119873046875e+01,-1.798164978027343750e+02,4.030399620532989502e-01,-6.667101287841796875e+01,-1.826867065429687500e+02,-2.342245101928710938e+00,7.562117004394531250e+01,3.135653114318847656e+01
2.364529967308044434e-01,1.000000000000000000e+00,6.806673526763916016e+00,-8.996886253356933594e+00,3.862432003021240234e+00,-2.072033691406250000e+02,-9.963201904296875000e+01,-1.797510528564453125e+02,4.030399620532989502e-01,-6.667092895507812500e+01,-1.826867065429687500e+02,-2.342316627502441406e+00,7.562117004394531250e+01,3.135653114318847656e+01
2.404430061578750610e-01,1.000000000000000000e+00,6.741824626922607422e+00,-8.942417144775390625e+00,3.871702909469604492e+00,-2.071437835693359375e+02,-9.955684661865234375e+01,-1.796842498779296875e+02,4.030399620532989502e-01,-6.667111206054687500e+01,-1.826867065429687500e+02,-2.342245101928710938e+00,7.562117004394531250e+01,3.135653114318847656e+01
2.443930059671401978e-01,1.000000000000000000e+00,6.677291393280029297e+00,-8.888104438781738281e+00,3.881218433380126953e+00,-2.070845336914062500e+02,-9.948278808593750000e+01,-1.796181945800781250e+02,4.030399620532989502e-01,-6.667101287841796875e+01,-1.826867065429687500e+02,-2.342245101928710938e+00,7.562117004394531250e+01,3.135653114318847656e+01
2.492969930171966553e-01,1.000000000000000000e+00,6.612730026245117188e+00,-8.833724975585937500e+00,3.890774726867675781e+00,-2.070248565673828125e+02,-9.940947723388671875e+01,-1.795523376464843750e+02,4.030399620532989502e-01,-6.667101287841796875e+01,-1.826867065429687500e+02,-2.342316627502441406e+00,7.562102508544921875e+01,3.135653114318847656e+01
2.526440024375915527e-01,1.000000000000000000e+00,6.548283100128173828e+00,-8.779503822326660156e+00,3.900310039520263672e+00,-2.069659118652343750e+02,-9.933520507812500000e+01,-1.794858856201171875e+02,4.030399620532989502e-01,-6.667101287841796875e+01,-1.826867065429687500e+02,-2.342245101928710938e+00,7.562117004394531250e+01,3.135653114318847656e+01
2.567160129547119141e-01,1.000000000000000000e+00,6.483922481536865234e+00,-8.725486755371093750e+00,3.909906864166259766e+00,-2.069064788818359375e+02,-9.926019287109375000e+01,-1.794199676513671875e+02,4.030399620532989502e-01,-6.667101287841796875e+01,-1.826867065429687500e+02,-2.342316627502441406e+00,7.562102508544921875e+01,3.135653114318847656e+01
2.607870101928710938e-01,1.000000000000000000e+00,6.419332027435302734e+00,-8.671422958374023438e+00,3.919340610504150391e+00,-2.068470764160156250e+02,-9.918629455566406250e+01,-1.793544616699218750e+02,4.030399620532989502e-01,-6.667101287841796875e+01,-1.826867065429687500e+02,-2.342245101928710938e+00,7.562117004394531250e+01,3.135642242431640625e+01
2.659110128879547119e-01,1.000000000000000000e+00,6.290495872497558594e+00,-8.563501358032226562e+00,3.938025474548339844e+00,-2.067278747558593750e+02,-9.903887939453125000e+01,-1.792222747802734375e+02,4.030399620532989502e-01,-6.667101287841796875e+01,-1.826867065429687500e+02,-2.342316627502441406e+00,7.562117004394531250e+01,3.135653114318847656e+01
2.685270011425018311e-01,1.000000000000000000e+00,6.290495872497558594e+00,-8.563501358032226562e+00,3.938025474548339844e+00,-2.067278747558593750e+02,-9.903887939453125000e+01,-1.792222747802734375e+02,4.030399620532989502e-01,-6.667101287841796875e+01,-1.826867065429687500e+02,-2.342316627502441406e+00,7.562117004394531250e+01,3.135653114318847656e+01
2.734450101852416992e-01,1.000000000000000000e+00,6.225963115692138672e+00,-8.509596824645996094e+00,3.947540760040283203e+00,-2.066689300537109375e+02,-9.896428680419921875e+01,-1.791564178466796875e+02,4.030399620532989502e-01,-6.667101287841796875e+01,-1.826867065429687500e+02,-2.342316627502441406e+00,7.562124633789062500e+01,3.135653114318847656e+01
2.768639922142028809e-01,1.000000000000000000e+00,6.161401271820068359e+00,-8.455669403076171875e+00,3.956954479217529297e+00,-2.066095581054687500e+02,-9.888996887207031250e+01,-1.790900421142578125e+02,4.030399620532989502e-01,-6.667101287841796875e+01,-1.826867065429687500e+02,-2.342245101928710938e+00,7.562117004394531250e+01,3.135653114318847656e+01
2.807469964027404785e-01,1.000000000000000000e+00,6.096810817718505859e+00,-8.401629447937011719e+00,3.966286659240722656e+00,-2.065503082275390625e+02,-9.881616973876953125e+01,-1.790247955322265625e+02,4.030399620532989502e-01,-6.667101287841796875e+01,-1.826867065429687500e+02,-2.342316627502441406e+00,7.562117004394531250e+01,3.135653114318847656e+01
2.827799916267395020e-01,1.000000000000000000e+00,6.032278060913085938e+00,-8.347702026367187500e+00,3.975517272949218750e+00,-2.064908447265625000e+02,-9.874222564697265625e+01,-1.789587402343750000e+02,4.030399620532989502e-01,-6.667101287841796875e+01,-1.826867065429687500e+02,-2.342316627502441406e+00,7.562117004394531250e+01,3.135653114318847656e+01
2.867369949817657471e-01,1.000000000000000000e+00,5.967486858367919922e+00,-8.293571472167968750e+00,3.984768152236938477e+00,-2.064314727783203125e+02,-9.866769409179687500e+01,-1.788930206298828125e+02,4.030399620532989502e-01,-6.667111206054687500e+01,-1.826867065429687500e+02,-2.342173099517822266e+00,7.562117004394531250e+01,3.135653114318847656e+01
2.928780019283294678e-01,1.000000000000000000e+00,5.902379989624023438e+00,-8.239622116088867188e+00,3.994222640991210938e+00,-2.063724365234375000e+02,-9.859357452392578125e+01,-1.788272552490234375e+02,4.030399620532989502e-01,-6.667101287841796875e+01,-1.826867065429687500e+02,-2.342245101928710938e+00,7.562117004394531250e+01,3.135653114318847656e+01
2.976889908313751221e-01,1.000000000000000000e+00,5.837445259094238281e+00,-8.185423851013183594e+00,4.003880500793457031e+00,-2.063128662109375000e+02,-9.851984405517578125e+01,-1.787604522705078125e+02,4.030399620532989502e-01,-6.667101287841796875e+01,-1.826867065429687500e+02,-2.342245101928710938e+00,7.562117004394531250e+01,3.135642242431640625e+01
3.009690046310424805e-01,1.000000000000000000e+00,5.772366523742675781e+00,-8.131269454956054688e+00,4.013354778289794922e+00,-2.062534942626953125e+02,-9.844642639160156250e+01,-1.786941833496093750e+02,4.030399620532989502e-01,-6.667101287841796875e+01,-1.826867065429687500e+02,-2.342173099517822266e+00,7.562117004394531250e+01,3.135653114318847656e+01
3.051390051841735840e-01,1.000000000000000000e+00,5.707431793212890625e+00,-8.077320098876953125e+00,4.022951602935791016e+00,-2.061939239501953125e+02,-9.837173461914062500e+01,-1.786292114257812500e+02,4.030399620532989502e-01,-6.667101287841796875e+01,-1.826867065429687500e+02,-2.342316627502441406e+00,7.562117004394531250e+01,3.135642242431640625e+01
3.068130016326904297e-01,1.000000000000000000e+00,5.642439365386962891e+00,-8.023076057434082031e+00,4.032222747802734375e+00,-2.061349792480468750e+02,-9.829837036132812500e+01,-1.785626220703125000e+02,4.030399620532989502e-01,-6.667111206054687500e+01,-1.826867065429687500e+02,-2.342173099517822266e+00,7.562117004394531250e+01,3.135653114318847656e+01
3.129360079765319824e-01,1.000000000000000000e+00,5.577648162841796875e+00,-7.968877315521240234e+00,4.041636466979980469e+00,-2.060755462646484375e+02,-9.822436523437500000e+01,-1.784971771240234375e+02,4.031498432159423828e-01,-6.667101287841796875e+01,-1.826867065429687500e+02,-2.342245101928710938e+00,7.562117004394531250e+01,3.135653114318847656e+01
3.167169988155364990e-01,1.000000000000000000e+00,5.512742042541503906e+00,-7.914633750915527344e+00,4.051171779632568359e+00,-2.060162506103515625e+02,-9.815073394775390625e+01,-1.784311981201171875e+02,4.031498432159423828e-01,-6.667101287841796875e+01,-1.826867065429687500e+02,-2.342245101928710938e+00,7.562117004394531250e+01,3.135653114318847656e+01
3.197529911994934082e-01,1.000000000000000000e+00,5.447606563568115234e+00,-7.860321998596191406e+00,4.060809135437011719e+00,-2.059573059082031250e+02,-9.807624816894531250e+01,-1.783644561767578125e+02,4.030399620532989502e-01,-6.667101287841796875e+01,-1.826867065429687500e+02,-2.342245101928710938e+00,7.562117004394531250e+01,3.135653114318847656e+01
3.237749934196472168e-01,1.000000000000000000e+00,5.382356166839599609e+00,-7.805919170379638672e+00,4.070425987243652344e+00,-2.058975677490234375e+02,-9.800267791748046875e+01,-1.782993621826171875e+02,4.030399620532989502e-01,-6.667101287841796875e+01,-1.826867065429687500e+02,-2.342245101928710938e+00,7.562117004394531250e+01,3.135653114318847656e+01
3.267489969730377197e-01,1.000000000000000000e+00,5.317248821258544922e+00,-7.751426219940185547e+00,4.079839706420898438e+00,-2.058384246826171875e+02,-9.792830657958984375e+01,-1.782339782714843750e+02,4.030399620532989502e-01,-6.667101287841796875e+01,-1.826867065429687500e+02,-2.342245101928710938e+00,7.562102508544921875e+01,3.135653114318847656e+01
3.332360088825225830e-01,1.000000000000000000e+00,5.317248821258544922e+00,-7.751426219940185547e+00,4.079839706420898438e+00,-2.058384246826171875e+02,-9.792830657958984375e+01,-1.782339782714843750e+02,4.030399620532989502e-01,-6.667101287841796875e+01,-1.826867065429687500e+02,-2.342245101928710938e+00,7.562117004394531250e+01,3.135642242431640625e+01
3.357309997081756592e-01,1.000000000000000000e+00,5.187235355377197266e+00,-7.642101764678955078e+00,4.098646640777587891e+00,-2.057195892333984375e+02,-9.778002929687500000e+01,-1.781024169921875000e+02,4.030399620532989502e-01,-6.667101287841796875e+01,-1.826867065429687500e+02,-2.342245101928710938e+00,7.562117004394531250e+01,3.135653114318847656e+01
3.398289978504180908e-01,1.000000000000000000e+00,5.122128486633300781e+00,-7.587404727935791016e+00,4.108324527740478516e+00,-2.056607055664062500e+02,-9.770687866210937500e+01,-1.780364990234375000e+02,4.030399620532989502e-01,-6.667101287841796875e+01,-1.826867065429687500e+02,-2.342316627502441406e+00,7.562117004394531250e+01,3.135653114318847656e+01
3.438200056552886963e-01,1.000000000000000000e+00,5.056963920593261719e+00,-7.532889366149902344e+00,4.118022918701171875e+00,-2.056008148193359375e+02,-9.763298034667968750e+01,-1.779701690673828125e+02,4.030399620532989502e-01,-6.667101287841796875e+01,-1.826867065429687500e+02,-2.342245101928710938e+00,7.562117004394531250e+01,3.135653114318847656e+01
3.477379977703094482e-01,1.000000000000000000e+00,4.991627216339111328e+00,-7.478305816650390625e+00,4.127802848815917969e+00,-2.055421295166015625e+02,-9.755881500244140625e+01,-1.779051361083984375e+02,4.030399620532989502e-01,-6.667101287841796875e+01,-1.826867065429687500e+02,-2.342245101928710938e+00,7.562117004394531250e+01,3.135642242431640625e+01
3.507629930973052979e-01,1.000000000000000000e+00,4.926606655120849609e+00,-7.423812866210937500e+00,4.137541770935058594e+00,-2.054827575683593750e+02,-9.748465728759765625e+01,-1.778396301269531250e+02,4.030399620532989502e-01,-6.667101287841796875e+01,-1.826867065429687500e+02,-2.342245101928710938e+00,7.562117004394531250e+01,3.135653114318847656e+01
3.574030101299285889e-01,1.000000000000000000e+00,4.926606655120849609e+00,-7.423812866210937500e+00,4.137541770935058594e+00,-2.054827575683593750e+02,-9.748465728759765625e+01,-1.778396301269531250e+02,4.030399620532989502e-01,-6.667101287841796875e+01,-1.826867065429687500e+02,-2.342245101928710938e+00,7.562117004394531250e+01,3.135653114318847656e+01
3.597320020198822021e-01,1.000000000000000000e+00,4.796966552734375000e+00,-7.314827919006347656e+00,4.156389236450195312e+00,-2.053639221191406250e+02,-9.733787536621093750e+01,-1.777078704833984375e+02,4.030399620532989502e-01,-6.667101287841796875e+01,-1.826867065429687500e+02,-2.342245101928710938e+00,7.562117004394531250e+01,3.135653114318847656e+01
3.641290068626403809e-01,1.000000000000000000e+00,4.732404708862304688e+00,-7.260447502136230469e+00,4.166006088256835938e+00,-2.053040924072265625e+02,-9.726355743408203125e+01,-1.776414794921875000e+02,4.030399620532989502e-01,-6.667101287841796875e+01,-1.826867065429687500e+02,-2.342245101928710938e+00,7.562117004394531250e+01,3.135653114318847656e+01
3.677510023117065430e-01,1.000000000000000000e+00,4.667900562286376953e+00,-7.206045150756835938e+00,4.175541400909423828e+00,-2.052453155517578125e+02,-9.718928527832031250e+01,-1.775756225585937500e+02,4.030399620532989502e-01,-6.667101287841796875e+01,-1.826867065429687500e+02,-2.342316627502441406e+00,7.562117004394531250e+01,3.135653114318847656e+01
3.717359900474548340e-01,1.000000000000000000e+00,4.603252887725830078e+00,-7.151846885681152344e+00,4.185097694396972656e+00,-2.051858367919921875e+02,-9.711538696289062500e+01,-1.775103759765625000e+02,4.030399620532989502e-01,-6.667101287841796875e+01,-1.826867065429687500e+02,-2.342316627502441406e+00,7.562117004394531250e+01,3.135653114318847656e+01
3.755449950695037842e-01,1.000000000000000000e+00,4.538461208343505859e+00,-7.097738742828369141e+00,4.194490909576416016e+00,-2.051265258789062500e+02,-9.704164886474609375e+01,-1.774437866210937500e+02,4.030399620532989502e-01,-6.667101287841796875e+01,-1.826867065429687500e+02,-2.342245101928710938e+00,7.562117004394531250e+01,3.135653114318847656e+01
3.797430098056793213e-01,1.000000000000000000e+00,4.474043369293212891e+00,-7.043336391448974609e+00,4.203742027282714844e+00,-2.050672607421875000e+02,-9.696717071533203125e+01,-1.773782653808593750e+02,4.030399620532989502e-01,-6.667101287841796875e+01,-1.826867065429687500e+02,-2.342245101928710938e+00,7.562117004394531250e+01,3.135653114318847656e+01
3.827359974384307861e-01,1.000000000000000000e+00,4.409711360931396484e+00,-6.989069461822509766e+00,4.213196277618408203e+00,-2.050079193115234375e+02,-9.689332580566406250e+01,-1.773123474121093750e+02,4.030399620532989502e-01,-6.667101287841796875e+01,-1.826867065429687500e+02,-2.342245101928710938e+00,7.562117004394531250e+01,3.135642242431640625e+01
3.877820074558258057e-01,1.000000000000000000e+00,4.409711360931396484e+00,-6.989069461822509766e+00,4.213196277618408203e+00,-2.050079193115234375e+02,-9.689332580566406250e+01,-1.773123474121093750e+02,4.030399620532989502e-01,-6.667101287841796875e+01,-1.826867065429687500e+02,-2.342245101928710938e+00,7.562117004394531250e+01,3.135642242431640625e+01
3.918569982051849365e-01,1.000000000000000000e+00,4.280559539794921875e+00,-6.880604743957519531e+00,4.232388973236083984e+00,-2.048893890380859375e+02,-9.674569702148437500e+01,-1.771805877685546875e+02,4.030399620532989502e-01,-6.667101287841796875e+01,-1.826867065429687500e+02,-2.342173099517822266e+00,7.562117004394531250e+01,3.135642242431640625e+01
3.948850035667419434e-01,1.000000000000000000e+00,4.215969085693359375e+00,-6.826428413391113281e+00,4.241985797882080078e+00,-2.048303375244140625e+02,-9.667115783691406250e+01,-1.771141967773437500e+02,4.030399620532989502e-01,-6.667101287841796875e+01,-1.826867065429687500e+02,-2.342245101928710938e+00,7.562117004394531250e+01,3.135653114318847656e+01
3.998019993305206299e-01,1.000000000000000000e+00,4.215969085693359375e+00,-6.826428413391113281e+00,4.241985797882080078e+00,-2.048303375244140625e+02,-9.667115783691406250e+01,-1.771141967773437500e+02,4.030399620532989502e-01,-6.667101287841796875e+01,-1.826867065429687500e+02,-2.342245101928710938e+00,7.562117004394531250e+01,3.135653114318847656e+01
4.027760028839111328e-01,1.000000000000000000e+00,4.086989402770996094e+00,-6.718302726745605469e+00,4.260833263397216797e+00,-2.047111968994140625e+02,-9.652368927001953125e+01,-1.769831695556640625e+02,4.030399620532989502e-01,-6.667101287841796875e+01,-1.826867065429687500e+02,-2.342316627502441406e+00,7.562117004394531250e+01,3.135642242431640625e+01
4.077830016613006592e-01,1.000000000000000000e+00,4.086989402770996094e+00,-6.718302726745605469e+00,4.260833263397216797e+00,-2.047111968994140625e+02,-9.652368927001953125e+01,-1.769831695556640625e+02,4.030399620532989502e-01,-6.667101287841796875e+01,-1.826867065429687500e+02,-2.342316627502441406e+00,7.562117004394531250e+01,3.135642242431640625e+01
4.117459952831268311e-01,1.000000000000000000e+00,3.957578897476196289e+00,-6.609792232513427734e+00,4.279782772064208984e+00,-2.045931549072265625e+02,-9.637535858154296875e+01,-1.768509826660156250e+02,4.030399620532989502e-01,-6.667101287841796875e+01,-1.826867065429687500e+02,-2.342316627502441406e+00,7.562117004394531250e+01,3.135653114318847656e+01
4.157919883728027344e-01,1.000000000000000000e+00,3.892787933349609375e+00,-6.555684566497802734e+00,4.289358615875244141e+00,-2.045338439941406250e+02,-9.630162811279296875e+01,-1.767859497070312500e+02,4.031498432159423828e-01,-6.667101287841796875e+01,-1.826865997314453125e+02,-2.342173099517822266e+00,7.562117004394531250e+01,3.135653114318847656e+01
4.197469949722290039e-01,1.000000000000000000e+00,3.828082799911499023e+00,-6.501575946807861328e+00,4.298935413360595703e+00,-2.044742126464843750e+02,-9.622794342041015625e+01,-1.767195587158203125e+02,4.030399620532989502e-01,-6.667101287841796875e+01,-1.826867065429687500e+02,-2.342245101928710938e+00,7.562117004394531250e+01,3.135642242431640625e+01
4.238019883632659912e-01,1.000000000000000000e+00,3.763492345809936523e+00,-6.447581291198730469e+00,4.308267593383789062e+00,-2.044153289794921875e+02,-9.615404510498046875e+01,-1.766539916992187500e+02,4.030399620532989502e-01,-6.667101287841796875e+01,-1.826867065429687500e+02,-2.342316627502441406e+00,7.562117004394531250e+01,3.135653114318847656e+01
4.267640113830566406e-01,1.000000000000000000e+00,3.698873281478881836e+00,-6.393269538879394531e+00,4.317681312561035156e+00,-2.043562774658203125e+02,-9.607913970947265625e+01,-1.765882720947265625e+02,4.030399620532989502e-01,-6.667101287841796875e+01,-1.826867065429687500e+02,-2.342173099517822266e+00,7.562117004394531250e+01,3.135653114318847656e+01
4.318299889564514160e-01,1.000000000000000000e+00,3.698873281478881836e+00,-6.393269538879394531e+00,4.317681312561035156e+00,-2.043562774658203125e+02,-9.607913970947265625e+01,-1.765882720947265625e+02,4.030399620532989502e-01,-6.667101287841796875e+01,-1.826867065429687500e+02,-2.342173099517822266e+00,7.562117004394531250e+01,3.135653114318847656e+01
4.357349872589111328e-01,1.000000000000000000e+00,3.569290876388549805e+00,-6.284668445587158203e+00,4.336956024169921875e+00,-2.042380218505859375e+02,-9.593230438232421875e+01,-1.764565124511718750e+02,4.030399620532989502e-01,-6.667101287841796875e+01,-1.826867065429687500e+02,-2.342173099517822266e+00,7.562124633789062500e+01,3.135653114318847656e+01
4.397940039634704590e-01,1.000000000000000000e+00,3.504241228103637695e+00,-6.230288505554199219e+00,4.346653938293457031e+00,-2.041782379150390625e+02,-9.585829925537109375e+01,-1.763908538818359375e+02,4.030399620532989502e-01,-6.667101287841796875e+01,-1.826867065429687500e+02,-2.342245101928710938e+00,7.562124633789062500e+01,3.135642242431640625e+01
4.437789916992187500e-01,1.000000000000000000e+00,3.439162731170654297e+00,-6.175750255584716797e+00,4.356209754943847656e+00,-2.041194000244140625e+02,-9.578344726562500000e+01,-1.763243255615234375e+02,4.030399620532989502e-01,-6.667101287841796875e+01,-1.826867065429687500e+02,-2.342316627502441406e+00,7.562124633789062500e+01,3.135653114318847656e+01
4.475280046463012695e-01,1.000000000000000000e+00,3.374199390411376953e+00,-6.121121883392333984e+00,4.365664482116699219e+00,-2.040605163574218750e+02,-9.570949554443359375e+01,-1.762588043212890625e+02,4.030399620532989502e-01,-6.667111206054687500e+01,-1.826867065429687500e+02,-2.342316627502441406e+00,7.562117004394531250e+01,3.135642242431640625e+01
4.540970027446746826e-01,1.000000000000000000e+00,3.374199390411376953e+00,-6.121121883392333984e+00,4.365664482116699219e+00,-2.040605163574218750e+02,-9.570949554443359375e+01,-1.762588043212890625e+02,4.030399620532989502e-01,-6.667111206054687500e+01,-1.826867065429687500e+02,-2.342316627502441406e+00,7.562117004394531250e+01,3.135642242431640625e+01
4.555619955062866211e-01,1.000000000000000000e+00,3.244272232055664062e+00,-6.012384891510009766e+00,4.384471416473388672e+00,-2.039425811767578125e+02,-9.556250000000000000e+01,-1.761270446777343750e+02,4.030399620532989502e-01,-6.667101287841796875e+01,-1.826865997314453125e+02,-2.342245101928710938e+00,7.562117004394531250e+01,3.135653114318847656e+01
4.598230123519897461e-01,1.000000000000000000e+00,3.244272232055664062e+00,-6.012384891510009766e+00,4.384471416473388672e+00,-2.039425811767578125e+02,-9.556250000000000000e+01,-1.761270446777343750e+02,4.030399620532989502e-01,-6.667101287841796875e+01,-1.826865997314453125e+02,-2.342245101928710938e+00,7.562117004394531250e+01,3.135653114318847656e+01
4.648090004920959473e-01,1.000000000000000000e+00,3.179107666015625000e+00,-5.957846641540527344e+00,4.394006729125976562e+00,-2.038827362060546875e+02,-9.548780822753906250e+01,-1.760620727539062500e+02,4.030399620532989502e-01,-6.667101287841796875e+01,-1.826867065429687500e+02,-2.342245101928710938e+00,7.562117004394531250e+01,3.135653114318847656e+01
4.675450026988983154e-01,1.000000000000000000e+00,3.048692703247070312e+00,-5.848884105682373047e+00,4.413199901580810547e+00,-2.037647552490234375e+02,-9.534022521972656250e+01,-1.759295043945312500e+02,4.030399620532989502e-01,-6.667101287841796875e+01,-1.826867065429687500e+02,-2.342316627502441406e+00,7.562102508544921875e+01,3.135653114318847656e+01
4.717989861965179443e-01,1.000000000000000000e+00,3.048692703247070312e+00,-5.848884105682373047e+00,4.413199901580810547e+00,-2.037647552490234375e+02,-9.534022521972656250e+01,-1.759295043945312500e+02,4.030399620532989502e-01,-6.667101287841796875e+01,-1.826867065429687500e+02,-2.342316627502441406e+00,7.562102508544921875e+01,3.135653114318847656e+01
4.768179953098297119e-01,1.000000000000000000e+00,2.983556747436523438e+00,-5.794436454772949219e+00,4.422674655914306641e+00,-2.037053222656250000e+02,-9.526665496826171875e+01,-1.758643341064453125e+02,4.030399620532989502e-01,-6.667092895507812500e+01,-1.826867065429687500e+02,-2.342245101928710938e+00,7.562117004394531250e+01,3.135653114318847656e+01
4.794259965419769287e-01,1.000000000000000000e+00,2.853716135025024414e+00,-5.685767650604248047e+00,4.441765785217285156e+00,-2.035867156982421875e+02,-9.511795043945312500e+01,-1.757327575683593750e+02,4.030399620532989502e-01,-6.667092895507812500e+01,-1.826867065429687500e+02,-2.342245101928710938e+00,7.562117004394531250e+01,3.135653114318847656e+01
4.838109910488128662e-01,1.000000000000000000e+00,2.853716135025024414e+00,-5.685767650604248047e+00,4.441765785217285156e+00,-2.035867156982421875e+02,-9.511795043945312500e+01,-1.757327575683593750e+02,4.030399620532989502e-01,-6.667092895507812500e+01,-1.826867065429687500e+02,-2.342245101928710938e+00,7.562117004394531250e+01,3.135653114318847656e+01
4.877910017967224121e-01,1.000000000000000000e+00,2.788838624954223633e+00,-5.631614208221435547e+00,4.451525688171386719e+00,-2.035277099609375000e+02,-9.504438018798828125e+01,-1.756677246093750000e+02,4.030399620532989502e-01,-6.667101287841796875e+01,-1.826867065429687500e+02,-2.342245101928710938e+00,7.562117004394531250e+01,3.135653114318847656e+01
4.918549954891204834e-01,1.000000000000000000e+00,2.724162101745605469e+00,-5.577256679534912109e+00,4.461203575134277344e+00,-2.034689941406250000e+02,-9.497117614746093750e+01,-1.756016082763671875e+02,4.030399620532989502e-01,-6.667111206054687500e+01,-1.826865997314453125e+02,-2.342245101928710938e+00,7.562117004394531250e+01,3.135653114318847656e+01
4.962050020694732666e-01,1.000000000000000000e+00,2.659169912338256836e+00,-5.522945404052734375e+00,4.470820426940917969e+00,-2.034096679687500000e+02,-9.489642333984375000e+01,-1.755356903076171875e+02,4.030399620532989502e-01,-6.667101287841796875e+01,-1.826867065429687500e+02,-2.342245101928710938e+00,7.562117004394531250e+01,3.135653114318847656e+01
4.997520148754119873e-01,1.000000000000000000e+00,2.529644727706909180e+00,-5.414117813110351562e+00,4.489647865295410156e+00,-2.032908477783203125e+02,-9.474916076660156250e+01,-1.754033660888671875e+02,4.028751850128173828e-01,-6.667101287841796875e+01,-1.826867065429687500e+02,-2.342245101928710938e+00,7.562117004394531250e+01,3.135653114318847656e+01
5.037999749183654785e-01,1.000000000000000000e+00,2.529644727706909180e+00,-5.414117813110351562e+00,4.489647865295410156e+00,-2.032908477783203125e+02,-9.474916076660156250e+01,-1.754033660888671875e+02,4.028751850128173828e-01,-6.667101287841796875e+01,-1.826867065429687500e+02,-2.342245101928710938e+00,7.562117004394531250e+01,3.135653114318847656e+01
5.079190135002136230e-01,1.000000000000000000e+00,2.464824676513671875e+00,-5.359783649444580078e+00,4.499203681945800781e+00,-2.032319488525390625e+02,-9.467559051513671875e+01,-1.753379364013671875e+02,4.030399620532989502e-01,-6.667101287841796875e+01,-1.826867065429687500e+02,-2.342173099517822266e+00,7.562117004394531250e+01,3.135653114318847656e+01
5.117980241775512695e-01,1.000000000000000000e+00,2.400177001953125000e+00,-5.305516719818115234e+00,4.508617401123046875e+00,-2.031728057861328125e+02,-9.460105133056640625e+01,-1.752726898193359375e+02,4.030399620532989502e-01,-6.667101287841796875e+01,-1.826867065429687500e+02,-2.342245101928710938e+00,7.562117004394531250e+01,3.135653114318847656e+01
5.157840251922607422e-01,1.000000000000000000e+00,2.335672855377197266e+00,-5.251499652862548828e+00,4.518010616302490234e+00,-2.031135406494140625e+02,-9.452774047851562500e+01,-1.752061004638671875e+02,4.030399620532989502e-01,-6.667101287841796875e+01,-1.826867065429687500e+02,-2.342316627502441406e+00,7.562117004394531250e+01,3.135653114318847656e+01
5.208449959754943848e-01,1.000000000000000000e+00,2.270852804183959961e+00,-5.197278022766113281e+00,4.527302265167236328e+00,-2.030544891357421875e+02,-9.445320129394531250e+01,-1.751402435302734375e+02,4.030399620532989502e-01,-6.667101287841796875e+01,-1.826867065429687500e+02,-2.342316627502441406e+00,7.562117004394531250e+01,3.135642242431640625e+01
5.234379768371582031e-01,1.000000000000000000e+00,2.141299009323120117e+00,-5.088858127593994141e+00,4.546109199523925781e+00,-2.029364471435546875e+02,-9.430562591552734375e+01,-1.750078582763671875e+02,4.030399620532989502e-01,-6.667101287841796875e+01,-1.826867065429687500e+02,-2.342245101928710938e+00,7.562117004394531250e+01,3.135653114318847656e+01
5.277919769287109375e-01,1.000000000000000000e+00,2.141299009323120117e+00,-5.088858127593994141e+00,4.546109199523925781e+00,-2.029364471435546875e+02,-9.430562591552734375e+01,-1.750078582763671875e+02,4.030399620532989502e-01,-6.667101287841796875e+01,-1.826867065429687500e+02,-2.342245101928710938e+00,7.562117004394531250e+01,3.135653114318847656e+01
5.317879915237426758e-01,1.000000000000000000e+00,2.076737403869628906e+00,-5.034817695617675781e+00,4.555766582489013672e+00,-2.028770294189453125e+02,-9.423242950439453125e+01,-1.749430236816406250e+02,4.030399620532989502e-01,-6.667101287841796875e+01,-1.826867065429687500e+02,-2.342316627502441406e+00,7.562117004394531250e+01,3.135653114318847656e+01
5.357789993286132812e-01,1.000000000000000000e+00,2.012032032012939453e+00,-4.980800151824951172e+00,4.565281867980957031e+00,-2.028175659179687500e+02,-9.415906524658203125e+01,-1.748767089843750000e+02,4.030399620532989502e-01,-6.667101287841796875e+01,-1.826867065429687500e+02,-2.342245101928710938e+00,7.562117004394531250e+01,3.135642242431640625e+01
5.398539900779724121e-01,1.000000000000000000e+00,1.947211980819702148e+00,-4.926669120788574219e+00,4.574898719787597656e+00,-2.027583007812500000e+02,-9.408511352539062500e+01,-1.748107299804687500e+02,4.030399620532989502e-01,-6.667101287841796875e+01,-1.826867065429687500e+02,-2.342316627502441406e+00,7.562117004394531250e+01,3.135653114318847656e+01
5.445119738578796387e-01,1.000000000000000000e+00,1.882564306259155273e+00,-4.872742176055908203e+00,4.584291934967041016e+00,-2.026990966796875000e+02,-9.401084136962890625e+01,-1.747452850341796875e+02,4.030399620532989502e-01,-6.667101287841796875e+01,-1.826867065429687500e+02,-2.342245101928710938e+00,7.562117004394531250e+01,3.135653114318847656e+01
5.487419962882995605e-01,1.000000000000000000e+00,1.817887902259826660e+00,-4.818588733673095703e+00,4.593604087829589844e+00,-2.026402740478515625e+02,-9.393758392333984375e+01,-1.746788940429687500e+02,4.030399620532989502e-01,-6.667101287841796875e+01,-1.826867065429687500e+02,-2.342245101928710938e+00,7.562117004394531250e+01,3.135653114318847656e+01
5.514439940452575684e-01,1.000000000000000000e+00,1.688621163368225098e+00,-4.709965229034423828e+00,4.612756729125976562e+00,-2.025218048095703125e+02,-9.379037475585937500e+01,-1.745482788085937500e+02,4.030399620532989502e-01,-6.667101287841796875e+01,-1.826865997314453125e+02,-2.342245101928710938e+00,7.562117004394531250e+01,3.135642242431640625e+01
5.557879805564880371e-01,1.000000000000000000e+00,1.688621163368225098e+00,-4.709965229034423828e+00,4.612756729125976562e+00,-2.025218048095703125e+02,-9.379037475585937500e+01,-1.745482788085937500e+02,4.030399620532989502e-01,-6.667101287841796875e+01,-1.826865997314453125e+02,-2.342245101928710938e+00,7.562117004394531250e+01,3.135642242431640625e+01
5.598289966583251953e-01,1.000000000000000000e+00,1.623916029930114746e+00,-4.655608177185058594e+00,4.622272014617919922e+00,-2.024622802734375000e+02,-9.371616363525390625e+01,-1.744821624755859375e+02,4.030399620532989502e-01,-6.667101287841796875e+01,-1.826867065429687500e+02,-2.342245101928710938e+00,7.562117004394531250e+01,3.135642242431640625e+01
5.638009905815124512e-01,1.000000000000000000e+00,1.559124708175659180e+00,-4.601319313049316406e+00,4.631726264953613281e+00,-2.024034881591796875e+02,-9.364221191406250000e+01,-1.744167022705078125e+02,4.030399620532989502e-01,-6.667101287841796875e+01,-1.826867065429687500e+02,-2.342245101928710938e+00,7.562117004394531250e+01,3.135653114318847656e+01
5.687050223350524902e-01,1.000000000000000000e+00,1.494505763053894043e+00,-4.547075271606445312e+00,4.641078472137451172e+00,-2.023443908691406250e+02,-9.356858825683593750e+01,-1.743506622314453125e+02,4.030399620532989502e-01,-6.667101287841796875e+01,-1.826867065429687500e+02,-2.342316627502441406e+00,7.562117004394531250e+01,3.135642242431640625e+01
5.728520154953002930e-01,1.000000000000000000e+00,1.429743170738220215e+00,-4.492853641510009766e+00,4.650451660156250000e+00,-2.022847747802734375e+02,-9.349463653564453125e+01,-1.742838592529296875e+02,4.030399620532989502e-01,-6.667101287841796875e+01,-1.826867065429687500e+02,-2.342173099517822266e+00,7.562117004394531250e+01,3.135653114318847656e+01
5.756859779357910156e-01,1.000000000000000000e+00,1.300361394882202148e+00,-4.383845329284667969e+00,4.669746398925781250e+00,-2.021665191650390625e+02,-9.334658050537109375e+01,-1.741533813476562500e+02,4.030399620532989502e-01,-6.667101287841796875e+01,-1.826867065429687500e+02,-2.342245101928710938e+00,7.562117004394531250e+01,3.135653114318847656e+01
5.798869729042053223e-01,1.000000000000000000e+00,1.300361394882202148e+00,-4.383845329284667969e+00,4.669746398925781250e+00,-2.021665191650390625e+02,-9.334658050537109375e+01,-1.741533813476562500e+02,4.030399620532989502e-01,-6.667101287841796875e+01,-1.826867065429687500e+02,-2.342245101928710938e+00,7.562117004394531250e+01,3.135653114318847656e+01
5.838199853897094727e-01,1.000000000000000000e+00,1.235484004020690918e+00,-4.329488277435302734e+00,4.679465293884277344e+00,-2.021073150634765625e+02,-9.327299499511718750e+01,-1.740870513916015625e+02,4.030399620532989502e-01,-6.667101287841796875e+01,-1.826867065429687500e+02,-2.342173099517822266e+00,7.562117004394531250e+01,3.135653114318847656e+01
5.877940058708190918e-01,1.000000000000000000e+00,1.170520424842834473e+00,-4.275244712829589844e+00,4.689041614532470703e+00,-2.020486297607421875e+02,-9.319915771484375000e+01,-1.740217437744140625e+02,4.030399620532989502e-01,-6.667101287841796875e+01,-1.826867065429687500e+02,-2.342316627502441406e+00,7.562117004394531250e+01,3.135653114318847656e+01
5.926439762115478516e-01,1.000000000000000000e+00,1.105614423751831055e+00,-4.221091270446777344e+00,4.698373794555664062e+00,-2.019890441894531250e+02,-9.312504577636718750e+01,-1.739554138183593750e+02,4.030399620532989502e-01,-6.667101287841796875e+01,-1.826867065429687500e+02,-2.342245101928710938e+00,7.562117004394531250e+01,3.135653114318847656e+01
5.958430171012878418e-01,1.000000000000000000e+00,1.040880441665649414e+00,-4.166983127593994141e+00,4.707746982574462891e+00,-2.019300689697265625e+02,-9.305184173583984375e+01,-1.738897094726562500e+02,4.030399620532989502e-01,-6.667101287841796875e+01,-1.826867065429687500e+02,-2.342316627502441406e+00,7.562124633789062500e+01,3.135653114318847656e+01
5.997779965400695801e-01,1.000000000000000000e+00,9.760892391204833984e-01,-4.112490177154541016e+00,4.717221736907958984e+00,-2.018706359863281250e+02,-9.297784423828125000e+01,-1.738248748779296875e+02,4.030399620532989502e-01,-6.667111206054687500e+01,-1.826867065429687500e+02,-2.342173099517822266e+00,7.562117004394531250e+01,3.135653114318847656e+01
6.039729714393615723e-01,1.000000000000000000e+00,9.113266468048095703e-01,-4.057861328125000000e+00,4.726757049560546875e+00,-2.018114318847656250e+02,-9.290399169921875000e+01,-1.737589416503906250e+02,4.030399620532989502e-01,-6.667101287841796875e+01,-1.826867065429687500e+02,-2.342245101928710938e+00,7.562117004394531250e+01,3.135642242431640625e+01
6.074619889259338379e-01,1.000000000000000000e+00,8.466215133666992188e-01,-4.003413677215576172e+00,4.736312866210937500e+00,-2.017524871826171875e+02,-9.282908630371093750e+01,-1.736928253173828125e+02,4.030399620532989502e-01,-6.667101287841796875e+01,-1.826867065429687500e+02,-2.342245101928710938e+00,7.562117004394531250e+01,3.135653114318847656e+01
6.119359731674194336e-01,1.000000000000000000e+00,7.818015217781066895e-01,-3.948966503143310547e+00,4.745848655700683594e+00,-2.016930847167968750e+02,-9.275620269775390625e+01,-1.736280059814453125e+02,4.030399620532989502e-01,-6.667101287841796875e+01,-1.826867065429687500e+02,-2.342173099517822266e+00,7.562117004394531250e+01,3.135653114318847656e+01
6.165120005607604980e-01,1.000000000000000000e+00,7.171825170516967773e-01,-3.894677162170410156e+00,4.755180835723876953e+00,-2.016338653564453125e+02,-9.268209838867187500e+01,-1.735618133544921875e+02,4.030399620532989502e-01,-6.667101287841796875e+01,-1.826867065429687500e+02,-2.342245101928710938e+00,7.562117004394531250e+01,3.135653114318847656e+01
6.198189854621887207e-01,1.000000000000000000e+00,6.526495814323425293e-01,-3.840252161026000977e+00,4.764574050903320312e+00,-2.015746154785156250e+02,-9.260777282714843750e+01,-1.734963684082031250e+02,4.030399620532989502e-01,-6.667101287841796875e+01,-1.826867065429687500e+02,-2.342173099517822266e+00,7.562117004394531250e+01,3.135653114318847656e+01
6.237949728965759277e-01,1.000000000000000000e+00,5.880879163742065430e-01,-3.786053657531738281e+00,4.774150371551513672e+00,-2.015156707763671875e+02,-9.253302764892578125e+01,-1.734311981201171875e+02,4.030399620532989502e-01,-6.667101287841796875e+01,-1.826867065429687500e+02,-2.342245101928710938e+00,7.562117004394531250e+01,3.135653114318847656e+01
6.282789707183837891e-01,1.000000000000000000e+00,5.235550403594970703e-01,-3.731628656387329102e+00,4.783929824829101562e+00,-2.014567871093750000e+02,-9.245970916748046875e+01,-1.733653411865234375e+02,4.030399620532989502e-01,-6.667101287841796875e+01,-1.826867065429687500e+02,-2.342245101928710938e+00,7.562102508544921875e+01,3.135653114318847656e+01
6.318200230598449707e-01,1.000000000000000000e+00,4.588498771190643311e-01,-3.677248716354370117e+00,4.793526649475097656e+00,-2.013974761962890625e+02,-9.238619232177734375e+01,-1.733001098632812500e+02,4.030399620532989502e-01,-6.667101287841796875e+01,-1.826867065429687500e+02,-2.342173099517822266e+00,7.562117004394531250e+01,3.135642242431640625e+01
6.359360218048095703e-01,1.000000000000000000e+00,3.939724564552307129e-01,-3.623095750808715820e+00,4.803082466125488281e+00,-2.013383178710937500e+02,-9.231202697753906250e+01,-1.732340545654296875e+02,4.030399620532989502e-01,-6.667092895507812500e+01,-1.826867065429687500e+02,-2.342173099517822266e+00,7.562102508544921875e+01,3.135653114318847656e+01
6.405109763145446777e-01,1.000000000000000000e+00,3.293821215629577637e-01,-3.568829059600830078e+00,4.812435150146484375e+00,-2.012786407470703125e+02,-9.223796844482421875e+01,-1.731673889160156250e+02,4.030399620532989502e-01,-6.667101287841796875e+01,-1.826867065429687500e+02,-2.342245101928710938e+00,7.562102508544921875e+01,3.135653114318847656e+01
6.438379883766174316e-01,1.000000000000000000e+00,2.647917866706848145e-01,-3.514879226684570312e+00,4.821787834167480469e+00,-2.012200164794921875e+02,-9.216433715820312500e+01,-1.731024932861328125e+02,4.030399620532989502e-01,-6.667101287841796875e+01,-1.826867065429687500e+02,-2.342316627502441406e+00,7.562117004394531250e+01,3.135653114318847656e+01
6.479269862174987793e-01,1.000000000000000000e+00,2.000866383314132690e-01,-3.460703134536743164e+00,4.831323146820068359e+00,-2.011609649658203125e+02,-9.209092712402343750e+01,-1.730368347167968750e+02,4.030399620532989502e-01,-6.667101287841796875e+01,-1.826867065429687500e+02,-2.342316627502441406e+00,7.562117004394531250e+01,3.135653114318847656e+01
6.524059772491455078e-01,1.000000000000000000e+00,1.352953463792800903e-01,-3.406594991683959961e+00,4.840757369995117188e+00,-2.011015472412109375e+02,-9.201681518554687500e+01,-1.729706420898437500e+02,4.028751850128173828e-01,-6.667101287841796875e+01,-1.826867065429687500e+02,-2.342316627502441406e+00,7.562117004394531250e+01,3.135653114318847656e+01
6.558160185813903809e-01,1.000000000000000000e+00,7.038923352956771851e-02,-3.352373838424682617e+00,4.850232124328613281e+00,-2.010423431396484375e+02,-9.194244384765625000e+01,-1.729051971435546875e+02,4.030399620532989502e-01,-6.667101287841796875e+01,-1.826867065429687500e+02,-2.342245101928710938e+00,7.562124633789062500e+01,3.135653114318847656e+01
6.599940061569213867e-01,1.000000000000000000e+00,5.540538113564252853e-03,-3.298175096511840820e+00,4.859604835510253906e+00,-2.009830322265625000e+02,-9.186859893798828125e+01,-1.728389434814453125e+02,4.030399620532989502e-01,-6.667101287841796875e+01,-1.826867065429687500e+02,-2.342173099517822266e+00,7.562117004394531250e+01,3.135653114318847656e+01
6.646230220794677734e-01,1.000000000000000000e+00,-5.913591757416725159e-02,-3.243931055068969727e+00,4.868855953216552734e+00,-2.009243469238281250e+02,-9.179512786865234375e+01,-1.727731018066406250e+02,4.030399620532989502e-01,-6.667101287841796875e+01,-1.826867065429687500e+02,-2.342245101928710938e+00,7.562117004394531250e+01,3.135653114318847656e+01
6.679180264472961426e-01,1.000000000000000000e+00,-1.236114278435707092e-01,-3.189619302749633789e+00,4.878249168395996094e+00,-2.008650512695312500e+02,-9.172075653076171875e+01,-1.727080688476562500e+02,4.030399620532989502e-01,-6.667111206054687500e+01,-1.826867065429687500e+02,-2.342173099517822266e+00,7.562102508544921875e+01,3.135653114318847656e+01
6.719009876251220703e-01,1.000000000000000000e+00,-1.884888261556625366e-01,-3.135262489318847656e+00,4.887845516204833984e+00,-2.008062591552734375e+02,-9.164695739746093750e+01,-1.726414642333984375e+02,4.030399620532989502e-01,-6.667101287841796875e+01,-1.826867065429687500e+02,-2.342245101928710938e+00,7.562117004394531250e+01,3.135653114318847656e+01
6.767659783363342285e-01,1.000000000000000000e+00,-2.532801330089569092e-01,-3.080973148345947266e+00,4.897482872009277344e+00,-2.007466735839843750e+02,-9.157317352294921875e+01,-1.725759582519531250e+02,4.030399620532989502e-01,-6.667101287841796875e+01,-1.826867065429687500e+02,-2.342245101928710938e+00,7.562117004394531250e+01,3.135653114318847656e+01
6.798779964447021484e-01,1.000000000000000000e+00,-3.180139958858489990e-01,-3.026842355728149414e+00,4.907038688659667969e+00,-2.006873626708984375e+02,-9.149996948242187500e+01,-1.725107879638671875e+02,4.030399620532989502e-01,-6.667101287841796875e+01,-1.826867065429687500e+02,-2.342245101928710938e+00,7.562117004394531250e+01,3.135653114318847656e+01
6.840749979019165039e-01,1.000000000000000000e+00,-3.828052580356597900e-01,-2.972711563110351562e+00,4.916533946990966797e+00,-2.006286468505859375e+02,-9.142580413818359375e+01,-1.724443969726562500e+02,4.030399620532989502e-01,-6.667111206054687500e+01,-1.826867065429687500e+02,-2.342173099517822266e+00,7.562117004394531250e+01,3.135653114318847656e+01
6.893450021743774414e-01,1.000000000000000000e+00,-4.473955929279327393e-01,-2.918399810791015625e+00,4.925947666168212891e+00,-2.005693817138671875e+02,-9.135207366943359375e+01,-1.723790893554687500e+02,4.030399620532989502e-01,-6.667101287841796875e+01,-1.826867065429687500e+02,-2.342245101928710938e+00,7.562117004394531250e+01,3.135653114318847656e+01
6.921960115432739258e-01,1.000000000000000000e+00,-5.122155547142028809e-01,-2.864110469818115234e+00,4.935239315032958984e+00,-2.005109710693359375e+02,-9.127822875976562500e+01,-1.723135070800781250e+02,4.030399620532989502e-01,-6.667101287841796875e+01,-1.826867065429687500e+02,-2.342245101928710938e+00,7.562117004394531250e+01,3.135642242431640625e+01
6.959739923477172852e-01,1.000000000000000000e+00,-5.771216750144958496e-01,-2.809753417968750000e+00,4.944856166839599609e+00,-2.004514007568359375e+02,-9.120507812500000000e+01,-1.722473144531250000e+02,4.030399620532989502e-01,-6.667101287841796875e+01,-1.826867065429687500e+02,-2.342245101928710938e+00,7.562117004394531250e+01,3.135642242431640625e+01
6.987640261650085449e-01,1.000000000000000000e+00,-6.420565247535705566e-01,-2.755532264709472656e+00,4.954452991485595703e+00,-2.003920288085937500e+02,-9.113107299804687500e+01,-1.721822814941406250e+02,4.030399620532989502e-01,-6.667101287841796875e+01,-1.826867065429687500e+02,-2.342245101928710938e+00,7.562117004394531250e+01,3.135653114318847656e+01
7.041000127792358398e-01,1.000000000000000000e+00,-7.071349024772644043e-01,-2.701424121856689453e+00,4.963927745819091797e+00,-2.003334503173828125e+02,-9.105771636962890625e+01,-1.721163635253906250e+02,4.030399620532989502e-01,-6.667101287841796875e+01,-1.826867065429687500e+02,-2.342173099517822266e+00,7.562117004394531250e+01,3.135653114318847656e+01
7.067790031433105469e-01,1.000000000000000000e+00,-7.719835638999938965e-01,-2.647293329238891602e+00,4.973341464996337891e+00,-2.002740936279296875e+02,-9.098387145996093750e+01,-1.720502471923828125e+02,4.030399620532989502e-01,-6.667101287841796875e+01,-1.826867065429687500e+02,-2.342173099517822266e+00,7.562117004394531250e+01,3.135642242431640625e+01
7.108349800109863281e-01,1.000000000000000000e+00,-8.368035554885864258e-01,-2.592913627624511719e+00,4.982673645019531250e+00,-2.002150421142578125e+02,-9.091013336181640625e+01,-1.719850616455078125e+02,4.030399620532989502e-01,-6.667101287841796875e+01,-1.826867065429687500e+02,-2.342245101928710938e+00,7.562117004394531250e+01,3.135642242431640625e+01
7.161620259284973145e-01,1.000000000000000000e+00,-9.015660881996154785e-01,-2.538488626480102539e+00,4.992208957672119141e+00,-2.001556243896484375e+02,-9.083623504638671875e+01,-1.719188842773437500e+02,4.030399620532989502e-01,-6.667111206054687500e+01,-1.826867065429687500e+02,-2.342173099517822266e+00,7.562117004394531250e+01,3.135653114318847656e+01
7.188590168952941895e-01,1.000000000000000000e+00,-9.666731357574462891e-01,-2.483927965164184570e+00,5.001886844635009766e+00,-2.000964202880859375e+02,-9.076271820068359375e+01,-1.718530273437500000e+02,4.030399620532989502e-01,-6.667101287841796875e+01,-1.826867065429687500e+02,-2.342245101928710938e+00,7.562117004394531250e+01,3.135653114318847656e+01
7.227380275726318359e-01,1.000000000000000000e+00,-1.031406998634338379e+00,-2.429616212844848633e+00,5.011585235595703125e+00,-2.000380096435546875e+02,-9.068962097167968750e+01,-1.717873840332031250e+02,4.030399620532989502e-01,-6.667092895507812500e+01,-1.826867065429687500e+02,-2.342245101928710938e+00,7.562117004394531250e+01,3.135653114318847656e+01
7.283650040626525879e-01,1.000000000000000000e+00,-1.096227049827575684e+00,-2.375349760055541992e+00,5.021121025085449219e+00,-1.999784851074218750e+02,-9.061582946777343750e+01,-1.717216033935546875e+02,4.030399620532989502e-01,-6.667111206054687500e+01,-1.826867065429687500e+02,-2.342245101928710938e+00,7.562117004394531250e+01,3.135653114318847656e+01
7.324010133743286133e-01,1.000000000000000000e+00,-1.161046981811523438e+00,-2.321083068847656250e+00,5.030514240264892578e+00,-1.999195404052734375e+02,-9.054177093505859375e+01,-1.716558837890625000e+02,4.030399620532989502e-01,-6.667101287841796875e+01,-1.826867065429687500e+02,-2.342245101928710938e+00,7.562117004394531250e+01,3.135653114318847656e+01
7.377979755401611328e-01,1.000000000000000000e+00,-1.225694775581359863e+00,-2.266771078109741211e+00,5.039764881134033203e+00,-1.998599700927734375e+02,-9.046819305419921875e+01,-1.715909729003906250e+02,4.030399620532989502e-01,-6.667111206054687500e+01,-1.826867065429687500e+02,-2.342173099517822266e+00,7.562117004394531250e+01,3.135653114318847656e+01
7.405350208282470703e-01,1.000000000000000000e+00,-1.290170311927795410e+00,-2.212323665618896484e+00,5.049097537994384766e+00,-1.998009185791015625e+02,-9.039509582519531250e+01,-1.715243225097656250e+02,4.030399620532989502e-01,-6.667101287841796875e+01,-1.826867065429687500e+02,-2.342245101928710938e+00,7.562117004394531250e+01,3.135642242431640625e+01
7.443739771842956543e-01,1.000000000000000000e+00,-1.354789376258850098e+00,-2.158034324645996094e+00,5.058511257171630859e+00,-1.997420806884765625e+02,-9.032136535644531250e+01,-1.714587402343750000e+02,4.030399620532989502e-01,-6.667101287841796875e+01,-1.826867065429687500e+02,-2.342245101928710938e+00,7.562117004394531250e+01,3.135653114318847656e+01
7.486460208892822266e-01,1.000000000000000000e+00,-1.419523239135742188e+00,-2.103654861450195312e+00,5.068026542663574219e+00,-1.996827239990234375e+02,-9.024709320068359375e+01,-1.713935089111328125e+02,4.030399620532989502e-01,-6.667101287841796875e+01,-1.826867065429687500e+02,-2.342316627502441406e+00,7.562124633789062500e+01,3.135653114318847656e+01
7.524340152740478516e-01,1.000000000000000000e+00,-1.484142303466796875e+00,-2.049591779708862305e+00,5.077500820159912109e+00,-1.996239318847656250e+02,-9.017336273193359375e+01,-1.713275756835937500e+02,4.030399620532989502e-01,-6.667101287841796875e+01,-1.826867065429687500e+02,-2.342245101928710938e+00,7.562117004394531250e+01,3.135642242431640625e+01
7.566720247268676758e-01,1.000000000000000000e+00,-1.548703908920288086e+00,-1.995483756065368652e+00,5.086833000183105469e+00,-1.995643615722656250e+02,-9.009956359863281250e+01,-1.712622833251953125e+02,4.030399620532989502e-01,-6.667101287841796875e+01,-1.826867065429687500e+02,-2.342316627502441406e+00,7.562117004394531250e+01,3.135642242431640625e+01
7.624459862709045410e-01,1.000000000000000000e+00,-1.613466501235961914e+00,-1.941262483596801758e+00,5.096226692199707031e+00,-1.995056915283203125e+02,-9.002593994140625000e+01,-1.711968994140625000e+02,4.030399620532989502e-01,-6.667101287841796875e+01,-1.826867065429687500e+02,-2.342173099517822266e+00,7.562117004394531250e+01,3.135653114318847656e+01
7.650840282440185547e-01,1.000000000000000000e+00,-1.742618441581726074e+00,-1.832865118980407715e+00,5.115541458129882812e+00,-1.993870697021484375e+02,-8.987799072265625000e+01,-1.710650634765625000e+02,4.030399620532989502e-01,-6.667101287841796875e+01,-1.826867065429687500e+02,-2.342245101928710938e+00,7.562117004394531250e+01,3.135642242431640625e+01
7.667179703712463379e-01,1.000000000000000000e+00,-1.742618441581726074e+00,-1.832865118980407715e+00,5.115541458129882812e+00,-1.993870697021484375e+02,-8.987799072265625000e+01,-1.710650634765625000e+02,4.030399620532989502e-01,-6.667101287841796875e+01,-1.826867065429687500e+02,-2.342245101928710938e+00,7.562117004394531250e+01,3.135642242431640625e+01
7.707189917564392090e-01,1.000000000000000000e+00,-1.807237505912780762e+00,-1.778598546981811523e+00,5.125097751617431641e+00,-1.993279113769531250e+02,-8.980425262451171875e+01,-1.709992065429687500e+02,4.030399620532989502e-01,-6.667101287841796875e+01,-1.826867065429687500e+02,-2.342316627502441406e+00,7.562117004394531250e+01,3.135642242431640625e+01
7.766759991645812988e-01,1.000000000000000000e+00,-1.871856451034545898e+00,-1.724241614341735840e+00,5.134694099426269531e+00,-1.992687530517578125e+02,-8.973067474365234375e+01,-1.709325408935546875e+02,4.030399620532989502e-01,-6.667101287841796875e+01,-1.826867065429687500e+02,-2.342245101928710938e+00,7.562117004394531250e+01,3.135642242431640625e+01
7.808619737625122070e-01,1.000000000000000000e+00,-1.936331987380981445e+00,-1.669816613197326660e+00,5.144006252288818359e+00,-1.992096557617187500e+02,-8.965586853027343750e+01,-1.708677825927734375e+02,4.030399620532989502e-01,-6.667111206054687500e+01,-1.826867065429687500e+02,-2.342245101928710938e+00,7.562117004394531250e+01,3.135653114318847656e+01
7.864909768104553223e-01,1.000000000000000000e+00,-2.000692605972290039e+00,-1.615640521049499512e+00,5.153378963470458984e+00,-1.991504516601562500e+02,-8.958283233642578125e+01,-1.708018035888671875e+02,4.030399620532989502e-01,-6.667092895507812500e+01,-1.826867065429687500e+02,-2.342245101928710938e+00,7.562117004394531250e+01,3.135653114318847656e+01
7.893660068511962891e-01,1.000000000000000000e+00,-2.129586219787597656e+00,-1.507152795791625977e+00,5.172369003295898438e+00,-1.990324707031250000e+02,-8.943534851074218750e+01,-1.706703033447265625e+02,4.030399620532989502e-01,-6.667101287841796875e+01,-1.826865997314453125e+02,-2.342245101928710938e+00,7.562117004394531250e+01,3.135653114318847656e+01
7.929639816284179688e-01,1.000000000000000000e+00,-2.129586219787597656e+00,-1.507152795791625977e+00,5.172369003295898438e+00,-1.990324707031250000e+02,-8.943534851074218750e+01,-1.706703033447265625e+02,4.030399620532989502e-01,-6.667101287841796875e+01,-1.826865997314453125e+02,-2.342245101928710938e+00,7.562117004394531250e+01,3.135653114318847656e+01
7.968590259552001953e-01,1.000000000000000000e+00,-2.194119215011596680e+00,-1.452840924263000488e+00,5.181762218475341797e+00,-1.989729309082031250e+02,-8.936029052734375000e+01,-1.706035614013671875e+02,4.030399620532989502e-01,-6.667101287841796875e+01,-1.826867065429687500e+02,-2.342245101928710938e+00,7.562117004394531250e+01,3.135642242431640625e+01
8.008700013160705566e-01,1.000000000000000000e+00,-2.258565902709960938e+00,-1.398506402969360352e+00,5.191013336181640625e+00,-1.989142608642578125e+02,-8.928692626953125000e+01,-1.705380706787109375e+02,4.030399620532989502e-01,-6.667101287841796875e+01,-1.826865997314453125e+02,-2.342316627502441406e+00,7.562117004394531250e+01,3.135642242431640625e+01
8.049690127372741699e-01,1.000000000000000000e+00,-2.323156356811523438e+00,-1.344285249710083008e+00,5.200325012207031250e+00,-1.988548431396484375e+02,-8.921292114257812500e+01,-1.704732360839843750e+02,4.030399620532989502e-01,-6.667101287841796875e+01,-1.826867065429687500e+02,-2.342316627502441406e+00,7.562124633789062500e+01,3.135642242431640625e+01
8.104019761085510254e-01,1.000000000000000000e+00,-2.387660741806030273e+00,-1.290063858032226562e+00,5.209759235382080078e+00,-1.987956390380859375e+02,-8.913896942138671875e+01,-1.704064941406250000e+02,4.030399620532989502e-01,-6.667101287841796875e+01,-1.826867065429687500e+02,-2.342245101928710938e+00,7.562117004394531250e+01,3.135653114318847656e+01
8.129979968070983887e-01,1.000000000000000000e+00,-2.452337026596069336e+00,-1.235933065414428711e+00,5.219457149505615234e+00,-1.987364349365234375e+02,-8.906406402587890625e+01,-1.703409118652343750e+02,4.031498432159423828e-01,-6.667101287841796875e+01,-1.826867065429687500e+02,-2.342316627502441406e+00,7.562117004394531250e+01,3.135653114318847656e+01
8.147159814834594727e-01,1.000000000000000000e+00,-2.517128467559814453e+00,-1.181824922561645508e+00,5.229094505310058594e+00,-1.986771240234375000e+02,-8.899043273925781250e+01,-1.702754058837890625e+02,4.030399620532989502e-01,-6.667101287841796875e+01,-1.826867065429687500e+02,-2.342245101928710938e+00,7.562117004394531250e+01,3.135653114318847656e+01
8.210060000419616699e-01,1.000000000000000000e+00,-2.517128467559814453e+00,-1.181824922561645508e+00,5.229094505310058594e+00,-1.986771240234375000e+02,-8.899043273925781250e+01,-1.702754058837890625e+02,4.030399620532989502e-01,-6.667101287841796875e+01,-1.826867065429687500e+02,-2.342316627502441406e+00,7.562117004394531250e+01,3.135642242431640625e+01
8.227990269660949707e-01,1.000000000000000000e+00,-2.646969079971313477e+00,-1.073201417922973633e+00,5.248166084289550781e+00,-1.985591278076171875e+02,-8.884327697753906250e+01,-1.701443786621093750e+02,4.030399620532989502e-01,-6.667101287841796875e+01,-1.826867065429687500e+02,-2.342245101928710938e+00,7.562117004394531250e+01,3.135642242431640625e+01
8.292869925498962402e-01,1.000000000000000000e+00,-2.711674451828002930e+00,-1.018753767013549805e+00,5.257457256317138672e+00,-1.984999237060546875e+02,-8.876890563964843750e+01,-1.700783996582031250e+02,4.030399620532989502e-01,-6.667101287841796875e+01,-1.826867065429687500e+02,-2.342173099517822266e+00,7.562102508544921875e+01,3.135653114318847656e+01
8.307139873504638672e-01,1.000000000000000000e+00,-2.776379585266113281e+00,-9.645551443099975586e-01,5.266809940338134766e+00,-1.984407653808593750e+02,-8.869527435302734375e+01,-1.700126190185546875e+02,4.030399620532989502e-01,-6.667101287841796875e+01,-1.826867065429687500e+02,-2.342245101928710938e+00,7.562117004394531250e+01,3.135653114318847656e+01
8.378790020942687988e-01,1.000000000000000000e+00,-2.776379585266113281e+00,-9.645551443099975586e-01,5.266809940338134766e+00,-1.984407653808593750e+02,-8.869527435302734375e+01,-1.700126190185546875e+02,4.030399620532989502e-01,-6.667101287841796875e+01,-1.826867065429687500e+02,-2.342245101928710938e+00,7.562117004394531250e+01,3.135653114318847656e+01
8.397179841995239258e-01,1.000000000000000000e+00,-2.906019449234008789e+00,-8.558409810066223145e-01,5.285983562469482422e+00,-1.983228302001953125e+02,-8.854822540283203125e+01,-1.698808441162109375e+02,4.030399620532989502e-01,-6.667101287841796875e+01,-1.826867065429687500e+02,-2.342245101928710938e+00,7.562117004394531250e+01,3.135653114318847656e+01
8.427249789237976074e-01,1.000000000000000000e+00,-2.971069097518920898e+00,-8.016649484634399414e-01,5.295518875122070312e+00,-1.982631530761718750e+02,-8.847380065917968750e+01,-1.698145294189453125e+02,4.030399620532989502e-01,-6.667101287841796875e+01,-1.826867065429687500e+02,-2.342245101928710938e+00,7.562117004394531250e+01,3.135642242431640625e+01
8.492559790611267090e-01,1.000000000000000000e+00,-2.971069097518920898e+00,-8.016649484634399414e-01,5.295518875122070312e+00,-1.982631530761718750e+02,-8.847380065917968750e+01,-1.698145294189453125e+02,4.030399620532989502e-01,-6.667101287841796875e+01,-1.826867065429687500e+02,-2.342245101928710938e+00,7.562117004394531250e+01,3.135642242431640625e+01
8.517320156097412109e-01,1.000000000000000000e+00,-3.100651741027832031e+00,-6.930413246154785156e-01,5.314000129699707031e+00,-1.981446990966796875e+02,-8.832659149169921875e+01,-1.696832885742187500e+02,4.030399620532989502e-01,-6.667101287841796875e+01,-1.826867065429687500e+02,-2.342316627502441406e+00,7.562117004394531250e+01,3.135653114318847656e+01
8.547359704971313477e-01,1.000000000000000000e+00,-3.165557861328125000e+00,-6.387974023818969727e-01,5.323454856872558594e+00,-1.980856323242187500e+02,-8.825258636474609375e+01,-1.696180572509765625e+02,4.030399620532989502e-01,-6.667101287841796875e+01,-1.826867065429687500e+02,-2.342245101928710938e+00,7.562117004394531250e+01,3.135653114318847656e+01
8.597639799118041992e-01,1.000000000000000000e+00,-3.165557861328125000e+00,-6.387974023818969727e-01,5.323454856872558594e+00,-1.980856323242187500e+02,-8.825258636474609375e+01,-1.696180572509765625e+02,4.030399620532989502e-01,-6.667101287841796875e+01,-1.826867065429687500e+02,-2.342245101928710938e+00,7.562117004394531250e+01,3.135653114318847656e+01
8.637679815292358398e-01,1.000000000000000000e+00,-3.295025587081909180e+00,-5.306037664413452148e-01,5.342912197113037109e+00,-1.979677581787109375e+02,-8.810485076904296875e+01,-1.694860992431640625e+02,4.030399620532989502e-01,-6.667101287841796875e+01,-1.826867065429687500e+02,-2.342245101928710938e+00,7.562124633789062500e+01,3.135653114318847656e+01
8.667340278625488281e-01,1.000000000000000000e+00,-3.359845638275146484e+00,-4.764503538608551025e-01,5.352529048919677734e+00,-1.979087066650390625e+02,-8.803153991699218750e+01,-1.694206390380859375e+02,4.030399620532989502e-01,-6.667101287841796875e+01,-1.826867065429687500e+02,-2.342245101928710938e+00,7.562102508544921875e+01,3.135653114318847656e+01
8.733429908752441406e-01,1.000000000000000000e+00,-3.359845638275146484e+00,-4.764503538608551025e-01,5.352529048919677734e+00,-1.979087066650390625e+02,-8.803153991699218750e+01,-1.694206390380859375e+02,4.030399620532989502e-01,-6.667101287841796875e+01,-1.826867065429687500e+02,-2.342245101928710938e+00,7.562102508544921875e+01,3.135653114318847656e+01
8.758550286293029785e-01,1.000000000000000000e+00,-3.489973545074462891e+00,-3.681209385395050049e-01,5.371132850646972656e+00,-1.977900390625000000e+02,-8.788364410400390625e+01,-1.692894287109375000e+02,4.030399620532989502e-01,-6.667101287841796875e+01,-1.826867065429687500e+02,-2.342245101928710938e+00,7.562117004394531250e+01,3.135642242431640625e+01
8.787209987640380859e-01,1.000000000000000000e+00,-3.554793596267700195e+00,-3.137638866901397705e-01,5.380485534667968750e+00,-1.977315216064453125e+02,-8.781033325195312500e+01,-1.692240447998046875e+02,4.030399620532989502e-01,-6.667111206054687500e+01,-1.826867065429687500e+02,-2.342316627502441406e+00,7.562124633789062500e+01,3.135653114318847656e+01
8.838269710540771484e-01,1.000000000000000000e+00,-3.554793596267700195e+00,-3.137638866901397705e-01,5.380485534667968750e+00,-1.977315216064453125e+02,-8.781033325195312500e+01,-1.692240447998046875e+02,4.030399620532989502e-01,-6.667111206054687500e+01,-1.826867065429687500e+02,-2.342316627502441406e+00,7.562124633789062500e+01,3.135653114318847656e+01
8.867459893226623535e-01,1.000000000000000000e+00,-3.684347629547119141e+00,-2.051855176687240601e-01,5.399434566497802734e+00,-1.976129455566406250e+02,-8.766291046142578125e+01,-1.690922088623046875e+02,4.030399620532989502e-01,-6.667101287841796875e+01,-1.826867065429687500e+02,-2.342245101928710938e+00,7.562117004394531250e+01,3.135653114318847656e+01
8.918319940567016602e-01,1.000000000000000000e+00,-3.684347629547119141e+00,-2.051855176687240601e-01,5.399434566497802734e+00,-1.976129455566406250e+02,-8.766291046142578125e+01,-1.690922088623046875e+02,4.030399620532989502e-01,-6.667101287841796875e+01,-1.826867065429687500e+02,-2.342245101928710938e+00,7.562117004394531250e+01,3.135653114318847656e+01
8.957200050354003906e-01,1.000000000000000000e+00,-3.813757896423339844e+00,-9.687872231006622314e-02,5.418241500854492188e+00,-1.974946899414062500e+02,-8.751549530029296875e+01,-1.689621276855468750e+02,4.030399620532989502e-01,-6.667111206054687500e+01,-1.826867065429687500e+02,-2.342245101928710938e+00,7.562117004394531250e+01,3.135653114318847656e+01
8.997740149497985840e-01,1.000000000000000000e+00,-3.878405570983886719e+00,-4.258954524993896484e-02,5.427492618560791016e+00,-1.974355926513671875e+02,-8.744138336181640625e+01,-1.688961486816406250e+02,4.030399620532989502e-01,-6.667101287841796875e+01,-1.826867065429687500e+02,-2.342245101928710938e+00,7.562117004394531250e+01,3.135653114318847656e+01
9.027379751205444336e-01,1.000000000000000000e+00,-3.943168163299560547e+00,1.174489222466945648e-02,5.437068939208984375e+00,-1.973763427734375000e+02,-8.736748504638671875e+01,-1.688309173583984375e+02,4.030399620532989502e-01,-6.667101287841796875e+01,-1.826867065429687500e+02,-2.342245101928710938e+00,7.562117004394531250e+01,3.135653114318847656e+01
9.078090190887451172e-01,1.000000000000000000e+00,-3.943168163299560547e+00,1.174489222466945648e-02,5.437068939208984375e+00,-1.973763427734375000e+02,-8.736748504638671875e+01,-1.688309173583984375e+02,4.030399620532989502e-01,-6.667101287841796875e+01,-1.826867065429687500e+02,-2.342245101928710938e+00,7.562117004394531250e+01,3.135653114318847656e+01
9.107490181922912598e-01,1.000000000000000000e+00,-4.072348594665527344e+00,1.202553510665893555e-01,5.456505775451660156e+00,-1.972579345703125000e+02,-8.722044372558593750e+01,-1.686984558105468750e+02,4.030399620532989502e-01,-6.667092895507812500e+01,-1.826867065429687500e+02,-2.342245101928710938e+00,7.562117004394531250e+01,3.135653114318847656e+01
9.157990217208862305e-01,1.000000000000000000e+00,-4.072348594665527344e+00,1.202553510665893555e-01,5.456505775451660156e+00,-1.972579345703125000e+02,-8.722044372558593750e+01,-1.686984558105468750e+02,4.030399620532989502e-01,-6.667092895507812500e+01,-1.826867065429687500e+02,-2.342245101928710938e+00,7.562117004394531250e+01,3.135653114318847656e+01
9.197170138359069824e-01,1.000000000000000000e+00,-4.201500892639160156e+00,2.284037470817565918e-01,5.475536346435546875e+00,-1.971399230957031250e+02,-8.707296752929687500e+01,-1.685671691894531250e+02,4.030399620532989502e-01,-6.667092895507812500e+01,-1.826867065429687500e+02,-2.342245101928710938e+00,7.562117004394531250e+01,3.135653114318847656e+01
9.237490296363830566e-01,1.000000000000000000e+00,-4.266090869903564453e+00,2.824666500091552734e-01,5.484848499298095703e+00,-1.970809936523437500e+02,-8.699912261962890625e+01,-1.685015258789062500e+02,4.030399620532989502e-01,-6.667101287841796875e+01,-1.826867065429687500e+02,-2.342245101928710938e+00,7.562102508544921875e+01,3.135653114318847656e+01
9.278420209884643555e-01,1.000000000000000000e+00,-4.330681324005126953e+00,3.367784321308135986e-01,5.494343280792236328e+00,-1.970222625732421875e+02,-8.692602539062500000e+01,-1.684360046386718750e+02,4.030399620532989502e-01,-6.667101287841796875e+01,-1.826867065429687500e+02,-2.342245101928710938e+00,7.562117004394531250e+01,3.135642242431640625e+01
9.317610263824462891e-01,1.000000000000000000e+00,-4.395472526550292969e+00,3.909997344017028809e-01,5.503980636596679688e+00,-1.969624328613281250e+02,-8.685260772705078125e+01,-1.683698272705078125e+02,4.030399620532989502e-01,-6.667101287841796875e+01,-1.826867065429687500e+02,-2.342173099517822266e+00,7.562117004394531250e+01,3.135653114318847656e+01
9.347270131111145020e-01,1.000000000000000000e+00,-4.460263729095458984e+00,4.453341662883758545e-01,5.513454914093017578e+00,-1.969039001464843750e+02,-8.677855682373046875e+01,-1.683041076660156250e+02,4.030399620532989502e-01,-6.667111206054687500e+01,-1.826867065429687500e+02,-2.342245101928710938e+00,7.562117004394531250e+01,3.135642242431640625e+01
9.398180246353149414e-01,1.000000000000000000e+00,-4.460263729095458984e+00,4.453341662883758545e-01,5.513454914093017578e+00,-1.969039001464843750e+02,-8.677855682373046875e+01,-1.683041076660156250e+02,4.030399620532989502e-01,-6.667111206054687500e+01,-1.826867065429687500e+02,-2.342245101928710938e+00,7.562117004394531250e+01,3.135642242431640625e+01
9.437670111656188965e-01,1.000000000000000000e+00,-4.589616775512695312e+00,5.539578199386596680e-01,5.531876087188720703e+00,-1.967852783203125000e+02,-8.663055419921875000e+01,-1.681723327636718750e+02,4.030399620532989502e-01,-6.667111206054687500e+01,-1.826867065429687500e+02,-2.342245101928710938e+00,7.562117004394531250e+01,3.135653114318847656e+01
9.478300213813781738e-01,1.000000000000000000e+00,-4.654264926910400391e+00,6.082469820976257324e-01,5.541187763214111328e+00,-1.967262420654296875e+02,-8.655681610107421875e+01,-1.681074981689453125e+02,4.030399620532989502e-01,-6.667111206054687500e+01,-1.826867065429687500e+02,-2.342316627502441406e+00,7.562117004394531250e+01,3.135653114318847656e+01
9.507979750633239746e-01,1.000000000000000000e+00,-4.718883991241455078e+00,6.623777151107788086e-01,5.550764083862304688e+00,-1.966667022705078125e+02,-8.648259735107421875e+01,-1.680413208007812500e+02,4.030399620532989502e-01,-6.667101287841796875e+01,-1.826867065429687500e+02,-2.342316627502441406e+00,7.562124633789062500e+01,3.135653114318847656e+01
9.557790160179138184e-01,1.000000000000000000e+00,-4.718883991241455078e+00,6.623777151107788086e-01,5.550764083862304688e+00,-1.966667022705078125e+02,-8.648259735107421875e+01,-1.680413208007812500e+02,4.030399620532989502e-01,-6.667101287841796875e+01,-1.826867065429687500e+02,-2.342316627502441406e+00,7.562124633789062500e+01,3.135653114318847656e+01
9.607899785041809082e-01,1.000000000000000000e+00,-4.783244132995605469e+00,7.167574167251586914e-01,5.560401439666748047e+00,-1.966082458496093750e+02,-8.640923309326171875e+01,-1.679755249023437500e+02,4.031498432159423828e-01,-6.667101287841796875e+01,-1.826867065429687500e+02,-2.342245101928710938e+00,7.562124633789062500e+01,3.135653114318847656e+01
9.638540148735046387e-01,1.000000000000000000e+00,-4.912338733673095703e+00,8.251773715019226074e-01,5.579594612121582031e+00,-1.964898834228515625e+02,-8.626181793212890625e+01,-1.678445129394531250e+02,4.030399620532989502e-01,-6.667111206054687500e+01,-1.826867065429687500e+02,-2.342245101928710938e+00,7.562117004394531250e+01,3.135653114318847656e+01
9.687290191650390625e-01,1.000000000000000000e+00,-4.912338733673095703e+00,8.251773715019226074e-01,5.579594612121582031e+00,-1.964898834228515625e+02,-8.626181793212890625e+01,-1.678445129394531250e+02,4.030399620532989502e-01,-6.667111206054687500e+01,-1.826867065429687500e+02,-2.342245101928710938e+00,7.562117004394531250e+01,3.135642242431640625e+01
9.717140197753906250e-01,1.000000000000000000e+00,-5.041404724121093750e+00,9.335746765136718750e-01,5.598320007324218750e+00,-1.963712005615234375e+02,-8.611365509033203125e+01,-1.677132263183593750e+02,4.030399620532989502e-01,-6.667101287841796875e+01,-1.826867065429687500e+02,-2.342173099517822266e+00,7.562117004394531250e+01,3.135653114318847656e+01
9.767320156097412109e-01,1.000000000000000000e+00,-5.041404724121093750e+00,9.335746765136718750e-01,5.598320007324218750e+00,-1.963712005615234375e+02,-8.611365509033203125e+01,-1.677132263183593750e+02,4.030399620532989502e-01,-6.667101287841796875e+01,-1.826867065429687500e+02,-2.342173099517822266e+00,7.562117004394531250e+01,3.135653114318847656e+01
9.806889891624450684e-01,1.000000000000000000e+00,-5.170413017272949219e+00,1.041881442070007324e+00,5.617432117462158203e+00,-1.962532196044921875e+02,-8.596665954589843750e+01,-1.675811767578125000e+02,4.030399620532989502e-01,-6.667111206054687500e+01,-1.826867065429687500e+02,-2.342316627502441406e+00,7.562124633789062500e+01,3.135642242431640625e+01
9.834510087966918945e-01,1.000000000000000000e+00,-5.235060691833496094e+00,1.096034884452819824e+00,5.626906871795654297e+00,-1.961945343017578125e+02,-8.589201354980468750e+01,-1.675160675048828125e+02,4.030399620532989502e-01,-6.667101287841796875e+01,-1.826867065429687500e+02,-2.342245101928710938e+00,7.562117004394531250e+01,3.135653114318847656e+01
9.878389835357666016e-01,1.000000000000000000e+00,-5.235060691833496094e+00,1.096034884452819824e+00,5.626906871795654297e+00,-1.961945343017578125e+02,-8.589201354980468750e+01,-1.675160675048828125e+02,4.030399620532989502e-01,-6.667101287841796875e+01,-1.826867065429687500e+02,-2.342245101928710938e+00,7.562117004394531250e+01,3.135653114318847656e+01
9.927530288696289062e-01,1.000000000000000000e+00,-5.299708843231201172e+00,1.150346636772155762e+00,5.636239051818847656e+00,-1.961351318359375000e+02,-8.581822967529296875e+01,-1.674496917724609375e+02,4.030399620532989502e-01,-6.667101287841796875e+01,-1.826867065429687500e+02,-2.342245101928710938e+00,7.562117004394531250e+01,3.135653114318847656e+01
9.957150220870971680e-01,1.000000000000000000e+00,-5.429119110107421875e+00,1.258924961090087891e+00,5.654944419860839844e+00,-1.960171813964843750e+02,-8.567118072509765625e+01,-1.673183898925781250e+02,4.030399620532989502e-01,-6.667101287841796875e+01,-1.826867065429687500e+02,-2.342245101928710938e+00,7.562117004394531250e+01,3.135653114318847656e+01
9.998279809951782227e-01,1.000000000000000000e+00,-5.429119110107421875e+00,1.258924961090087891e+00,5.654944419860839844e+00,-1.960171813964843750e+02,-8.567118072509765625e+01,-1.673183898925781250e+02,4.030399620532989502e-01,-6.667101287841796875e+01,-1.826867065429687500e+02,-2.342245101928710938e+00,7.562117004394531250e+01,3.135653114318847656e+01
1.006499052047729492e+00,1.000000000000000000e+00,-5.493853092193603516e+00,1.313214182853698730e+00,5.664541244506835938e+00,-1.959577178955078125e+02,-8.559659576416015625e+01,-1.672522583007812500e+02,4.030399620532989502e-01,-6.667111206054687500e+01,-1.826867065429687500e+02,-2.342245101928710938e+00,7.562117004394531250e+01,3.135653114318847656e+01
1.007995963096618652e+00,1.000000000000000000e+00,-5.623234748840332031e+00,1.421656847000122070e+00,5.683673381805419922e+00,-1.958392639160156250e+02,-8.544949340820312500e+01,-1.671213836669921875e+02,4.030399620532989502e-01,-6.667101287841796875e+01,-1.826867065429687500e+02,-2.342245101928710938e+00,7.562117004394531250e+01,3.135642242431640625e+01
1.011787056922912598e+00,1.000000000000000000e+00,-5.623234748840332031e+00,1.421656847000122070e+00,5.683673381805419922e+00,-1.958392639160156250e+02,-8.544949340820312500e+01,-1.671213836669921875e+02,4.030399620532989502e-01,-6.667101287841796875e+01,-1.826867065429687500e+02,-2.342245101928710938e+00,7.562117004394531250e+01,3.135642242431640625e+01
1.015843987464904785e+00,1.000000000000000000e+00,-5.687796115875244141e+00,1.475810170173645020e+00,5.693168163299560547e+00,-1.957803649902343750e+02,-8.537591552734375000e+01,-1.670548553466796875e+02,4.030399620532989502e-01,-6.667101287841796875e+01,-1.826867065429687500e+02,-2.342173099517822266e+00,7.562102508544921875e+01,3.135653114318847656e+01
1.019762039184570312e+00,1.000000000000000000e+00,-5.752357482910156250e+00,1.530144691467285156e+00,5.702500343322753906e+00,-1.957212524414062500e+02,-8.530170440673828125e+01,-1.669898223876953125e+02,4.030399620532989502e-01,-6.667101287841796875e+01,-1.826867065429687500e+02,-2.342173099517822266e+00,7.562117004394531250e+01,3.135653114318847656e+01
1.023782014846801758e+00,1.000000000000000000e+00,-5.817091464996337891e+00,1.584320664405822754e+00,5.711833000183105469e+00,-1.956620178222656250e+02,-8.522780609130859375e+01,-1.669241027832031250e+02,4.030399620532989502e-01,-6.667101287841796875e+01,-1.826867065429687500e+02,-2.342316627502441406e+00,7.562102508544921875e+01,3.135642242431640625e+01
1.028514027595520020e+00,1.000000000000000000e+00,-5.881767749786376953e+00,1.638451457023620605e+00,5.721287250518798828e+00,-1.956032714843750000e+02,-8.515438842773437500e+01,-1.668583831787109375e+02,4.030399620532989502e-01,-6.667101287841796875e+01,-1.826867065429687500e+02,-2.342316627502441406e+00,7.562117004394531250e+01,3.135653114318847656e+01
1.031726956367492676e+00,1.000000000000000000e+00,-6.011121273040771484e+00,1.746599793434143066e+00,5.740114212036132812e+00,-1.954847564697265625e+02,-8.500659942626953125e+01,-1.667275085449218750e+02,4.030399620532989502e-01,-6.667101287841796875e+01,-1.826867065429687500e+02,-2.342245101928710938e+00,7.562117004394531250e+01,3.135642242431640625e+01
1.035770058631896973e+00,1.000000000000000000e+00,-6.011121273040771484e+00,1.746599793434143066e+00,5.740114212036132812e+00,-1.954847564697265625e+02,-8.500659942626953125e+01,-1.667275085449218750e+02,4.030399620532989502e-01,-6.667101287841796875e+01,-1.826867065429687500e+02,-2.342245101928710938e+00,7.562117004394531250e+01,3.135642242431640625e+01
1.039826989173889160e+00,1.000000000000000000e+00,-6.075797557830810547e+00,1.800594806671142578e+00,5.749507427215576172e+00,-1.954256134033203125e+02,-8.493248748779296875e+01,-1.666611785888671875e+02,4.030399620532989502e-01,-6.667101287841796875e+01,-1.826867065429687500e+02,-2.342245101928710938e+00,7.562102508544921875e+01,3.135653114318847656e+01
1.043784976005554199e+00,1.000000000000000000e+00,-6.140531539916992188e+00,1.855019807815551758e+00,5.758840084075927734e+00,-1.953661804199218750e+02,-8.485869598388671875e+01,-1.665964202880859375e+02,4.030399620532989502e-01,-6.667101287841796875e+01,-1.826867065429687500e+02,-2.342245101928710938e+00,7.562117004394531250e+01,3.135653114318847656e+01
1.047798991203308105e+00,1.000000000000000000e+00,-6.205294132232666016e+00,1.909263730049133301e+00,5.768314361572265625e+00,-1.953075714111328125e+02,-8.478533172607421875e+01,-1.665295562744140625e+02,4.030399620532989502e-01,-6.667101287841796875e+01,-1.826867065429687500e+02,-2.342245101928710938e+00,7.562117004394531250e+01,3.135642242431640625e+01
1.052608966827392578e+00,1.000000000000000000e+00,-6.270372390747070312e+00,1.963688611984252930e+00,5.777890682220458984e+00,-1.952478332519531250e+02,-8.471096038818359375e+01,-1.664638977050781250e+02,4.030399620532989502e-01,-6.667101287841796875e+01,-1.826867065429687500e+02,-2.342245101928710938e+00,7.562124633789062500e+01,3.135642242431640625e+01
1.055752038955688477e+00,1.000000000000000000e+00,-6.400356292724609375e+00,2.071972846984863281e+00,5.797043323516845703e+00,-1.951301574707031250e+02,-8.456364440917968750e+01,-1.663325347900390625e+02,4.030399620532989502e-01,-6.667101287841796875e+01,-1.826867065429687500e+02,-2.342245101928710938e+00,7.562117004394531250e+01,3.135642242431640625e+01
1.059764027595520020e+00,1.000000000000000000e+00,-6.400356292724609375e+00,2.071972846984863281e+00,5.797043323516845703e+00,-1.951301574707031250e+02,-8.456364440917968750e+01,-1.663325347900390625e+02,4.030399620532989502e-01,-6.667101287841796875e+01,-1.826867065429687500e+02,-2.342245101928710938e+00,7.562117004394531250e+01,3.135642242431640625e+01
1.063835978507995605e+00,1.000000000000000000e+00,-6.464975833892822266e+00,2.126126289367675781e+00,5.806497573852539062e+00,-1.950707855224609375e+02,-8.449054718017578125e+01,-1.662669525146484375e+02,4.030399620532989502e-01,-6.667101287841796875e+01,-1.826865997314453125e+02,-2.342316627502441406e+00,7.562117004394531250e+01,3.135653114318847656e+01
1.067769050598144531e+00,1.000000000000000000e+00,-6.529709815979003906e+00,2.180324792861938477e+00,5.815789222717285156e+00,-1.950117492675781250e+02,-8.441600799560546875e+01,-1.662009124755859375e+02,4.030399620532989502e-01,-6.667101287841796875e+01,-1.826867065429687500e+02,-2.342316627502441406e+00,7.562117004394531250e+01,3.135642242431640625e+01
1.071763038635253906e+00,1.000000000000000000e+00,-6.594415187835693359e+00,2.234727144241333008e+00,5.825263977050781250e+00,-1.949521179199218750e+02,-8.434249114990234375e+01,-1.661344299316406250e+02,4.030399620532989502e-01,-6.667101287841796875e+01,-1.826867065429687500e+02,-2.342173099517822266e+00,7.562117004394531250e+01,3.135642242431640625e+01
1.076542973518371582e+00,1.000000000000000000e+00,-6.659091472625732422e+00,2.288857936859130859e+00,5.834921360015869141e+00,-1.948934326171875000e+02,-8.426869964599609375e+01,-1.660698089599609375e+02,4.030399620532989502e-01,-6.667101287841796875e+01,-1.826867065429687500e+02,-2.342245101928710938e+00,7.562117004394531250e+01,3.135642242431640625e+01
1.080803036689758301e+00,1.000000000000000000e+00,-6.723767757415771484e+00,2.343124628067016602e+00,5.844396114349365234e+00,-1.948342895507812500e+02,-8.419533538818359375e+01,-1.660040283203125000e+02,4.030399620532989502e-01,-6.667101287841796875e+01,-1.826867065429687500e+02,-2.342245101928710938e+00,7.562117004394531250e+01,3.135653114318847656e+01
1.084836959838867188e+00,1.000000000000000000e+00,-6.853063106536865234e+00,2.451137304306030273e+00,5.862796306610107422e+00,-1.947157745361328125e+02,-8.404759979248046875e+01,-1.658724060058593750e+02,4.030399620532989502e-01,-6.667101287841796875e+01,-1.826867065429687500e+02,-2.342245101928710938e+00,7.562117004394531250e+01,3.135642242431640625e+01
1.087808012962341309e+00,1.000000000000000000e+00,-6.917825698852539062e+00,2.505313158035278320e+00,5.872047424316406250e+00,-1.946564636230468750e+02,-8.397359466552734375e+01,-1.658062744140625000e+02,4.030399620532989502e-01,-6.667101287841796875e+01,-1.826867065429687500e+02,-2.342245101928710938e+00,7.562117004394531250e+01,3.135653114318847656e+01
1.091771006584167480e+00,1.000000000000000000e+00,-6.917825698852539062e+00,2.505313158035278320e+00,5.872047424316406250e+00,-1.946564636230468750e+02,-8.397359466552734375e+01,-1.658062744140625000e+02,4.030399620532989502e-01,-6.667101287841796875e+01,-1.826867065429687500e+02,-2.342245101928710938e+00,7.562117004394531250e+01,3.135653114318847656e+01
1.095764040946960449e+00,1.000000000000000000e+00,-6.982444763183593750e+00,2.559443950653076172e+00,5.881562709808349609e+00,-1.945980529785156250e+02,-8.389985656738281250e+01,-1.657404937744140625e+02,4.030399620532989502e-01,-6.667101287841796875e+01,-1.826867065429687500e+02,-2.342173099517822266e+00,7.562117004394531250e+01,3.135653114318847656e+01
1.100718021392822266e+00,1.000000000000000000e+00,-7.047264575958251953e+00,2.613823652267456055e+00,5.891179561614990234e+00,-1.945387878417968750e+02,-8.382548522949218750e+01,-1.656756591796875000e+02,4.030399620532989502e-01,-6.667101287841796875e+01,-1.826867065429687500e+02,-2.342245101928710938e+00,7.562117004394531250e+01,3.135642242431640625e+01
1.104737997055053711e+00,1.000000000000000000e+00,-7.112027168273925781e+00,2.667999505996704102e+00,5.900755882263183594e+00,-1.944797973632812500e+02,-8.375248718261718750e+01,-1.656094665527343750e+02,4.030399620532989502e-01,-6.667101287841796875e+01,-1.826867065429687500e+02,-2.342316627502441406e+00,7.562117004394531250e+01,3.135642242431640625e+01
1.108863949775695801e+00,1.000000000000000000e+00,-7.176646232604980469e+00,2.722266197204589844e+00,5.910291194915771484e+00,-1.944203186035156250e+02,-8.367897033691406250e+01,-1.655440368652343750e+02,4.030399620532989502e-01,-6.667101287841796875e+01,-1.826867065429687500e+02,-2.342173099517822266e+00,7.562124633789062500e+01,3.135653114318847656e+01
