rpiRobotics/ARM-21-02-F-19-Robot-Motion-Program/data_performance_abb/curve_2/curve_pose_opt2/greedy0.02/realrobot/run_1.csv
timestamp,cmd_num,J1,J2,J3,J4,J5,J6
1.400000037392601371e-04,-1.000000000000000000e+00,8.513006210327148438e+00,-1.042653274536132812e+01,3.620829343795776367e+00,-2.087635192871093750e+02,-1.015730972290039062e+02,-1.814821472167968750e+02,4.030399620532989502e-01,-6.667101287841796875e+01,-1.826867065429687500e+02,-2.342245101928710938e+00,7.562117004394531250e+01,3.135697174072265625e+01
7.331000175327062607e-03,1.000000000000000000e+00,8.512948989868164062e+00,-1.042653274536132812e+01,3.620788335800170898e+00,-2.087634124755859375e+02,-1.015729370117187500e+02,-1.814821472167968750e+02,4.030399620532989502e-01,-6.667111206054687500e+01,-1.826867065429687500e+02,-2.342245101928710938e+00,7.562124633789062500e+01,3.135653114318847656e+01
9.662999771535396576e-03,1.000000000000000000e+00,8.512948989868164062e+00,-1.042653274536132812e+01,3.620788335800170898e+00,-2.087634124755859375e+02,-1.015729980468750000e+02,-1.814822845458984375e+02,4.030399620532989502e-01,-6.667101287841796875e+01,-1.826867065429687500e+02,-2.342245101928710938e+00,7.562117004394531250e+01,3.135653114318847656e+01
1.578300073742866516e-02,1.000000000000000000e+00,8.512948989868164062e+00,-1.042657756805419922e+01,3.620788335800170898e+00,-2.087636108398437500e+02,-1.015729370117187500e+02,-1.814822845458984375e+02,4.030399620532989502e-01,-6.667101287841796875e+01,-1.826867065429687500e+02,-2.342245101928710938e+00,7.562117004394531250e+01,3.135642242431640625e+01
3.975600004196166992e-02,1.000000000000000000e+00,8.512891769409179688e+00,-1.042653274536132812e+01,3.620788335800170898e+00,-2.087635192871093750e+02,-1.015729370117187500e+02,-1.814822845458984375e+02,4.030399620532989502e-01,-6.667101287841796875e+01,-1.826867065429687500e+02,-2.342245101928710938e+00,7.562124633789062500e+01,3.135642242431640625e+01
4.124899953603744507e-02,1.000000000000000000e+00,8.512891769409179688e+00,-1.042653274536132812e+01,3.620788335800170898e+00,-2.087635192871093750e+02,-1.015729370117187500e+02,-1.814822845458984375e+02,4.030399620532989502e-01,-6.667101287841796875e+01,-1.826867065429687500e+02,-2.342245101928710938e+00,7.562124633789062500e+01,3.135642242431640625e+01
4.396200180053710938e-02,1.000000000000000000e+00,8.512948989868164062e+00,-1.042653274536132812e+01,3.620788335800170898e+00,-2.087636108398437500e+02,-1.015730972290039062e+02,-1.814821472167968750e+02,4.030399620532989502e-01,-6.667101287841796875e+01,-1.826867065429687500e+02,-2.342245101928710938e+00,7.562117004394531250e+01,3.135642242431640625e+01
5.298700183629989624e-02,1.000000000000000000e+00,8.512948989868164062e+00,-1.042653274536132812e+01,3.620747804641723633e+00,-2.087636108398437500e+02,-1.015729370117187500e+02,-1.814821472167968750e+02,4.030399620532989502e-01,-6.667092895507812500e+01,-1.826867065429687500e+02,-2.342316627502441406e+00,7.562117004394531250e+01,3.135653114318847656e+01
5.559099838137626648e-02,1.000000000000000000e+00,8.512948989868164062e+00,-1.042653274536132812e+01,3.620747804641723633e+00,-2.087636108398437500e+02,-1.015729370117187500e+02,-1.814821472167968750e+02,4.030399620532989502e-01,-6.667101287841796875e+01,-1.826867065429687500e+02,-2.342245101928710938e+00,7.562124633789062500e+01,3.135642242431640625e+01
5.695499852299690247e-02,1.000000000000000000e+00,8.512891769409179688e+00,-1.042641925811767578e+01,3.620788335800170898e+00,-2.087636108398437500e+02,-1.015729370117187500e+02,-1.814822845458984375e+02,4.030399620532989502e-01,-6.667101287841796875e+01,-1.826867065429687500e+02,-2.342245101928710938e+00,7.562124633789062500e+01,3.135642242431640625e+01
5.919900164008140564e-02,1.000000000000000000e+00,8.512891769409179688e+00,-1.042641925811767578e+01,3.620788335800170898e+00,-2.087636108398437500e+02,-1.015729370117187500e+02,-1.814822845458984375e+02,4.030399620532989502e-01,-6.667101287841796875e+01,-1.826867065429687500e+02,-2.342245101928710938e+00,7.562124633789062500e+01,3.135642242431640625e+01
6.414599716663360596e-02,1.000000000000000000e+00,8.511542320251464844e+00,-1.042542362213134766e+01,3.620788335800170898e+00,-2.087635192871093750e+02,-1.015729370117187500e+02,-1.814822845458984375e+02,4.030399620532989502e-01,-6.667101287841796875e+01,-1.826867065429687500e+02,-2.342316627502441406e+00,7.562117004394531250e+01,3.135642242431640625e+01
6.545600295066833496e-02,1.000000000000000000e+00,8.511542320251464844e+00,-1.042542362213134766e+01,3.620788335800170898e+00,-2.087635192871093750e+02,-1.015729370117187500e+02,-1.814822845458984375e+02,4.030399620532989502e-01,-6.667101287841796875e+01,-1.826867065429687500e+02,-2.342316627502441406e+00,7.562117004394531250e+01,3.135642242431640625e+01
6.784000247716903687e-02,1.000000000000000000e+00,8.509675979614257812e+00,-1.042411136627197266e+01,3.620788335800170898e+00,-2.087635192871093750e+02,-1.015729370117187500e+02,-1.814821472167968750e+02,4.030399620532989502e-01,-6.667101287841796875e+01,-1.826867065429687500e+02,-2.342245101928710938e+00,7.562117004394531250e+01,3.135642242431640625e+01
6.917200237512588501e-02,1.000000000000000000e+00,8.509675979614257812e+00,-1.042411136627197266e+01,3.620788335800170898e+00,-2.087635192871093750e+02,-1.015729370117187500e+02,-1.814821472167968750e+02,4.030399620532989502e-01,-6.667101287841796875e+01,-1.826867065429687500e+02,-2.342245101928710938e+00,7.562117004394531250e+01,3.135642242431640625e+01
7.258799672126770020e-02,1.000000000000000000e+00,8.506863594055175781e+00,-1.042198371887207031e+01,3.620889902114868164e+00,-2.087634124755859375e+02,-1.015727844238281250e+02,-1.814821472167968750e+02,4.030399620532989502e-01,-6.667101287841796875e+01,-1.826867065429687500e+02,-2.342316627502441406e+00,7.562117004394531250e+01,3.135653114318847656e+01
7.396499812602996826e-02,1.000000000000000000e+00,8.506863594055175781e+00,-1.042198371887207031e+01,3.620889902114868164e+00,-2.087634124755859375e+02,-1.015727844238281250e+02,-1.814821472167968750e+02,4.030399620532989502e-01,-6.667101287841796875e+01,-1.826867065429687500e+02,-2.342316627502441406e+00,7.562117004394531250e+01,3.135653114318847656e+01
7.725600153207778931e-02,1.000000000000000000e+00,8.502959251403808594e+00,-1.041886043548583984e+01,3.620930910110473633e+00,-2.087634124755859375e+02,-1.015726165771484375e+02,-1.814821472167968750e+02,4.030399620532989502e-01,-6.667092895507812500e+01,-1.826867065429687500e+02,-2.342245101928710938e+00,7.562102508544921875e+01,3.135642242431640625e+01
7.965999841690063477e-02,1.000000000000000000e+00,8.502959251403808594e+00,-1.041886043548583984e+01,3.620930910110473633e+00,-2.087634124755859375e+02,-1.015726165771484375e+02,-1.814821472167968750e+02,4.030399620532989502e-01,-6.667092895507812500e+01,-1.826867065429687500e+02,-2.342245101928710938e+00,7.562102508544921875e+01,3.135642242431640625e+01
8.219300210475921631e-02,1.000000000000000000e+00,8.497963905334472656e+00,-1.041465091705322266e+01,3.621032476425170898e+00,-2.087630920410156250e+02,-1.015713424682617188e+02,-1.814815368652343750e+02,4.030399620532989502e-01,-6.667101287841796875e+01,-1.826867065429687500e+02,-2.342245101928710938e+00,7.562117004394531250e+01,3.135653114318847656e+01
8.484700322151184082e-02,1.000000000000000000e+00,8.491763114929199219e+00,-1.040917491912841797e+01,3.621357917785644531e+00,-2.087617645263671875e+02,-1.015693130493164062e+02,-1.814807739257812500e+02,4.030399620532989502e-01,-6.667101287841796875e+01,-1.826868133544921875e+02,-2.342245101928710938e+00,7.562102508544921875e+01,3.135653114318847656e+01
8.828300237655639648e-02,1.000000000000000000e+00,8.484127044677734375e+00,-1.040211486816406250e+01,3.621784687042236328e+00,-2.087593994140625000e+02,-1.015660629272460938e+02,-1.814786071777343750e+02,4.030399620532989502e-01,-6.667101287841796875e+01,-1.826867065429687500e+02,-2.342245101928710938e+00,7.562117004394531250e+01,3.135642242431640625e+01
8.956500142812728882e-02,1.000000000000000000e+00,8.484127044677734375e+00,-1.040211486816406250e+01,3.621784687042236328e+00,-2.087593994140625000e+02,-1.015660629272460938e+02,-1.814786071777343750e+02,4.030399620532989502e-01,-6.667101287841796875e+01,-1.826867065429687500e+02,-2.342245101928710938e+00,7.562117004394531250e+01,3.135642242431640625e+01
9.220500290393829346e-02,1.000000000000000000e+00,8.474912643432617188e+00,-1.039288139343261719e+01,3.622496366500854492e+00,-2.087556152343750000e+02,-1.015615234375000000e+02,-1.814749450683593750e+02,4.030399620532989502e-01,-6.667101287841796875e+01,-1.826867065429687500e+02,-2.342316627502441406e+00,7.562117004394531250e+01,3.135653114318847656e+01
9.640400111675262451e-02,1.000000000000000000e+00,8.463430404663085938e+00,-1.038118171691894531e+01,3.623350143432617188e+00,-2.087507629394531250e+02,-1.015549240112304688e+02,-1.814700012207031250e+02,4.030399620532989502e-01,-6.667101287841796875e+01,-1.826867065429687500e+02,-2.342245101928710938e+00,7.562117004394531250e+01,3.135653114318847656e+01
9.773900359869003296e-02,1.000000000000000000e+00,8.463430404663085938e+00,-1.038118171691894531e+01,3.623350143432617188e+00,-2.087507629394531250e+02,-1.015549240112304688e+02,-1.814700012207031250e+02,4.030399620532989502e-01,-6.667101287841796875e+01,-1.826867065429687500e+02,-2.342245101928710938e+00,7.562117004394531250e+01,3.135653114318847656e+01
1.009259968996047974e-01,1.000000000000000000e+00,8.449449539184570312e+00,-1.036665248870849609e+01,3.624549627304077148e+00,-2.087441711425781250e+02,-1.015455856323242188e+02,-1.814618530273437500e+02,4.030399620532989502e-01,-6.667101287841796875e+01,-1.826867065429687500e+02,-2.342245101928710938e+00,7.562117004394531250e+01,3.135653114318847656e+01
1.040880009531974792e-01,1.000000000000000000e+00,8.449449539184570312e+00,-1.036665248870849609e+01,3.624549627304077148e+00,-2.087441711425781250e+02,-1.015455856323242188e+02,-1.814618530273437500e+02,4.030399620532989502e-01,-6.667101287841796875e+01,-1.826867065429687500e+02,-2.342245101928710938e+00,7.562117004394531250e+01,3.135653114318847656e+01
1.081599965691566467e-01,1.000000000000000000e+00,8.432599067687988281e+00,-1.034943199157714844e+01,3.626278162002563477e+00,-2.087348632812500000e+02,-1.015336456298828125e+02,-1.814514160156250000e+02,4.030399620532989502e-01,-6.667101287841796875e+01,-1.826867065429687500e+02,-2.342245101928710938e+00,7.562117004394531250e+01,3.135675048828125000e+01
1.121060028672218323e-01,1.000000000000000000e+00,8.412704467773437500e+00,-1.033003807067871094e+01,3.628432989120483398e+00,-2.087229003906250000e+02,-1.015184478759765625e+02,-1.814383392333984375e+02,4.030399620532989502e-01,-6.667101287841796875e+01,-1.826867065429687500e+02,-2.342173099517822266e+00,7.562117004394531250e+01,3.135697174072265625e+01
1.160160005092620850e-01,1.000000000000000000e+00,8.390514373779296875e+00,-1.030915069580078125e+01,3.631096839904785156e+00,-2.087080383300781250e+02,-1.015001068115234375e+02,-1.814220581054687500e+02,4.030399620532989502e-01,-6.667111206054687500e+01,-1.826867065429687500e+02,-2.342245101928710938e+00,7.562117004394531250e+01,3.135697174072265625e+01
1.200990006327629089e-01,1.000000000000000000e+00,8.366343498229980469e+00,-1.028697395324707031e+01,3.634125947952270508e+00,-2.086895599365234375e+02,-1.014781951904296875e+02,-1.814016418457031250e+02,4.030399620532989502e-01,-6.667101287841796875e+01,-1.826867065429687500e+02,-2.342316627502441406e+00,7.562117004394531250e+01,3.135697174072265625e+01
1.253120005130767822e-01,1.000000000000000000e+00,8.309877395629882812e+00,-1.023895263671875000e+01,3.641282796859741211e+00,-2.086417388916015625e+02,-1.014213638305664062e+02,-1.813506317138671875e+02,4.030399620532989502e-01,-6.667101287841796875e+01,-1.826867065429687500e+02,-2.342245101928710938e+00,7.562117004394531250e+01,3.135719108581542969e+01
1.287710070610046387e-01,1.000000000000000000e+00,8.309877395629882812e+00,-1.023895263671875000e+01,3.641282796859741211e+00,-2.086417388916015625e+02,-1.014213638305664062e+02,-1.813506317138671875e+02,4.030399620532989502e-01,-6.667101287841796875e+01,-1.826867065429687500e+02,-2.342245101928710938e+00,7.562117004394531250e+01,3.135719108581542969e+01
1.322200000286102295e-01,1.000000000000000000e+00,8.277610778808593750e+00,-1.021240806579589844e+01,3.645756006240844727e+00,-2.086132812500000000e+02,-1.013852691650390625e+02,-1.813191070556640625e+02,4.030399620532989502e-01,-6.667101287841796875e+01,-1.826867065429687500e+02,-2.342245101928710938e+00,7.562117004394531250e+01,3.135697174072265625e+01
1.362780034542083740e-01,1.000000000000000000e+00,8.242559432983398438e+00,-1.018389415740966797e+01,3.650839090347290039e+00,-2.085817413330078125e+02,-1.013436279296875000e+02,-1.812836456298828125e+02,4.030399620532989502e-01,-6.667101287841796875e+01,-1.826867065429687500e+02,-2.342316627502441406e+00,7.562117004394531250e+01,3.135697174072265625e+01
1.403370052576065063e-01,1.000000000000000000e+00,8.204837799072265625e+00,-1.015372848510742188e+01,3.656409978866577148e+00,-2.085452728271484375e+02,-1.012984695434570312e+02,-1.812430267333984375e+02,4.030399620532989502e-01,-6.667101287841796875e+01,-1.826867065429687500e+02,-2.342245101928710938e+00,7.562117004394531250e+01,3.135697174072265625e+01
1.443269997835159302e-01,1.000000000000000000e+00,8.164247512817382812e+00,-1.012213706970214844e+01,3.662204504013061523e+00,-2.085035247802734375e+02,-1.012509613037109375e+02,-1.811974487304687500e+02,4.030399620532989502e-01,-6.667101287841796875e+01,-1.826867065429687500e+02,-2.342245101928710938e+00,7.562117004394531250e+01,3.135697174072265625e+01
1.481170058250427246e-01,1.000000000000000000e+00,8.121330261230468750e+00,-1.008900642395019531e+01,3.668364763259887695e+00,-2.084595336914062500e+02,-1.011974868774414062e+02,-1.811484069824218750e+02,4.030399620532989502e-01,-6.667101287841796875e+01,-1.826867065429687500e+02,-2.342316627502441406e+00,7.562117004394531250e+01,3.135697174072265625e+01
1.527619957923889160e-01,1.000000000000000000e+00,8.076490402221679688e+00,-1.005395317077636719e+01,3.674972772598266602e+00,-2.084142303466796875e+02,-1.011392059326171875e+02,-1.810980224609375000e+02,4.030399620532989502e-01,-6.667101287841796875e+01,-1.826867065429687500e+02,-2.342245101928710938e+00,7.562117004394531250e+01,3.135697174072265625e+01
1.563750058412551880e-01,1.000000000000000000e+00,8.029582977294921875e+00,-1.001720142364501953e+01,3.682190418243408203e+00,-2.083654022216796875e+02,-1.010785903930664062e+02,-1.810443115234375000e+02,4.030399620532989502e-01,-6.667101287841796875e+01,-1.826867065429687500e+02,-2.342245101928710938e+00,7.562117004394531250e+01,3.135697174072265625e+01
1.610500067472457886e-01,1.000000000000000000e+00,7.980638027191162109e+00,-9.978617668151855469e+00,3.689692974090576172e+00,-2.083132019042968750e+02,-1.010149917602539062e+02,-1.809857788085937500e+02,4.030399620532989502e-01,-6.667101287841796875e+01,-1.826867065429687500e+02,-2.342245101928710938e+00,7.562117004394531250e+01,3.135697174072265625e+01
1.640319973230361938e-01,1.000000000000000000e+00,7.929454326629638672e+00,-9.937635421752929688e+00,3.697622299194335938e+00,-2.082594299316406250e+02,-1.009490814208984375e+02,-1.809256286621093750e+02,4.030399620532989502e-01,-6.667101287841796875e+01,-1.826867065429687500e+02,-2.342245101928710938e+00,7.562117004394531250e+01,3.135697174072265625e+01
1.670249998569488525e-01,1.000000000000000000e+00,7.875571250915527344e+00,-9.893755912780761719e+00,3.705816030502319336e+00,-2.082037963867187500e+02,-1.008811111450195312e+02,-1.808656768798828125e+02,4.030399620532989502e-01,-6.667101287841796875e+01,-1.826867065429687500e+02,-2.342245101928710938e+00,7.562117004394531250e+01,3.135697174072265625e+01
1.711010038852691650e-01,1.000000000000000000e+00,7.819478034973144531e+00,-9.847748756408691406e+00,3.714273929595947266e+00,-2.081480255126953125e+02,-1.008111038208007812e+02,-1.808026123046875000e+02,4.030399620532989502e-01,-6.667101287841796875e+01,-1.826867065429687500e+02,-2.342245101928710938e+00,7.562117004394531250e+01,3.135697174072265625e+01
1.750359982252120972e-01,1.000000000000000000e+00,7.761920928955078125e+00,-9.799547195434570312e+00,3.722935438156127930e+00,-2.080911865234375000e+02,-1.007397079467773438e+02,-1.807383880615234375e+02,4.030399620532989502e-01,-6.667101287841796875e+01,-1.826867065429687500e+02,-2.342245101928710938e+00,7.562124633789062500e+01,3.135697174072265625e+01
1.806250065565109253e-01,1.000000000000000000e+00,7.702871322631835938e+00,-9.749919891357421875e+00,3.731759309768676758e+00,-2.080325469970703125e+02,-1.006676330566406250e+02,-1.806744537353515625e+02,4.030399620532989502e-01,-6.667101287841796875e+01,-1.826867065429687500e+02,-2.342245101928710938e+00,7.562117004394531250e+01,3.135675048828125000e+01
1.845269948244094849e-01,1.000000000000000000e+00,7.642357826232910156e+00,-9.699274063110351562e+00,3.740725517272949219e+00,-2.079737091064453125e+02,-1.005948028564453125e+02,-1.806087341308593750e+02,4.030399620532989502e-01,-6.667101287841796875e+01,-1.826867065429687500e+02,-2.342245101928710938e+00,7.562124633789062500e+01,3.135675048828125000e+01
1.886889934539794922e-01,1.000000000000000000e+00,7.580723762512207031e+00,-9.647293090820312500e+00,3.749712467193603516e+00,-2.079147644042968750e+02,-1.005213317871093750e+02,-1.805428771972656250e+02,4.030399620532989502e-01,-6.667101287841796875e+01,-1.826867065429687500e+02,-2.342245101928710938e+00,7.562117004394531250e+01,3.135653114318847656e+01
1.927890032529830933e-01,1.000000000000000000e+00,7.518458843231201172e+00,-9.594746589660644531e+00,3.758759975433349609e+00,-2.078562011718750000e+02,-1.004472732543945312e+02,-1.804777069091796875e+02,4.030399620532989502e-01,-6.667101287841796875e+01,-1.826867065429687500e+02,-2.342245101928710938e+00,7.562117004394531250e+01,3.135653114318847656e+01
1.966200023889541626e-01,1.000000000000000000e+00,7.455475807189941406e+00,-9.541656494140625000e+00,3.768010854721069336e+00,-2.077971038818359375e+02,-1.003738021850585938e+02,-1.804107818603515625e+02,4.030399620532989502e-01,-6.667101287841796875e+01,-1.826867065429687500e+02,-2.342173099517822266e+00,7.562117004394531250e+01,3.135653114318847656e+01
1.990240067243576050e-01,1.000000000000000000e+00,7.391717910766601562e+00,-9.487910270690917969e+00,3.777668714523315430e+00,-2.077374725341796875e+02,-1.002998046875000000e+02,-1.803451843261718750e+02,4.030399620532989502e-01,-6.667101287841796875e+01,-1.826867065429687500e+02,-2.342173099517822266e+00,7.562117004394531250e+01,3.135642242431640625e+01
2.048179954290390015e-01,1.000000000000000000e+00,7.327213764190673828e+00,-9.433734893798828125e+00,3.787265300750732422e+00,-2.076784362792968750e+02,-1.002256927490234375e+02,-1.802794647216796875e+02,4.030399620532989502e-01,-6.667101287841796875e+01,-1.826867065429687500e+02,-2.342316627502441406e+00,7.562117004394531250e+01,3.135653114318847656e+01
2.088160067796707153e-01,1.000000000000000000e+00,7.262594699859619141e+00,-9.379378318786621094e+00,3.796882152557373047e+00,-2.076186370849609375e+02,-1.001509933471679688e+02,-1.802128143310546875e+02,4.030399620532989502e-01,-6.667092895507812500e+01,-1.826867065429687500e+02,-2.342245101928710938e+00,7.562117004394531250e+01,3.135653114318847656e+01
2.126290053129196167e-01,1.000000000000000000e+00,7.197458744049072266e+00,-9.325020790100097656e+00,3.806437969207763672e+00,-2.075595550537109375e+02,-1.000774765014648438e+02,-1.801474914550781250e+02,4.030399620532989502e-01,-6.667101287841796875e+01,-1.826867065429687500e+02,-2.342245101928710938e+00,7.562102508544921875e+01,3.135653114318847656e+01
2.169339954853057861e-01,1.000000000000000000e+00,7.132725238800048828e+00,-9.270369529724121094e+00,3.815872192382812500e+00,-2.075002288818359375e+02,-1.000036849975585938e+02,-1.800814514160156250e+02,4.030399620532989502e-01,-6.667101287841796875e+01,-1.826867065429687500e+02,-2.342245101928710938e+00,7.562117004394531250e+01,3.135642242431640625e+01
2.207559943199157715e-01,1.000000000000000000e+00,7.068019866943359375e+00,-9.215673446655273438e+00,3.825346469879150391e+00,-2.074412841796875000e+02,-9.992973327636718750e+01,-1.800148620605468750e+02,4.030399620532989502e-01,-6.667101287841796875e+01,-1.826867065429687500e+02,-2.342245101928710938e+00,7.562117004394531250e+01,3.135642242431640625e+01
2.254810035228729248e-01,1.000000000000000000e+00,7.003027439117431641e+00,-9.160999298095703125e+00,3.834983825683593750e+00,-2.073823394775390625e+02,-9.985450744628906250e+01,-1.799492797851562500e+02,4.030399620532989502e-01,-6.667101287841796875e+01,-1.826867065429687500e+02,-2.342316627502441406e+00,7.562117004394531250e+01,3.135653114318847656e+01
2.270209938287734985e-01,1.000000000000000000e+00,6.938064575195312500e+00,-9.106212615966796875e+00,3.844478845596313477e+00,-2.073218841552734375e+02,-9.978044891357421875e+01,-1.798823394775390625e+02,4.030399620532989502e-01,-6.667101287841796875e+01,-1.826867065429687500e+02,-2.342245101928710938e+00,7.562117004394531250e+01,3.135642242431640625e+01
2.311509996652603149e-01,1.000000000000000000e+00,6.873215675354003906e+00,-9.051515579223632812e+00,3.853933095932006836e+00,-2.072629394531250000e+02,-9.970629119873046875e+01,-1.798160858154296875e+02,4.030399620532989502e-01,-6.667101287841796875e+01,-1.826867065429687500e+02,-2.342316627502441406e+00,7.562117004394531250e+01,3.135653114318847656e+01
2.350270003080368042e-01,1.000000000000000000e+00,6.808510303497314453e+00,-8.996932029724121094e+00,3.863245010375976562e+00,-2.072038269042968750e+02,-9.963212585449218750e+01,-1.797507781982421875e+02,4.030399620532989502e-01,-6.667092895507812500e+01,-1.826867065429687500e+02,-2.342173099517822266e+00,7.562117004394531250e+01,3.135653114318847656e+01
2.390470057725906372e-01,1.000000000000000000e+00,6.743632793426513672e+00,-8.942461967468261719e+00,3.872516632080078125e+00,-2.071442108154296875e+02,-9.955711364746093750e+01,-1.796842498779296875e+02,4.030399620532989502e-01,-6.667101287841796875e+01,-1.826867065429687500e+02,-2.342245101928710938e+00,7.562117004394531250e+01,3.135675048828125000e+01
2.431990057229995728e-01,1.000000000000000000e+00,6.679014205932617188e+00,-8.888150215148925781e+00,3.882031440734863281e+00,-2.070847930908203125e+02,-9.948294067382812500e+01,-1.796180572509765625e+02,4.030399620532989502e-01,-6.667101287841796875e+01,-1.826867065429687500e+02,-2.342245101928710938e+00,7.562124633789062500e+01,3.135675048828125000e+01
2.470719963312149048e-01,1.000000000000000000e+00,6.614480972290039062e+00,-8.833792686462402344e+00,3.891709566116333008e+00,-2.070250549316406250e+02,-9.940931701660156250e+01,-1.795519256591796875e+02,4.030399620532989502e-01,-6.667101287841796875e+01,-1.826867065429687500e+02,-2.342245101928710938e+00,7.562117004394531250e+01,3.135675048828125000e+01
2.532469928264617920e-01,1.000000000000000000e+00,6.550005435943603516e+00,-8.779571533203125000e+00,3.901184320449829102e+00,-2.069662170410156250e+02,-9.933531188964843750e+01,-1.794855499267578125e+02,4.030399620532989502e-01,-6.667092895507812500e+01,-1.826867065429687500e+02,-2.342245101928710938e+00,7.562117004394531250e+01,3.135675048828125000e+01
2.554529905319213867e-01,1.000000000000000000e+00,6.485530376434326172e+00,-8.725622177124023438e+00,3.910720109939575195e+00,-2.069068603515625000e+02,-9.926056671142578125e+01,-1.794199676513671875e+02,4.030399620532989502e-01,-6.667101287841796875e+01,-1.826867065429687500e+02,-2.342245101928710938e+00,7.562102508544921875e+01,3.135675048828125000e+01
2.611269950866699219e-01,1.000000000000000000e+00,6.421082973480224609e+00,-8.671648979187011719e+00,3.920153856277465820e+00,-2.068473358154296875e+02,-9.918661499023437500e+01,-1.793541107177734375e+02,4.030399620532989502e-01,-6.667101287841796875e+01,-1.826867065429687500e+02,-2.342245101928710938e+00,7.562117004394531250e+01,3.135675048828125000e+01
2.631669938564300537e-01,1.000000000000000000e+00,6.356865882873535156e+00,-8.617700576782226562e+00,3.929486036300659180e+00,-2.067877655029296875e+02,-9.911282348632812500e+01,-1.792875213623046875e+02,4.030399620532989502e-01,-6.667101287841796875e+01,-1.826867065429687500e+02,-2.342316627502441406e+00,7.562102508544921875e+01,3.135675048828125000e+01
2.670350074768066406e-01,1.000000000000000000e+00,6.292304515838623047e+00,-8.563659667968750000e+00,3.938920259475708008e+00,-2.067280273437500000e+02,-9.903892517089843750e+01,-1.792221374511718750e+02,4.030399620532989502e-01,-6.667101287841796875e+01,-1.826867065429687500e+02,-2.342173099517822266e+00,7.562117004394531250e+01,3.135675048828125000e+01
2.710680067539215088e-01,1.000000000000000000e+00,6.227886676788330078e+00,-8.509687423706054688e+00,3.948415040969848633e+00,-2.066693572998046875e+02,-9.896434020996093750e+01,-1.791562805175781250e+02,4.030399620532989502e-01,-6.667101287841796875e+01,-1.826867065429687500e+02,-2.342316627502441406e+00,7.562117004394531250e+01,3.135697174072265625e+01
2.773579955101013184e-01,1.000000000000000000e+00,6.163267135620117188e+00,-8.455737113952636719e+00,3.957788228988647461e+00,-2.066097259521484375e+02,-9.889017486572265625e+01,-1.790897674560546875e+02,4.030399620532989502e-01,-6.667101287841796875e+01,-1.826867065429687500e+02,-2.342245101928710938e+00,7.562117004394531250e+01,3.135697174072265625e+01
2.795790135860443115e-01,1.000000000000000000e+00,6.098676681518554688e+00,-8.401697158813476562e+00,3.967160940170288086e+00,-2.065505828857421875e+02,-9.881616973876953125e+01,-1.790245819091796875e+02,4.030399620532989502e-01,-6.667101287841796875e+01,-1.826867065429687500e+02,-2.342316627502441406e+00,7.562124633789062500e+01,3.135697174072265625e+01
2.832059860229492188e-01,1.000000000000000000e+00,6.034029006958007812e+00,-8.347792625427246094e+00,3.976351022720336914e+00,-2.064910430908203125e+02,-9.874211883544921875e+01,-1.789585418701171875e+02,4.030399620532989502e-01,-6.667101287841796875e+01,-1.826867065429687500e+02,-2.342316627502441406e+00,7.562117004394531250e+01,3.135697174072265625e+01
2.870649993419647217e-01,1.000000000000000000e+00,5.969381332397460938e+00,-8.293684959411621094e+00,3.985642433166503906e+00,-2.064314727783203125e+02,-9.866769409179687500e+01,-1.788928833007812500e+02,4.030399620532989502e-01,-6.667101287841796875e+01,-1.826867065429687500e+02,-2.342245101928710938e+00,7.562124633789062500e+01,3.135675048828125000e+01
2.921040058135986328e-01,1.000000000000000000e+00,5.969381332397460938e+00,-8.239688873291015625e+00,3.995157957077026367e+00,-2.063728027343750000e+02,-9.859384155273437500e+01,-1.788271179199218750e+02,4.030399620532989502e-01,-6.667092895507812500e+01,-1.826867065429687500e+02,-2.342173099517822266e+00,7.562117004394531250e+01,3.135675048828125000e+01
2.951030135154724121e-01,1.000000000000000000e+00,5.839253425598144531e+00,-8.185581207275390625e+00,4.004693508148193359e+00,-2.063131713867187500e+02,-9.852011108398437500e+01,-1.787600402832031250e+02,4.030399620532989502e-01,-6.667101287841796875e+01,-1.826867065429687500e+02,-2.342245101928710938e+00,7.562117004394531250e+01,3.135675048828125000e+01
3.015500009059906006e-01,1.000000000000000000e+00,5.774117946624755859e+00,-8.131360054016113281e+00,4.014269351959228516e+00,-2.062536468505859375e+02,-9.844642639160156250e+01,-1.786943206787109375e+02,4.030399620532989502e-01,-6.667101287841796875e+01,-1.826867065429687500e+02,-2.342173099517822266e+00,7.562117004394531250e+01,3.135675048828125000e+01
3.037860095500946045e-01,1.000000000000000000e+00,5.709039211273193359e+00,-8.077387809753417969e+00,4.023866176605224609e+00,-2.061942291259765625e+02,-9.837173461914062500e+01,-1.786290740966796875e+02,4.030399620532989502e-01,-6.667101287841796875e+01,-1.826867065429687500e+02,-2.342245101928710938e+00,7.562117004394531250e+01,3.135675048828125000e+01
3.070940077304840088e-01,1.000000000000000000e+00,5.644133090972900391e+00,-8.023189544677734375e+00,4.033157825469970703e+00,-2.061350860595703125e+02,-9.829846954345703125e+01,-1.785624237060546875e+02,4.030399620532989502e-01,-6.667101287841796875e+01,-1.826867065429687500e+02,-2.342316627502441406e+00,7.562117004394531250e+01,3.135675048828125000e+01
3.120360076427459717e-01,1.000000000000000000e+00,5.644133090972900391e+00,-8.023189544677734375e+00,4.033157825469970703e+00,-2.061350860595703125e+02,-9.829846954345703125e+01,-1.785624237060546875e+02,4.030399620532989502e-01,-6.667101287841796875e+01,-1.826867065429687500e+02,-2.342316627502441406e+00,7.562117004394531250e+01,3.135675048828125000e+01
3.150210082530975342e-01,1.000000000000000000e+00,5.514292240142822266e+00,-7.914700984954833984e+00,4.052005290985107422e+00,-2.060162506103515625e+02,-9.815078735351562500e+01,-1.784310607910156250e+02,4.030399620532989502e-01,-6.667101287841796875e+01,-1.826867065429687500e+02,-2.342245101928710938e+00,7.562117004394531250e+01,3.135653114318847656e+01
3.200759887695312500e-01,1.000000000000000000e+00,5.514292240142822266e+00,-7.914700984954833984e+00,4.052005290985107422e+00,-2.060162506103515625e+02,-9.815078735351562500e+01,-1.784310607910156250e+02,4.030399620532989502e-01,-6.667101287841796875e+01,-1.826867065429687500e+02,-2.342245101928710938e+00,7.562117004394531250e+01,3.135653114318847656e+01
3.240360021591186523e-01,1.000000000000000000e+00,5.384049415588378906e+00,-7.806077957153320312e+00,4.071178436279296875e+00,-2.058979339599609375e+02,-9.800267791748046875e+01,-1.782993621826171875e+02,4.030399620532989502e-01,-6.667101287841796875e+01,-1.826867065429687500e+02,-2.342245101928710938e+00,7.562117004394531250e+01,3.135642242431640625e+01
3.270559906959533691e-01,1.000000000000000000e+00,5.318913936614990234e+00,-7.751471519470214844e+00,4.080653190612792969e+00,-2.058387908935546875e+02,-9.792830657958984375e+01,-1.782336425781250000e+02,4.030399620532989502e-01,-6.667101287841796875e+01,-1.826867065429687500e+02,-2.342245101928710938e+00,7.562117004394531250e+01,3.135619926452636719e+01
3.311530053615570068e-01,1.000000000000000000e+00,5.318913936614990234e+00,-7.751471519470214844e+00,4.080653190612792969e+00,-2.058387908935546875e+02,-9.792830657958984375e+01,-1.782336425781250000e+02,4.030399620532989502e-01,-6.667101287841796875e+01,-1.826867065429687500e+02,-2.342245101928710938e+00,7.562117004394531250e+01,3.135619926452636719e+01
3.360710144042968750e-01,1.000000000000000000e+00,5.253921508789062500e+00,-7.697023868560791016e+00,4.089985370635986328e+00,-2.057792205810546875e+02,-9.785445404052734375e+01,-1.781673126220703125e+02,4.030399620532989502e-01,-6.667101287841796875e+01,-1.826867065429687500e+02,-2.342245101928710938e+00,7.562117004394531250e+01,3.135642242431640625e+01
3.390470147132873535e-01,1.000000000000000000e+00,5.123564243316650391e+00,-7.587472915649414062e+00,4.109178543090820312e+00,-2.056609039306640625e+02,-9.770677185058593750e+01,-1.780362396240234375e+02,4.030399620532989502e-01,-6.667101287841796875e+01,-1.826867065429687500e+02,-2.342245101928710938e+00,7.562117004394531250e+01,3.135653114318847656e+01
3.431699872016906738e-01,1.000000000000000000e+00,5.123564243316650391e+00,-7.587472915649414062e+00,4.109178543090820312e+00,-2.056609039306640625e+02,-9.770677185058593750e+01,-1.780362396240234375e+02,4.030399620532989502e-01,-6.667101287841796875e+01,-1.826867065429687500e+02,-2.342245101928710938e+00,7.562117004394531250e+01,3.135653114318847656e+01
3.471060097217559814e-01,1.000000000000000000e+00,5.058399200439453125e+00,-7.532822132110595703e+00,4.118917465209960938e+00,-2.056012268066406250e+02,-9.763314056396484375e+01,-1.779699859619140625e+02,4.030399620532989502e-01,-6.667101287841796875e+01,-1.826867065429687500e+02,-2.342173099517822266e+00,7.562117004394531250e+01,3.135653114318847656e+01
3.510810136795043945e-01,1.000000000000000000e+00,4.993148803710937500e+00,-7.478419303894042969e+00,4.128656387329101562e+00,-2.055422973632812500e+02,-9.755892944335937500e+01,-1.779052734375000000e+02,4.030399620532989502e-01,-6.667101287841796875e+01,-1.826867065429687500e+02,-2.342316627502441406e+00,7.562117004394531250e+01,3.135642242431640625e+01
3.551490008831024170e-01,1.000000000000000000e+00,4.928099155426025391e+00,-7.423971652984619141e+00,4.138354778289794922e+00,-2.054829711914062500e+02,-9.748481750488281250e+01,-1.778395690917968750e+02,4.030399620532989502e-01,-6.667101287841796875e+01,-1.826867065429687500e+02,-2.342245101928710938e+00,7.562117004394531250e+01,3.135653114318847656e+01
3.591260015964508057e-01,1.000000000000000000e+00,4.863193035125732422e+00,-7.369388103485107422e+00,4.147768020629882812e+00,-2.054233551025390625e+02,-9.741156005859375000e+01,-1.777734375000000000e+02,4.030399620532989502e-01,-6.667101287841796875e+01,-1.826867065429687500e+02,-2.342316627502441406e+00,7.562117004394531250e+01,3.135653114318847656e+01
3.631420135498046875e-01,1.000000000000000000e+00,4.798430442810058594e+00,-7.314827919006347656e+00,4.157263278961181641e+00,-2.053641510009765625e+02,-9.733776855468750000e+01,-1.777077331542968750e+02,4.030399620532989502e-01,-6.667101287841796875e+01,-1.826867065429687500e+02,-2.342245101928710938e+00,7.562102508544921875e+01,3.135653114318847656e+01
3.671180009841918945e-01,1.000000000000000000e+00,4.733782768249511719e+00,-7.260538101196289062e+00,4.166819095611572266e+00,-2.053044128417968750e+02,-9.726355743408203125e+01,-1.776413421630859375e+02,4.030399620532989502e-01,-6.667101287841796875e+01,-1.826867065429687500e+02,-2.342173099517822266e+00,7.562117004394531250e+01,3.135642242431640625e+01
3.711090087890625000e-01,1.000000000000000000e+00,4.669249534606933594e+00,-7.206158638000488281e+00,4.176374912261962891e+00,-2.052454071044921875e+02,-9.718944549560546875e+01,-1.775756225585937500e+02,4.030399620532989502e-01,-6.667101287841796875e+01,-1.826867065429687500e+02,-2.342245101928710938e+00,7.562117004394531250e+01,3.135653114318847656e+01
3.753080070018768311e-01,1.000000000000000000e+00,4.604688167572021484e+00,-7.151892185211181641e+00,4.185849666595458984e+00,-2.051860504150390625e+02,-9.711538696289062500e+01,-1.775103759765625000e+02,4.030399620532989502e-01,-6.667101287841796875e+01,-1.826867065429687500e+02,-2.342245101928710938e+00,7.562117004394531250e+01,3.135653114318847656e+01
3.791120052337646484e-01,1.000000000000000000e+00,4.540040493011474609e+00,-7.097851753234863281e+00,4.195202350616455078e+00,-2.051265258789062500e+02,-9.704175567626953125e+01,-1.774436492919921875e+02,4.030399620532989502e-01,-6.667101287841796875e+01,-1.826867065429687500e+02,-2.342245101928710938e+00,7.562124633789062500e+01,3.135653114318847656e+01
3.831360042095184326e-01,1.000000000000000000e+00,4.475650787353515625e+00,-7.043426990509033203e+00,4.204453468322753906e+00,-2.050673828125000000e+02,-9.696717071533203125e+01,-1.773782653808593750e+02,4.030399620532989502e-01,-6.667101287841796875e+01,-1.826867065429687500e+02,-2.342245101928710938e+00,7.562117004394531250e+01,3.135675048828125000e+01
3.871819972991943359e-01,1.000000000000000000e+00,4.411118030548095703e+00,-6.989092350006103516e+00,4.213968276977539062e+00,-2.050079193115234375e+02,-9.689332580566406250e+01,-1.773125610351562500e+02,4.030399620532989502e-01,-6.667101287841796875e+01,-1.826867065429687500e+02,-2.342245101928710938e+00,7.562117004394531250e+01,3.135653114318847656e+01
3.911210000514984131e-01,1.000000000000000000e+00,4.346613883972167969e+00,-6.934758186340332031e+00,4.223524570465087891e+00,-2.049490814208984375e+02,-9.681953430175781250e+01,-1.772458953857421875e+02,4.030399620532989502e-01,-6.667111206054687500e+01,-1.826867065429687500e+02,-2.342316627502441406e+00,7.562124633789062500e+01,3.135653114318847656e+01
3.951759934425354004e-01,1.000000000000000000e+00,4.281937599182128906e+00,-6.880650043487548828e+00,4.233161926269531250e+00,-2.048895416259765625e+02,-9.674569702148437500e+01,-1.771804504394531250e+02,4.030399620532989502e-01,-6.667101287841796875e+01,-1.826867065429687500e+02,-2.342245101928710938e+00,7.562124633789062500e+01,3.135653114318847656e+01
3.998169898986816406e-01,1.000000000000000000e+00,4.217203617095947266e+00,-6.826428413391113281e+00,4.242819786071777344e+00,-2.048303375244140625e+02,-9.667105102539062500e+01,-1.771145324707031250e+02,4.030399620532989502e-01,-6.667101287841796875e+01,-1.826867065429687500e+02,-2.342245101928710938e+00,7.562117004394531250e+01,3.135653114318847656e+01
4.060119986534118652e-01,1.000000000000000000e+00,4.088453292846679688e+00,-6.718348026275634766e+00,4.261484146118164062e+00,-2.047115020751953125e+02,-9.652395629882812500e+01,-1.769831695556640625e+02,4.030399620532989502e-01,-6.667101287841796875e+01,-1.826867065429687500e+02,-2.342029571533203125e+00,7.562117004394531250e+01,3.135675048828125000e+01
4.075399935245513916e-01,1.000000000000000000e+00,4.023777008056640625e+00,-6.663945674896240234e+00,4.270897865295410156e+00,-2.046527252197265625e+02,-9.645005798339843750e+01,-1.769168395996093750e+02,4.030399620532989502e-01,-6.667101287841796875e+01,-1.826867065429687500e+02,-2.342245101928710938e+00,7.562117004394531250e+01,3.135675048828125000e+01
4.111559987068176270e-01,1.000000000000000000e+00,4.023777008056640625e+00,-6.663945674896240234e+00,4.270897865295410156e+00,-2.046527252197265625e+02,-9.645005798339843750e+01,-1.769168395996093750e+02,4.030399620532989502e-01,-6.667101287841796875e+01,-1.826867065429687500e+02,-2.342245101928710938e+00,7.562117004394531250e+01,3.135675048828125000e+01
4.151290059089660645e-01,1.000000000000000000e+00,3.959043264389038086e+00,-6.609769821166992188e+00,4.280474185943603516e+00,-2.045932464599609375e+02,-9.637519836425781250e+01,-1.768508453369140625e+02,4.030399620532989502e-01,-6.667101287841796875e+01,-1.826867065429687500e+02,-2.342245101928710938e+00,7.562124633789062500e+01,3.135675048828125000e+01
4.191159904003143311e-01,1.000000000000000000e+00,3.894252061843872070e+00,-6.555616378784179688e+00,4.290070533752441406e+00,-2.045341033935546875e+02,-9.630156707763671875e+01,-1.767858886718750000e+02,4.030399620532989502e-01,-6.667111206054687500e+01,-1.826867065429687500e+02,-2.342316627502441406e+00,7.562117004394531250e+01,3.135675048828125000e+01
4.238910079002380371e-01,1.000000000000000000e+00,3.829575300216674805e+00,-6.501575946807861328e+00,4.299626827239990234e+00,-2.044743804931640625e+02,-9.622814941406250000e+01,-1.767195587158203125e+02,4.030399620532989502e-01,-6.667092895507812500e+01,-1.826867065429687500e+02,-2.342245101928710938e+00,7.562117004394531250e+01,3.135653114318847656e+01
4.290750026702880859e-01,1.000000000000000000e+00,3.764841794967651367e+00,-6.447535991668701172e+00,4.308979034423828125e+00,-2.044153289794921875e+02,-9.615415191650390625e+01,-1.766541137695312500e+02,4.030399620532989502e-01,-6.667101287841796875e+01,-1.826867065429687500e+02,-2.342245101928710938e+00,7.562117004394531250e+01,3.135653114318847656e+01
4.317730069160461426e-01,1.000000000000000000e+00,3.635546207427978516e+00,-6.339047908782958984e+00,4.327989578247070312e+00,-2.042969665527343750e+02,-9.600508117675781250e+01,-1.765217437744140625e+02,4.030399620532989502e-01,-6.667101287841796875e+01,-1.826867065429687500e+02,-2.342316627502441406e+00,7.562117004394531250e+01,3.135653114318847656e+01
4.360829889774322510e-01,1.000000000000000000e+00,3.635546207427978516e+00,-6.339047908782958984e+00,4.327989578247070312e+00,-2.042969665527343750e+02,-9.600508117675781250e+01,-1.765217437744140625e+02,4.030399620532989502e-01,-6.667101287841796875e+01,-1.826867065429687500e+02,-2.342316627502441406e+00,7.562117004394531250e+01,3.135653114318847656e+01
4.400349855422973633e-01,1.000000000000000000e+00,3.570496320724487305e+00,-6.284532546997070312e+00,4.337606430053710938e+00,-2.042380218505859375e+02,-9.593214416503906250e+01,-1.764563751220703125e+02,4.030399620532989502e-01,-6.667101287841796875e+01,-1.826867065429687500e+02,-2.342245101928710938e+00,7.562117004394531250e+01,3.135642242431640625e+01
4.441300034523010254e-01,1.000000000000000000e+00,3.505475521087646484e+00,-6.230107784271240234e+00,4.347284317016601562e+00,-2.041784057617187500e+02,-9.585819244384765625e+01,-1.763907165527343750e+02,4.030399620532989502e-01,-6.667101287841796875e+01,-1.826867065429687500e+02,-2.342245101928710938e+00,7.562117004394531250e+01,3.135642242431640625e+01
4.480729997158050537e-01,1.000000000000000000e+00,3.440397024154663086e+00,-6.175727844238281250e+00,4.356941699981689453e+00,-2.041196594238281250e+02,-9.578371429443359375e+01,-1.763246612548828125e+02,4.030399620532989502e-01,-6.667101287841796875e+01,-1.826867065429687500e+02,-2.342245101928710938e+00,7.562117004394531250e+01,3.135619926452636719e+01
4.511229991912841797e-01,1.000000000000000000e+00,3.375404834747314453e+00,-6.121166706085205078e+00,4.366375923156738281e+00,-2.040605163574218750e+02,-9.570949554443359375e+01,-1.762591552734375000e+02,4.030399620532989502e-01,-6.667101287841796875e+01,-1.826867065429687500e+02,-2.342173099517822266e+00,7.562117004394531250e+01,3.135619926452636719e+01
4.550699889659881592e-01,1.000000000000000000e+00,3.310412883758544922e+00,-6.066764831542968750e+00,4.375728130340576172e+00,-2.040011596679687500e+02,-9.563607788085937500e+01,-1.761929626464843750e+02,4.030399620532989502e-01,-6.667101287841796875e+01,-1.826867065429687500e+02,-2.342245101928710938e+00,7.562117004394531250e+01,3.135653114318847656e+01
4.595000147819519043e-01,1.000000000000000000e+00,3.245334386825561523e+00,-6.012317180633544922e+00,4.385182857513427734e+00,-2.039426727294921875e+02,-9.556266021728515625e+01,-1.761272430419921875e+02,4.030399620532989502e-01,-6.667101287841796875e+01,-1.826867065429687500e+02,-2.342316627502441406e+00,7.562117004394531250e+01,3.135642242431640625e+01
4.631499946117401123e-01,1.000000000000000000e+00,3.180169820785522461e+00,-5.957801818847656250e+00,4.394758701324462891e+00,-2.038828430175781250e+02,-9.548796844482421875e+01,-1.760624237060546875e+02,4.030399620532989502e-01,-6.667101287841796875e+01,-1.826867065429687500e+02,-2.342245101928710938e+00,7.562102508544921875e+01,3.135653114318847656e+01
4.670799970626831055e-01,1.000000000000000000e+00,3.114890575408935547e+00,-5.903308868408203125e+00,4.404335498809814453e+00,-2.038238372802734375e+02,-9.541390991210937500e+01,-1.759960937500000000e+02,4.030399620532989502e-01,-6.667101287841796875e+01,-1.826867065429687500e+02,-2.342245101928710938e+00,7.562117004394531250e+01,3.135675048828125000e+01
4.718500077724456787e-01,1.000000000000000000e+00,3.049783468246459961e+00,-5.848815917968750000e+00,4.413932323455810547e+00,-2.037648010253906250e+02,-9.534011840820312500e+01,-1.759293670654296875e+02,4.030399620532989502e-01,-6.667101287841796875e+01,-1.826867065429687500e+02,-2.342316627502441406e+00,7.562117004394531250e+01,3.135653114318847656e+01
4.760760068893432617e-01,1.000000000000000000e+00,2.984705209732055664e+00,-5.794413566589355469e+00,4.423345565795898438e+00,-2.037055511474609375e+02,-9.526665496826171875e+01,-1.758644714355468750e+02,4.030399620532989502e-01,-6.667101287841796875e+01,-1.826867065429687500e+02,-2.342245101928710938e+00,7.562117004394531250e+01,3.135642242431640625e+01
4.790900051593780518e-01,1.000000000000000000e+00,2.919741630554199219e+00,-5.740056514739990234e+00,4.432718753814697266e+00,-2.036464843750000000e+02,-9.519179534912109375e+01,-1.757986145019531250e+02,4.030399620532989502e-01,-6.667101287841796875e+01,-1.826867065429687500e+02,-2.342316627502441406e+00,7.562102508544921875e+01,3.135653114318847656e+01
4.837290048599243164e-01,1.000000000000000000e+00,2.854864120483398438e+00,-5.685767650604248047e+00,4.442477703094482422e+00,-2.035867156982421875e+02,-9.511795043945312500e+01,-1.757329711914062500e+02,4.030399620532989502e-01,-6.667101287841796875e+01,-1.826867065429687500e+02,-2.342245101928710938e+00,7.562117004394531250e+01,3.135653114318847656e+01
4.880619943141937256e-01,1.000000000000000000e+00,2.789900779724121094e+00,-5.631614208221435547e+00,4.452237129211425781e+00,-2.035278167724609375e+02,-9.504438018798828125e+01,-1.756676635742187500e+02,4.030399620532989502e-01,-6.667101287841796875e+01,-1.826867065429687500e+02,-2.342316627502441406e+00,7.562117004394531250e+01,3.135653114318847656e+01
4.910930097103118896e-01,1.000000000000000000e+00,2.725051879882812500e+00,-5.577188968658447266e+00,4.461935043334960938e+00,-2.034688262939453125e+02,-9.497106170654296875e+01,-1.756016082763671875e+02,4.030399620532989502e-01,-6.667101287841796875e+01,-1.826867065429687500e+02,-2.342245101928710938e+00,7.562117004394531250e+01,3.135697174072265625e+01
4.964840114116668701e-01,1.000000000000000000e+00,2.660117149353027344e+00,-5.522922515869140625e+00,4.471552371978759766e+00,-2.034097900390625000e+02,-9.489653015136718750e+01,-1.755357513427734375e+02,4.030399620532989502e-01,-6.667101287841796875e+01,-1.826867065429687500e+02,-2.342245101928710938e+00,7.562117004394531250e+01,3.135697174072265625e+01
4.991689920425415039e-01,1.000000000000000000e+00,2.595297336578369141e+00,-5.468452453613281250e+00,4.480945587158203125e+00,-2.033505706787109375e+02,-9.482321929931640625e+01,-1.754701690673828125e+02,4.030399620532989502e-01,-6.667101287841796875e+01,-1.826867065429687500e+02,-2.342245101928710938e+00,7.562117004394531250e+01,3.135675048828125000e+01
5.031920075416564941e-01,1.000000000000000000e+00,2.530563354492187500e+00,-5.414117813110351562e+00,4.490338802337646484e+00,-2.032908477783203125e+02,-9.474905395507812500e+01,-1.754032287597656250e+02,4.030399620532989502e-01,-6.667101287841796875e+01,-1.826867065429687500e+02,-2.342245101928710938e+00,7.562124633789062500e+01,3.135675048828125000e+01
5.078030228614807129e-01,1.000000000000000000e+00,2.465886831283569336e+00,-5.359874248504638672e+00,4.499874114990234375e+00,-2.032320556640625000e+02,-9.467568969726562500e+01,-1.753381958007812500e+02,4.030399620532989502e-01,-6.667101287841796875e+01,-1.826867065429687500e+02,-2.342245101928710938e+00,7.562102508544921875e+01,3.135675048828125000e+01
5.120909810066223145e-01,1.000000000000000000e+00,2.401325225830078125e+00,-5.305516719818115234e+00,4.509348869323730469e+00,-2.031728973388671875e+02,-9.460121154785156250e+01,-1.752728271484375000e+02,4.030399620532989502e-01,-6.667101287841796875e+01,-1.826867065429687500e+02,-2.342245101928710938e+00,7.562124633789062500e+01,3.135675048828125000e+01
5.151500105857849121e-01,1.000000000000000000e+00,2.336591243743896484e+00,-5.251499652862548828e+00,4.518722057342529297e+00,-2.031136474609375000e+02,-9.452768707275390625e+01,-1.752059631347656250e+02,4.030399620532989502e-01,-6.667101287841796875e+01,-1.826867065429687500e+02,-2.342316627502441406e+00,7.562117004394531250e+01,3.135675048828125000e+01
5.197839736938476562e-01,1.000000000000000000e+00,2.271886110305786133e+00,-5.197165012359619141e+00,4.528013706207275391e+00,-2.030545959472656250e+02,-9.445346832275390625e+01,-1.751402435302734375e+02,4.030399620532989502e-01,-6.667101287841796875e+01,-1.826867065429687500e+02,-2.342245101928710938e+00,7.562117004394531250e+01,3.135675048828125000e+01
5.240610241889953613e-01,1.000000000000000000e+00,2.207209825515747070e+00,-5.143011093139648438e+00,4.537264823913574219e+00,-2.029951782226562500e+02,-9.437957763671875000e+01,-1.750741271972656250e+02,4.030399620532989502e-01,-6.667101287841796875e+01,-1.826867065429687500e+02,-2.342245101928710938e+00,7.562117004394531250e+01,3.135653114318847656e+01
5.274530053138732910e-01,1.000000000000000000e+00,2.142447233200073242e+00,-5.088858127593994141e+00,4.546779632568359375e+00,-2.029364471435546875e+02,-9.430562591552734375e+01,-1.750080718994140625e+02,4.030399620532989502e-01,-6.667111206054687500e+01,-1.826867065429687500e+02,-2.342245101928710938e+00,7.562117004394531250e+01,3.135653114318847656e+01
5.319859981536865234e-01,1.000000000000000000e+00,2.077799558639526367e+00,-5.034817695617675781e+00,4.556437492370605469e+00,-2.028770904541015625e+02,-9.423284912109375000e+01,-1.749430236816406250e+02,4.030399620532989502e-01,-6.667111206054687500e+01,-1.826867065429687500e+02,-2.342316627502441406e+00,7.562117004394531250e+01,3.135653114318847656e+01
5.353800058364868164e-01,1.000000000000000000e+00,2.013065576553344727e+00,-4.980800151824951172e+00,4.566013813018798828e+00,-2.028176269531250000e+02,-9.415895080566406250e+01,-1.748767089843750000e+02,4.030399620532989502e-01,-6.667092895507812500e+01,-1.826867065429687500e+02,-2.342245101928710938e+00,7.562117004394531250e+01,3.135642242431640625e+01
5.393580198287963867e-01,1.000000000000000000e+00,1.948245525360107422e+00,-4.926669120788574219e+00,4.575569629669189453e+00,-2.027584228515625000e+02,-9.408511352539062500e+01,-1.748104553222656250e+02,4.030399620532989502e-01,-6.667092895507812500e+01,-1.826867065429687500e+02,-2.342316627502441406e+00,7.562117004394531250e+01,3.135642242431640625e+01
5.434740185737609863e-01,1.000000000000000000e+00,1.883511781692504883e+00,-4.872674465179443359e+00,4.584962844848632812e+00,-2.026993103027343750e+02,-9.401073455810546875e+01,-1.747452850341796875e+02,4.030399620532989502e-01,-6.667101287841796875e+01,-1.826867065429687500e+02,-2.342245101928710938e+00,7.562117004394531250e+01,3.135642242431640625e+01
5.474359989166259766e-01,1.000000000000000000e+00,1.818978905677795410e+00,-4.818430423736572266e+00,4.594356060028076172e+00,-2.026403656005859375e+02,-9.393758392333984375e+01,-1.746787567138671875e+02,4.030399620532989502e-01,-6.667101287841796875e+01,-1.826867065429687500e+02,-2.342245101928710938e+00,7.562117004394531250e+01,3.135653114318847656e+01
5.514219999313354492e-01,1.000000000000000000e+00,1.754417181015014648e+00,-4.764299869537353516e+00,4.603810310363769531e+00,-2.025811004638671875e+02,-9.386437988281250000e+01,-1.746135101318359375e+02,4.030399620532989502e-01,-6.667101287841796875e+01,-1.826867065429687500e+02,-2.342316627502441406e+00,7.562117004394531250e+01,3.135653114318847656e+01
5.561640262603759766e-01,1.000000000000000000e+00,1.689683318138122559e+00,-4.709965229034423828e+00,4.613448143005371094e+00,-2.025220642089843750e+02,-9.379048156738281250e+01,-1.745482788085937500e+02,4.030399620532989502e-01,-6.667101287841796875e+01,-1.826867065429687500e+02,-2.342245101928710938e+00,7.562117004394531250e+01,3.135653114318847656e+01
5.595070123672485352e-01,1.000000000000000000e+00,1.624834537506103516e+00,-4.655562877655029297e+00,4.622942924499511719e+00,-2.024625396728515625e+02,-9.371600341796875000e+01,-1.744821624755859375e+02,4.030399620532989502e-01,-6.667101287841796875e+01,-1.826867065429687500e+02,-2.342245101928710938e+00,7.562117004394531250e+01,3.135653114318847656e+01
5.636569857597351074e-01,1.000000000000000000e+00,1.560158133506774902e+00,-4.601206302642822266e+00,4.632417678833007812e+00,-2.024033813476562500e+02,-9.364210510253906250e+01,-1.744167022705078125e+02,4.030399620532989502e-01,-6.667101287841796875e+01,-1.826867065429687500e+02,-2.342316627502441406e+00,7.562124633789062500e+01,3.135675048828125000e+01
5.687879920005798340e-01,1.000000000000000000e+00,1.495280742645263672e+00,-4.546916961669921875e+00,4.641749858856201172e+00,-2.023445434570312500e+02,-9.356858825683593750e+01,-1.743504638671875000e+02,4.030399620532989502e-01,-6.667101287841796875e+01,-1.826867065429687500e+02,-2.342316627502441406e+00,7.562124633789062500e+01,3.135697174072265625e+01
5.721409916877746582e-01,1.000000000000000000e+00,1.430632948875427246e+00,-4.492650032043457031e+00,4.651061534881591797e+00,-2.022850341796875000e+02,-9.349452972412109375e+01,-1.742838592529296875e+02,4.030399620532989502e-01,-6.667101287841796875e+01,-1.826867065429687500e+02,-2.342245101928710938e+00,7.562117004394531250e+01,3.135675048828125000e+01
5.758010149002075195e-01,1.000000000000000000e+00,1.365956544876098633e+00,-4.438315868377685547e+00,4.660699367523193359e+00,-2.022262420654296875e+02,-9.342057800292968750e+01,-1.742186889648437500e+02,4.030399620532989502e-01,-6.667101287841796875e+01,-1.826867065429687500e+02,-2.342245101928710938e+00,7.562117004394531250e+01,3.135653114318847656e+01
5.804709792137145996e-01,1.000000000000000000e+00,1.301165223121643066e+00,-4.383868217468261719e+00,4.670458316802978516e+00,-2.021666259765625000e+02,-9.334667968750000000e+01,-1.741530303955078125e+02,4.030399620532989502e-01,-6.667101287841796875e+01,-1.826867065429687500e+02,-2.342245101928710938e+00,7.562124633789062500e+01,3.135653114318847656e+01
5.837180018424987793e-01,1.000000000000000000e+00,1.236287832260131836e+00,-4.329511165618896484e+00,4.680075168609619141e+00,-2.021075744628906250e+02,-9.327326202392578125e+01,-1.740870513916015625e+02,4.030399620532989502e-01,-6.667092895507812500e+01,-1.826867065429687500e+02,-2.342316627502441406e+00,7.562117004394531250e+01,3.135653114318847656e+01
5.880669951438903809e-01,1.000000000000000000e+00,1.171439170837402344e+00,-4.275199413299560547e+00,4.689712524414062500e+00,-2.020487823486328125e+02,-9.319899749755859375e+01,-1.740217437744140625e+02,4.030399620532989502e-01,-6.667101287841796875e+01,-1.826867065429687500e+02,-2.342173099517822266e+00,7.562117004394531250e+01,3.135653114318847656e+01
5.918279886245727539e-01,1.000000000000000000e+00,1.106418251991271973e+00,-4.220864772796630859e+00,4.699065208435058594e+00,-2.019890441894531250e+02,-9.312493896484375000e+01,-1.739554138183593750e+02,4.030399620532989502e-01,-6.667101287841796875e+01,-1.826867065429687500e+02,-2.342316627502441406e+00,7.562117004394531250e+01,3.135653114318847656e+01
5.961470007896423340e-01,1.000000000000000000e+00,1.041655659675598145e+00,-4.166688442230224609e+00,4.708376884460449219e+00,-2.019300689697265625e+02,-9.305194854736328125e+01,-1.738893585205078125e+02,4.030399620532989502e-01,-6.667101287841796875e+01,-1.826867065429687500e+02,-2.342245101928710938e+00,7.562117004394531250e+01,3.135653114318847656e+01
5.999360084533691406e-01,1.000000000000000000e+00,9.769791960716247559e-01,-4.112241268157958984e+00,4.717811107635498047e+00,-2.018705291748046875e+02,-9.297811126708984375e+01,-1.738247375488281250e+02,4.030399620532989502e-01,-6.667101287841796875e+01,-1.826867065429687500e+02,-2.342316627502441406e+00,7.562117004394531250e+01,3.135675048828125000e+01
6.046270132064819336e-01,1.000000000000000000e+00,9.121878743171691895e-01,-4.057771205902099609e+00,4.727427959442138672e+00,-2.018116455078125000e+02,-9.290389251708984375e+01,-1.737586822509765625e+02,4.030399620532989502e-01,-6.667092895507812500e+01,-1.826867065429687500e+02,-2.342316627502441406e+00,7.562124633789062500e+01,3.135675048828125000e+01
6.081389784812927246e-01,1.000000000000000000e+00,8.474253416061401367e-01,-4.003210067749023438e+00,4.737024307250976562e+00,-2.017524871826171875e+02,-9.282908630371093750e+01,-1.736929626464843750e+02,4.030399620532989502e-01,-6.667101287841796875e+01,-1.826867065429687500e+02,-2.342245101928710938e+00,7.562117004394531250e+01,3.135653114318847656e+01
6.119250059127807617e-01,1.000000000000000000e+00,7.826914787292480469e-01,-3.948762416839599609e+00,4.746519565582275391e+00,-2.016931762695312500e+02,-9.275620269775390625e+01,-1.736278686523437500e+02,4.030399620532989502e-01,-6.667101287841796875e+01,-1.826867065429687500e+02,-2.342245101928710938e+00,7.562117004394531250e+01,3.135642242431640625e+01
6.167669892311096191e-01,1.000000000000000000e+00,7.180724143981933594e-01,-3.894428253173828125e+00,4.755831241607666016e+00,-2.016341400146484375e+02,-9.268209838867187500e+01,-1.735615386962890625e+02,4.030399620532989502e-01,-6.667101287841796875e+01,-1.826867065429687500e+02,-2.342245101928710938e+00,7.562117004394531250e+01,3.135653114318847656e+01
6.201660037040710449e-01,1.000000000000000000e+00,6.533959507942199707e-01,-3.840071201324462891e+00,4.765102863311767578e+00,-2.015747222900390625e+02,-9.260777282714843750e+01,-1.734960327148437500e+02,4.030399620532989502e-01,-6.667101287841796875e+01,-1.826867065429687500e+02,-2.342245101928710938e+00,7.562117004394531250e+01,3.135675048828125000e+01
6.242449879646301270e-01,1.000000000000000000e+00,5.887769460678100586e-01,-3.785827159881591797e+00,4.774780750274658203e+00,-2.015156707763671875e+02,-9.253302764892578125e+01,-1.734310607910156250e+02,4.030399620532989502e-01,-6.667101287841796875e+01,-1.826867065429687500e+02,-2.342316627502441406e+00,7.562117004394531250e+01,3.135675048828125000e+01
6.288390159606933594e-01,1.000000000000000000e+00,5.241578221321105957e-01,-3.731311798095703125e+00,4.784519672393798828e+00,-2.014568786621093750e+02,-9.245970916748046875e+01,-1.733650817871093750e+02,4.030399620532989502e-01,-6.667111206054687500e+01,-1.826867065429687500e+02,-2.342245101928710938e+00,7.562139129638671875e+01,3.135653114318847656e+01
6.321529746055603027e-01,1.000000000000000000e+00,4.593952596187591553e-01,-3.676954746246337891e+00,4.794197559356689453e+00,-2.013974761962890625e+02,-9.238619232177734375e+01,-1.732996368408203125e+02,4.030399620532989502e-01,-6.667101287841796875e+01,-1.826867065429687500e+02,-2.342245101928710938e+00,7.562124633789062500e+01,3.135642242431640625e+01
6.359840035438537598e-01,1.000000000000000000e+00,3.948623538017272949e-01,-3.622869491577148438e+00,4.803631782531738281e+00,-2.013384246826171875e+02,-9.231224060058593750e+01,-1.732340545654296875e+02,4.030399620532989502e-01,-6.667092895507812500e+01,-1.826867065429687500e+02,-2.342173099517822266e+00,7.562117004394531250e+01,3.135642242431640625e+01
6.410130262374877930e-01,1.000000000000000000e+00,3.301572203636169434e-01,-3.568602800369262695e+00,4.812983989715576172e+00,-2.012787322998046875e+02,-9.223796844482421875e+01,-1.731673889160156250e+02,4.030399620532989502e-01,-6.667101287841796875e+01,-1.826867065429687500e+02,-2.342245101928710938e+00,7.562124633789062500e+01,3.135642242431640625e+01
6.442509889602661133e-01,1.000000000000000000e+00,2.654520571231842041e-01,-3.514539718627929688e+00,4.822377204895019531e+00,-2.012200164794921875e+02,-9.216433715820312500e+01,-1.731024932861328125e+02,4.030399620532989502e-01,-6.667111206054687500e+01,-1.826867065429687500e+02,-2.342316627502441406e+00,7.562124633789062500e+01,3.135653114318847656e+01
6.481090188026428223e-01,1.000000000000000000e+00,2.006607651710510254e-01,-3.460363864898681641e+00,4.831994533538818359e+00,-2.011611175537109375e+02,-9.209087371826171875e+01,-1.730368347167968750e+02,4.030399620532989502e-01,-6.667101287841796875e+01,-1.826867065429687500e+02,-2.342245101928710938e+00,7.562117004394531250e+01,3.135653114318847656e+01
6.530600190162658691e-01,1.000000000000000000e+00,1.359556019306182861e-01,-3.406323671340942383e+00,4.841489315032958984e+00,-2.011017608642578125e+02,-9.201681518554687500e+01,-1.729706420898437500e+02,4.030399620532989502e-01,-6.667101287841796875e+01,-1.826867065429687500e+02,-2.342245101928710938e+00,7.562124633789062500e+01,3.135675048828125000e+01
6.562070250511169434e-01,1.000000000000000000e+00,7.116432487964630127e-02,-3.352215290069580078e+00,4.850883007049560547e+00,-2.010424957275390625e+02,-9.194249725341796875e+01,-1.729053344726562500e+02,4.030399620532989502e-01,-6.667101287841796875e+01,-1.826867065429687500e+02,-2.342316627502441406e+00,7.562124633789062500e+01,3.135675048828125000e+01
6.601790189743041992e-01,1.000000000000000000e+00,6.401742808520793915e-03,-3.297858238220214844e+00,4.860113143920898438e+00,-2.009832305908203125e+02,-9.186859893798828125e+01,-1.728387451171875000e+02,4.030399620532989502e-01,-6.667111206054687500e+01,-1.826867065429687500e+02,-2.342316627502441406e+00,7.562124633789062500e+01,3.135697174072265625e+01
6.650930047035217285e-01,1.000000000000000000e+00,-5.827471613883972168e-02,-3.243750095367431641e+00,4.869364261627197266e+00,-2.009243469238281250e+02,-9.179512786865234375e+01,-1.727729644775390625e+02,4.030399620532989502e-01,-6.667101287841796875e+01,-1.826867065429687500e+02,-2.342316627502441406e+00,7.562102508544921875e+01,3.135697174072265625e+01
6.670129895210266113e-01,1.000000000000000000e+00,-1.229511722922325134e-01,-3.189370632171630859e+00,4.878818511962890625e+00,-2.008650512695312500e+02,-9.172075653076171875e+01,-1.727080688476562500e+02,4.030399620532989502e-01,-6.667101287841796875e+01,-1.826867065429687500e+02,-2.342245101928710938e+00,7.562124633789062500e+01,3.135675048828125000e+01
6.710860133171081543e-01,1.000000000000000000e+00,-1.877998709678649902e-01,-3.134855031967163086e+00,4.888476371765136719e+00,-2.008061523437500000e+02,-9.164695739746093750e+01,-1.726413421630859375e+02,4.030399620532989502e-01,-6.667101287841796875e+01,-1.826867065429687500e+02,-2.342173099517822266e+00,7.562124633789062500e+01,3.135653114318847656e+01
6.750239729881286621e-01,1.000000000000000000e+00,-2.526198625564575195e-01,-3.080633640289306641e+00,4.898052692413330078e+00,-2.007466735839843750e+02,-9.157333374023437500e+01,-1.725758209228515625e+02,4.030399620532989502e-01,-6.667101287841796875e+01,-1.826867065429687500e+02,-2.342245101928710938e+00,7.562117004394531250e+01,3.135653114318847656e+01
6.790279746055603027e-01,1.000000000000000000e+00,-3.172962963581085205e-01,-3.026502847671508789e+00,4.907608509063720703e+00,-2.006876373291015625e+02,-9.150007629394531250e+01,-1.725107879638671875e+02,4.030399620532989502e-01,-6.667101287841796875e+01,-1.826867065429687500e+02,-2.342316627502441406e+00,7.562117004394531250e+01,3.135653114318847656e+01
6.830819845199584961e-01,1.000000000000000000e+00,-3.820588886737823486e-01,-2.972372293472290039e+00,4.917103290557861328e+00,-2.006287536621093750e+02,-9.142570495605468750e+01,-1.724441986083984375e+02,4.030399620532989502e-01,-6.667101287841796875e+01,-1.826867065429687500e+02,-2.342245101928710938e+00,7.562117004394531250e+01,3.135653114318847656e+01
6.870110034942626953e-01,1.000000000000000000e+00,-4.468214511871337891e-01,-2.918082952499389648e+00,4.926455974578857422e+00,-2.005694885253906250e+02,-9.135196685791015625e+01,-1.723787384033203125e+02,4.030399620532989502e-01,-6.667101287841796875e+01,-1.826867065429687500e+02,-2.342316627502441406e+00,7.562117004394531250e+01,3.135653114318847656e+01
6.925699710845947266e-01,1.000000000000000000e+00,-5.116989016532897949e-01,-2.863748550415039062e+00,4.935829162597656250e+00,-2.005110778808593750e+02,-9.127854919433593750e+01,-1.723132324218750000e+02,4.030399620532989502e-01,-6.667101287841796875e+01,-1.826867065429687500e+02,-2.342245101928710938e+00,7.562117004394531250e+01,3.135653114318847656e+01
6.965489983558654785e-01,1.000000000000000000e+00,-5.763753652572631836e-01,-2.809527158737182617e+00,4.945384979248046875e+00,-2.004517059326171875e+02,-9.120518493652343750e+01,-1.722475891113281250e+02,4.030399620532989502e-01,-6.667101287841796875e+01,-1.826867065429687500e+02,-2.342316627502441406e+00,7.562124633789062500e+01,3.135653114318847656e+01
6.990900039672851562e-01,1.000000000000000000e+00,-6.413101553916931152e-01,-2.755215644836425781e+00,4.954961299896240234e+00,-2.003921356201171875e+02,-9.113128662109375000e+01,-1.721824188232421875e+02,4.030399620532989502e-01,-6.667101287841796875e+01,-1.826867065429687500e+02,-2.342316627502441406e+00,7.562117004394531250e+01,3.135653114318847656e+01
7.030119895935058594e-01,1.000000000000000000e+00,-7.064172029495239258e-01,-2.701129913330078125e+00,4.964476585388183594e+00,-2.003335113525390625e+02,-9.105782318115234375e+01,-1.721161041259765625e+02,4.030399620532989502e-01,-6.667101287841796875e+01,-1.826867065429687500e+02,-2.342245101928710938e+00,7.562117004394531250e+01,3.135653114318847656e+01
7.070069909095764160e-01,1.000000000000000000e+00,-7.713807225227355957e-01,-2.647021770477294922e+00,4.973890304565429688e+00,-2.002740936279296875e+02,-9.098387145996093750e+01,-1.720497589111328125e+02,4.030399620532989502e-01,-6.667101287841796875e+01,-1.826867065429687500e+02,-2.342245101928710938e+00,7.562117004394531250e+01,3.135653114318847656e+01
7.110959887504577637e-01,1.000000000000000000e+00,-8.363729715347290039e-01,-2.592483758926391602e+00,4.983181953430175781e+00,-2.002150421142578125e+02,-9.091002655029296875e+01,-1.719849243164062500e+02,4.030399620532989502e-01,-6.667101287841796875e+01,-1.826867065429687500e+02,-2.342245101928710938e+00,7.562117004394531250e+01,3.135653114318847656e+01
7.150880098342895508e-01,1.000000000000000000e+00,-9.011355638504028320e-01,-2.538081169128417969e+00,4.992696762084960938e+00,-2.001557312011718750e+02,-9.083612823486328125e+01,-1.719190216064453125e+02,4.030399620532989502e-01,-6.667111206054687500e+01,-1.826867065429687500e+02,-2.342316627502441406e+00,7.562117004394531250e+01,3.135653114318847656e+01
7.190390229225158691e-01,1.000000000000000000e+00,-9.660416841506958008e-01,-2.483611106872558594e+00,5.002354621887207031e+00,-2.000965270996093750e+02,-9.076281738281250000e+01,-1.718531646728515625e+02,4.030399620532989502e-01,-6.667101287841796875e+01,-1.826867065429687500e+02,-2.342245101928710938e+00,7.562117004394531250e+01,3.135675048828125000e+01
7.230949997901916504e-01,1.000000000000000000e+00,-1.030890345573425293e+00,-2.429344654083251953e+00,5.012032508850097656e+00,-2.000378417968750000e+02,-9.068962097167968750e+01,-1.717875976562500000e+02,4.030399620532989502e-01,-6.667101287841796875e+01,-1.826867065429687500e+02,-2.342173099517822266e+00,7.562124633789062500e+01,3.135675048828125000e+01
7.270420193672180176e-01,1.000000000000000000e+00,-1.095825076103210449e+00,-2.375010013580322266e+00,5.021608829498291016e+00,-1.999785919189453125e+02,-9.061582946777343750e+01,-1.717216033935546875e+02,4.030399620532989502e-01,-6.667101287841796875e+01,-1.826867065429687500e+02,-2.342245101928710938e+00,7.562102508544921875e+01,3.135653114318847656e+01
7.310730218887329102e-01,1.000000000000000000e+00,-1.160501718521118164e+00,-2.320788860321044922e+00,5.030981540679931641e+00,-1.999196472167968750e+02,-9.054187774658203125e+01,-1.716560211181640625e+02,4.030399620532989502e-01,-6.667101287841796875e+01,-1.826867065429687500e+02,-2.342245101928710938e+00,7.562117004394531250e+01,3.135653114318847656e+01
7.351449728012084961e-01,1.000000000000000000e+00,-1.225149393081665039e+00,-2.266454458236694336e+00,5.040253162384033203e+00,-1.998601226806640625e+02,-9.046819305419921875e+01,-1.715911102294921875e+02,4.030399620532989502e-01,-6.667101287841796875e+01,-1.826867065429687500e+02,-2.342245101928710938e+00,7.562124633789062500e+01,3.135653114318847656e+01
7.411220073699951172e-01,1.000000000000000000e+00,-1.289797186851501465e+00,-2.211938858032226562e+00,5.049585342407226562e+00,-1.998009185791015625e+02,-9.039499664306640625e+01,-1.715243225097656250e+02,4.030399620532989502e-01,-6.667101287841796875e+01,-1.826867065429687500e+02,-2.342245101928710938e+00,7.562117004394531250e+01,3.135642242431640625e+01
7.430850267410278320e-01,1.000000000000000000e+00,-1.354358792304992676e+00,-2.157717704772949219e+00,5.058978557586669922e+00,-1.997422485351562500e+02,-9.032146453857421875e+01,-1.714582672119140625e+02,4.030399620532989502e-01,-6.667101287841796875e+01,-1.826867065429687500e+02,-2.342245101928710938e+00,7.562117004394531250e+01,3.135653114318847656e+01
7.494530081748962402e-01,1.000000000000000000e+00,-1.483539462089538574e+00,-2.049343109130859375e+00,5.077968597412109375e+00,-1.996240386962890625e+02,-9.017324829101562500e+01,-1.713274383544921875e+02,4.030399620532989502e-01,-6.667101287841796875e+01,-1.826867065429687500e+02,-2.342245101928710938e+00,7.562124633789062500e+01,3.135653114318847656e+01
7.510079741477966309e-01,1.000000000000000000e+00,-1.483539462089538574e+00,-2.049343109130859375e+00,5.077968597412109375e+00,-1.996240386962890625e+02,-9.017324829101562500e+01,-1.713274383544921875e+02,4.030399620532989502e-01,-6.667101287841796875e+01,-1.826867065429687500e+02,-2.342245101928710938e+00,7.562124633789062500e+01,3.135653114318847656e+01
7.550060153007507324e-01,1.000000000000000000e+00,-1.548129677772521973e+00,-1.995302796363830566e+00,5.087280273437500000e+00,-1.995644683837890625e+02,-9.009956359863281250e+01,-1.712624206542968750e+02,4.030399620532989502e-01,-6.667101287841796875e+01,-1.826867065429687500e+02,-2.342245101928710938e+00,7.562117004394531250e+01,3.135675048828125000e+01
7.590929865837097168e-01,1.000000000000000000e+00,-1.612949728965759277e+00,-1.941104173660278320e+00,5.096653461456298828e+00,-1.995056915283203125e+02,-9.002593994140625000e+01,-1.711967010498046875e+02,4.030399620532989502e-01,-6.667101287841796875e+01,-1.826865997314453125e+02,-2.342245101928710938e+00,7.562117004394531250e+01,3.135675048828125000e+01
7.636200189590454102e-01,1.000000000000000000e+00,-1.677453875541687012e+00,-1.886769533157348633e+00,5.106188774108886719e+00,-1.994466400146484375e+02,-8.995140075683593750e+01,-1.711303100585937500e+02,4.030399620532989502e-01,-6.667101287841796875e+01,-1.826867065429687500e+02,-2.342173099517822266e+00,7.562117004394531250e+01,3.135697174072265625e+01
7.693380117416381836e-01,1.000000000000000000e+00,-1.742072939872741699e+00,-1.832503080368041992e+00,5.115927696228027344e+00,-1.993872222900390625e+02,-8.987799072265625000e+01,-1.710650634765625000e+02,4.030399620532989502e-01,-6.667101287841796875e+01,-1.826867065429687500e+02,-2.342316627502441406e+00,7.562117004394531250e+01,3.135675048828125000e+01
7.710250020027160645e-01,1.000000000000000000e+00,-1.806749463081359863e+00,-1.778304457664489746e+00,5.125544548034667969e+00,-1.993280639648437500e+02,-8.980440521240234375e+01,-1.709992065429687500e+02,4.030399620532989502e-01,-6.667101287841796875e+01,-1.826867065429687500e+02,-2.342173099517822266e+00,7.562124633789062500e+01,3.135653114318847656e+01
7.751290202140808105e-01,1.000000000000000000e+00,-1.871397137641906738e+00,-1.723969936370849609e+00,5.135080337524414062e+00,-1.992688598632812500e+02,-8.973067474365234375e+01,-1.709326782226562500e+02,4.030399620532989502e-01,-6.667101287841796875e+01,-1.826867065429687500e+02,-2.342245101928710938e+00,7.562117004394531250e+01,3.135653114318847656e+01
7.790309786796569824e-01,1.000000000000000000e+00,-1.935757756233215332e+00,-1.669612884521484375e+00,5.144453525543212891e+00,-1.992098541259765625e+02,-8.965586853027343750e+01,-1.708680572509765625e+02,4.030399620532989502e-01,-6.667101287841796875e+01,-1.826867065429687500e+02,-2.342173099517822266e+00,7.562124633789062500e+01,3.135653114318847656e+01
7.830110192298889160e-01,1.000000000000000000e+00,-2.000032424926757812e+00,-1.615459442138671875e+00,5.153805732727050781e+00,-1.991504516601562500e+02,-8.958283233642578125e+01,-1.708020172119140625e+02,4.030399620532989502e-01,-6.667101287841796875e+01,-1.826867065429687500e+02,-2.342173099517822266e+00,7.562124633789062500e+01,3.135675048828125000e+01
7.891830205917358398e-01,1.000000000000000000e+00,-2.064594030380249023e+00,-1.561260938644409180e+00,5.163300991058349609e+00,-1.990914459228515625e+02,-8.950903320312500000e+01,-1.707356719970703125e+02,4.030399620532989502e-01,-6.667101287841796875e+01,-1.826867065429687500e+02,-2.342245101928710938e+00,7.562117004394531250e+01,3.135675048828125000e+01
7.910159826278686523e-01,1.000000000000000000e+00,-2.129012346267700195e+00,-1.506903767585754395e+00,5.172796249389648438e+00,-1.990325622558593750e+02,-8.943534851074218750e+01,-1.706703033447265625e+02,4.030399620532989502e-01,-6.667101287841796875e+01,-1.826867065429687500e+02,-2.342245101928710938e+00,7.562117004394531250e+01,3.135675048828125000e+01
7.974269986152648926e-01,1.000000000000000000e+00,-2.129012346267700195e+00,-1.506903767585754395e+00,5.172796249389648438e+00,-1.990325622558593750e+02,-8.943534851074218750e+01,-1.706703033447265625e+02,4.030399620532989502e-01,-6.667101287841796875e+01,-1.826867065429687500e+02,-2.342245101928710938e+00,7.562124633789062500e+01,3.135653114318847656e+01
7.991160154342651367e-01,1.000000000000000000e+00,-2.258135557174682617e+00,-1.398212313652038574e+00,5.191419601440429688e+00,-1.989142608642578125e+02,-8.928687286376953125e+01,-1.705380706787109375e+02,4.030399620532989502e-01,-6.667101287841796875e+01,-1.826867065429687500e+02,-2.342245101928710938e+00,7.562124633789062500e+01,3.135653114318847656e+01
8.040189743041992188e-01,1.000000000000000000e+00,-2.322582244873046875e+00,-1.344126820564270020e+00,5.200691223144531250e+00,-1.988547515869140625e+02,-8.921292114257812500e+01,-1.704735107421875000e+02,4.030399620532989502e-01,-6.667101287841796875e+01,-1.826867065429687500e+02,-2.342316627502441406e+00,7.562124633789062500e+01,3.135653114318847656e+01
8.070200085639953613e-01,1.000000000000000000e+00,-2.387086391448974609e+00,-1.289860248565673828e+00,5.210165500640869141e+00,-1.987958068847656250e+02,-8.913896942138671875e+01,-1.704068298339843750e+02,4.030399620532989502e-01,-6.667101287841796875e+01,-1.826867065429687500e+02,-2.342245101928710938e+00,7.562117004394531250e+01,3.135653114318847656e+01
8.135750293731689453e-01,1.000000000000000000e+00,-2.387086391448974609e+00,-1.289860248565673828e+00,5.210165500640869141e+00,-1.987958068847656250e+02,-8.913896942138671875e+01,-1.704068298339843750e+02,4.030399620532989502e-01,-6.667101287841796875e+01,-1.826867065429687500e+02,-2.342245101928710938e+00,7.562117004394531250e+01,3.135653114318847656e+01
8.160589933395385742e-01,1.000000000000000000e+00,-2.516640186309814453e+00,-1.181711912155151367e+00,5.229359149932861328e+00,-1.986772308349609375e+02,-8.899069976806640625e+01,-1.702752685546875000e+02,4.030399620532989502e-01,-6.667101287841796875e+01,-1.826867065429687500e+02,-2.342245101928710938e+00,7.562124633789062500e+01,3.135653114318847656e+01
8.190850019454956055e-01,1.000000000000000000e+00,-2.581517696380615234e+00,-1.127196431159973145e+00,5.239017009735107422e+00,-1.986187133789062500e+02,-8.891722869873046875e+01,-1.702094879150390625e+02,4.030399620532989502e-01,-6.667101287841796875e+01,-1.826867065429687500e+02,-2.342245101928710938e+00,7.562124633789062500e+01,3.135653114318847656e+01
8.240280151367187500e-01,1.000000000000000000e+00,-2.581517696380615234e+00,-1.127196431159973145e+00,5.239017009735107422e+00,-1.986187133789062500e+02,-8.891722869873046875e+01,-1.702094879150390625e+02,4.030399620532989502e-01,-6.667101287841796875e+01,-1.826867065429687500e+02,-2.342245101928710938e+00,7.562124633789062500e+01,3.135653114318847656e+01
8.270059823989868164e-01,1.000000000000000000e+00,-2.711100101470947266e+00,-1.018550157546997070e+00,5.257803440093994141e+00,-1.985000305175781250e+02,-8.876869201660156250e+01,-1.700786590576171875e+02,4.030399620532989502e-01,-6.667092895507812500e+01,-1.826867065429687500e+02,-2.342316627502441406e+00,7.562117004394531250e+01,3.135675048828125000e+01
8.321239948272705078e-01,1.000000000000000000e+00,-2.711100101470947266e+00,-1.018550157546997070e+00,5.257803440093994141e+00,-1.985000305175781250e+02,-8.876869201660156250e+01,-1.700786590576171875e+02,4.030399620532989502e-01,-6.667092895507812500e+01,-1.826867065429687500e+02,-2.342316627502441406e+00,7.562117004394531250e+01,3.135675048828125000e+01
8.362429738044738770e-01,1.000000000000000000e+00,-2.840969800949096680e+00,-9.099717140197753906e-01,5.276752471923828125e+00,-1.983814697265625000e+02,-8.862196350097656250e+01,-1.699473724365234375e+02,4.030399620532989502e-01,-6.667101287841796875e+01,-1.826867065429687500e+02,-2.342245101928710938e+00,7.562117004394531250e+01,3.135675048828125000e+01
8.390079736709594727e-01,1.000000000000000000e+00,-2.905646324157714844e+00,-8.556146621704101562e-01,5.286328792572021484e+00,-1.983227233886718750e+02,-8.854839324951171875e+01,-1.698809204101562500e+02,4.030399620532989502e-01,-6.667101287841796875e+01,-1.826867065429687500e+02,-2.342245101928710938e+00,7.562117004394531250e+01,3.135653114318847656e+01
8.441010117530822754e-01,1.000000000000000000e+00,-2.905646324157714844e+00,-8.556146621704101562e-01,5.286328792572021484e+00,-1.983227233886718750e+02,-8.854839324951171875e+01,-1.698809204101562500e+02,4.030399620532989502e-01,-6.667101287841796875e+01,-1.826867065429687500e+02,-2.342245101928710938e+00,7.562117004394531250e+01,3.135653114318847656e+01
8.470910191535949707e-01,1.000000000000000000e+00,-3.035372495651245117e+00,-7.471042275428771973e-01,5.305074691772460938e+00,-1.982044830322265625e+02,-8.840011596679687500e+01,-1.697498168945312500e+02,4.030399620532989502e-01,-6.667101287841796875e+01,-1.826867065429687500e+02,-2.342245101928710938e+00,7.562124633789062500e+01,3.135675048828125000e+01
8.510689735412597656e-01,1.000000000000000000e+00,-3.035372495651245117e+00,-7.471042275428771973e-01,5.305074691772460938e+00,-1.982044830322265625e+02,-8.840011596679687500e+01,-1.697498168945312500e+02,4.030399620532989502e-01,-6.667101287841796875e+01,-1.826867065429687500e+02,-2.342245101928710938e+00,7.562124633789062500e+01,3.135675048828125000e+01
8.550729751586914062e-01,1.000000000000000000e+00,-3.100049018859863281e+00,-6.928603053092956543e-01,5.314346313476562500e+00,-1.981448059082031250e+02,-8.832659149169921875e+01,-1.696836395263671875e+02,4.030399620532989502e-01,-6.667101287841796875e+01,-1.826867065429687500e+02,-2.342245101928710938e+00,7.562117004394531250e+01,3.135675048828125000e+01
8.598840236663818359e-01,1.000000000000000000e+00,-3.165127277374267578e+00,-6.385937929153442383e-01,5.323739528656005859e+00,-1.980856323242187500e+02,-8.825270080566406250e+01,-1.696181945800781250e+02,4.030399620532989502e-01,-6.667101287841796875e+01,-1.826867065429687500e+02,-2.342316627502441406e+00,7.562117004394531250e+01,3.135653114318847656e+01
8.630250096321105957e-01,1.000000000000000000e+00,-3.294824600219726562e+00,-5.302869081497192383e-01,5.343196868896484375e+00,-1.979677581787109375e+02,-8.810469055175781250e+01,-1.694862213134765625e+02,4.030399620532989502e-01,-6.667101287841796875e+01,-1.826867065429687500e+02,-2.342245101928710938e+00,7.562117004394531250e+01,3.135642242431640625e+01
8.680530190467834473e-01,1.000000000000000000e+00,-3.294824600219726562e+00,-5.302869081497192383e-01,5.343196868896484375e+00,-1.979677581787109375e+02,-8.810469055175781250e+01,-1.694862213134765625e+02,4.030399620532989502e-01,-6.667101287841796875e+01,-1.826867065429687500e+02,-2.342245101928710938e+00,7.562117004394531250e+01,3.135642242431640625e+01
8.710259795188903809e-01,1.000000000000000000e+00,-3.424579381942749023e+00,-4.222290813922882080e-01,5.362206935882568359e+00,-1.978493041992187500e+02,-8.795780181884765625e+01,-1.693554687500000000e+02,4.030399620532989502e-01,-6.667092895507812500e+01,-1.826867065429687500e+02,-2.342245101928710938e+00,7.562117004394531250e+01,3.135653114318847656e+01
8.751270174980163574e-01,1.000000000000000000e+00,-3.424579381942749023e+00,-4.222290813922882080e-01,5.362206935882568359e+00,-1.978493041992187500e+02,-8.795780181884765625e+01,-1.693554687500000000e+02,4.030399620532989502e-01,-6.667092895507812500e+01,-1.826867065429687500e+02,-2.342245101928710938e+00,7.562117004394531250e+01,3.135653114318847656e+01
8.790720105171203613e-01,1.000000000000000000e+00,-3.489485740661621094e+00,-3.680756986141204834e-01,5.371315956115722656e+00,-1.977902984619140625e+02,-8.788375091552734375e+01,-1.692892913818359375e+02,4.030399620532989502e-01,-6.667101287841796875e+01,-1.826867065429687500e+02,-2.342316627502441406e+00,7.562117004394531250e+01,3.135653114318847656e+01
8.838189840316772461e-01,1.000000000000000000e+00,-3.554420471191406250e+00,-3.136507272720336914e-01,5.380688667297363281e+00,-1.977315216064453125e+02,-8.781022644042968750e+01,-1.692240447998046875e+02,4.030399620532989502e-01,-6.667101287841796875e+01,-1.826867065429687500e+02,-2.342173099517822266e+00,7.562124633789062500e+01,3.135653114318847656e+01
8.870620131492614746e-01,1.000000000000000000e+00,-3.684060335159301758e+00,-2.049592286348342896e-01,5.399658203125000000e+00,-1.976131591796875000e+02,-8.766317749023437500e+01,-1.690924072265625000e+02,4.030399620532989502e-01,-6.667101287841796875e+01,-1.826867065429687500e+02,-2.342173099517822266e+00,7.562117004394531250e+01,3.135653114318847656e+01
8.910639882087707520e-01,1.000000000000000000e+00,-3.684060335159301758e+00,-2.049592286348342896e-01,5.399658203125000000e+00,-1.976131591796875000e+02,-8.766317749023437500e+01,-1.690924072265625000e+02,4.030399620532989502e-01,-6.667101287841796875e+01,-1.826867065429687500e+02,-2.342173099517822266e+00,7.562117004394531250e+01,3.135653114318847656e+01
8.951539993286132812e-01,1.000000000000000000e+00,-3.748765707015991211e+00,-1.506247967481613159e-01,5.409193992614746094e+00,-1.975535736083984375e+02,-8.758891296386718750e+01,-1.690273132324218750e+02,4.030399620532989502e-01,-6.667101287841796875e+01,-1.826867065429687500e+02,-2.342245101928710938e+00,7.562117004394531250e+01,3.135653114318847656e+01
8.990600109100341797e-01,1.000000000000000000e+00,-3.813384771347045898e+00,-9.658452868461608887e-02,5.418465137481689453e+00,-1.974946899414062500e+02,-8.751538848876953125e+01,-1.689617919921875000e+02,4.030399620532989502e-01,-6.667101287841796875e+01,-1.826867065429687500e+02,-2.342245101928710938e+00,7.562117004394531250e+01,3.135653114318847656e+01
9.030579924583435059e-01,1.000000000000000000e+00,-3.878061056137084961e+00,-4.231798648834228516e-02,5.427695751190185547e+00,-1.974355926513671875e+02,-8.744127655029296875e+01,-1.688960723876953125e+02,4.030399620532989502e-01,-6.667101287841796875e+01,-1.826867065429687500e+02,-2.342245101928710938e+00,7.562117004394531250e+01,3.135653114318847656e+01
9.078220129013061523e-01,1.000000000000000000e+00,-3.942708730697631836e+00,1.183541212230920792e-02,5.437211036682128906e+00,-1.973766021728515625e+02,-8.736759185791015625e+01,-1.688309173583984375e+02,4.030399620532989502e-01,-6.667101287841796875e+01,-1.826867065429687500e+02,-2.342245101928710938e+00,7.562117004394531250e+01,3.135653114318847656e+01
9.142869710922241211e-01,1.000000000000000000e+00,-4.007356643676757812e+00,6.616985052824020386e-02,5.446949958801269531e+00,-1.973176116943359375e+02,-8.729380798339843750e+01,-1.687648468017578125e+02,4.030399620532989502e-01,-6.667101287841796875e+01,-1.826867065429687500e+02,-2.342245101928710938e+00,7.562117004394531250e+01,3.135653114318847656e+01
9.157220125198364258e-01,1.000000000000000000e+00,-4.136450767517089844e+00,1.745897978544235229e-01,5.466285228729248047e+00,-1.971991271972656250e+02,-8.714697265625000000e+01,-1.686333618164062500e+02,4.030399620532989502e-01,-6.667111206054687500e+01,-1.826867065429687500e+02,-2.342245101928710938e+00,7.562124633789062500e+01,3.135653114318847656e+01
9.201130270957946777e-01,1.000000000000000000e+00,-4.136450767517089844e+00,1.745897978544235229e-01,5.466285228729248047e+00,-1.971991271972656250e+02,-8.714697265625000000e+01,-1.686333618164062500e+02,4.030399620532989502e-01,-6.667111206054687500e+01,-1.826867065429687500e+02,-2.342245101928710938e+00,7.562124633789062500e+01,3.135653114318847656e+01
9.230110049247741699e-01,1.000000000000000000e+00,-4.265660762786865234e+00,2.827155590057373047e-01,5.484950065612792969e+00,-1.970813140869140625e+02,-8.699923706054687500e+01,-1.685018615722656250e+02,4.030399620532989502e-01,-6.667101287841796875e+01,-1.826867065429687500e+02,-2.342316627502441406e+00,7.562117004394531250e+01,3.135653114318847656e+01
9.280999898910522461e-01,1.000000000000000000e+00,-4.265660762786865234e+00,2.827155590057373047e-01,5.484950065612792969e+00,-1.970813140869140625e+02,-8.699923706054687500e+01,-1.685018615722656250e+02,4.030399620532989502e-01,-6.667101287841796875e+01,-1.826867065429687500e+02,-2.342316627502441406e+00,7.562117004394531250e+01,3.135653114318847656e+01
9.330170154571533203e-01,1.000000000000000000e+00,-4.330222129821777344e+00,3.368915915489196777e-01,5.494404315948486328e+00,-1.970223693847656250e+02,-8.692602539062500000e+01,-1.684364166259765625e+02,4.030399620532989502e-01,-6.667101287841796875e+01,-1.826867065429687500e+02,-2.342316627502441406e+00,7.562117004394531250e+01,3.135653114318847656e+01
9.356930255889892578e-01,1.000000000000000000e+00,-4.459862232208251953e+00,4.455604553222656250e-01,5.513414382934570312e+00,-1.969040527343750000e+02,-8.677855682373046875e+01,-1.683042297363281250e+02,4.030399620532989502e-01,-6.667101287841796875e+01,-1.826867065429687500e+02,-2.342245101928710938e+00,7.562124633789062500e+01,3.135653114318847656e+01
9.401270151138305664e-01,1.000000000000000000e+00,-4.459862232208251953e+00,4.455604553222656250e-01,5.513414382934570312e+00,-1.969040527343750000e+02,-8.677855682373046875e+01,-1.683042297363281250e+02,4.030399620532989502e-01,-6.667101287841796875e+01,-1.826867065429687500e+02,-2.342245101928710938e+00,7.562124633789062500e+01,3.135653114318847656e+01
9.440339803695678711e-01,1.000000000000000000e+00,-4.524567127227783203e+00,4.999175071716308594e-01,5.522828102111816406e+00,-1.968447570800781250e+02,-8.670428466796875000e+01,-1.682389373779296875e+02,4.030399620532989502e-01,-6.667101287841796875e+01,-1.826867065429687500e+02,-2.342245101928710938e+00,7.562117004394531250e+01,3.135653114318847656e+01
9.471259713172912598e-01,1.000000000000000000e+00,-4.589243888854980469e+00,5.542519688606262207e-01,5.531916618347167969e+00,-1.967852783203125000e+02,-8.663044738769531250e+01,-1.681723327636718750e+02,4.030399620532989502e-01,-6.667101287841796875e+01,-1.826867065429687500e+02,-2.342245101928710938e+00,7.562117004394531250e+01,3.135653114318847656e+01
9.510560035705566406e-01,1.000000000000000000e+00,-4.653776645660400391e+00,6.084733009338378906e-01,5.541187763214111328e+00,-1.967263336181640625e+02,-8.655681610107421875e+01,-1.681073608398437500e+02,4.030399620532989502e-01,-6.667101287841796875e+01,-1.826867065429687500e+02,-2.342245101928710938e+00,7.562117004394531250e+01,3.135675048828125000e+01
9.561960101127624512e-01,1.000000000000000000e+00,-4.718280792236328125e+00,6.626719236373901367e-01,5.550764083862304688e+00,-1.966667022705078125e+02,-8.648259735107421875e+01,-1.680413208007812500e+02,4.030399620532989502e-01,-6.667101287841796875e+01,-1.826867065429687500e+02,-2.342245101928710938e+00,7.562117004394531250e+01,3.135653114318847656e+01
9.600179791450500488e-01,1.000000000000000000e+00,-4.782670021057128906e+00,7.170742750167846680e-01,5.560340404510498047e+00,-1.966082458496093750e+02,-8.640923309326171875e+01,-1.679754028320312500e+02,4.030399620532989502e-01,-6.667101287841796875e+01,-1.826867065429687500e+02,-2.342316627502441406e+00,7.562117004394531250e+01,3.135642242431640625e+01
9.640870094299316406e-01,1.000000000000000000e+00,-4.847346305847167969e+00,7.713860273361206055e-01,5.570018291473388672e+00,-1.965489807128906250e+02,-8.633539581298828125e+01,-1.679104309082031250e+02,4.030399620532989502e-01,-6.667101287841796875e+01,-1.826867065429687500e+02,-2.342173099517822266e+00,7.562117004394531250e+01,3.135653114318847656e+01
9.670969843864440918e-01,1.000000000000000000e+00,-4.911879539489746094e+00,8.255394697189331055e-01,5.579696655273437500e+00,-1.964900360107421875e+02,-8.626171112060546875e+01,-1.678441619873046875e+02,4.030399620532989502e-01,-6.667101287841796875e+01,-1.826867065429687500e+02,-2.342245101928710938e+00,7.562117004394531250e+01,3.135653114318847656e+01
9.711319804191589355e-01,1.000000000000000000e+00,-4.976556301116943359e+00,8.798286318778991699e-01,5.588987827301025391e+00,-1.964307403564453125e+02,-8.618711853027343750e+01,-1.677784576416015625e+02,4.030399620532989502e-01,-6.667101287841796875e+01,-1.826867065429687500e+02,-2.342245101928710938e+00,7.562117004394531250e+01,3.135653114318847656e+01
9.750620126724243164e-01,1.000000000000000000e+00,-5.040830612182617188e+00,9.338688254356384277e-01,5.598320007324218750e+00,-1.963713684082031250e+02,-8.611386871337890625e+01,-1.677135620117187500e+02,4.030399620532989502e-01,-6.667101287841796875e+01,-1.826867065429687500e+02,-2.342245101928710938e+00,7.562117004394531250e+01,3.135653114318847656e+01
9.795410037040710449e-01,1.000000000000000000e+00,-5.105334758758544922e+00,9.880675673484802246e-01,5.607794761657714844e+00,-1.963125305175781250e+02,-8.604039001464843750e+01,-1.676469726562500000e+02,4.030399620532989502e-01,-6.667101287841796875e+01,-1.826867065429687500e+02,-2.342245101928710938e+00,7.562124633789062500e+01,3.135653114318847656e+01
9.850569963455200195e-01,1.000000000000000000e+00,-5.170068740844726562e+00,1.042175650596618652e+00,5.617432117462158203e+00,-1.962534332275390625e+02,-8.596660614013671875e+01,-1.675810394287109375e+02,4.030399620532989502e-01,-6.667101287841796875e+01,-1.826867065429687500e+02,-2.342245101928710938e+00,7.562117004394531250e+01,3.135653114318847656e+01
9.876319766044616699e-01,1.000000000000000000e+00,-5.299335479736328125e+00,1.150799274444580078e+00,5.636239051818847656e+00,-1.961352386474609375e+02,-8.581828308105468750e+01,-1.674496917724609375e+02,4.030399620532989502e-01,-6.667101287841796875e+01,-1.826867065429687500e+02,-2.342245101928710938e+00,7.562124633789062500e+01,3.135675048828125000e+01
9.921389818191528320e-01,1.000000000000000000e+00,-5.299335479736328125e+00,1.150799274444580078e+00,5.636239051818847656e+00,-1.961352386474609375e+02,-8.581828308105468750e+01,-1.674496917724609375e+02,4.030399620532989502e-01,-6.667101287841796875e+01,-1.826867065429687500e+02,-2.342245101928710938e+00,7.562124633789062500e+01,3.135675048828125000e+01
9.951419830322265625e-01,1.000000000000000000e+00,-5.364212989807128906e+00,1.204975247383117676e+00,5.645510196685791016e+00,-1.960760803222656250e+02,-8.574497222900390625e+01,-1.673843688964843750e+02,4.030399620532989502e-01,-6.667111206054687500e+01,-1.826867065429687500e+02,-2.342173099517822266e+00,7.562117004394531250e+01,3.135675048828125000e+01
9.990919828414916992e-01,1.000000000000000000e+00,-5.428802967071533203e+00,1.259332418441772461e+00,5.654821872711181641e+00,-1.960172882080078125e+02,-8.567118072509765625e+01,-1.673180541992187500e+02,4.030399620532989502e-01,-6.667101287841796875e+01,-1.826867065429687500e+02,-2.342245101928710938e+00,7.562124633789062500e+01,3.135653114318847656e+01
1.003782033920288086e+00,1.000000000000000000e+00,-5.493565559387207031e+00,1.313689470291137695e+00,5.664459705352783203e+00,-1.959578247070312500e+02,-8.559674835205078125e+01,-1.672522583007812500e+02,4.030399620532989502e-01,-6.667101287841796875e+01,-1.826867065429687500e+02,-2.342316627502441406e+00,7.562117004394531250e+01,3.135653114318847656e+01
1.009106040000915527e+00,1.000000000000000000e+00,-5.558328151702880859e+00,1.367955923080444336e+00,5.674097061157226562e+00,-1.958986663818359375e+02,-8.552259063720703125e+01,-1.671870269775390625e+02,4.030399620532989502e-01,-6.667111206054687500e+01,-1.826867065429687500e+02,-2.342245101928710938e+00,7.562117004394531250e+01,3.135675048828125000e+01
1.011873960494995117e+00,1.000000000000000000e+00,-5.687509059906005859e+00,1.476217508316040039e+00,5.693147659301757812e+00,-1.957803649902343750e+02,-8.537591552734375000e+01,-1.670548553466796875e+02,4.030399620532989502e-01,-6.667101287841796875e+01,-1.826867065429687500e+02,-2.342245101928710938e+00,7.562117004394531250e+01,3.135675048828125000e+01
1.016055941581726074e+00,1.000000000000000000e+00,-5.687509059906005859e+00,1.476217508316040039e+00,5.693147659301757812e+00,-1.957803649902343750e+02,-8.537591552734375000e+01,-1.670548553466796875e+02,4.030399620532989502e-01,-6.667101287841796875e+01,-1.826867065429687500e+02,-2.342245101928710938e+00,7.562117004394531250e+01,3.135675048828125000e+01
1.019140005111694336e+00,1.000000000000000000e+00,-5.752070903778076172e+00,1.530529260635375977e+00,5.702398777008056641e+00,-1.957212524414062500e+02,-8.530153656005859375e+01,-1.669895477294921875e+02,4.030399620532989502e-01,-6.667101287841796875e+01,-1.826867065429687500e+02,-2.342245101928710938e+00,7.562124633789062500e+01,3.135675048828125000e+01
1.023208022117614746e+00,1.000000000000000000e+00,-5.816833496093750000e+00,1.584795951843261719e+00,5.711771965026855469e+00,-1.956620178222656250e+02,-8.522780609130859375e+01,-1.669239654541015625e+02,4.030399620532989502e-01,-6.667101287841796875e+01,-1.826867065429687500e+02,-2.342316627502441406e+00,7.562124633789062500e+01,3.135675048828125000e+01
1.028728961944580078e+00,1.000000000000000000e+00,-5.881624698638916016e+00,1.638926625251770020e+00,5.721205711364746094e+00,-1.956032714843750000e+02,-8.515449523925781250e+01,-1.668583831787109375e+02,4.030399620532989502e-01,-6.667101287841796875e+01,-1.826868133544921875e+02,-2.342173099517822266e+00,7.562117004394531250e+01,3.135653114318847656e+01
1.033113956451416016e+00,1.000000000000000000e+00,-5.946215152740478516e+00,1.693102717399597168e+00,5.730639934539794922e+00,-1.955438690185546875e+02,-8.508097076416015625e+01,-1.667932739257812500e+02,4.030399620532989502e-01,-6.667101287841796875e+01,-1.826867065429687500e+02,-2.342316627502441406e+00,7.562117004394531250e+01,3.135653114318847656e+01
1.035554051399230957e+00,1.000000000000000000e+00,-6.075596332550048828e+00,1.801092743873596191e+00,5.749446868896484375e+00,-1.954256134033203125e+02,-8.493243408203125000e+01,-1.666609802246093750e+02,4.030399620532989502e-01,-6.667101287841796875e+01,-1.826867065429687500e+02,-2.342245101928710938e+00,7.562117004394531250e+01,3.135642242431640625e+01
1.040052056312561035e+00,1.000000000000000000e+00,-6.075596332550048828e+00,1.801092743873596191e+00,5.749446868896484375e+00,-1.954256134033203125e+02,-8.493243408203125000e+01,-1.666609802246093750e+02,4.030399620532989502e-01,-6.667101287841796875e+01,-1.826867065429687500e+02,-2.342245101928710938e+00,7.562117004394531250e+01,3.135642242431640625e+01
1.043324947357177734e+00,1.000000000000000000e+00,-6.140244007110595703e+00,1.855494976043701172e+00,5.758819580078125000e+00,-1.953661804199218750e+02,-8.485869598388671875e+01,-1.665960693359375000e+02,4.030399620532989502e-01,-6.667101287841796875e+01,-1.826867065429687500e+02,-2.342316627502441406e+00,7.562117004394531250e+01,3.135653114318847656e+01
1.047333955764770508e+00,1.000000000000000000e+00,-6.205064296722412109e+00,1.909784078598022461e+00,5.768212795257568359e+00,-1.953077697753906250e+02,-8.478533172607421875e+01,-1.665298156738281250e+02,4.030399620532989502e-01,-6.667101287841796875e+01,-1.826867065429687500e+02,-2.342245101928710938e+00,7.562117004394531250e+01,3.135653114318847656e+01
1.052963018417358398e+00,1.000000000000000000e+00,-6.270028114318847656e+00,1.964163899421691895e+00,5.777809619903564453e+00,-1.952481384277343750e+02,-8.471096038818359375e+01,-1.664638977050781250e+02,4.030399620532989502e-01,-6.667101287841796875e+01,-1.826867065429687500e+02,-2.342316627502441406e+00,7.562102508544921875e+01,3.135653114318847656e+01
1.057019948959350586e+00,1.000000000000000000e+00,-6.335048675537109375e+00,2.018362522125244141e+00,5.787405967712402344e+00,-1.951893157958984375e+02,-8.463748168945312500e+01,-1.663991394042968750e+02,4.030399620532989502e-01,-6.667101287841796875e+01,-1.826867065429687500e+02,-2.342245101928710938e+00,7.562117004394531250e+01,3.135675048828125000e+01
1.060052037239074707e+00,1.000000000000000000e+00,-6.400012493133544922e+00,2.072561264038085938e+00,5.796901226043701172e+00,-1.951301574707031250e+02,-8.456391143798828125e+01,-1.663326721191406250e+02,4.030399620532989502e-01,-6.667101287841796875e+01,-1.826867065429687500e+02,-2.342245101928710938e+00,7.562117004394531250e+01,3.135642242431640625e+01
1.063655018806457520e+00,1.000000000000000000e+00,-6.464660167694091797e+00,2.126691818237304688e+00,5.806314468383789062e+00,-1.950707855224609375e+02,-8.449054718017578125e+01,-1.662669525146484375e+02,4.030399620532989502e-01,-6.667101287841796875e+01,-1.826867065429687500e+02,-2.342245101928710938e+00,7.562117004394531250e+01,3.135642242431640625e+01
1.068058967590332031e+00,1.000000000000000000e+00,-6.529422760009765625e+00,2.180867910385131836e+00,5.815647125244140625e+00,-1.950120086669921875e+02,-8.441590881347656250e+01,-1.662009124755859375e+02,4.030399620532989502e-01,-6.667101287841796875e+01,-1.826867065429687500e+02,-2.342245101928710938e+00,7.562124633789062500e+01,3.135653114318847656e+01
1.071490049362182617e+00,1.000000000000000000e+00,-6.594213962554931641e+00,2.235338211059570312e+00,5.825162410736083984e+00,-1.949521179199218750e+02,-8.434249114990234375e+01,-1.661344299316406250e+02,4.030399620532989502e-01,-6.667101287841796875e+01,-1.826867065429687500e+02,-2.342316627502441406e+00,7.562117004394531250e+01,3.135653114318847656e+01
1.077082037925720215e+00,1.000000000000000000e+00,-6.658890247344970703e+00,2.289582014083862305e+00,5.834779262542724609e+00,-1.948934326171875000e+02,-8.426869964599609375e+01,-1.660698089599609375e+02,4.030399620532989502e-01,-6.667101287841796875e+01,-1.826867065429687500e+02,-2.342245101928710938e+00,7.562117004394531250e+01,3.135653114318847656e+01
1.080088019371032715e+00,1.000000000000000000e+00,-6.723423004150390625e+00,2.343667507171630859e+00,5.844213008880615234e+00,-1.948342895507812500e+02,-8.419533538818359375e+01,-1.660042419433593750e+02,4.030399620532989502e-01,-6.667092895507812500e+01,-1.826867065429687500e+02,-2.342316627502441406e+00,7.562124633789062500e+01,3.135642242431640625e+01
1.083678007125854492e+00,1.000000000000000000e+00,-6.787984848022460938e+00,2.397662639617919922e+00,5.853484153747558594e+00,-1.947751464843750000e+02,-8.412095642089843750e+01,-1.659378356933593750e+02,4.030399620532989502e-01,-6.667101287841796875e+01,-1.826867065429687500e+02,-2.342245101928710938e+00,7.562124633789062500e+01,3.135642242431640625e+01
1.088091015815734863e+00,1.000000000000000000e+00,-6.852833271026611328e+00,2.451815843582153320e+00,5.862593173980712891e+00,-1.947159271240234375e+02,-8.404753875732421875e+01,-1.658724060058593750e+02,4.030399620532989502e-01,-6.667101287841796875e+01,-1.826867065429687500e+02,-2.342245101928710938e+00,7.562117004394531250e+01,3.135642242431640625e+01
1.091686010360717773e+00,1.000000000000000000e+00,-6.917538642883300781e+00,2.506060123443603516e+00,5.871844291687011719e+00,-1.946564636230468750e+02,-8.397343444824218750e+01,-1.658061370849609375e+02,4.030399620532989502e-01,-6.667101287841796875e+01,-1.826867065429687500e+02,-2.342245101928710938e+00,7.562124633789062500e+01,3.135653114318847656e+01
1.096050024032592773e+00,1.000000000000000000e+00,-6.981956958770751953e+00,2.560100317001342773e+00,5.881400108337402344e+00,-1.945978851318359375e+02,-8.389985656738281250e+01,-1.657405700683593750e+02,4.030399620532989502e-01,-6.667101287841796875e+01,-1.826867065429687500e+02,-2.342245101928710938e+00,7.562117004394531250e+01,3.135653114318847656e+01
1.101235032081604004e+00,1.000000000000000000e+00,-7.046719551086425781e+00,2.614457368850708008e+00,5.891016960144042969e+00,-1.945387878417968750e+02,-8.382558441162109375e+01,-1.656757965087890625e+02,4.030399620532989502e-01,-6.667101287841796875e+01,-1.826867065429687500e+02,-2.342316627502441406e+00,7.562117004394531250e+01,3.135675048828125000e+01
1.103999972343444824e+00,1.000000000000000000e+00,-7.111510753631591797e+00,2.668587923049926758e+00,5.900552272796630859e+00,-1.944797973632812500e+02,-8.375233459472656250e+01,-1.656096038818359375e+02,4.030399620532989502e-01,-6.667101287841796875e+01,-1.826867065429687500e+02,-2.342245101928710938e+00,7.562117004394531250e+01,3.135653114318847656e+01
1.108103990554809570e+00,1.000000000000000000e+00,-7.176072597503662109e+00,2.722877025604248047e+00,5.910088062286376953e+00,-1.944203186035156250e+02,-8.367897033691406250e+01,-1.655440368652343750e+02,4.030399620532989502e-01,-6.667101287841796875e+01,-1.826867065429687500e+02,-2.342245101928710938e+00,7.562117004394531250e+01,3.135697174072265625e+01
