rpiRobotics/ARM-21-02-F-19-Robot-Motion-Program/data_performance_abb/curve_2/curve_pose_opt2/greedy0.02/realrobot/run_0.csv
timestamp,cmd_num,J1,J2,J3,J4,J5,J6
1.429999974789097905e-04,-1.000000000000000000e+00,8.512518882751464844e+00,-1.042603492736816406e+01,3.620402097702026367e+00,-2.087636108398437500e+02,-1.015727844238281250e+02,-1.814822845458984375e+02,4.030399620532989502e-01,-6.667101287841796875e+01,-1.826867065429687500e+02,-2.342173099517822266e+00,7.562117004394531250e+01,3.135675048828125000e+01
5.379000212997198105e-03,1.000000000000000000e+00,8.512460708618164062e+00,-1.042603492736816406e+01,3.620402097702026367e+00,-2.087636108398437500e+02,-1.015729370117187500e+02,-1.814821472167968750e+02,4.030399620532989502e-01,-6.667101287841796875e+01,-1.826867065429687500e+02,-2.342173099517822266e+00,7.562117004394531250e+01,3.135653114318847656e+01
9.202999994158744812e-03,1.000000000000000000e+00,8.512460708618164062e+00,-1.042603492736816406e+01,3.620402097702026367e+00,-2.087636108398437500e+02,-1.015729370117187500e+02,-1.814821472167968750e+02,4.030399620532989502e-01,-6.667101287841796875e+01,-1.826867065429687500e+02,-2.342173099517822266e+00,7.562117004394531250e+01,3.135653114318847656e+01
1.504100020974874496e-02,1.000000000000000000e+00,8.512403488159179688e+00,-1.042598819732666016e+01,3.620402097702026367e+00,-2.087636108398437500e+02,-1.015729370117187500e+02,-1.814821472167968750e+02,4.030399620532989502e-01,-6.667101287841796875e+01,-1.826867065429687500e+02,-2.342173099517822266e+00,7.562117004394531250e+01,3.135653114318847656e+01
3.868300095200538635e-02,1.000000000000000000e+00,8.512460708618164062e+00,-1.042603492736816406e+01,3.620442867279052734e+00,-2.087635192871093750e+02,-1.015729370117187500e+02,-1.814824676513671875e+02,4.030399620532989502e-01,-6.667101287841796875e+01,-1.826867065429687500e+02,-2.342029571533203125e+00,7.562117004394531250e+01,3.135675048828125000e+01
4.018700122833251953e-02,1.000000000000000000e+00,8.512460708618164062e+00,-1.042603492736816406e+01,3.620402097702026367e+00,-2.087636108398437500e+02,-1.015729980468750000e+02,-1.814822845458984375e+02,4.030399620532989502e-01,-6.667101287841796875e+01,-1.826867065429687500e+02,-2.342245101928710938e+00,7.562117004394531250e+01,3.135675048828125000e+01
4.145599901676177979e-02,1.000000000000000000e+00,8.512460708618164062e+00,-1.042603492736816406e+01,3.620402097702026367e+00,-2.087636108398437500e+02,-1.015729980468750000e+02,-1.814822845458984375e+02,4.030399620532989502e-01,-6.667101287841796875e+01,-1.826867065429687500e+02,-2.342245101928710938e+00,7.562117004394531250e+01,3.135675048828125000e+01
5.188899859786033630e-02,1.000000000000000000e+00,8.512403488159179688e+00,-1.042603492736816406e+01,3.620402097702026367e+00,-2.087636108398437500e+02,-1.015729980468750000e+02,-1.814822845458984375e+02,4.030399620532989502e-01,-6.667111206054687500e+01,-1.826867065429687500e+02,-2.342173099517822266e+00,7.562117004394531250e+01,3.135653114318847656e+01
5.322999879717826843e-02,1.000000000000000000e+00,8.512403488159179688e+00,-1.042603492736816406e+01,3.620402097702026367e+00,-2.087636108398437500e+02,-1.015729980468750000e+02,-1.814822845458984375e+02,4.030399620532989502e-01,-6.667111206054687500e+01,-1.826867065429687500e+02,-2.342173099517822266e+00,7.562117004394531250e+01,3.135653114318847656e+01
5.645300075411796570e-02,1.000000000000000000e+00,8.512403488159179688e+00,-1.042598819732666016e+01,3.620402097702026367e+00,-2.087635192871093750e+02,-1.015731506347656250e+02,-1.814822845458984375e+02,4.030399620532989502e-01,-6.667101287841796875e+01,-1.826867065429687500e+02,-2.342245101928710938e+00,7.562117004394531250e+01,3.135675048828125000e+01
5.773200094699859619e-02,1.000000000000000000e+00,8.512403488159179688e+00,-1.042598819732666016e+01,3.620402097702026367e+00,-2.087635192871093750e+02,-1.015731506347656250e+02,-1.814822845458984375e+02,4.030399620532989502e-01,-6.667101287841796875e+01,-1.826867065429687500e+02,-2.342245101928710938e+00,7.562117004394531250e+01,3.135675048828125000e+01
6.385099887847900391e-02,1.000000000000000000e+00,8.511198043823242188e+00,-1.042499256134033203e+01,3.620402097702026367e+00,-2.087635192871093750e+02,-1.015729370117187500e+02,-1.814822845458984375e+02,4.030399620532989502e-01,-6.667101287841796875e+01,-1.826867065429687500e+02,-2.342173099517822266e+00,7.562117004394531250e+01,3.135675048828125000e+01
6.517399847507476807e-02,1.000000000000000000e+00,8.511198043823242188e+00,-1.042499256134033203e+01,3.620402097702026367e+00,-2.087635192871093750e+02,-1.015729370117187500e+02,-1.814822845458984375e+02,4.030399620532989502e-01,-6.667101287841796875e+01,-1.826867065429687500e+02,-2.342173099517822266e+00,7.562117004394531250e+01,3.135675048828125000e+01
6.770499795675277710e-02,1.000000000000000000e+00,8.509360313415527344e+00,-1.042368030548095703e+01,3.620442867279052734e+00,-2.087636108398437500e+02,-1.015728302001953125e+02,-1.814822845458984375e+02,4.030399620532989502e-01,-6.667101287841796875e+01,-1.826867065429687500e+02,-2.342029571533203125e+00,7.562102508544921875e+01,3.135697174072265625e+01
6.906399875879287720e-02,1.000000000000000000e+00,8.509360313415527344e+00,-1.042368030548095703e+01,3.620442867279052734e+00,-2.087636108398437500e+02,-1.015728302001953125e+02,-1.814822845458984375e+02,4.030399620532989502e-01,-6.667101287841796875e+01,-1.826867065429687500e+02,-2.342029571533203125e+00,7.562102508544921875e+01,3.135697174072265625e+01
7.294700294733047485e-02,1.000000000000000000e+00,8.506546974182128906e+00,-1.042171192169189453e+01,3.620442867279052734e+00,-2.087635192871093750e+02,-1.015728302001953125e+02,-1.814822845458984375e+02,4.030399620532989502e-01,-6.667101287841796875e+01,-1.826867065429687500e+02,-2.342245101928710938e+00,7.562102508544921875e+01,3.135697174072265625e+01
7.609900087118148804e-02,1.000000000000000000e+00,8.506546974182128906e+00,-1.041874790191650391e+01,3.620544672012329102e+00,-2.087634124755859375e+02,-1.015723495483398438e+02,-1.814822845458984375e+02,4.030399620532989502e-01,-6.667101287841796875e+01,-1.826867065429687500e+02,-2.342245101928710938e+00,7.562117004394531250e+01,3.135697174072265625e+01
7.746099680662155151e-02,1.000000000000000000e+00,8.502672195434570312e+00,-1.041874790191650391e+01,3.620544672012329102e+00,-2.087634124755859375e+02,-1.015723495483398438e+02,-1.814822845458984375e+02,4.030399620532989502e-01,-6.667101287841796875e+01,-1.826867065429687500e+02,-2.342245101928710938e+00,7.562117004394531250e+01,3.135697174072265625e+01
8.008299767971038818e-02,1.000000000000000000e+00,8.497648239135742188e+00,-1.041456031799316406e+01,3.620747804641723633e+00,-2.087631835937500000e+02,-1.015713958740234375e+02,-1.814818725585937500e+02,4.030399620532989502e-01,-6.667101287841796875e+01,-1.826867065429687500e+02,-2.342245101928710938e+00,7.562117004394531250e+01,3.135675048828125000e+01
8.134199678897857666e-02,1.000000000000000000e+00,8.497648239135742188e+00,-1.041456031799316406e+01,3.620747804641723633e+00,-2.087631835937500000e+02,-1.015713958740234375e+02,-1.814818725585937500e+02,4.030399620532989502e-01,-6.667101287841796875e+01,-1.826867065429687500e+02,-2.342245101928710938e+00,7.562117004394531250e+01,3.135675048828125000e+01
8.456700295209884644e-02,1.000000000000000000e+00,8.491620063781738281e+00,-1.040908432006835938e+01,3.620971441268920898e+00,-2.087622985839843750e+02,-1.015693664550781250e+02,-1.814810485839843750e+02,4.030399620532989502e-01,-6.667111206054687500e+01,-1.826867065429687500e+02,-2.342173099517822266e+00,7.562124633789062500e+01,3.135675048828125000e+01
8.798000216484069824e-02,1.000000000000000000e+00,8.484012603759765625e+00,-1.040197849273681641e+01,3.621500015258789062e+00,-2.087600860595703125e+02,-1.015661163330078125e+02,-1.814790802001953125e+02,4.030399620532989502e-01,-6.667101287841796875e+01,-1.826867065429687500e+02,-2.342173099517822266e+00,7.562117004394531250e+01,3.135675048828125000e+01
8.928299695253372192e-02,1.000000000000000000e+00,8.484012603759765625e+00,-1.040197849273681641e+01,3.621500015258789062e+00,-2.087600860595703125e+02,-1.015661163330078125e+02,-1.814790802001953125e+02,4.030399620532989502e-01,-6.667101287841796875e+01,-1.826867065429687500e+02,-2.342173099517822266e+00,7.562117004394531250e+01,3.135675048828125000e+01
9.188699722290039062e-02,1.000000000000000000e+00,8.474797248840332031e+00,-1.039263248443603516e+01,3.622170925140380859e+00,-2.087565612792968750e+02,-1.015614776611328125e+02,-1.814757690429687500e+02,4.030399620532989502e-01,-6.667101287841796875e+01,-1.826867065429687500e+02,-2.342173099517822266e+00,7.562117004394531250e+01,3.135653114318847656e+01
9.582199901342391968e-02,1.000000000000000000e+00,8.463343620300292969e+00,-1.038093280792236328e+01,3.623024702072143555e+00,-2.087514953613281250e+02,-1.015547561645507812e+02,-1.814702758789062500e+02,4.030399620532989502e-01,-6.667101287841796875e+01,-1.826867065429687500e+02,-2.342245101928710938e+00,7.562124633789062500e+01,3.135675048828125000e+01
9.713300317525863647e-02,1.000000000000000000e+00,8.463343620300292969e+00,-1.038093280792236328e+01,3.623024702072143555e+00,-2.087514953613281250e+02,-1.015547561645507812e+02,-1.814702758789062500e+02,4.030399620532989502e-01,-6.667101287841796875e+01,-1.826867065429687500e+02,-2.342245101928710938e+00,7.562124633789062500e+01,3.135675048828125000e+01
1.009479984641075134e-01,1.000000000000000000e+00,8.463343620300292969e+00,-1.038093280792236328e+01,3.623024702072143555e+00,-2.087514953613281250e+02,-1.015547561645507812e+02,-1.814702758789062500e+02,4.030399620532989502e-01,-6.667101287841796875e+01,-1.826867065429687500e+02,-2.342245101928710938e+00,7.562124633789062500e+01,3.135675048828125000e+01
1.039889976382255554e-01,1.000000000000000000e+00,8.449449539184570312e+00,-1.036633586883544922e+01,3.624163627624511719e+00,-2.087448120117187500e+02,-1.015458602905273438e+02,-1.814624786376953125e+02,4.030399620532989502e-01,-6.667101287841796875e+01,-1.826867065429687500e+02,-2.342245101928710938e+00,7.562124633789062500e+01,3.135675048828125000e+01
1.076409965753555298e-01,1.000000000000000000e+00,8.432599067687988281e+00,-1.034913730621337891e+01,3.625851154327392578e+00,-2.087358551025390625e+02,-1.015335388183593750e+02,-1.814521636962890625e+02,4.030399620532989502e-01,-6.667101287841796875e+01,-1.826867065429687500e+02,-2.342245101928710938e+00,7.562117004394531250e+01,3.135642242431640625e+01
1.119839996099472046e-01,1.000000000000000000e+00,8.412991523742675781e+00,-1.032976627349853516e+01,3.628168821334838867e+00,-2.087239074707031250e+02,-1.015186157226562500e+02,-1.814390716552734375e+02,4.030399620532989502e-01,-6.667101287841796875e+01,-1.826867065429687500e+02,-2.342173099517822266e+00,7.562117004394531250e+01,3.135653114318847656e+01
1.163330003619194031e-01,1.000000000000000000e+00,8.390657424926757812e+00,-1.030883407592773438e+01,3.630771398544311523e+00,-2.087091522216796875e+02,-1.015003204345703125e+02,-1.814224548339843750e+02,4.030399620532989502e-01,-6.667101287841796875e+01,-1.826867065429687500e+02,-2.342245101928710938e+00,7.562117004394531250e+01,3.135675048828125000e+01
1.196449995040893555e-01,1.000000000000000000e+00,8.366486549377441406e+00,-1.028667926788330078e+01,3.633760213851928711e+00,-2.086906127929687500e+02,-1.014783020019531250e+02,-1.814023132324218750e+02,4.030399620532989502e-01,-6.667101287841796875e+01,-1.826867065429687500e+02,-2.342173099517822266e+00,7.562117004394531250e+01,3.135675048828125000e+01
1.239849999547004700e-01,1.000000000000000000e+00,8.339502334594726562e+00,-1.026341533660888672e+01,3.637053966522216797e+00,-2.086683349609375000e+02,-1.014521713256835938e+02,-1.813786468505859375e+02,4.030399620532989502e-01,-6.667092895507812500e+01,-1.826867065429687500e+02,-2.342173099517822266e+00,7.562124633789062500e+01,3.135675048828125000e+01
1.285119950771331787e-01,1.000000000000000000e+00,8.309877395629882812e+00,-1.023856830596923828e+01,3.640876293182373047e+00,-2.086426849365234375e+02,-1.014216308593750000e+02,-1.813514556884765625e+02,4.030399620532989502e-01,-6.667101287841796875e+01,-1.826867065429687500e+02,-2.342173099517822266e+00,7.562117004394531250e+01,3.135697174072265625e+01
1.319669932126998901e-01,1.000000000000000000e+00,8.277610778808593750e+00,-1.021197795867919922e+01,3.645186662673950195e+00,-2.086143341064453125e+02,-1.013855361938476562e+02,-1.813198547363281250e+02,4.030399620532989502e-01,-6.667101287841796875e+01,-1.826867065429687500e+02,-2.342173099517822266e+00,7.562117004394531250e+01,3.135697174072265625e+01
1.359689980745315552e-01,1.000000000000000000e+00,8.242673873901367188e+00,-1.018341827392578125e+01,3.650330543518066406e+00,-2.085827941894531250e+02,-1.013437347412109375e+02,-1.812841796875000000e+02,4.030399620532989502e-01,-6.667101287841796875e+01,-1.826867065429687500e+02,-2.342245101928710938e+00,7.562117004394531250e+01,3.135675048828125000e+01
1.399309933185577393e-01,1.000000000000000000e+00,8.204895973205566406e+00,-1.015332126617431641e+01,3.655941963195800781e+00,-2.085462341308593750e+02,-1.012987365722656250e+02,-1.812435607910156250e+02,4.030399620532989502e-01,-6.667101287841796875e+01,-1.826867065429687500e+02,-2.342245101928710938e+00,7.562117004394531250e+01,3.135653114318847656e+01
1.439539939165115356e-01,1.000000000000000000e+00,8.164361953735351562e+00,-1.012179756164550781e+01,3.661756992340087891e+00,-2.085043029785156250e+02,-1.012512283325195312e+02,-1.811979827880859375e+02,4.030399620532989502e-01,-6.667101287841796875e+01,-1.826867065429687500e+02,-2.342173099517822266e+00,7.562102508544921875e+01,3.135653114318847656e+01
1.479890048503875732e-01,1.000000000000000000e+00,8.121474266052246094e+00,-1.008848667144775391e+01,3.667876958847045898e+00,-2.084605865478515625e+02,-1.011976470947265625e+02,-1.811488189697265625e+02,4.030399620532989502e-01,-6.667101287841796875e+01,-1.826867065429687500e+02,-2.342245101928710938e+00,7.562117004394531250e+01,3.135653114318847656e+01
1.526850014925003052e-01,1.000000000000000000e+00,8.076663017272949219e+00,-1.005334186553955078e+01,3.674545764923095703e+00,-2.084151306152343750e+02,-1.011393737792968750e+02,-1.810986328125000000e+02,4.030399620532989502e-01,-6.667101287841796875e+01,-1.826867065429687500e+02,-2.342245101928710938e+00,7.562117004394531250e+01,3.135675048828125000e+01
1.560280025005340576e-01,1.000000000000000000e+00,8.029842376708984375e+00,-1.001652336120605469e+01,3.681682109832763672e+00,-2.083661956787109375e+02,-1.010786972045898438e+02,-1.810447998046875000e+02,4.030399620532989502e-01,-6.667101287841796875e+01,-1.826867065429687500e+02,-2.342173099517822266e+00,7.562117004394531250e+01,3.135697174072265625e+01
1.609600037336349487e-01,1.000000000000000000e+00,7.980839729309082031e+00,-9.977825164794921875e+00,3.689245700836181641e+00,-2.083140563964843750e+02,-1.010151977539062500e+02,-1.809861297607421875e+02,4.030399620532989502e-01,-6.667101287841796875e+01,-1.826867065429687500e+02,-2.342245101928710938e+00,7.562117004394531250e+01,3.135675048828125000e+01
1.642230004072189331e-01,1.000000000000000000e+00,7.929454326629638672e+00,-9.936797142028808594e+00,3.697154521942138672e+00,-2.082605285644531250e+02,-1.009494628906250000e+02,-1.809260406494140625e+02,4.030399620532989502e-01,-6.667101287841796875e+01,-1.826867065429687500e+02,-2.342245101928710938e+00,7.562117004394531250e+01,3.135675048828125000e+01
1.680520027875900269e-01,1.000000000000000000e+00,7.875772476196289062e+00,-9.892964363098144531e+00,3.705348253250122070e+00,-2.082050170898437500e+02,-1.008814315795898438e+02,-1.808662872314453125e+02,4.030399620532989502e-01,-6.667101287841796875e+01,-1.826867065429687500e+02,-2.342173099517822266e+00,7.562117004394531250e+01,3.135697174072265625e+01
1.718589961528778076e-01,1.000000000000000000e+00,7.819736957550048828e+00,-9.846798896789550781e+00,3.713806629180908203e+00,-2.081488494873046875e+02,-1.008112106323242188e+02,-1.808029479980468750e+02,4.030399620532989502e-01,-6.667101287841796875e+01,-1.826867065429687500e+02,-2.342173099517822266e+00,7.562117004394531250e+01,3.135675048828125000e+01
1.768079996109008789e-01,1.000000000000000000e+00,7.762093544006347656e+00,-9.798528671264648438e+00,3.722508668899536133e+00,-2.080919799804687500e+02,-1.007397079467773438e+02,-1.807387390136718750e+02,4.030399620532989502e-01,-6.667101287841796875e+01,-1.826867065429687500e+02,-2.342245101928710938e+00,7.562117004394531250e+01,3.135675048828125000e+01
1.802680045366287231e-01,1.000000000000000000e+00,7.703014850616455078e+00,-9.748901367187500000e+00,3.731332302093505859e+00,-2.080335693359375000e+02,-1.006677322387695312e+02,-1.806747741699218750e+02,4.030399620532989502e-01,-6.667101287841796875e+01,-1.826867065429687500e+02,-2.342245101928710938e+00,7.562117004394531250e+01,3.135697174072265625e+01
1.840369999408721924e-01,1.000000000000000000e+00,7.642500877380371094e+00,-9.698255538940429688e+00,3.740217685699462891e+00,-2.079747619628906250e+02,-1.005950164794921875e+02,-1.806094818115234375e+02,4.030399620532989502e-01,-6.667111206054687500e+01,-1.826867065429687500e+02,-2.342245101928710938e+00,7.562117004394531250e+01,3.135675048828125000e+01
1.881529986858367920e-01,1.000000000000000000e+00,7.580953598022460938e+00,-9.646139144897460938e+00,3.749244451522827148e+00,-2.079156799316406250e+02,-1.005214385986328125e+02,-1.805435485839843750e+02,4.030399620532989502e-01,-6.667101287841796875e+01,-1.826867065429687500e+02,-2.342245101928710938e+00,7.562117004394531250e+01,3.135675048828125000e+01
1.920759975910186768e-01,1.000000000000000000e+00,7.518659591674804688e+00,-9.593546867370605469e+00,3.758292436599731445e+00,-2.078571014404296875e+02,-1.004472732543945312e+02,-1.804785156250000000e+02,4.030399620532989502e-01,-6.667101287841796875e+01,-1.826867065429687500e+02,-2.342173099517822266e+00,7.562117004394531250e+01,3.135675048828125000e+01
1.949239969253540039e-01,1.000000000000000000e+00,7.455533027648925781e+00,-9.540390014648437500e+00,3.767624616622924805e+00,-2.077980957031250000e+02,-1.003739700317382812e+02,-1.804114379882812500e+02,4.030399620532989502e-01,-6.667101287841796875e+01,-1.826867065429687500e+02,-2.342245101928710938e+00,7.562117004394531250e+01,3.135675048828125000e+01
1.989230066537857056e-01,1.000000000000000000e+00,7.392004966735839844e+00,-9.486688613891601562e+00,3.777261972427368164e+00,-2.077382659912109375e+02,-1.002998046875000000e+02,-1.803458099365234375e+02,4.030399620532989502e-01,-6.667101287841796875e+01,-1.826867065429687500e+02,-2.342173099517822266e+00,7.562117004394531250e+01,3.135675048828125000e+01
2.045239955186843872e-01,1.000000000000000000e+00,7.327672958374023438e+00,-9.432580947875976562e+00,3.786878824234008789e+00,-2.076793212890625000e+02,-1.002258529663085938e+02,-1.802798767089843750e+02,4.030399620532989502e-01,-6.667101287841796875e+01,-1.826867065429687500e+02,-2.342173099517822266e+00,7.562117004394531250e+01,3.135675048828125000e+01
2.084590047597885132e-01,1.000000000000000000e+00,7.262795448303222656e+00,-9.378065109252929688e+00,3.796414613723754883e+00,-2.076195373535156250e+02,-1.001509933471679688e+02,-1.802134246826171875e+02,4.030399620532989502e-01,-6.667101287841796875e+01,-1.826867065429687500e+02,-2.342173099517822266e+00,7.562117004394531250e+01,3.135675048828125000e+01
2.124200016260147095e-01,1.000000000000000000e+00,7.197917938232421875e+00,-9.323685646057128906e+00,3.805970668792724609e+00,-2.075604400634765625e+02,-1.000774765014648438e+02,-1.801482543945312500e+02,4.030399620532989502e-01,-6.667101287841796875e+01,-1.826867065429687500e+02,-2.342245101928710938e+00,7.562117004394531250e+01,3.135675048828125000e+01
2.164400070905685425e-01,1.000000000000000000e+00,7.133098125457763672e+00,-9.269102096557617188e+00,3.815343379974365234e+00,-2.075011291503906250e+02,-1.000034713745117188e+02,-1.800820007324218750e+02,4.030399620532989502e-01,-6.667101287841796875e+01,-1.826867065429687500e+02,-2.342245101928710938e+00,7.562102508544921875e+01,3.135653114318847656e+01
2.189809978008270264e-01,1.000000000000000000e+00,7.068278312683105469e+00,-9.214270591735839844e+00,3.824838638305664062e+00,-2.074419708251953125e+02,-9.992968750000000000e+01,-1.800153961181640625e+02,4.030399620532989502e-01,-6.667101287841796875e+01,-1.826867065429687500e+02,-2.342173099517822266e+00,7.562124633789062500e+01,3.135675048828125000e+01
2.228910028934478760e-01,1.000000000000000000e+00,7.003458499908447266e+00,-9.159596443176269531e+00,3.834414482116699219e+00,-2.073829803466796875e+02,-9.985445404052734375e+01,-1.799498138427734375e+02,4.030399620532989502e-01,-6.667101287841796875e+01,-1.826867065429687500e+02,-2.342173099517822266e+00,7.562117004394531250e+01,3.135697174072265625e+01
2.286089956760406494e-01,1.000000000000000000e+00,6.938437461853027344e+00,-9.104786872863769531e+00,3.843889236450195312e+00,-2.073226165771484375e+02,-9.978039550781250000e+01,-1.798827514648437500e+02,4.030399620532989502e-01,-6.667101287841796875e+01,-1.826867065429687500e+02,-2.342245101928710938e+00,7.562117004394531250e+01,3.135675048828125000e+01
2.324250042438507080e-01,1.000000000000000000e+00,6.873416900634765625e+00,-9.050044059753417969e+00,3.853384017944335938e+00,-2.072639312744140625e+02,-9.970639038085937500e+01,-1.798169555664062500e+02,4.030399620532989502e-01,-6.667101287841796875e+01,-1.826867065429687500e+02,-2.342173099517822266e+00,7.562117004394531250e+01,3.135675048828125000e+01
2.366299927234649658e-01,1.000000000000000000e+00,6.808682918548583984e+00,-8.995551109313964844e+00,3.862736701965332031e+00,-2.072044677734375000e+02,-9.963212585449218750e+01,-1.797513885498046875e+02,4.030399620532989502e-01,-6.667101287841796875e+01,-1.826867065429687500e+02,-2.342245101928710938e+00,7.562117004394531250e+01,3.135653114318847656e+01
2.405949980020523071e-01,1.000000000000000000e+00,6.744006156921386719e+00,-8.941217422485351562e+00,3.872069358825683594e+00,-2.071448822021484375e+02,-9.955711364746093750e+01,-1.796849365234375000e+02,4.030399620532989502e-01,-6.667101287841796875e+01,-1.826867065429687500e+02,-2.342029571533203125e+00,7.562117004394531250e+01,3.135653114318847656e+01
2.445919960737228394e-01,1.000000000000000000e+00,6.679444313049316406e+00,-8.886837959289550781e+00,3.881523609161376953e+00,-2.070854187011718750e+02,-9.948294067382812500e+01,-1.796181945800781250e+02,4.030399620532989502e-01,-6.667101287841796875e+01,-1.826867065429687500e+02,-2.342173099517822266e+00,7.562117004394531250e+01,3.135653114318847656e+01
2.495599985122680664e-01,1.000000000000000000e+00,6.614882946014404297e+00,-8.832412719726562500e+00,3.891180992126464844e+00,-2.070258026123046875e+02,-9.940931701660156250e+01,-1.795524749755859375e+02,4.030399620532989502e-01,-6.667092895507812500e+01,-1.826867065429687500e+02,-2.342173099517822266e+00,7.562117004394531250e+01,3.135653114318847656e+01
2.528469860553741455e-01,1.000000000000000000e+00,6.550350189208984375e+00,-8.778191566467285156e+00,3.900655746459960938e+00,-2.069667968750000000e+02,-9.933520507812500000e+01,-1.794858856201171875e+02,4.030399620532989502e-01,-6.667101287841796875e+01,-1.826868133544921875e+02,-2.342245101928710938e+00,7.562117004394531250e+01,3.135675048828125000e+01
2.569049894809722900e-01,1.000000000000000000e+00,6.485960483551025391e+00,-8.724105834960937500e+00,3.910211563110351562e+00,-2.069073333740234375e+02,-9.926039886474609375e+01,-1.794205017089843750e+02,4.030399620532989502e-01,-6.667111206054687500e+01,-1.826867065429687500e+02,-2.342245101928710938e+00,7.562117004394531250e+01,3.135675048828125000e+01
2.589119970798492432e-01,1.000000000000000000e+00,6.421571254730224609e+00,-8.670133590698242188e+00,3.919645309448242188e+00,-2.068481292724609375e+02,-9.918661499023437500e+01,-1.793546600341796875e+02,4.030399620532989502e-01,-6.667101287841796875e+01,-1.826868133544921875e+02,-2.342173099517822266e+00,7.562117004394531250e+01,3.135675048828125000e+01
2.629610002040863037e-01,1.000000000000000000e+00,6.357152938842773438e+00,-8.616364479064941406e+00,3.928977966308593750e+00,-2.067884521484375000e+02,-9.911293029785156250e+01,-1.792879943847656250e+02,4.030399620532989502e-01,-6.667101287841796875e+01,-1.826867065429687500e+02,-2.342245101928710938e+00,7.562117004394531250e+01,3.135697174072265625e+01
2.670710086822509766e-01,1.000000000000000000e+00,6.292649269104003906e+00,-8.562211990356445312e+00,3.938371181488037109e+00,-2.067289886474609375e+02,-9.903892517089843750e+01,-1.792226867675781250e+02,4.030399620532989502e-01,-6.667092895507812500e+01,-1.826867065429687500e+02,-2.342173099517822266e+00,7.562117004394531250e+01,3.135697174072265625e+01
2.708919942378997803e-01,1.000000000000000000e+00,6.228230953216552734e+00,-8.508261680603027344e+00,3.947845935821533203e+00,-2.066697235107421875e+02,-9.896412658691406250e+01,-1.791564178466796875e+02,4.030399620532989502e-01,-6.667101287841796875e+01,-1.826867065429687500e+02,-2.342173099517822266e+00,7.562117004394531250e+01,3.135697174072265625e+01
2.769950032234191895e-01,1.000000000000000000e+00,6.163669109344482422e+00,-8.454244613647460938e+00,3.957320213317871094e+00,-2.066103515625000000e+02,-9.888996887207031250e+01,-1.790900421142578125e+02,4.030399620532989502e-01,-6.667101287841796875e+01,-1.826867065429687500e+02,-2.342173099517822266e+00,7.562117004394531250e+01,3.135653114318847656e+01
2.808920145034790039e-01,1.000000000000000000e+00,6.098964214324951172e+00,-8.400113105773925781e+00,3.966652870178222656e+00,-2.065511474609375000e+02,-9.881616973876953125e+01,-1.790248565673828125e+02,4.030399620532989502e-01,-6.667101287841796875e+01,-1.826867065429687500e+02,-2.342173099517822266e+00,7.562117004394531250e+01,3.135675048828125000e+01
2.829470038414001465e-01,1.000000000000000000e+00,6.034258842468261719e+00,-8.346186637878417969e+00,3.975862979888916016e+00,-2.064916381835937500e+02,-9.874222564697265625e+01,-1.789592895507812500e+02,4.030399620532989502e-01,-6.667101287841796875e+01,-1.826867065429687500e+02,-2.342245101928710938e+00,7.562117004394531250e+01,3.135653114318847656e+01
2.868900001049041748e-01,1.000000000000000000e+00,5.969668865203857422e+00,-8.292168617248535156e+00,3.985073566436767578e+00,-2.064322052001953125e+02,-9.866769409179687500e+01,-1.788932342529296875e+02,4.030399620532989502e-01,-6.667101287841796875e+01,-1.826867065429687500e+02,-2.342173099517822266e+00,7.562117004394531250e+01,3.135653114318847656e+01
2.909319996833801270e-01,1.000000000000000000e+00,5.904618740081787109e+00,-8.238128662109375000e+00,3.994547843933105469e+00,-2.063733215332031250e+02,-9.859357452392578125e+01,-1.788272552490234375e+02,4.030399620532989502e-01,-6.667101287841796875e+01,-1.826867065429687500e+02,-2.342173099517822266e+00,7.562117004394531250e+01,3.135653114318847656e+01
2.949649989604949951e-01,1.000000000000000000e+00,5.839569568634033203e+00,-8.183998107910156250e+00,4.004185199737548828e+00,-2.063136444091796875e+02,-9.851984405517578125e+01,-1.787603149414062500e+02,4.030399620532989502e-01,-6.667111206054687500e+01,-1.826867065429687500e+02,-2.342173099517822266e+00,7.562117004394531250e+01,3.135675048828125000e+01
3.011640012264251709e-01,1.000000000000000000e+00,5.774347305297851562e+00,-8.129797935485839844e+00,4.013761520385742188e+00,-2.062541809082031250e+02,-9.844653320312500000e+01,-1.786944580078125000e+02,4.030399620532989502e-01,-6.667101287841796875e+01,-1.826867065429687500e+02,-2.342173099517822266e+00,7.562117004394531250e+01,3.135675048828125000e+01
3.053160011768341064e-01,1.000000000000000000e+00,5.709412574768066406e+00,-8.075780868530273438e+00,4.023296833038330078e+00,-2.061947174072265625e+02,-9.837200164794921875e+01,-1.786296997070312500e+02,4.030399620532989502e-01,-6.667101287841796875e+01,-1.826867065429687500e+02,-2.342173099517822266e+00,7.562117004394531250e+01,3.135675048828125000e+01
3.069640100002288818e-01,1.000000000000000000e+00,5.644391536712646484e+00,-8.021469116210937500e+00,4.032731056213378906e+00,-2.061354980468750000e+02,-9.829837036132812500e+01,-1.785628967285156250e+02,4.030399620532989502e-01,-6.667101287841796875e+01,-1.826867065429687500e+02,-2.342245101928710938e+00,7.562117004394531250e+01,3.135653114318847656e+01
3.109090030193328857e-01,1.000000000000000000e+00,5.579600334167480469e+00,-7.967315673828125000e+00,4.042022705078125000e+00,-2.060762939453125000e+02,-9.822415161132812500e+01,-1.784971771240234375e+02,4.030399620532989502e-01,-6.667101287841796875e+01,-1.826867065429687500e+02,-2.342029571533203125e+00,7.562117004394531250e+01,3.135675048828125000e+01
3.170959949493408203e-01,1.000000000000000000e+00,5.514665126800537109e+00,-7.913049221038818359e+00,4.051476955413818359e+00,-2.060169830322265625e+02,-9.815073394775390625e+01,-1.784311981201171875e+02,4.030399620532989502e-01,-6.667092895507812500e+01,-1.826867065429687500e+02,-2.342173099517822266e+00,7.562117004394531250e+01,3.135653114318847656e+01
3.189660012722015381e-01,1.000000000000000000e+00,5.449357509613037109e+00,-7.858783245086669922e+00,4.061053276062011719e+00,-2.059578247070312500e+02,-9.807646179199218750e+01,-1.783651428222656250e+02,4.030399620532989502e-01,-6.667101287841796875e+01,-1.826867065429687500e+02,-2.342173099517822266e+00,7.562117004394531250e+01,3.135653114318847656e+01
3.259870111942291260e-01,1.000000000000000000e+00,5.384222030639648438e+00,-7.804358005523681641e+00,4.070670127868652344e+00,-2.058983612060546875e+02,-9.800267791748046875e+01,-1.782994995117187500e+02,4.030399620532989502e-01,-6.667101287841796875e+01,-1.826867065429687500e+02,-2.342245101928710938e+00,7.562117004394531250e+01,3.135653114318847656e+01
3.279460072517395020e-01,1.000000000000000000e+00,5.319258213043212891e+00,-7.749842643737792969e+00,4.080144405364990234e+00,-2.058392181396484375e+02,-9.792813873291015625e+01,-1.782337799072265625e+02,4.030399620532989502e-01,-6.667101287841796875e+01,-1.826867065429687500e+02,-2.342245101928710938e+00,7.562117004394531250e+01,3.135675048828125000e+01
3.318890035152435303e-01,1.000000000000000000e+00,5.254036426544189453e+00,-7.695326805114746094e+00,4.089538097381591797e+00,-2.057798461914062500e+02,-9.785424041748046875e+01,-1.781673126220703125e+02,4.030399620532989502e-01,-6.667101287841796875e+01,-1.826867065429687500e+02,-2.342173099517822266e+00,7.562117004394531250e+01,3.135675048828125000e+01
3.349069952964782715e-01,1.000000000000000000e+00,5.189072608947753906e+00,-7.640675544738769531e+00,4.099032878875732422e+00,-2.057201690673828125e+02,-9.778002929687500000e+01,-1.781020812988281250e+02,4.030399620532989502e-01,-6.667101287841796875e+01,-1.826867065429687500e+02,-2.342029571533203125e+00,7.562117004394531250e+01,3.135675048828125000e+01
3.414219915866851807e-01,1.000000000000000000e+00,5.189072608947753906e+00,-7.640675544738769531e+00,4.099032878875732422e+00,-2.057201690673828125e+02,-9.778002929687500000e+01,-1.781020812988281250e+02,4.030399620532989502e-01,-6.667101287841796875e+01,-1.826867065429687500e+02,-2.342029571533203125e+00,7.562117004394531250e+01,3.135675048828125000e+01
3.439149856567382812e-01,1.000000000000000000e+00,5.058686733245849609e+00,-7.531282424926757812e+00,4.118450164794921875e+00,-2.056015014648437500e+02,-9.763298034667968750e+01,-1.779703063964843750e+02,4.030399620532989502e-01,-6.667101287841796875e+01,-1.826867065429687500e+02,-2.342245101928710938e+00,7.562117004394531250e+01,3.135675048828125000e+01
3.478839993476867676e-01,1.000000000000000000e+00,4.993350028991699219e+00,-7.476858139038085938e+00,4.128128051757812500e+00,-2.055427551269531250e+02,-9.755892944335937500e+01,-1.779050750732421875e+02,4.030399620532989502e-01,-6.667101287841796875e+01,-1.826867065429687500e+02,-2.342173099517822266e+00,7.562117004394531250e+01,3.135697174072265625e+01
3.508990108966827393e-01,1.000000000000000000e+00,4.928299903869628906e+00,-7.422387123107910156e+00,4.137825965881347656e+00,-2.054832916259765625e+02,-9.748465728759765625e+01,-1.778396301269531250e+02,4.030399620532989502e-01,-6.667101287841796875e+01,-1.826867065429687500e+02,-2.342173099517822266e+00,7.562117004394531250e+01,3.135697174072265625e+01
3.559469878673553467e-01,1.000000000000000000e+00,4.928299903869628906e+00,-7.422387123107910156e+00,4.137825965881347656e+00,-2.054832916259765625e+02,-9.748465728759765625e+01,-1.778396301269531250e+02,4.030399620532989502e-01,-6.667101287841796875e+01,-1.826867065429687500e+02,-2.342173099517822266e+00,7.562117004394531250e+01,3.135697174072265625e+01
3.589150011539459229e-01,1.000000000000000000e+00,4.798688888549804688e+00,-7.313266277313232422e+00,4.156795501708984375e+00,-2.053644104003906250e+02,-9.733776855468750000e+01,-1.777080078125000000e+02,4.030399620532989502e-01,-6.667101287841796875e+01,-1.826867065429687500e+02,-2.342245101928710938e+00,7.562117004394531250e+01,3.135653114318847656e+01
3.639850020408630371e-01,1.000000000000000000e+00,4.798688888549804688e+00,-7.313266277313232422e+00,4.156795501708984375e+00,-2.053644104003906250e+02,-9.733776855468750000e+01,-1.777080078125000000e+02,4.030399620532989502e-01,-6.667101287841796875e+01,-1.826867065429687500e+02,-2.342245101928710938e+00,7.562117004394531250e+01,3.135653114318847656e+01
3.669860064983367920e-01,1.000000000000000000e+00,4.669537067413330078e+00,-7.204596996307373047e+00,4.175826072692871094e+00,-2.052457733154296875e+02,-9.718928527832031250e+01,-1.775757598876953125e+02,4.030399620532989502e-01,-6.667101287841796875e+01,-1.826867065429687500e+02,-2.342173099517822266e+00,7.562117004394531250e+01,3.135653114318847656e+01
3.719229996204376221e-01,1.000000000000000000e+00,4.669537067413330078e+00,-7.204596996307373047e+00,4.175826072692871094e+00,-2.052457733154296875e+02,-9.718928527832031250e+01,-1.775757598876953125e+02,4.030399620532989502e-01,-6.667101287841796875e+01,-1.826867065429687500e+02,-2.342173099517822266e+00,7.562117004394531250e+01,3.135653114318847656e+01
3.758580088615417480e-01,1.000000000000000000e+00,4.540441989898681641e+00,-7.096290588378906250e+00,4.194734573364257812e+00,-2.051269531250000000e+02,-9.704154968261718750e+01,-1.774437866210937500e+02,4.030399620532989502e-01,-6.667101287841796875e+01,-1.826867065429687500e+02,-2.342029571533203125e+00,7.562117004394531250e+01,3.135675048828125000e+01
3.799149990081787109e-01,1.000000000000000000e+00,4.475880622863769531e+00,-7.042001247406005859e+00,4.203945159912109375e+00,-2.050677947998046875e+02,-9.696717071533203125e+01,-1.773782653808593750e+02,4.030399620532989502e-01,-6.667111206054687500e+01,-1.826867065429687500e+02,-2.342173099517822266e+00,7.562117004394531250e+01,3.135697174072265625e+01
3.828909993171691895e-01,1.000000000000000000e+00,4.411548614501953125e+00,-6.987667083740234375e+00,4.213460445404052734e+00,-2.050082855224609375e+02,-9.689332580566406250e+01,-1.773123474121093750e+02,4.030399620532989502e-01,-6.667101287841796875e+01,-1.826867065429687500e+02,-2.342245101928710938e+00,7.562117004394531250e+01,3.135675048828125000e+01
3.879530131816864014e-01,1.000000000000000000e+00,4.411548614501953125e+00,-6.987667083740234375e+00,4.213460445404052734e+00,-2.050082855224609375e+02,-9.689332580566406250e+01,-1.773123474121093750e+02,4.030399620532989502e-01,-6.667101287841796875e+01,-1.826867065429687500e+02,-2.342245101928710938e+00,7.562117004394531250e+01,3.135675048828125000e+01
3.908990025520324707e-01,1.000000000000000000e+00,4.282224655151367188e+00,-6.879110813140869141e+00,4.232694149017333984e+00,-2.048899078369140625e+02,-9.674552917480468750e+01,-1.771804504394531250e+02,4.030399620532989502e-01,-6.667101287841796875e+01,-1.826867065429687500e+02,-2.342173099517822266e+00,7.562117004394531250e+01,3.135697174072265625e+01
3.959560096263885498e-01,1.000000000000000000e+00,4.282224655151367188e+00,-6.879110813140869141e+00,4.232694149017333984e+00,-2.048899078369140625e+02,-9.674552917480468750e+01,-1.771804504394531250e+02,4.030399620532989502e-01,-6.667101287841796875e+01,-1.826867065429687500e+02,-2.342173099517822266e+00,7.562117004394531250e+01,3.135697174072265625e+01
3.996990025043487549e-01,1.000000000000000000e+00,4.153072834014892578e+00,-6.770894527435302734e+00,4.251745223999023438e+00,-2.047713012695312500e+02,-9.659715270996093750e+01,-1.770481414794921875e+02,4.030399620532989502e-01,-6.667101287841796875e+01,-1.826867065429687500e+02,-2.342173099517822266e+00,7.562117004394531250e+01,3.135697174072265625e+01
4.029499888420104980e-01,1.000000000000000000e+00,4.088596820831298828e+00,-6.716922283172607422e+00,4.260975837707519531e+00,-2.047116699218750000e+02,-9.652384185791015625e+01,-1.769831695556640625e+02,4.030399620532989502e-01,-6.667101287841796875e+01,-1.826867065429687500e+02,-2.342173099517822266e+00,7.562117004394531250e+01,3.135697174072265625e+01
4.079400002956390381e-01,1.000000000000000000e+00,4.088596820831298828e+00,-6.716922283172607422e+00,4.260975837707519531e+00,-2.047116699218750000e+02,-9.652384185791015625e+01,-1.769831695556640625e+02,4.030399620532989502e-01,-6.667101287841796875e+01,-1.826867065429687500e+02,-2.342173099517822266e+00,7.562117004394531250e+01,3.135697174072265625e+01
4.118970036506652832e-01,1.000000000000000000e+00,3.959100484848022461e+00,-6.608344078063964844e+00,4.279985904693603516e+00,-2.045935821533203125e+02,-9.637535858154296875e+01,-1.768507995605468750e+02,4.030399620532989502e-01,-6.667101287841796875e+01,-1.826867065429687500e+02,-2.342173099517822266e+00,7.562117004394531250e+01,3.135653114318847656e+01
4.159339964389801025e-01,1.000000000000000000e+00,3.894337892532348633e+00,-6.554122924804687500e+00,4.289582729339599609e+00,-2.045342712402343750e+02,-9.630156707763671875e+01,-1.767858886718750000e+02,4.030399620532989502e-01,-6.667092895507812500e+01,-1.826867065429687500e+02,-2.342173099517822266e+00,7.562117004394531250e+01,3.135675048828125000e+01
4.189450144767761230e-01,1.000000000000000000e+00,3.829690217971801758e+00,-6.500104904174804688e+00,4.299118518829345703e+00,-2.044748992919921875e+02,-9.622814941406250000e+01,-1.767198333740234375e+02,4.030399620532989502e-01,-6.667101287841796875e+01,-1.826867065429687500e+02,-2.342245101928710938e+00,7.562117004394531250e+01,3.135675048828125000e+01
4.239430129528045654e-01,1.000000000000000000e+00,3.829690217971801758e+00,-6.500104904174804688e+00,4.299118518829345703e+00,-2.044748992919921875e+02,-9.622814941406250000e+01,-1.767198333740234375e+02,4.030399620532989502e-01,-6.667101287841796875e+01,-1.826867065429687500e+02,-2.342245101928710938e+00,7.562117004394531250e+01,3.135675048828125000e+01
4.268969893455505371e-01,1.000000000000000000e+00,3.700394630432128906e+00,-6.391820907592773438e+00,4.317884922027587891e+00,-2.043567504882812500e+02,-9.607923889160156250e+01,-1.765884704589843750e+02,4.030399620532989502e-01,-6.667101287841796875e+01,-1.826867065429687500e+02,-2.342173099517822266e+00,7.562117004394531250e+01,3.135697174072265625e+01
4.319590032100677490e-01,1.000000000000000000e+00,3.700394630432128906e+00,-6.391820907592773438e+00,4.317884922027587891e+00,-2.043567504882812500e+02,-9.607923889160156250e+01,-1.765884704589843750e+02,4.030399620532989502e-01,-6.667101287841796875e+01,-1.826867065429687500e+02,-2.342173099517822266e+00,7.562117004394531250e+01,3.135697174072265625e+01
4.358910024166107178e-01,1.000000000000000000e+00,3.570640087127685547e+00,-6.283152103424072266e+00,4.337138652801513672e+00,-2.042382812500000000e+02,-9.593203735351562500e+01,-1.764562377929687500e+02,4.030399620532989502e-01,-6.667101287841796875e+01,-1.826867065429687500e+02,-2.342173099517822266e+00,7.562124633789062500e+01,3.135675048828125000e+01
4.399459958076477051e-01,1.000000000000000000e+00,3.505561590194702148e+00,-6.228749752044677734e+00,4.346837043762207031e+00,-2.041786651611328125e+02,-9.585819244384765625e+01,-1.763902587890625000e+02,4.030399620532989502e-01,-6.667101287841796875e+01,-1.826867065429687500e+02,-2.342245101928710938e+00,7.562117004394531250e+01,3.135653114318847656e+01
4.429540038108825684e-01,1.000000000000000000e+00,3.440540790557861328e+00,-6.174302101135253906e+00,4.356413364410400391e+00,-2.041198272705078125e+02,-9.578371429443359375e+01,-1.763244628906250000e+02,4.030399620532989502e-01,-6.667101287841796875e+01,-1.826867065429687500e+02,-2.342029571533203125e+00,7.562117004394531250e+01,3.135642242431640625e+01
4.479460120201110840e-01,1.000000000000000000e+00,3.440540790557861328e+00,-6.174302101135253906e+00,4.356413364410400391e+00,-2.041198272705078125e+02,-9.578371429443359375e+01,-1.763244628906250000e+02,4.030399620532989502e-01,-6.667101287841796875e+01,-1.826867065429687500e+02,-2.342029571533203125e+00,7.562117004394531250e+01,3.135642242431640625e+01
4.529199898242950439e-01,1.000000000000000000e+00,3.310470104217529297e+00,-6.065248489379882812e+00,4.375240325927734375e+00,-2.040014190673828125e+02,-9.563607788085937500e+01,-1.761926269531250000e+02,4.030399620532989502e-01,-6.667101287841796875e+01,-1.826867065429687500e+02,-2.342173099517822266e+00,7.562117004394531250e+01,3.135653114318847656e+01
4.555760025978088379e-01,1.000000000000000000e+00,3.245477914810180664e+00,-6.010823726654052734e+00,4.384694576263427734e+00,-2.039430084228515625e+02,-9.556266021728515625e+01,-1.761269226074218750e+02,4.030399620532989502e-01,-6.667092895507812500e+01,-1.826867065429687500e+02,-2.342245101928710938e+00,7.562117004394531250e+01,3.135653114318847656e+01
4.599429965019226074e-01,1.000000000000000000e+00,3.245477914810180664e+00,-6.010823726654052734e+00,4.384694576263427734e+00,-2.039430084228515625e+02,-9.556266021728515625e+01,-1.761269226074218750e+02,4.030399620532989502e-01,-6.667092895507812500e+01,-1.826867065429687500e+02,-2.342245101928710938e+00,7.562117004394531250e+01,3.135653114318847656e+01
4.649659991264343262e-01,1.000000000000000000e+00,3.180256128311157227e+00,-5.956376075744628906e+00,4.394311904907226562e+00,-2.038831024169921875e+02,-9.548785400390625000e+01,-1.760618896484375000e+02,4.030399620532989502e-01,-6.667101287841796875e+01,-1.826867065429687500e+02,-2.342173099517822266e+00,7.562117004394531250e+01,3.135653114318847656e+01
4.678300023078918457e-01,1.000000000000000000e+00,3.049898386001586914e+00,-5.847480773925781250e+00,4.413464069366455078e+00,-2.037650146484375000e+02,-9.534011840820312500e+01,-1.759293670654296875e+02,4.030399620532989502e-01,-6.667101287841796875e+01,-1.826867065429687500e+02,-2.342245101928710938e+00,7.562117004394531250e+01,3.135675048828125000e+01
4.719829857349395752e-01,1.000000000000000000e+00,3.049898386001586914e+00,-5.847480773925781250e+00,4.413464069366455078e+00,-2.037650146484375000e+02,-9.534011840820312500e+01,-1.759293670654296875e+02,4.030399620532989502e-01,-6.667101287841796875e+01,-1.826867065429687500e+02,-2.342245101928710938e+00,7.562117004394531250e+01,3.135675048828125000e+01
4.759609997272491455e-01,1.000000000000000000e+00,2.984791278839111328e+00,-5.793055534362792969e+00,4.422877788543701172e+00,-2.037058105468750000e+02,-9.526665496826171875e+01,-1.758643341064453125e+02,4.030399620532989502e-01,-6.667101287841796875e+01,-1.826867065429687500e+02,-2.342173099517822266e+00,7.562117004394531250e+01,3.135653114318847656e+01
4.801039993762969971e-01,1.000000000000000000e+00,2.919856309890747070e+00,-5.738631248474121094e+00,4.432372570037841797e+00,-2.036466522216796875e+02,-9.519179534912109375e+01,-1.757984771728515625e+02,4.030399620532989502e-01,-6.667101287841796875e+01,-1.826867065429687500e+02,-2.342173099517822266e+00,7.562117004394531250e+01,3.135653114318847656e+01
4.848929941654205322e-01,1.000000000000000000e+00,2.854921579360961914e+00,-5.684409618377685547e+00,4.442071437835693359e+00,-2.035869140625000000e+02,-9.511795043945312500e+01,-1.757323608398437500e+02,4.030399620532989502e-01,-6.667101287841796875e+01,-1.826867065429687500e+02,-2.342173099517822266e+00,7.562117004394531250e+01,3.135675048828125000e+01
4.875679910182952881e-01,1.000000000000000000e+00,2.725195646286010742e+00,-5.575809001922607422e+00,4.461528778076171875e+00,-2.034693603515625000e+02,-9.497096252441406250e+01,-1.756014709472656250e+02,4.030399620532989502e-01,-6.667092895507812500e+01,-1.826867065429687500e+02,-2.342245101928710938e+00,7.562117004394531250e+01,3.135653114318847656e+01
4.920020103454589844e-01,1.000000000000000000e+00,2.725195646286010742e+00,-5.575809001922607422e+00,4.461528778076171875e+00,-2.034693603515625000e+02,-9.497096252441406250e+01,-1.756014709472656250e+02,4.030399620532989502e-01,-6.667092895507812500e+01,-1.826867065429687500e+02,-2.342245101928710938e+00,7.562117004394531250e+01,3.135653114318847656e+01
4.962660074234008789e-01,1.000000000000000000e+00,2.660346746444702148e+00,-5.521496772766113281e+00,4.471084594726562500e+00,-2.034097900390625000e+02,-9.489653015136718750e+01,-1.755355529785156250e+02,4.030399620532989502e-01,-6.667101287841796875e+01,-1.826867065429687500e+02,-2.342173099517822266e+00,7.562117004394531250e+01,3.135653114318847656e+01
5.008990168571472168e-01,1.000000000000000000e+00,2.595469236373901367e+00,-5.467139720916748047e+00,4.480437278747558594e+00,-2.033507232666015625e+02,-9.482311248779296875e+01,-1.754700317382812500e+02,4.030399620532989502e-01,-6.667101287841796875e+01,-1.826867065429687500e+02,-2.342245101928710938e+00,7.562117004394531250e+01,3.135675048828125000e+01
5.036020278930664062e-01,1.000000000000000000e+00,2.466116428375244141e+00,-5.358516216278076172e+00,4.499447345733642578e+00,-2.032322082519531250e+02,-9.467574310302734375e+01,-1.753379364013671875e+02,4.030399620532989502e-01,-6.667101287841796875e+01,-1.826867065429687500e+02,-2.342245101928710938e+00,7.562117004394531250e+01,3.135697174072265625e+01
5.080189704895019531e-01,1.000000000000000000e+00,2.466116428375244141e+00,-5.358516216278076172e+00,4.499447345733642578e+00,-2.032322082519531250e+02,-9.467574310302734375e+01,-1.753379364013671875e+02,4.030399620532989502e-01,-6.667101287841796875e+01,-1.826867065429687500e+02,-2.342245101928710938e+00,7.562117004394531250e+01,3.135697174072265625e+01
5.109999775886535645e-01,1.000000000000000000e+00,2.401440143585205078e+00,-5.304203987121582031e+00,4.508942604064941406e+00,-2.031731567382812500e+02,-9.460121154785156250e+01,-1.752724914550781250e+02,4.030399620532989502e-01,-6.667101287841796875e+01,-1.826867065429687500e+02,-2.342173099517822266e+00,7.562117004394531250e+01,3.135697174072265625e+01
5.159339904785156250e-01,1.000000000000000000e+00,2.336591243743896484e+00,-5.250277042388916016e+00,4.518274784088134766e+00,-2.031140136718750000e+02,-9.452768707275390625e+01,-1.752059631347656250e+02,4.030399620532989502e-01,-6.667101287841796875e+01,-1.826867065429687500e+02,-2.342245101928710938e+00,7.562117004394531250e+01,3.135697174072265625e+01
5.210130214691162109e-01,1.000000000000000000e+00,2.272029876708984375e+00,-5.195987701416015625e+00,4.527545928955078125e+00,-2.030549163818359375e+02,-9.445346832275390625e+01,-1.751402435302734375e+02,4.030399620532989502e-01,-6.667101287841796875e+01,-1.826867065429687500e+02,-2.342245101928710938e+00,7.562124633789062500e+01,3.135697174072265625e+01
5.235819816589355469e-01,1.000000000000000000e+00,2.142504692077636719e+00,-5.087613105773925781e+00,4.546352863311767578e+00,-2.029366607666015625e+02,-9.430562591552734375e+01,-1.750078582763671875e+02,4.030399620532989502e-01,-6.667101287841796875e+01,-1.826867065429687500e+02,-2.342173099517822266e+00,7.562117004394531250e+01,3.135675048828125000e+01
5.279610157012939453e-01,1.000000000000000000e+00,2.142504692077636719e+00,-5.087613105773925781e+00,4.546352863311767578e+00,-2.029366607666015625e+02,-9.430562591552734375e+01,-1.750078582763671875e+02,4.030399620532989502e-01,-6.667101287841796875e+01,-1.826867065429687500e+02,-2.342173099517822266e+00,7.562117004394531250e+01,3.135675048828125000e+01
5.319370031356811523e-01,1.000000000000000000e+00,2.077857017517089844e+00,-5.033505439758300781e+00,4.556030750274658203e+00,-2.028772430419921875e+02,-9.423252868652343750e+01,-1.749429016113281250e+02,4.030399620532989502e-01,-6.667101287841796875e+01,-1.826867065429687500e+02,-2.342173099517822266e+00,7.562117004394531250e+01,3.135653114318847656e+01
5.359600186347961426e-01,1.000000000000000000e+00,2.013008117675781250e+00,-4.979555606842041016e+00,4.565607070922851562e+00,-2.028177642822265625e+02,-9.415921783447265625e+01,-1.748767089843750000e+02,4.030399620532989502e-01,-6.667101287841796875e+01,-1.826867065429687500e+02,-2.342173099517822266e+00,7.562102508544921875e+01,3.135675048828125000e+01
5.391539931297302246e-01,1.000000000000000000e+00,1.948302984237670898e+00,-4.925447463989257812e+00,4.575101852416992188e+00,-2.027586212158203125e+02,-9.408494567871093750e+01,-1.748105926513671875e+02,4.030399620532989502e-01,-6.667101287841796875e+01,-1.826867065429687500e+02,-2.342245101928710938e+00,7.562117004394531250e+01,3.135653114318847656e+01
5.430930256843566895e-01,1.000000000000000000e+00,1.883569240570068359e+00,-4.871520042419433594e+00,4.584556102752685547e+00,-2.026995697021484375e+02,-9.401073455810546875e+01,-1.747452850341796875e+02,4.030399620532989502e-01,-6.667101287841796875e+01,-1.826867065429687500e+02,-2.342173099517822266e+00,7.562124633789062500e+01,3.135675048828125000e+01
5.479450225830078125e-01,1.000000000000000000e+00,1.818921446800231934e+00,-4.817299365997314453e+00,4.593888759613037109e+00,-2.026405334472656250e+02,-9.393769073486328125e+01,-1.746788940429687500e+02,4.030399620532989502e-01,-6.667101287841796875e+01,-1.826867065429687500e+02,-2.342173099517822266e+00,7.562117004394531250e+01,3.135675048828125000e+01
5.519570112228393555e-01,1.000000000000000000e+00,1.754359722137451172e+00,-4.762987136840820312e+00,4.603424072265625000e+00,-2.025811004638671875e+02,-9.386416625976562500e+01,-1.746134490966796875e+02,4.030399620532989502e-01,-6.667101287841796875e+01,-1.826867065429687500e+02,-2.342173099517822266e+00,7.562117004394531250e+01,3.135697174072265625e+01
5.556780099868774414e-01,1.000000000000000000e+00,1.689424872398376465e+00,-4.708697795867919922e+00,4.613000392913818359e+00,-2.025221710205078125e+02,-9.379037475585937500e+01,-1.745482025146484375e+02,4.030399620532989502e-01,-6.667101287841796875e+01,-1.826867065429687500e+02,-2.342173099517822266e+00,7.562117004394531250e+01,3.135653114318847656e+01
5.599640011787414551e-01,1.000000000000000000e+00,1.624834537506103516e+00,-4.654408931732177734e+00,4.622556209564208984e+00,-2.024626922607421875e+02,-9.371605682373046875e+01,-1.744822998046875000e+02,4.030399620532989502e-01,-6.667101287841796875e+01,-1.826867065429687500e+02,-2.342245101928710938e+00,7.562117004394531250e+01,3.135675048828125000e+01
5.639299750328063965e-01,1.000000000000000000e+00,1.560158133506774902e+00,-4.600119590759277344e+00,4.632010459899902344e+00,-2.024036560058593750e+02,-9.364231872558593750e+01,-1.744165802001953125e+02,4.030399620532989502e-01,-6.667101287841796875e+01,-1.826867065429687500e+02,-2.342245101928710938e+00,7.562117004394531250e+01,3.135675048828125000e+01
5.687170028686523438e-01,1.000000000000000000e+00,1.495338082313537598e+00,-4.545920848846435547e+00,4.641302108764648438e+00,-2.023446502685546875e+02,-9.356858825683593750e+01,-1.743506011962890625e+02,4.030399620532989502e-01,-6.667101287841796875e+01,-1.826867065429687500e+02,-2.342245101928710938e+00,7.562117004394531250e+01,3.135653114318847656e+01
5.729280114173889160e-01,1.000000000000000000e+00,1.430575609207153320e+00,-4.491541385650634766e+00,4.650715827941894531e+00,-2.022851409912109375e+02,-9.349436950683593750e+01,-1.742838592529296875e+02,4.030399620532989502e-01,-6.667101287841796875e+01,-1.826867065429687500e+02,-2.342173099517822266e+00,7.562117004394531250e+01,3.135653114318847656e+01
5.756149888038635254e-01,1.000000000000000000e+00,1.301165223121643066e+00,-4.382736682891845703e+00,4.669991016387939453e+00,-2.021668243408203125e+02,-9.334667968750000000e+01,-1.741530303955078125e+02,4.030399620532989502e-01,-6.667101287841796875e+01,-1.826867065429687500e+02,-2.342173099517822266e+00,7.562117004394531250e+01,3.135697174072265625e+01
5.800089836120605469e-01,1.000000000000000000e+00,1.301165223121643066e+00,-4.382736682891845703e+00,4.669991016387939453e+00,-2.021668243408203125e+02,-9.334667968750000000e+01,-1.741530303955078125e+02,4.030399620532989502e-01,-6.667101287841796875e+01,-1.826867065429687500e+02,-2.342173099517822266e+00,7.562117004394531250e+01,3.135697174072265625e+01
5.839279890060424805e-01,1.000000000000000000e+00,1.236144304275512695e+00,-4.328311920166015625e+00,4.679729461669921875e+00,-2.021075744628906250e+02,-9.327299499511718750e+01,-1.740870513916015625e+02,4.030399620532989502e-01,-6.667101287841796875e+01,-1.826867065429687500e+02,-2.342173099517822266e+00,7.562117004394531250e+01,3.135697174072265625e+01
5.879610180854797363e-01,1.000000000000000000e+00,1.171295642852783203e+00,-4.274044990539550781e+00,4.689265251159667969e+00,-2.020490417480468750e+02,-9.319899749755859375e+01,-1.740216064453125000e+02,4.030399620532989502e-01,-6.667101287841796875e+01,-1.826867065429687500e+02,-2.342316627502441406e+00,7.562117004394531250e+01,3.135697174072265625e+01
5.914350152015686035e-01,1.000000000000000000e+00,1.106504321098327637e+00,-4.219869136810302734e+00,4.698577404022216797e+00,-2.019893188476562500e+02,-9.312483215332031250e+01,-1.739552154541015625e+02,4.030399620532989502e-01,-6.667101287841796875e+01,-1.826867065429687500e+02,-2.342173099517822266e+00,7.562117004394531250e+01,3.135675048828125000e+01
5.957120060920715332e-01,1.000000000000000000e+00,1.041770458221435547e+00,-4.165760993957519531e+00,4.707950115203857422e+00,-2.019303741455078125e+02,-9.305206298828125000e+01,-1.738895721435546875e+02,4.030399620532989502e-01,-6.667101287841796875e+01,-1.826867065429687500e+02,-2.342245101928710938e+00,7.562117004394531250e+01,3.135675048828125000e+01
5.999559760093688965e-01,1.000000000000000000e+00,9.769791960716247559e-01,-4.111222743988037109e+00,4.717424869537353516e+00,-2.018706359863281250e+02,-9.297784423828125000e+01,-1.738245391845703125e+02,4.030399620532989502e-01,-6.667101287841796875e+01,-1.826867065429687500e+02,-2.342173099517822266e+00,7.562102508544921875e+01,3.135675048828125000e+01
6.042889952659606934e-01,1.000000000000000000e+00,9.121304750442504883e-01,-4.056662082672119141e+00,4.726980686187744141e+00,-2.018117523193359375e+02,-9.290394592285156250e+01,-1.737588195800781250e+02,4.030399620532989502e-01,-6.667101287841796875e+01,-1.826867065429687500e+02,-2.342245101928710938e+00,7.562117004394531250e+01,3.135675048828125000e+01
6.076210141181945801e-01,1.000000000000000000e+00,8.474253416061401367e-01,-4.002192020416259766e+00,4.736597537994384766e+00,-2.017527465820312500e+02,-9.282920074462890625e+01,-1.736928253173828125e+02,4.030399620532989502e-01,-6.667101287841796875e+01,-1.826867065429687500e+02,-2.342173099517822266e+00,7.562102508544921875e+01,3.135653114318847656e+01
6.121060252189636230e-01,1.000000000000000000e+00,7.826340198516845703e-01,-3.947789669036865234e+00,4.746072292327880859e+00,-2.016933441162109375e+02,-9.275598907470703125e+01,-1.736277313232421875e+02,4.030399620532989502e-01,-6.667101287841796875e+01,-1.826867065429687500e+02,-2.342245101928710938e+00,7.562117004394531250e+01,3.135653114318847656e+01
6.156219840049743652e-01,1.000000000000000000e+00,7.180150151252746582e-01,-3.893432378768920898e+00,4.755343437194824219e+00,-2.016342926025390625e+02,-9.268198394775390625e+01,-1.735618133544921875e+02,4.030399620532989502e-01,-6.667101287841796875e+01,-1.826867065429687500e+02,-2.342316627502441406e+00,7.562124633789062500e+01,3.135653114318847656e+01
6.199290156364440918e-01,1.000000000000000000e+00,6.532524228096008301e-01,-3.839075565338134766e+00,4.764716625213623047e+00,-2.015747222900390625e+02,-9.260777282714843750e+01,-1.734960327148437500e+02,4.030399620532989502e-01,-6.667101287841796875e+01,-1.826867065429687500e+02,-2.342173099517822266e+00,7.562117004394531250e+01,3.135653114318847656e+01
6.239510178565979004e-01,1.000000000000000000e+00,5.885759592056274414e-01,-3.784899473190307617e+00,4.774435043334960938e+00,-2.015159301757812500e+02,-9.253302764892578125e+01,-1.734310607910156250e+02,4.030399620532989502e-01,-6.667101287841796875e+01,-1.826868133544921875e+02,-2.342245101928710938e+00,7.562117004394531250e+01,3.135642242431640625e+01
6.284649968147277832e-01,1.000000000000000000e+00,5.239569544792175293e-01,-3.730406522750854492e+00,4.784051895141601562e+00,-2.014569854736328125e+02,-9.245970916748046875e+01,-1.733650054931640625e+02,4.030399620532989502e-01,-6.667101287841796875e+01,-1.826867065429687500e+02,-2.342245101928710938e+00,7.562102508544921875e+01,3.135675048828125000e+01
6.319389939308166504e-01,1.000000000000000000e+00,4.593952596187591553e-01,-3.676049709320068359e+00,4.793689250946044922e+00,-2.013976745605468750e+02,-9.238629913330078125e+01,-1.732997741699218750e+02,4.030399620532989502e-01,-6.667092895507812500e+01,-1.826867065429687500e+02,-2.342245101928710938e+00,7.562117004394531250e+01,3.135697174072265625e+01
6.361050009727478027e-01,1.000000000000000000e+00,3.947188556194305420e-01,-3.621963977813720703e+00,4.803204536437988281e+00,-2.013386383056640625e+02,-9.231213378906250000e+01,-1.732337799072265625e+02,4.030399620532989502e-01,-6.667101287841796875e+01,-1.826867065429687500e+02,-2.342029571533203125e+00,7.562117004394531250e+01,3.135697174072265625e+01
6.405959725379943848e-01,1.000000000000000000e+00,3.302433192729949951e-01,-3.567720174789428711e+00,4.812577247619628906e+00,-2.012788543701171875e+02,-9.223786926269531250e+01,-1.731673889160156250e+02,4.030399620532989502e-01,-6.667111206054687500e+01,-1.826867065429687500e+02,-2.342245101928710938e+00,7.562117004394531250e+01,3.135697174072265625e+01
6.440399885177612305e-01,1.000000000000000000e+00,2.653946280479431152e-01,-3.513566732406616211e+00,4.821929931640625000e+00,-2.012201690673828125e+02,-9.216445159912109375e+01,-1.731024932861328125e+02,4.030399620532989502e-01,-6.667092895507812500e+01,-1.826867065429687500e+02,-2.342173099517822266e+00,7.562117004394531250e+01,3.135675048828125000e+01
6.481660008430480957e-01,1.000000000000000000e+00,2.006607651710510254e-01,-3.459390640258789062e+00,4.831425189971923828e+00,-2.011611175537109375e+02,-9.209087371826171875e+01,-1.730368347167968750e+02,4.030399620532989502e-01,-6.667101287841796875e+01,-1.826867065429687500e+02,-2.342173099517822266e+00,7.562117004394531250e+01,3.135675048828125000e+01
6.525930166244506836e-01,1.000000000000000000e+00,1.359843015670776367e-01,-3.405463695526123047e+00,4.840899467468261719e+00,-2.011019134521484375e+02,-9.201676177978515625e+01,-1.729704437255859375e+02,4.030399620532989502e-01,-6.667092895507812500e+01,-1.826867065429687500e+02,-2.342245101928710938e+00,7.562117004394531250e+01,3.135653114318847656e+01
6.559709906578063965e-01,1.000000000000000000e+00,7.110690325498580933e-02,-3.351197004318237305e+00,4.850232124328613281e+00,-2.010427093505859375e+02,-9.194249725341796875e+01,-1.729051971435546875e+02,4.030399620532989502e-01,-6.667111206054687500e+01,-1.826867065429687500e+02,-2.342173099517822266e+00,7.562124633789062500e+01,3.135642242431640625e+01
6.600279808044433594e-01,1.000000000000000000e+00,6.344329565763473511e-03,-3.297043561935424805e+00,4.859665870666503906e+00,-2.009834594726562500e+02,-9.186859893798828125e+01,-1.728389434814453125e+02,4.030399620532989502e-01,-6.667101287841796875e+01,-1.826867065429687500e+02,-2.342245101928710938e+00,7.562117004394531250e+01,3.135653114318847656e+01
6.647830009460449219e-01,1.000000000000000000e+00,-5.850436538457870483e-02,-3.242777109146118164e+00,4.868896484375000000e+00,-2.009244537353515625e+02,-9.179523468017578125e+01,-1.727729644775390625e+02,4.030399620532989502e-01,-6.667092895507812500e+01,-1.826867065429687500e+02,-2.342245101928710938e+00,7.562117004394531250e+01,3.135653114318847656e+01
6.680700182914733887e-01,1.000000000000000000e+00,-1.230372935533523560e-01,-3.188420057296752930e+00,4.878391265869140625e+00,-2.008651428222656250e+02,-9.172085571289062500e+01,-1.727079315185546875e+02,4.030399620532989502e-01,-6.667101287841796875e+01,-1.826867065429687500e+02,-2.342173099517822266e+00,7.562117004394531250e+01,3.135675048828125000e+01
6.721969842910766602e-01,1.000000000000000000e+00,-1.878572851419448853e-01,-3.134062767028808594e+00,4.887947559356689453e+00,-2.008064117431640625e+02,-9.164707183837890625e+01,-1.726413421630859375e+02,4.030399620532989502e-01,-6.667101287841796875e+01,-1.826867065429687500e+02,-2.342173099517822266e+00,7.562117004394531250e+01,3.135675048828125000e+01
6.779440045356750488e-01,1.000000000000000000e+00,-3.176981806755065918e-01,-3.025665521621704102e+00,4.907038688659667969e+00,-2.006874694824218750e+02,-9.149996948242187500e+01,-1.725106506347656250e+02,4.030399620532989502e-01,-6.667101287841796875e+01,-1.826867065429687500e+02,-2.342245101928710938e+00,7.562117004394531250e+01,3.135697174072265625e+01
6.803699731826782227e-01,1.000000000000000000e+00,-3.823746740818023682e-01,-2.971512317657470703e+00,4.916594982147216797e+00,-2.006290130615234375e+02,-9.142580413818359375e+01,-1.724441986083984375e+02,4.030399620532989502e-01,-6.667101287841796875e+01,-1.826867065429687500e+02,-2.342245101928710938e+00,7.562124633789062500e+01,3.135697174072265625e+01
6.840919852256774902e-01,1.000000000000000000e+00,-3.823746740818023682e-01,-2.971512317657470703e+00,4.916594982147216797e+00,-2.006290130615234375e+02,-9.142580413818359375e+01,-1.724441986083984375e+02,4.030399620532989502e-01,-6.667101287841796875e+01,-1.826867065429687500e+02,-2.342245101928710938e+00,7.562124633789062500e+01,3.135697174072265625e+01
6.895130276679992676e-01,1.000000000000000000e+00,-4.470798373222351074e-01,-2.917200326919555664e+00,4.925906658172607422e+00,-2.005697479248046875e+02,-9.135207366943359375e+01,-1.723788757324218750e+02,4.030399620532989502e-01,-6.667101287841796875e+01,-1.826867065429687500e+02,-2.342245101928710938e+00,7.562117004394531250e+01,3.135675048828125000e+01
6.923530101776123047e-01,1.000000000000000000e+00,-5.116989016532897949e-01,-2.862956523895263672e+00,4.935279846191406250e+00,-2.005110778808593750e+02,-9.127833557128906250e+01,-1.723132934570312500e+02,4.030399620532989502e-01,-6.667111206054687500e+01,-1.826867065429687500e+02,-2.342245101928710938e+00,7.562117004394531250e+01,3.135675048828125000e+01
6.962980031967163086e-01,1.000000000000000000e+00,-5.764614343643188477e-01,-2.808689832687377930e+00,4.944856166839599609e+00,-2.004517059326171875e+02,-9.120518493652343750e+01,-1.722473907470703125e+02,4.030399620532989502e-01,-6.667101287841796875e+01,-1.826867065429687500e+02,-2.342173099517822266e+00,7.562117004394531250e+01,3.135675048828125000e+01
6.989319920539855957e-01,1.000000000000000000e+00,-6.415684819221496582e-01,-2.754355669021606445e+00,4.954391956329345703e+00,-2.003921966552734375e+02,-9.113113403320312500e+01,-1.721822204589843750e+02,4.030399620532989502e-01,-6.667101287841796875e+01,-1.826867065429687500e+02,-2.342173099517822266e+00,7.562117004394531250e+01,3.135653114318847656e+01
7.042719721794128418e-01,1.000000000000000000e+00,-7.066181302070617676e-01,-2.700315237045288086e+00,4.963927745819091797e+00,-2.003336791992187500e+02,-9.105771636962890625e+01,-1.721159667968750000e+02,4.030399620532989502e-01,-6.667111206054687500e+01,-1.826867065429687500e+02,-2.342173099517822266e+00,7.562117004394531250e+01,3.135675048828125000e+01
7.069079875946044922e-01,1.000000000000000000e+00,-7.714955210685729980e-01,-2.646184682846069336e+00,4.973300457000732422e+00,-2.002743530273437500e+02,-9.098387145996093750e+01,-1.720498962402343750e+02,4.030399620532989502e-01,-6.667101287841796875e+01,-1.826867065429687500e+02,-2.342173099517822266e+00,7.562117004394531250e+01,3.135675048828125000e+01
7.109090089797973633e-01,1.000000000000000000e+00,-8.363729715347290039e-01,-2.591714143753051758e+00,4.982571601867675781e+00,-2.002155303955078125e+02,-9.091013336181640625e+01,-1.719850616455078125e+02,4.030399620532989502e-01,-6.667101287841796875e+01,-1.826867065429687500e+02,-2.342245101928710938e+00,7.562124633789062500e+01,3.135675048828125000e+01
7.163239717483520508e-01,1.000000000000000000e+00,-9.011929631233215332e-01,-2.537357330322265625e+00,4.992127895355224609e+00,-2.001557922363281250e+02,-9.083596801757812500e+01,-1.719188842773437500e+02,4.030399620532989502e-01,-6.667101287841796875e+01,-1.826867065429687500e+02,-2.342173099517822266e+00,7.562117004394531250e+01,3.135697174072265625e+01
7.189210057258605957e-01,1.000000000000000000e+00,-9.660990238189697266e-01,-2.482773780822753906e+00,5.001805782318115234e+00,-2.000965270996093750e+02,-9.076271820068359375e+01,-1.718530273437500000e+02,4.030399620532989502e-01,-6.667092895507812500e+01,-1.826867065429687500e+02,-2.342245101928710938e+00,7.562117004394531250e+01,3.135675048828125000e+01
7.229040265083312988e-01,1.000000000000000000e+00,-1.030890345573425293e+00,-2.428597688674926758e+00,5.011503696441650391e+00,-2.000382080078125000e+02,-9.068945312500000000e+01,-1.717873840332031250e+02,4.030399620532989502e-01,-6.667101287841796875e+01,-1.826867065429687500e+02,-2.342173099517822266e+00,7.562124633789062500e+01,3.135675048828125000e+01
7.268760204315185547e-01,1.000000000000000000e+00,-1.095882534980773926e+00,-2.374240875244140625e+00,5.020998954772949219e+00,-1.999788513183593750e+02,-9.061593627929687500e+01,-1.717216033935546875e+02,4.030399620532989502e-01,-6.667101287841796875e+01,-1.826868133544921875e+02,-2.342245101928710938e+00,7.562117004394531250e+01,3.135653114318847656e+01
7.309120297431945801e-01,1.000000000000000000e+00,-1.160587668418884277e+00,-2.319996833801269531e+00,5.030371665954589844e+00,-1.999197998046875000e+02,-9.054177093505859375e+01,-1.716560211181640625e+02,4.030399620532989502e-01,-6.667101287841796875e+01,-1.826867065429687500e+02,-2.342029571533203125e+00,7.562117004394531250e+01,3.135675048828125000e+01
7.350029945373535156e-01,1.000000000000000000e+00,-1.225206851959228516e+00,-2.265639781951904297e+00,5.039663314819335938e+00,-1.998601226806640625e+02,-9.046829986572265625e+01,-1.715907897949218750e+02,4.030399620532989502e-01,-6.667101287841796875e+01,-1.826867065429687500e+02,-2.342173099517822266e+00,7.562117004394531250e+01,3.135675048828125000e+01
7.407000064849853516e-01,1.000000000000000000e+00,-1.290026783943176270e+00,-2.211169719696044922e+00,5.049036502838134766e+00,-1.998011932373046875e+02,-9.039499664306640625e+01,-1.715244598388671875e+02,4.030399620532989502e-01,-6.667101287841796875e+01,-1.826867065429687500e+02,-2.342245101928710938e+00,7.562117004394531250e+01,3.135653114318847656e+01
7.446799874305725098e-01,1.000000000000000000e+00,-1.354588389396667480e+00,-2.156970739364624023e+00,5.058409214019775391e+00,-1.997423400878906250e+02,-9.032146453857421875e+01,-1.714585418701171875e+02,4.030399620532989502e-01,-6.667101287841796875e+01,-1.826867065429687500e+02,-2.342173099517822266e+00,7.562117004394531250e+01,3.135675048828125000e+01
7.486799955368041992e-01,1.000000000000000000e+00,-1.419236183166503906e+00,-2.102591276168823242e+00,5.067883968353271484e+00,-1.996829833984375000e+02,-9.024698638916015625e+01,-1.713930206298828125e+02,4.030399620532989502e-01,-6.667101287841796875e+01,-1.826867065429687500e+02,-2.342245101928710938e+00,7.562117004394531250e+01,3.135675048828125000e+01
7.525320053100585938e-01,1.000000000000000000e+00,-1.483826518058776855e+00,-2.048483133316040039e+00,5.077460289001464844e+00,-1.996241455078125000e+02,-9.017304229736328125e+01,-1.713277130126953125e+02,4.030399620532989502e-01,-6.667101287841796875e+01,-1.826867065429687500e+02,-2.342173099517822266e+00,7.562124633789062500e+01,3.135653114318847656e+01
7.568600177764892578e-01,1.000000000000000000e+00,-1.548502922058105469e+00,-1.994420170783996582e+00,5.086751937866210938e+00,-1.995646820068359375e+02,-9.009956359863281250e+01,-1.712624206542968750e+02,4.030399620532989502e-01,-6.667101287841796875e+01,-1.826867065429687500e+02,-2.342173099517822266e+00,7.562117004394531250e+01,3.135653114318847656e+01
7.626579999923706055e-01,1.000000000000000000e+00,-1.613093256950378418e+00,-1.940244197845458984e+00,5.096084117889404297e+00,-1.995059509277343750e+02,-9.002593994140625000e+01,-1.711967010498046875e+02,4.030399620532989502e-01,-6.667101287841796875e+01,-1.826867065429687500e+02,-2.342245101928710938e+00,7.562117004394531250e+01,3.135653114318847656e+01
7.651529908180236816e-01,1.000000000000000000e+00,-1.742245197296142578e+00,-1.831801533699035645e+00,5.115297794342041016e+00,-1.993873291015625000e+02,-8.987799072265625000e+01,-1.710652008056640625e+02,4.030399620532989502e-01,-6.667101287841796875e+01,-1.826867065429687500e+02,-2.342245101928710938e+00,7.562117004394531250e+01,3.135675048828125000e+01
7.668709754943847656e-01,1.000000000000000000e+00,-1.742245197296142578e+00,-1.831801533699035645e+00,5.115297794342041016e+00,-1.993873291015625000e+02,-8.987799072265625000e+01,-1.710652008056640625e+02,4.030399620532989502e-01,-6.667101287841796875e+01,-1.826867065429687500e+02,-2.342245101928710938e+00,7.562117004394531250e+01,3.135675048828125000e+01
7.709429860115051270e-01,1.000000000000000000e+00,-1.806864261627197266e+00,-1.777602910995483398e+00,5.124975681304931641e+00,-1.993280639648437500e+02,-8.980425262451171875e+01,-1.709989318847656250e+02,4.030399620532989502e-01,-6.667101287841796875e+01,-1.826867065429687500e+02,-2.342173099517822266e+00,7.562117004394531250e+01,3.135675048828125000e+01
7.748749852180480957e-01,1.000000000000000000e+00,-1.871540784835815430e+00,-1.723223209381103516e+00,5.134490966796875000e+00,-1.992688598632812500e+02,-8.973051452636718750e+01,-1.709324188232421875e+02,4.030399620532989502e-01,-6.667101287841796875e+01,-1.826867065429687500e+02,-2.342173099517822266e+00,7.562117004394531250e+01,3.135675048828125000e+01
7.810189723968505859e-01,1.000000000000000000e+00,-1.935987472534179688e+00,-1.668820858001708984e+00,5.143823146820068359e+00,-1.992101287841796875e+02,-8.965598297119140625e+01,-1.708676452636718750e+02,4.030399620532989502e-01,-6.667101287841796875e+01,-1.826867065429687500e+02,-2.342245101928710938e+00,7.562117004394531250e+01,3.135697174072265625e+01
7.828890085220336914e-01,1.000000000000000000e+00,-2.000319480895996094e+00,-1.614576935768127441e+00,5.153196334838867188e+00,-1.991505584716796875e+02,-8.958283233642578125e+01,-1.708020172119140625e+02,4.030399620532989502e-01,-6.667101287841796875e+01,-1.826867065429687500e+02,-2.342245101928710938e+00,7.562117004394531250e+01,3.135675048828125000e+01
7.892649769783020020e-01,1.000000000000000000e+00,-2.064795017242431641e+00,-1.560468792915344238e+00,5.162691116333007812e+00,-1.990916137695312500e+02,-8.950903320312500000e+01,-1.707358856201171875e+02,4.030399620532989502e-01,-6.667101287841796875e+01,-1.826867065429687500e+02,-2.342173099517822266e+00,7.562117004394531250e+01,3.135653114318847656e+01
7.908800244331359863e-01,1.000000000000000000e+00,-2.129328012466430664e+00,-1.506179690361022949e+00,5.172124862670898438e+00,-1.990325622558593750e+02,-8.943534851074218750e+01,-1.706701049804687500e+02,4.030399620532989502e-01,-6.667101287841796875e+01,-1.826867065429687500e+02,-2.342173099517822266e+00,7.562117004394531250e+01,3.135675048828125000e+01
7.949119806289672852e-01,1.000000000000000000e+00,-2.193803310394287109e+00,-1.451867818832397461e+00,5.181477546691894531e+00,-1.989732513427734375e+02,-8.936029052734375000e+01,-1.706037750244140625e+02,4.030399620532989502e-01,-6.667092895507812500e+01,-1.826867065429687500e+02,-2.342173099517822266e+00,7.562117004394531250e+01,3.135675048828125000e+01
7.989779710769653320e-01,1.000000000000000000e+00,-2.258480072021484375e+00,-1.397533297538757324e+00,5.190809726715087891e+00,-1.989145202636718750e+02,-8.928675842285156250e+01,-1.705380706787109375e+02,4.030399620532989502e-01,-6.667092895507812500e+01,-1.826868133544921875e+02,-2.342173099517822266e+00,7.562117004394531250e+01,3.135653114318847656e+01
8.029770255088806152e-01,1.000000000000000000e+00,-2.323041439056396484e+00,-1.343266844749450684e+00,5.200121879577636719e+00,-1.988548431396484375e+02,-8.921302795410156250e+01,-1.704733734130859375e+02,4.030399620532989502e-01,-6.667092895507812500e+01,-1.826867065429687500e+02,-2.342173099517822266e+00,7.562124633789062500e+01,3.135653114318847656e+01
8.068720102310180664e-01,1.000000000000000000e+00,-2.387459516525268555e+00,-1.289090752601623535e+00,5.209556102752685547e+00,-1.987958984375000000e+02,-8.913907623291015625e+01,-1.704067077636718750e+02,4.030399620532989502e-01,-6.667101287841796875e+01,-1.826867065429687500e+02,-2.342173099517822266e+00,7.562124633789062500e+01,3.135653114318847656e+01
8.128629922866821289e-01,1.000000000000000000e+00,-2.451963901519775391e+00,-1.235073089599609375e+00,5.219213485717773438e+00,-1.987368621826171875e+02,-8.906406402587890625e+01,-1.703410491943359375e+02,4.030399620532989502e-01,-6.667101287841796875e+01,-1.826867065429687500e+02,-2.342245101928710938e+00,7.562117004394531250e+01,3.135675048828125000e+01
8.158699870109558105e-01,1.000000000000000000e+00,-2.516783952713012695e+00,-1.181032896041870117e+00,5.228728771209716797e+00,-1.986774902343750000e+02,-8.899053192138671875e+01,-1.702752685546875000e+02,4.030399620532989502e-01,-6.667101287841796875e+01,-1.826867065429687500e+02,-2.342245101928710938e+00,7.562124633789062500e+01,3.135675048828125000e+01
8.188970088958740234e-01,1.000000000000000000e+00,-2.581689834594726562e+00,-1.126653313636779785e+00,5.238406658172607422e+00,-1.986189727783203125e+02,-8.891706848144531250e+01,-1.702093505859375000e+02,4.030399620532989502e-01,-6.667092895507812500e+01,-1.826867065429687500e+02,-2.342245101928710938e+00,7.562117004394531250e+01,3.135675048828125000e+01
8.251230120658874512e-01,1.000000000000000000e+00,-2.646624803543090820e+00,-1.072228312492370605e+00,5.247860908508300781e+00,-1.985592803955078125e+02,-8.884327697753906250e+01,-1.701443786621093750e+02,4.030399620532989502e-01,-6.667101287841796875e+01,-1.826867065429687500e+02,-2.342245101928710938e+00,7.562117004394531250e+01,3.135675048828125000e+01
8.268880248069763184e-01,1.000000000000000000e+00,-2.711329936981201172e+00,-1.017893791198730469e+00,5.257193088531494141e+00,-1.985003051757812500e+02,-8.876890563964843750e+01,-1.700785980224609375e+02,4.030399620532989502e-01,-6.667101287841796875e+01,-1.826867065429687500e+02,-2.342245101928710938e+00,7.562117004394531250e+01,3.135653114318847656e+01
8.347979784011840820e-01,1.000000000000000000e+00,-2.711329936981201172e+00,-1.017893791198730469e+00,5.257193088531494141e+00,-1.985003051757812500e+02,-8.876890563964843750e+01,-1.700785980224609375e+02,4.030399620532989502e-01,-6.667101287841796875e+01,-1.826867065429687500e+02,-2.342245101928710938e+00,7.562117004394531250e+01,3.135653114318847656e+01
8.374969959259033203e-01,1.000000000000000000e+00,-2.841056108474731445e+00,-9.092928767204284668e-01,5.276203155517578125e+00,-1.983816680908203125e+02,-8.862196350097656250e+01,-1.699474487304687500e+02,4.030399620532989502e-01,-6.667101287841796875e+01,-1.826867065429687500e+02,-2.342245101928710938e+00,7.562117004394531250e+01,3.135697174072265625e+01
8.399299979209899902e-01,1.000000000000000000e+00,-2.905789852142333984e+00,-8.549358248710632324e-01,5.285698413848876953e+00,-1.983229522705078125e+02,-8.854827880859375000e+01,-1.698809204101562500e+02,4.030399620532989502e-01,-6.667101287841796875e+01,-1.826867065429687500e+02,-2.342245101928710938e+00,7.562117004394531250e+01,3.135675048828125000e+01
8.429170250892639160e-01,1.000000000000000000e+00,-2.970839500427246094e+00,-8.008276224136352539e-01,5.295234203338623047e+00,-1.982634124755859375e+02,-8.847380065917968750e+01,-1.698146667480468750e+02,4.030399620532989502e-01,-6.667101287841796875e+01,-1.826867065429687500e+02,-2.342245101928710938e+00,7.562102508544921875e+01,3.135697174072265625e+01
8.494729995727539062e-01,1.000000000000000000e+00,-2.970839500427246094e+00,-8.008276224136352539e-01,5.295234203338623047e+00,-1.982634124755859375e+02,-8.847380065917968750e+01,-1.698146667480468750e+02,4.030399620532989502e-01,-6.667101287841796875e+01,-1.826867065429687500e+02,-2.342245101928710938e+00,7.562102508544921875e+01,3.135697174072265625e+01
8.518930077552795410e-01,1.000000000000000000e+00,-3.100422143936157227e+00,-6.922040581703186035e-01,5.313735961914062500e+00,-1.981449584960937500e+02,-8.832648468017578125e+01,-1.696832885742187500e+02,4.030399620532989502e-01,-6.667101287841796875e+01,-1.826867065429687500e+02,-2.342173099517822266e+00,7.562117004394531250e+01,3.135697174072265625e+01
8.549039959907531738e-01,1.000000000000000000e+00,-3.165385723114013672e+00,-6.379374861717224121e-01,5.323169708251953125e+00,-1.980859069824218750e+02,-8.825258636474609375e+01,-1.696180572509765625e+02,4.030399620532989502e-01,-6.667092895507812500e+01,-1.826867065429687500e+02,-2.342245101928710938e+00,7.562117004394531250e+01,3.135675048828125000e+01
8.629469871520996094e-01,1.000000000000000000e+00,-3.165385723114013672e+00,-6.379374861717224121e-01,5.323169708251953125e+00,-1.980859069824218750e+02,-8.825258636474609375e+01,-1.696180572509765625e+02,4.030399620532989502e-01,-6.667092895507812500e+01,-1.826867065429687500e+02,-2.342245101928710938e+00,7.562117004394531250e+01,3.135675048828125000e+01
8.654459714889526367e-01,1.000000000000000000e+00,-3.295111656188964844e+00,-5.296307206153869629e-01,5.342648029327392578e+00,-1.979678649902343750e+02,-8.810469055175781250e+01,-1.694860992431640625e+02,4.030399620532989502e-01,-6.667101287841796875e+01,-1.826867065429687500e+02,-2.342245101928710938e+00,7.562117004394531250e+01,3.135653114318847656e+01
8.679410219192504883e-01,1.000000000000000000e+00,-3.359989166259765625e+00,-4.754772782325744629e-01,5.352244377136230469e+00,-1.979089202880859375e+02,-8.803143310546875000e+01,-1.694205017089843750e+02,4.030399620532989502e-01,-6.667101287841796875e+01,-1.826867065429687500e+02,-2.342173099517822266e+00,7.562117004394531250e+01,3.135675048828125000e+01
8.709669709205627441e-01,1.000000000000000000e+00,-3.424866437911987305e+00,-4.215728044509887695e-01,5.361638069152832031e+00,-1.978493957519531250e+02,-8.795806884765625000e+01,-1.693558197021484375e+02,4.030399620532989502e-01,-6.667101287841796875e+01,-1.826867065429687500e+02,-2.342173099517822266e+00,7.562117004394531250e+01,3.135675048828125000e+01
8.759170174598693848e-01,1.000000000000000000e+00,-3.424866437911987305e+00,-4.215728044509887695e-01,5.361638069152832031e+00,-1.978493957519531250e+02,-8.795806884765625000e+01,-1.693558197021484375e+02,4.030399620532989502e-01,-6.667101287841796875e+01,-1.826867065429687500e+02,-2.342173099517822266e+00,7.562117004394531250e+01,3.135675048828125000e+01
8.788729906082153320e-01,1.000000000000000000e+00,-3.554621219635009766e+00,-3.130397200584411621e-01,5.380160331726074219e+00,-1.977317810058593750e+02,-8.781022644042968750e+01,-1.692239074707031250e+02,4.030399620532989502e-01,-6.667101287841796875e+01,-1.826867065429687500e+02,-2.342245101928710938e+00,7.562117004394531250e+01,3.135675048828125000e+01
8.839420080184936523e-01,1.000000000000000000e+00,-3.554621219635009766e+00,-3.130397200584411621e-01,5.380160331726074219e+00,-1.977317810058593750e+02,-8.781022644042968750e+01,-1.692239074707031250e+02,4.030399620532989502e-01,-6.667101287841796875e+01,-1.826867065429687500e+02,-2.342245101928710938e+00,7.562117004394531250e+01,3.135675048828125000e+01
8.868809938430786133e-01,1.000000000000000000e+00,-3.684376001358032227e+00,-2.043482214212417603e-01,5.399129867553710938e+00,-1.976132049560546875e+02,-8.766312408447265625e+01,-1.690924072265625000e+02,4.030399620532989502e-01,-6.667101287841796875e+01,-1.826867065429687500e+02,-2.342173099517822266e+00,7.562117004394531250e+01,3.135675048828125000e+01
8.919950127601623535e-01,1.000000000000000000e+00,-3.684376001358032227e+00,-2.043482214212417603e-01,5.399129867553710938e+00,-1.976132049560546875e+02,-8.766312408447265625e+01,-1.690924072265625000e+02,4.030399620532989502e-01,-6.667101287841796875e+01,-1.826867065429687500e+02,-2.342173099517822266e+00,7.562117004394531250e+01,3.135675048828125000e+01
8.949530124664306641e-01,1.000000000000000000e+00,-3.813843965530395508e+00,-9.601878374814987183e-02,5.417855262756347656e+00,-1.974949035644531250e+02,-8.751559448242187500e+01,-1.689618682861328125e+02,4.030399620532989502e-01,-6.667101287841796875e+01,-1.826867065429687500e+02,-2.342173099517822266e+00,7.562117004394531250e+01,3.135697174072265625e+01
8.999279737472534180e-01,1.000000000000000000e+00,-3.813843965530395508e+00,-9.601878374814987183e-02,5.417855262756347656e+00,-1.974949035644531250e+02,-8.751559448242187500e+01,-1.689618682861328125e+02,4.030399620532989502e-01,-6.667101287841796875e+01,-1.826867065429687500e+02,-2.342173099517822266e+00,7.562117004394531250e+01,3.135697174072265625e+01
9.029009938240051270e-01,1.000000000000000000e+00,-3.943168163299560547e+00,1.253694016486406326e-02,5.436702728271484375e+00,-1.973766021728515625e+02,-8.736748504638671875e+01,-1.688309173583984375e+02,4.030399620532989502e-01,-6.667101287841796875e+01,-1.826867065429687500e+02,-2.342173099517822266e+00,7.562117004394531250e+01,3.135675048828125000e+01
9.079269766807556152e-01,1.000000000000000000e+00,-3.943168163299560547e+00,1.253694016486406326e-02,5.436702728271484375e+00,-1.973766021728515625e+02,-8.736748504638671875e+01,-1.688309173583984375e+02,4.030399620532989502e-01,-6.667101287841796875e+01,-1.826867065429687500e+02,-2.342173099517822266e+00,7.562117004394531250e+01,3.135675048828125000e+01
9.108870029449462891e-01,1.000000000000000000e+00,-4.072405815124511719e+00,1.210247799754142761e-01,5.456180572509765625e+00,-1.972581939697265625e+02,-8.722060394287109375e+01,-1.686983184814453125e+02,4.030399620532989502e-01,-6.667101287841796875e+01,-1.826867065429687500e+02,-2.342245101928710938e+00,7.562124633789062500e+01,3.135653114318847656e+01
9.159880280494689941e-01,1.000000000000000000e+00,-4.072405815124511719e+00,1.210247799754142761e-01,5.456180572509765625e+00,-1.972581939697265625e+02,-8.722060394287109375e+01,-1.686983184814453125e+02,4.030399620532989502e-01,-6.667101287841796875e+01,-1.826867065429687500e+02,-2.342245101928710938e+00,7.562124633789062500e+01,3.135653114318847656e+01
9.189559817314147949e-01,1.000000000000000000e+00,-4.201500892639160156e+00,2.293089628219604492e-01,5.475130081176757812e+00,-1.971401977539062500e+02,-8.707296752929687500e+01,-1.685673065185546875e+02,4.030399620532989502e-01,-6.667101287841796875e+01,-1.826867065429687500e+02,-2.342173099517822266e+00,7.562117004394531250e+01,3.135653114318847656e+01
9.239770174026489258e-01,1.000000000000000000e+00,-4.201500892639160156e+00,2.293089628219604492e-01,5.475130081176757812e+00,-1.971401977539062500e+02,-8.707296752929687500e+01,-1.685673065185546875e+02,4.030399620532989502e-01,-6.667101287841796875e+01,-1.826867065429687500e+02,-2.342173099517822266e+00,7.562117004394531250e+01,3.135653114318847656e+01
9.269520044326782227e-01,1.000000000000000000e+00,-4.330538272857666016e+00,3.375252187252044678e-01,5.493977546691894531e+00,-1.970225677490234375e+02,-8.692602539062500000e+01,-1.684362030029296875e+02,4.030399620532989502e-01,-6.667111206054687500e+01,-1.826867065429687500e+02,-2.342173099517822266e+00,7.562117004394531250e+01,3.135675048828125000e+01
9.319080114364624023e-01,1.000000000000000000e+00,-4.330538272857666016e+00,3.375252187252044678e-01,5.493977546691894531e+00,-1.970225677490234375e+02,-8.692602539062500000e+01,-1.684362030029296875e+02,4.030399620532989502e-01,-6.667111206054687500e+01,-1.826867065429687500e+02,-2.342173099517822266e+00,7.562117004394531250e+01,3.135675048828125000e+01
9.348790049552917480e-01,1.000000000000000000e+00,-4.460148811340332031e+00,4.461488425731658936e-01,5.512906551361083984e+00,-1.969040527343750000e+02,-8.677866363525390625e+01,-1.683041076660156250e+02,4.030399620532989502e-01,-6.667101287841796875e+01,-1.826867065429687500e+02,-2.342173099517822266e+00,7.562117004394531250e+01,3.135653114318847656e+01
9.399160146713256836e-01,1.000000000000000000e+00,-4.460148811340332031e+00,4.461488425731658936e-01,5.512906551361083984e+00,-1.969040527343750000e+02,-8.677866363525390625e+01,-1.683041076660156250e+02,4.030399620532989502e-01,-6.667101287841796875e+01,-1.826867065429687500e+02,-2.342173099517822266e+00,7.562117004394531250e+01,3.135653114318847656e+01
9.438729882240295410e-01,1.000000000000000000e+00,-4.589559555053710938e+00,5.547950863838195801e-01,5.531469345092773438e+00,-1.967854461669921875e+02,-8.663055419921875000e+01,-1.681723327636718750e+02,4.030399620532989502e-01,-6.667101287841796875e+01,-1.826867065429687500e+02,-2.342173099517822266e+00,7.562102508544921875e+01,3.135675048828125000e+01
9.479619860649108887e-01,1.000000000000000000e+00,-4.654092311859130859e+00,6.090390086174011230e-01,5.540720462799072266e+00,-1.967264404296875000e+02,-8.655697631835937500e+01,-1.681073608398437500e+02,4.030399620532989502e-01,-6.667101287841796875e+01,-1.826867065429687500e+02,-2.342245101928710938e+00,7.562117004394531250e+01,3.135675048828125000e+01
9.509850144386291504e-01,1.000000000000000000e+00,-4.718539237976074219e+00,6.631697416305541992e-01,5.550296783447265625e+00,-1.966670227050781250e+02,-8.648259735107421875e+01,-1.680413208007812500e+02,4.030399620532989502e-01,-6.667101287841796875e+01,-1.826867065429687500e+02,-2.342245101928710938e+00,7.562117004394531250e+01,3.135697174072265625e+01
9.559400081634521484e-01,1.000000000000000000e+00,-4.718539237976074219e+00,6.631697416305541992e-01,5.550296783447265625e+00,-1.966670227050781250e+02,-8.648259735107421875e+01,-1.680413208007812500e+02,4.030399620532989502e-01,-6.667101287841796875e+01,-1.826867065429687500e+02,-2.342245101928710938e+00,7.562117004394531250e+01,3.135697174072265625e+01
9.610099792480468750e-01,1.000000000000000000e+00,-4.783101081848144531e+00,7.175495028495788574e-01,5.559872627258300781e+00,-1.966083526611328125e+02,-8.640923309326171875e+01,-1.679753417968750000e+02,4.030399620532989502e-01,-6.667101287841796875e+01,-1.826867065429687500e+02,-2.342245101928710938e+00,7.562124633789062500e+01,3.135675048828125000e+01
9.636639952659606934e-01,1.000000000000000000e+00,-4.912281513214111328e+00,8.260599374771118164e-01,5.579126834869384766e+00,-1.964901428222656250e+02,-8.626171112060546875e+01,-1.678443756103515625e+02,4.030399620532989502e-01,-6.667101287841796875e+01,-1.826867065429687500e+02,-2.342316627502441406e+00,7.562117004394531250e+01,3.135675048828125000e+01
9.679269790649414062e-01,1.000000000000000000e+00,-4.912281513214111328e+00,8.260599374771118164e-01,5.579126834869384766e+00,-1.964901428222656250e+02,-8.626171112060546875e+01,-1.678443756103515625e+02,4.030399620532989502e-01,-6.667101287841796875e+01,-1.826867065429687500e+02,-2.342316627502441406e+00,7.562117004394531250e+01,3.135675048828125000e+01
9.729430079460144043e-01,1.000000000000000000e+00,-4.976756572723388672e+00,8.803717494010925293e-01,5.588540554046630859e+00,-1.964309997558593750e+02,-8.618711853027343750e+01,-1.677782592773437500e+02,4.030399620532989502e-01,-6.667101287841796875e+01,-1.826867065429687500e+02,-2.342173099517822266e+00,7.562117004394531250e+01,3.135653114318847656e+01
9.755480289459228516e-01,1.000000000000000000e+00,-5.105908870697021484e+00,9.885653853416442871e-01,5.607408523559570312e+00,-1.963127899169921875e+02,-8.604044342041015625e+01,-1.676468353271484375e+02,4.030399620532989502e-01,-6.667101287841796875e+01,-1.826867065429687500e+02,-2.342245101928710938e+00,7.562117004394531250e+01,3.135653114318847656e+01
9.800159931182861328e-01,1.000000000000000000e+00,-5.105908870697021484e+00,9.885653853416442871e-01,5.607408523559570312e+00,-1.963127899169921875e+02,-8.604044342041015625e+01,-1.676468353271484375e+02,4.030399620532989502e-01,-6.667101287841796875e+01,-1.826867065429687500e+02,-2.342245101928710938e+00,7.562117004394531250e+01,3.135653114318847656e+01
9.839370250701904297e-01,1.000000000000000000e+00,-5.170470714569091797e+00,1.042741417884826660e+00,5.617045879364013672e+00,-1.962535858154296875e+02,-8.596660614013671875e+01,-1.675810394287109375e+02,4.030399620532989502e-01,-6.667101287841796875e+01,-1.826867065429687500e+02,-2.342245101928710938e+00,7.562124633789062500e+01,3.135675048828125000e+01
9.879519939422607422e-01,1.000000000000000000e+00,-5.235261917114257812e+00,1.097007989883422852e+00,5.626581192016601562e+00,-1.961945343017578125e+02,-8.589201354980468750e+01,-1.675158081054687500e+02,4.030399620532989502e-01,-6.667111206054687500e+01,-1.826867065429687500e+02,-2.342173099517822266e+00,7.562102508544921875e+01,3.135653114318847656e+01
9.919440150260925293e-01,1.000000000000000000e+00,-5.299851894378662109e+00,1.151297092437744141e+00,5.635933876037597656e+00,-1.961354980468750000e+02,-8.581828308105468750e+01,-1.674496917724609375e+02,4.030399620532989502e-01,-6.667101287841796875e+01,-1.826867065429687500e+02,-2.342245101928710938e+00,7.562117004394531250e+01,3.135675048828125000e+01
9.959229826927185059e-01,1.000000000000000000e+00,-5.364528656005859375e+00,1.205473184585571289e+00,5.645123958587646484e+00,-1.960763397216796875e+02,-8.574501800537109375e+01,-1.673838348388671875e+02,4.030399620532989502e-01,-6.667101287841796875e+01,-1.826867065429687500e+02,-2.342245101928710938e+00,7.562117004394531250e+01,3.135675048828125000e+01
9.999380111694335938e-01,1.000000000000000000e+00,-5.429262161254882812e+00,1.259762287139892578e+00,5.654517173767089844e+00,-1.960173492431640625e+02,-8.567107391357421875e+01,-1.673180541992187500e+02,4.030399620532989502e-01,-6.667101287841796875e+01,-1.826867065429687500e+02,-2.342173099517822266e+00,7.562117004394531250e+01,3.135675048828125000e+01
1.004124999046325684e+00,1.000000000000000000e+00,-5.493996143341064453e+00,1.314277768135070801e+00,5.664195060729980469e+00,-1.959576721191406250e+02,-8.559648132324218750e+01,-1.672519226074218750e+02,4.030399620532989502e-01,-6.667101287841796875e+01,-1.826868133544921875e+02,-2.342245101928710938e+00,7.562102508544921875e+01,3.135675048828125000e+01
1.006986021995544434e+00,1.000000000000000000e+00,-5.558701515197753906e+00,1.368476390838623047e+00,5.673791885375976562e+00,-1.958987274169921875e+02,-8.552269744873046875e+01,-1.671868896484375000e+02,4.030399620532989502e-01,-6.667101287841796875e+01,-1.826867065429687500e+02,-2.342245101928710938e+00,7.562117004394531250e+01,3.135653114318847656e+01
1.011919021606445312e+00,1.000000000000000000e+00,-5.623378276824951172e+00,1.422675132751464844e+00,5.683327674865722656e+00,-1.958396759033203125e+02,-8.544964599609375000e+01,-1.671213836669921875e+02,4.030399620532989502e-01,-6.667101287841796875e+01,-1.826867065429687500e+02,-2.342245101928710938e+00,7.562117004394531250e+01,3.135653114318847656e+01
1.015992045402526855e+00,1.000000000000000000e+00,-5.688025951385498047e+00,1.476760625839233398e+00,5.692863464355468750e+00,-1.957804718017578125e+02,-8.537591552734375000e+01,-1.670546569824218750e+02,4.030399620532989502e-01,-6.667101287841796875e+01,-1.826867065429687500e+02,-2.342245101928710938e+00,7.562117004394531250e+01,3.135642242431640625e+01
1.019911050796508789e+00,1.000000000000000000e+00,-5.752443790435791016e+00,1.530981898307800293e+00,5.702114105224609375e+00,-1.957215881347656250e+02,-8.530170440673828125e+01,-1.669896850585937500e+02,4.030399620532989502e-01,-6.667101287841796875e+01,-1.826867065429687500e+02,-2.342173099517822266e+00,7.562117004394531250e+01,3.135675048828125000e+01
1.023921012878417969e+00,1.000000000000000000e+00,-5.817091464996337891e+00,1.585203289985656738e+00,5.711446285247802734e+00,-1.956621093750000000e+02,-8.522780609130859375e+01,-1.669238281250000000e+02,4.030399620532989502e-01,-6.667101287841796875e+01,-1.826867065429687500e+02,-2.342245101928710938e+00,7.562117004394531250e+01,3.135697174072265625e+01
1.028673052787780762e+00,1.000000000000000000e+00,-5.881882667541503906e+00,1.639379262924194336e+00,5.720839500427246094e+00,-1.956035308837890625e+02,-8.515438842773437500e+01,-1.668582458496093750e+02,4.030399620532989502e-01,-6.667101287841796875e+01,-1.826867065429687500e+02,-2.342173099517822266e+00,7.562117004394531250e+01,3.135653114318847656e+01
1.031597018241882324e+00,1.000000000000000000e+00,-6.011264324188232422e+00,1.747572898864746094e+00,5.739789009094238281e+00,-1.954851837158203125e+02,-8.500659942626953125e+01,-1.667275085449218750e+02,4.030399620532989502e-01,-6.667101287841796875e+01,-1.826867065429687500e+02,-2.342245101928710938e+00,7.562117004394531250e+01,3.135697174072265625e+01
1.035923004150390625e+00,1.000000000000000000e+00,-6.011264324188232422e+00,1.747572898864746094e+00,5.739789009094238281e+00,-1.954851837158203125e+02,-8.500659942626953125e+01,-1.667275085449218750e+02,4.030399620532989502e-01,-6.667101287841796875e+01,-1.826867065429687500e+02,-2.342245101928710938e+00,7.562117004394531250e+01,3.135697174072265625e+01
1.039981961250305176e+00,1.000000000000000000e+00,-6.076084613800048828e+00,1.801703572273254395e+00,5.749202728271484375e+00,-1.954258728027343750e+02,-8.493248748779296875e+01,-1.666611785888671875e+02,4.030399620532989502e-01,-6.667111206054687500e+01,-1.826867065429687500e+02,-2.342173099517822266e+00,7.562117004394531250e+01,3.135675048828125000e+01
1.043055057525634766e+00,1.000000000000000000e+00,-6.140674591064453125e+00,1.855879783630371094e+00,5.758473873138427734e+00,-1.953664550781250000e+02,-8.485880279541015625e+01,-1.665957946777343750e+02,4.030399620532989502e-01,-6.667092895507812500e+01,-1.826867065429687500e+02,-2.342173099517822266e+00,7.562117004394531250e+01,3.135675048828125000e+01
1.047140002250671387e+00,1.000000000000000000e+00,-6.205437183380126953e+00,1.910259485244750977e+00,5.767928123474121094e+00,-1.953077697753906250e+02,-8.478517150878906250e+01,-1.665294189453125000e+02,4.030399620532989502e-01,-6.667101287841796875e+01,-1.826867065429687500e+02,-2.342245101928710938e+00,7.562117004394531250e+01,3.135675048828125000e+01
1.052567958831787109e+00,1.000000000000000000e+00,-6.270372390747070312e+00,1.964684247970581055e+00,5.777504444122314453e+00,-1.952482604980468750e+02,-8.471084594726562500e+01,-1.664636230468750000e+02,4.030399620532989502e-01,-6.667101287841796875e+01,-1.826867065429687500e+02,-2.342173099517822266e+00,7.562117004394531250e+01,3.135675048828125000e+01
1.056956052780151367e+00,1.000000000000000000e+00,-6.335393428802490234e+00,2.018860340118408203e+00,5.787121295928955078e+00,-1.951894226074218750e+02,-8.463748168945312500e+01,-1.663987884521484375e+02,4.030399620532989502e-01,-6.667101287841796875e+01,-1.826867065429687500e+02,-2.342173099517822266e+00,7.562117004394531250e+01,3.135653114318847656e+01
1.059551000595092773e+00,1.000000000000000000e+00,-6.465004444122314453e+00,2.127167224884033203e+00,5.806111335754394531e+00,-1.950710144042968750e+02,-8.449038696289062500e+01,-1.662669525146484375e+02,4.030399620532989502e-01,-6.667101287841796875e+01,-1.826867065429687500e+02,-2.342245101928710938e+00,7.562117004394531250e+01,3.135675048828125000e+01
1.063915967941284180e+00,1.000000000000000000e+00,-6.465004444122314453e+00,2.127167224884033203e+00,5.806111335754394531e+00,-1.950710144042968750e+02,-8.449038696289062500e+01,-1.662669525146484375e+02,4.030399620532989502e-01,-6.667101287841796875e+01,-1.826867065429687500e+02,-2.342245101928710938e+00,7.562117004394531250e+01,3.135675048828125000e+01
1.067906975746154785e+00,1.000000000000000000e+00,-6.529652595520019531e+00,2.181298017501831055e+00,5.815423488616943359e+00,-1.950120086669921875e+02,-8.441590881347656250e+01,-1.662009124755859375e+02,4.030399620532989502e-01,-6.667101287841796875e+01,-1.826867065429687500e+02,-2.342173099517822266e+00,7.562117004394531250e+01,3.135675048828125000e+01
1.071292042732238770e+00,1.000000000000000000e+00,-6.594328880310058594e+00,2.235836029052734375e+00,5.824897766113281250e+00,-1.949521179199218750e+02,-8.434237670898437500e+01,-1.661344299316406250e+02,4.030399620532989502e-01,-6.667101287841796875e+01,-1.826867065429687500e+02,-2.342173099517822266e+00,7.562117004394531250e+01,3.135697174072265625e+01
1.076666951179504395e+00,1.000000000000000000e+00,-6.659091472625732422e+00,2.290034770965576172e+00,5.834494590759277344e+00,-1.948935546875000000e+02,-8.426859283447265625e+01,-1.660694732666015625e+02,4.030399620532989502e-01,-6.667092895507812500e+01,-1.826867065429687500e+02,-2.342173099517822266e+00,7.562117004394531250e+01,3.135697174072265625e+01
1.079911947250366211e+00,1.000000000000000000e+00,-6.723710536956787109e+00,2.344165563583374023e+00,5.843969345092773438e+00,-1.948344879150390625e+02,-8.419533538818359375e+01,-1.660042419433593750e+02,4.030399620532989502e-01,-6.667101287841796875e+01,-1.826867065429687500e+02,-2.342245101928710938e+00,7.562117004394531250e+01,3.135675048828125000e+01
1.083924055099487305e+00,1.000000000000000000e+00,-6.788415431976318359e+00,2.398205757141113281e+00,5.853219985961914062e+00,-1.947751464843750000e+02,-8.412080383300781250e+01,-1.659375152587890625e+02,4.030399620532989502e-01,-6.667101287841796875e+01,-1.826867065429687500e+02,-2.342173099517822266e+00,7.562117004394531250e+01,3.135675048828125000e+01
1.087982058525085449e+00,1.000000000000000000e+00,-6.853178024291992188e+00,2.452359199523925781e+00,5.862349033355712891e+00,-1.947160339355468750e+02,-8.404759979248046875e+01,-1.658724060058593750e+02,4.030399620532989502e-01,-6.667101287841796875e+01,-1.826867065429687500e+02,-2.342173099517822266e+00,7.562124633789062500e+01,3.135675048828125000e+01
1.091374039649963379e+00,1.000000000000000000e+00,-6.917653560638427734e+00,2.506512641906738281e+00,5.871620655059814453e+00,-1.946565704345703125e+02,-8.397332763671875000e+01,-1.658061370849609375e+02,4.030399620532989502e-01,-6.667101287841796875e+01,-1.826867065429687500e+02,-2.342245101928710938e+00,7.562117004394531250e+01,3.135675048828125000e+01
1.095461964607238770e+00,1.000000000000000000e+00,-6.982444763183593750e+00,2.560643196105957031e+00,5.881155967712402344e+00,-1.945981445312500000e+02,-8.389996337890625000e+01,-1.657403564453125000e+02,4.030399620532989502e-01,-6.667101287841796875e+01,-1.826867065429687500e+02,-2.342245101928710938e+00,7.562124633789062500e+01,3.135653114318847656e+01
1.100885987281799316e+00,1.000000000000000000e+00,-7.047264575958251953e+00,2.614887237548828125e+00,5.890874385833740234e+00,-1.945388793945312500e+02,-8.382575225830078125e+01,-1.656757965087890625e+02,4.030399620532989502e-01,-6.667101287841796875e+01,-1.826867065429687500e+02,-2.342029571533203125e+00,7.562117004394531250e+01,3.135653114318847656e+01
1.103935956954956055e+00,1.000000000000000000e+00,-7.112027168273925781e+00,2.669108629226684570e+00,5.900450706481933594e+00,-1.944799041748046875e+02,-8.375233459472656250e+01,-1.656096038818359375e+02,4.030399620532989502e-01,-6.667101287841796875e+01,-1.826867065429687500e+02,-2.342173099517822266e+00,7.562117004394531250e+01,3.135653114318847656e+01
1.108070015907287598e+00,1.000000000000000000e+00,-7.176732540130615234e+00,2.723488330841064453e+00,5.909945964813232422e+00,-1.944203186035156250e+02,-8.367897033691406250e+01,-1.655436859130859375e+02,4.030399620532989502e-01,-6.667092895507812500e+01,-1.826867065429687500e+02,-2.342245101928710938e+00,7.562117004394531250e+01,3.135675048828125000e+01
