rpiRobotics/ARM-21-02-F-19-Robot-Motion-Program/data_performance_abb/curve_1/dual_arm/diffevo_pose3/grad_result/real_from_sim/sim_result/dual_iteration_10.csv
timestamp,cmd_num,J1,J2,J3,J4,J5,J6,J1_2,J2_2,J3_2,J4_2,J5_2,J6_2
0.000000000000000000e+00,-1.000000000000000000e+00,-1.942198944091796875e+01,-6.468930244445800781e+00,5.012466049194335938e+01,9.361232757568359375e+01,8.422254180908203125e+01,1.378037109375000000e+02,2.930496931076049805e+00,-3.315931701660156250e+01,-1.848410034179687500e+02,3.626099395751953125e+01,2.116215896606445312e+01,3.321526718139648438e+01
2.000000094994902611e-03,-1.000000000000000000e+00,-1.942198944091796875e+01,-6.468930244445800781e+00,5.012466049194335938e+01,9.361232757568359375e+01,8.422254180908203125e+01,1.378037109375000000e+02,2.930496931076049805e+00,-3.315931701660156250e+01,-1.848410034179687500e+02,3.626099395751953125e+01,2.116215896606445312e+01,3.321526718139648438e+01
6.000000052154064178e-03,-1.000000000000000000e+00,-1.942198944091796875e+01,-6.468930244445800781e+00,5.012466049194335938e+01,9.361232757568359375e+01,8.422254180908203125e+01,1.378037109375000000e+02,2.930496931076049805e+00,-3.315931701660156250e+01,-1.848410034179687500e+02,3.626099395751953125e+01,2.116215896606445312e+01,3.321526718139648438e+01
8.000000379979610443e-03,-1.000000000000000000e+00,-1.942198944091796875e+01,-6.468930244445800781e+00,5.012466049194335938e+01,9.361232757568359375e+01,8.422254180908203125e+01,1.378037109375000000e+02,2.930496931076049805e+00,-3.315931701660156250e+01,-1.848410034179687500e+02,3.626099395751953125e+01,2.116215896606445312e+01,3.321526718139648438e+01
1.099999994039535522e-02,-1.000000000000000000e+00,-1.942198944091796875e+01,-6.468930244445800781e+00,5.012466049194335938e+01,9.361232757568359375e+01,8.422254180908203125e+01,1.378037109375000000e+02,2.930496931076049805e+00,-3.315931701660156250e+01,-1.848410034179687500e+02,3.626099395751953125e+01,2.116215896606445312e+01,3.321526718139648438e+01
1.600000075995922089e-02,-1.000000000000000000e+00,-1.942198944091796875e+01,-6.468930244445800781e+00,5.012466049194335938e+01,9.361232757568359375e+01,8.422254180908203125e+01,1.378037109375000000e+02,2.930496931076049805e+00,-3.315931701660156250e+01,-1.848410034179687500e+02,3.626099395751953125e+01,2.116215896606445312e+01,3.321526718139648438e+01
1.999999955296516418e-02,-1.000000000000000000e+00,-1.942198944091796875e+01,-6.468930244445800781e+00,5.012466049194335938e+01,9.361232757568359375e+01,8.422254180908203125e+01,1.378037109375000000e+02,2.930496931076049805e+00,-3.315931701660156250e+01,-1.848410034179687500e+02,3.626099395751953125e+01,2.116215896606445312e+01,3.321526718139648438e+01
2.400000020861625671e-02,-1.000000000000000000e+00,-1.942198944091796875e+01,-6.468930244445800781e+00,5.012466049194335938e+01,9.361232757568359375e+01,8.422254180908203125e+01,1.378037109375000000e+02,2.930496931076049805e+00,-3.315931701660156250e+01,-1.848410034179687500e+02,3.626099395751953125e+01,2.116215896606445312e+01,3.321526718139648438e+01
2.800000086426734924e-02,-1.000000000000000000e+00,-1.942198944091796875e+01,-6.468930244445800781e+00,5.012466049194335938e+01,9.361232757568359375e+01,8.422254180908203125e+01,1.378037109375000000e+02,2.930496931076049805e+00,-3.315931701660156250e+01,-1.848410034179687500e+02,3.626099395751953125e+01,2.116215896606445312e+01,3.321526718139648438e+01
3.200000151991844177e-02,2.000000000000000000e+00,-1.942198944091796875e+01,-6.468930244445800781e+00,5.012466049194335938e+01,9.361232757568359375e+01,8.422254180908203125e+01,1.378037109375000000e+02,2.930496931076049805e+00,-3.315931701660156250e+01,-1.848410034179687500e+02,3.626099395751953125e+01,2.116215896606445312e+01,3.321526718139648438e+01
3.599999845027923584e-02,2.000000000000000000e+00,-1.942198944091796875e+01,-6.468930244445800781e+00,5.012466049194335938e+01,9.361232757568359375e+01,8.422254180908203125e+01,1.378037109375000000e+02,2.930496931076049805e+00,-3.315931701660156250e+01,-1.848410034179687500e+02,3.626099395751953125e+01,2.116215896606445312e+01,3.321526718139648438e+01
4.199999943375587463e-02,2.000000000000000000e+00,-1.942198944091796875e+01,-6.468930244445800781e+00,5.012466049194335938e+01,9.361232757568359375e+01,8.422254180908203125e+01,1.378037109375000000e+02,2.930496931076049805e+00,-3.315931701660156250e+01,-1.848410034179687500e+02,3.626099395751953125e+01,2.116215896606445312e+01,3.321526718139648438e+01
4.399999976158142090e-02,2.000000000000000000e+00,-1.942198944091796875e+01,-6.468930244445800781e+00,5.012466049194335938e+01,9.361232757568359375e+01,8.422254180908203125e+01,1.378037109375000000e+02,2.930496931076049805e+00,-3.315931701660156250e+01,-1.848410034179687500e+02,3.626099395751953125e+01,2.116215896606445312e+01,3.321526718139648438e+01
4.800000041723251343e-02,2.000000000000000000e+00,-1.942198944091796875e+01,-6.468930244445800781e+00,5.012466049194335938e+01,9.361232757568359375e+01,8.422254180908203125e+01,1.378037109375000000e+02,2.930496931076049805e+00,-3.315931701660156250e+01,-1.848410034179687500e+02,3.626099395751953125e+01,2.116215896606445312e+01,3.321526718139648438e+01
5.200000107288360596e-02,2.000000000000000000e+00,-1.942198944091796875e+01,-6.468930244445800781e+00,5.012466049194335938e+01,9.361232757568359375e+01,8.422254180908203125e+01,1.378037109375000000e+02,2.930496931076049805e+00,-3.315931701660156250e+01,-1.848410034179687500e+02,3.626099395751953125e+01,2.116215896606445312e+01,3.321526718139648438e+01
5.600000172853469849e-02,2.000000000000000000e+00,-1.942198944091796875e+01,-6.468930244445800781e+00,5.012466049194335938e+01,9.361232757568359375e+01,8.422254180908203125e+01,1.378037109375000000e+02,2.930496931076049805e+00,-3.315931701660156250e+01,-1.848410034179687500e+02,3.626099395751953125e+01,2.116215896606445312e+01,3.321526718139648438e+01
5.999999865889549255e-02,2.000000000000000000e+00,-1.942198944091796875e+01,-6.468930244445800781e+00,5.012466049194335938e+01,9.361232757568359375e+01,8.422254180908203125e+01,1.378037109375000000e+02,2.930496931076049805e+00,-3.315931701660156250e+01,-1.848410034179687500e+02,3.626099395751953125e+01,2.116215896606445312e+01,3.321526718139648438e+01
6.400000303983688354e-02,2.000000000000000000e+00,-1.942198944091796875e+01,-6.468930244445800781e+00,5.012466049194335938e+01,9.361232757568359375e+01,8.422254180908203125e+01,1.378037109375000000e+02,2.930496931076049805e+00,-3.315931701660156250e+01,-1.848410034179687500e+02,3.626099395751953125e+01,2.116215896606445312e+01,3.321526718139648438e+01
6.800000369548797607e-02,2.000000000000000000e+00,-1.942198944091796875e+01,-6.468930244445800781e+00,5.012466049194335938e+01,9.361232757568359375e+01,8.422254180908203125e+01,1.378037109375000000e+02,2.930496931076049805e+00,-3.315931701660156250e+01,-1.848410034179687500e+02,3.626099395751953125e+01,2.116215896606445312e+01,3.321526718139648438e+01
7.199999690055847168e-02,2.000000000000000000e+00,-1.942198944091796875e+01,-6.468930244445800781e+00,5.012466049194335938e+01,9.361232757568359375e+01,8.422254180908203125e+01,1.378037109375000000e+02,2.930496931076049805e+00,-3.315931701660156250e+01,-1.848410034179687500e+02,3.626099395751953125e+01,2.116215896606445312e+01,3.321526718139648438e+01
7.599999755620956421e-02,2.000000000000000000e+00,-1.942205619812011719e+01,-6.468904018402099609e+00,5.012464904785156250e+01,9.361233520507812500e+01,8.422253417968750000e+01,1.378037109375000000e+02,2.930496931076049805e+00,-3.315931701660156250e+01,-1.848410034179687500e+02,3.626099395751953125e+01,2.116215896606445312e+01,3.321526718139648438e+01
7.999999821186065674e-02,2.000000000000000000e+00,-1.942243766784667969e+01,-6.468738079071044922e+00,5.012456130981445312e+01,9.361233520507812500e+01,8.422253417968750000e+01,1.378037109375000000e+02,2.930496931076049805e+00,-3.315931701660156250e+01,-1.848410034179687500e+02,3.626099395751953125e+01,2.116215896606445312e+01,3.321526718139648438e+01
8.399999886751174927e-02,2.000000000000000000e+00,-1.942351722717285156e+01,-6.468223571777343750e+00,5.012428283691406250e+01,9.361235046386718750e+01,8.422251129150390625e+01,1.378037109375000000e+02,2.930496931076049805e+00,-3.315931701660156250e+01,-1.848410034179687500e+02,3.626099395751953125e+01,2.116215896606445312e+01,3.321526718139648438e+01
8.799999952316284180e-02,2.000000000000000000e+00,-1.942567062377929688e+01,-6.467114448547363281e+00,5.012366485595703125e+01,9.361237335205078125e+01,8.422246551513671875e+01,1.378036651611328125e+02,2.930469512939453125e+00,-3.315931701660156250e+01,-1.848409881591796875e+02,3.626099395751953125e+01,2.116216087341308594e+01,3.321526718139648438e+01
9.200000017881393433e-02,2.000000000000000000e+00,-1.942912483215332031e+01,-6.465202808380126953e+00,5.012253952026367188e+01,9.361244964599609375e+01,8.422238922119140625e+01,1.378035888671875000e+02,2.930289268493652344e+00,-3.315930557250976562e+01,-1.848409576416015625e+02,3.626099777221679688e+01,2.116217803955078125e+01,3.321526718139648438e+01
9.600000083446502686e-02,2.000000000000000000e+00,-1.943404197692871094e+01,-6.462311744689941406e+00,5.012071990966796875e+01,9.361259460449218750e+01,8.422227478027343750e+01,1.378034210205078125e+02,2.929693937301635742e+00,-3.315926742553710938e+01,-1.848408813476562500e+02,3.626100158691406250e+01,2.116223907470703125e+01,3.321526336669921875e+01
1.000000014901161194e-01,2.000000000000000000e+00,-1.944056701660156250e+01,-6.458276748657226562e+00,5.011800003051757812e+01,9.361285400390625000e+01,8.422214508056640625e+01,1.378031005859375000e+02,2.928328037261962891e+00,-3.315917968750000000e+01,-1.848406829833984375e+02,3.626102066040039062e+01,2.116240119934082031e+01,3.321524047851562500e+01
1.040000021457672119e-01,2.000000000000000000e+00,-1.944873428344726562e+01,-6.452998161315917969e+00,5.011415481567382812e+01,9.361328887939453125e+01,8.422199249267578125e+01,1.378025207519531250e+02,2.925802469253540039e+00,-3.315900039672851562e+01,-1.848403472900390625e+02,3.626105499267578125e+01,2.116275024414062500e+01,3.321518707275390625e+01
1.080000028014183044e-01,2.000000000000000000e+00,-1.945846557617187500e+01,-6.446453571319580078e+00,5.010898208618164062e+01,9.361395263671875000e+01,8.422183990478515625e+01,1.378016357421875000e+02,2.921686649322509766e+00,-3.315868759155273438e+01,-1.848398132324218750e+02,3.626110076904296875e+01,2.116341972351074219e+01,3.321506500244140625e+01
1.120000034570693970e-01,2.000000000000000000e+00,-1.946977043151855469e+01,-6.438611507415771484e+00,5.010226821899414062e+01,9.361491394042968750e+01,8.422169494628906250e+01,1.378003082275390625e+02,2.915505647659301758e+00,-3.315817642211914062e+01,-1.848390502929687500e+02,3.626117706298828125e+01,2.116458129882812500e+01,3.321483230590820312e+01
1.159999966621398926e-01,2.000000000000000000e+00,-1.948290634155273438e+01,-6.429334640502929688e+00,5.009372711181640625e+01,9.361624908447265625e+01,8.422158050537109375e+01,1.377984619140625000e+02,2.906865835189819336e+00,-3.315739822387695312e+01,-1.848380279541015625e+02,3.626127624511718750e+01,2.116643714904785156e+01,3.321443176269531250e+01
1.199999973177909851e-01,2.000000000000000000e+00,-1.949829673767089844e+01,-6.418380737304687500e+00,5.008304977416992188e+01,9.361801147460937500e+01,8.422148895263671875e+01,1.377960205078125000e+02,2.895544052124023438e+00,-3.315631103515625000e+01,-1.848367614746093750e+02,3.626140213012695312e+01,2.116919708251953125e+01,3.321380233764648438e+01
1.239999979734420776e-01,2.000000000000000000e+00,-1.951630020141601562e+01,-6.405535221099853516e+00,5.006995010375976562e+01,9.362025451660156250e+01,8.422143554687500000e+01,1.377928619384765625e+02,2.881385087966918945e+00,-3.315484619140625000e+01,-1.848352966308593750e+02,3.626155853271484375e+01,2.117306137084960938e+01,3.321288299560546875e+01
1.280000060796737671e-01,2.000000000000000000e+00,-1.953708076477050781e+01,-6.390716552734375000e+00,5.005422592163085938e+01,9.362304687500000000e+01,8.422142791748046875e+01,1.377889404296875000e+02,2.864156007766723633e+00,-3.315296554565429688e+01,-1.848336181640625000e+02,3.626174163818359375e+01,2.117820167541503906e+01,3.321163177490234375e+01
1.309999972581863403e-01,2.000000000000000000e+00,-1.956060409545898438e+01,-6.373973369598388672e+00,5.003577423095703125e+01,9.362641906738281250e+01,8.422147369384765625e+01,1.377841949462890625e+02,2.843570947647094727e+00,-3.315063095092773438e+01,-1.848317108154296875e+02,3.626195144653320312e+01,2.118474769592285156e+01,3.321000289916992188e+01
1.360000073909759521e-01,2.000000000000000000e+00,-1.958676910400390625e+01,-6.355393886566162109e+00,5.001454925537109375e+01,9.363039398193359375e+01,8.422158050537109375e+01,1.377785644531250000e+02,2.819436550140380859e+00,-3.314781570434570312e+01,-1.848295593261718750e+02,3.626219940185546875e+01,2.119276046752929688e+01,3.320798873901367188e+01
1.389999985694885254e-01,2.000000000000000000e+00,-1.961549949645996094e+01,-6.335036754608154297e+00,4.999053955078125000e+01,9.363499450683593750e+01,8.422177124023437500e+01,1.377720489501953125e+02,2.791671991348266602e+00,-3.314451980590820312e+01,-1.848271636962890625e+02,3.626247787475585938e+01,2.120224380493164062e+01,3.320558547973632812e+01
1.439999938011169434e-01,2.000000000000000000e+00,-1.964670372009277344e+01,-6.312961101531982422e+00,4.996380615234375000e+01,9.364020538330078125e+01,8.422203063964843750e+01,1.377646484375000000e+02,2.760246276855468750e+00,-3.314076232910156250e+01,-1.848244781494140625e+02,3.626279449462890625e+01,2.121314239501953125e+01,3.320281600952148438e+01
1.480000019073486328e-01,2.000000000000000000e+00,-1.968028259277343750e+01,-6.289222240447998047e+00,4.993444824218750000e+01,9.364600372314453125e+01,8.422235870361328125e+01,1.377563934326171875e+02,2.725215911865234375e+00,-3.313655853271484375e+01,-1.848215179443359375e+02,3.626314544677734375e+01,2.122535896301269531e+01,3.319971084594726562e+01
1.519999951124191284e-01,2.000000000000000000e+00,-1.971624946594238281e+01,-6.263786315917968750e+00,4.990259170532226562e+01,9.365235137939453125e+01,8.422275543212890625e+01,1.377473602294921875e+02,2.686811923980712891e+00,-3.313194656372070312e+01,-1.848182525634765625e+02,3.626353073120117188e+01,2.123876380920410156e+01,3.319629669189453125e+01
1.560000032186508179e-01,2.000000000000000000e+00,-1.975473785400390625e+01,-6.236525535583496094e+00,4.986834716796875000e+01,9.365917968750000000e+01,8.422318267822265625e+01,1.377376403808593750e+02,2.645445346832275391e+00,-3.312698364257812500e+01,-1.848147583007812500e+02,3.626394271850585938e+01,2.125319480895996094e+01,3.319262313842773438e+01
1.599999964237213135e-01,2.000000000000000000e+00,-1.979581642150878906e+01,-6.207363128662109375e+00,4.983188247680664062e+01,9.366643524169921875e+01,8.422362518310546875e+01,1.377273101806640625e+02,2.601573944091796875e+00,-3.312173080444335938e+01,-1.848110351562500000e+02,3.626438522338867188e+01,2.126848411560058594e+01,3.318873214721679688e+01
1.640000045299530029e-01,2.000000000000000000e+00,-1.983932304382324219e+01,-6.176394939422607422e+00,4.979344940185546875e+01,9.367404174804687500e+01,8.422406768798828125e+01,1.377164916992187500e+02,2.555579662322998047e+00,-3.311623764038085938e+01,-1.848071136474609375e+02,3.626484680175781250e+01,2.128446197509765625e+01,3.318467330932617188e+01
1.679999977350234985e-01,2.000000000000000000e+00,-1.988488960266113281e+01,-6.143853187561035156e+00,4.975335693359375000e+01,9.368194580078125000e+01,8.422451019287109375e+01,1.377052612304687500e+02,2.507777214050292969e+00,-3.311054992675781250e+01,-1.848030090332031250e+02,3.626532363891601562e+01,2.130097007751464844e+01,3.318048095703125000e+01
1.720000058412551880e-01,2.000000000000000000e+00,-1.993213653564453125e+01,-6.109979629516601562e+00,4.971190643310546875e+01,9.369007873535156250e+01,8.422494506835937500e+01,1.376937103271484375e+02,2.458481311798095703e+00,-3.310471725463867188e+01,-1.847987518310546875e+02,3.626581954956054688e+01,2.131786155700683594e+01,3.317620468139648438e+01
1.759999990463256836e-01,2.000000000000000000e+00,-1.998079681396484375e+01,-6.074965476989746094e+00,4.966935729980468750e+01,9.369840240478515625e+01,8.422537231445312500e+01,1.376818847656250000e+02,2.408022403717041016e+00,-3.309878158569335938e+01,-1.847943420410156250e+02,3.626633071899414062e+01,2.133501243591308594e+01,3.317186737060546875e+01
1.800000071525573730e-01,2.000000000000000000e+00,-2.003071403503417969e+01,-6.038973331451416016e+00,4.962593460083007812e+01,9.370684814453125000e+01,8.422579193115234375e+01,1.376698913574218750e+02,2.356696605682373047e+00,-3.309277725219726562e+01,-1.847898406982421875e+02,3.626684951782226562e+01,2.135232543945312500e+01,3.316749954223632812e+01
1.840000003576278687e-01,2.000000000000000000e+00,-2.008176803588867188e+01,-6.002160072326660156e+00,4.958183670043945312e+01,9.371538543701171875e+01,8.422618103027343750e+01,1.376577911376953125e+02,2.304743528366088867e+00,-3.308671951293945312e+01,-1.847852325439453125e+02,3.626737594604492188e+01,2.136972999572753906e+01,3.316311645507812500e+01
1.879999935626983643e-01,2.000000000000000000e+00,-2.013381958007812500e+01,-5.964673519134521484e+00,4.953723526000976562e+01,9.372398376464843750e+01,8.422656250000000000e+01,1.376455993652343750e+02,2.252383470535278320e+00,-3.308063888549804688e+01,-1.847805786132812500e+02,3.626791000366210938e+01,2.138717651367187500e+01,3.315872955322265625e+01
1.920000016689300537e-01,2.000000000000000000e+00,-2.018676376342773438e+01,-5.926634311676025391e+00,4.949226379394531250e+01,9.373262023925781250e+01,8.422691345214843750e+01,1.376333465576171875e+02,2.199818849563598633e+00,-3.307454299926757812e+01,-1.847758941650390625e+02,3.626844406127929688e+01,2.140464210510253906e+01,3.315433883666992188e+01
1.959999948740005493e-01,2.000000000000000000e+00,-2.024049949645996094e+01,-5.888152599334716797e+00,4.944702529907226562e+01,9.374126434326171875e+01,8.422725677490234375e+01,1.376210937500000000e+02,2.147192239761352539e+00,-3.306844329833984375e+01,-1.847712097167968750e+02,3.626898193359375000e+01,2.142210578918457031e+01,3.314995193481445312e+01
2.000000029802322388e-01,2.000000000000000000e+00,-2.029484748840332031e+01,-5.849367141723632812e+00,4.940162658691406250e+01,9.374993133544921875e+01,8.422758483886718750e+01,1.376088409423828125e+02,2.094566583633422852e+00,-3.306234741210937500e+01,-1.847665100097656250e+02,3.626951599121093750e+01,2.143956947326660156e+01,3.314556121826171875e+01
2.039999961853027344e-01,2.000000000000000000e+00,-2.034954071044921875e+01,-5.810427188873291016e+00,4.935614395141601562e+01,9.375859069824218750e+01,8.422789764404296875e+01,1.375965728759765625e+02,2.041952610015869141e+00,-3.305625152587890625e+01,-1.847618103027343750e+02,3.627005386352539062e+01,2.145702934265136719e+01,3.314117431640625000e+01
2.080000042915344238e-01,2.000000000000000000e+00,-2.040435218811035156e+01,-5.771441936492919922e+00,4.931064224243164062e+01,9.376725006103515625e+01,8.422821807861328125e+01,1.375843048095703125e+02,1.989350914955139160e+00,-3.305015563964843750e+01,-1.847571105957031250e+02,3.627058792114257812e+01,2.147448348999023438e+01,3.313679122924804688e+01
2.119999974966049194e-01,2.000000000000000000e+00,-2.045916748046875000e+01,-5.732458114624023438e+00,4.926515579223632812e+01,9.377590179443359375e+01,8.422853088378906250e+01,1.375720520019531250e+02,1.936761379241943359e+00,-3.304405975341796875e+01,-1.847524261474609375e+02,3.627112579345703125e+01,2.149193382263183594e+01,3.313240432739257812e+01
2.160000056028366089e-01,2.000000000000000000e+00,-2.051397323608398438e+01,-5.693483352661132812e+00,4.921967315673828125e+01,9.378455352783203125e+01,8.422885131835937500e+01,1.375597991943359375e+02,1.884184598922729492e+00,-3.303796768188476562e+01,-1.847477264404296875e+02,3.627166366577148438e+01,2.150938034057617188e+01,3.312802124023437500e+01
2.199999988079071045e-01,2.000000000000000000e+00,-2.056876564025878906e+01,-5.654517173767089844e+00,4.917420196533203125e+01,9.379321289062500000e+01,8.422917175292968750e+01,1.375475463867187500e+02,1.831620097160339355e+00,-3.303187942504882812e+01,-1.847430267333984375e+02,3.627219772338867188e+01,2.152682304382324219e+01,3.312363815307617188e+01
2.240000069141387939e-01,2.000000000000000000e+00,-2.062354278564453125e+01,-5.615560531616210938e+00,4.912874221801757812e+01,9.380186462402343750e+01,8.422948455810546875e+01,1.375352935791015625e+02,1.779067873954772949e+00,-3.302578735351562500e+01,-1.847383422851562500e+02,3.627273559570312500e+01,2.154426193237304688e+01,3.311925506591796875e+01
2.280000001192092896e-01,2.000000000000000000e+00,-2.067830848693847656e+01,-5.576612472534179688e+00,4.908329391479492188e+01,9.381050872802734375e+01,8.422979736328125000e+01,1.375230255126953125e+02,1.726528167724609375e+00,-3.301969909667968750e+01,-1.847336578369140625e+02,3.627326965332031250e+01,2.156169509887695312e+01,3.311487579345703125e+01
2.319999933242797852e-01,2.000000000000000000e+00,-2.073306274414062500e+01,-5.537673950195312500e+00,4.903785324096679688e+01,9.381916046142578125e+01,8.423011016845703125e+01,1.375107879638671875e+02,1.674000978469848633e+00,-3.301361465454101562e+01,-1.847289581298828125e+02,3.627380371093750000e+01,2.157912635803222656e+01,3.311049652099609375e+01
2.360000014305114746e-01,2.000000000000000000e+00,-2.078780364990234375e+01,-5.498745441436767578e+00,4.899242782592773438e+01,9.382780456542968750e+01,8.423043060302734375e+01,1.374985504150390625e+02,1.621486067771911621e+00,-3.300752639770507812e+01,-1.847242736816406250e+02,3.627433776855468750e+01,2.159655189514160156e+01,3.310611724853515625e+01
2.399999946355819702e-01,2.000000000000000000e+00,-2.084253120422363281e+01,-5.459825515747070312e+00,4.894701004028320312e+01,9.383644866943359375e+01,8.423075103759765625e+01,1.374863128662109375e+02,1.568983674049377441e+00,-3.300144577026367188e+01,-1.847195892333984375e+02,3.627487564086914062e+01,2.161397361755371094e+01,3.310174179077148438e+01
2.440000027418136597e-01,2.000000000000000000e+00,-2.089724540710449219e+01,-5.420914649963378906e+00,4.890160369873046875e+01,9.384508514404296875e+01,8.423106384277343750e+01,1.374740753173828125e+02,1.516493797302246094e+00,-3.299536514282226562e+01,-1.847149047851562500e+02,3.627541351318359375e+01,2.163138961791992188e+01,3.309736251831054688e+01
2.479999959468841553e-01,2.000000000000000000e+00,-2.095194625854492188e+01,-5.382012844085693359e+00,4.885620880126953125e+01,9.385372924804687500e+01,8.423137664794921875e+01,1.374618530273437500e+02,1.464016318321228027e+00,-3.298928070068359375e+01,-1.847102203369140625e+02,3.627594375610351562e+01,2.164880371093750000e+01,3.309298706054687500e+01
2.520000040531158447e-01,2.000000000000000000e+00,-2.100663566589355469e+01,-5.343120574951171875e+00,4.881082534790039062e+01,9.386236572265625000e+01,8.423169708251953125e+01,1.374496154785156250e+02,1.411551117897033691e+00,-3.298320388793945312e+01,-1.847055358886718750e+02,3.627648162841796875e+01,2.166621208190917969e+01,3.308861160278320312e+01
2.560000121593475342e-01,2.000000000000000000e+00,-2.106131362915039062e+01,-5.304237365722656250e+00,4.876544952392578125e+01,9.387100219726562500e+01,8.423200988769531250e+01,1.374373779296875000e+02,1.359098434448242188e+00,-3.297712326049804688e+01,-1.847008514404296875e+02,3.627701187133789062e+01,2.168361854553222656e+01,3.308423995971679688e+01
2.599999904632568359e-01,2.000000000000000000e+00,-2.111597633361816406e+01,-5.265363216400146484e+00,4.872008895874023438e+01,9.387963104248046875e+01,8.423232269287109375e+01,1.374251556396484375e+02,1.306658029556274414e+00,-3.297104644775390625e+01,-1.846961669921875000e+02,3.627754974365234375e+01,2.170101928710937500e+01,3.307986831665039062e+01
2.639999985694885254e-01,2.000000000000000000e+00,-2.117062759399414062e+01,-5.226498126983642578e+00,4.867473602294921875e+01,9.388826751708984375e+01,8.423264312744140625e+01,1.374129333496093750e+02,1.254229903221130371e+00,-3.296497344970703125e+01,-1.846914825439453125e+02,3.627808761596679688e+01,2.171841812133789062e+01,3.307549667358398438e+01
2.680000066757202148e-01,2.000000000000000000e+00,-2.122526550292968750e+01,-5.187642097473144531e+00,4.862939453125000000e+01,9.389689636230468750e+01,8.423295593261718750e+01,1.374007110595703125e+02,1.201814055442810059e+00,-3.295889663696289062e+01,-1.846868133544921875e+02,3.627861785888671875e+01,2.173580932617187500e+01,3.307112884521484375e+01
2.720000147819519043e-01,2.000000000000000000e+00,-2.127989006042480469e+01,-5.148795127868652344e+00,4.858406066894531250e+01,9.390551757812500000e+01,8.423326873779296875e+01,1.373885040283203125e+02,1.149410605430603027e+00,-3.295282363891601562e+01,-1.846821289062500000e+02,3.627915191650390625e+01,2.175319862365722656e+01,3.306675720214843750e+01
2.759999930858612061e-01,2.000000000000000000e+00,-2.133450317382812500e+01,-5.109957218170166016e+00,4.853873825073242188e+01,9.391414642333984375e+01,8.423358917236328125e+01,1.373762969970703125e+02,1.097019314765930176e+00,-3.294675827026367188e+01,-1.846774597167968750e+02,3.627968597412109375e+01,2.177058219909667969e+01,3.306238937377929688e+01
2.800000011920928955e-01,2.000000000000000000e+00,-2.138910102844238281e+01,-5.071128845214843750e+00,4.849343109130859375e+01,9.392276763916015625e+01,8.423390197753906250e+01,1.373640747070312500e+02,1.044640302658081055e+00,-3.294068527221679688e+01,-1.846727905273437500e+02,3.628022003173828125e+01,2.178796386718750000e+01,3.305802154541015625e+01
2.840000092983245850e-01,2.000000000000000000e+00,-2.144368743896484375e+01,-5.032309055328369141e+00,4.844813156127929688e+01,9.393138885498046875e+01,8.423421478271484375e+01,1.373518676757812500e+02,9.922734498977661133e-01,-3.293461990356445312e+01,-1.846681060791015625e+02,3.628075790405273438e+01,2.180533981323242188e+01,3.305365753173828125e+01
2.879999876022338867e-01,2.000000000000000000e+00,-2.149826240539550781e+01,-4.993498325347900391e+00,4.840284347534179688e+01,9.394000244140625000e+01,8.423453521728515625e+01,1.373396759033203125e+02,9.399187564849853516e-01,-3.292855072021484375e+01,-1.846634216308593750e+02,3.628128814697265625e+01,2.182271194458007812e+01,3.304928970336914062e+01
2.919999957084655762e-01,2.000000000000000000e+00,-2.155282211303710938e+01,-4.954697132110595703e+00,4.835756301879882812e+01,9.394862365722656250e+01,8.423484802246093750e+01,1.373274536132812500e+02,8.875762224197387695e-01,-3.292248535156250000e+01,-1.846587524414062500e+02,3.628182220458984375e+01,2.184008216857910156e+01,3.304492568969726562e+01
2.960000038146972656e-01,2.000000000000000000e+00,-2.160737228393554688e+01,-4.915904521942138672e+00,4.831229400634765625e+01,9.395723724365234375e+01,8.423516082763671875e+01,1.373152618408203125e+02,8.352457880973815918e-01,-3.291642379760742188e+01,-1.846540832519531250e+02,3.628235626220703125e+01,2.185744667053222656e+01,3.304056167602539062e+01
3.000000119209289551e-01,2.000000000000000000e+00,-2.166190719604492188e+01,-4.877120971679687500e+00,4.826704025268554688e+01,9.396585083007812500e+01,8.423547363281250000e+01,1.373030700683593750e+02,7.829275727272033691e-01,-3.291035842895507812e+01,-1.846494293212890625e+02,3.628289031982421875e+01,2.187480735778808594e+01,3.303620147705078125e+01
3.039999902248382568e-01,2.000000000000000000e+00,-2.171642875671386719e+01,-4.838346481323242188e+00,4.822179031372070312e+01,9.397446441650390625e+01,8.423578643798828125e+01,1.372908782958984375e+02,7.306213974952697754e-01,-3.290430068969726562e+01,-1.846447601318359375e+02,3.628342437744140625e+01,2.189216423034667969e+01,3.303184127807617188e+01
3.079999983310699463e-01,2.000000000000000000e+00,-2.177094078063964844e+01,-4.799581050872802734e+00,4.817655563354492188e+01,9.398307037353515625e+01,8.423609924316406250e+01,1.372786865234375000e+02,6.783273220062255859e-01,-3.289823913574218750e+01,-1.846400756835937500e+02,3.628395462036132812e+01,2.190951538085937500e+01,3.302747726440429688e+01
3.120000064373016357e-01,2.000000000000000000e+00,-2.182543754577636719e+01,-4.760824680328369141e+00,4.813132858276367188e+01,9.399167633056640625e+01,8.423641967773437500e+01,1.372664947509765625e+02,6.260454058647155762e-01,-3.289218139648437500e+01,-1.846354064941406250e+02,3.628448867797851562e+01,2.192686462402343750e+01,3.302312088012695312e+01
3.160000145435333252e-01,2.000000000000000000e+00,-2.187992477416992188e+01,-4.722076892852783203e+00,4.808611297607421875e+01,9.400028228759765625e+01,8.423673248291015625e+01,1.372543029785156250e+02,5.737755894660949707e-01,-3.288612365722656250e+01,-1.846307525634765625e+02,3.628502273559570312e+01,2.194421005249023438e+01,3.301876068115234375e+01
3.199999928474426270e-01,2.000000000000000000e+00,-2.193439674377441406e+01,-4.683338642120361328e+00,4.804090881347656250e+01,9.400888061523437500e+01,8.423704528808593750e+01,1.372421417236328125e+02,5.215178728103637695e-01,-3.288006973266601562e+01,-1.846260833740234375e+02,3.628555297851562500e+01,2.196154975891113281e+01,3.301440429687500000e+01
3.240000009536743164e-01,2.000000000000000000e+00,-2.198885536193847656e+01,-4.644608974456787109e+00,4.799571228027343750e+01,9.401748657226562500e+01,8.423735809326171875e+01,1.372299499511718750e+02,4.692722558975219727e-01,-3.287401580810546875e+01,-1.846214294433593750e+02,3.628608703613281250e+01,2.197888565063476562e+01,3.301004791259765625e+01
3.280000090599060059e-01,2.000000000000000000e+00,-2.204330444335937500e+01,-4.605888366699218750e+00,4.795052719116210938e+01,9.402607727050781250e+01,8.423767089843750000e+01,1.372177734375000000e+02,4.170387387275695801e-01,-3.286796188354492188e+01,-1.846167602539062500e+02,3.628662109375000000e+01,2.199621963500976562e+01,3.300569534301757812e+01
3.319999873638153076e-01,2.000000000000000000e+00,-2.209773826599121094e+01,-4.567176342010498047e+00,4.790535736083984375e+01,9.403467559814453125e+01,8.423799133300781250e+01,1.372056121826171875e+02,3.648173213005065918e-01,-3.286191177368164062e+01,-1.846120910644531250e+02,3.628715133666992188e+01,2.201354789733886719e+01,3.300133895874023438e+01
3.359999954700469971e-01,2.000000000000000000e+00,-2.215216064453125000e+01,-4.528473854064941406e+00,4.786019134521484375e+01,9.404327392578125000e+01,8.423830413818359375e+01,1.371934356689453125e+02,3.126079738140106201e-01,-3.285586166381835938e+01,-1.846074371337890625e+02,3.628768539428710938e+01,2.203087234497070312e+01,3.299698638916015625e+01
3.400000035762786865e-01,2.000000000000000000e+00,-2.220656967163085938e+01,-4.489779949188232422e+00,4.781504058837890625e+01,9.405187225341796875e+01,8.423861694335937500e+01,1.371812591552734375e+02,2.604107260704040527e-01,-3.284981155395507812e+01,-1.846027832031250000e+02,3.628821563720703125e+01,2.204819297790527344e+01,3.299263381958007812e+01
3.440000116825103760e-01,2.000000000000000000e+00,-2.226096725463867188e+01,-4.451095104217529297e+00,4.776989746093750000e+01,9.406045532226562500e+01,8.423892974853515625e+01,1.371690979003906250e+02,2.082255482673645020e-01,-3.284376907348632812e+01,-1.845981140136718750e+02,3.628874588012695312e+01,2.206550788879394531e+01,3.298828506469726562e+01
3.479999899864196777e-01,2.000000000000000000e+00,-2.231534957885742188e+01,-4.412419795989990234e+00,4.772476577758789062e+01,9.406904602050781250e+01,8.423924255371093750e+01,1.371569366455078125e+02,1.560524553060531616e-01,-3.283771896362304688e+01,-1.845934600830078125e+02,3.628927993774414062e+01,2.208282089233398438e+01,3.298393249511718750e+01
3.519999980926513672e-01,2.000000000000000000e+00,-2.236972236633300781e+01,-4.373752593994140625e+00,4.767964172363281250e+01,9.407763671875000000e+01,8.423955535888671875e+01,1.371447753906250000e+02,1.038914397358894348e-01,-3.283167648315429688e+01,-1.845888061523437500e+02,3.628981399536132812e+01,2.210013008117675781e+01,3.297958374023437500e+01
3.560000061988830566e-01,2.000000000000000000e+00,-2.242408180236816406e+01,-4.335094451904296875e+00,4.763453292846679688e+01,9.408621978759765625e+01,8.423987579345703125e+01,1.371326141357421875e+02,5.174249038100242615e-02,-3.282563400268554688e+01,-1.845841522216796875e+02,3.629034423828125000e+01,2.211743354797363281e+01,3.297523498535156250e+01
3.600000143051147461e-01,2.000000000000000000e+00,-2.247842788696289062e+01,-4.296445369720458984e+00,4.758943176269531250e+01,9.409479522705078125e+01,8.424018859863281250e+01,1.371204681396484375e+02,-3.943952906411141157e-04,-3.281959152221679688e+01,-1.845794982910156250e+02,3.629087448120117188e+01,2.213473510742187500e+01,3.297088623046875000e+01
3.639999926090240479e-01,2.000000000000000000e+00,-2.253276252746582031e+01,-4.257805347442626953e+00,4.754434204101562500e+01,9.410338592529296875e+01,8.424050140380859375e+01,1.371083221435546875e+02,-5.251921713352203369e-02,-3.281354904174804688e+01,-1.845748443603515625e+02,3.629140853881835938e+01,2.215203094482421875e+01,3.296654510498046875e+01
3.680000007152557373e-01,2.000000000000000000e+00,-2.258708190917968750e+01,-4.219174385070800781e+00,4.749925994873046875e+01,9.411196136474609375e+01,8.424081420898437500e+01,1.370961608886718750e+02,-1.046319827437400818e-01,-3.280751419067382812e+01,-1.845701904296875000e+02,3.629193878173828125e+01,2.216932487487792969e+01,3.296219635009765625e+01
3.720000088214874268e-01,2.000000000000000000e+00,-2.264139175415039062e+01,-4.180552005767822266e+00,4.745419311523437500e+01,9.412053680419921875e+01,8.424112701416015625e+01,1.370840148925781250e+02,-1.567326933145523071e-01,-3.280147552490234375e+01,-1.845655364990234375e+02,3.629246902465820312e+01,2.218661117553710938e+01,3.295785140991210938e+01
3.759999871253967285e-01,2.000000000000000000e+00,-2.269568824768066406e+01,-4.141939163208007812e+00,4.740913391113281250e+01,9.412911224365234375e+01,8.424144744873046875e+01,1.370718688964843750e+02,-2.088213562965393066e-01,-3.279544067382812500e+01,-1.845608978271484375e+02,3.629299926757812500e+01,2.220389747619628906e+01,3.295351028442382812e+01
3.799999952316284180e-01,2.000000000000000000e+00,-2.274997138977050781e+01,-4.103334903717041016e+00,4.736408233642578125e+01,9.413768768310546875e+01,8.424175262451171875e+01,1.370597381591796875e+02,-2.608979642391204834e-01,-3.278940582275390625e+01,-1.845562438964843750e+02,3.629353332519531250e+01,2.222117805480957031e+01,3.294916915893554688e+01
3.840000033378601074e-01,2.000000000000000000e+00,-2.280424308776855469e+01,-4.064739227294921875e+00,4.731904602050781250e+01,9.414625549316406250e+01,8.424206542968750000e+01,1.370475921630859375e+02,-3.129625320434570312e-01,-3.278337478637695312e+01,-1.845515899658203125e+02,3.629405975341796875e+01,2.223845481872558594e+01,3.294482803344726562e+01
3.880000114440917969e-01,2.000000000000000000e+00,-2.285850143432617188e+01,-4.026152610778808594e+00,4.727401733398437500e+01,9.415483093261718750e+01,8.424237823486328125e+01,1.370354614257812500e+02,-3.650150597095489502e-01,-3.277733993530273438e+01,-1.845469512939453125e+02,3.629458999633789062e+01,2.225572586059570312e+01,3.294048690795898438e+01
3.919999897480010986e-01,2.000000000000000000e+00,-2.291274833679199219e+01,-3.987575531005859375e+00,4.722900390625000000e+01,9.416339111328125000e+01,8.424269104003906250e+01,1.370233306884765625e+02,-4.170555472373962402e-01,-3.277131271362304688e+01,-1.845422973632812500e+02,3.629512405395507812e+01,2.227299499511718750e+01,3.293614959716796875e+01
3.959999978542327881e-01,2.000000000000000000e+00,-2.296697998046875000e+01,-3.949006557464599609e+00,4.718399429321289062e+01,9.417195892333984375e+01,8.424301147460937500e+01,1.370111999511718750e+02,-4.690839946269989014e-01,-3.276528167724609375e+01,-1.845376586914062500e+02,3.629565429687500000e+01,2.229026031494140625e+01,3.293181228637695312e+01
4.000000059604644775e-01,2.000000000000000000e+00,-2.302120208740234375e+01,-3.910446882247924805e+00,4.713899993896484375e+01,9.418051910400390625e+01,8.424332427978515625e+01,1.369990692138671875e+02,-5.211004018783569336e-01,-3.275925445556640625e+01,-1.845330200195312500e+02,3.629618072509765625e+01,2.230751991271972656e+01,3.292747497558593750e+01
4.040000140666961670e-01,2.000000000000000000e+00,-2.307541084289550781e+01,-3.871896028518676758e+00,4.709401321411132812e+01,9.418907928466796875e+01,8.424362945556640625e+01,1.369869537353515625e+02,-5.731048583984375000e-01,-3.275323104858398438e+01,-1.845283660888671875e+02,3.629671478271484375e+01,2.232477569580078125e+01,3.292313766479492188e+01
4.079999923706054688e-01,2.000000000000000000e+00,-2.312960624694824219e+01,-3.833353996276855469e+00,4.704903793334960938e+01,9.419763946533203125e+01,8.424394226074218750e+01,1.369748229980468750e+02,-6.250972151756286621e-01,-3.274720764160156250e+01,-1.845237426757812500e+02,3.629724502563476562e+01,2.234202957153320312e+01,3.291880416870117188e+01
4.120000004768371582e-01,2.000000000000000000e+00,-2.318379020690917969e+01,-3.794821023941040039e+00,4.700407028198242188e+01,9.420619964599609375e+01,8.424425506591796875e+01,1.369627075195312500e+02,-6.770775914192199707e-01,-3.274118041992187500e+01,-1.845190887451171875e+02,3.629777526855468750e+01,2.235927772521972656e+01,3.291447067260742188e+01
4.160000085830688477e-01,2.000000000000000000e+00,-2.323796081542968750e+01,-3.756297111511230469e+00,4.695911788940429688e+01,9.421475219726562500e+01,8.424457550048828125e+01,1.369506072998046875e+02,-7.290459871292114258e-01,-3.273516082763671875e+01,-1.845144500732421875e+02,3.629830169677734375e+01,2.237652206420898438e+01,3.291013717651367188e+01
4.199999868869781494e-01,2.000000000000000000e+00,-2.329211807250976562e+01,-3.717782258987426758e+00,4.691417312622070312e+01,9.422330474853515625e+01,8.424488830566406250e+01,1.369384918212890625e+02,-7.810022830963134766e-01,-3.272914123535156250e+01,-1.845098114013671875e+02,3.629883193969726562e+01,2.239376258850097656e+01,3.290580368041992188e+01
4.239999949932098389e-01,2.000000000000000000e+00,-2.334626388549804688e+01,-3.679275751113891602e+00,4.686923980712890625e+01,9.423185729980468750e+01,8.424519348144531250e+01,1.369263763427734375e+02,-8.329466581344604492e-01,-3.272311782836914062e+01,-1.845051727294921875e+02,3.629936218261718750e+01,2.241099929809570312e+01,3.290147399902343750e+01
4.280000030994415283e-01,2.000000000000000000e+00,-2.340039825439453125e+01,-3.640778064727783203e+00,4.682431411743164062e+01,9.424040222167968750e+01,8.424550628662109375e+01,1.369142761230468750e+02,-8.848790526390075684e-01,-3.271710205078125000e+01,-1.845005493164062500e+02,3.629989242553710938e+01,2.242823028564453125e+01,3.289714050292968750e+01
4.320000112056732178e-01,2.000000000000000000e+00,-2.345451927185058594e+01,-3.602289676666259766e+00,4.677940368652343750e+01,9.424895477294921875e+01,8.424581909179687500e+01,1.369021759033203125e+02,-9.367994070053100586e-01,-3.271108627319335938e+01,-1.844959106445312500e+02,3.630041885375976562e+01,2.244545936584472656e+01,3.289281463623046875e+01
4.359999895095825195e-01,2.000000000000000000e+00,-2.350862693786621094e+01,-3.563810348510742188e+00,4.673449707031250000e+01,9.425749969482421875e+01,8.424613189697265625e+01,1.368900604248046875e+02,-9.887076616287231445e-01,-3.270507049560546875e+01,-1.844912872314453125e+02,3.630094909667968750e+01,2.246268463134765625e+01,3.288848495483398438e+01
4.399999976158142090e-01,2.000000000000000000e+00,-2.356272315979003906e+01,-3.525339365005493164e+00,4.668960571289062500e+01,9.426604461669921875e+01,8.424644470214843750e+01,1.368779754638671875e+02,-1.040604114532470703e+00,-3.269905471801757812e+01,-1.844866333007812500e+02,3.630147933959960938e+01,2.247990417480468750e+01,3.288415908813476562e+01
4.440000057220458984e-01,2.000000000000000000e+00,-2.361680603027343750e+01,-3.486877679824829102e+00,4.664472579956054688e+01,9.427458190917968750e+01,8.424675750732421875e+01,1.368658752441406250e+02,-1.092488408088684082e+00,-3.269304656982421875e+01,-1.844820098876953125e+02,3.630200958251953125e+01,2.249712181091308594e+01,3.287982940673828125e+01
4.480000138282775879e-01,2.000000000000000000e+00,-2.367087745666503906e+01,-3.448424577713012695e+00,4.659985351562500000e+01,9.428311920166015625e+01,8.424707031250000000e+01,1.368537902832031250e+02,-1.144360899925231934e+00,-3.268703460693359375e+01,-1.844773712158203125e+02,3.630253601074218750e+01,2.251433372497558594e+01,3.287550735473632812e+01
4.519999921321868896e-01,2.000000000000000000e+00,-2.372493553161621094e+01,-3.409980773925781250e+00,4.655498886108398438e+01,9.429165649414062500e+01,8.424737548828125000e+01,1.368416900634765625e+02,-1.196221351623535156e+00,-3.268102645874023438e+01,-1.844727478027343750e+02,3.630306625366210938e+01,2.253154182434082031e+01,3.287118530273437500e+01
4.560000002384185791e-01,2.000000000000000000e+00,-2.377898025512695312e+01,-3.371545553207397461e+00,4.651013946533203125e+01,9.430019378662109375e+01,8.424769592285156250e+01,1.368296051025390625e+02,-1.248069643974304199e+00,-3.267501831054687500e+01,-1.844681243896484375e+02,3.630359649658203125e+01,2.254874801635742188e+01,3.286685943603515625e+01
4.600000083446502686e-01,2.000000000000000000e+00,-2.383301544189453125e+01,-3.333119153976440430e+00,4.646529769897460938e+01,9.430872344970703125e+01,8.424800872802734375e+01,1.368175354003906250e+02,-1.299906253814697266e+00,-3.266901016235351562e+01,-1.844635009765625000e+02,3.630412292480468750e+01,2.256594848632812500e+01,3.286253738403320312e+01
4.639999866485595703e-01,2.000000000000000000e+00,-2.388703727722167969e+01,-3.294701576232910156e+00,4.642047119140625000e+01,9.431725311279296875e+01,8.424831390380859375e+01,1.368054351806640625e+02,-1.351730704307556152e+00,-3.266300582885742188e+01,-1.844588623046875000e+02,3.630465316772460938e+01,2.258314514160156250e+01,3.285821533203125000e+01
4.679999947547912598e-01,2.000000000000000000e+00,-2.394104385375976562e+01,-3.256293058395385742e+00,4.637564849853515625e+01,9.432579040527343750e+01,8.424862670898437500e+01,1.367933654785156250e+02,-1.403543233871459961e+00,-3.265700149536132812e+01,-1.844542541503906250e+02,3.630517959594726562e+01,2.260033798217773438e+01,3.285389709472656250e+01
4.720000028610229492e-01,2.000000000000000000e+00,-2.399504089355468750e+01,-3.217893362045288086e+00,4.633084106445312500e+01,9.433432006835937500e+01,8.424893951416015625e+01,1.367812805175781250e+02,-1.455343842506408691e+00,-3.265100097656250000e+01,-1.844496154785156250e+02,3.630570602416992188e+01,2.261752700805664062e+01,3.284957885742187500e+01
4.760000109672546387e-01,2.000000000000000000e+00,-2.404902458190917969e+01,-3.179502725601196289e+00,4.628604125976562500e+01,9.434284210205078125e+01,8.424925231933593750e+01,1.367692108154296875e+02,-1.507132530212402344e+00,-3.264500045776367188e+01,-1.844449920654296875e+02,3.630623626708984375e+01,2.263471031188964844e+01,3.284526062011718750e+01
4.799999892711639404e-01,2.000000000000000000e+00,-2.410299491882324219e+01,-3.141120672225952148e+00,4.624125289916992188e+01,9.435136413574218750e+01,8.424956512451171875e+01,1.367571563720703125e+02,-1.558909177780151367e+00,-3.263899993896484375e+01,-1.844403686523437500e+02,3.630676651000976562e+01,2.265189170837402344e+01,3.284094238281250000e+01
4.839999973773956299e-01,2.000000000000000000e+00,-2.415695381164550781e+01,-3.102747201919555664e+00,4.619647216796875000e+01,9.435988616943359375e+01,8.424987030029296875e+01,1.367450714111328125e+02,-1.610673904418945312e+00,-3.263300323486328125e+01,-1.844357452392578125e+02,3.630729293823242188e+01,2.266906929016113281e+01,3.283662796020507812e+01
4.880000054836273193e-01,2.000000000000000000e+00,-2.421089935302734375e+01,-3.064383268356323242e+00,4.615170669555664062e+01,9.436840820312500000e+01,8.425018310546875000e+01,1.367330169677734375e+02,-1.662426710128784180e+00,-3.262700653076171875e+01,-1.844311370849609375e+02,3.630781936645507812e+01,2.268624114990234375e+01,3.283231353759765625e+01
4.920000135898590088e-01,2.000000000000000000e+00,-2.426483535766601562e+01,-3.026027679443359375e+00,4.610694503784179688e+01,9.437692260742187500e+01,8.425049591064453125e+01,1.367209472656250000e+02,-1.714167594909667969e+00,-3.262100601196289062e+01,-1.844265136718750000e+02,3.630834579467773438e+01,2.270341110229492188e+01,3.282799911499023438e+01
4.959999918937683105e-01,2.000000000000000000e+00,-2.431875610351562500e+01,-2.987680912017822266e+00,4.606219863891601562e+01,9.438544464111328125e+01,8.425080871582031250e+01,1.367089080810546875e+02,-1.765896439552307129e+00,-3.261501312255859375e+01,-1.844219055175781250e+02,3.630887603759765625e+01,2.272057723999023438e+01,3.282368850708007812e+01
5.000000000000000000e-01,2.000000000000000000e+00,-2.437266540527343750e+01,-2.949343442916870117e+00,4.601745986938476562e+01,9.439395141601562500e+01,8.425111389160156250e+01,1.366968383789062500e+02,-1.817613482475280762e+00,-3.260902023315429688e+01,-1.844172821044921875e+02,3.630940246582031250e+01,2.273773765563964844e+01,3.281937408447265625e+01
5.040000081062316895e-01,2.000000000000000000e+00,-2.442656135559082031e+01,-2.911014556884765625e+00,4.597273254394531250e+01,9.440246582031250000e+01,8.425142669677734375e+01,1.366847839355468750e+02,-1.869318366050720215e+00,-3.260303115844726562e+01,-1.844126586914062500e+02,3.630992889404296875e+01,2.275489425659179688e+01,3.281506347656250000e+01
5.080000162124633789e-01,2.000000000000000000e+00,-2.448044586181640625e+01,-2.872694253921508789e+00,4.592801666259765625e+01,9.441097259521484375e+01,8.425174713134765625e+01,1.366727294921875000e+02,-1.921011686325073242e+00,-3.259704208374023438e+01,-1.844080505371093750e+02,3.631045913696289062e+01,2.277204704284667969e+01,3.281075286865234375e+01
5.120000243186950684e-01,2.000000000000000000e+00,-2.453431701660156250e+01,-2.834383249282836914e+00,4.588331222534179688e+01,9.441948699951171875e+01,8.425205230712890625e+01,1.366606903076171875e+02,-1.972692966461181641e+00,-3.259104919433593750e+01,-1.844034271240234375e+02,3.631098175048828125e+01,2.278919601440429688e+01,3.280644226074218750e+01
5.159999728202819824e-01,2.000000000000000000e+00,-2.458817672729492188e+01,-2.796080827713012695e+00,4.583861541748046875e+01,9.442798614501953125e+01,8.425236511230468750e+01,1.366486511230468750e+02,-2.024362325668334961e+00,-3.258506393432617188e+01,-1.843988189697265625e+02,3.631150817871093750e+01,2.280634117126464844e+01,3.280213546752929688e+01
5.199999809265136719e-01,2.000000000000000000e+00,-2.464202308654785156e+01,-2.757786989212036133e+00,4.579393005371093750e+01,9.443649291992187500e+01,8.425267028808593750e+01,1.366365966796875000e+02,-2.076019525527954102e+00,-3.257907867431640625e+01,-1.843942108154296875e+02,3.631203460693359375e+01,2.282348442077636719e+01,3.279782867431640625e+01
5.239999890327453613e-01,2.000000000000000000e+00,-2.469585800170898438e+01,-2.719502449035644531e+00,4.574925231933593750e+01,9.444499206542968750e+01,8.425298309326171875e+01,1.366245574951171875e+02,-2.127665042877197266e+00,-3.257309341430664062e+01,-1.843896026611328125e+02,3.631256484985351562e+01,2.284062004089355469e+01,3.279352188110351562e+01
5.279999971389770508e-01,2.000000000000000000e+00,-2.474967956542968750e+01,-2.681226491928100586e+00,4.570458602905273438e+01,9.445349121093750000e+01,8.425329589843750000e+01,1.366125335693359375e+02,-2.179298639297485352e+00,-3.256711196899414062e+01,-1.843849945068359375e+02,3.631309127807617188e+01,2.285775375366210938e+01,3.278921890258789062e+01
5.320000052452087402e-01,2.000000000000000000e+00,-2.480348968505859375e+01,-2.642959356307983398e+00,4.565993499755859375e+01,9.446199798583984375e+01,8.425360107421875000e+01,1.366004943847656250e+02,-2.230920076370239258e+00,-3.256113052368164062e+01,-1.843803863525390625e+02,3.631361770629882812e+01,2.287488365173339844e+01,3.278491210937500000e+01
5.360000133514404297e-01,2.000000000000000000e+00,-2.485728645324707031e+01,-2.604701280593872070e+00,4.561528778076171875e+01,9.447048187255859375e+01,8.425391387939453125e+01,1.365884552001953125e+02,-2.282529830932617188e+00,-3.255514907836914062e+01,-1.843757781982421875e+02,3.631414413452148438e+01,2.289200973510742188e+01,3.278060913085937500e+01
5.400000214576721191e-01,2.000000000000000000e+00,-2.491107177734375000e+01,-2.566451787948608398e+00,4.557065200805664062e+01,9.447898101806640625e+01,8.425422668457031250e+01,1.365764312744140625e+02,-2.334127902984619141e+00,-3.254917144775390625e+01,-1.843711853027343750e+02,3.631466674804687500e+01,2.290913009643554688e+01,3.277630996704101562e+01
5.440000295639038086e-01,2.000000000000000000e+00,-2.496484375000000000e+01,-2.528210878372192383e+00,4.552602767944335938e+01,9.448747253417968750e+01,8.425453948974609375e+01,1.365644073486328125e+02,-2.385713815689086914e+00,-3.254319000244140625e+01,-1.843665771484375000e+02,3.631519317626953125e+01,2.292624855041503906e+01,3.277200698852539062e+01
5.479999780654907227e-01,2.000000000000000000e+00,-2.501860427856445312e+01,-2.489979267120361328e+00,4.548141860961914062e+01,9.449596405029296875e+01,8.425484466552734375e+01,1.365523834228515625e+02,-2.437288045883178711e+00,-3.253721618652343750e+01,-1.843619689941406250e+02,3.631571960449218750e+01,2.294336128234863281e+01,3.276770782470703125e+01
5.519999861717224121e-01,2.000000000000000000e+00,-2.507235336303710938e+01,-2.451756238937377930e+00,4.543681335449218750e+01,9.450445556640625000e+01,8.425515747070312500e+01,1.365403594970703125e+02,-2.488850355148315430e+00,-3.253124237060546875e+01,-1.843573608398437500e+02,3.631624603271484375e+01,2.296047210693359375e+01,3.276340866088867188e+01
5.559999942779541016e-01,2.000000000000000000e+00,-2.512608718872070312e+01,-2.413542032241821289e+00,4.539221954345703125e+01,9.451293945312500000e+01,8.425546264648437500e+01,1.365283355712890625e+02,-2.540400505065917969e+00,-3.252526855468750000e+01,-1.843527679443359375e+02,3.631677246093750000e+01,2.297757720947265625e+01,3.275910568237304688e+01
5.600000023841857910e-01,2.000000000000000000e+00,-2.517980957031250000e+01,-2.375336647033691406e+00,4.534763717651367188e+01,9.452142333984375000e+01,8.425577545166015625e+01,1.365163269042968750e+02,-2.591938972473144531e+00,-3.251929473876953125e+01,-1.843481597900390625e+02,3.631729888916015625e+01,2.299467849731445312e+01,3.275481033325195312e+01
5.640000104904174805e-01,2.000000000000000000e+00,-2.523352050781250000e+01,-2.337139844894409180e+00,4.530306243896484375e+01,9.452990722656250000e+01,8.425608825683593750e+01,1.365043182373046875e+02,-2.643465757369995117e+00,-3.251332473754882812e+01,-1.843435516357421875e+02,3.631782150268554688e+01,2.301177597045898438e+01,3.275051498413085938e+01
5.680000185966491699e-01,2.000000000000000000e+00,-2.528722000122070312e+01,-2.298952102661132812e+00,4.525849914550781250e+01,9.453838348388671875e+01,8.425639343261718750e+01,1.364923095703125000e+02,-2.694980382919311523e+00,-3.250735855102539062e+01,-1.843389739990234375e+02,3.631834793090820312e+01,2.302887153625488281e+01,3.274621963500976562e+01
5.720000267028808594e-01,2.000000000000000000e+00,-2.534090614318847656e+01,-2.260772943496704102e+00,4.521395111083984375e+01,9.454686737060546875e+01,8.425669860839843750e+01,1.364803161621093750e+02,-2.746483325958251953e+00,-3.250138854980468750e+01,-1.843343658447265625e+02,3.631887054443359375e+01,2.304596138000488281e+01,3.274192428588867188e+01
5.759999752044677734e-01,2.000000000000000000e+00,-2.539457893371582031e+01,-2.222602605819702148e+00,4.516940689086914062e+01,9.455534362792968750e+01,8.425701904296875000e+01,1.364683074951171875e+02,-2.797974109649658203e+00,-3.249542236328125000e+01,-1.843297729492187500e+02,3.631939697265625000e+01,2.306304740905761719e+01,3.273763275146484375e+01
5.799999833106994629e-01,2.000000000000000000e+00,-2.544824028015136719e+01,-2.184441328048706055e+00,4.512487411499023438e+01,9.456381225585937500e+01,8.425732421875000000e+01,1.364562988281250000e+02,-2.849453449249267578e+00,-3.248945999145507812e+01,-1.843251647949218750e+02,3.631991958618164062e+01,2.308012962341308594e+01,3.273334121704101562e+01
5.839999914169311523e-01,2.000000000000000000e+00,-2.550188827514648438e+01,-2.146288871765136719e+00,4.508035659790039062e+01,9.457228851318359375e+01,8.425762939453125000e+01,1.364443054199218750e+02,-2.900920867919921875e+00,-3.248349380493164062e+01,-1.843205871582031250e+02,3.632044601440429688e+01,2.309720802307128906e+01,3.272904968261718750e+01
5.879999995231628418e-01,2.000000000000000000e+00,-2.555552482604980469e+01,-2.108144760131835938e+00,4.503584289550781250e+01,9.458075714111328125e+01,8.425794219970703125e+01,1.364323120117187500e+02,-2.952376127243041992e+00,-3.247752761840820312e+01,-1.843159942626953125e+02,3.632097244262695312e+01,2.311428260803222656e+01,3.272475814819335938e+01
5.920000076293945312e-01,2.000000000000000000e+00,-2.560914993286132812e+01,-2.070009708404541016e+00,4.499134445190429688e+01,9.458922576904296875e+01,8.425825500488281250e+01,1.364203186035156250e+02,-3.003819942474365234e+00,-3.247156906127929688e+01,-1.843113861083984375e+02,3.632149505615234375e+01,2.313135337829589844e+01,3.272047042846679688e+01
5.960000157356262207e-01,2.000000000000000000e+00,-2.566276168823242188e+01,-2.031883239746093750e+00,4.494685363769531250e+01,9.459769439697265625e+01,8.425856018066406250e+01,1.364083251953125000e+02,-3.055251598358154297e+00,-3.246561050415039062e+01,-1.843067932128906250e+02,3.632202148437500000e+01,2.314842033386230469e+01,3.271618270874023438e+01
6.000000238418579102e-01,2.000000000000000000e+00,-2.571636009216308594e+01,-1.993765950202941895e+00,4.490237045288085938e+01,9.460616302490234375e+01,8.425887298583984375e+01,1.363963317871093750e+02,-3.106671571731567383e+00,-3.245965194702148438e+01,-1.843022003173828125e+02,3.632254409790039062e+01,2.316548156738281250e+01,3.271189498901367188e+01
6.039999723434448242e-01,2.000000000000000000e+00,-2.576994895935058594e+01,-1.955657362937927246e+00,4.485790252685546875e+01,9.461462402343750000e+01,8.425917816162109375e+01,1.363843536376953125e+02,-3.158079624176025391e+00,-3.245369720458984375e+01,-1.842976226806640625e+02,3.632307052612304688e+01,2.318254089355468750e+01,3.270760726928710938e+01
6.079999804496765137e-01,2.000000000000000000e+00,-2.582352256774902344e+01,-1.917557477951049805e+00,4.481344223022460938e+01,9.462308502197265625e+01,8.425949096679687500e+01,1.363723754882812500e+02,-3.209475755691528320e+00,-3.244773864746093750e+01,-1.842930450439453125e+02,3.632359313964843750e+01,2.319959449768066406e+01,3.270332336425781250e+01
6.119999885559082031e-01,2.000000000000000000e+00,-2.587708473205566406e+01,-1.879466414451599121e+00,4.476898956298828125e+01,9.463153839111328125e+01,8.425979614257812500e+01,1.363603973388671875e+02,-3.260860443115234375e+00,-3.244178390502929688e+01,-1.842884521484375000e+02,3.632411956787109375e+01,2.321664619445800781e+01,3.269903945922851562e+01
6.159999966621398926e-01,2.000000000000000000e+00,-2.593063545227050781e+01,-1.841383576393127441e+00,4.472455215454101562e+01,9.463999938964843750e+01,8.426010894775390625e+01,1.363484191894531250e+02,-3.312232971191406250e+00,-3.243583297729492188e+01,-1.842838592529296875e+02,3.632464218139648438e+01,2.323369216918945312e+01,3.269475555419921875e+01
6.200000047683715820e-01,2.000000000000000000e+00,-2.598417472839355469e+01,-1.803309321403503418e+00,4.468012237548828125e+01,9.464845275878906250e+01,8.426042175292968750e+01,1.363364562988281250e+02,-3.363593816757202148e+00,-3.242988204956054688e+01,-1.842792663574218750e+02,3.632516098022460938e+01,2.325073623657226562e+01,3.269047546386718750e+01
6.240000128746032715e-01,2.000000000000000000e+00,-2.603770065307617188e+01,-1.765244007110595703e+00,4.463570404052734375e+01,9.465690612792968750e+01,8.426072692871093750e+01,1.363244781494140625e+02,-3.414942979812622070e+00,-3.242393112182617188e+01,-1.842746887207031250e+02,3.632568740844726562e+01,2.326777648925781250e+01,3.268619155883789062e+01
6.280000209808349609e-01,2.000000000000000000e+00,-2.609121322631835938e+01,-1.727187395095825195e+00,4.459129333496093750e+01,9.466535949707031250e+01,8.426103210449218750e+01,1.363125000000000000e+02,-3.466280460357666016e+00,-3.241798019409179688e+01,-1.842701110839843750e+02,3.632621002197265625e+01,2.328481101989746094e+01,3.268191146850585938e+01
6.320000290870666504e-01,2.000000000000000000e+00,-2.614471626281738281e+01,-1.689139485359191895e+00,4.454689788818359375e+01,9.467380523681640625e+01,8.426134490966796875e+01,1.363005371093750000e+02,-3.517606258392333984e+00,-3.241203308105468750e+01,-1.842655334472656250e+02,3.632673263549804688e+01,2.330184364318847656e+01,3.267763519287109375e+01
6.359999775886535645e-01,2.000000000000000000e+00,-2.619820594787597656e+01,-1.651100277900695801e+00,4.450250625610351562e+01,9.468225860595703125e+01,8.426165771484375000e+01,1.362885894775390625e+02,-3.568920135498046875e+00,-3.240608978271484375e+01,-1.842609558105468750e+02,3.632725524902343750e+01,2.331887054443359375e+01,3.267335510253906250e+01
6.399999856948852539e-01,2.000000000000000000e+00,-2.625168228149414062e+01,-1.613069772720336914e+00,4.445812988281250000e+01,9.469069671630859375e+01,8.426196289062500000e+01,1.362766113281250000e+02,-3.620222330093383789e+00,-3.240014266967773438e+01,-1.842563629150390625e+02,3.632777786254882812e+01,2.333589553833007812e+01,3.266907501220703125e+01
6.439999938011169434e-01,2.000000000000000000e+00,-2.630514717102050781e+01,-1.575047850608825684e+00,4.441376113891601562e+01,9.469915008544921875e+01,8.426226806640625000e+01,1.362646636962890625e+02,-3.671513080596923828e+00,-3.239419937133789062e+01,-1.842517852783203125e+02,3.632830047607421875e+01,2.335291481018066406e+01,3.266479873657226562e+01
6.480000019073486328e-01,2.000000000000000000e+00,-2.635860061645507812e+01,-1.537034511566162109e+00,4.436940002441406250e+01,9.470758819580078125e+01,8.426257324218750000e+01,1.362527160644531250e+02,-3.722792148590087891e+00,-3.238825988769531250e+01,-1.842472076416015625e+02,3.632882690429687500e+01,2.336993217468261719e+01,3.266052246093750000e+01
6.520000100135803223e-01,2.000000000000000000e+00,-2.641204071044921875e+01,-1.499029755592346191e+00,4.432505416870117188e+01,9.471602630615234375e+01,8.426288604736328125e+01,1.362407531738281250e+02,-3.774060010910034180e+00,-3.238231658935546875e+01,-1.842426300048828125e+02,3.632934951782226562e+01,2.338694572448730469e+01,3.265625000000000000e+01
6.560000181198120117e-01,2.000000000000000000e+00,-2.646547126770019531e+01,-1.461033582687377930e+00,4.428071594238281250e+01,9.472446441650390625e+01,8.426319885253906250e+01,1.362288055419921875e+02,-3.825315713882446289e+00,-3.237637710571289062e+01,-1.842380523681640625e+02,3.632987213134765625e+01,2.340395164489746094e+01,3.265197753906250000e+01
6.600000262260437012e-01,2.000000000000000000e+00,-2.651888656616210938e+01,-1.423046112060546875e+00,4.423638534545898438e+01,9.473290252685546875e+01,8.426350402832031250e+01,1.362168731689453125e+02,-3.876560211181640625e+00,-3.237043762207031250e+01,-1.842334747314453125e+02,3.633039474487304688e+01,2.342095565795898438e+01,3.264770507812500000e+01
6.639999747276306152e-01,2.000000000000000000e+00,-2.657229042053222656e+01,-1.385067105293273926e+00,4.419206619262695312e+01,9.474133300781250000e+01,8.426380920410156250e+01,1.362049102783203125e+02,-3.927793025970458984e+00,-3.236450195312500000e+01,-1.842289123535156250e+02,3.633091735839843750e+01,2.343795776367187500e+01,3.264343261718750000e+01
6.679999828338623047e-01,2.000000000000000000e+00,-2.662568473815917969e+01,-1.347096681594848633e+00,4.414775848388671875e+01,9.474976348876953125e+01,8.426412200927734375e+01,1.361929779052734375e+02,-3.979014158248901367e+00,-3.235856628417968750e+01,-1.842243499755859375e+02,3.633143615722656250e+01,2.345495414733886719e+01,3.263916015625000000e+01
6.719999909400939941e-01,2.000000000000000000e+00,-2.667906379699707031e+01,-1.309134840965270996e+00,4.410346221923828125e+01,9.475819396972656250e+01,8.426442718505859375e+01,1.361810302734375000e+02,-4.030223846435546875e+00,-3.235263442993164062e+01,-1.842197723388671875e+02,3.633195877075195312e+01,2.347194671630859375e+01,3.263489151000976562e+01
6.759999990463256836e-01,2.000000000000000000e+00,-2.673243141174316406e+01,-1.271181464195251465e+00,4.405916976928710938e+01,9.476662445068359375e+01,8.426473236083984375e+01,1.361691131591796875e+02,-4.081422328948974609e+00,-3.234669876098632812e+01,-1.842152099609375000e+02,3.633248138427734375e+01,2.348893547058105469e+01,3.263062286376953125e+01
6.800000071525573730e-01,2.000000000000000000e+00,-2.678578948974609375e+01,-1.233236670494079590e+00,4.401488876342773438e+01,9.477504730224609375e+01,8.426504516601562500e+01,1.361571655273437500e+02,-4.132609367370605469e+00,-3.234077072143554688e+01,-1.842106323242187500e+02,3.633300399780273438e+01,2.350592041015625000e+01,3.262635421752929688e+01
6.840000152587890625e-01,2.000000000000000000e+00,-2.683913230895996094e+01,-1.195300459861755371e+00,4.397062301635742188e+01,9.478347015380859375e+01,8.426535034179687500e+01,1.361452484130859375e+02,-4.183784484863281250e+00,-3.233483886718750000e+01,-1.842060699462890625e+02,3.633352661132812500e+01,2.352290153503417969e+01,3.262208557128906250e+01
6.880000233650207520e-01,2.000000000000000000e+00,-2.689246749877929688e+01,-1.157372593879699707e+00,4.392636489868164062e+01,9.479190063476562500e+01,8.426565551757812500e+01,1.361333160400390625e+02,-4.234948635101318359e+00,-3.232891082763671875e+01,-1.842014923095703125e+02,3.633404922485351562e+01,2.353988075256347656e+01,3.261782073974609375e+01
6.919999718666076660e-01,2.000000000000000000e+00,-2.694578552246093750e+01,-1.119453310966491699e+00,4.388211441040039062e+01,9.480031585693359375e+01,8.426596069335937500e+01,1.361213989257812500e+02,-4.286101341247558594e+00,-3.232298660278320312e+01,-1.841969299316406250e+02,3.633456802368164062e+01,2.355685234069824219e+01,3.261355590820312500e+01
6.959999799728393555e-01,2.000000000000000000e+00,-2.699909400939941406e+01,-1.081542372703552246e+00,4.383787536621093750e+01,9.480873870849609375e+01,8.426627349853515625e+01,1.361094665527343750e+02,-4.337242126464843750e+00,-3.231705856323242188e+01,-1.841923675537109375e+02,3.633509063720703125e+01,2.357382392883300781e+01,3.260929489135742188e+01
6.999999880790710449e-01,2.000000000000000000e+00,-2.705239295959472656e+01,-1.043640136718750000e+00,4.379364776611328125e+01,9.481715393066406250e+01,8.426657867431640625e+01,1.360975646972656250e+02,-4.388371944427490234e+00,-3.231113433837890625e+01,-1.841878051757812500e+02,3.633561325073242188e+01,2.359078979492187500e+01,3.260503005981445312e+01
7.039999961853027344e-01,2.000000000000000000e+00,-2.710567665100097656e+01,-1.005746245384216309e+00,4.374942779541015625e+01,9.482556915283203125e+01,8.426688385009765625e+01,1.360856323242187500e+02,-4.439489841461181641e+00,-3.230521011352539062e+01,-1.841832427978515625e+02,3.633613204956054688e+01,2.360775184631347656e+01,3.260076522827148438e+01
7.080000042915344238e-01,2.000000000000000000e+00,-2.715894889831542969e+01,-9.678608775138854980e-01,4.370521545410156250e+01,9.483398437500000000e+01,8.426719665527343750e+01,1.360737152099609375e+02,-4.490596771240234375e+00,-3.229928970336914062e+01,-1.841786804199218750e+02,3.633665466308593750e+01,2.362471199035644531e+01,3.259650421142578125e+01
7.120000123977661133e-01,2.000000000000000000e+00,-2.721220970153808594e+01,-9.299840331077575684e-01,4.366101837158203125e+01,9.484239959716796875e+01,8.426750183105468750e+01,1.360618133544921875e+02,-4.541692256927490234e+00,-3.229336547851562500e+01,-1.841741180419921875e+02,3.633717346191406250e+01,2.364166450500488281e+01,3.259224700927734375e+01
7.160000205039978027e-01,2.000000000000000000e+00,-2.726545906066894531e+01,-8.921156525611877441e-01,4.361682510375976562e+01,9.485080718994140625e+01,8.426780700683593750e+01,1.360498962402343750e+02,-4.592775821685791016e+00,-3.228744888305664062e+01,-1.841695556640625000e+02,3.633769607543945312e+01,2.365861701965332031e+01,3.258798599243164062e+01
7.200000286102294922e-01,2.000000000000000000e+00,-2.731869506835937500e+01,-8.542557358741760254e-01,4.357265090942382812e+01,9.485921478271484375e+01,8.426811218261718750e+01,1.360379943847656250e+02,-4.643848419189453125e+00,-3.228152847290039062e+01,-1.841649932861328125e+02,3.633821487426757812e+01,2.367556381225585938e+01,3.258372879028320312e+01
7.239999771118164062e-01,2.000000000000000000e+00,-2.737192153930664062e+01,-8.164042830467224121e-01,4.352847671508789062e+01,9.486761474609375000e+01,8.426842498779296875e+01,1.360260925292968750e+02,-4.694909095764160156e+00,-3.227561569213867188e+01,-1.841604461669921875e+02,3.633873748779296875e+01,2.369250679016113281e+01,3.257947158813476562e+01
7.279999852180480957e-01,2.000000000000000000e+00,-2.742513465881347656e+01,-7.785612940788269043e-01,4.348431777954101562e+01,9.487602233886718750e+01,8.426873016357421875e+01,1.360141906738281250e+02,-4.745958805084228516e+00,-3.226969528198242188e+01,-1.841558837890625000e+02,3.633925628662109375e+01,2.370944595336914062e+01,3.257521438598632812e+01
7.319999933242797852e-01,2.000000000000000000e+00,-2.747833633422851562e+01,-7.407268285751342773e-01,4.344016647338867188e+01,9.488442230224609375e+01,8.426903533935546875e+01,1.360022888183593750e+02,-4.796996593475341797e+00,-3.226378631591796875e+01,-1.841513214111328125e+02,3.633977508544921875e+01,2.372638320922851562e+01,3.257096099853515625e+01
7.360000014305114746e-01,2.000000000000000000e+00,-2.753152465820312500e+01,-7.029008269309997559e-01,4.339602661132812500e+01,9.489282226562500000e+01,8.426934814453125000e+01,1.359904022216796875e+02,-4.848022937774658203e+00,-3.225786972045898438e+01,-1.841467590332031250e+02,3.634029769897460938e+01,2.374331474304199219e+01,3.256670379638671875e+01
7.400000095367431641e-01,2.000000000000000000e+00,-2.758470344543457031e+01,-6.650832295417785645e-01,4.335189819335937500e+01,9.490121459960937500e+01,8.426965332031250000e+01,1.359785156250000000e+02,-4.899038791656494141e+00,-3.225196075439453125e+01,-1.841422119140625000e+02,3.634081649780273438e+01,2.376024246215820312e+01,3.256245422363281250e+01
7.440000176429748535e-01,2.000000000000000000e+00,-2.763786888122558594e+01,-6.272740960121154785e-01,4.330777740478515625e+01,9.490962219238281250e+01,8.426995849609375000e+01,1.359666290283203125e+02,-4.950042247772216797e+00,-3.224605178833007812e+01,-1.841376495361328125e+02,3.634133529663085938e+01,2.377716827392578125e+01,3.255819702148437500e+01
7.480000257492065430e-01,2.000000000000000000e+00,-2.769102096557617188e+01,-5.894734263420104980e-01,4.326366806030273438e+01,9.491801452636718750e+01,8.427026367187500000e+01,1.359547271728515625e+02,-5.001034736633300781e+00,-3.224014282226562500e+01,-1.841331024169921875e+02,3.634185791015625000e+01,2.379408836364746094e+01,3.255394744873046875e+01
7.519999742507934570e-01,2.000000000000000000e+00,-2.774416351318359375e+01,-5.516812801361083984e-01,4.321956634521484375e+01,9.492639923095703125e+01,8.427057647705078125e+01,1.359428405761718750e+02,-5.052015781402587891e+00,-3.223423385620117188e+01,-1.841285552978515625e+02,3.634237670898437500e+01,2.381100463867187500e+01,3.254969787597656250e+01
7.559999823570251465e-01,2.000000000000000000e+00,-2.779729461669921875e+01,-5.138975381851196289e-01,4.317547607421875000e+01,9.493479156494140625e+01,8.427088165283203125e+01,1.359309692382812500e+02,-5.102985382080078125e+00,-3.222832489013671875e+01,-1.841240081787109375e+02,3.634289550781250000e+01,2.382791709899902344e+01,3.254544448852539062e+01
7.599999904632568359e-01,2.000000000000000000e+00,-2.785041236877441406e+01,-4.761222004890441895e-01,4.313139343261718750e+01,9.494318389892578125e+01,8.427118682861328125e+01,1.359190826416015625e+02,-5.153944015502929688e+00,-3.222242355346679688e+01,-1.841194610595703125e+02,3.634341812133789062e+01,2.384482765197753906e+01,3.254119873046875000e+01
7.639999985694885254e-01,2.000000000000000000e+00,-2.790351676940917969e+01,-4.383552968502044678e-01,4.308732223510742188e+01,9.495156860351562500e+01,8.427149963378906250e+01,1.359072113037109375e+02,-5.204890727996826172e+00,-3.221652221679687500e+01,-1.841149139404296875e+02,3.634393692016601562e+01,2.386173248291015625e+01,3.253694915771484375e+01
7.680000066757202148e-01,2.000000000000000000e+00,-2.795661163330078125e+01,-4.005968868732452393e-01,4.304326248168945312e+01,9.495996093750000000e+01,8.427179718017578125e+01,1.358953247070312500e+02,-5.255825996398925781e+00,-3.221062088012695312e+01,-1.841103668212890625e+02,3.634445571899414062e+01,2.387863540649414062e+01,3.253270339965820312e+01
7.720000147819519043e-01,2.000000000000000000e+00,-2.800969505310058594e+01,-3.628468811511993408e-01,4.299921035766601562e+01,9.496833801269531250e+01,8.427210235595703125e+01,1.358834533691406250e+02,-5.306750297546386719e+00,-3.220471954345703125e+01,-1.841058197021484375e+02,3.634497451782226562e+01,2.389553260803222656e+01,3.252845764160156250e+01
7.760000228881835938e-01,2.000000000000000000e+00,-2.806276512145996094e+01,-3.251053392887115479e-01,4.295516967773437500e+01,9.497671508789062500e+01,8.427241516113281250e+01,1.358715820312500000e+02,-5.357662677764892578e+00,-3.219881820678710938e+01,-1.841012725830078125e+02,3.634549331665039062e+01,2.391242790222167969e+01,3.252421188354492188e+01
7.799999713897705078e-01,2.000000000000000000e+00,-2.811582374572753906e+01,-2.873722314834594727e-01,4.291114044189453125e+01,9.498509979248046875e+01,8.427272033691406250e+01,1.358597259521484375e+02,-5.408564090728759766e+00,-3.219292068481445312e+01,-1.840967254638671875e+02,3.634601211547851562e+01,2.392931747436523438e+01,3.251996994018554688e+01
7.839999794960021973e-01,2.000000000000000000e+00,-2.816887092590332031e+01,-2.496475279331207275e-01,4.286711502075195312e+01,9.499347686767578125e+01,8.427302551269531250e+01,1.358478546142578125e+02,-5.459454059600830078e+00,-3.218701934814453125e+01,-1.840921936035156250e+02,3.634653091430664062e+01,2.394620513916015625e+01,3.251572418212890625e+01
7.879999876022338867e-01,2.000000000000000000e+00,-2.822190666198730469e+01,-2.119312584400177002e-01,4.282310485839843750e+01,9.500185394287109375e+01,8.427333068847656250e+01,1.358359985351562500e+02,-5.510332584381103516e+00,-3.218112564086914062e+01,-1.840876464843750000e+02,3.634704971313476562e+01,2.396308708190917969e+01,3.251148223876953125e+01
7.919999957084655762e-01,2.000000000000000000e+00,-2.827492904663085938e+01,-1.742234230041503906e-01,4.277910232543945312e+01,9.501023101806640625e+01,8.427363586425781250e+01,1.358241424560546875e+02,-5.561199665069580078e+00,-3.217523193359375000e+01,-1.840831146240234375e+02,3.634756851196289062e+01,2.397996711730957031e+01,3.250724029541015625e+01
7.960000038146972656e-01,2.000000000000000000e+00,-2.832793998718261719e+01,-1.365239918231964111e-01,4.273510742187500000e+01,9.501860046386718750e+01,8.427394104003906250e+01,1.358122863769531250e+02,-5.612055778503417969e+00,-3.216934204101562500e+01,-1.840785522460937500e+02,3.634808731079101562e+01,2.399684143066406250e+01,3.250300216674804688e+01
8.000000119209289551e-01,2.000000000000000000e+00,-2.838094139099121094e+01,-9.883299469947814941e-02,4.269112396240234375e+01,9.502696990966796875e+01,8.427424621582031250e+01,1.358004455566406250e+02,-5.662899971008300781e+00,-3.216344833374023438e+01,-1.840740203857421875e+02,3.634860229492187500e+01,2.401371192932128906e+01,3.249876022338867188e+01
8.040000200271606445e-01,2.000000000000000000e+00,-2.843392753601074219e+01,-6.115039810538291931e-02,4.264715194702148438e+01,9.503533172607421875e+01,8.427455902099609375e+01,1.357885894775390625e+02,-5.713733196258544922e+00,-3.215755844116210938e+01,-1.840694885253906250e+02,3.634912490844726562e+01,2.403058052062988281e+01,3.249452209472656250e+01
8.080000281333923340e-01,2.000000000000000000e+00,-2.848690414428710938e+01,-2.347621507942676544e-02,4.260318756103515625e+01,9.504370117187500000e+01,8.427485656738281250e+01,1.357767486572265625e+02,-5.764554977416992188e+00,-3.215166854858398438e+01,-1.840649566650390625e+02,3.634964370727539062e+01,2.404744529724121094e+01,3.249028396606445312e+01
8.119999766349792480e-01,2.000000000000000000e+00,-2.853986740112304688e+01,1.418956182897090912e-02,4.255923843383789062e+01,9.505207061767578125e+01,8.427516174316406250e+01,1.357649078369140625e+02,-5.815365791320800781e+00,-3.214577865600585938e+01,-1.840604248046875000e+02,3.635016250610351562e+01,2.406430625915527344e+01,3.248604965209960938e+01
8.159999847412109375e-01,2.000000000000000000e+00,-2.859281921386718750e+01,5.184692889451980591e-02,4.251529693603515625e+01,9.506043243408203125e+01,8.427547454833984375e+01,1.357530517578125000e+02,-5.866164684295654297e+00,-3.213989639282226562e+01,-1.840558776855468750e+02,3.635067749023437500e+01,2.408116149902343750e+01,3.248181533813476562e+01
8.199999928474426270e-01,2.000000000000000000e+00,-2.864576148986816406e+01,8.949589729309082031e-02,4.247135925292968750e+01,9.506878662109375000e+01,8.427577972412109375e+01,1.357412109375000000e+02,-5.916952610015869141e+00,-3.213401031494140625e+01,-1.840513458251953125e+02,3.635119628906250000e+01,2.409801483154296875e+01,3.247758102416992188e+01
8.240000009536743164e-01,2.000000000000000000e+00,-2.869869041442871094e+01,1.271364688873291016e-01,4.242743682861328125e+01,9.507714843750000000e+01,8.427607727050781250e+01,1.357293853759765625e+02,-5.967729091644287109e+00,-3.212812423706054688e+01,-1.840468139648437500e+02,3.635171127319335938e+01,2.411486244201660156e+01,3.247334671020507812e+01
8.280000090599060059e-01,2.000000000000000000e+00,-2.875160598754882812e+01,1.647686511278152466e-01,4.238352203369140625e+01,9.508551025390625000e+01,8.427639007568359375e+01,1.357175445556640625e+02,-6.018494129180908203e+00,-3.212224197387695312e+01,-1.840422973632812500e+02,3.635223007202148438e+01,2.413171005249023438e+01,3.246911621093750000e+01
8.320000171661376953e-01,2.000000000000000000e+00,-2.880451011657714844e+01,2.023924142122268677e-01,4.233961868286132812e+01,9.509386444091796875e+01,8.427669525146484375e+01,1.357057037353515625e+02,-6.069248199462890625e+00,-3.211636352539062500e+01,-1.840377502441406250e+02,3.635274887084960938e+01,2.414855003356933594e+01,3.246488189697265625e+01
8.360000252723693848e-01,2.000000000000000000e+00,-2.885740280151367188e+01,2.400078028440475464e-01,4.229572677612304688e+01,9.510221862792968750e+01,8.427699279785156250e+01,1.356938781738281250e+02,-6.119990348815917969e+00,-3.211048126220703125e+01,-1.840332183837890625e+02,3.635326385498046875e+01,2.416538619995117188e+01,3.246065139770507812e+01
8.399999737739562988e-01,2.000000000000000000e+00,-2.891028594970703125e+01,2.776148319244384766e-01,4.225184249877929688e+01,9.511056518554687500e+01,8.427730560302734375e+01,1.356820526123046875e+02,-6.170721530914306641e+00,-3.210460281372070312e+01,-1.840287017822265625e+02,3.635378265380859375e+01,2.418222236633300781e+01,3.245642089843750000e+01
8.439999818801879883e-01,2.000000000000000000e+00,-2.896315383911132812e+01,3.152134418487548828e-01,4.220796203613281250e+01,9.511891937255859375e+01,8.427761077880859375e+01,1.356702423095703125e+02,-6.221441268920898438e+00,-3.209872817993164062e+01,-1.840241699218750000e+02,3.635430145263671875e+01,2.419905090332031250e+01,3.245219421386718750e+01
8.479999899864196777e-01,2.000000000000000000e+00,-2.901601409912109375e+01,3.528036773204803467e-01,4.216410064697265625e+01,9.512726593017578125e+01,8.427790832519531250e+01,1.356584167480468750e+02,-6.272150039672851562e+00,-3.209284973144531250e+01,-1.840196380615234375e+02,3.635481643676757812e+01,2.421587753295898438e+01,3.244796371459960938e+01
8.519999980926513672e-01,2.000000000000000000e+00,-2.906885910034179688e+01,3.903855383396148682e-01,4.212024307250976562e+01,9.513561248779296875e+01,8.427822113037109375e+01,1.356465911865234375e+02,-6.322847366333007812e+00,-3.208697509765625000e+01,-1.840151214599609375e+02,3.635533523559570312e+01,2.423270034790039062e+01,3.244373703002929688e+01
8.560000061988830566e-01,2.000000000000000000e+00,-2.912169265747070312e+01,4.279590249061584473e-01,4.207639694213867188e+01,9.514395904541015625e+01,8.427852630615234375e+01,1.356347656250000000e+02,-6.373533248901367188e+00,-3.208110046386718750e+01,-1.840105895996093750e+02,3.635585021972656250e+01,2.424951934814453125e+01,3.243951416015625000e+01
8.600000143051147461e-01,2.000000000000000000e+00,-2.917451477050781250e+01,4.655241370201110840e-01,4.203256607055664062e+01,9.515229797363281250e+01,8.427882385253906250e+01,1.356229705810546875e+02,-6.424207687377929688e+00,-3.207522964477539062e+01,-1.840060577392578125e+02,3.635636520385742188e+01,2.426633644104003906e+01,3.243528366088867188e+01
8.640000224113464355e-01,2.000000000000000000e+00,-2.922732543945312500e+01,5.030809044837951660e-01,4.198873901367187500e+01,9.516063690185546875e+01,8.427912902832031250e+01,1.356111602783203125e+02,-6.474871158599853516e+00,-3.206935882568359375e+01,-1.840015411376953125e+02,3.635688400268554688e+01,2.428314590454101562e+01,3.243106079101562500e+01
8.679999709129333496e-01,2.000000000000000000e+00,-2.928012275695800781e+01,5.406292676925659180e-01,4.194491958618164062e+01,9.516897583007812500e+01,8.427944183349609375e+01,1.355993499755859375e+02,-6.525523662567138672e+00,-3.206349182128906250e+01,-1.839970245361328125e+02,3.635740280151367188e+01,2.429995346069335938e+01,3.242683792114257812e+01
8.719999790191650391e-01,2.000000000000000000e+00,-2.933291053771972656e+01,5.781692862510681152e-01,4.190111541748046875e+01,9.517730712890625000e+01,8.427973937988281250e+01,1.355875549316406250e+02,-6.576164245605468750e+00,-3.205762481689453125e+01,-1.839924926757812500e+02,3.635791778564453125e+01,2.431675720214843750e+01,3.242261505126953125e+01
8.759999871253967285e-01,2.000000000000000000e+00,-2.938568687438964844e+01,6.157009601593017578e-01,4.185731887817382812e+01,9.518564605712890625e+01,8.428004455566406250e+01,1.355757446289062500e+02,-6.626793861389160156e+00,-3.205175399780273438e+01,-1.839879760742187500e+02,3.635843276977539062e+01,2.433355903625488281e+01,3.241839218139648438e+01
8.799999952316284180e-01,2.000000000000000000e+00,-2.943844985961914062e+01,6.532242298126220703e-01,4.181352996826171875e+01,9.519397735595703125e+01,8.428034973144531250e+01,1.355639495849609375e+02,-6.677412033081054688e+00,-3.204589080810546875e+01,-1.839834747314453125e+02,3.635894775390625000e+01,2.435035514831542969e+01,3.241417694091796875e+01
8.840000033378601074e-01,2.000000000000000000e+00,-2.949120330810546875e+01,6.907391548156738281e-01,4.176975250244140625e+01,9.520230865478515625e+01,8.428065490722656250e+01,1.355521392822265625e+02,-6.728019237518310547e+00,-3.204002761840820312e+01,-1.839789428710937500e+02,3.635946273803710938e+01,2.436714744567871094e+01,3.240995407104492188e+01
8.880000114440917969e-01,2.000000000000000000e+00,-2.954394340515136719e+01,7.282457947731018066e-01,4.172598648071289062e+01,9.521063995361328125e+01,8.428096008300781250e+01,1.355403442382812500e+02,-6.778614997863769531e+00,-3.203416442871093750e+01,-1.839744262695312500e+02,3.635998153686523438e+01,2.438393783569335938e+01,3.240573883056640625e+01
8.920000195503234863e-01,2.000000000000000000e+00,-2.959667205810546875e+01,7.657440304756164551e-01,4.168223190307617188e+01,9.521896362304687500e+01,8.428126525878906250e+01,1.355285491943359375e+02,-6.829199314117431641e+00,-3.202830123901367188e+01,-1.839699249267578125e+02,3.636049652099609375e+01,2.440072250366210938e+01,3.240151977539062500e+01
8.960000276565551758e-01,2.000000000000000000e+00,-2.964938735961914062e+01,8.032339215278625488e-01,4.163848114013671875e+01,9.522728729248046875e+01,8.428157043457031250e+01,1.355167541503906250e+02,-6.879772663116455078e+00,-3.202244186401367188e+01,-1.839653930664062500e+02,3.636101150512695312e+01,2.441750335693359375e+01,3.239730072021484375e+01
8.999999761581420898e-01,2.000000000000000000e+00,-2.970209312438964844e+01,8.407155275344848633e-01,4.159474182128906250e+01,9.523561859130859375e+01,8.428186798095703125e+01,1.355049896240234375e+02,-6.930334568023681641e+00,-3.201658248901367188e+01,-1.839608917236328125e+02,3.636152648925781250e+01,2.443428230285644531e+01,3.239308929443359375e+01
9.039999842643737793e-01,2.000000000000000000e+00,-2.975478744506835938e+01,8.781887292861938477e-01,4.155101394653320312e+01,9.524393463134765625e+01,8.428218078613281250e+01,1.354931945800781250e+02,-6.980885028839111328e+00,-3.201072692871093750e+01,-1.839563751220703125e+02,3.636204147338867188e+01,2.445105552673339844e+01,3.238887023925781250e+01
9.079999923706054688e-01,2.000000000000000000e+00,-2.980746841430664062e+01,9.156535863876342773e-01,4.150729751586914062e+01,9.525225830078125000e+01,8.428247833251953125e+01,1.354814147949218750e+02,-7.031424522399902344e+00,-3.200487136840820312e+01,-1.839518585205078125e+02,3.636255645751953125e+01,2.446782684326171875e+01,3.238465499877929688e+01
9.120000004768371582e-01,2.000000000000000000e+00,-2.986013603210449219e+01,9.531100988388061523e-01,4.146358489990234375e+01,9.526057434082031250e+01,8.428278350830078125e+01,1.354696350097656250e+02,-7.081952571868896484e+00,-3.199901390075683594e+01,-1.839473571777343750e+02,3.636307525634765625e+01,2.448459243774414062e+01,3.238044357299804688e+01
9.160000085830688477e-01,2.000000000000000000e+00,-2.991279602050781250e+01,9.905583262443542480e-01,4.141988754272460938e+01,9.526889038085937500e+01,8.428308868408203125e+01,1.354578552246093750e+02,-7.132469654083251953e+00,-3.199316024780273438e+01,-1.839428405761718750e+02,3.636359024047851562e+01,2.450135612487792969e+01,3.237623596191406250e+01
9.200000166893005371e-01,2.000000000000000000e+00,-2.996544075012207031e+01,1.027998208999633789e+00,4.137619781494140625e+01,9.527720642089843750e+01,8.428339385986328125e+01,1.354460754394531250e+02,-7.182975292205810547e+00,-3.198731040954589844e+01,-1.839383392333984375e+02,3.636410140991210938e+01,2.451811599731445312e+01,3.237202072143554688e+01
9.240000247955322266e-01,2.000000000000000000e+00,-3.001807785034179688e+01,1.065429806709289551e+00,4.133251953125000000e+01,9.528551483154296875e+01,8.428369903564453125e+01,1.354343109130859375e+02,-7.233469963073730469e+00,-3.198145675659179688e+01,-1.839338226318359375e+02,3.636461639404296875e+01,2.453487014770507812e+01,3.236781311035156250e+01
9.279999732971191406e-01,2.000000000000000000e+00,-3.007069969177246094e+01,1.102853059768676758e+00,4.128884887695312500e+01,9.529383087158203125e+01,8.428400421142578125e+01,1.354225463867187500e+02,-7.283952713012695312e+00,-3.197560691833496094e+01,-1.839293212890625000e+02,3.636513137817382812e+01,2.455162239074707031e+01,3.236360168457031250e+01
9.319999814033508301e-01,2.000000000000000000e+00,-3.012331008911132812e+01,1.140267968177795410e+00,4.124518585205078125e+01,9.530213928222656250e+01,8.428430175781250000e+01,1.354107818603515625e+02,-7.334425449371337891e+00,-3.196975898742675781e+01,-1.839248046875000000e+02,3.636564636230468750e+01,2.456837081909179688e+01,3.235939407348632812e+01
9.359999895095825195e-01,2.000000000000000000e+00,-3.017590904235839844e+01,1.177674651145935059e+00,4.120153427124023438e+01,9.531044006347656250e+01,8.428460693359375000e+01,1.353990173339843750e+02,-7.384885787963867188e+00,-3.196391296386718750e+01,-1.839203186035156250e+02,3.636616134643554688e+01,2.458511352539062500e+01,3.235518646240234375e+01
9.399999976158142090e-01,2.000000000000000000e+00,-3.022849845886230469e+01,1.215072989463806152e+00,4.115789413452148438e+01,9.531874847412109375e+01,8.428491210937500000e+01,1.353872528076171875e+02,-7.435335636138916016e+00,-3.195806694030761719e+01,-1.839158020019531250e+02,3.636667633056640625e+01,2.460185432434082031e+01,3.235097885131835938e+01
9.440000057220458984e-01,2.000000000000000000e+00,-3.028107452392578125e+01,1.252462863922119141e+00,4.111426162719726562e+01,9.532704925537109375e+01,8.428520965576171875e+01,1.353755035400390625e+02,-7.485774040222167969e+00,-3.195222282409667969e+01,-1.839113006591796875e+02,3.636718750000000000e+01,2.461859321594238281e+01,3.234677505493164062e+01
9.480000138282775879e-01,2.000000000000000000e+00,-3.033363914489746094e+01,1.289844632148742676e+00,4.107064056396484375e+01,9.533535003662109375e+01,8.428552246093750000e+01,1.353637390136718750e+02,-7.536201000213623047e+00,-3.194638061523437500e+01,-1.839068145751953125e+02,3.636770629882812500e+01,2.463532447814941406e+01,3.234257125854492188e+01
9.520000219345092773e-01,2.000000000000000000e+00,-3.038619041442871094e+01,1.327218055725097656e+00,4.102703094482421875e+01,9.534365081787109375e+01,8.428582000732421875e+01,1.353519897460937500e+02,-7.586617469787597656e+00,-3.194053649902343750e+01,-1.839022979736328125e+02,3.636821746826171875e+01,2.465205383300781250e+01,3.233836746215820312e+01
9.559999704360961914e-01,2.000000000000000000e+00,-3.043873214721679688e+01,1.364583134651184082e+00,4.098342514038085938e+01,9.535195159912109375e+01,8.428611755371093750e+01,1.353402404785156250e+02,-7.637022495269775391e+00,-3.193469619750976562e+01,-1.838978118896484375e+02,3.636873245239257812e+01,2.466878128051757812e+01,3.233416366577148438e+01
9.599999785423278809e-01,2.000000000000000000e+00,-3.049126243591308594e+01,1.401939868927001953e+00,4.093983840942382812e+01,9.536024475097656250e+01,8.428643035888671875e+01,1.353284912109375000e+02,-7.687415599822998047e+00,-3.192885780334472656e+01,-1.838933105468750000e+02,3.636924362182617188e+01,2.468550109863281250e+01,3.232996368408203125e+01
9.639999866485595703e-01,2.000000000000000000e+00,-3.054377937316894531e+01,1.439288377761840820e+00,4.089625167846679688e+01,9.536853790283203125e+01,8.428672790527343750e+01,1.353167419433593750e+02,-7.737798690795898438e+00,-3.192301750183105469e+01,-1.838888092041015625e+02,3.636976242065429688e+01,2.470221900939941406e+01,3.232576370239257812e+01
9.679999947547912598e-01,2.000000000000000000e+00,-3.059628677368164062e+01,1.476628541946411133e+00,4.085268020629882812e+01,9.537683105468750000e+01,8.428703308105468750e+01,1.353049926757812500e+02,-7.788169384002685547e+00,-3.191718101501464844e+01,-1.838843078613281250e+02,3.637027359008789062e+01,2.471893501281738281e+01,3.232156372070312500e+01
9.720000028610229492e-01,2.000000000000000000e+00,-3.064878082275390625e+01,1.513960480690002441e+00,4.080911636352539062e+01,9.538512420654296875e+01,8.428733825683593750e+01,1.352932586669921875e+02,-7.838530063629150391e+00,-3.191134834289550781e+01,-1.838798217773437500e+02,3.637078475952148438e+01,2.473564529418945312e+01,3.231735992431640625e+01
9.760000109672546387e-01,2.000000000000000000e+00,-3.070126342773437500e+01,1.551284074783325195e+00,4.076556015014648438e+01,9.539340972900390625e+01,8.428763580322265625e+01,1.352815246582031250e+02,-7.888878822326660156e+00,-3.190551185607910156e+01,-1.838753204345703125e+02,3.637129974365234375e+01,2.475235366821289062e+01,3.231316375732421875e+01
9.800000190734863281e-01,2.000000000000000000e+00,-3.075373268127441406e+01,1.588599443435668945e+00,4.072201919555664062e+01,9.540170288085937500e+01,8.428794097900390625e+01,1.352697906494140625e+02,-7.939216613769531250e+00,-3.189967918395996094e+01,-1.838708190917968750e+02,3.637181472778320312e+01,2.476905632019042969e+01,3.230896759033203125e+01
9.840000271797180176e-01,2.000000000000000000e+00,-3.080619621276855469e+01,1.625906467437744141e+00,4.067848205566406250e+01,9.540998840332031250e+01,8.428824615478515625e+01,1.352580566406250000e+02,-7.989542961120605469e+00,-3.189384841918945312e+01,-1.838663330078125000e+02,3.637232589721679688e+01,2.478575706481933594e+01,3.230477523803710938e+01
9.879999756813049316e-01,2.000000000000000000e+00,-3.085864067077636719e+01,1.663205265998840332e+00,4.063495635986328125e+01,9.541826629638671875e+01,8.428854370117187500e+01,1.352463226318359375e+02,-8.039858818054199219e+00,-3.188801574707031250e+01,-1.838618469238281250e+02,3.637283706665039062e+01,2.480245018005371094e+01,3.230057525634765625e+01
9.919999837875366211e-01,2.000000000000000000e+00,-3.091107749938964844e+01,1.700495839118957520e+00,4.059144210815429688e+01,9.542654418945312500e+01,8.428884887695312500e+01,1.352346038818359375e+02,-8.090163230895996094e+00,-3.188218879699707031e+01,-1.838573608398437500e+02,3.637335205078125000e+01,2.481914329528808594e+01,3.229638290405273438e+01
9.959999918937683105e-01,2.000000000000000000e+00,-3.096350097656250000e+01,1.737778067588806152e+00,4.054793930053710938e+01,9.543482971191406250e+01,8.428915405273437500e+01,1.352228851318359375e+02,-8.140455245971679688e+00,-3.187635993957519531e+01,-1.838528594970703125e+02,3.637386703491210938e+01,2.483583259582519531e+01,3.229219055175781250e+01
1.000000000000000000e+00,2.000000000000000000e+00,-3.101591682434082031e+01,1.775052070617675781e+00,4.050444412231445312e+01,9.544310760498046875e+01,8.428945159912109375e+01,1.352111663818359375e+02,-8.190737724304199219e+00,-3.187053298950195312e+01,-1.838483886718750000e+02,3.637437820434570312e+01,2.485251808166503906e+01,3.228799438476562500e+01
1.003999948501586914e+00,2.000000000000000000e+00,-3.106831741333007812e+01,1.812317728996276855e+00,4.046095657348632812e+01,9.545137786865234375e+01,8.428975677490234375e+01,1.351994476318359375e+02,-8.241008758544921875e+00,-3.186470794677734375e+01,-1.838438873291015625e+02,3.637488937377929688e+01,2.486919975280761719e+01,3.228380584716796875e+01
1.008000016212463379e+00,2.000000000000000000e+00,-3.112070846557617188e+01,1.849575161933898926e+00,4.041747665405273438e+01,9.545965576171875000e+01,8.429006195068359375e+01,1.351877288818359375e+02,-8.291267395019531250e+00,-3.185888481140136719e+01,-1.838394012451171875e+02,3.637540054321289062e+01,2.488587570190429688e+01,3.227961349487304688e+01
1.011999964714050293e+00,2.000000000000000000e+00,-3.117308616638183594e+01,1.886824369430541992e+00,4.037401199340820312e+01,9.546792602539062500e+01,8.429035949707031250e+01,1.351759948730468750e+02,-8.341516494750976562e+00,-3.185306167602539062e+01,-1.838349151611328125e+02,3.637591552734375000e+01,2.490254974365234375e+01,3.227542495727539062e+01
1.016000032424926758e+00,2.000000000000000000e+00,-3.122545242309570312e+01,1.924065351486206055e+00,4.033055496215820312e+01,9.547619628906250000e+01,8.429066467285156250e+01,1.351642913818359375e+02,-8.391754150390625000e+00,-3.184724044799804688e+01,-1.838304290771484375e+02,3.637642669677734375e+01,2.491921997070312500e+01,3.227123641967773438e+01
1.019999980926513672e+00,2.000000000000000000e+00,-3.127780723571777344e+01,1.961297988891601562e+00,4.028710556030273438e+01,9.548445892333984375e+01,8.429096221923828125e+01,1.351525878906250000e+02,-8.441979408264160156e+00,-3.184142112731933594e+01,-1.838259582519531250e+02,3.637693786621093750e+01,2.493588638305664062e+01,3.226704788208007812e+01
1.024000048637390137e+00,2.000000000000000000e+00,-3.133015060424804688e+01,1.998522520065307617e+00,4.024366760253906250e+01,9.549272918701171875e+01,8.429126739501953125e+01,1.351408843994140625e+02,-8.492195129394531250e+00,-3.183560180664062500e+01,-1.838214721679687500e+02,3.637745285034179688e+01,2.495254898071289062e+01,3.226286315917968750e+01
1.026999950408935547e+00,2.000000000000000000e+00,-3.138248252868652344e+01,2.035738706588745117e+00,4.020024108886718750e+01,9.550099945068359375e+01,8.429157257080078125e+01,1.351291809082031250e+02,-8.542399406433105469e+00,-3.182978439331054688e+01,-1.838169860839843750e+02,3.637796401977539062e+01,2.496920776367187500e+01,3.225867462158203125e+01
1.031999945640563965e+00,2.000000000000000000e+00,-3.143480110168457031e+01,2.072946548461914062e+00,4.015682220458984375e+01,9.550925445556640625e+01,8.429187011718750000e+01,1.351174774169921875e+02,-8.592591285705566406e+00,-3.182396888732910156e+01,-1.838125152587890625e+02,3.637847518920898438e+01,2.498586273193359375e+01,3.225448989868164062e+01
1.036000013351440430e+00,2.000000000000000000e+00,-3.148711013793945312e+01,2.110146522521972656e+00,4.011341094970703125e+01,9.551751708984375000e+01,8.429217529296875000e+01,1.351057739257812500e+02,-8.642773628234863281e+00,-3.181815338134765625e+01,-1.838080291748046875e+02,3.637898635864257812e+01,2.500251579284667969e+01,3.225030517578125000e+01
1.039999961853027344e+00,2.000000000000000000e+00,-3.153940582275390625e+01,2.147337913513183594e+00,4.007001113891601562e+01,9.552577972412109375e+01,8.429247283935546875e+01,1.350940856933593750e+02,-8.692944526672363281e+00,-3.181233978271484375e+01,-1.838035430908203125e+02,3.637949752807617188e+01,2.501916313171386719e+01,3.224612426757812500e+01
1.044000029563903809e+00,2.000000000000000000e+00,-3.159169387817382812e+01,2.184520959854125977e+00,4.002661895751953125e+01,9.553403472900390625e+01,8.429277801513671875e+01,1.350823822021484375e+02,-8.743103027343750000e+00,-3.180652809143066406e+01,-1.837990722656250000e+02,3.638000869750976562e+01,2.503580856323242188e+01,3.224194335937500000e+01
1.047999978065490723e+00,2.000000000000000000e+00,-3.164396667480468750e+01,2.221695899963378906e+00,3.998324203491210938e+01,9.554228973388671875e+01,8.429308319091796875e+01,1.350707092285156250e+02,-8.793251991271972656e+00,-3.180071640014648438e+01,-1.837945861816406250e+02,3.638051986694335938e+01,2.505244827270507812e+01,3.223775863647460938e+01
1.052000045776367188e+00,2.000000000000000000e+00,-3.169622993469238281e+01,2.258862733840942383e+00,3.993986892700195312e+01,9.555054473876953125e+01,8.429338073730468750e+01,1.350590209960937500e+02,-8.843389511108398438e+00,-3.179490661621093750e+01,-1.837901153564453125e+02,3.638103103637695312e+01,2.506908416748046875e+01,3.223357772827148438e+01
1.054999947547912598e+00,2.000000000000000000e+00,-3.174848175048828125e+01,2.296021223068237305e+00,3.989650726318359375e+01,9.555879211425781250e+01,8.429367828369140625e+01,1.350473327636718750e+02,-8.893515586853027344e+00,-3.178909683227539062e+01,-1.837856445312500000e+02,3.638154220581054688e+01,2.508571815490722656e+01,3.222940063476562500e+01
1.059999942779541016e+00,2.000000000000000000e+00,-3.180071830749511719e+01,2.333171844482421875e+00,3.985315704345703125e+01,9.556704711914062500e+01,8.429398345947265625e+01,1.350356445312500000e+02,-8.943631172180175781e+00,-3.178329277038574219e+01,-1.837811737060546875e+02,3.638205337524414062e+01,2.510234832763671875e+01,3.222522354125976562e+01
1.064000010490417480e+00,2.000000000000000000e+00,-3.185294532775878906e+01,2.370313644409179688e+00,3.980981445312500000e+01,9.557529449462890625e+01,8.429428100585937500e+01,1.350239562988281250e+02,-8.993734359741210938e+00,-3.177748680114746094e+01,-1.837766876220703125e+02,3.638256454467773438e+01,2.511897468566894531e+01,3.222104644775390625e+01
1.067999958992004395e+00,2.000000000000000000e+00,-3.190516281127929688e+01,2.407447576522827148e+00,3.976648330688476562e+01,9.558354187011718750e+01,8.429458618164062500e+01,1.350122833251953125e+02,-9.043827056884765625e+00,-3.177168083190917969e+01,-1.837722320556640625e+02,3.638307571411132812e+01,2.513559532165527344e+01,3.221686935424804688e+01
1.072000026702880859e+00,2.000000000000000000e+00,-3.195736694335937500e+01,2.444573402404785156e+00,3.972315979003906250e+01,9.559178161621093750e+01,8.429488372802734375e+01,1.350006103515625000e+02,-9.093909263610839844e+00,-3.176587867736816406e+01,-1.837677612304687500e+02,3.638358306884765625e+01,2.515221405029296875e+01,3.221269226074218750e+01
1.075999975204467773e+00,2.000000000000000000e+00,-3.200955963134765625e+01,2.481690883636474609e+00,3.967984771728515625e+01,9.560002899169921875e+01,8.429518890380859375e+01,1.349889373779296875e+02,-9.143980026245117188e+00,-3.176007652282714844e+01,-1.837632751464843750e+02,3.638409805297851562e+01,2.516882896423339844e+01,3.220851898193359375e+01
1.080000042915344238e+00,2.000000000000000000e+00,-3.206174087524414062e+01,2.518800020217895508e+00,3.963654327392578125e+01,9.560826873779296875e+01,8.429549407958984375e+01,1.349772644042968750e+02,-9.194040298461914062e+00,-3.175427818298339844e+01,-1.837588043212890625e+02,3.638460540771484375e+01,2.518544006347656250e+01,3.220434188842773438e+01
1.083999991416931152e+00,2.000000000000000000e+00,-3.211391067504882812e+01,2.555901050567626953e+00,3.959324645996093750e+01,9.561650848388671875e+01,8.429579162597656250e+01,1.349656066894531250e+02,-9.244088172912597656e+00,-3.174847412109375000e+01,-1.837543487548828125e+02,3.638511657714843750e+01,2.520204734802246094e+01,3.220016860961914062e+01
1.088000059127807617e+00,2.000000000000000000e+00,-3.216606903076171875e+01,2.592993736267089844e+00,3.954996490478515625e+01,9.562474822998046875e+01,8.429608917236328125e+01,1.349539337158203125e+02,-9.294126510620117188e+00,-3.174267959594726562e+01,-1.837498779296875000e+02,3.638562774658203125e+01,2.521865272521972656e+01,3.219599914550781250e+01
1.090999960899353027e+00,2.000000000000000000e+00,-3.221821594238281250e+01,2.630078554153442383e+00,3.950668716430664062e+01,9.563298034667968750e+01,8.429639434814453125e+01,1.349422760009765625e+02,-9.344152450561523438e+00,-3.173688125610351562e+01,-1.837454071044921875e+02,3.638613510131835938e+01,2.523525047302246094e+01,3.219182586669921875e+01
1.095999956130981445e+00,2.000000000000000000e+00,-3.227035140991210938e+01,2.667155027389526367e+00,3.946342468261718750e+01,9.564121246337890625e+01,8.429669189453125000e+01,1.349306182861328125e+02,-9.394167900085449219e+00,-3.173108482360839844e+01,-1.837409515380859375e+02,3.638665008544921875e+01,2.525184822082519531e+01,3.218765640258789062e+01
1.100000023841857910e+00,2.000000000000000000e+00,-3.232247543334960938e+01,2.704223155975341797e+00,3.942016601562500000e+01,9.564944458007812500e+01,8.429699707031250000e+01,1.349189605712890625e+02,-9.444172859191894531e+00,-3.172529411315917969e+01,-1.837364959716796875e+02,3.638715744018554688e+01,2.526844024658203125e+01,3.218348693847656250e+01
1.103999972343444824e+00,2.000000000000000000e+00,-3.237458801269531250e+01,2.741283178329467773e+00,3.937692260742187500e+01,9.565767669677734375e+01,8.429729461669921875e+01,1.349073028564453125e+02,-9.494165420532226562e+00,-3.171949768066406250e+01,-1.837320251464843750e+02,3.638766479492187500e+01,2.528502845764160156e+01,3.217932128906250000e+01
1.108000040054321289e+00,2.000000000000000000e+00,-3.242668914794921875e+01,2.778335094451904297e+00,3.933368301391601562e+01,9.566590881347656250e+01,8.429759216308593750e+01,1.348956451416015625e+02,-9.544147491455078125e+00,-3.171370506286621094e+01,-1.837275695800781250e+02,3.638817596435546875e+01,2.530161476135253906e+01,3.217515182495117188e+01
1.111999988555908203e+00,2.000000000000000000e+00,-3.247877883911132812e+01,2.815378904342651367e+00,3.929045867919921875e+01,9.567412567138671875e+01,8.429789733886718750e+01,1.348840179443359375e+02,-9.594119071960449219e+00,-3.170791816711425781e+01,-1.837230987548828125e+02,3.638868331909179688e+01,2.531819725036621094e+01,3.217098617553710938e+01
1.116000056266784668e+00,2.000000000000000000e+00,-3.253085708618164062e+01,2.852414131164550781e+00,3.924724197387695312e+01,9.568235015869140625e+01,8.429819488525390625e+01,1.348723602294921875e+02,-9.644079208374023438e+00,-3.170212936401367188e+01,-1.837186431884765625e+02,3.638919448852539062e+01,2.533477592468261719e+01,3.216682052612304688e+01
