rpiRobotics/ARM-21-02-F-19-Robot-Motion-Program/data_performance_abb/curve_1/dual_arm/diffevo_pose3/grad_result/real_from_sim/sim_result/dual_iteration_7.csv
timestamp,cmd_num,J1,J2,J3,J4,J5,J6,J1_2,J2_2,J3_2,J4_2,J5_2,J6_2
0.000000000000000000e+00,-1.000000000000000000e+00,-1.944029426574707031e+01,-6.170446395874023438e+00,5.029281234741210938e+01,9.401645660400390625e+01,8.469467163085937500e+01,1.369573364257812500e+02,2.953410148620605469e+00,-3.314596176147460938e+01,-1.848721618652343750e+02,3.628544616699218750e+01,2.118721389770507812e+01,3.320418167114257812e+01
2.000000094994902611e-03,-1.000000000000000000e+00,-1.944029426574707031e+01,-6.170446395874023438e+00,5.029281234741210938e+01,9.401645660400390625e+01,8.469467163085937500e+01,1.369573364257812500e+02,2.953410148620605469e+00,-3.314596176147460938e+01,-1.848721618652343750e+02,3.628544616699218750e+01,2.118721389770507812e+01,3.320418167114257812e+01
6.000000052154064178e-03,-1.000000000000000000e+00,-1.944029426574707031e+01,-6.170446395874023438e+00,5.029281234741210938e+01,9.401645660400390625e+01,8.469467163085937500e+01,1.369573364257812500e+02,2.953410148620605469e+00,-3.314596176147460938e+01,-1.848721618652343750e+02,3.628544616699218750e+01,2.118721389770507812e+01,3.320418167114257812e+01
8.000000379979610443e-03,-1.000000000000000000e+00,-1.944029426574707031e+01,-6.170446395874023438e+00,5.029281234741210938e+01,9.401645660400390625e+01,8.469467163085937500e+01,1.369573364257812500e+02,2.953410148620605469e+00,-3.314596176147460938e+01,-1.848721618652343750e+02,3.628544616699218750e+01,2.118721389770507812e+01,3.320418167114257812e+01
1.099999994039535522e-02,-1.000000000000000000e+00,-1.944029426574707031e+01,-6.170446395874023438e+00,5.029281234741210938e+01,9.401645660400390625e+01,8.469467163085937500e+01,1.369573364257812500e+02,2.953410148620605469e+00,-3.314596176147460938e+01,-1.848721618652343750e+02,3.628544616699218750e+01,2.118721389770507812e+01,3.320418167114257812e+01
1.600000075995922089e-02,-1.000000000000000000e+00,-1.944029426574707031e+01,-6.170446395874023438e+00,5.029281234741210938e+01,9.401645660400390625e+01,8.469467163085937500e+01,1.369573364257812500e+02,2.953410148620605469e+00,-3.314596176147460938e+01,-1.848721618652343750e+02,3.628544616699218750e+01,2.118721389770507812e+01,3.320418167114257812e+01
1.999999955296516418e-02,-1.000000000000000000e+00,-1.944029426574707031e+01,-6.170446395874023438e+00,5.029281234741210938e+01,9.401645660400390625e+01,8.469467163085937500e+01,1.369573364257812500e+02,2.953410148620605469e+00,-3.314596176147460938e+01,-1.848721618652343750e+02,3.628544616699218750e+01,2.118721389770507812e+01,3.320418167114257812e+01
2.400000020861625671e-02,-1.000000000000000000e+00,-1.944029426574707031e+01,-6.170446395874023438e+00,5.029281234741210938e+01,9.401645660400390625e+01,8.469467163085937500e+01,1.369573364257812500e+02,2.953410148620605469e+00,-3.314596176147460938e+01,-1.848721618652343750e+02,3.628544616699218750e+01,2.118721389770507812e+01,3.320418167114257812e+01
2.800000086426734924e-02,-1.000000000000000000e+00,-1.944029426574707031e+01,-6.170446395874023438e+00,5.029281234741210938e+01,9.401645660400390625e+01,8.469467163085937500e+01,1.369573364257812500e+02,2.953410148620605469e+00,-3.314596176147460938e+01,-1.848721618652343750e+02,3.628544616699218750e+01,2.118721389770507812e+01,3.320418167114257812e+01
3.200000151991844177e-02,2.000000000000000000e+00,-1.944029426574707031e+01,-6.170446395874023438e+00,5.029281234741210938e+01,9.401645660400390625e+01,8.469467163085937500e+01,1.369573364257812500e+02,2.953410148620605469e+00,-3.314596176147460938e+01,-1.848721618652343750e+02,3.628544616699218750e+01,2.118721389770507812e+01,3.320418167114257812e+01
3.599999845027923584e-02,2.000000000000000000e+00,-1.944029426574707031e+01,-6.170446395874023438e+00,5.029281234741210938e+01,9.401645660400390625e+01,8.469467163085937500e+01,1.369573364257812500e+02,2.953410148620605469e+00,-3.314596176147460938e+01,-1.848721618652343750e+02,3.628544616699218750e+01,2.118721389770507812e+01,3.320418167114257812e+01
4.199999943375587463e-02,2.000000000000000000e+00,-1.944029426574707031e+01,-6.170446395874023438e+00,5.029281234741210938e+01,9.401645660400390625e+01,8.469467163085937500e+01,1.369573364257812500e+02,2.953410148620605469e+00,-3.314596176147460938e+01,-1.848721618652343750e+02,3.628544616699218750e+01,2.118721389770507812e+01,3.320418167114257812e+01
4.399999976158142090e-02,2.000000000000000000e+00,-1.944029426574707031e+01,-6.170446395874023438e+00,5.029281234741210938e+01,9.401645660400390625e+01,8.469467163085937500e+01,1.369573364257812500e+02,2.953410148620605469e+00,-3.314596176147460938e+01,-1.848721618652343750e+02,3.628544616699218750e+01,2.118721389770507812e+01,3.320418167114257812e+01
4.800000041723251343e-02,2.000000000000000000e+00,-1.944029426574707031e+01,-6.170446395874023438e+00,5.029281234741210938e+01,9.401645660400390625e+01,8.469467163085937500e+01,1.369573364257812500e+02,2.953410148620605469e+00,-3.314596176147460938e+01,-1.848721618652343750e+02,3.628544616699218750e+01,2.118721389770507812e+01,3.320418167114257812e+01
5.200000107288360596e-02,2.000000000000000000e+00,-1.944029426574707031e+01,-6.170446395874023438e+00,5.029281234741210938e+01,9.401645660400390625e+01,8.469467163085937500e+01,1.369573364257812500e+02,2.953410148620605469e+00,-3.314596176147460938e+01,-1.848721618652343750e+02,3.628544616699218750e+01,2.118721389770507812e+01,3.320418167114257812e+01
5.600000172853469849e-02,2.000000000000000000e+00,-1.944029426574707031e+01,-6.170446395874023438e+00,5.029281234741210938e+01,9.401645660400390625e+01,8.469467163085937500e+01,1.369573364257812500e+02,2.953410148620605469e+00,-3.314596176147460938e+01,-1.848721618652343750e+02,3.628544616699218750e+01,2.118721389770507812e+01,3.320418167114257812e+01
5.999999865889549255e-02,2.000000000000000000e+00,-1.944029426574707031e+01,-6.170446395874023438e+00,5.029281234741210938e+01,9.401645660400390625e+01,8.469467163085937500e+01,1.369573364257812500e+02,2.953410148620605469e+00,-3.314596176147460938e+01,-1.848721618652343750e+02,3.628544616699218750e+01,2.118721389770507812e+01,3.320418167114257812e+01
6.400000303983688354e-02,2.000000000000000000e+00,-1.944029426574707031e+01,-6.170446395874023438e+00,5.029281234741210938e+01,9.401645660400390625e+01,8.469467163085937500e+01,1.369573364257812500e+02,2.953410148620605469e+00,-3.314596176147460938e+01,-1.848721618652343750e+02,3.628544616699218750e+01,2.118721389770507812e+01,3.320418167114257812e+01
6.800000369548797607e-02,2.000000000000000000e+00,-1.944029426574707031e+01,-6.170446395874023438e+00,5.029281234741210938e+01,9.401645660400390625e+01,8.469467163085937500e+01,1.369573364257812500e+02,2.953410148620605469e+00,-3.314596176147460938e+01,-1.848721618652343750e+02,3.628544616699218750e+01,2.118721389770507812e+01,3.320418167114257812e+01
7.199999690055847168e-02,2.000000000000000000e+00,-1.944029426574707031e+01,-6.170446395874023438e+00,5.029281234741210938e+01,9.401645660400390625e+01,8.469467163085937500e+01,1.369573364257812500e+02,2.953410148620605469e+00,-3.314596176147460938e+01,-1.848721618652343750e+02,3.628544616699218750e+01,2.118721389770507812e+01,3.320418167114257812e+01
7.599999755620956421e-02,2.000000000000000000e+00,-1.944036102294921875e+01,-6.170419692993164062e+00,5.029279708862304688e+01,9.401645660400390625e+01,8.469467163085937500e+01,1.369573364257812500e+02,2.953410148620605469e+00,-3.314596176147460938e+01,-1.848721618652343750e+02,3.628544616699218750e+01,2.118721389770507812e+01,3.320418167114257812e+01
7.999999821186065674e-02,2.000000000000000000e+00,-1.944074058532714844e+01,-6.170258522033691406e+00,5.029270935058593750e+01,9.401646423339843750e+01,8.469466400146484375e+01,1.369573364257812500e+02,2.953410148620605469e+00,-3.314596176147460938e+01,-1.848721618652343750e+02,3.628544616699218750e+01,2.118721389770507812e+01,3.320418167114257812e+01
8.399999886751174927e-02,2.000000000000000000e+00,-1.944182205200195312e+01,-6.169755935668945312e+00,5.029243087768554688e+01,9.401647186279296875e+01,8.469464874267578125e+01,1.369573364257812500e+02,2.953410148620605469e+00,-3.314596176147460938e+01,-1.848721618652343750e+02,3.628544616699218750e+01,2.118721389770507812e+01,3.320418167114257812e+01
8.799999952316284180e-02,2.000000000000000000e+00,-1.944397163391113281e+01,-6.168673515319824219e+00,5.029180526733398438e+01,9.401650238037109375e+01,8.469460296630859375e+01,1.369573059082031250e+02,2.953382730484008789e+00,-3.314595794677734375e+01,-1.848721466064453125e+02,3.628544616699218750e+01,2.118721771240234375e+01,3.320418167114257812e+01
9.200000017881393433e-02,2.000000000000000000e+00,-1.944741630554199219e+01,-6.166807174682617188e+00,5.029067611694335938e+01,9.401656341552734375e+01,8.469451904296875000e+01,1.369572296142578125e+02,2.953203678131103516e+00,-3.314595031738281250e+01,-1.848721313476562500e+02,3.628544998168945312e+01,2.118723297119140625e+01,3.320418167114257812e+01
9.600000083446502686e-02,2.000000000000000000e+00,-1.945232009887695312e+01,-6.163983345031738281e+00,5.028885269165039062e+01,9.401670074462890625e+01,8.469440460205078125e+01,1.369570770263671875e+02,2.952612400054931641e+00,-3.314591598510742188e+01,-1.848720397949218750e+02,3.628545379638671875e+01,2.118729400634765625e+01,3.320417785644531250e+01
1.000000014901161194e-01,2.000000000000000000e+00,-1.945882987976074219e+01,-6.160041809082031250e+00,5.028612136840820312e+01,9.401693725585937500e+01,8.469424438476562500e+01,1.369568176269531250e+02,2.951255798339843750e+00,-3.314582824707031250e+01,-1.848718414306640625e+02,3.628547668457031250e+01,2.118745613098144531e+01,3.320415115356445312e+01
1.040000021457672119e-01,2.000000000000000000e+00,-1.946697425842285156e+01,-6.154882431030273438e+00,5.028226470947265625e+01,9.401734161376953125e+01,8.469404602050781250e+01,1.369563140869140625e+02,2.948746919631958008e+00,-3.314565277099609375e+01,-1.848715057373046875e+02,3.628551864624023438e+01,2.118780517578125000e+01,3.320409011840820312e+01
1.080000028014183044e-01,2.000000000000000000e+00,-1.947667312622070312e+01,-6.148482322692871094e+00,5.027707672119140625e+01,9.401795196533203125e+01,8.469382476806640625e+01,1.369555358886718750e+02,2.944658756256103516e+00,-3.314533996582031250e+01,-1.848709564208984375e+02,3.628558349609375000e+01,2.118847656250000000e+01,3.320395278930664062e+01
1.120000034570693970e-01,2.000000000000000000e+00,-1.948794746398925781e+01,-6.140809059143066406e+00,5.027033996582031250e+01,9.401882934570312500e+01,8.469358062744140625e+01,1.369544067382812500e+02,2.938518524169921875e+00,-3.314484024047851562e+01,-1.848701934814453125e+02,3.628568267822265625e+01,2.118964004516601562e+01,3.320369338989257812e+01
1.159999966621398926e-01,2.000000000000000000e+00,-1.950104904174804688e+01,-6.131724834442138672e+00,5.026176834106445312e+01,9.402004241943359375e+01,8.469332122802734375e+01,1.369528198242187500e+02,2.929935216903686523e+00,-3.314407730102539062e+01,-1.848691558837890625e+02,3.628583908081054688e+01,2.119149971008300781e+01,3.320325088500976562e+01
1.199999973177909851e-01,2.000000000000000000e+00,-1.951640129089355469e+01,-6.120994091033935547e+00,5.025105285644531250e+01,9.402164459228515625e+01,8.469303894042968750e+01,1.369507141113281250e+02,2.918685913085937500e+00,-3.314300537109375000e+01,-1.848678741455078125e+02,3.628604507446289062e+01,2.119426536560058594e+01,3.320255279541015625e+01
1.239999979734420776e-01,2.000000000000000000e+00,-1.953437042236328125e+01,-6.108404159545898438e+00,5.023790359497070312e+01,9.402369689941406250e+01,8.469271850585937500e+01,1.369479980468750000e+02,2.904614448547363281e+00,-3.314156341552734375e+01,-1.848663482666015625e+02,3.628631973266601562e+01,2.119813919067382812e+01,3.320153808593750000e+01
1.280000060796737671e-01,2.000000000000000000e+00,-1.955511093139648438e+01,-6.093876361846923828e+00,5.022212219238281250e+01,9.402623748779296875e+01,8.469238281250000000e+01,1.369446258544921875e+02,2.887487411499023438e+00,-3.313971710205078125e+01,-1.848646392822265625e+02,3.628666305541992188e+01,2.120329666137695312e+01,3.320014190673828125e+01
1.309999972581863403e-01,2.000000000000000000e+00,-1.957858848571777344e+01,-6.077456951141357422e+00,5.020360183715820312e+01,9.402930450439453125e+01,8.469204711914062500e+01,1.369405212402343750e+02,2.867020130157470703e+00,-3.313741683959960938e+01,-1.848626556396484375e+02,3.628709030151367188e+01,2.120986175537109375e+01,3.319833755493164062e+01
1.360000073909759521e-01,2.000000000000000000e+00,-1.960470962524414062e+01,-6.059229850769042969e+00,5.018229675292968750e+01,9.403292083740234375e+01,8.469168853759765625e+01,1.369356689453125000e+02,2.843018293380737305e+00,-3.313464736938476562e+01,-1.848604278564453125e+02,3.628759765625000000e+01,2.121790504455566406e+01,3.319609832763671875e+01
1.389999985694885254e-01,2.000000000000000000e+00,-1.963339042663574219e+01,-6.039253711700439453e+00,5.015819549560546875e+01,9.403710174560546875e+01,8.469133758544921875e+01,1.369300537109375000e+02,2.815400362014770508e+00,-3.313140487670898438e+01,-1.848579254150390625e+02,3.628819274902343750e+01,2.122742271423339844e+01,3.319343185424804688e+01
1.439999938011169434e-01,2.000000000000000000e+00,-1.966454696655273438e+01,-6.017584800720214844e+00,5.013134765625000000e+01,9.404184722900390625e+01,8.469097900390625000e+01,1.369236602783203125e+02,2.784136056900024414e+00,-3.312769699096679688e+01,-1.848551177978515625e+02,3.628886795043945312e+01,2.123836326599121094e+01,3.319035339355468750e+01
1.480000019073486328e-01,2.000000000000000000e+00,-1.969808006286621094e+01,-5.994278907775878906e+00,5.010187149047851562e+01,9.404711914062500000e+01,8.469062805175781250e+01,1.369165344238281250e+02,2.749281883239746094e+00,-3.312355422973632812e+01,-1.848520355224609375e+02,3.628962326049804688e+01,2.125063514709472656e+01,3.318690109252929688e+01
1.519999951124191284e-01,2.000000000000000000e+00,-1.973400306701660156e+01,-5.969300270080566406e+00,5.006987762451171875e+01,9.405289459228515625e+01,8.469026947021484375e+01,1.369087524414062500e+02,2.711066961288452148e+00,-3.311901855468750000e+01,-1.848486328125000000e+02,3.629044723510742188e+01,2.126409912109375000e+01,3.318311309814453125e+01
1.560000032186508179e-01,2.000000000000000000e+00,-1.977244758605957031e+01,-5.942527770996093750e+00,5.003548812866210938e+01,9.405911254882812500e+01,8.468988037109375000e+01,1.369003601074218750e+02,2.669900178909301758e+00,-3.311413192749023438e+01,-1.848449707031250000e+02,3.629133987426757812e+01,2.127859687805175781e+01,3.317902755737304688e+01
1.599999964237213135e-01,2.000000000000000000e+00,-1.981348419189453125e+01,-5.913887500762939453e+00,4.999885940551757812e+01,9.406570434570312500e+01,8.468946075439453125e+01,1.368914642333984375e+02,2.626236200332641602e+00,-3.310895156860351562e+01,-1.848410797119140625e+02,3.629228591918945312e+01,2.129396057128906250e+01,3.317470550537109375e+01
1.640000045299530029e-01,2.000000000000000000e+00,-1.985694503784179688e+01,-5.883474826812744141e+00,4.996025085449218750e+01,9.407263183593750000e+01,8.468901062011718750e+01,1.368821105957031250e+02,2.580454349517822266e+00,-3.310353851318359375e+01,-1.848369903564453125e+02,3.629327392578125000e+01,2.131002044677734375e+01,3.317018508911132812e+01
1.679999977350234985e-01,2.000000000000000000e+00,-1.990246391296386719e+01,-5.851517677307128906e+00,4.991997528076171875e+01,9.407982635498046875e+01,8.468852233886718750e+01,1.368724365234375000e+02,2.532867908477783203e+00,-3.309793472290039062e+01,-1.848327178955078125e+02,3.629429626464843750e+01,2.132661437988281250e+01,3.316552734375000000e+01
1.720000058412551880e-01,2.000000000000000000e+00,-1.994965744018554688e+01,-5.818252086639404297e+00,4.987832641601562500e+01,9.408723449707031250e+01,8.468799591064453125e+01,1.368624420166015625e+02,2.483789205551147461e+00,-3.309218597412109375e+01,-1.848282623291015625e+02,3.629535293579101562e+01,2.134359359741210938e+01,3.316076660156250000e+01
1.759999990463256836e-01,2.000000000000000000e+00,-1.999826049804687500e+01,-5.783867835998535156e+00,4.983557891845703125e+01,9.409480285644531250e+01,8.468743896484375000e+01,1.368522491455078125e+02,2.433547496795654297e+00,-3.308633422851562500e+01,-1.848236846923828125e+02,3.629642486572265625e+01,2.136083602905273438e+01,3.315594482421875000e+01
1.800000071525573730e-01,2.000000000000000000e+00,-2.004812431335449219e+01,-5.748522281646728516e+00,4.979194259643554688e+01,9.410249328613281250e+01,8.468685913085937500e+01,1.368419036865234375e+02,2.382439136505126953e+00,-3.308041000366210938e+01,-1.848189849853515625e+02,3.629751586914062500e+01,2.137824058532714844e+01,3.315108489990234375e+01
1.840000003576278687e-01,2.000000000000000000e+00,-2.009912681579589844e+01,-5.712369918823242188e+00,4.974762725830078125e+01,9.411027526855468750e+01,8.468625640869140625e+01,1.368314361572265625e+02,2.330703258514404297e+00,-3.307444381713867188e+01,-1.848142089843750000e+02,3.629861068725585938e+01,2.139573669433593750e+01,3.314621353149414062e+01
1.879999935626983643e-01,2.000000000000000000e+00,-2.015113067626953125e+01,-5.675555706024169922e+00,4.970280838012695312e+01,9.411811065673828125e+01,8.468561553955078125e+01,1.368209228515625000e+02,2.278560638427734375e+00,-3.306844711303710938e+01,-1.848093719482421875e+02,3.629971694946289062e+01,2.141327857971191406e+01,3.314132690429687500e+01
1.920000016689300537e-01,2.000000000000000000e+00,-2.020402908325195312e+01,-5.638197422027587891e+00,4.965761184692382812e+01,9.412596893310546875e+01,8.468495941162109375e+01,1.368103485107421875e+02,2.226213216781616211e+00,-3.306243896484375000e+01,-1.848045043945312500e+02,3.630082321166992188e+01,2.143083572387695312e+01,3.313644409179687500e+01
1.959999948740005493e-01,2.000000000000000000e+00,-2.025772285461425781e+01,-5.600403785705566406e+00,4.961214447021484375e+01,9.413385009765625000e+01,8.468428802490234375e+01,1.367997741699218750e+02,2.173804044723510742e+00,-3.305642700195312500e+01,-1.847996063232421875e+02,3.630192947387695312e+01,2.144839668273925781e+01,3.313156509399414062e+01
2.000000029802322388e-01,2.000000000000000000e+00,-2.031202888488769531e+01,-5.562312126159667969e+00,4.956651306152343750e+01,9.414173889160156250e+01,8.468360137939453125e+01,1.367891693115234375e+02,2.121395349502563477e+00,-3.305041503906250000e+01,-1.847947235107421875e+02,3.630303955078125000e+01,2.146595191955566406e+01,3.312668228149414062e+01
2.039999961853027344e-01,2.000000000000000000e+00,-2.036668395996093750e+01,-5.524068355560302734e+00,4.952080154418945312e+01,9.414962768554687500e+01,8.468290710449218750e+01,1.367785797119140625e+02,2.068998336791992188e+00,-3.304440307617187500e+01,-1.847898406982421875e+02,3.630414581298828125e+01,2.148350524902343750e+01,3.312179946899414062e+01
2.080000042915344238e-01,2.000000000000000000e+00,-2.042145347595214844e+01,-5.485780239105224609e+00,4.947507476806640625e+01,9.415751647949218750e+01,8.468220520019531250e+01,1.367679901123046875e+02,2.016613483428955078e+00,-3.303839492797851562e+01,-1.847849578857421875e+02,3.630525588989257812e+01,2.150105094909667969e+01,3.311692047119140625e+01
2.119999974966049194e-01,2.000000000000000000e+00,-2.047623062133789062e+01,-5.447493553161621094e+00,4.942935180664062500e+01,9.416540527343750000e+01,8.468150329589843750e+01,1.367574157714843750e+02,1.964241027832031250e+00,-3.303238677978515625e+01,-1.847800750732421875e+02,3.630636215209960938e+01,2.151859664916992188e+01,3.311204528808593750e+01
2.160000056028366089e-01,2.000000000000000000e+00,-2.053099822998046875e+01,-5.409214973449707031e+00,4.938364028930664062e+01,9.417329406738281250e+01,8.468080902099609375e+01,1.367468414306640625e+02,1.911880731582641602e+00,-3.302637863159179688e+01,-1.847751770019531250e+02,3.630746841430664062e+01,2.153613662719726562e+01,3.310716629028320312e+01
2.199999988079071045e-01,2.000000000000000000e+00,-2.058575057983398438e+01,-5.370945453643798828e+00,4.933794021606445312e+01,9.418117523193359375e+01,8.468011474609375000e+01,1.367362518310546875e+02,1.859532713890075684e+00,-3.302037429809570312e+01,-1.847703094482421875e+02,3.630857467651367188e+01,2.155367088317871094e+01,3.310229110717773438e+01
2.240000069141387939e-01,2.000000000000000000e+00,-2.064048957824707031e+01,-5.332684993743896484e+00,4.929225158691406250e+01,9.418906402587890625e+01,8.467941284179687500e+01,1.367256774902343750e+02,1.807196736335754395e+00,-3.301437377929687500e+01,-1.847654266357421875e+02,3.630968093872070312e+01,2.157120323181152344e+01,3.309741592407226562e+01
2.280000001192092896e-01,2.000000000000000000e+00,-2.069521713256835938e+01,-5.294433116912841797e+00,4.924657058715820312e+01,9.419694519042968750e+01,8.467871856689453125e+01,1.367151031494140625e+02,1.754873275756835938e+00,-3.300836944580078125e+01,-1.847605590820312500e+02,3.631078720092773438e+01,2.158872985839843750e+01,3.309254455566406250e+01
2.319999933242797852e-01,2.000000000000000000e+00,-2.074993133544921875e+01,-5.256190776824951172e+00,4.920090103149414062e+01,9.420481872558593750e+01,8.467802429199218750e+01,1.367045288085937500e+02,1.702561974525451660e+00,-3.300236892700195312e+01,-1.847556762695312500e+02,3.631189346313476562e+01,2.160625457763671875e+01,3.308766937255859375e+01
2.360000014305114746e-01,2.000000000000000000e+00,-2.080463600158691406e+01,-5.217957019805908203e+00,4.915523910522460938e+01,9.421269226074218750e+01,8.467732238769531250e+01,1.366939544677734375e+02,1.650263071060180664e+00,-3.299636840820312500e+01,-1.847507934570312500e+02,3.631300354003906250e+01,2.162377357482910156e+01,3.308280181884765625e+01
2.399999946355819702e-01,2.000000000000000000e+00,-2.085932540893554688e+01,-5.179732799530029297e+00,4.910959243774414062e+01,9.422056579589843750e+01,8.467662048339843750e+01,1.366833801269531250e+02,1.597976446151733398e+00,-3.299037170410156250e+01,-1.847459259033203125e+02,3.631410598754882812e+01,2.164128875732421875e+01,3.307793045043945312e+01
2.440000027418136597e-01,2.000000000000000000e+00,-2.091399955749511719e+01,-5.141517162322998047e+00,4.906395721435546875e+01,9.422844696044921875e+01,8.467592620849609375e+01,1.366728210449218750e+02,1.545702099800109863e+00,-3.298437500000000000e+01,-1.847410430908203125e+02,3.631521224975585938e+01,2.165880012512207031e+01,3.307306289672851562e+01
2.479999959468841553e-01,2.000000000000000000e+00,-2.096866607666015625e+01,-5.103310585021972656e+00,4.901833343505859375e+01,9.423631286621093750e+01,8.467523193359375000e+01,1.366622619628906250e+02,1.493440032005310059e+00,-3.297838211059570312e+01,-1.847361755371093750e+02,3.631631851196289062e+01,2.167630767822265625e+01,3.306819534301757812e+01
2.520000040531158447e-01,2.000000000000000000e+00,-2.102331542968750000e+01,-5.065113067626953125e+00,4.897271728515625000e+01,9.424417877197265625e+01,8.467453002929687500e+01,1.366516876220703125e+02,1.441190242767333984e+00,-3.297238540649414062e+01,-1.847313079833984375e+02,3.631742095947265625e+01,2.169380950927734375e+01,3.306332778930664062e+01
2.560000121593475342e-01,2.000000000000000000e+00,-2.107795333862304688e+01,-5.026924133300781250e+00,4.892711257934570312e+01,9.425205230712890625e+01,8.467383575439453125e+01,1.366411437988281250e+02,1.388952612876892090e+00,-3.296639251708984375e+01,-1.847264251708984375e+02,3.631852340698242188e+01,2.171130943298339844e+01,3.305846405029296875e+01
2.599999904632568359e-01,2.000000000000000000e+00,-2.113257980346679688e+01,-4.988743782043457031e+00,4.888151550292968750e+01,9.425991821289062500e+01,8.467314910888671875e+01,1.366305847167968750e+02,1.336727142333984375e+00,-3.296040344238281250e+01,-1.847215728759765625e+02,3.631962966918945312e+01,2.172880172729492188e+01,3.305359649658203125e+01
2.639999985694885254e-01,2.000000000000000000e+00,-2.118719291687011719e+01,-4.950572967529296875e+00,4.883592987060546875e+01,9.426777648925781250e+01,8.467244720458984375e+01,1.366200256347656250e+02,1.284513950347900391e+00,-3.295441436767578125e+01,-1.847166900634765625e+02,3.632073211669921875e+01,2.174629211425781250e+01,3.304873657226562500e+01
2.680000066757202148e-01,2.000000000000000000e+00,-2.124179267883300781e+01,-4.912410736083984375e+00,4.879035949707031250e+01,9.427564239501953125e+01,8.467175292968750000e+01,1.366094818115234375e+02,1.232313036918640137e+00,-3.294842529296875000e+01,-1.847118225097656250e+02,3.632183837890625000e+01,2.176378059387207031e+01,3.304387664794921875e+01
2.720000147819519043e-01,2.000000000000000000e+00,-2.129638099670410156e+01,-4.874257564544677734e+00,4.874479675292968750e+01,9.428350067138671875e+01,8.467105865478515625e+01,1.365989379882812500e+02,1.180124044418334961e+00,-3.294244003295898438e+01,-1.847069702148437500e+02,3.632294082641601562e+01,2.178126144409179688e+01,3.303901290893554688e+01
2.759999930858612061e-01,2.000000000000000000e+00,-2.135095596313476562e+01,-4.836112976074218750e+00,4.869924545288085938e+01,9.429135894775390625e+01,8.467035675048828125e+01,1.365883941650390625e+02,1.127947330474853516e+00,-3.293645477294921875e+01,-1.847021026611328125e+02,3.632404327392578125e+01,2.179874038696289062e+01,3.303415298461914062e+01
2.800000011920928955e-01,2.000000000000000000e+00,-2.140551757812500000e+01,-4.797976970672607422e+00,4.865370559692382812e+01,9.429920959472656250e+01,8.466966247558593750e+01,1.365778503417968750e+02,1.075782656669616699e+00,-3.293046951293945312e+01,-1.846972351074218750e+02,3.632514572143554688e+01,2.181621551513671875e+01,3.302929687500000000e+01
2.840000092983245850e-01,2.000000000000000000e+00,-2.146006774902343750e+01,-4.759850502014160156e+00,4.860817337036132812e+01,9.430706787109375000e+01,8.466896820068359375e+01,1.365672912597656250e+02,1.023630023002624512e+00,-3.292448806762695312e+01,-1.846923675537109375e+02,3.632624816894531250e+01,2.183368492126464844e+01,3.302443695068359375e+01
2.879999876022338867e-01,2.000000000000000000e+00,-2.151460456848144531e+01,-4.721732616424560547e+00,4.856265258789062500e+01,9.431491851806640625e+01,8.466827392578125000e+01,1.365567626953125000e+02,9.714894294738769531e-01,-3.291850662231445312e+01,-1.846875152587890625e+02,3.632735061645507812e+01,2.185115242004394531e+01,3.301958084106445312e+01
2.919999957084655762e-01,2.000000000000000000e+00,-2.156912803649902344e+01,-4.683623313903808594e+00,4.851714324951171875e+01,9.432276916503906250e+01,8.466757965087890625e+01,1.365462341308593750e+02,9.193607568740844727e-01,-3.291252517700195312e+01,-1.846826477050781250e+02,3.632845687866210938e+01,2.186861419677734375e+01,3.301472854614257812e+01
2.960000038146972656e-01,2.000000000000000000e+00,-2.162364006042480469e+01,-4.645523071289062500e+00,4.847164535522460938e+01,9.433061981201171875e+01,8.466688537597656250e+01,1.365357055664062500e+02,8.672441244125366211e-01,-3.290654754638671875e+01,-1.846777801513671875e+02,3.632955932617187500e+01,2.188607215881347656e+01,3.300987243652343750e+01
3.000000119209289551e-01,2.000000000000000000e+00,-2.167813873291015625e+01,-4.607431411743164062e+00,4.842615509033203125e+01,9.433847045898437500e+01,8.466619110107421875e+01,1.365251770019531250e+02,8.151394724845886230e-01,-3.290056991577148438e+01,-1.846729431152343750e+02,3.633065795898437500e+01,2.190352821350097656e+01,3.300501632690429688e+01
3.039999902248382568e-01,2.000000000000000000e+00,-2.173262596130371094e+01,-4.569348812103271484e+00,4.838067626953125000e+01,9.434631347656250000e+01,8.466549682617187500e+01,1.365146331787109375e+02,7.630468606948852539e-01,-3.289459609985351562e+01,-1.846680755615234375e+02,3.633176040649414062e+01,2.192097663879394531e+01,3.300016784667968750e+01
3.079999983310699463e-01,2.000000000000000000e+00,-2.178709793090820312e+01,-4.531274795532226562e+00,4.833520889282226562e+01,9.435416412353515625e+01,8.466480255126953125e+01,1.365041046142578125e+02,7.109661698341369629e-01,-3.288862228393554688e+01,-1.846632232666015625e+02,3.633285903930664062e+01,2.193842315673828125e+01,3.299531555175781250e+01
3.120000064373016357e-01,2.000000000000000000e+00,-2.184156036376953125e+01,-4.493209362030029297e+00,4.828975296020507812e+01,9.436199951171875000e+01,8.466410827636718750e+01,1.364935913085937500e+02,6.588974595069885254e-01,-3.288264846801757812e+01,-1.846583557128906250e+02,3.633396148681640625e+01,2.195586585998535156e+01,3.299046707153320312e+01
3.160000145435333252e-01,2.000000000000000000e+00,-2.189600944519042969e+01,-4.455152511596679688e+00,4.824430465698242188e+01,9.436983489990234375e+01,8.466341400146484375e+01,1.364830627441406250e+02,6.068407297134399414e-01,-3.287667465209960938e+01,-1.846535034179687500e+02,3.633506393432617188e+01,2.197330284118652344e+01,3.298561859130859375e+01
3.199999928474426270e-01,2.000000000000000000e+00,-2.195044517517089844e+01,-4.417105197906494141e+00,4.819886779785156250e+01,9.437767791748046875e+01,8.466271972656250000e+01,1.364725494384765625e+02,5.547959804534912109e-01,-3.287070465087890625e+01,-1.846486663818359375e+02,3.633616256713867188e+01,2.199073600769042969e+01,3.298077011108398438e+01
3.240000009536743164e-01,2.000000000000000000e+00,-2.200486946105957031e+01,-4.379065990447998047e+00,4.815344238281250000e+01,9.438551330566406250e+01,8.466202545166015625e+01,1.364620361328125000e+02,5.027632117271423340e-01,-3.286473846435546875e+01,-1.846438140869140625e+02,3.633726119995117188e+01,2.200816726684570312e+01,3.297592544555664062e+01
3.280000090599060059e-01,2.000000000000000000e+00,-2.205928039550781250e+01,-4.341035842895507812e+00,4.810802841186523438e+01,9.439334869384765625e+01,8.466133117675781250e+01,1.364515075683593750e+02,4.507423341274261475e-01,-3.285876846313476562e+01,-1.846389617919921875e+02,3.633836364746093750e+01,2.202559280395507812e+01,3.297107696533203125e+01
3.319999873638153076e-01,2.000000000000000000e+00,-2.211367797851562500e+01,-4.303014278411865234e+00,4.806262207031250000e+01,9.440117645263671875e+01,8.466063690185546875e+01,1.364410095214843750e+02,3.987334668636322021e-01,-3.285280227661132812e+01,-1.846341094970703125e+02,3.633946228027343750e+01,2.204301452636718750e+01,3.296623611450195312e+01
3.359999954700469971e-01,2.000000000000000000e+00,-2.216806602478027344e+01,-4.265001773834228516e+00,4.801722717285156250e+01,9.440901184082031250e+01,8.465994262695312500e+01,1.364304962158203125e+02,3.467364907264709473e-01,-3.284683990478515625e+01,-1.846292572021484375e+02,3.634056091308593750e+01,2.206043434143066406e+01,3.296139526367187500e+01
3.400000035762786865e-01,2.000000000000000000e+00,-2.222243881225585938e+01,-4.226997375488281250e+00,4.797184371948242188e+01,9.441683959960937500e+01,8.465925598144531250e+01,1.364199829101562500e+02,2.947514951229095459e-01,-3.284087371826171875e+01,-1.846244201660156250e+02,3.634165954589843750e+01,2.207784843444824219e+01,3.295655059814453125e+01
3.440000116825103760e-01,2.000000000000000000e+00,-2.227680015563964844e+01,-4.189002037048339844e+00,4.792646789550781250e+01,9.442466735839843750e+01,8.465855407714843750e+01,1.364094848632812500e+02,2.427784651517868042e-01,-3.283491516113281250e+01,-1.846195678710937500e+02,3.634276199340820312e+01,2.209525871276855469e+01,3.295170974731445312e+01
3.479999899864196777e-01,2.000000000000000000e+00,-2.233114814758300781e+01,-4.151015281677246094e+00,4.788110351562500000e+01,9.443249511718750000e+01,8.465786743164062500e+01,1.363989868164062500e+02,1.908173561096191406e-01,-3.282895278930664062e+01,-1.846147155761718750e+02,3.634385681152343750e+01,2.211266517639160156e+01,3.294686889648437500e+01
3.519999980926513672e-01,2.000000000000000000e+00,-2.238548660278320312e+01,-4.113037586212158203e+00,4.783575439453125000e+01,9.444031524658203125e+01,8.465717315673828125e+01,1.363884887695312500e+02,1.388681828975677490e-01,-3.282299423217773438e+01,-1.846098785400390625e+02,3.634495544433593750e+01,2.213006591796875000e+01,3.294203186035156250e+01
3.560000061988830566e-01,2.000000000000000000e+00,-2.243980789184570312e+01,-4.075068473815917969e+00,4.779040908813476562e+01,9.444813537597656250e+01,8.465647888183593750e+01,1.363779907226562500e+02,8.693093061447143555e-02,-3.281703948974609375e+01,-1.846050262451171875e+02,3.634605789184570312e+01,2.214746475219726562e+01,3.293719482421875000e+01
3.600000143051147461e-01,2.000000000000000000e+00,-2.249411964416503906e+01,-4.037107944488525391e+00,4.774507904052734375e+01,9.445595550537109375e+01,8.465579223632812500e+01,1.363674926757812500e+02,3.500561788678169250e-02,-3.281108093261718750e+01,-1.846001892089843750e+02,3.634715270996093750e+01,2.216485977172851562e+01,3.293235778808593750e+01
3.639999926090240479e-01,2.000000000000000000e+00,-2.254841804504394531e+01,-3.999155998229980469e+00,4.769975662231445312e+01,9.446377563476562500e+01,8.465509796142578125e+01,1.363569946289062500e+02,-1.690777577459812164e-02,-3.280512619018554688e+01,-1.845953521728515625e+02,3.634824752807617188e+01,2.218224906921386719e+01,3.292752456665039062e+01
3.680000007152557373e-01,2.000000000000000000e+00,-2.260270500183105469e+01,-3.961213111877441406e+00,4.765444564819335938e+01,9.447158813476562500e+01,8.465440368652343750e+01,1.363465118408203125e+02,-6.880924850702285767e-02,-3.279917144775390625e+01,-1.845905151367187500e+02,3.634934997558593750e+01,2.219963455200195312e+01,3.292269134521484375e+01
3.720000088214874268e-01,2.000000000000000000e+00,-2.265697860717773438e+01,-3.923279047012329102e+00,4.760914611816406250e+01,9.447941589355468750e+01,8.465371704101562500e+01,1.363360290527343750e+02,-1.206987947225570679e-01,-3.279322052001953125e+01,-1.845856781005859375e+02,3.635044479370117188e+01,2.221701812744140625e+01,3.291785430908203125e+01
3.759999871253967285e-01,2.000000000000000000e+00,-2.271124076843261719e+01,-3.885353088378906250e+00,4.756385421752929688e+01,9.448722076416015625e+01,8.465302276611328125e+01,1.363255310058593750e+02,-1.725764423608779907e-01,-3.278726959228515625e+01,-1.845808410644531250e+02,3.635153961181640625e+01,2.223439598083496094e+01,3.291302490234375000e+01
3.799999952316284180e-01,2.000000000000000000e+00,-2.276548957824707031e+01,-3.847436666488647461e+00,4.751857376098632812e+01,9.449503326416015625e+01,8.465233612060546875e+01,1.363150634765625000e+02,-2.244421839714050293e-01,-3.278131866455078125e+01,-1.845760040283203125e+02,3.635263824462890625e+01,2.225177001953125000e+01,3.290819168090820312e+01
3.840000033378601074e-01,2.000000000000000000e+00,-2.281972503662109375e+01,-3.809528350830078125e+00,4.747330093383789062e+01,9.450283813476562500e+01,8.465163421630859375e+01,1.363045806884765625e+02,-2.762959897518157959e-01,-3.277537155151367188e+01,-1.845711669921875000e+02,3.635373306274414062e+01,2.226914024353027344e+01,3.290336608886718750e+01
3.880000114440917969e-01,2.000000000000000000e+00,-2.287395095825195312e+01,-3.771628856658935547e+00,4.742804336547851562e+01,9.451065063476562500e+01,8.465094757080078125e+01,1.362940979003906250e+02,-3.281379342079162598e-01,-3.276942443847656250e+01,-1.845663299560546875e+02,3.635482788085937500e+01,2.228650665283203125e+01,3.289853668212890625e+01
3.919999897480010986e-01,2.000000000000000000e+00,-2.292816162109375000e+01,-3.733737945556640625e+00,4.738279342651367188e+01,9.451845550537109375e+01,8.465026092529296875e+01,1.362836303710937500e+02,-3.799679279327392578e-01,-3.276347732543945312e+01,-1.845615081787109375e+02,3.635592651367187500e+01,2.230386924743652344e+01,3.289371109008789062e+01
3.959999978542327881e-01,2.000000000000000000e+00,-2.298236083984375000e+01,-3.695855855941772461e+00,4.733755493164062500e+01,9.452626037597656250e+01,8.464956665039062500e+01,1.362731475830078125e+02,-4.317860603332519531e-01,-3.275753402709960938e+01,-1.845566711425781250e+02,3.635702133178710938e+01,2.232122802734375000e+01,3.288888168334960938e+01
4.000000059604644775e-01,2.000000000000000000e+00,-2.303654861450195312e+01,-3.657982587814331055e+00,4.729232788085937500e+01,9.453405761718750000e+01,8.464888000488281250e+01,1.362626647949218750e+02,-4.835922718048095703e-01,-3.275159072875976562e+01,-1.845518341064453125e+02,3.635811996459960938e+01,2.233858108520507812e+01,3.288405609130859375e+01
4.040000140666961670e-01,2.000000000000000000e+00,-2.309072113037109375e+01,-3.620117664337158203e+00,4.724710845947265625e+01,9.454186248779296875e+01,8.464818572998046875e+01,1.362522125244140625e+02,-5.353866219520568848e-01,-3.274565124511718750e+01,-1.845470123291015625e+02,3.635921096801757812e+01,2.235593223571777344e+01,3.287923431396484375e+01
4.079999923706054688e-01,2.000000000000000000e+00,-2.314488410949707031e+01,-3.582261800765991211e+00,4.720190429687500000e+01,9.454965972900390625e+01,8.464749908447265625e+01,1.362417449951171875e+02,-5.871691107749938965e-01,-3.273970794677734375e+01,-1.845421752929687500e+02,3.636030578613281250e+01,2.237327766418457031e+01,3.287441253662109375e+01
4.120000004768371582e-01,2.000000000000000000e+00,-2.319903373718261719e+01,-3.544414520263671875e+00,4.715670394897460938e+01,9.455746459960937500e+01,8.464680480957031250e+01,1.362312774658203125e+02,-6.389397382736206055e-01,-3.273377227783203125e+01,-1.845373535156250000e+02,3.636140441894531250e+01,2.239062118530273438e+01,3.286959075927734375e+01
4.160000085830688477e-01,2.000000000000000000e+00,-2.325317192077636719e+01,-3.506575822830200195e+00,4.711151885986328125e+01,9.456525421142578125e+01,8.464611816406250000e+01,1.362208099365234375e+02,-6.906983852386474609e-01,-3.272783660888671875e+01,-1.845325317382812500e+02,3.636249542236328125e+01,2.240795898437500000e+01,3.286476516723632812e+01
4.199999868869781494e-01,2.000000000000000000e+00,-2.330729484558105469e+01,-3.468745708465576172e+00,4.706634140014648438e+01,9.457304382324218750e+01,8.464543151855468750e+01,1.362103729248046875e+02,-7.424452304840087891e-01,-3.272190093994140625e+01,-1.845277099609375000e+02,3.636359024047851562e+01,2.242529296875000000e+01,3.285994720458984375e+01
4.239999949932098389e-01,2.000000000000000000e+00,-2.336140823364257812e+01,-3.430924654006958008e+00,4.702117919921875000e+01,9.458084106445312500e+01,8.464473724365234375e+01,1.361999053955078125e+02,-7.941802144050598145e-01,-3.271596527099609375e+01,-1.845228729248046875e+02,3.636468505859375000e+01,2.244262313842773438e+01,3.285512924194335938e+01
4.280000030994415283e-01,2.000000000000000000e+00,-2.341550827026367188e+01,-3.393111944198608398e+00,4.697602462768554688e+01,9.458863067626953125e+01,8.464405059814453125e+01,1.361894531250000000e+02,-8.459032773971557617e-01,-3.271002960205078125e+01,-1.845180511474609375e+02,3.636577987670898438e+01,2.245994949340820312e+01,3.285031127929687500e+01
4.320000112056732178e-01,2.000000000000000000e+00,-2.346959495544433594e+01,-3.355308055877685547e+00,4.693087768554687500e+01,9.459641265869140625e+01,8.464335632324218750e+01,1.361790008544921875e+02,-8.976144790649414062e-01,-3.270409774780273438e+01,-1.845132293701171875e+02,3.636687088012695312e+01,2.247727203369140625e+01,3.284549713134765625e+01
4.359999895095825195e-01,2.000000000000000000e+00,-2.352367019653320312e+01,-3.317512750625610352e+00,4.688574218750000000e+01,9.460420227050781250e+01,8.464266967773437500e+01,1.361685485839843750e+02,-9.493139386177062988e-01,-3.269816970825195312e+01,-1.845084228515625000e+02,3.636796569824218750e+01,2.249458885192871094e+01,3.284067916870117188e+01
4.399999976158142090e-01,2.000000000000000000e+00,-2.357773208618164062e+01,-3.279726028442382812e+00,4.684061813354492188e+01,9.461198425292968750e+01,8.464198303222656250e+01,1.361580963134765625e+02,-1.001001358032226562e+00,-3.269224166870117188e+01,-1.845036010742187500e+02,3.636905670166015625e+01,2.251190376281738281e+01,3.283586502075195312e+01
4.440000057220458984e-01,2.000000000000000000e+00,-2.363178253173828125e+01,-3.241948366165161133e+00,4.679550170898437500e+01,9.461977386474609375e+01,8.464128875732421875e+01,1.361476593017578125e+02,-1.052677035331726074e+00,-3.268630981445312500e+01,-1.844987792968750000e+02,3.637015151977539062e+01,2.252921485900878906e+01,3.283105468750000000e+01
4.480000138282775879e-01,2.000000000000000000e+00,-2.368582153320312500e+01,-3.204178810119628906e+00,4.675039672851562500e+01,9.462755584716796875e+01,8.464060211181640625e+01,1.361372222900390625e+02,-1.104340910911560059e+00,-3.268038558959960938e+01,-1.844939727783203125e+02,3.637124252319335938e+01,2.254652214050292969e+01,3.282624053955078125e+01
4.519999921321868896e-01,2.000000000000000000e+00,-2.373984527587890625e+01,-3.166418313980102539e+00,4.670530700683593750e+01,9.463533020019531250e+01,8.463990783691406250e+01,1.361267852783203125e+02,-1.155992865562438965e+00,-3.267446136474609375e+01,-1.844891510009765625e+02,3.637233734130859375e+01,2.256382369995117188e+01,3.282143020629882812e+01
4.560000002384185791e-01,2.000000000000000000e+00,-2.379385948181152344e+01,-3.128666400909423828e+00,4.666022109985351562e+01,9.464310455322265625e+01,8.463922882080078125e+01,1.361163482666015625e+02,-1.207633018493652344e+00,-3.266853713989257812e+01,-1.844843444824218750e+02,3.637342834472656250e+01,2.258112335205078125e+01,3.281661987304687500e+01
4.600000083446502686e-01,2.000000000000000000e+00,-2.384785842895507812e+01,-3.090923070907592773e+00,4.661515045166015625e+01,9.465088653564453125e+01,8.463853454589843750e+01,1.361059112548828125e+02,-1.259261369705200195e+00,-3.266261291503906250e+01,-1.844795227050781250e+02,3.637451934814453125e+01,2.259841728210449219e+01,3.281181335449218750e+01
4.639999866485595703e-01,2.000000000000000000e+00,-2.390184783935546875e+01,-3.053188323974609375e+00,4.657008743286132812e+01,9.465866088867187500e+01,8.463784790039062500e+01,1.360954742431640625e+02,-1.310877799987792969e+00,-3.265669250488281250e+01,-1.844747161865234375e+02,3.637561035156250000e+01,2.261570739746093750e+01,3.280700302124023438e+01
4.679999947547912598e-01,2.000000000000000000e+00,-2.395582389831542969e+01,-3.015462160110473633e+00,4.652503585815429688e+01,9.466642761230468750e+01,8.463716125488281250e+01,1.360850524902343750e+02,-1.362482428550720215e+00,-3.265077209472656250e+01,-1.844698944091796875e+02,3.637670135498046875e+01,2.263299560546875000e+01,3.280220031738281250e+01
4.720000028610229492e-01,2.000000000000000000e+00,-2.400978660583496094e+01,-2.977744817733764648e+00,4.647999191284179688e+01,9.467419433593750000e+01,8.463647460937500000e+01,1.360746154785156250e+02,-1.414075374603271484e+00,-3.264485549926757812e+01,-1.844650726318359375e+02,3.637779235839843750e+01,2.265027809143066406e+01,3.279739379882812500e+01
4.760000109672546387e-01,2.000000000000000000e+00,-2.406373786926269531e+01,-2.940036296844482422e+00,4.643495941162109375e+01,9.468196868896484375e+01,8.463578796386718750e+01,1.360641937255859375e+02,-1.465656280517578125e+00,-3.263893890380859375e+01,-1.844602661132812500e+02,3.637888336181640625e+01,2.266755676269531250e+01,3.279258728027343750e+01
4.799999892711639404e-01,2.000000000000000000e+00,-2.411767578125000000e+01,-2.902336120605468750e+00,4.638993835449218750e+01,9.468973541259765625e+01,8.463509368896484375e+01,1.360537567138671875e+02,-1.517225503921508789e+00,-3.263302230834960938e+01,-1.844554595947265625e+02,3.637997055053710938e+01,2.268483161926269531e+01,3.278778839111328125e+01
4.839999973773956299e-01,2.000000000000000000e+00,-2.417160224914550781e+01,-2.864644527435302734e+00,4.634492874145507812e+01,9.469750213623046875e+01,8.463441467285156250e+01,1.360433502197265625e+02,-1.568782806396484375e+00,-3.262710571289062500e+01,-1.844506683349609375e+02,3.638106155395507812e+01,2.270210266113281250e+01,3.278298568725585938e+01
4.880000054836273193e-01,2.000000000000000000e+00,-2.422551727294921875e+01,-2.826961755752563477e+00,4.629992675781250000e+01,9.470526123046875000e+01,8.463372039794921875e+01,1.360329284667968750e+02,-1.620328307151794434e+00,-3.262119674682617188e+01,-1.844458618164062500e+02,3.638215255737304688e+01,2.271936988830566406e+01,3.277818298339843750e+01
4.920000135898590088e-01,2.000000000000000000e+00,-2.427941894531250000e+01,-2.789287567138671875e+00,4.625493621826171875e+01,9.471302032470703125e+01,8.463304138183593750e+01,1.360225219726562500e+02,-1.671862125396728516e+00,-3.261528396606445312e+01,-1.844410552978515625e+02,3.638324356079101562e+01,2.273663330078125000e+01,3.277338409423828125e+01
4.959999918937683105e-01,2.000000000000000000e+00,-2.433330917358398438e+01,-2.751621961593627930e+00,4.620996093750000000e+01,9.472078704833984375e+01,8.463234710693359375e+01,1.360121002197265625e+02,-1.723384022712707520e+00,-3.260937118530273438e+01,-1.844362487792968750e+02,3.638433456420898438e+01,2.275389099121093750e+01,3.276858520507812500e+01
5.000000000000000000e-01,2.000000000000000000e+00,-2.438718605041503906e+01,-2.713964939117431641e+00,4.616498947143554688e+01,9.472853851318359375e+01,8.463166809082031250e+01,1.360016937255859375e+02,-1.774894237518310547e+00,-3.260346603393554688e+01,-1.844314422607421875e+02,3.638542175292968750e+01,2.277114677429199219e+01,3.276378631591796875e+01
5.040000081062316895e-01,2.000000000000000000e+00,-2.444104957580566406e+01,-2.676316499710083008e+00,4.612002944946289062e+01,9.473629760742187500e+01,8.463097381591796875e+01,1.359912872314453125e+02,-1.826392650604248047e+00,-3.259755706787109375e+01,-1.844266357421875000e+02,3.638650894165039062e+01,2.278839683532714844e+01,3.275899124145507812e+01
5.080000162124633789e-01,2.000000000000000000e+00,-2.449490356445312500e+01,-2.638676881790161133e+00,4.607508087158203125e+01,9.474404907226562500e+01,8.463029479980468750e+01,1.359808654785156250e+02,-1.877879261970520020e+00,-3.259165191650390625e+01,-1.844218444824218750e+02,3.638759613037109375e+01,2.280564498901367188e+01,3.275419616699218750e+01
5.120000243186950684e-01,2.000000000000000000e+00,-2.454874420166015625e+01,-2.601046085357666016e+00,4.603013992309570312e+01,9.475180053710937500e+01,8.462960052490234375e+01,1.359704742431640625e+02,-1.929353833198547363e+00,-3.258574676513671875e+01,-1.844170379638671875e+02,3.638868713378906250e+01,2.282288742065429688e+01,3.274940109252929688e+01
5.159999728202819824e-01,2.000000000000000000e+00,-2.460257148742675781e+01,-2.563423395156860352e+00,4.598521041870117188e+01,9.475955200195312500e+01,8.462892150878906250e+01,1.359600677490234375e+02,-1.980816960334777832e+00,-3.257984161376953125e+01,-1.844122467041015625e+02,3.638977432250976562e+01,2.284012794494628906e+01,3.274460601806640625e+01
5.199999809265136719e-01,2.000000000000000000e+00,-2.465638732910156250e+01,-2.525809526443481445e+00,4.594029235839843750e+01,9.476729583740234375e+01,8.462822723388671875e+01,1.359496765136718750e+02,-2.032268285751342773e+00,-3.257394027709960938e+01,-1.844074401855468750e+02,3.639086151123046875e+01,2.285736274719238281e+01,3.273981475830078125e+01
5.239999890327453613e-01,2.000000000000000000e+00,-2.471018981933593750e+01,-2.488204240798950195e+00,4.589538574218750000e+01,9.477504730224609375e+01,8.462754821777343750e+01,1.359392700195312500e+02,-2.083707571029663086e+00,-3.256803894042968750e+01,-1.844026489257812500e+02,3.639194869995117188e+01,2.287459373474121094e+01,3.273502349853515625e+01
5.279999971389770508e-01,2.000000000000000000e+00,-2.476398086547851562e+01,-2.450607538223266602e+00,4.585049057006835938e+01,9.478279876708984375e+01,8.462685394287109375e+01,1.359288787841796875e+02,-2.135135173797607422e+00,-3.256214141845703125e+01,-1.843978576660156250e+02,3.639303970336914062e+01,2.289182090759277344e+01,3.273023605346679688e+01
5.320000052452087402e-01,2.000000000000000000e+00,-2.481776046752929688e+01,-2.413019657135009766e+00,4.580560302734375000e+01,9.479053497314453125e+01,8.462617492675781250e+01,1.359184875488281250e+02,-2.186551094055175781e+00,-3.255624389648437500e+01,-1.843930664062500000e+02,3.639412307739257812e+01,2.290904617309570312e+01,3.272544479370117188e+01
5.360000133514404297e-01,2.000000000000000000e+00,-2.487152671813964844e+01,-2.375440120697021484e+00,4.576072311401367188e+01,9.479827880859375000e+01,8.462548828125000000e+01,1.359080963134765625e+02,-2.237955331802368164e+00,-3.255034637451171875e+01,-1.843882598876953125e+02,3.639521026611328125e+01,2.292626380920410156e+01,3.272065734863281250e+01
5.400000214576721191e-01,2.000000000000000000e+00,-2.492527961730957031e+01,-2.337869405746459961e+00,4.571585845947265625e+01,9.480601501464843750e+01,8.462480926513671875e+01,1.358977203369140625e+02,-2.289347410202026367e+00,-3.254445266723632812e+01,-1.843834686279296875e+02,3.639629745483398438e+01,2.294347953796386719e+01,3.271587371826171875e+01
5.440000295639038086e-01,2.000000000000000000e+00,-2.497902297973632812e+01,-2.300307273864746094e+00,4.567100143432617188e+01,9.481375885009765625e+01,8.462411499023437500e+01,1.358873291015625000e+02,-2.340728282928466797e+00,-3.253855895996093750e+01,-1.843786926269531250e+02,3.639738464355468750e+01,2.296069145202636719e+01,3.271108627319335938e+01
5.479999780654907227e-01,2.000000000000000000e+00,-2.503275108337402344e+01,-2.262753486633300781e+00,4.562615203857421875e+01,9.482148742675781250e+01,8.462343597412109375e+01,1.358769378662109375e+02,-2.392096996307373047e+00,-3.253266525268554688e+01,-1.843739013671875000e+02,3.639847183227539062e+01,2.297789955139160156e+01,3.270630264282226562e+01
5.519999861717224121e-01,2.000000000000000000e+00,-2.508646965026855469e+01,-2.225208520889282227e+00,4.558131790161132812e+01,9.482922363281250000e+01,8.462274932861328125e+01,1.358665771484375000e+02,-2.443454027175903320e+00,-3.252677536010742188e+01,-1.843691101074218750e+02,3.639955902099609375e+01,2.299510383605957031e+01,3.270151901245117188e+01
5.559999942779541016e-01,2.000000000000000000e+00,-2.514017486572265625e+01,-2.187671899795532227e+00,4.553649139404296875e+01,9.483695983886718750e+01,8.462207031250000000e+01,1.358561859130859375e+02,-2.494799375534057617e+00,-3.252088546752929688e+01,-1.843643188476562500e+02,3.640064239501953125e+01,2.301230239868164062e+01,3.269673919677734375e+01
5.600000023841857910e-01,2.000000000000000000e+00,-2.519386672973632812e+01,-2.150144100189208984e+00,4.549167633056640625e+01,9.484468841552734375e+01,8.462137603759765625e+01,1.358458099365234375e+02,-2.546133041381835938e+00,-3.251499557495117188e+01,-1.843595428466796875e+02,3.640172576904296875e+01,2.302949905395507812e+01,3.269195556640625000e+01
5.640000104904174805e-01,2.000000000000000000e+00,-2.524754714965820312e+01,-2.112624645233154297e+00,4.544686889648437500e+01,9.485242462158203125e+01,8.462069702148437500e+01,1.358354492187500000e+02,-2.597455024719238281e+00,-3.250910949707031250e+01,-1.843547515869140625e+02,3.640281295776367188e+01,2.304669189453125000e+01,3.268717575073242188e+01
5.680000185966491699e-01,2.000000000000000000e+00,-2.530121612548828125e+01,-2.075114011764526367e+00,4.540207290649414062e+01,9.486014556884765625e+01,8.462001037597656250e+01,1.358250732421875000e+02,-2.648765087127685547e+00,-3.250321960449218750e+01,-1.843499603271484375e+02,3.640389633178710938e+01,2.306387901306152344e+01,3.268239593505859375e+01
5.720000267028808594e-01,2.000000000000000000e+00,-2.535487174987792969e+01,-2.037611722946166992e+00,4.535729217529296875e+01,9.486787414550781250e+01,8.461933135986328125e+01,1.358147125244140625e+02,-2.700063467025756836e+00,-3.249733734130859375e+01,-1.843451843261718750e+02,3.640497970581054688e+01,2.308106422424316406e+01,3.267761993408203125e+01
5.759999752044677734e-01,2.000000000000000000e+00,-2.540851402282714844e+01,-2.000118255615234375e+00,4.531251525878906250e+01,9.487559509277343750e+01,8.461864471435546875e+01,1.358043365478515625e+02,-2.751350164413452148e+00,-3.249145126342773438e+01,-1.843404083251953125e+02,3.640606689453125000e+01,2.309824371337890625e+01,3.267284393310546875e+01
5.799999833106994629e-01,2.000000000000000000e+00,-2.546214675903320312e+01,-1.962633371353149414e+00,4.526775360107421875e+01,9.488332366943359375e+01,8.461796569824218750e+01,1.357939758300781250e+02,-2.802625179290771484e+00,-3.248557281494140625e+01,-1.843356170654296875e+02,3.640715026855468750e+01,2.311541938781738281e+01,3.266806411743164062e+01
5.839999914169311523e-01,2.000000000000000000e+00,-2.551576423645019531e+01,-1.925156712532043457e+00,4.522299575805664062e+01,9.489103698730468750e+01,8.461727905273437500e+01,1.357836151123046875e+02,-2.853888273239135742e+00,-3.247969055175781250e+01,-1.843308410644531250e+02,3.640823364257812500e+01,2.313259315490722656e+01,3.266329193115234375e+01
5.879999995231628418e-01,2.000000000000000000e+00,-2.556937217712402344e+01,-1.887688875198364258e+00,4.517825317382812500e+01,9.489875793457031250e+01,8.461660003662109375e+01,1.357732543945312500e+02,-2.905139923095703125e+00,-3.247381210327148438e+01,-1.843260650634765625e+02,3.640931701660156250e+01,2.314975929260253906e+01,3.265851974487304688e+01
5.920000076293945312e-01,2.000000000000000000e+00,-2.562296676635742188e+01,-1.850229501724243164e+00,4.513352203369140625e+01,9.490647888183593750e+01,8.461591339111328125e+01,1.357629089355468750e+02,-2.956379652023315430e+00,-3.246793746948242188e+01,-1.843212890625000000e+02,3.641040039062500000e+01,2.316692543029785156e+01,3.265374374389648438e+01
5.960000157356262207e-01,2.000000000000000000e+00,-2.567654800415039062e+01,-1.812778949737548828e+00,4.508879852294921875e+01,9.491418457031250000e+01,8.461523437500000000e+01,1.357525482177734375e+02,-3.007607698440551758e+00,-3.246205902099609375e+01,-1.843165130615234375e+02,3.641148757934570312e+01,2.318408584594726562e+01,3.264897537231445312e+01
6.000000238418579102e-01,2.000000000000000000e+00,-2.573011779785156250e+01,-1.775336980819702148e+00,4.504408264160156250e+01,9.492190551757812500e+01,8.461454772949218750e+01,1.357422027587890625e+02,-3.058824062347412109e+00,-3.245618438720703125e+01,-1.843117218017578125e+02,3.641256713867187500e+01,2.320124244689941406e+01,3.264420318603515625e+01
6.039999723434448242e-01,2.000000000000000000e+00,-2.578367614746093750e+01,-1.737903594970703125e+00,4.499938201904296875e+01,9.492961883544921875e+01,8.461386871337890625e+01,1.357318420410156250e+02,-3.110028743743896484e+00,-3.245030975341796875e+01,-1.843069610595703125e+02,3.641365051269531250e+01,2.321839714050292969e+01,3.263943481445312500e+01
6.079999804496765137e-01,2.000000000000000000e+00,-2.583722305297851562e+01,-1.700478672981262207e+00,4.495468521118164062e+01,9.493733215332031250e+01,8.461318206787109375e+01,1.357214965820312500e+02,-3.161221504211425781e+00,-3.244443893432617188e+01,-1.843022003173828125e+02,3.641473388671875000e+01,2.323554611206054688e+01,3.263466644287109375e+01
6.119999885559082031e-01,2.000000000000000000e+00,-2.589075660705566406e+01,-1.663062214851379395e+00,4.491000747680664062e+01,9.494503021240234375e+01,8.461250305175781250e+01,1.357111663818359375e+02,-3.212403059005737305e+00,-3.243856811523437500e+01,-1.842974090576171875e+02,3.641581344604492188e+01,2.325269126892089844e+01,3.262990188598632812e+01
6.159999966621398926e-01,2.000000000000000000e+00,-2.594427680969238281e+01,-1.625654101371765137e+00,4.486533355712890625e+01,9.495273590087890625e+01,8.461181640625000000e+01,1.357008209228515625e+02,-3.263572692871093750e+00,-3.243269729614257812e+01,-1.842926483154296875e+02,3.641689682006835938e+01,2.326983261108398438e+01,3.262513351440429688e+01
6.200000047683715820e-01,2.000000000000000000e+00,-2.599778747558593750e+01,-1.588254332542419434e+00,4.482067108154296875e+01,9.496044158935546875e+01,8.461113739013671875e+01,1.356904754638671875e+02,-3.314730644226074219e+00,-3.242683029174804688e+01,-1.842878723144531250e+02,3.641797637939453125e+01,2.328697204589843750e+01,3.262036895751953125e+01
6.240000128746032715e-01,2.000000000000000000e+00,-2.605128288269042969e+01,-1.550863146781921387e+00,4.477602005004882812e+01,9.496814727783203125e+01,8.461045074462890625e+01,1.356801452636718750e+02,-3.365876674652099609e+00,-3.242096328735351562e+01,-1.842831115722656250e+02,3.641905975341796875e+01,2.330410575866699219e+01,3.261560440063476562e+01
6.280000209808349609e-01,2.000000000000000000e+00,-2.610476875305175781e+01,-1.513480424880981445e+00,4.473137664794921875e+01,9.497585296630859375e+01,8.460977172851562500e+01,1.356697998046875000e+02,-3.417011260986328125e+00,-3.241509628295898438e+01,-1.842783355712890625e+02,3.642013931274414062e+01,2.332123565673828125e+01,3.261084365844726562e+01
6.320000290870666504e-01,2.000000000000000000e+00,-2.615824127197265625e+01,-1.476106286048889160e+00,4.468674468994140625e+01,9.498355102539062500e+01,8.460909271240234375e+01,1.356594696044921875e+02,-3.468134403228759766e+00,-3.240922927856445312e+01,-1.842735748291015625e+02,3.642122268676757812e+01,2.333835983276367188e+01,3.260607910156250000e+01
6.359999775886535645e-01,2.000000000000000000e+00,-2.621170234680175781e+01,-1.438740491867065430e+00,4.464212417602539062e+01,9.499124908447265625e+01,8.460840606689453125e+01,1.356491394042968750e+02,-3.519246101379394531e+00,-3.240336608886718750e+01,-1.842688140869140625e+02,3.642230224609375000e+01,2.335548210144042969e+01,3.260131835937500000e+01
6.399999856948852539e-01,2.000000000000000000e+00,-2.626515197753906250e+01,-1.401383280754089355e+00,4.459751129150390625e+01,9.499894714355468750e+01,8.460772705078125000e+01,1.356388092041015625e+02,-3.570345878601074219e+00,-3.239750671386718750e+01,-1.842640380859375000e+02,3.642338562011718750e+01,2.337260055541992188e+01,3.259656143188476562e+01
6.439999938011169434e-01,2.000000000000000000e+00,-2.631858634948730469e+01,-1.364034414291381836e+00,4.455290985107421875e+01,9.500663757324218750e+01,8.460704803466796875e+01,1.356284942626953125e+02,-3.621434211730957031e+00,-3.239164733886718750e+01,-1.842592773437500000e+02,3.642446517944335938e+01,2.338971328735351562e+01,3.259180068969726562e+01
6.480000019073486328e-01,2.000000000000000000e+00,-2.637201118469238281e+01,-1.326694011688232422e+00,4.450831604003906250e+01,9.501432800292968750e+01,8.460636901855468750e+01,1.356181640625000000e+02,-3.672511339187622070e+00,-3.238578796386718750e+01,-1.842545166015625000e+02,3.642554092407226562e+01,2.340682220458984375e+01,3.258704376220703125e+01
6.520000100135803223e-01,2.000000000000000000e+00,-2.642542457580566406e+01,-1.289361953735351562e+00,4.446373748779296875e+01,9.502201843261718750e+01,8.460568237304687500e+01,1.356078491210937500e+02,-3.723576784133911133e+00,-3.237992858886718750e+01,-1.842497558593750000e+02,3.642662048339843750e+01,2.342392921447753906e+01,3.258229064941406250e+01
6.560000181198120117e-01,2.000000000000000000e+00,-2.647882461547851562e+01,-1.252038240432739258e+00,4.441916656494140625e+01,9.502970886230468750e+01,8.460501098632812500e+01,1.355975189208984375e+02,-3.774630546569824219e+00,-3.237407302856445312e+01,-1.842449951171875000e+02,3.642770004272460938e+01,2.344103240966796875e+01,3.257753372192382812e+01
6.600000262260437012e-01,2.000000000000000000e+00,-2.653221321105957031e+01,-1.214722990989685059e+00,4.437460327148437500e+01,9.503739929199218750e+01,8.460432434082031250e+01,1.355872039794921875e+02,-3.825673580169677734e+00,-3.236821746826171875e+01,-1.842402343750000000e+02,3.642877960205078125e+01,2.345812988281250000e+01,3.257278060913085938e+01
6.639999747276306152e-01,2.000000000000000000e+00,-2.658559036254882812e+01,-1.177416086196899414e+00,4.433005142211914062e+01,9.504508209228515625e+01,8.460364532470703125e+01,1.355768890380859375e+02,-3.876704454421997070e+00,-3.236236190795898438e+01,-1.842354736328125000e+02,3.642985916137695312e+01,2.347522544860839844e+01,3.256802749633789062e+01
6.679999828338623047e-01,2.000000000000000000e+00,-2.663895416259765625e+01,-1.140117526054382324e+00,4.428551101684570312e+01,9.505276489257812500e+01,8.460296630859375000e+01,1.355665740966796875e+02,-3.927724123001098633e+00,-3.235651397705078125e+01,-1.842307281494140625e+02,3.643093872070312500e+01,2.349231719970703125e+01,3.256327438354492188e+01
6.719999909400939941e-01,2.000000000000000000e+00,-2.669230651855468750e+01,-1.102827310562133789e+00,4.424097824096679688e+01,9.506044769287109375e+01,8.460227966308593750e+01,1.355562591552734375e+02,-3.978732585906982422e+00,-3.235065841674804688e+01,-1.842259674072265625e+02,3.643201828002929688e+01,2.350940132141113281e+01,3.255852508544921875e+01
6.759999990463256836e-01,2.000000000000000000e+00,-2.674564743041992188e+01,-1.065545439720153809e+00,4.419645690917968750e+01,9.506813049316406250e+01,8.460160827636718750e+01,1.355459594726562500e+02,-4.029729843139648438e+00,-3.234480667114257812e+01,-1.842212219238281250e+02,3.643309783935546875e+01,2.352648544311523438e+01,3.255377578735351562e+01
6.800000071525573730e-01,2.000000000000000000e+00,-2.679897689819335938e+01,-1.028271913528442383e+00,4.415194320678710938e+01,9.507580566406250000e+01,8.460092163085937500e+01,1.355356597900390625e+02,-4.080715179443359375e+00,-3.233896255493164062e+01,-1.842164611816406250e+02,3.643417358398437500e+01,2.354356575012207031e+01,3.254902648925781250e+01
6.840000152587890625e-01,2.000000000000000000e+00,-2.685229301452636719e+01,-9.910065531730651855e-01,4.410744476318359375e+01,9.508348083496093750e+01,8.460025024414062500e+01,1.355253601074218750e+02,-4.131690025329589844e+00,-3.233311462402343750e+01,-1.842117004394531250e+02,3.643525314331054688e+01,2.356064033508300781e+01,3.254427719116210938e+01
6.880000233650207520e-01,2.000000000000000000e+00,-2.690559768676757812e+01,-9.537495970726013184e-01,4.406295013427734375e+01,9.509115600585937500e+01,8.459956359863281250e+01,1.355150604248046875e+02,-4.182652950286865234e+00,-3.232727050781250000e+01,-1.842069549560546875e+02,3.643633270263671875e+01,2.357771301269531250e+01,3.253953552246093750e+01
6.919999718666076660e-01,2.000000000000000000e+00,-2.695889091491699219e+01,-9.165009260177612305e-01,4.401847076416015625e+01,9.509883117675781250e+01,8.459888458251953125e+01,1.355047454833984375e+02,-4.233604431152343750e+00,-3.232142257690429688e+01,-1.842021942138671875e+02,3.643740844726562500e+01,2.359478187561035156e+01,3.253478622436523438e+01
6.959999799728393555e-01,2.000000000000000000e+00,-2.701217269897460938e+01,-8.792605400085449219e-01,4.397399902343750000e+01,9.510650634765625000e+01,8.459820556640625000e+01,1.354944610595703125e+02,-4.284544944763183594e+00,-3.231557846069335938e+01,-1.841974487304687500e+02,3.643848419189453125e+01,2.361184501647949219e+01,3.253004455566406250e+01
6.999999880790710449e-01,2.000000000000000000e+00,-2.706544113159179688e+01,-8.420284390449523926e-01,4.392953491210937500e+01,9.511417388916015625e+01,8.459752655029296875e+01,1.354841613769531250e+02,-4.335473537445068359e+00,-3.230973815917968750e+01,-1.841927032470703125e+02,3.643955993652343750e+01,2.362890434265136719e+01,3.252529907226562500e+01
7.039999961853027344e-01,2.000000000000000000e+00,-2.711870002746582031e+01,-8.048046231269836426e-01,4.388508224487304688e+01,9.512184143066406250e+01,8.459685516357421875e+01,1.354738769531250000e+02,-4.386391639709472656e+00,-3.230389404296875000e+01,-1.841879577636718750e+02,3.644063568115234375e+01,2.364596176147460938e+01,3.252055740356445312e+01
7.080000042915344238e-01,2.000000000000000000e+00,-2.717194366455078125e+01,-7.675890326499938965e-01,4.384063720703125000e+01,9.512950897216796875e+01,8.459616851806640625e+01,1.354635925292968750e+02,-4.437297821044921875e+00,-3.229805755615234375e+01,-1.841832122802734375e+02,3.644171142578125000e+01,2.366301536560058594e+01,3.251581573486328125e+01
7.120000123977661133e-01,2.000000000000000000e+00,-2.722517967224121094e+01,-7.303817272186279297e-01,4.379620361328125000e+01,9.513717651367187500e+01,8.459549713134765625e+01,1.354533081054687500e+02,-4.488193035125732422e+00,-3.229222106933593750e+01,-1.841784515380859375e+02,3.644278717041015625e+01,2.368006324768066406e+01,3.251107406616210938e+01
7.160000205039978027e-01,2.000000000000000000e+00,-2.727840042114257812e+01,-6.931827664375305176e-01,4.375178527832031250e+01,9.514483642578125000e+01,8.459481811523437500e+01,1.354430236816406250e+02,-4.539076328277587891e+00,-3.228638458251953125e+01,-1.841737213134765625e+02,3.644386291503906250e+01,2.369710922241210938e+01,3.250633621215820312e+01
7.200000286102294922e-01,2.000000000000000000e+00,-2.733160972595214844e+01,-6.559920310974121094e-01,4.370737075805664062e+01,9.515250396728515625e+01,8.459413146972656250e+01,1.354327392578125000e+02,-4.589949131011962891e+00,-3.228054809570312500e+01,-1.841689758300781250e+02,3.644493865966796875e+01,2.371415138244628906e+01,3.250159835815429688e+01
7.239999771118164062e-01,2.000000000000000000e+00,-2.738480949401855469e+01,-6.188095211982727051e-01,4.366296768188476562e+01,9.516015625000000000e+01,8.459346008300781250e+01,1.354224700927734375e+02,-4.640810012817382812e+00,-3.227471160888671875e+01,-1.841642303466796875e+02,3.644601440429687500e+01,2.373118782043457031e+01,3.249686050415039062e+01
7.279999852180480957e-01,2.000000000000000000e+00,-2.743799591064453125e+01,-5.816353559494018555e-01,4.361857604980468750e+01,9.516781616210937500e+01,8.459278106689453125e+01,1.354121704101562500e+02,-4.691659927368164062e+00,-3.226887893676757812e+01,-1.841595001220703125e+02,3.644709014892578125e+01,2.374822044372558594e+01,3.249212646484375000e+01
7.319999933242797852e-01,2.000000000000000000e+00,-2.749117088317871094e+01,-5.444694161415100098e-01,4.357418823242187500e+01,9.517546844482421875e+01,8.459210205078125000e+01,1.354019012451171875e+02,-4.742498397827148438e+00,-3.226304626464843750e+01,-1.841547546386718750e+02,3.644816589355468750e+01,2.376525306701660156e+01,3.248738861083984375e+01
7.360000014305114746e-01,2.000000000000000000e+00,-2.754433250427246094e+01,-5.073116421699523926e-01,4.352981567382812500e+01,9.518312835693359375e+01,8.459142303466796875e+01,1.353916320800781250e+02,-4.793325424194335938e+00,-3.225721359252929688e+01,-1.841500091552734375e+02,3.644924163818359375e+01,2.378227806091308594e+01,3.248265457153320312e+01
7.400000095367431641e-01,2.000000000000000000e+00,-2.759748458862304688e+01,-4.701622724533081055e-01,4.348545455932617188e+01,9.519078063964843750e+01,8.459074401855468750e+01,1.353813629150390625e+02,-4.844141483306884766e+00,-3.225138854980468750e+01,-1.841452789306640625e+02,3.645031738281250000e+01,2.379930114746093750e+01,3.247792053222656250e+01
7.440000176429748535e-01,2.000000000000000000e+00,-2.765062332153320312e+01,-4.330210685729980469e-01,4.344110107421875000e+01,9.519843292236328125e+01,8.459007263183593750e+01,1.353710937500000000e+02,-4.894946098327636719e+00,-3.224555969238281250e+01,-1.841405334472656250e+02,3.645138931274414062e+01,2.381632041931152344e+01,3.247319412231445312e+01
7.480000257492065430e-01,2.000000000000000000e+00,-2.770375061035156250e+01,-3.958881199359893799e-01,4.339675521850585938e+01,9.520608520507812500e+01,8.458939361572265625e+01,1.353608245849609375e+02,-4.945739269256591797e+00,-3.223973464965820312e+01,-1.841358032226562500e+02,3.645246505737304688e+01,2.383333396911621094e+01,3.246846008300781250e+01
7.519999742507934570e-01,2.000000000000000000e+00,-2.775686645507812500e+01,-3.587634265422821045e-01,4.335242462158203125e+01,9.521372985839843750e+01,8.458871459960937500e+01,1.353505706787109375e+02,-4.996520996093750000e+00,-3.223390579223632812e+01,-1.841310729980468750e+02,3.645353698730468750e+01,2.385034561157226562e+01,3.246372985839843750e+01
7.559999823570251465e-01,2.000000000000000000e+00,-2.780996894836425781e+01,-3.216469883918762207e-01,4.330809783935546875e+01,9.522137451171875000e+01,8.458804321289062500e+01,1.353403167724609375e+02,-5.047292232513427734e+00,-3.222808456420898438e+01,-1.841263275146484375e+02,3.645461273193359375e+01,2.386735343933105469e+01,3.245900344848632812e+01
7.599999904632568359e-01,2.000000000000000000e+00,-2.786306190490722656e+01,-2.845387756824493408e-01,4.326378631591796875e+01,9.522901916503906250e+01,8.458736419677734375e+01,1.353300476074218750e+02,-5.098051548004150391e+00,-3.222225952148437500e+01,-1.841215972900390625e+02,3.645568466186523438e+01,2.388435554504394531e+01,3.245427322387695312e+01
7.639999985694885254e-01,2.000000000000000000e+00,-2.791614341735839844e+01,-2.474388182163238525e-01,4.321948242187500000e+01,9.523666381835937500e+01,8.458669281005859375e+01,1.353197937011718750e+02,-5.148799896240234375e+00,-3.221643829345703125e+01,-1.841168823242187500e+02,3.645675659179687500e+01,2.390135574340820312e+01,3.244954681396484375e+01
7.680000066757202148e-01,2.000000000000000000e+00,-2.796921157836914062e+01,-2.103470861911773682e-01,4.317518234252929688e+01,9.524430847167968750e+01,8.458601379394531250e+01,1.353095397949218750e+02,-5.199537277221679688e+00,-3.221062088012695312e+01,-1.841121368408203125e+02,3.645782852172851562e+01,2.391835212707519531e+01,3.244482421875000000e+01
7.720000147819519043e-01,2.000000000000000000e+00,-2.802226638793945312e+01,-1.732635647058486938e-01,4.313090133666992188e+01,9.525194549560546875e+01,8.458533477783203125e+01,1.352992858886718750e+02,-5.250262737274169922e+00,-3.220479965209960938e+01,-1.841074066162109375e+02,3.645890045166015625e+01,2.393534469604492188e+01,3.244009780883789062e+01
7.760000228881835938e-01,2.000000000000000000e+00,-2.807531166076660156e+01,-1.361882984638214111e-01,4.308662414550781250e+01,9.525958251953125000e+01,8.458466339111328125e+01,1.352890319824218750e+02,-5.300976753234863281e+00,-3.219898223876953125e+01,-1.841026763916015625e+02,3.645997238159179688e+01,2.395233345031738281e+01,3.243537521362304688e+01
7.799999713897705078e-01,2.000000000000000000e+00,-2.812834548950195312e+01,-9.912125021219253540e-02,4.304235839843750000e+01,9.526721954345703125e+01,8.458398437500000000e+01,1.352787780761718750e+02,-5.351680278778076172e+00,-3.219316864013671875e+01,-1.840979614257812500e+02,3.646104431152343750e+01,2.396931838989257812e+01,3.243064880371093750e+01
7.839999794960021973e-01,2.000000000000000000e+00,-2.818136787414550781e+01,-6.206242740154266357e-02,4.299810409545898438e+01,9.527485656738281250e+01,8.458330535888671875e+01,1.352685394287109375e+02,-5.402372360229492188e+00,-3.218735122680664062e+01,-1.840932312011718750e+02,3.646212005615234375e+01,2.398629951477050781e+01,3.242593002319335938e+01
7.879999876022338867e-01,2.000000000000000000e+00,-2.823437690734863281e+01,-2.501182258129119873e-02,4.295385742187500000e+01,9.528248596191406250e+01,8.458263397216796875e+01,1.352582855224609375e+02,-5.453052997589111328e+00,-3.218154144287109375e+01,-1.840885009765625000e+02,3.646319198608398438e+01,2.400327682495117188e+01,3.242120742797851562e+01
7.919999957084655762e-01,2.000000000000000000e+00,-2.828737449645996094e+01,1.203056331723928452e-02,4.290962219238281250e+01,9.529011535644531250e+01,8.458195495605468750e+01,1.352480621337890625e+02,-5.503722667694091797e+00,-3.217572784423828125e+01,-1.840837707519531250e+02,3.646426391601562500e+01,2.402024841308593750e+01,3.241649246215820312e+01
7.960000038146972656e-01,2.000000000000000000e+00,-2.834036064147949219e+01,4.906473681330680847e-02,4.286539840698242188e+01,9.529774475097656250e+01,8.458127593994140625e+01,1.352378082275390625e+02,-5.554380893707275391e+00,-3.216991424560546875e+01,-1.840790557861328125e+02,3.646533203125000000e+01,2.403721809387207031e+01,3.241176986694335938e+01
8.000000119209289551e-01,2.000000000000000000e+00,-2.839333534240722656e+01,8.609069883823394775e-02,4.282118225097656250e+01,9.530537414550781250e+01,8.458060455322265625e+01,1.352275848388671875e+02,-5.605027675628662109e+00,-3.216410446166992188e+01,-1.840743408203125000e+02,3.646640396118164062e+01,2.405418395996093750e+01,3.240705490112304688e+01
8.040000200271606445e-01,2.000000000000000000e+00,-2.844629669189453125e+01,1.231084540486335754e-01,4.277697372436523438e+01,9.531300354003906250e+01,8.457992553710937500e+01,1.352173461914062500e+02,-5.655663490295410156e+00,-3.215829849243164062e+01,-1.840696105957031250e+02,3.646747207641601562e+01,2.407114791870117188e+01,3.240233993530273438e+01
8.080000281333923340e-01,2.000000000000000000e+00,-2.849924850463867188e+01,1.601179987192153931e-01,4.273277664184570312e+01,9.532062530517578125e+01,8.457926177978515625e+01,1.352071228027343750e+02,-5.706287860870361328e+00,-3.215249252319335938e+01,-1.840648956298828125e+02,3.646854400634765625e+01,2.408810615539550781e+01,3.239762115478515625e+01
8.119999766349792480e-01,2.000000000000000000e+00,-2.855218696594238281e+01,1.971193253993988037e-01,4.268859100341796875e+01,9.532824707031250000e+01,8.457858276367187500e+01,1.351968841552734375e+02,-5.756901264190673828e+00,-3.214668273925781250e+01,-1.840601654052734375e+02,3.646961593627929688e+01,2.410506057739257812e+01,3.239291000366210938e+01
8.159999847412109375e-01,2.000000000000000000e+00,-2.860511398315429688e+01,2.341124713420867920e-01,4.264441299438476562e+01,9.533586883544921875e+01,8.457790374755859375e+01,1.351866607666015625e+02,-5.807503223419189453e+00,-3.214088058471679688e+01,-1.840554656982421875e+02,3.647068405151367188e+01,2.412201118469238281e+01,3.238819885253906250e+01
8.199999928474426270e-01,2.000000000000000000e+00,-2.865802955627441406e+01,2.710974216461181641e-01,4.260024642944335938e+01,9.534348297119140625e+01,8.457723236083984375e+01,1.351764221191406250e+02,-5.858094215393066406e+00,-3.213507461547851562e+01,-1.840507354736328125e+02,3.647175598144531250e+01,2.413895797729492188e+01,3.238348388671875000e+01
8.240000009536743164e-01,2.000000000000000000e+00,-2.871093559265136719e+01,3.080741763114929199e-01,4.255608749389648438e+01,9.535110473632812500e+01,8.457656097412109375e+01,1.351662139892578125e+02,-5.908673763275146484e+00,-3.212927246093750000e+01,-1.840460205078125000e+02,3.647282409667968750e+01,2.415590095520019531e+01,3.237877655029296875e+01
8.280000090599060059e-01,2.000000000000000000e+00,-2.876382637023925781e+01,3.450427353382110596e-01,4.251194000244140625e+01,9.535871887207031250e+01,8.457588195800781250e+01,1.351559906005859375e+02,-5.959242343902587891e+00,-3.212347412109375000e+01,-1.840413055419921875e+02,3.647389221191406250e+01,2.417284011840820312e+01,3.237406158447265625e+01
8.320000171661376953e-01,2.000000000000000000e+00,-2.881670761108398438e+01,3.820030987262725830e-01,4.246780395507812500e+01,9.536633300781250000e+01,8.457521057128906250e+01,1.351457672119140625e+02,-6.009799480438232422e+00,-3.211767578125000000e+01,-1.840365905761718750e+02,3.647496414184570312e+01,2.418977737426757812e+01,3.236935806274414062e+01
8.360000252723693848e-01,2.000000000000000000e+00,-2.886957740783691406e+01,4.189552664756774902e-01,4.242367553710937500e+01,9.537394714355468750e+01,8.457453918457031250e+01,1.351355590820312500e+02,-6.060345649719238281e+00,-3.211187362670898438e+01,-1.840318756103515625e+02,3.647603225708007812e+01,2.420670890808105469e+01,3.236464691162109375e+01
8.399999737739562988e-01,2.000000000000000000e+00,-2.892243385314941406e+01,4.558992981910705566e-01,4.237955856323242188e+01,9.538156127929687500e+01,8.457386016845703125e+01,1.351253356933593750e+02,-6.110880851745605469e+00,-3.210607528686523438e+01,-1.840271759033203125e+02,3.647710037231445312e+01,2.422363853454589844e+01,3.235993957519531250e+01
8.439999818801879883e-01,2.000000000000000000e+00,-2.897527885437011719e+01,4.928350746631622314e-01,4.233544921875000000e+01,9.538916778564453125e+01,8.457318878173828125e+01,1.351151275634765625e+02,-6.161404609680175781e+00,-3.210028076171875000e+01,-1.840224609375000000e+02,3.647816467285156250e+01,2.424056243896484375e+01,3.235523605346679688e+01
8.479999899864196777e-01,2.000000000000000000e+00,-2.902811241149902344e+01,5.297626852989196777e-01,4.229135131835937500e+01,9.539677429199218750e+01,8.457251739501953125e+01,1.351049346923828125e+02,-6.211916446685791016e+00,-3.209449005126953125e+01,-1.840177459716796875e+02,3.647923660278320312e+01,2.425748443603515625e+01,3.235052871704101562e+01
8.519999980926513672e-01,2.000000000000000000e+00,-2.908093452453613281e+01,5.666821599006652832e-01,4.224726104736328125e+01,9.540438079833984375e+01,8.457183837890625000e+01,1.350947113037109375e+02,-6.262418270111083984e+00,-3.208869171142578125e+01,-1.840130462646484375e+02,3.648030471801757812e+01,2.427440071105957031e+01,3.234582519531250000e+01
8.560000061988830566e-01,2.000000000000000000e+00,-2.913374519348144531e+01,6.035934686660766602e-01,4.220318222045898438e+01,9.541198730468750000e+01,8.457117462158203125e+01,1.350845031738281250e+02,-6.312908172607421875e+00,-3.208290100097656250e+01,-1.840083312988281250e+02,3.648136901855468750e+01,2.429131317138671875e+01,3.234112548828125000e+01
8.600000143051147461e-01,2.000000000000000000e+00,-2.918654251098632812e+01,6.404966115951538086e-01,4.215911102294921875e+01,9.541958618164062500e+01,8.457049560546875000e+01,1.350742950439453125e+02,-6.363387107849121094e+00,-3.207711410522460938e+01,-1.840036315917968750e+02,3.648243713378906250e+01,2.430822372436523438e+01,3.233642196655273438e+01
8.640000224113464355e-01,2.000000000000000000e+00,-2.923933029174804688e+01,6.773915886878967285e-01,4.211505126953125000e+01,9.542719268798828125e+01,8.456982421875000000e+01,1.350641174316406250e+02,-6.413855075836181641e+00,-3.207132339477539062e+01,-1.839989166259765625e+02,3.648350524902343750e+01,2.432513046264648438e+01,3.233172225952148438e+01
8.679999709129333496e-01,2.000000000000000000e+00,-2.929210662841796875e+01,7.142783403396606445e-01,4.207100296020507812e+01,9.543478393554687500e+01,8.456915283203125000e+01,1.350539093017578125e+02,-6.464311599731445312e+00,-3.206553649902343750e+01,-1.839942169189453125e+02,3.648457336425781250e+01,2.434203147888183594e+01,3.232702255249023438e+01
8.719999790191650391e-01,2.000000000000000000e+00,-2.934486961364746094e+01,7.511569857597351074e-01,4.202696228027343750e+01,9.544238281250000000e+01,8.456848144531250000e+01,1.350437164306640625e+02,-6.514757156372070312e+00,-3.205974578857421875e+01,-1.839895019531250000e+02,3.648563766479492188e+01,2.435892868041992188e+01,3.232232284545898438e+01
8.759999871253967285e-01,2.000000000000000000e+00,-2.939761924743652344e+01,7.880274653434753418e-01,4.198293304443359375e+01,9.544997406005859375e+01,8.456780242919921875e+01,1.350335235595703125e+02,-6.565191745758056641e+00,-3.205396270751953125e+01,-1.839848022460937500e+02,3.648670196533203125e+01,2.437582588195800781e+01,3.231762695312500000e+01
8.799999952316284180e-01,2.000000000000000000e+00,-2.945036125183105469e+01,8.248897790908813477e-01,4.193891143798828125e+01,9.545757293701171875e+01,8.456713104248046875e+01,1.350233306884765625e+02,-6.615614414215087891e+00,-3.204817962646484375e+01,-1.839801025390625000e+02,3.648777008056640625e+01,2.439271545410156250e+01,3.231292724609375000e+01
8.840000033378601074e-01,2.000000000000000000e+00,-2.950308799743652344e+01,8.617439270019531250e-01,4.189490127563476562e+01,9.546516418457031250e+01,8.456645965576171875e+01,1.350131378173828125e+02,-6.666026592254638672e+00,-3.204239654541015625e+01,-1.839754028320312500e+02,3.648883819580078125e+01,2.440960311889648438e+01,3.230823516845703125e+01
8.880000114440917969e-01,2.000000000000000000e+00,-2.955580711364746094e+01,8.985899686813354492e-01,4.185089874267578125e+01,9.547275543212890625e+01,8.456578826904296875e+01,1.350029449462890625e+02,-6.716427326202392578e+00,-3.203661346435546875e+01,-1.839707031250000000e+02,3.648990249633789062e+01,2.442648696899414062e+01,3.230353927612304688e+01
8.920000195503234863e-01,2.000000000000000000e+00,-2.960851097106933594e+01,9.354278445243835449e-01,4.180690765380859375e+01,9.548033905029296875e+01,8.456511688232421875e+01,1.349927825927734375e+02,-6.766817092895507812e+00,-3.203083419799804688e+01,-1.839660186767578125e+02,3.649097061157226562e+01,2.444336509704589844e+01,3.229884719848632812e+01
8.960000276565551758e-01,2.000000000000000000e+00,-2.966120719909667969e+01,9.722576141357421875e-01,4.176292419433593750e+01,9.548793029785156250e+01,8.456444549560546875e+01,1.349825897216796875e+02,-6.817195892333984375e+00,-3.202505493164062500e+01,-1.839613189697265625e+02,3.649203491210937500e+01,2.446024131774902344e+01,3.229415512084960938e+01
8.999999761581420898e-01,2.000000000000000000e+00,-2.971388816833496094e+01,1.009079098701477051e+00,4.171895217895507812e+01,9.549552154541015625e+01,8.456377410888671875e+01,1.349724121093750000e+02,-6.867563247680664062e+00,-3.201927947998046875e+01,-1.839566192626953125e+02,3.649309539794921875e+01,2.447711372375488281e+01,3.228946304321289062e+01
9.039999842643737793e-01,2.000000000000000000e+00,-2.976655960083007812e+01,1.045892715454101562e+00,4.167499160766601562e+01,9.550309753417968750e+01,8.456310272216796875e+01,1.349622344970703125e+02,-6.917919158935546875e+00,-3.201350021362304688e+01,-1.839519348144531250e+02,3.649416351318359375e+01,2.449398231506347656e+01,3.228477478027343750e+01
9.079999923706054688e-01,2.000000000000000000e+00,-2.981921577453613281e+01,1.082697868347167969e+00,4.163103866577148438e+01,9.551068115234375000e+01,8.456243896484375000e+01,1.349520568847656250e+02,-6.968264579772949219e+00,-3.200772476196289062e+01,-1.839472351074218750e+02,3.649522781372070312e+01,2.451084709167480469e+01,3.228008651733398438e+01
9.120000004768371582e-01,2.000000000000000000e+00,-2.987186431884765625e+01,1.119495153427124023e+00,4.158709716796875000e+01,9.551826477050781250e+01,8.456175994873046875e+01,1.349418792724609375e+02,-7.018598556518554688e+00,-3.200195312500000000e+01,-1.839425354003906250e+02,3.649628829956054688e+01,2.452770805358886719e+01,3.227539825439453125e+01
9.160000085830688477e-01,2.000000000000000000e+00,-2.992449760437011719e+01,1.156284213066101074e+00,4.154315948486328125e+01,9.552584838867187500e+01,8.456108856201171875e+01,1.349317169189453125e+02,-7.068921566009521484e+00,-3.199617958068847656e+01,-1.839378509521484375e+02,3.649735641479492188e+01,2.454456710815429688e+01,3.227070999145507812e+01
9.200000166893005371e-01,2.000000000000000000e+00,-2.997712326049804688e+01,1.193065166473388672e+00,4.149924087524414062e+01,9.553341674804687500e+01,8.456041717529296875e+01,1.349215393066406250e+02,-7.119233608245849609e+00,-3.199040794372558594e+01,-1.839331512451171875e+02,3.649842071533203125e+01,2.456142044067382812e+01,3.226602172851562500e+01
9.240000247955322266e-01,2.000000000000000000e+00,-3.002973365783691406e+01,1.229837894439697266e+00,4.145532608032226562e+01,9.554099273681640625e+01,8.455975341796875000e+01,1.349113769531250000e+02,-7.169534206390380859e+00,-3.198463821411132812e+01,-1.839284515380859375e+02,3.649948120117187500e+01,2.457826995849609375e+01,3.226134109497070312e+01
9.279999732971191406e-01,2.000000000000000000e+00,-3.008233642578125000e+01,1.266602516174316406e+00,4.141141891479492188e+01,9.554856872558593750e+01,8.455908203125000000e+01,1.349012145996093750e+02,-7.219823360443115234e+00,-3.197887039184570312e+01,-1.839237670898437500e+02,3.650054550170898438e+01,2.459511566162109375e+01,3.225665283203125000e+01
9.319999814033508301e-01,2.000000000000000000e+00,-3.013492393493652344e+01,1.303359150886535645e+00,4.136752700805664062e+01,9.555614471435546875e+01,8.455841064453125000e+01,1.348910522460937500e+02,-7.270102024078369141e+00,-3.197310256958007812e+01,-1.839190826416015625e+02,3.650160980224609375e+01,2.461195945739746094e+01,3.225197219848632812e+01
9.359999895095825195e-01,2.000000000000000000e+00,-3.018750000000000000e+01,1.340107679367065430e+00,4.132364273071289062e+01,9.556371307373046875e+01,8.455773925781250000e+01,1.348808898925781250e+02,-7.320369720458984375e+00,-3.196733474731445312e+01,-1.839143981933593750e+02,3.650267410278320312e+01,2.462879753112792969e+01,3.224729156494140625e+01
9.399999976158142090e-01,2.000000000000000000e+00,-3.024006462097167969e+01,1.376847982406616211e+00,4.127976989746093750e+01,9.557128143310546875e+01,8.455706787109375000e+01,1.348707275390625000e+02,-7.370625495910644531e+00,-3.196157073974609375e+01,-1.839097137451171875e+02,3.650373458862304688e+01,2.464563179016113281e+01,3.224260711669921875e+01
9.440000057220458984e-01,2.000000000000000000e+00,-3.029261970520019531e+01,1.413580179214477539e+00,4.123590087890625000e+01,9.557884979248046875e+01,8.455639648437500000e+01,1.348605804443359375e+02,-7.420870780944824219e+00,-3.195580863952636719e+01,-1.839050292968750000e+02,3.650479507446289062e+01,2.466246223449707031e+01,3.223793029785156250e+01
9.480000138282775879e-01,2.000000000000000000e+00,-3.034516525268554688e+01,1.450304388999938965e+00,4.119204330444335938e+01,9.558641815185546875e+01,8.455572509765625000e+01,1.348504180908203125e+02,-7.471105098724365234e+00,-3.195004463195800781e+01,-1.839003448486328125e+02,3.650585937500000000e+01,2.467929077148437500e+01,3.223324966430664062e+01
9.520000219345092773e-01,2.000000000000000000e+00,-3.039769554138183594e+01,1.487020373344421387e+00,4.114819717407226562e+01,9.559397888183593750e+01,8.455506134033203125e+01,1.348402709960937500e+02,-7.521328449249267578e+00,-3.194428253173828125e+01,-1.838956604003906250e+02,3.650691986083984375e+01,2.469611549377441406e+01,3.222857284545898438e+01
9.559999704360961914e-01,2.000000000000000000e+00,-3.045021247863769531e+01,1.523728251457214355e+00,4.110436248779296875e+01,9.560153961181640625e+01,8.455438995361328125e+01,1.348301239013671875e+02,-7.571539878845214844e+00,-3.193852424621582031e+01,-1.838909912109375000e+02,3.650798416137695312e+01,2.471293449401855469e+01,3.222389602661132812e+01
9.599999785423278809e-01,2.000000000000000000e+00,-3.050271987915039062e+01,1.560428142547607422e+00,4.106053543090820312e+01,9.560910034179687500e+01,8.455371856689453125e+01,1.348199920654296875e+02,-7.621740818023681641e+00,-3.193276405334472656e+01,-1.838863067626953125e+02,3.650904464721679688e+01,2.472975158691406250e+01,3.221922302246093750e+01
9.639999866485595703e-01,2.000000000000000000e+00,-3.055521774291992188e+01,1.597119808197021484e+00,4.101671981811523438e+01,9.561666107177734375e+01,8.455304718017578125e+01,1.348098297119140625e+02,-7.671930789947509766e+00,-3.192700958251953125e+01,-1.838816223144531250e+02,3.651010513305664062e+01,2.474656486511230469e+01,3.221454620361328125e+01
9.679999947547912598e-01,2.000000000000000000e+00,-3.060770034790039062e+01,1.633803486824035645e+00,4.097291183471679688e+01,9.562421417236328125e+01,8.455238342285156250e+01,1.347996978759765625e+02,-7.722109317779541016e+00,-3.192125129699707031e+01,-1.838769378662109375e+02,3.651116561889648438e+01,2.476337432861328125e+01,3.220987319946289062e+01
9.720000028610229492e-01,2.000000000000000000e+00,-3.066017341613769531e+01,1.670479059219360352e+00,4.092911148071289062e+01,9.563176727294921875e+01,8.455171203613281250e+01,1.347895507812500000e+02,-7.772277355194091797e+00,-3.191549682617187500e+01,-1.838722534179687500e+02,3.651222991943359375e+01,2.478017997741699219e+01,3.220520019531250000e+01
9.760000109672546387e-01,2.000000000000000000e+00,-3.071263504028320312e+01,1.707146406173706055e+00,4.088533020019531250e+01,9.563932037353515625e+01,8.455104827880859375e+01,1.347794189453125000e+02,-7.822433948516845703e+00,-3.190974235534667969e+01,-1.838675842285156250e+02,3.651328659057617188e+01,2.479697990417480469e+01,3.220052719116210938e+01
9.800000190734863281e-01,2.000000000000000000e+00,-3.076508522033691406e+01,1.743805766105651855e+00,4.084154510498046875e+01,9.564687347412109375e+01,8.455037689208984375e+01,1.347692718505859375e+02,-7.872579574584960938e+00,-3.190399169921875000e+01,-1.838629150390625000e+02,3.651434707641601562e+01,2.481377792358398438e+01,3.219585800170898438e+01
9.840000271797180176e-01,2.000000000000000000e+00,-3.081752395629882812e+01,1.780457139015197754e+00,4.079777908325195312e+01,9.565442657470703125e+01,8.454971313476562500e+01,1.347591552734375000e+02,-7.922713756561279297e+00,-3.189824104309082031e+01,-1.838582458496093750e+02,3.651540756225585938e+01,2.483057212829589844e+01,3.219118881225585938e+01
9.879999756813049316e-01,2.000000000000000000e+00,-3.086995124816894531e+01,1.817100405693054199e+00,4.075402069091796875e+01,9.566197967529296875e+01,8.454904174804687500e+01,1.347490234375000000e+02,-7.972837448120117188e+00,-3.189249038696289062e+01,-1.838535766601562500e+02,3.651646804809570312e+01,2.484736251831054688e+01,3.218651962280273438e+01
9.919999837875366211e-01,2.000000000000000000e+00,-3.092236709594726562e+01,1.853735566139221191e+00,4.071026992797851562e+01,9.566952514648437500e+01,8.454837036132812500e+01,1.347388916015625000e+02,-8.022949218750000000e+00,-3.188674163818359375e+01,-1.838489074707031250e+02,3.651752853393554688e+01,2.486414909362792969e+01,3.218185424804687500e+01
9.959999918937683105e-01,2.000000000000000000e+00,-3.097476768493652344e+01,1.890362501144409180e+00,4.066653060913085938e+01,9.567706298828125000e+01,8.454769897460937500e+01,1.347287597656250000e+02,-8.073050498962402344e+00,-3.188099479675292969e+01,-1.838442230224609375e+02,3.651858520507812500e+01,2.488093376159667969e+01,3.217718505859375000e+01
1.000000000000000000e+00,2.000000000000000000e+00,-3.102716255187988281e+01,1.926981449127197266e+00,4.062279891967773438e+01,9.568461608886718750e+01,8.454704284667968750e+01,1.347186431884765625e+02,-8.123140335083007812e+00,-3.187524986267089844e+01,-1.838395538330078125e+02,3.651964569091796875e+01,2.489771270751953125e+01,3.217251968383789062e+01
1.003999948501586914e+00,2.000000000000000000e+00,-3.107954406738281250e+01,1.963592529296875000e+00,4.057907867431640625e+01,9.569215393066406250e+01,8.454637145996093750e+01,1.347085113525390625e+02,-8.173220634460449219e+00,-3.186950302124023438e+01,-1.838348846435546875e+02,3.652070617675781250e+01,2.491448783874511719e+01,3.216785812377929688e+01
1.008000016212463379e+00,2.000000000000000000e+00,-3.113191032409667969e+01,2.000195264816284180e+00,4.053536987304687500e+01,9.569969177246093750e+01,8.454570007324218750e+01,1.346983947753906250e+02,-8.223288536071777344e+00,-3.186376190185546875e+01,-1.838302154541015625e+02,3.652176284790039062e+01,2.493125915527343750e+01,3.216319274902343750e+01
1.011999964714050293e+00,2.000000000000000000e+00,-3.118426704406738281e+01,2.036790132522583008e+00,4.049166870117187500e+01,9.570723724365234375e+01,8.454502868652343750e+01,1.346882781982421875e+02,-8.273345947265625000e+00,-3.185801696777343750e+01,-1.838255462646484375e+02,3.652282333374023438e+01,2.494802856445312500e+01,3.215853118896484375e+01
1.016000032424926758e+00,2.000000000000000000e+00,-3.123661422729492188e+01,2.073376893997192383e+00,4.044797897338867188e+01,9.571476745605468750e+01,8.454437255859375000e+01,1.346781616210937500e+02,-8.323391914367675781e+00,-3.185227584838867188e+01,-1.838208770751953125e+02,3.652388000488281250e+01,2.496479415893554688e+01,3.215386962890625000e+01
1.019999980926513672e+00,2.000000000000000000e+00,-3.128894996643066406e+01,2.109955549240112305e+00,4.040429687500000000e+01,9.572230529785156250e+01,8.454370117187500000e+01,1.346680603027343750e+02,-8.373427391052246094e+00,-3.184653854370117188e+01,-1.838162078857421875e+02,3.652493667602539062e+01,2.498155403137207031e+01,3.214920806884765625e+01
1.024000048637390137e+00,2.000000000000000000e+00,-3.134127235412597656e+01,2.146526098251342773e+00,4.036062240600585938e+01,9.572984313964843750e+01,8.454303741455078125e+01,1.346579437255859375e+02,-8.423451423645019531e+00,-3.184079933166503906e+01,-1.838115539550781250e+02,3.652599334716796875e+01,2.499831199645996094e+01,3.214455032348632812e+01
1.026999950408935547e+00,2.000000000000000000e+00,-3.139358139038085938e+01,2.183088779449462891e+00,4.031695938110351562e+01,9.573737335205078125e+01,8.454236602783203125e+01,1.346478424072265625e+02,-8.473464012145996094e+00,-3.183506202697753906e+01,-1.838069000244140625e+02,3.652705383300781250e+01,2.501506614685058594e+01,3.213989257812500000e+01
1.031999945640563965e+00,2.000000000000000000e+00,-3.144588470458984375e+01,2.219643354415893555e+00,4.027330780029296875e+01,9.574490356445312500e+01,8.454170227050781250e+01,1.346377258300781250e+02,-8.523467063903808594e+00,-3.182932662963867188e+01,-1.838022155761718750e+02,3.652810668945312500e+01,2.503181457519531250e+01,3.213523483276367188e+01
1.036000013351440430e+00,2.000000000000000000e+00,-3.149817276000976562e+01,2.256190061569213867e+00,4.022966384887695312e+01,9.575242614746093750e+01,8.454103851318359375e+01,1.346276397705078125e+02,-8.573457717895507812e+00,-3.182359313964843750e+01,-1.837975616455078125e+02,3.652916717529296875e+01,2.504856109619140625e+01,3.213058090209960938e+01
1.039999961853027344e+00,2.000000000000000000e+00,-3.155044746398925781e+01,2.292728185653686523e+00,4.018603134155273438e+01,9.575995635986328125e+01,8.454036712646484375e+01,1.346175231933593750e+02,-8.623437881469726562e+00,-3.181785964965820312e+01,-1.837929077148437500e+02,3.653022384643554688e+01,2.506530380249023438e+01,3.212592315673828125e+01
1.044000029563903809e+00,2.000000000000000000e+00,-3.160271263122558594e+01,2.329258680343627930e+00,4.014240646362304688e+01,9.576748657226562500e+01,8.453970336914062500e+01,1.346074371337890625e+02,-8.673407554626464844e+00,-3.181212615966796875e+01,-1.837882537841796875e+02,3.653128051757812500e+01,2.508204269409179688e+01,3.212126922607421875e+01
1.047999978065490723e+00,2.000000000000000000e+00,-3.165496635437011719e+01,2.365781307220458984e+00,4.009879302978515625e+01,9.577500915527343750e+01,8.453903198242187500e+01,1.345973358154296875e+02,-8.723364830017089844e+00,-3.180639457702636719e+01,-1.837835845947265625e+02,3.653233718872070312e+01,2.509877777099609375e+01,3.211661911010742188e+01
1.052000045776367188e+00,2.000000000000000000e+00,-3.170721054077148438e+01,2.402295351028442383e+00,4.005518341064453125e+01,9.578253173828125000e+01,8.453837585449218750e+01,1.345872344970703125e+02,-8.773312568664550781e+00,-3.180066871643066406e+01,-1.837789306640625000e+02,3.653339004516601562e+01,2.511550903320312500e+01,3.211196517944335938e+01
1.054999947547912598e+00,2.000000000000000000e+00,-3.175944137573242188e+01,2.438802003860473633e+00,4.001158905029296875e+01,9.579005432128906250e+01,8.453770446777343750e+01,1.345771484375000000e+02,-8.823248863220214844e+00,-3.179493713378906250e+01,-1.837742767333984375e+02,3.653444671630859375e+01,2.513223838806152344e+01,3.210731506347656250e+01
1.059999942779541016e+00,2.000000000000000000e+00,-3.181166076660156250e+01,2.475300073623657227e+00,3.996800231933593750e+01,9.579756927490234375e+01,8.453704071044921875e+01,1.345670471191406250e+02,-8.873172760009765625e+00,-3.178920936584472656e+01,-1.837696228027343750e+02,3.653550720214843750e+01,2.514896202087402344e+01,3.210266494750976562e+01
1.064000010490417480e+00,2.000000000000000000e+00,-3.186386680603027344e+01,2.511790275573730469e+00,3.992442703247070312e+01,9.580509185791015625e+01,8.453636932373046875e+01,1.345569610595703125e+02,-8.923087120056152344e+00,-3.178348731994628906e+01,-1.837649688720703125e+02,3.653656005859375000e+01,2.516568183898925781e+01,3.209801864624023438e+01
1.067999958992004395e+00,2.000000000000000000e+00,-3.191606330871582031e+01,2.548272609710693359e+00,3.988085937500000000e+01,9.581260681152343750e+01,8.453570556640625000e+01,1.345468750000000000e+02,-8.972990989685058594e+00,-3.177776336669921875e+01,-1.837603149414062500e+02,3.653761672973632812e+01,2.518239974975585938e+01,3.209336853027343750e+01
1.072000026702880859e+00,2.000000000000000000e+00,-3.196825027465820312e+01,2.584746837615966797e+00,3.983730316162109375e+01,9.582011413574218750e+01,8.453504943847656250e+01,1.345367889404296875e+02,-9.022883415222167969e+00,-3.177203941345214844e+01,-1.837556610107421875e+02,3.653866958618164062e+01,2.519911193847656250e+01,3.208872222900390625e+01
1.075999975204467773e+00,2.000000000000000000e+00,-3.202042388916015625e+01,2.621212959289550781e+00,3.979375457763671875e+01,9.582762908935546875e+01,8.453437805175781250e+01,1.345267181396484375e+02,-9.072765350341796875e+00,-3.176631546020507812e+01,-1.837510070800781250e+02,3.653972244262695312e+01,2.521582031250000000e+01,3.208407592773437500e+01
1.080000042915344238e+00,2.000000000000000000e+00,-3.207258605957031250e+01,2.657671213150024414e+00,3.975021743774414062e+01,9.583514404296875000e+01,8.453371429443359375e+01,1.345166320800781250e+02,-9.122634887695312500e+00,-3.176059532165527344e+01,-1.837463684082031250e+02,3.654077911376953125e+01,2.523252677917480469e+01,3.207943344116210938e+01
1.083999991416931152e+00,2.000000000000000000e+00,-3.212473678588867188e+01,2.694121360778808594e+00,3.970668792724609375e+01,9.584265136718750000e+01,8.453305053710937500e+01,1.345065612792968750e+02,-9.172493934631347656e+00,-3.175487518310546875e+01,-1.837417144775390625e+02,3.654183197021484375e+01,2.524922943115234375e+01,3.207478713989257812e+01
1.088000059127807617e+00,2.000000000000000000e+00,-3.217687606811523438e+01,2.730563640594482422e+00,3.966316986083984375e+01,9.585015869140625000e+01,8.453237915039062500e+01,1.344964752197265625e+02,-9.222342491149902344e+00,-3.174915885925292969e+01,-1.837370605468750000e+02,3.654288482666015625e+01,2.526592636108398438e+01,3.207014465332031250e+01
1.090999960899353027e+00,2.000000000000000000e+00,-3.222900390625000000e+01,2.766997814178466797e+00,3.961965942382812500e+01,9.585766601562500000e+01,8.453172302246093750e+01,1.344864196777343750e+02,-9.272179603576660156e+00,-3.174344062805175781e+01,-1.837324218750000000e+02,3.654394149780273438e+01,2.528262138366699219e+01,3.206550216674804688e+01
1.095999956130981445e+00,2.000000000000000000e+00,-3.228111648559570312e+01,2.803424119949340820e+00,3.957616043090820312e+01,9.586516571044921875e+01,8.453105926513671875e+01,1.344763336181640625e+02,-9.322007179260253906e+00,-3.173772430419921875e+01,-1.837277679443359375e+02,3.654499435424804688e+01,2.529931259155273438e+01,3.206085968017578125e+01
1.100000023841857910e+00,2.000000000000000000e+00,-3.233322143554687500e+01,2.839842319488525391e+00,3.953266906738281250e+01,9.587266540527343750e+01,8.453039550781250000e+01,1.344662628173828125e+02,-9.371822357177734375e+00,-3.173200988769531250e+01,-1.837231292724609375e+02,3.654604721069335938e+01,2.531599998474121094e+01,3.205622100830078125e+01
1.103999972343444824e+00,2.000000000000000000e+00,-3.238531494140625000e+01,2.876252412796020508e+00,3.948918914794921875e+01,9.588016510009765625e+01,8.452972412109375000e+01,1.344562072753906250e+02,-9.421627044677734375e+00,-3.172629737854003906e+01,-1.837184906005859375e+02,3.654710006713867188e+01,2.533268547058105469e+01,3.205158233642578125e+01
1.108000040054321289e+00,2.000000000000000000e+00,-3.243739700317382812e+01,2.912654638290405273e+00,3.944572067260742188e+01,9.588766479492187500e+01,8.452906036376953125e+01,1.344461364746093750e+02,-9.471421241760253906e+00,-3.172058677673339844e+01,-1.837138366699218750e+02,3.654815292358398438e+01,2.534936523437500000e+01,3.204694366455078125e+01
1.111999988555908203e+00,2.000000000000000000e+00,-3.248946762084960938e+01,2.949048757553100586e+00,3.940225601196289062e+01,9.589516448974609375e+01,8.452839660644531250e+01,1.344360809326171875e+02,-9.521203994750976562e+00,-3.171487426757812500e+01,-1.837091979980468750e+02,3.654920578002929688e+01,2.536604118347167969e+01,3.204230880737304688e+01
1.116000056266784668e+00,2.000000000000000000e+00,-3.254152679443359375e+01,2.985435009002685547e+00,3.935880661010742188e+01,9.590265655517578125e+01,8.452774047851562500e+01,1.344260253906250000e+02,-9.570975303649902344e+00,-3.170916748046875000e+01,-1.837045593261718750e+02,3.655025863647460938e+01,2.538271331787109375e+01,3.203767013549804688e+01
