rpiRobotics/ARM-21-02-F-19-Robot-Motion-Program/data_performance_abb/curve_1/dual_arm/diffevo_pose3/grad_result/real_from_sim/sim_result/dual_iteration_8.csv
timestamp,cmd_num,J1,J2,J3,J4,J5,J6,J1_2,J2_2,J3_2,J4_2,J5_2,J6_2
0.000000000000000000e+00,-1.000000000000000000e+00,-1.943405342102050781e+01,-6.270914077758789062e+00,5.023437500000000000e+01,9.387802886962890625e+01,8.453221130371093750e+01,1.372462768554687500e+02,2.943772792816162109e+00,-3.315010070800781250e+01,-1.848581237792968750e+02,3.627884292602539062e+01,2.117473411560058594e+01,3.320489501953125000e+01
2.000000094994902611e-03,-1.000000000000000000e+00,-1.943405342102050781e+01,-6.270914077758789062e+00,5.023437500000000000e+01,9.387802886962890625e+01,8.453221130371093750e+01,1.372462768554687500e+02,2.943772792816162109e+00,-3.315010070800781250e+01,-1.848581237792968750e+02,3.627884292602539062e+01,2.117473411560058594e+01,3.320489501953125000e+01
6.000000052154064178e-03,-1.000000000000000000e+00,-1.943405342102050781e+01,-6.270914077758789062e+00,5.023437500000000000e+01,9.387802886962890625e+01,8.453221130371093750e+01,1.372462768554687500e+02,2.943772792816162109e+00,-3.315010070800781250e+01,-1.848581237792968750e+02,3.627884292602539062e+01,2.117473411560058594e+01,3.320489501953125000e+01
8.000000379979610443e-03,-1.000000000000000000e+00,-1.943405342102050781e+01,-6.270914077758789062e+00,5.023437500000000000e+01,9.387802886962890625e+01,8.453221130371093750e+01,1.372462768554687500e+02,2.943772792816162109e+00,-3.315010070800781250e+01,-1.848581237792968750e+02,3.627884292602539062e+01,2.117473411560058594e+01,3.320489501953125000e+01
1.099999994039535522e-02,-1.000000000000000000e+00,-1.943405342102050781e+01,-6.270914077758789062e+00,5.023437500000000000e+01,9.387802886962890625e+01,8.453221130371093750e+01,1.372462768554687500e+02,2.943772792816162109e+00,-3.315010070800781250e+01,-1.848581237792968750e+02,3.627884292602539062e+01,2.117473411560058594e+01,3.320489501953125000e+01
1.600000075995922089e-02,-1.000000000000000000e+00,-1.943405342102050781e+01,-6.270914077758789062e+00,5.023437500000000000e+01,9.387802886962890625e+01,8.453221130371093750e+01,1.372462768554687500e+02,2.943772792816162109e+00,-3.315010070800781250e+01,-1.848581237792968750e+02,3.627884292602539062e+01,2.117473411560058594e+01,3.320489501953125000e+01
1.999999955296516418e-02,-1.000000000000000000e+00,-1.943405342102050781e+01,-6.270914077758789062e+00,5.023437500000000000e+01,9.387802886962890625e+01,8.453221130371093750e+01,1.372462768554687500e+02,2.943772792816162109e+00,-3.315010070800781250e+01,-1.848581237792968750e+02,3.627884292602539062e+01,2.117473411560058594e+01,3.320489501953125000e+01
2.400000020861625671e-02,-1.000000000000000000e+00,-1.943405342102050781e+01,-6.270914077758789062e+00,5.023437500000000000e+01,9.387802886962890625e+01,8.453221130371093750e+01,1.372462768554687500e+02,2.943772792816162109e+00,-3.315010070800781250e+01,-1.848581237792968750e+02,3.627884292602539062e+01,2.117473411560058594e+01,3.320489501953125000e+01
2.800000086426734924e-02,-1.000000000000000000e+00,-1.943405342102050781e+01,-6.270914077758789062e+00,5.023437500000000000e+01,9.387802886962890625e+01,8.453221130371093750e+01,1.372462768554687500e+02,2.943772792816162109e+00,-3.315010070800781250e+01,-1.848581237792968750e+02,3.627884292602539062e+01,2.117473411560058594e+01,3.320489501953125000e+01
3.200000151991844177e-02,2.000000000000000000e+00,-1.943405342102050781e+01,-6.270914077758789062e+00,5.023437500000000000e+01,9.387802886962890625e+01,8.453221130371093750e+01,1.372462768554687500e+02,2.943772792816162109e+00,-3.315010070800781250e+01,-1.848581237792968750e+02,3.627884292602539062e+01,2.117473411560058594e+01,3.320489501953125000e+01
3.599999845027923584e-02,2.000000000000000000e+00,-1.943405342102050781e+01,-6.270914077758789062e+00,5.023437500000000000e+01,9.387802886962890625e+01,8.453221130371093750e+01,1.372462768554687500e+02,2.943772792816162109e+00,-3.315010070800781250e+01,-1.848581237792968750e+02,3.627884292602539062e+01,2.117473411560058594e+01,3.320489501953125000e+01
4.199999943375587463e-02,2.000000000000000000e+00,-1.943405342102050781e+01,-6.270914077758789062e+00,5.023437500000000000e+01,9.387802886962890625e+01,8.453221130371093750e+01,1.372462768554687500e+02,2.943772792816162109e+00,-3.315010070800781250e+01,-1.848581237792968750e+02,3.627884292602539062e+01,2.117473411560058594e+01,3.320489501953125000e+01
4.399999976158142090e-02,2.000000000000000000e+00,-1.943405342102050781e+01,-6.270914077758789062e+00,5.023437500000000000e+01,9.387802886962890625e+01,8.453221130371093750e+01,1.372462768554687500e+02,2.943772792816162109e+00,-3.315010070800781250e+01,-1.848581237792968750e+02,3.627884292602539062e+01,2.117473411560058594e+01,3.320489501953125000e+01
4.800000041723251343e-02,2.000000000000000000e+00,-1.943405342102050781e+01,-6.270914077758789062e+00,5.023437500000000000e+01,9.387802886962890625e+01,8.453221130371093750e+01,1.372462768554687500e+02,2.943772792816162109e+00,-3.315010070800781250e+01,-1.848581237792968750e+02,3.627884292602539062e+01,2.117473411560058594e+01,3.320489501953125000e+01
5.200000107288360596e-02,2.000000000000000000e+00,-1.943405342102050781e+01,-6.270914077758789062e+00,5.023437500000000000e+01,9.387802886962890625e+01,8.453221130371093750e+01,1.372462768554687500e+02,2.943772792816162109e+00,-3.315010070800781250e+01,-1.848581237792968750e+02,3.627884292602539062e+01,2.117473411560058594e+01,3.320489501953125000e+01
5.600000172853469849e-02,2.000000000000000000e+00,-1.943405342102050781e+01,-6.270914077758789062e+00,5.023437500000000000e+01,9.387802886962890625e+01,8.453221130371093750e+01,1.372462768554687500e+02,2.943772792816162109e+00,-3.315010070800781250e+01,-1.848581237792968750e+02,3.627884292602539062e+01,2.117473411560058594e+01,3.320489501953125000e+01
5.999999865889549255e-02,2.000000000000000000e+00,-1.943405342102050781e+01,-6.270914077758789062e+00,5.023437500000000000e+01,9.387802886962890625e+01,8.453221130371093750e+01,1.372462768554687500e+02,2.943772792816162109e+00,-3.315010070800781250e+01,-1.848581237792968750e+02,3.627884292602539062e+01,2.117473411560058594e+01,3.320489501953125000e+01
6.400000303983688354e-02,2.000000000000000000e+00,-1.943405342102050781e+01,-6.270914077758789062e+00,5.023437500000000000e+01,9.387802886962890625e+01,8.453221130371093750e+01,1.372462768554687500e+02,2.943772792816162109e+00,-3.315010070800781250e+01,-1.848581237792968750e+02,3.627884292602539062e+01,2.117473411560058594e+01,3.320489501953125000e+01
6.800000369548797607e-02,2.000000000000000000e+00,-1.943405342102050781e+01,-6.270914077758789062e+00,5.023437500000000000e+01,9.387802886962890625e+01,8.453221130371093750e+01,1.372462768554687500e+02,2.943772792816162109e+00,-3.315010070800781250e+01,-1.848581237792968750e+02,3.627884292602539062e+01,2.117473411560058594e+01,3.320489501953125000e+01
7.199999690055847168e-02,2.000000000000000000e+00,-1.943405342102050781e+01,-6.270914077758789062e+00,5.023437500000000000e+01,9.387802886962890625e+01,8.453221130371093750e+01,1.372462768554687500e+02,2.943772792816162109e+00,-3.315010070800781250e+01,-1.848581237792968750e+02,3.627884292602539062e+01,2.117473411560058594e+01,3.320489501953125000e+01
7.599999755620956421e-02,2.000000000000000000e+00,-1.943412017822265625e+01,-6.270887851715087891e+00,5.023436355590820312e+01,9.387803649902343750e+01,8.453221130371093750e+01,1.372462768554687500e+02,2.943772792816162109e+00,-3.315010070800781250e+01,-1.848581237792968750e+02,3.627884292602539062e+01,2.117473411560058594e+01,3.320489501953125000e+01
7.999999821186065674e-02,2.000000000000000000e+00,-1.943450164794921875e+01,-6.270724773406982422e+00,5.023427581787109375e+01,9.387803649902343750e+01,8.453220367431640625e+01,1.372462768554687500e+02,2.943772792816162109e+00,-3.315010070800781250e+01,-1.848581237792968750e+02,3.627884292602539062e+01,2.117473411560058594e+01,3.320489501953125000e+01
8.399999886751174927e-02,2.000000000000000000e+00,-1.943558120727539062e+01,-6.270217418670654297e+00,5.023399734497070312e+01,9.387804412841796875e+01,8.453218078613281250e+01,1.372462615966796875e+02,2.943772792816162109e+00,-3.315010070800781250e+01,-1.848581237792968750e+02,3.627884292602539062e+01,2.117473411560058594e+01,3.320489501953125000e+01
8.799999952316284180e-02,2.000000000000000000e+00,-1.943773078918457031e+01,-6.269125461578369141e+00,5.023337554931640625e+01,9.387807464599609375e+01,8.453213500976562500e+01,1.372462310791015625e+02,2.943745374679565430e+00,-3.315010070800781250e+01,-1.848581237792968750e+02,3.627884292602539062e+01,2.117473602294921875e+01,3.320489501953125000e+01
9.200000017881393433e-02,2.000000000000000000e+00,-1.944118118286132812e+01,-6.267241954803466797e+00,5.023224258422851562e+01,9.387814331054687500e+01,8.453205108642578125e+01,1.372461700439453125e+02,2.943565368652343750e+00,-3.315009307861328125e+01,-1.848581085205078125e+02,3.627884292602539062e+01,2.117475318908691406e+01,3.320489501953125000e+01
9.600000083446502686e-02,2.000000000000000000e+00,-1.944609069824218750e+01,-6.264393329620361328e+00,5.023041915893554688e+01,9.387828063964843750e+01,8.453193664550781250e+01,1.372460021972656250e+02,2.942971944808959961e+00,-3.315005874633789062e+01,-1.848580169677734375e+02,3.627885437011718750e+01,2.117481422424316406e+01,3.320489120483398438e+01
1.000000014901161194e-01,2.000000000000000000e+00,-1.945260429382324219e+01,-6.260417461395263672e+00,5.022769165039062500e+01,9.387853240966796875e+01,8.453179168701171875e+01,1.372456970214843750e+02,2.941609621047973633e+00,-3.314996719360351562e+01,-1.848578338623046875e+02,3.627886962890625000e+01,2.117497444152832031e+01,3.320486450195312500e+01
1.040000021457672119e-01,2.000000000000000000e+00,-1.946075820922851562e+01,-6.255213737487792969e+00,5.022383499145507812e+01,9.387893676757812500e+01,8.453161621093750000e+01,1.372451934814453125e+02,2.939090967178344727e+00,-3.314979171752929688e+01,-1.848574829101562500e+02,3.627890396118164062e+01,2.117532539367675781e+01,3.320481109619140625e+01
1.080000028014183044e-01,2.000000000000000000e+00,-1.947046852111816406e+01,-6.248759746551513672e+00,5.021865081787109375e+01,9.387956237792968750e+01,8.453141784667968750e+01,1.372443695068359375e+02,2.934986114501953125e+00,-3.314947891235351562e+01,-1.848569335937500000e+02,3.627896118164062500e+01,2.117599296569824219e+01,3.320468521118164062e+01
1.120000034570693970e-01,2.000000000000000000e+00,-1.948175430297851562e+01,-6.241023540496826172e+00,5.021191406250000000e+01,9.388047027587890625e+01,8.453120422363281250e+01,1.372431793212890625e+02,2.928821563720703125e+00,-3.314897155761718750e+01,-1.848561706542968750e+02,3.627904129028320312e+01,2.117715454101562500e+01,3.320444488525390625e+01
1.159999966621398926e-01,2.000000000000000000e+00,-1.949486732482910156e+01,-6.231867790222167969e+00,5.020334625244140625e+01,9.388172149658203125e+01,8.453100585937500000e+01,1.372415161132812500e+02,2.920204401016235352e+00,-3.314820098876953125e+01,-1.848551483154296875e+02,3.627915573120117188e+01,2.117900848388671875e+01,3.320403289794921875e+01
1.199999973177909851e-01,2.000000000000000000e+00,-1.951023292541503906e+01,-6.221053600311279297e+00,5.019263458251953125e+01,9.388337707519531250e+01,8.453078460693359375e+01,1.372392883300781250e+02,2.908910989761352539e+00,-3.314712142944335938e+01,-1.848538818359375000e+02,3.627930450439453125e+01,2.118176651000976562e+01,3.320338821411132812e+01
1.239999979734420776e-01,2.000000000000000000e+00,-1.952821350097656250e+01,-6.208368301391601562e+00,5.017949295043945312e+01,9.388548278808593750e+01,8.453056335449218750e+01,1.372364349365234375e+02,2.894785881042480469e+00,-3.314567184448242188e+01,-1.848523864746093750e+02,3.627948760986328125e+01,2.118562698364257812e+01,3.320244216918945312e+01
1.280000060796737671e-01,2.000000000000000000e+00,-1.954896354675292969e+01,-6.193731307983398438e+00,5.016371917724609375e+01,9.388809967041015625e+01,8.453034973144531250e+01,1.372328796386718750e+02,2.877595424652099609e+00,-3.314380645751953125e+01,-1.848506927490234375e+02,3.627971649169921875e+01,2.119076538085937500e+01,3.320114898681640625e+01
1.309999972581863403e-01,2.000000000000000000e+00,-1.957245635986328125e+01,-6.177190780639648438e+00,5.014520645141601562e+01,9.389126586914062500e+01,8.453014373779296875e+01,1.372285766601562500e+02,2.857053756713867188e+00,-3.314148712158203125e+01,-1.848487701416015625e+02,3.627998352050781250e+01,2.119730949401855469e+01,3.319947814941406250e+01
1.360000073909759521e-01,2.000000000000000000e+00,-1.959858894348144531e+01,-6.158831596374511719e+00,5.012390899658203125e+01,9.389500427246093750e+01,8.452996063232421875e+01,1.372234649658203125e+02,2.832966566085815430e+00,-3.313869476318359375e+01,-1.848465881347656250e+02,3.628030395507812500e+01,2.120532035827636719e+01,3.319739913940429688e+01
1.389999985694885254e-01,2.000000000000000000e+00,-1.962728500366210938e+01,-6.138713359832763672e+00,5.009982299804687500e+01,9.389931488037109375e+01,8.452979278564453125e+01,1.372175445556640625e+02,2.805253028869628906e+00,-3.313542556762695312e+01,-1.848441467285156250e+02,3.628066635131835938e+01,2.121480178833007812e+01,3.319492721557617188e+01
1.439999938011169434e-01,2.000000000000000000e+00,-1.965845680236816406e+01,-6.116891860961914062e+00,5.007299423217773438e+01,9.390420532226562500e+01,8.452966308593750000e+01,1.372108306884765625e+02,2.773882389068603516e+00,-3.313169097900390625e+01,-1.848414154052734375e+02,3.628107833862304688e+01,2.122569847106933594e+01,3.319207382202148438e+01
1.480000019073486328e-01,2.000000000000000000e+00,-1.969200134277343750e+01,-6.093423366546630859e+00,5.004353713989257812e+01,9.390965270996093750e+01,8.452955627441406250e+01,1.372033386230468750e+02,2.738910913467407227e+00,-3.312751388549804688e+01,-1.848384094238281250e+02,3.628153610229492188e+01,2.123791885375976562e+01,3.318887329101562500e+01
1.519999951124191284e-01,2.000000000000000000e+00,-1.972793388366699219e+01,-6.068272590637207031e+00,5.001156616210937500e+01,9.391560363769531250e+01,8.452946472167968750e+01,1.371951446533203125e+02,2.700569629669189453e+00,-3.312293624877929688e+01,-1.848350830078125000e+02,3.628203964233398438e+01,2.125132560729980469e+01,3.318535614013671875e+01
1.560000032186508179e-01,2.000000000000000000e+00,-1.976638793945312500e+01,-6.041316509246826172e+00,4.997719955444335938e+01,9.392200469970703125e+01,8.452937316894531250e+01,1.371863250732421875e+02,2.659267902374267578e+00,-3.311801147460937500e+01,-1.848315124511718750e+02,3.628258132934570312e+01,2.126576423645019531e+01,3.318157196044921875e+01
1.599999964237213135e-01,2.000000000000000000e+00,-1.980743026733398438e+01,-6.012480258941650391e+00,4.994059753417968750e+01,9.392881011962890625e+01,8.452926635742187500e+01,1.371769409179687500e+02,2.615463018417358398e+00,-3.311279678344726562e+01,-1.848277282714843750e+02,3.628315734863281250e+01,2.128105926513671875e+01,3.317756271362304688e+01
1.640000045299530029e-01,2.000000000000000000e+00,-1.985090255737304688e+01,-5.981858730316162109e+00,4.990202331542968750e+01,9.393595123291015625e+01,8.452912902832031250e+01,1.371671142578125000e+02,2.569535017013549805e+00,-3.310733795166015625e+01,-1.848237304687500000e+02,3.628376007080078125e+01,2.129704666137695312e+01,3.317337417602539062e+01
1.679999977350234985e-01,2.000000000000000000e+00,-1.989643096923828125e+01,-5.949682712554931641e+00,4.986177444458007812e+01,9.394336700439453125e+01,8.452898406982421875e+01,1.371569213867187500e+02,2.521798849105834961e+00,-3.310168838500976562e+01,-1.848195648193359375e+02,3.628438186645507812e+01,2.131356620788574219e+01,3.316905593872070312e+01
1.720000058412551880e-01,2.000000000000000000e+00,-1.994363594055175781e+01,-5.916189670562744141e+00,4.982016372680664062e+01,9.395100402832031250e+01,8.452880096435546875e+01,1.371464233398437500e+02,2.472568035125732422e+00,-3.309589767456054688e+01,-1.848152313232421875e+02,3.628503036499023438e+01,2.133047103881835938e+01,3.316464614868164062e+01
1.759999990463256836e-01,2.000000000000000000e+00,-1.999225234985351562e+01,-5.881568908691406250e+00,4.977745437622070312e+01,9.395880889892578125e+01,8.452859497070312500e+01,1.371356964111328125e+02,2.422172784805297852e+00,-3.309000015258789062e+01,-1.848107604980468750e+02,3.628568649291992188e+01,2.134763526916503906e+01,3.316017532348632812e+01
1.800000071525573730e-01,2.000000000000000000e+00,-2.004212570190429688e+01,-5.845981597900390625e+00,4.973386001586914062e+01,9.396673583984375000e+01,8.452837371826171875e+01,1.371248016357421875e+02,2.370909452438354492e+00,-3.308403015136718750e+01,-1.848061828613281250e+02,3.628636169433593750e+01,2.136496162414550781e+01,3.315567016601562500e+01
1.840000003576278687e-01,2.000000000000000000e+00,-2.009313964843750000e+01,-5.809581756591796875e+00,4.968959045410156250e+01,9.397474670410156250e+01,8.452812957763671875e+01,1.371138153076171875e+02,2.319017648696899414e+00,-3.307801437377929688e+01,-1.848015136718750000e+02,3.628704071044921875e+01,2.138237953186035156e+01,3.315115356445312500e+01
1.879999935626983643e-01,2.000000000000000000e+00,-2.014515304565429688e+01,-5.772515773773193359e+00,4.964480972290039062e+01,9.398282623291015625e+01,8.452785491943359375e+01,1.371027374267578125e+02,2.266718864440917969e+00,-3.307197570800781250e+01,-1.847967834472656250e+02,3.628772354125976562e+01,2.139983940124511719e+01,3.314663314819335938e+01
1.920000016689300537e-01,2.000000000000000000e+00,-2.019805717468261719e+01,-5.734902858734130859e+00,4.959965515136718750e+01,9.399092864990234375e+01,8.452756500244140625e+01,1.370916137695312500e+02,2.214215040206909180e+00,-3.306591796875000000e+01,-1.847920074462890625e+02,3.628841400146484375e+01,2.141731834411621094e+01,3.314210510253906250e+01
1.959999948740005493e-01,2.000000000000000000e+00,-2.025175857543945312e+01,-5.696852207183837891e+00,4.955423736572265625e+01,9.399905395507812500e+01,8.452725219726562500e+01,1.370804901123046875e+02,2.161649227142333984e+00,-3.305986022949218750e+01,-1.847872467041015625e+02,3.628910446166992188e+01,2.143479919433593750e+01,3.313758087158203125e+01
2.000000029802322388e-01,2.000000000000000000e+00,-2.030606842041015625e+01,-5.658501625061035156e+00,4.950865173339843750e+01,9.400717926025390625e+01,8.452693176269531250e+01,1.370693511962890625e+02,2.109084129333496094e+00,-3.305380249023437500e+01,-1.847824707031250000e+02,3.628979110717773438e+01,2.145227622985839844e+01,3.313305664062500000e+01
2.039999961853027344e-01,2.000000000000000000e+00,-2.036072921752929688e+01,-5.619997501373291016e+00,4.946298599243164062e+01,9.401531219482421875e+01,8.452660369873046875e+01,1.370582122802734375e+02,2.056530714035034180e+00,-3.304774856567382812e+01,-1.847776947021484375e+02,3.629047775268554688e+01,2.146974945068359375e+01,3.312853622436523438e+01
2.080000042915344238e-01,2.000000000000000000e+00,-2.041550636291503906e+01,-5.581449031829833984e+00,4.941730499267578125e+01,9.402344512939453125e+01,8.452626800537109375e+01,1.370470733642578125e+02,2.003989458084106445e+00,-3.304169464111328125e+01,-1.847729187011718750e+02,3.629116821289062500e+01,2.148721694946289062e+01,3.312401199340820312e+01
2.119999974966049194e-01,2.000000000000000000e+00,-2.047028732299804688e+01,-5.542901992797851562e+00,4.937162780761718750e+01,9.403157043457031250e+01,8.452593231201171875e+01,1.370359344482421875e+02,1.951460599899291992e+00,-3.303563690185546875e+01,-1.847681427001953125e+02,3.629185867309570312e+01,2.150468254089355469e+01,3.311949157714843750e+01
2.160000056028366089e-01,2.000000000000000000e+00,-2.052505874633789062e+01,-5.504363059997558594e+00,4.932596206665039062e+01,9.403969573974609375e+01,8.452559661865234375e+01,1.370248107910156250e+02,1.898943901062011719e+00,-3.302958679199218750e+01,-1.847633819580078125e+02,3.629254913330078125e+01,2.152214241027832031e+01,3.311497497558593750e+01
2.199999988079071045e-01,2.000000000000000000e+00,-2.057981681823730469e+01,-5.465833187103271484e+00,4.928030776977539062e+01,9.404782867431640625e+01,8.452526855468750000e+01,1.370136718750000000e+02,1.846439599990844727e+00,-3.302353286743164062e+01,-1.847586212158203125e+02,3.629323577880859375e+01,2.153960037231445312e+01,3.311045074462890625e+01
2.240000069141387939e-01,2.000000000000000000e+00,-2.063456153869628906e+01,-5.427312374114990234e+00,4.923466491699218750e+01,9.405594635009765625e+01,8.452494049072265625e+01,1.370025482177734375e+02,1.793947696685791016e+00,-3.301748657226562500e+01,-1.847538452148437500e+02,3.629392623901367188e+01,2.155705261230468750e+01,3.310593795776367188e+01
2.280000001192092896e-01,2.000000000000000000e+00,-2.068929290771484375e+01,-5.388800621032714844e+00,4.918902969360351562e+01,9.406407165527343750e+01,8.452460479736328125e+01,1.369914245605468750e+02,1.741468071937561035e+00,-3.301144027709960938e+01,-1.847490844726562500e+02,3.629461288452148438e+01,2.157449913024902344e+01,3.310141754150390625e+01
2.319999933242797852e-01,2.000000000000000000e+00,-2.074401473999023438e+01,-5.350298404693603516e+00,4.914340591430664062e+01,9.407218170166015625e+01,8.452426910400390625e+01,1.369803009033203125e+02,1.689000844955444336e+00,-3.300539016723632812e+01,-1.847443084716796875e+02,3.629529953002929688e+01,2.159194374084472656e+01,3.309690475463867188e+01
2.360000014305114746e-01,2.000000000000000000e+00,-2.079871940612792969e+01,-5.311804771423339844e+00,4.909779357910156250e+01,9.408030700683593750e+01,8.452394104003906250e+01,1.369691925048828125e+02,1.636545896530151367e+00,-3.299934387207031250e+01,-1.847395629882812500e+02,3.629598617553710938e+01,2.160938453674316406e+01,3.309238815307617188e+01
2.399999946355819702e-01,2.000000000000000000e+00,-2.085341453552246094e+01,-5.273320674896240234e+00,4.905219268798828125e+01,9.408841705322265625e+01,8.452360534667968750e+01,1.369580688476562500e+02,1.584103345870971680e+00,-3.299330520629882812e+01,-1.847347869873046875e+02,3.629667663574218750e+01,2.162682151794433594e+01,3.308787918090820312e+01
2.440000027418136597e-01,2.000000000000000000e+00,-2.090809631347656250e+01,-5.234845161437988281e+00,4.900660324096679688e+01,9.409653472900390625e+01,8.452326965332031250e+01,1.369469604492187500e+02,1.531673192977905273e+00,-3.298725891113281250e+01,-1.847300262451171875e+02,3.629736328125000000e+01,2.164425277709960938e+01,3.308336639404296875e+01
2.479999959468841553e-01,2.000000000000000000e+00,-2.096276473999023438e+01,-5.196379184722900391e+00,4.896102142333984375e+01,9.410464477539062500e+01,8.452293395996093750e+01,1.369358520507812500e+02,1.479255318641662598e+00,-3.298121643066406250e+01,-1.847252655029296875e+02,3.629804992675781250e+01,2.166168022155761719e+01,3.307885742187500000e+01
2.520000040531158447e-01,2.000000000000000000e+00,-2.101742172241210938e+01,-5.157921791076660156e+00,4.891545486450195312e+01,9.411275482177734375e+01,8.452260589599609375e+01,1.369247436523437500e+02,1.426849842071533203e+00,-3.297518157958984375e+01,-1.847205200195312500e+02,3.629873657226562500e+01,2.167910385131835938e+01,3.307434463500976562e+01
2.560000121593475342e-01,2.000000000000000000e+00,-2.107206535339355469e+01,-5.119472980499267578e+00,4.886989593505859375e+01,9.412086486816406250e+01,8.452227020263671875e+01,1.369136505126953125e+02,1.374456524848937988e+00,-3.296914291381835938e+01,-1.847157440185546875e+02,3.629942703247070312e+01,2.169652557373046875e+01,3.306983566284179688e+01
2.599999904632568359e-01,2.000000000000000000e+00,-2.112669372558593750e+01,-5.081033706665039062e+00,4.882434844970703125e+01,9.412896728515625000e+01,8.452194213867187500e+01,1.369025421142578125e+02,1.322075605392456055e+00,-3.296310424804687500e+01,-1.847109985351562500e+02,3.630011367797851562e+01,2.171393966674804688e+01,3.306533050537109375e+01
2.639999985694885254e-01,2.000000000000000000e+00,-2.118131256103515625e+01,-5.042603015899658203e+00,4.877881240844726562e+01,9.413706970214843750e+01,8.452161407470703125e+01,1.368914337158203125e+02,1.269706726074218750e+00,-3.295706939697265625e+01,-1.847062377929687500e+02,3.630080032348632812e+01,2.173135185241699219e+01,3.306082153320312500e+01
2.680000066757202148e-01,2.000000000000000000e+00,-2.123591804504394531e+01,-5.004181861877441406e+00,4.873328399658203125e+01,9.414517211914062500e+01,8.452127838134765625e+01,1.368803405761718750e+02,1.217350125312805176e+00,-3.295103454589843750e+01,-1.847014923095703125e+02,3.630148696899414062e+01,2.174875831604003906e+01,3.305631637573242188e+01
2.720000147819519043e-01,2.000000000000000000e+00,-2.129051017761230469e+01,-4.965769290924072266e+00,4.868776702880859375e+01,9.415327453613281250e+01,8.452095031738281250e+01,1.368692474365234375e+02,1.165005803108215332e+00,-3.294500350952148438e+01,-1.846967315673828125e+02,3.630217361450195312e+01,2.176616287231445312e+01,3.305181121826171875e+01
2.759999930858612061e-01,2.000000000000000000e+00,-2.134508705139160156e+01,-4.927365779876708984e+00,4.864226150512695312e+01,9.416136932373046875e+01,8.452061462402343750e+01,1.368581542968750000e+02,1.112673759460449219e+00,-3.293897247314453125e+01,-1.846919708251953125e+02,3.630286026000976562e+01,2.178356170654296875e+01,3.304730606079101562e+01
2.800000011920928955e-01,2.000000000000000000e+00,-2.139965629577636719e+01,-4.888970851898193359e+00,4.859676742553710938e+01,9.416946411132812500e+01,8.452027893066406250e+01,1.368470611572265625e+02,1.060353636741638184e+00,-3.293294143676757812e+01,-1.846872253417968750e+02,3.630354690551757812e+01,2.180095672607421875e+01,3.304280471801757812e+01
2.840000092983245850e-01,2.000000000000000000e+00,-2.145420837402343750e+01,-4.850585460662841797e+00,4.855128479003906250e+01,9.417755889892578125e+01,8.451995086669921875e+01,1.368359680175781250e+02,1.008045911788940430e+00,-3.292691421508789062e+01,-1.846824645996093750e+02,3.630423355102539062e+01,2.181834793090820312e+01,3.303830337524414062e+01
2.879999876022338867e-01,2.000000000000000000e+00,-2.150875091552734375e+01,-4.812208175659179688e+00,4.850580978393554688e+01,9.418565368652343750e+01,8.451961517333984375e+01,1.368248901367187500e+02,9.557499885559082031e-01,-3.292088699340820312e+01,-1.846777343750000000e+02,3.630491638183593750e+01,2.183573341369628906e+01,3.303380203247070312e+01
2.919999957084655762e-01,2.000000000000000000e+00,-2.156328010559082031e+01,-4.773840427398681641e+00,4.846034622192382812e+01,9.419374847412109375e+01,8.451928710937500000e+01,1.368138122558593750e+02,9.034662842750549316e-01,-3.291486358642578125e+01,-1.846729736328125000e+02,3.630560302734375000e+01,2.185311889648437500e+01,3.302930450439453125e+01
2.960000038146972656e-01,2.000000000000000000e+00,-2.161779403686523438e+01,-4.735481262207031250e+00,4.841489410400390625e+01,9.420183563232421875e+01,8.451895141601562500e+01,1.368027343750000000e+02,8.511945605278015137e-01,-3.290884017944335938e+01,-1.846682434082031250e+02,3.630628585815429688e+01,2.187049865722656250e+01,3.302480697631835938e+01
3.000000119209289551e-01,2.000000000000000000e+00,-2.167229843139648438e+01,-4.697131156921386719e+00,4.836945343017578125e+01,9.420992279052734375e+01,8.451862335205078125e+01,1.367916564941406250e+02,7.989349365234375000e-01,-3.290281677246093750e+01,-1.846634826660156250e+02,3.630697250366210938e+01,2.188787269592285156e+01,3.302030563354492188e+01
3.039999902248382568e-01,2.000000000000000000e+00,-2.172678947448730469e+01,-4.658789634704589844e+00,4.832402038574218750e+01,9.421800994873046875e+01,8.451829528808593750e+01,1.367805786132812500e+02,7.466873526573181152e-01,-3.289679718017578125e+01,-1.846587371826171875e+02,3.630765533447265625e+01,2.190524291992187500e+01,3.301580810546875000e+01
3.079999983310699463e-01,2.000000000000000000e+00,-2.178126716613769531e+01,-4.620457172393798828e+00,4.827859878540039062e+01,9.422608947753906250e+01,8.451795959472656250e+01,1.367695159912109375e+02,6.944517493247985840e-01,-3.289077758789062500e+01,-1.846539916992187500e+02,3.630834197998046875e+01,2.192261123657226562e+01,3.301131439208984375e+01
3.120000064373016357e-01,2.000000000000000000e+00,-2.183573341369628906e+01,-4.582133769989013672e+00,4.823318862915039062e+01,9.423416900634765625e+01,8.451763153076171875e+01,1.367584381103515625e+02,6.422282457351684570e-01,-3.288475799560546875e+01,-1.846492462158203125e+02,3.630902481079101562e+01,2.193997573852539062e+01,3.300682067871093750e+01
3.160000145435333252e-01,2.000000000000000000e+00,-2.189018630981445312e+01,-4.543818473815917969e+00,4.818778610229492188e+01,9.424224853515625000e+01,8.451729583740234375e+01,1.367473754882812500e+02,5.900166630744934082e-01,-3.287874221801757812e+01,-1.846445159912109375e+02,3.630971145629882812e+01,2.195733451843261719e+01,3.300232696533203125e+01
3.199999928474426270e-01,2.000000000000000000e+00,-2.194462585449218750e+01,-4.505512714385986328e+00,4.814239883422851562e+01,9.425032806396484375e+01,8.451696777343750000e+01,1.367362976074218750e+02,5.378172397613525391e-01,-3.287272262573242188e+01,-1.846397705078125000e+02,3.631039428710937500e+01,2.197468948364257812e+01,3.299783706665039062e+01
3.240000009536743164e-01,2.000000000000000000e+00,-2.199905395507812500e+01,-4.467215061187744141e+00,4.809701919555664062e+01,9.425839996337890625e+01,8.451663208007812500e+01,1.367252349853515625e+02,4.856297075748443604e-01,-3.286671066284179688e+01,-1.846350250244140625e+02,3.631108093261718750e+01,2.199204063415527344e+01,3.299334716796875000e+01
3.280000090599060059e-01,2.000000000000000000e+00,-2.205347061157226562e+01,-4.428926944732666016e+00,4.805164718627929688e+01,9.426647186279296875e+01,8.451630401611328125e+01,1.367141876220703125e+02,4.334542751312255859e-01,-3.286069488525390625e+01,-1.846302947998046875e+02,3.631176376342773438e+01,2.200938606262207031e+01,3.298885345458984375e+01
3.319999873638153076e-01,2.000000000000000000e+00,-2.210787200927734375e+01,-4.390646934509277344e+00,4.800629425048828125e+01,9.427455139160156250e+01,8.451597595214843750e+01,1.367031250000000000e+02,3.812908232212066650e-01,-3.285468673706054688e+01,-1.846255645751953125e+02,3.631244659423828125e+01,2.202672958374023438e+01,3.298436737060546875e+01
3.359999954700469971e-01,2.000000000000000000e+00,-2.216226387023925781e+01,-4.352376461029052734e+00,4.796094512939453125e+01,9.428262329101562500e+01,8.451564025878906250e+01,1.366920776367187500e+02,3.291394114494323730e-01,-3.284867477416992188e+01,-1.846208190917968750e+02,3.631313323974609375e+01,2.204407119750976562e+01,3.297988128662109375e+01
3.400000035762786865e-01,2.000000000000000000e+00,-2.221664047241210938e+01,-4.314114570617675781e+00,4.791560363769531250e+01,9.429068756103515625e+01,8.451531219482421875e+01,1.366810150146484375e+02,2.769999802112579346e-01,-3.284266662597656250e+01,-1.846160736083984375e+02,3.631381607055664062e+01,2.206140518188476562e+01,3.297539138793945312e+01
3.440000116825103760e-01,2.000000000000000000e+00,-2.227100753784179688e+01,-4.275861263275146484e+00,4.787028121948242188e+01,9.429875183105468750e+01,8.451497650146484375e+01,1.366699676513671875e+02,2.248725295066833496e-01,-3.283666229248046875e+01,-1.846113586425781250e+02,3.631450271606445312e+01,2.207873725891113281e+01,3.297090530395507812e+01
3.479999899864196777e-01,2.000000000000000000e+00,-2.232535934448242188e+01,-4.237616539001464844e+00,4.782496261596679688e+01,9.430682373046875000e+01,8.451464843750000000e+01,1.366589355468750000e+02,1.727571040391921997e-01,-3.283065414428710938e+01,-1.846066131591796875e+02,3.631518554687500000e+01,2.209606361389160156e+01,3.296641921997070312e+01
3.519999980926513672e-01,2.000000000000000000e+00,-2.237969970703125000e+01,-4.199381351470947266e+00,4.777965545654296875e+01,9.431488037109375000e+01,8.451432037353515625e+01,1.366478881835937500e+02,1.206536814570426941e-01,-3.282464981079101562e+01,-1.846018829345703125e+02,3.631586837768554688e+01,2.211338615417480469e+01,3.296193695068359375e+01
3.560000061988830566e-01,2.000000000000000000e+00,-2.243402862548828125e+01,-4.161154270172119141e+00,4.773435974121093750e+01,9.432293701171875000e+01,8.451399230957031250e+01,1.366368408203125000e+02,6.856223940849304199e-02,-3.281864547729492188e+01,-1.845971527099609375e+02,3.631655120849609375e+01,2.213070678710937500e+01,3.295745086669921875e+01
3.600000143051147461e-01,2.000000000000000000e+00,-2.248834419250488281e+01,-4.122936725616455078e+00,4.768907546997070312e+01,9.433100128173828125e+01,8.451366424560546875e+01,1.366258087158203125e+02,1.648278534412384033e-02,-3.281264114379882812e+01,-1.845924224853515625e+02,3.631723403930664062e+01,2.214802169799804688e+01,3.295297241210937500e+01
3.639999926090240479e-01,2.000000000000000000e+00,-2.254264450073242188e+01,-4.084727764129638672e+00,4.764379882812500000e+01,9.433905792236328125e+01,8.451332855224609375e+01,1.366147613525390625e+02,-3.558468446135520935e-02,-3.280664062500000000e+01,-1.845876922607421875e+02,3.631791687011718750e+01,2.216533279418945312e+01,3.294849014282226562e+01
3.680000007152557373e-01,2.000000000000000000e+00,-2.259693717956542969e+01,-4.046527385711669922e+00,4.759853363037109375e+01,9.434711456298828125e+01,8.451300048828125000e+01,1.366037292480468750e+02,-8.764018118381500244e-02,-3.280064392089843750e+01,-1.845829620361328125e+02,3.631859970092773438e+01,2.218264007568359375e+01,3.294401168823242188e+01
3.720000088214874268e-01,2.000000000000000000e+00,-2.265121459960937500e+01,-4.008335590362548828e+00,4.755327987670898438e+01,9.435517120361328125e+01,8.451267242431640625e+01,1.365927124023437500e+02,-1.396836936473846436e-01,-3.279464340209960938e+01,-1.845782470703125000e+02,3.631928253173828125e+01,2.219994354248046875e+01,3.293953323364257812e+01
3.759999871253967285e-01,2.000000000000000000e+00,-2.270547866821289062e+01,-3.970152616500854492e+00,4.750803756713867188e+01,9.436322021484375000e+01,8.451233673095703125e+01,1.365816802978515625e+02,-1.917152404785156250e-01,-3.278865051269531250e+01,-1.845735168457031250e+02,3.631996536254882812e+01,2.221724319458007812e+01,3.293505477905273438e+01
3.799999952316284180e-01,2.000000000000000000e+00,-2.275973320007324219e+01,-3.931978702545166016e+00,4.746280288696289062e+01,9.437126922607421875e+01,8.451200866699218750e+01,1.365706481933593750e+02,-2.437348216772079468e-01,-3.278265380859375000e+01,-1.845687866210937500e+02,3.632064437866210938e+01,2.223453903198242188e+01,3.293057632446289062e+01
3.840000033378601074e-01,2.000000000000000000e+00,-2.281397247314453125e+01,-3.893813133239746094e+00,4.741757965087890625e+01,9.437931823730468750e+01,8.451168060302734375e+01,1.365596313476562500e+02,-2.957424223423004150e-01,-3.277666091918945312e+01,-1.845640716552734375e+02,3.632132720947265625e+01,2.225182914733886719e+01,3.292610168457031250e+01
3.880000114440917969e-01,2.000000000000000000e+00,-2.286820030212402344e+01,-3.855656862258911133e+00,4.737236404418945312e+01,9.438735961914062500e+01,8.451134490966796875e+01,1.365486145019531250e+02,-3.477380871772766113e-01,-3.277067184448242188e+01,-1.845593566894531250e+02,3.632201004028320312e+01,2.226911735534667969e+01,3.292162704467773438e+01
3.919999897480010986e-01,2.000000000000000000e+00,-2.292241477966308594e+01,-3.817509412765502930e+00,4.732716369628906250e+01,9.439540863037109375e+01,8.451101684570312500e+01,1.365375823974609375e+02,-3.997217714786529541e-01,-3.276467895507812500e+01,-1.845546264648437500e+02,3.632268905639648438e+01,2.228639984130859375e+01,3.291715621948242188e+01
3.959999978542327881e-01,2.000000000000000000e+00,-2.297661781311035156e+01,-3.779370307922363281e+00,4.728197097778320312e+01,9.440345001220703125e+01,8.451068878173828125e+01,1.365265808105468750e+02,-4.516934752464294434e-01,-3.275868988037109375e+01,-1.845499114990234375e+02,3.632337188720703125e+01,2.230368041992187500e+01,3.291268157958984375e+01
4.000000059604644775e-01,2.000000000000000000e+00,-2.303080940246582031e+01,-3.741240024566650391e+00,4.723678970336914062e+01,9.441149139404296875e+01,8.451036071777343750e+01,1.365155639648437500e+02,-5.036532878875732422e-01,-3.275270080566406250e+01,-1.845451812744140625e+02,3.632405471801757812e+01,2.232095527648925781e+01,3.290821075439453125e+01
4.040000140666961670e-01,2.000000000000000000e+00,-2.308498764038085938e+01,-3.703118562698364258e+00,4.719161987304687500e+01,9.441953277587890625e+01,8.451002502441406250e+01,1.365045623779296875e+02,-5.556011795997619629e-01,-3.274671554565429688e+01,-1.845404663085937500e+02,3.632473754882812500e+01,2.233822822570800781e+01,3.290373992919921875e+01
4.079999923706054688e-01,2.000000000000000000e+00,-2.313915252685546875e+01,-3.665006160736083984e+00,4.714646148681640625e+01,9.442756652832031250e+01,8.450969696044921875e+01,1.364935455322265625e+02,-6.075370907783508301e-01,-3.274073028564453125e+01,-1.845357513427734375e+02,3.632542037963867188e+01,2.235549545288085938e+01,3.289926910400390625e+01
4.120000004768371582e-01,2.000000000000000000e+00,-2.319330596923828125e+01,-3.626902103424072266e+00,4.710131072998046875e+01,9.443560028076171875e+01,8.450936889648437500e+01,1.364825286865234375e+02,-6.594610214233398438e-01,-3.273474502563476562e+01,-1.845310516357421875e+02,3.632609939575195312e+01,2.237275695800781250e+01,3.289479827880859375e+01
4.160000085830688477e-01,2.000000000000000000e+00,-2.324744796752929688e+01,-3.588807344436645508e+00,4.705616760253906250e+01,9.444363403320312500e+01,8.450904083251953125e+01,1.364715423583984375e+02,-7.113730311393737793e-01,-3.272876358032226562e+01,-1.845263214111328125e+02,3.632677841186523438e+01,2.239001846313476562e+01,3.289033126831054688e+01
4.199999868869781494e-01,2.000000000000000000e+00,-2.330157470703125000e+01,-3.550720930099487305e+00,4.701103973388671875e+01,9.445166778564453125e+01,8.450871276855468750e+01,1.364605255126953125e+02,-7.632731199264526367e-01,-3.272278213500976562e+01,-1.845216064453125000e+02,3.632746124267578125e+01,2.240727424621582031e+01,3.288586425781250000e+01
4.239999949932098389e-01,2.000000000000000000e+00,-2.335569000244140625e+01,-3.512643098831176758e+00,4.696592330932617188e+01,9.445969390869140625e+01,8.450838470458984375e+01,1.364495391845703125e+02,-8.151612877845764160e-01,-3.271680068969726562e+01,-1.845168914794921875e+02,3.632814025878906250e+01,2.242452621459960938e+01,3.288140106201171875e+01
4.280000030994415283e-01,2.000000000000000000e+00,-2.340979385375976562e+01,-3.474574327468872070e+00,4.692081069946289062e+01,9.446772766113281250e+01,8.450805664062500000e+01,1.364385375976562500e+02,-8.670375347137451172e-01,-3.271082305908203125e+01,-1.845121917724609375e+02,3.632881927490234375e+01,2.244177436828613281e+01,3.287693786621093750e+01
4.320000112056732178e-01,2.000000000000000000e+00,-2.346388626098632812e+01,-3.436514139175415039e+00,4.687571334838867188e+01,9.447575378417968750e+01,8.450772857666015625e+01,1.364275360107421875e+02,-9.189018607139587402e-01,-3.270484542846679688e+01,-1.845074768066406250e+02,3.632949829101562500e+01,2.245901870727539062e+01,3.287247467041015625e+01
4.359999895095825195e-01,2.000000000000000000e+00,-2.351796340942382812e+01,-3.398463010787963867e+00,4.683062744140625000e+01,9.448377227783203125e+01,8.450740051269531250e+01,1.364165496826171875e+02,-9.707543253898620605e-01,-3.269887161254882812e+01,-1.845027618408203125e+02,3.633018112182617188e+01,2.247625732421875000e+01,3.286801147460937500e+01
4.399999976158142090e-01,2.000000000000000000e+00,-2.357202911376953125e+01,-3.360420227050781250e+00,4.678554534912109375e+01,9.449179840087890625e+01,8.450707244873046875e+01,1.364055786132812500e+02,-1.022594809532165527e+00,-3.269289398193359375e+01,-1.844980621337890625e+02,3.633086013793945312e+01,2.249349403381347656e+01,3.286355209350585938e+01
4.440000057220458984e-01,2.000000000000000000e+00,-2.362608337402343750e+01,-3.322386264801025391e+00,4.674048233032226562e+01,9.449981689453125000e+01,8.450673675537109375e+01,1.363945770263671875e+02,-1.074423313140869141e+00,-3.268692398071289062e+01,-1.844933624267578125e+02,3.633153915405273438e+01,2.251072502136230469e+01,3.285909271240234375e+01
4.480000138282775879e-01,2.000000000000000000e+00,-2.368012428283691406e+01,-3.284361124038696289e+00,4.669542312622070312e+01,9.450783538818359375e+01,8.450640869140625000e+01,1.363835906982421875e+02,-1.126240015029907227e+00,-3.268095397949218750e+01,-1.844886474609375000e+02,3.633221817016601562e+01,2.252795410156250000e+01,3.285462951660156250e+01
4.519999921321868896e-01,2.000000000000000000e+00,-2.373415374755859375e+01,-3.246344804763793945e+00,4.665037536621093750e+01,9.451585388183593750e+01,8.450608062744140625e+01,1.363726196289062500e+02,-1.178044795989990234e+00,-3.267498016357421875e+01,-1.844839477539062500e+02,3.633289718627929688e+01,2.254517745971679688e+01,3.285017395019531250e+01
4.560000002384185791e-01,2.000000000000000000e+00,-2.378817176818847656e+01,-3.208337068557739258e+00,4.660533905029296875e+01,9.452386474609375000e+01,8.450575256347656250e+01,1.363616485595703125e+02,-1.229837656021118164e+00,-3.266901397705078125e+01,-1.844792480468750000e+02,3.633357620239257812e+01,2.256239700317382812e+01,3.284571456909179688e+01
4.600000083446502686e-01,2.000000000000000000e+00,-2.384217453002929688e+01,-3.170338153839111328e+00,4.656031417846679688e+01,9.453187561035156250e+01,8.450542449951171875e+01,1.363506774902343750e+02,-1.281618714332580566e+00,-3.266304397583007812e+01,-1.844745330810546875e+02,3.633425903320312500e+01,2.257961273193359375e+01,3.284125900268554688e+01
4.639999866485595703e-01,2.000000000000000000e+00,-2.389616584777832031e+01,-3.132347822189331055e+00,4.651530075073242188e+01,9.453988647460937500e+01,8.450509643554687500e+01,1.363396911621093750e+02,-1.333387851715087891e+00,-3.265707778930664062e+01,-1.844698333740234375e+02,3.633493804931640625e+01,2.259682655334472656e+01,3.283680343627929688e+01
4.679999947547912598e-01,2.000000000000000000e+00,-2.395014572143554688e+01,-3.094366550445556641e+00,4.647029113769531250e+01,9.454789733886718750e+01,8.450476837158203125e+01,1.363287200927734375e+02,-1.385145068168640137e+00,-3.265111541748046875e+01,-1.844651336669921875e+02,3.633561706542968750e+01,2.261403274536132812e+01,3.283235168457031250e+01
4.720000028610229492e-01,2.000000000000000000e+00,-2.400411224365234375e+01,-3.056393623352050781e+00,4.642529678344726562e+01,9.455590057373046875e+01,8.450444030761718750e+01,1.363177490234375000e+02,-1.436890363693237305e+00,-3.264515304565429688e+01,-1.844604339599609375e+02,3.633629226684570312e+01,2.263123703002929688e+01,3.282789611816406250e+01
4.760000109672546387e-01,2.000000000000000000e+00,-2.405806541442871094e+01,-3.018429517745971680e+00,4.638031387329101562e+01,9.456391143798828125e+01,8.450411224365234375e+01,1.363067932128906250e+02,-1.488623857498168945e+00,-3.263919067382812500e+01,-1.844557342529296875e+02,3.633697128295898438e+01,2.264843750000000000e+01,3.282344436645507812e+01
4.799999892711639404e-01,2.000000000000000000e+00,-2.411200904846191406e+01,-2.980473995208740234e+00,4.633533859252929688e+01,9.457191467285156250e+01,8.450378417968750000e+01,1.362958221435546875e+02,-1.540345430374145508e+00,-3.263322830200195312e+01,-1.844510345458984375e+02,3.633765029907226562e+01,2.266563415527343750e+01,3.281899261474609375e+01
4.839999973773956299e-01,2.000000000000000000e+00,-2.416593933105468750e+01,-2.942527532577514648e+00,4.629037475585937500e+01,9.457991790771484375e+01,8.450345611572265625e+01,1.362848663330078125e+02,-1.592055082321166992e+00,-3.262726593017578125e+01,-1.844463500976562500e+02,3.633832931518554688e+01,2.268282699584960938e+01,3.281454467773437500e+01
4.880000054836273193e-01,2.000000000000000000e+00,-2.421985626220703125e+01,-2.904589653015136719e+00,4.624542236328125000e+01,9.458791351318359375e+01,8.450312805175781250e+01,1.362739105224609375e+02,-1.643752932548522949e+00,-3.262131118774414062e+01,-1.844416503906250000e+02,3.633900833129882812e+01,2.270001411437988281e+01,3.281009292602539062e+01
4.920000135898590088e-01,2.000000000000000000e+00,-2.427376174926757812e+01,-2.866660356521606445e+00,4.620047760009765625e+01,9.459591674804687500e+01,8.450279998779296875e+01,1.362629547119140625e+02,-1.695438981056213379e+00,-3.261535644531250000e+01,-1.844369506835937500e+02,3.633968353271484375e+01,2.271719932556152344e+01,3.280564880371093750e+01
4.959999918937683105e-01,2.000000000000000000e+00,-2.432765388488769531e+01,-2.828739643096923828e+00,4.615554428100585938e+01,9.460391235351562500e+01,8.450247192382812500e+01,1.362519989013671875e+02,-1.747113108634948730e+00,-3.260940170288085938e+01,-1.844322662353515625e+02,3.634036254882812500e+01,2.273438072204589844e+01,3.280119705200195312e+01
5.000000000000000000e-01,2.000000000000000000e+00,-2.438153266906738281e+01,-2.790827989578247070e+00,4.611062240600585938e+01,9.461190795898437500e+01,8.450214385986328125e+01,1.362410430908203125e+02,-1.798775434494018555e+00,-3.260344696044921875e+01,-1.844275665283203125e+02,3.634103775024414062e+01,2.275155639648437500e+01,3.279675674438476562e+01
5.040000081062316895e-01,2.000000000000000000e+00,-2.443540191650390625e+01,-2.752924919128417969e+00,4.606570816040039062e+01,9.461989593505859375e+01,8.450181579589843750e+01,1.362301025390625000e+02,-1.850425720214843750e+00,-3.259749603271484375e+01,-1.844228820800781250e+02,3.634171676635742188e+01,2.276873016357421875e+01,3.279230880737304688e+01
5.080000162124633789e-01,2.000000000000000000e+00,-2.448925781250000000e+01,-2.715030431747436523e+00,4.602080917358398438e+01,9.462788391113281250e+01,8.450148773193359375e+01,1.362191619873046875e+02,-1.902064323425292969e+00,-3.259154129028320312e+01,-1.844181976318359375e+02,3.634239578247070312e+01,2.278589630126953125e+01,3.278786468505859375e+01
5.120000243186950684e-01,2.000000000000000000e+00,-2.454310226440429688e+01,-2.677144527435302734e+00,4.597591781616210938e+01,9.463587951660156250e+01,8.450115966796875000e+01,1.362082214355468750e+02,-1.953691124916076660e+00,-3.258559417724609375e+01,-1.844134979248046875e+02,3.634307098388671875e+01,2.280306243896484375e+01,3.278342437744140625e+01
5.159999728202819824e-01,2.000000000000000000e+00,-2.459693145751953125e+01,-2.639267444610595703e+00,4.593103408813476562e+01,9.464385986328125000e+01,8.450083160400390625e+01,1.361972808837890625e+02,-2.005305767059326172e+00,-3.257964324951171875e+01,-1.844088134765625000e+02,3.634374618530273438e+01,2.282022476196289062e+01,3.277898025512695312e+01
5.199999809265136719e-01,2.000000000000000000e+00,-2.465075111389160156e+01,-2.601399183273315430e+00,4.588616561889648438e+01,9.465185546875000000e+01,8.450050354003906250e+01,1.361863403320312500e+02,-2.056908845901489258e+00,-3.257369995117187500e+01,-1.844041290283203125e+02,3.634442520141601562e+01,2.283737945556640625e+01,3.277453994750976562e+01
5.239999890327453613e-01,2.000000000000000000e+00,-2.470455741882324219e+01,-2.563539505004882812e+00,4.584130477905273438e+01,9.465982818603515625e+01,8.450017547607421875e+01,1.361753997802734375e+02,-2.108500242233276367e+00,-3.256775283813476562e+01,-1.843994445800781250e+02,3.634510040283203125e+01,2.285453414916992188e+01,3.277009963989257812e+01
5.279999971389770508e-01,2.000000000000000000e+00,-2.475835227966308594e+01,-2.525688409805297852e+00,4.579645156860351562e+01,9.466781616210937500e+01,8.449984741210937500e+01,1.361644744873046875e+02,-2.160079479217529297e+00,-3.256180572509765625e+01,-1.843947601318359375e+02,3.634577560424804688e+01,2.287168312072753906e+01,3.276565933227539062e+01
5.320000052452087402e-01,2.000000000000000000e+00,-2.481213188171386719e+01,-2.487846374511718750e+00,4.575161361694335938e+01,9.467579650878906250e+01,8.449951934814453125e+01,1.361535339355468750e+02,-2.211647033691406250e+00,-3.255586624145507812e+01,-1.843900756835937500e+02,3.634645080566406250e+01,2.288882827758789062e+01,3.276122283935546875e+01
5.360000133514404297e-01,2.000000000000000000e+00,-2.486590194702148438e+01,-2.450012683868408203e+00,4.570677947998046875e+01,9.468376922607421875e+01,8.449919128417968750e+01,1.361426086425781250e+02,-2.263202905654907227e+00,-3.254992294311523438e+01,-1.843853912353515625e+02,3.634712982177734375e+01,2.290596771240234375e+01,3.275678634643554688e+01
5.400000214576721191e-01,2.000000000000000000e+00,-2.491965866088867188e+01,-2.412187576293945312e+00,4.566196060180664062e+01,9.469174957275390625e+01,8.449886322021484375e+01,1.361316833496093750e+02,-2.314746618270874023e+00,-3.254398345947265625e+01,-1.843807067871093750e+02,3.634780502319335938e+01,2.292310523986816406e+01,3.275234985351562500e+01
5.440000295639038086e-01,2.000000000000000000e+00,-2.497340393066406250e+01,-2.374371290206909180e+00,4.561714935302734375e+01,9.469972991943359375e+01,8.449853515625000000e+01,1.361207733154296875e+02,-2.366278648376464844e+00,-3.253804397583007812e+01,-1.843760223388671875e+02,3.634848022460937500e+01,2.294023895263671875e+01,3.274791717529296875e+01
5.479999780654907227e-01,2.000000000000000000e+00,-2.502713584899902344e+01,-2.336563587188720703e+00,4.557234954833984375e+01,9.470769500732421875e+01,8.449821472167968750e+01,1.361098327636718750e+02,-2.417798995971679688e+00,-3.253210449218750000e+01,-1.843713531494140625e+02,3.634915542602539062e+01,2.295736885070800781e+01,3.274348449707031250e+01
5.519999861717224121e-01,2.000000000000000000e+00,-2.508085632324218750e+01,-2.298764705657958984e+00,4.552756118774414062e+01,9.471566772460937500e+01,8.449788665771484375e+01,1.360989227294921875e+02,-2.469307422637939453e+00,-3.252616882324218750e+01,-1.843666687011718750e+02,3.634983444213867188e+01,2.297449493408203125e+01,3.273905181884765625e+01
5.559999942779541016e-01,2.000000000000000000e+00,-2.513456344604492188e+01,-2.260974168777465820e+00,4.548278427124023438e+01,9.472364044189453125e+01,8.449755859375000000e+01,1.360880126953125000e+02,-2.520804405212402344e+00,-3.252023696899414062e+01,-1.843619995117187500e+02,3.635050964355468750e+01,2.299161529541015625e+01,3.273461914062500000e+01
5.600000023841857910e-01,2.000000000000000000e+00,-2.518825912475585938e+01,-2.223192691802978516e+00,4.543801498413085938e+01,9.473160552978515625e+01,8.449723052978515625e+01,1.360771026611328125e+02,-2.572288990020751953e+00,-3.251430130004882812e+01,-1.843573303222656250e+02,3.635118103027343750e+01,2.300873374938964844e+01,3.273018646240234375e+01
5.640000104904174805e-01,2.000000000000000000e+00,-2.524194335937500000e+01,-2.185419559478759766e+00,4.539325714111328125e+01,9.473957061767578125e+01,8.449691009521484375e+01,1.360661926269531250e+02,-2.623762130737304688e+00,-3.250836944580078125e+01,-1.843526611328125000e+02,3.635186004638671875e+01,2.302584648132324219e+01,3.272575378417968750e+01
5.680000185966491699e-01,2.000000000000000000e+00,-2.529561424255371094e+01,-2.147655248641967773e+00,4.534850692749023438e+01,9.474752807617187500e+01,8.449658203125000000e+01,1.360552825927734375e+02,-2.675223350524902344e+00,-3.250243759155273438e+01,-1.843479766845703125e+02,3.635253143310546875e+01,2.304295730590820312e+01,3.272132873535156250e+01
5.720000267028808594e-01,2.000000000000000000e+00,-2.534927177429199219e+01,-2.109899759292602539e+00,4.530377197265625000e+01,9.475549316406250000e+01,8.449625396728515625e+01,1.360443725585937500e+02,-2.726673126220703125e+00,-3.249650955200195312e+01,-1.843432922363281250e+02,3.635320663452148438e+01,2.306006240844726562e+01,3.271689987182617188e+01
5.759999752044677734e-01,2.000000000000000000e+00,-2.540291786193847656e+01,-2.072152376174926758e+00,4.525904464721679688e+01,9.476345062255859375e+01,8.449592590332031250e+01,1.360334777832031250e+02,-2.778110504150390625e+00,-3.249058151245117188e+01,-1.843386383056640625e+02,3.635388565063476562e+01,2.307716560363769531e+01,3.271247482299804688e+01
5.799999833106994629e-01,2.000000000000000000e+00,-2.545655250549316406e+01,-2.034414052963256836e+00,4.521432495117187500e+01,9.477140808105468750e+01,8.449560546875000000e+01,1.360225830078125000e+02,-2.829536437988281250e+00,-3.248465728759765625e+01,-1.843339691162109375e+02,3.635455703735351562e+01,2.309426307678222656e+01,3.270804977416992188e+01
5.839999914169311523e-01,2.000000000000000000e+00,-2.551017379760742188e+01,-1.996684432029724121e+00,4.516962051391601562e+01,9.477936553955078125e+01,8.449527740478515625e+01,1.360116729736328125e+02,-2.880950689315795898e+00,-3.247873306274414062e+01,-1.843292999267578125e+02,3.635522842407226562e+01,2.311135673522949219e+01,3.270362091064453125e+01
5.879999995231628418e-01,2.000000000000000000e+00,-2.556378364562988281e+01,-1.958963155746459961e+00,4.512492370605468750e+01,9.478732299804687500e+01,8.449494934082031250e+01,1.360007781982421875e+02,-2.932353019714355469e+00,-3.247280502319335938e+01,-1.843246307373046875e+02,3.635590362548828125e+01,2.312844657897949219e+01,3.269919967651367188e+01
5.920000076293945312e-01,2.000000000000000000e+00,-2.561738204956054688e+01,-1.921250700950622559e+00,4.508023452758789062e+01,9.479527282714843750e+01,8.449462890625000000e+01,1.359898834228515625e+02,-2.983743667602539062e+00,-3.246688461303710938e+01,-1.843199462890625000e+02,3.635657882690429688e+01,2.314553451538085938e+01,3.269477844238281250e+01
5.960000157356262207e-01,2.000000000000000000e+00,-2.567096519470214844e+01,-1.883546948432922363e+00,4.503556060791015625e+01,9.480322265625000000e+01,8.449430084228515625e+01,1.359790039062500000e+02,-3.035122394561767578e+00,-3.246096420288085938e+01,-1.843152923583984375e+02,3.635725021362304688e+01,2.316261672973632812e+01,3.269035339355468750e+01
6.000000238418579102e-01,2.000000000000000000e+00,-2.572453880310058594e+01,-1.845851778984069824e+00,4.499089431762695312e+01,9.481117248535156250e+01,8.449397277832031250e+01,1.359681091308593750e+02,-3.086489439010620117e+00,-3.245504379272460938e+01,-1.843106231689453125e+02,3.635792541503906250e+01,2.317969512939453125e+01,3.268593597412109375e+01
6.039999723434448242e-01,2.000000000000000000e+00,-2.577809906005859375e+01,-1.808165550231933594e+00,4.494623947143554688e+01,9.481912231445312500e+01,8.449364471435546875e+01,1.359572296142578125e+02,-3.137844800949096680e+00,-3.244912719726562500e+01,-1.843059692382812500e+02,3.635860061645507812e+01,2.319676971435546875e+01,3.268151473999023438e+01
6.079999804496765137e-01,2.000000000000000000e+00,-2.583164787292480469e+01,-1.770487666130065918e+00,4.490159225463867188e+01,9.482707214355468750e+01,8.449332427978515625e+01,1.359463348388671875e+02,-3.189188480377197266e+00,-3.244320678710937500e+01,-1.843013000488281250e+02,3.635927200317382812e+01,2.321383857727050781e+01,3.267709732055664062e+01
6.119999885559082031e-01,2.000000000000000000e+00,-2.588518524169921875e+01,-1.732818365097045898e+00,4.485695648193359375e+01,9.483501434326171875e+01,8.449299621582031250e+01,1.359354705810546875e+02,-3.240520238876342773e+00,-3.243729400634765625e+01,-1.842966308593750000e+02,3.635994720458984375e+01,2.323090553283691406e+01,3.267267990112304688e+01
6.159999966621398926e-01,2.000000000000000000e+00,-2.593870735168457031e+01,-1.695157408714294434e+00,4.481233215332031250e+01,9.484294891357421875e+01,8.449266815185546875e+01,1.359245910644531250e+02,-3.291840553283691406e+00,-3.243137741088867188e+01,-1.842919769287109375e+02,3.636061859130859375e+01,2.324797058105468750e+01,3.266826248168945312e+01
6.200000047683715820e-01,2.000000000000000000e+00,-2.599221801757812500e+01,-1.657505035400390625e+00,4.476771545410156250e+01,9.485089111328125000e+01,8.449234008789062500e+01,1.359136962890625000e+02,-3.343148708343505859e+00,-3.242546463012695312e+01,-1.842873229980468750e+02,3.636128997802734375e+01,2.326502799987792969e+01,3.266384506225585938e+01
6.240000128746032715e-01,2.000000000000000000e+00,-2.604571723937988281e+01,-1.619861245155334473e+00,4.472311401367187500e+01,9.485882568359375000e+01,8.449201965332031250e+01,1.359028472900390625e+02,-3.394445419311523438e+00,-3.241955566406250000e+01,-1.842826538085937500e+02,3.636196517944335938e+01,2.328208541870117188e+01,3.265943527221679688e+01
6.280000209808349609e-01,2.000000000000000000e+00,-2.609920501708984375e+01,-1.582226037979125977e+00,4.467852020263671875e+01,9.486676788330078125e+01,8.449169158935546875e+01,1.358919677734375000e+02,-3.445730447769165039e+00,-3.241364288330078125e+01,-1.842779998779296875e+02,3.636263656616210938e+01,2.329913711547851562e+01,3.265501785278320312e+01
6.320000290870666504e-01,2.000000000000000000e+00,-2.615267944335937500e+01,-1.544599413871765137e+00,4.463393402099609375e+01,9.487470245361328125e+01,8.449136352539062500e+01,1.358811035156250000e+02,-3.497003793716430664e+00,-3.240773391723632812e+01,-1.842733459472656250e+02,3.636330795288085938e+01,2.331618499755859375e+01,3.265060806274414062e+01
6.359999775886535645e-01,2.000000000000000000e+00,-2.620614433288574219e+01,-1.506981253623962402e+00,4.458935546875000000e+01,9.488262939453125000e+01,8.449104309082031250e+01,1.358702392578125000e+02,-3.548265695571899414e+00,-3.240182876586914062e+01,-1.842686767578125000e+02,3.636398315429687500e+01,2.333322906494140625e+01,3.264619827270507812e+01
6.399999856948852539e-01,2.000000000000000000e+00,-2.625959396362304688e+01,-1.469371676445007324e+00,4.454479217529296875e+01,9.489056396484375000e+01,8.449071502685546875e+01,1.358593750000000000e+02,-3.599515676498413086e+00,-3.239592361450195312e+01,-1.842640380859375000e+02,3.636465454101562500e+01,2.335026931762695312e+01,3.264178466796875000e+01
6.439999938011169434e-01,2.000000000000000000e+00,-2.631303405761718750e+01,-1.431770563125610352e+00,4.450024032592773438e+01,9.489849090576171875e+01,8.449038696289062500e+01,1.358485107421875000e+02,-3.650753974914550781e+00,-3.239001846313476562e+01,-1.842593841552734375e+02,3.636532592773437500e+01,2.336730575561523438e+01,3.263737487792968750e+01
6.480000019073486328e-01,2.000000000000000000e+00,-2.636646080017089844e+01,-1.394177913665771484e+00,4.445569610595703125e+01,9.490642547607421875e+01,8.449006652832031250e+01,1.358376617431640625e+02,-3.701981306076049805e+00,-3.238411331176757812e+01,-1.842547302246093750e+02,3.636599731445312500e+01,2.338433837890625000e+01,3.263296890258789062e+01
6.520000100135803223e-01,2.000000000000000000e+00,-2.641987609863281250e+01,-1.356593728065490723e+00,4.441115951538085938e+01,9.491434478759765625e+01,8.448973846435546875e+01,1.358267974853515625e+02,-3.753196716308593750e+00,-3.237821197509765625e+01,-1.842500762939453125e+02,3.636666870117187500e+01,2.340136528015136719e+01,3.262855911254882812e+01
6.560000181198120117e-01,2.000000000000000000e+00,-2.647327995300292969e+01,-1.319018125534057617e+00,4.436663818359375000e+01,9.492227172851562500e+01,8.448941040039062500e+01,1.358159484863281250e+02,-3.804400444030761719e+00,-3.237231063842773438e+01,-1.842454376220703125e+02,3.636734390258789062e+01,2.341839027404785156e+01,3.262415313720703125e+01
6.600000262260437012e-01,2.000000000000000000e+00,-2.652667045593261719e+01,-1.281450748443603516e+00,4.432212066650390625e+01,9.493019104003906250e+01,8.448908996582031250e+01,1.358050842285156250e+02,-3.855593204498291016e+00,-3.236640930175781250e+01,-1.842407684326171875e+02,3.636801147460937500e+01,2.343541145324707031e+01,3.261974716186523438e+01
6.639999747276306152e-01,2.000000000000000000e+00,-2.658004951477050781e+01,-1.243891954421997070e+00,4.427761840820312500e+01,9.493811798095703125e+01,8.448876190185546875e+01,1.357942504882812500e+02,-3.906774282455444336e+00,-3.236051177978515625e+01,-1.842361297607421875e+02,3.636868667602539062e+01,2.345242691040039062e+01,3.261534118652343750e+01
6.679999828338623047e-01,2.000000000000000000e+00,-2.663341522216796875e+01,-1.206341505050659180e+00,4.423312377929687500e+01,9.494602966308593750e+01,8.448844146728515625e+01,1.357834014892578125e+02,-3.957943916320800781e+00,-3.235461425781250000e+01,-1.842314910888671875e+02,3.636935424804687500e+01,2.346944046020507812e+01,3.261093902587890625e+01
6.719999909400939941e-01,2.000000000000000000e+00,-2.668676948547363281e+01,-1.168799638748168945e+00,4.418864059448242188e+01,9.495394897460937500e+01,8.448811340332031250e+01,1.357725524902343750e+02,-4.009101867675781250e+00,-3.234872055053710938e+01,-1.842268371582031250e+02,3.637002563476562500e+01,2.348645019531250000e+01,3.260653686523437500e+01
6.759999990463256836e-01,2.000000000000000000e+00,-2.674011230468750000e+01,-1.131265997886657715e+00,4.414416503906250000e+01,9.496186065673828125e+01,8.448779296875000000e+01,1.357617187500000000e+02,-4.060248851776123047e+00,-3.234282302856445312e+01,-1.842221984863281250e+02,3.637069702148437500e+01,2.350345420837402344e+01,3.260213470458984375e+01
6.800000071525573730e-01,2.000000000000000000e+00,-2.679344367980957031e+01,-1.093740820884704590e+00,4.409970092773437500e+01,9.496977233886718750e+01,8.448746490478515625e+01,1.357508697509765625e+02,-4.111384391784667969e+00,-3.233692932128906250e+01,-1.842175598144531250e+02,3.637136459350585938e+01,2.352045440673828125e+01,3.259773254394531250e+01
6.840000152587890625e-01,2.000000000000000000e+00,-2.684676170349121094e+01,-1.056223988533020020e+00,4.405524826049804688e+01,9.497769165039062500e+01,8.448714447021484375e+01,1.357400360107421875e+02,-4.162508010864257812e+00,-3.233103942871093750e+01,-1.842129058837890625e+02,3.637203979492187500e+01,2.353745460510253906e+01,3.259333419799804688e+01
6.880000233650207520e-01,2.000000000000000000e+00,-2.690007019042968750e+01,-1.018715500831604004e+00,4.401079940795898438e+01,9.498559570312500000e+01,8.448681640625000000e+01,1.357292022705078125e+02,-4.213620662689208984e+00,-3.232514953613281250e+01,-1.842082672119140625e+02,3.637270736694335938e+01,2.355444717407226562e+01,3.258893585205078125e+01
6.919999718666076660e-01,2.000000000000000000e+00,-2.695336532592773438e+01,-9.812153577804565430e-01,4.396636581420898438e+01,9.499349975585937500e+01,8.448649597167968750e+01,1.357183685302734375e+02,-4.264721870422363281e+00,-3.231925964355468750e+01,-1.842036132812500000e+02,3.637337875366210938e+01,2.357143783569335938e+01,3.258453750610351562e+01
6.959999799728393555e-01,2.000000000000000000e+00,-2.700664901733398438e+01,-9.437236189842224121e-01,4.392194366455078125e+01,9.500141143798828125e+01,8.448616790771484375e+01,1.357075500488281250e+02,-4.315811634063720703e+00,-3.231337356567382812e+01,-1.841989898681640625e+02,3.637404632568359375e+01,2.358842468261718750e+01,3.258014297485351562e+01
6.999999880790710449e-01,2.000000000000000000e+00,-2.705992126464843750e+01,-9.062402844429016113e-01,4.387752532958984375e+01,9.500931549072265625e+01,8.448584747314453125e+01,1.356967163085937500e+02,-4.366889953613281250e+00,-3.230748367309570312e+01,-1.841943511962890625e+02,3.637471771240234375e+01,2.360540580749511719e+01,3.257574844360351562e+01
7.039999961853027344e-01,2.000000000000000000e+00,-2.711317825317382812e+01,-8.687651753425598145e-01,4.383312225341796875e+01,9.501721191406250000e+01,8.448552703857421875e+01,1.356858978271484375e+02,-4.417957305908203125e+00,-3.230160140991210938e+01,-1.841897125244140625e+02,3.637538909912109375e+01,2.362238311767578125e+01,3.257135391235351562e+01
7.080000042915344238e-01,2.000000000000000000e+00,-2.716642761230468750e+01,-8.312984704971313477e-01,4.378872680664062500e+01,9.502511596679687500e+01,8.448519897460937500e+01,1.356750640869140625e+02,-4.469012737274169922e+00,-3.229571533203125000e+01,-1.841850738525390625e+02,3.637605667114257812e+01,2.363935852050781250e+01,3.256695556640625000e+01
7.120000123977661133e-01,2.000000000000000000e+00,-2.721966361999511719e+01,-7.938401103019714355e-01,4.374433898925781250e+01,9.503301239013671875e+01,8.448487854003906250e+01,1.356642456054687500e+02,-4.520057201385498047e+00,-3.228983688354492188e+01,-1.841804351806640625e+02,3.637672805786132812e+01,2.365633010864257812e+01,3.256256484985351562e+01
7.160000205039978027e-01,2.000000000000000000e+00,-2.727288818359375000e+01,-7.563901543617248535e-01,4.369996261596679688e+01,9.504090881347656250e+01,8.448455047607421875e+01,1.356534423828125000e+02,-4.571090221405029297e+00,-3.228395080566406250e+01,-1.841758117675781250e+02,3.637739562988281250e+01,2.367329788208007812e+01,3.255817413330078125e+01
7.200000286102294922e-01,2.000000000000000000e+00,-2.732609939575195312e+01,-7.189484834671020508e-01,4.365559768676757812e+01,9.504880523681640625e+01,8.448423004150390625e+01,1.356426239013671875e+02,-4.622111797332763672e+00,-3.227807235717773438e+01,-1.841711578369140625e+02,3.637806701660156250e+01,2.369026184082031250e+01,3.255378341674804688e+01
7.239999771118164062e-01,2.000000000000000000e+00,-2.737930107116699219e+01,-6.815151572227478027e-01,4.361124420166015625e+01,9.505670166015625000e+01,8.448390960693359375e+01,1.356318054199218750e+02,-4.673121452331542969e+00,-3.227219390869140625e+01,-1.841665344238281250e+02,3.637873077392578125e+01,2.370722198486328125e+01,3.254939270019531250e+01
7.279999852180480957e-01,2.000000000000000000e+00,-2.743248939514160156e+01,-6.440901756286621094e-01,4.356689834594726562e+01,9.506459808349609375e+01,8.448358154296875000e+01,1.356210021972656250e+02,-4.724120616912841797e+00,-3.226631546020507812e+01,-1.841618957519531250e+02,3.637940216064453125e+01,2.372417831420898438e+01,3.254500579833984375e+01
7.319999933242797852e-01,2.000000000000000000e+00,-2.748566436767578125e+01,-6.066735386848449707e-01,4.352256011962890625e+01,9.507248687744140625e+01,8.448326110839843750e+01,1.356101989746093750e+02,-4.775107860565185547e+00,-3.226044082641601562e+01,-1.841572723388671875e+02,3.638006973266601562e+01,2.374113082885742188e+01,3.254061508178710938e+01
7.360000014305114746e-01,2.000000000000000000e+00,-2.753882980346679688e+01,-5.692651867866516113e-01,4.347823715209960938e+01,9.508037567138671875e+01,8.448293304443359375e+01,1.355993957519531250e+02,-4.826084136962890625e+00,-3.225457000732421875e+01,-1.841526336669921875e+02,3.638074111938476562e+01,2.375807762145996094e+01,3.253622817993164062e+01
7.400000095367431641e-01,2.000000000000000000e+00,-2.759198188781738281e+01,-5.318651795387268066e-01,4.343391799926757812e+01,9.508825683593750000e+01,8.448261260986328125e+01,1.355885925292968750e+02,-4.877048969268798828e+00,-3.224869537353515625e+01,-1.841480255126953125e+02,3.638140869140625000e+01,2.377502250671386719e+01,3.253184127807617188e+01
7.440000176429748535e-01,2.000000000000000000e+00,-2.764512252807617188e+01,-4.944734573364257812e-01,4.338961410522460938e+01,9.509614562988281250e+01,8.448229217529296875e+01,1.355777893066406250e+02,-4.928001880645751953e+00,-3.224282073974609375e+01,-1.841433868408203125e+02,3.638207626342773438e+01,2.379196357727050781e+01,3.252745819091796875e+01
7.480000257492065430e-01,2.000000000000000000e+00,-2.769825363159179688e+01,-4.570900797843933105e-01,4.334531784057617188e+01,9.510402679443359375e+01,8.448196411132812500e+01,1.355669860839843750e+02,-4.978944301605224609e+00,-3.223694992065429688e+01,-1.841387634277343750e+02,3.638274383544921875e+01,2.380890083312988281e+01,3.252307128906250000e+01
7.519999742507934570e-01,2.000000000000000000e+00,-2.775136947631835938e+01,-4.197150468826293945e-01,4.330102920532226562e+01,9.511190795898437500e+01,8.448164367675781250e+01,1.355561981201171875e+02,-5.029875278472900391e+00,-3.223108291625976562e+01,-1.841341400146484375e+02,3.638341140747070312e+01,2.382583427429199219e+01,3.251869201660156250e+01
7.559999823570251465e-01,2.000000000000000000e+00,-2.780447578430175781e+01,-3.823482990264892578e-01,4.325675201416015625e+01,9.511978149414062500e+01,8.448132324218750000e+01,1.355454101562500000e+02,-5.080794811248779297e+00,-3.222521209716796875e+01,-1.841295166015625000e+02,3.638407897949218750e+01,2.384276390075683594e+01,3.251430892944335938e+01
7.599999904632568359e-01,2.000000000000000000e+00,-2.785756874084472656e+01,-3.449898958206176758e-01,4.321248626708984375e+01,9.512766265869140625e+01,8.448099517822265625e+01,1.355346069335937500e+02,-5.131702423095703125e+00,-3.221934509277343750e+01,-1.841248931884765625e+02,3.638474655151367188e+01,2.385968971252441406e+01,3.250992965698242188e+01
7.639999985694885254e-01,2.000000000000000000e+00,-2.791065216064453125e+01,-3.076397776603698730e-01,4.316822814941406250e+01,9.513554382324218750e+01,8.448067474365234375e+01,1.355238189697265625e+02,-5.182599544525146484e+00,-3.221348190307617188e+01,-1.841202697753906250e+02,3.638541412353515625e+01,2.387661170959472656e+01,3.250554656982421875e+01
7.680000066757202148e-01,2.000000000000000000e+00,-2.796372222900390625e+01,-2.702979743480682373e-01,4.312398147583007812e+01,9.514341735839843750e+01,8.448034667968750000e+01,1.355130462646484375e+02,-5.233484745025634766e+00,-3.220761871337890625e+01,-1.841156463623046875e+02,3.638608169555664062e+01,2.389352989196777344e+01,3.250116729736328125e+01
7.720000147819519043e-01,2.000000000000000000e+00,-2.801678085327148438e+01,-2.329644709825515747e-01,4.307974624633789062e+01,9.515128326416015625e+01,8.448002624511718750e+01,1.355022583007812500e+02,-5.284358978271484375e+00,-3.220175552368164062e+01,-1.841110229492187500e+02,3.638674926757812500e+01,2.391044616699218750e+01,3.249679183959960938e+01
7.760000228881835938e-01,2.000000000000000000e+00,-2.806982803344726562e+01,-1.956392526626586914e-01,4.303551483154296875e+01,9.515915679931640625e+01,8.447970581054687500e+01,1.354914703369140625e+02,-5.335221767425537109e+00,-3.219588851928710938e+01,-1.841064147949218750e+02,3.638741683959960938e+01,2.392735481262207031e+01,3.249241256713867188e+01
7.799999713897705078e-01,2.000000000000000000e+00,-2.812286186218261719e+01,-1.583223491907119751e-01,4.299129867553710938e+01,9.516703033447265625e+01,8.447937774658203125e+01,1.354806976318359375e+02,-5.386073589324951172e+00,-3.219002914428710938e+01,-1.841017913818359375e+02,3.638808441162109375e+01,2.394426345825195312e+01,3.248803710937500000e+01
7.839999794960021973e-01,2.000000000000000000e+00,-2.817588424682617188e+01,-1.210137158632278442e-01,4.294709014892578125e+01,9.517489624023437500e+01,8.447905731201171875e+01,1.354699249267578125e+02,-5.436913490295410156e+00,-3.218417358398437500e+01,-1.840971832275390625e+02,3.638874816894531250e+01,2.396116638183593750e+01,3.248366165161132812e+01
7.879999876022338867e-01,2.000000000000000000e+00,-2.822889518737792969e+01,-8.371339738368988037e-02,4.290289306640625000e+01,9.518275451660156250e+01,8.447873687744140625e+01,1.354591522216796875e+02,-5.487742424011230469e+00,-3.217831420898437500e+01,-1.840925598144531250e+02,3.638941955566406250e+01,2.397806549072265625e+01,3.247929000854492188e+01
7.919999957084655762e-01,2.000000000000000000e+00,-2.828189468383789062e+01,-4.642135649919509888e-02,4.285870361328125000e+01,9.519062805175781250e+01,8.447841644287109375e+01,1.354483795166015625e+02,-5.538560390472412109e+00,-3.217245864868164062e+01,-1.840879364013671875e+02,3.639008331298828125e+01,2.399496078491210938e+01,3.247491455078125000e+01
7.960000038146972656e-01,2.000000000000000000e+00,-2.833488273620605469e+01,-9.137602522969245911e-03,4.281452560424804688e+01,9.519848632812500000e+01,8.447808837890625000e+01,1.354376068115234375e+02,-5.589366912841796875e+00,-3.216660308837890625e+01,-1.840833282470703125e+02,3.639075088500976562e+01,2.401185226440429688e+01,3.247054290771484375e+01
8.000000119209289551e-01,2.000000000000000000e+00,-2.838785743713378906e+01,2.813787199556827545e-02,4.277035903930664062e+01,9.520635223388671875e+01,8.447776794433593750e+01,1.354268493652343750e+02,-5.640161514282226562e+00,-3.216074752807617188e+01,-1.840787048339843750e+02,3.639141464233398438e+01,2.402873992919921875e+01,3.246617126464843750e+01
8.040000200271606445e-01,2.000000000000000000e+00,-2.844082260131835938e+01,6.540506333112716675e-02,4.272619628906250000e+01,9.521420288085937500e+01,8.447744750976562500e+01,1.354160766601562500e+02,-5.690945148468017578e+00,-3.215489578247070312e+01,-1.840741119384765625e+02,3.639208221435546875e+01,2.404562568664550781e+01,3.246179962158203125e+01
8.080000281333923340e-01,2.000000000000000000e+00,-2.849377632141113281e+01,1.026639789342880249e-01,4.268204879760742188e+01,9.522206115722656250e+01,8.447712707519531250e+01,1.354053192138671875e+02,-5.741717815399169922e+00,-3.214904403686523438e+01,-1.840694885253906250e+02,3.639274597167968750e+01,2.406250572204589844e+01,3.245743179321289062e+01
8.119999766349792480e-01,2.000000000000000000e+00,-2.854671669006347656e+01,1.399146318435668945e-01,4.263790893554687500e+01,9.522991180419921875e+01,8.447680664062500000e+01,1.353945617675781250e+02,-5.792479038238525391e+00,-3.214319610595703125e+01,-1.840648803710937500e+02,3.639341354370117188e+01,2.407938385009765625e+01,3.245306396484375000e+01
8.159999847412109375e-01,2.000000000000000000e+00,-2.859964561462402344e+01,1.771569997072219849e-01,4.259378051757812500e+01,9.523777008056640625e+01,8.447648620605468750e+01,1.353838043212890625e+02,-5.843228816986083984e+00,-3.213734436035156250e+01,-1.840602722167968750e+02,3.639408111572265625e+01,2.409625625610351562e+01,3.244869613647460938e+01
8.199999928474426270e-01,2.000000000000000000e+00,-2.865256118774414062e+01,2.143910974264144897e-01,4.254965972900390625e+01,9.524562072753906250e+01,8.447616577148437500e+01,1.353730468750000000e+02,-5.893967628479003906e+00,-3.213150024414062500e+01,-1.840556640625000000e+02,3.639474487304687500e+01,2.411312675476074219e+01,3.244432830810546875e+01
8.240000009536743164e-01,2.000000000000000000e+00,-2.870546913146972656e+01,2.516169548034667969e-01,4.250555038452148438e+01,9.525347137451171875e+01,8.447583770751953125e+01,1.353622894287109375e+02,-5.944694995880126953e+00,-3.212565231323242188e+01,-1.840510559082031250e+02,3.639540863037109375e+01,2.412999153137207031e+01,3.243996429443359375e+01
8.280000090599060059e-01,2.000000000000000000e+00,-2.875836181640625000e+01,2.888345420360565186e-01,4.246144866943359375e+01,9.526132202148437500e+01,8.447551727294921875e+01,1.353515472412109375e+02,-5.995411396026611328e+00,-3.211980819702148438e+01,-1.840464630126953125e+02,3.639607238769531250e+01,2.414685249328613281e+01,3.243560028076171875e+01
8.320000171661376953e-01,2.000000000000000000e+00,-2.881124496459960938e+01,3.260438740253448486e-01,4.241736221313476562e+01,9.526916503906250000e+01,8.447519683837890625e+01,1.353408050537109375e+02,-6.046116352081298828e+00,-3.211396408081054688e+01,-1.840418395996093750e+02,3.639673995971679688e+01,2.416371154785156250e+01,3.243123626708984375e+01
8.360000252723693848e-01,2.000000000000000000e+00,-2.886411285400390625e+01,3.632449209690093994e-01,4.237327957153320312e+01,9.527700805664062500e+01,8.447486877441406250e+01,1.353300476074218750e+02,-6.096809864044189453e+00,-3.210812377929687500e+01,-1.840372314453125000e+02,3.639740371704101562e+01,2.418056678771972656e+01,3.242687225341796875e+01
8.399999737739562988e-01,2.000000000000000000e+00,-2.891697311401367188e+01,4.004377126693725586e-01,4.232920837402343750e+01,9.528485870361328125e+01,8.447454833984375000e+01,1.353193206787109375e+02,-6.147492408752441406e+00,-3.210228347778320312e+01,-1.840326538085937500e+02,3.639806747436523438e+01,2.419741821289062500e+01,3.242251205444335938e+01
8.439999818801879883e-01,2.000000000000000000e+00,-2.896981811523437500e+01,4.376222789287567139e-01,4.228514862060546875e+01,9.529269409179687500e+01,8.447422790527343750e+01,1.353085784912109375e+02,-6.198163032531738281e+00,-3.209644317626953125e+01,-1.840280456542968750e+02,3.639873504638671875e+01,2.421426582336425781e+01,3.241815185546875000e+01
8.479999899864196777e-01,2.000000000000000000e+00,-2.902265167236328125e+01,4.747985899448394775e-01,4.224109649658203125e+01,9.530053710937500000e+01,8.447390747070312500e+01,1.352978363037109375e+02,-6.248823165893554688e+00,-3.209060287475585938e+01,-1.840234375000000000e+02,3.639939498901367188e+01,2.423110961914062500e+01,3.241379165649414062e+01
8.519999980926513672e-01,2.000000000000000000e+00,-2.907547760009765625e+01,5.119666457176208496e-01,4.219705581665039062e+01,9.530837249755859375e+01,8.447358703613281250e+01,1.352871093750000000e+02,-6.299471855163574219e+00,-3.208476638793945312e+01,-1.840188293457031250e+02,3.640006256103515625e+01,2.424794960021972656e+01,3.240943145751953125e+01
8.560000061988830566e-01,2.000000000000000000e+00,-2.912828826904296875e+01,5.491265058517456055e-01,4.215302658081054688e+01,9.531620788574218750e+01,8.447326660156250000e+01,1.352763671875000000e+02,-6.350109100341796875e+00,-3.207893371582031250e+01,-1.840142364501953125e+02,3.640072631835937500e+01,2.426478385925292969e+01,3.240507507324218750e+01
8.600000143051147461e-01,2.000000000000000000e+00,-2.918108940124511719e+01,5.862780809402465820e-01,4.210900115966796875e+01,9.532404327392578125e+01,8.447294616699218750e+01,1.352656250000000000e+02,-6.400735855102539062e+00,-3.207309722900390625e+01,-1.840096435546875000e+02,3.640139007568359375e+01,2.428161621093750000e+01,3.240071868896484375e+01
8.640000224113464355e-01,2.000000000000000000e+00,-2.923387527465820312e+01,6.234214901924133301e-01,4.206499099731445312e+01,9.533187103271484375e+01,8.447262573242187500e+01,1.352548980712890625e+02,-6.451350688934326172e+00,-3.206726455688476562e+01,-1.840050354003906250e+02,3.640205383300781250e+01,2.429844474792480469e+01,3.239636230468750000e+01
8.679999709129333496e-01,2.000000000000000000e+00,-2.928665351867675781e+01,6.605565547943115234e-01,4.202098846435546875e+01,9.533970642089843750e+01,8.447230529785156250e+01,1.352441864013671875e+02,-6.501954555511474609e+00,-3.206143188476562500e+01,-1.840004425048828125e+02,3.640271759033203125e+01,2.431526947021484375e+01,3.239200973510742188e+01
8.719999790191650391e-01,2.000000000000000000e+00,-2.933941650390625000e+01,6.976834535598754883e-01,4.197699356079101562e+01,9.534753417968750000e+01,8.447198486328125000e+01,1.352334594726562500e+02,-6.552546977996826172e+00,-3.205560302734375000e+01,-1.839958648681640625e+02,3.640338134765625000e+01,2.433209037780761719e+01,3.238765335083007812e+01
8.759999871253967285e-01,2.000000000000000000e+00,-2.939216804504394531e+01,7.348021268844604492e-01,4.193301010131835938e+01,9.535536193847656250e+01,8.447166442871093750e+01,1.352227325439453125e+02,-6.603128433227539062e+00,-3.204977035522460938e+01,-1.839912567138671875e+02,3.640404510498046875e+01,2.434890747070312500e+01,3.238330078125000000e+01
8.799999952316284180e-01,2.000000000000000000e+00,-2.944491195678710938e+01,7.719125747680664062e-01,4.188903808593750000e+01,9.536318206787109375e+01,8.447134399414062500e+01,1.352120056152343750e+02,-6.653698921203613281e+00,-3.204394531250000000e+01,-1.839866638183593750e+02,3.640470886230468750e+01,2.436572074890136719e+01,3.237894821166992188e+01
8.840000033378601074e-01,2.000000000000000000e+00,-2.949764060974121094e+01,8.090147972106933594e-01,4.184507751464843750e+01,9.537100982666015625e+01,8.447102355957031250e+01,1.352012939453125000e+02,-6.704257488250732422e+00,-3.203812026977539062e+01,-1.839820709228515625e+02,3.640536880493164062e+01,2.438253021240234375e+01,3.237459945678710938e+01
8.880000114440917969e-01,2.000000000000000000e+00,-2.955035972595214844e+01,8.461087942123413086e-01,4.180112457275390625e+01,9.537882995605468750e+01,8.447069549560546875e+01,1.351905975341796875e+02,-6.754805088043212891e+00,-3.203229141235351562e+01,-1.839774932861328125e+02,3.640603256225585938e+01,2.439933586120605469e+01,3.237024688720703125e+01
8.920000195503234863e-01,2.000000000000000000e+00,-2.960306549072265625e+01,8.831945657730102539e-01,4.175717926025390625e+01,9.538665008544921875e+01,8.447037506103515625e+01,1.351798858642578125e+02,-6.805341720581054688e+00,-3.202646636962890625e+01,-1.839729003906250000e+02,3.640669631958007812e+01,2.441613960266113281e+01,3.236589813232421875e+01
8.960000276565551758e-01,2.000000000000000000e+00,-2.965575981140136719e+01,9.202721714973449707e-01,4.171324157714843750e+01,9.539447021484375000e+01,8.447005462646484375e+01,1.351691741943359375e+02,-6.855867385864257812e+00,-3.202064514160156250e+01,-1.839683074951171875e+02,3.640735626220703125e+01,2.443293762207031250e+01,3.236154937744140625e+01
8.999999761581420898e-01,2.000000000000000000e+00,-2.970844459533691406e+01,9.573415517807006836e-01,4.166931915283203125e+01,9.540229034423828125e+01,8.446973419189453125e+01,1.351584625244140625e+02,-6.906381607055664062e+00,-3.201482391357421875e+01,-1.839637145996093750e+02,3.640802001953125000e+01,2.444973373413085938e+01,3.235720062255859375e+01
9.039999842643737793e-01,2.000000000000000000e+00,-2.976111602783203125e+01,9.944026470184326172e-01,4.162540435791015625e+01,9.541010284423828125e+01,8.446941375732421875e+01,1.351477508544921875e+02,-6.956884384155273438e+00,-3.200900650024414062e+01,-1.839591369628906250e+02,3.640868377685546875e+01,2.446652412414550781e+01,3.235285949707031250e+01
9.079999923706054688e-01,2.000000000000000000e+00,-2.981377220153808594e+01,1.031455636024475098e+00,4.158149719238281250e+01,9.541791534423828125e+01,8.446909332275390625e+01,1.351370544433593750e+02,-7.007376194000244141e+00,-3.200318527221679688e+01,-1.839545440673828125e+02,3.640934371948242188e+01,2.448331069946289062e+01,3.234851074218750000e+01
9.120000004768371582e-01,2.000000000000000000e+00,-2.986642265319824219e+01,1.068500399589538574e+00,4.153760528564453125e+01,9.542572784423828125e+01,8.446877288818359375e+01,1.351263427734375000e+02,-7.057857036590576172e+00,-3.199736785888671875e+01,-1.839499664306640625e+02,3.641000747680664062e+01,2.450009536743164062e+01,3.234416580200195312e+01
9.160000085830688477e-01,2.000000000000000000e+00,-2.991905593872070312e+01,1.105536937713623047e+00,4.149372100830078125e+01,9.543354034423828125e+01,8.446845245361328125e+01,1.351156463623046875e+02,-7.108326435089111328e+00,-3.199155044555664062e+01,-1.839453887939453125e+02,3.641067123413085938e+01,2.451687622070312500e+01,3.233982086181640625e+01
9.200000166893005371e-01,2.000000000000000000e+00,-2.997168350219726562e+01,1.142565250396728516e+00,4.144984436035156250e+01,9.544134521484375000e+01,8.446813964843750000e+01,1.351049499511718750e+02,-7.158784866333007812e+00,-3.198573493957519531e+01,-1.839407958984375000e+02,3.641132736206054688e+01,2.453365135192871094e+01,3.233548355102539062e+01
9.240000247955322266e-01,2.000000000000000000e+00,-3.002429580688476562e+01,1.179585456848144531e+00,4.140597534179687500e+01,9.544915771484375000e+01,8.446781921386718750e+01,1.350942687988281250e+02,-7.209232330322265625e+00,-3.197992324829101562e+01,-1.839362182617187500e+02,3.641199111938476562e+01,2.455042457580566406e+01,3.233114242553710938e+01
9.279999732971191406e-01,2.000000000000000000e+00,-3.007689857482910156e+01,1.216597318649291992e+00,4.136212158203125000e+01,9.545695495605468750e+01,8.446749877929687500e+01,1.350835723876953125e+02,-7.259668350219726562e+00,-3.197410964965820312e+01,-1.839316406250000000e+02,3.641265487670898438e+01,2.456719207763671875e+01,3.232680130004882812e+01
9.319999814033508301e-01,2.000000000000000000e+00,-3.012948799133300781e+01,1.253601193428039551e+00,4.131827545166015625e+01,9.546475982666015625e+01,8.446717834472656250e+01,1.350728912353515625e+02,-7.310092926025390625e+00,-3.196829795837402344e+01,-1.839270477294921875e+02,3.641331481933593750e+01,2.458395767211914062e+01,3.232246017456054688e+01
9.359999895095825195e-01,2.000000000000000000e+00,-3.018206596374511719e+01,1.290596842765808105e+00,4.127443695068359375e+01,9.547256469726562500e+01,8.446685028076171875e+01,1.350622100830078125e+02,-7.360506534576416016e+00,-3.196248817443847656e+01,-1.839224700927734375e+02,3.641397476196289062e+01,2.460071945190429688e+01,3.231812286376953125e+01
9.399999976158142090e-01,2.000000000000000000e+00,-3.023463249206542969e+01,1.327584147453308105e+00,4.123060989379882812e+01,9.548036193847656250e+01,8.446652984619140625e+01,1.350515136718750000e+02,-7.410909175872802734e+00,-3.195668029785156250e+01,-1.839178924560546875e+02,3.641463851928710938e+01,2.461747741699218750e+01,3.231378555297851562e+01
9.440000057220458984e-01,2.000000000000000000e+00,-3.028718757629394531e+01,1.364563465118408203e+00,4.118679428100585938e+01,9.548816680908203125e+01,8.446621704101562500e+01,1.350408477783203125e+02,-7.461300373077392578e+00,-3.195087432861328125e+01,-1.839133300781250000e+02,3.641529846191406250e+01,2.463423156738281250e+01,3.230944824218750000e+01
9.480000138282775879e-01,2.000000000000000000e+00,-3.033973121643066406e+01,1.401534557342529297e+00,4.114298248291015625e+01,9.549595642089843750e+01,8.446589660644531250e+01,1.350301666259765625e+02,-7.511680603027343750e+00,-3.194506835937500000e+01,-1.839087524414062500e+02,3.641595840454101562e+01,2.465098190307617188e+01,3.230511093139648438e+01
9.520000219345092773e-01,2.000000000000000000e+00,-3.039226150512695312e+01,1.438497424125671387e+00,4.109918594360351562e+01,9.550374603271484375e+01,8.446557617187500000e+01,1.350194854736328125e+02,-7.562049865722656250e+00,-3.193926239013671875e+01,-1.839041748046875000e+02,3.641661834716796875e+01,2.466772842407226562e+01,3.230077743530273438e+01
9.559999704360961914e-01,2.000000000000000000e+00,-3.044478225708007812e+01,1.475452184677124023e+00,4.105539703369140625e+01,9.551154327392578125e+01,8.446525573730468750e+01,1.350088195800781250e+02,-7.612407207489013672e+00,-3.193346023559570312e+01,-1.838996124267578125e+02,3.641727828979492188e+01,2.468447113037109375e+01,3.229644393920898438e+01
9.599999785423278809e-01,2.000000000000000000e+00,-3.049728965759277344e+01,1.512398719787597656e+00,4.101161956787109375e+01,9.551933288574218750e+01,8.446493530273437500e+01,1.349981384277343750e+02,-7.662754535675048828e+00,-3.192765808105468750e+01,-1.838950347900390625e+02,3.641794204711914062e+01,2.470121002197265625e+01,3.229211044311523438e+01
9.639999866485595703e-01,2.000000000000000000e+00,-3.054978752136230469e+01,1.549337148666381836e+00,4.096784591674804688e+01,9.552712249755859375e+01,8.446462249755859375e+01,1.349874725341796875e+02,-7.713090419769287109e+00,-3.192185592651367188e+01,-1.838904571533203125e+02,3.641859817504882812e+01,2.471794509887695312e+01,3.228778076171875000e+01
9.679999947547912598e-01,2.000000000000000000e+00,-3.060227394104003906e+01,1.586267352104187012e+00,4.092409133911132812e+01,9.553491210937500000e+01,8.446430206298828125e+01,1.349768066406250000e+02,-7.763414859771728516e+00,-3.191605758666992188e+01,-1.838858947753906250e+02,3.641925811767578125e+01,2.473467826843261719e+01,3.228345108032226562e+01
9.720000028610229492e-01,2.000000000000000000e+00,-3.065474700927734375e+01,1.623189449310302734e+00,4.088034057617187500e+01,9.554269409179687500e+01,8.446398162841796875e+01,1.349661407470703125e+02,-7.813727855682373047e+00,-3.191025733947753906e+01,-1.838813171386718750e+02,3.641991806030273438e+01,2.475140571594238281e+01,3.227911758422851562e+01
9.760000109672546387e-01,2.000000000000000000e+00,-3.070720863342285156e+01,1.660103440284729004e+00,4.083659744262695312e+01,9.555048370361328125e+01,8.446366119384765625e+01,1.349554901123046875e+02,-7.864030838012695312e+00,-3.190445899963378906e+01,-1.838767547607421875e+02,3.642058181762695312e+01,2.476813125610351562e+01,3.227478790283203125e+01
9.800000190734863281e-01,2.000000000000000000e+00,-3.075965881347656250e+01,1.697009205818176270e+00,4.079286956787109375e+01,9.555825805664062500e+01,8.446334075927734375e+01,1.349448089599609375e+02,-7.914321899414062500e+00,-3.189866447448730469e+01,-1.838721771240234375e+02,3.642123794555664062e+01,2.478485107421875000e+01,3.227046203613281250e+01
9.840000271797180176e-01,2.000000000000000000e+00,-3.081209754943847656e+01,1.733906865119934082e+00,4.074914932250976562e+01,9.556604766845703125e+01,8.446302032470703125e+01,1.349341583251953125e+02,-7.964601516723632812e+00,-3.189287185668945312e+01,-1.838676147460937500e+02,3.642189788818359375e+01,2.480156898498535156e+01,3.226613616943359375e+01
9.879999756813049316e-01,2.000000000000000000e+00,-3.086452484130859375e+01,1.770796298980712891e+00,4.070543670654296875e+01,9.557382202148437500e+01,8.446269989013671875e+01,1.349235076904296875e+02,-8.014870643615722656e+00,-3.188707733154296875e+01,-1.838630523681640625e+02,3.642255783081054688e+01,2.481828117370605469e+01,3.226180648803710938e+01
9.919999837875366211e-01,2.000000000000000000e+00,-3.091694068908691406e+01,1.807677626609802246e+00,4.066173553466796875e+01,9.558159637451171875e+01,8.446238708496093750e+01,1.349128570556640625e+02,-8.065129280090332031e+00,-3.188128471374511719e+01,-1.838584899902343750e+02,3.642321777343750000e+01,2.483499145507812500e+01,3.225748443603515625e+01
9.959999918937683105e-01,2.000000000000000000e+00,-3.096934509277343750e+01,1.844550848007202148e+00,4.061804199218750000e+01,9.558937835693359375e+01,8.446206665039062500e+01,1.349022064208984375e+02,-8.115375518798828125e+00,-3.187549591064453125e+01,-1.838539276123046875e+02,3.642387771606445312e+01,2.485169601440429688e+01,3.225315856933593750e+01
1.000000000000000000e+00,2.000000000000000000e+00,-3.102173614501953125e+01,1.881415963172912598e+00,4.057435989379882812e+01,9.559715270996093750e+01,8.446174621582031250e+01,1.348915557861328125e+02,-8.165611267089843750e+00,-3.186970329284667969e+01,-1.838493652343750000e+02,3.642453384399414062e+01,2.486840057373046875e+01,3.224883651733398438e+01
1.003999948501586914e+00,2.000000000000000000e+00,-3.107411766052246094e+01,1.918272733688354492e+00,4.053068923950195312e+01,9.560492706298828125e+01,8.446143341064453125e+01,1.348809051513671875e+02,-8.215836524963378906e+00,-3.186391830444335938e+01,-1.838448028564453125e+02,3.642519378662109375e+01,2.488509750366210938e+01,3.224451446533203125e+01
1.008000016212463379e+00,2.000000000000000000e+00,-3.112648773193359375e+01,1.955121636390686035e+00,4.048702621459960938e+01,9.561269378662109375e+01,8.446111297607421875e+01,1.348702697753906250e+02,-8.266049385070800781e+00,-3.185812950134277344e+01,-1.838402404785156250e+02,3.642584991455078125e+01,2.490179252624511719e+01,3.224019241333007812e+01
1.011999964714050293e+00,2.000000000000000000e+00,-3.117884445190429688e+01,1.991962194442749023e+00,4.044337081909179688e+01,9.562046051025390625e+01,8.446078491210937500e+01,1.348596343994140625e+02,-8.316252708435058594e+00,-3.185234451293945312e+01,-1.838356781005859375e+02,3.642650985717773438e+01,2.491848373413085938e+01,3.223587417602539062e+01
1.016000032424926758e+00,2.000000000000000000e+00,-3.123118972778320312e+01,2.028794765472412109e+00,4.039972686767578125e+01,9.562822723388671875e+01,8.446047210693359375e+01,1.348489837646484375e+02,-8.366443634033203125e+00,-3.184655952453613281e+01,-1.838311309814453125e+02,3.642716979980468750e+01,2.493517112731933594e+01,3.223155212402343750e+01
1.019999980926513672e+00,2.000000000000000000e+00,-3.128352737426757812e+01,2.065619230270385742e+00,4.035609436035156250e+01,9.563599395751953125e+01,8.446015167236328125e+01,1.348383636474609375e+02,-8.416624069213867188e+00,-3.184077835083007812e+01,-1.838265686035156250e+02,3.642782592773437500e+01,2.495185661315917969e+01,3.222723388671875000e+01
1.024000048637390137e+00,2.000000000000000000e+00,-3.133584976196289062e+01,2.102435588836669922e+00,4.031246948242187500e+01,9.564375305175781250e+01,8.445983886718750000e+01,1.348277130126953125e+02,-8.466793060302734375e+00,-3.183499717712402344e+01,-1.838220214843750000e+02,3.642848205566406250e+01,2.496853637695312500e+01,3.222291564941406250e+01
1.026999950408935547e+00,2.000000000000000000e+00,-3.138816261291503906e+01,2.139243602752685547e+00,4.026885223388671875e+01,9.565151977539062500e+01,8.445951843261718750e+01,1.348170928955078125e+02,-8.516951560974121094e+00,-3.182921409606933594e+01,-1.838174591064453125e+02,3.642914199829101562e+01,2.498521232604980469e+01,3.221860122680664062e+01
1.031999945640563965e+00,2.000000000000000000e+00,-3.144046020507812500e+01,2.176043748855590820e+00,4.022525024414062500e+01,9.565927886962890625e+01,8.445919799804687500e+01,1.348064575195312500e+02,-8.567098617553710938e+00,-3.182343673706054688e+01,-1.838129119873046875e+02,3.642979812622070312e+01,2.500188636779785156e+01,3.221428298950195312e+01
1.036000013351440430e+00,2.000000000000000000e+00,-3.149275016784667969e+01,2.212835788726806641e+00,4.018165206909179688e+01,9.566703796386718750e+01,8.445888519287109375e+01,1.347958374023437500e+02,-8.617235183715820312e+00,-3.181765747070312500e+01,-1.838083496093750000e+02,3.643045806884765625e+01,2.501855468750000000e+01,3.220996856689453125e+01
1.039999961853027344e+00,2.000000000000000000e+00,-3.154502677917480469e+01,2.249619483947753906e+00,4.013806915283203125e+01,9.567478942871093750e+01,8.445856475830078125e+01,1.347852020263671875e+02,-8.667360305786132812e+00,-3.181188392639160156e+01,-1.838037872314453125e+02,3.643111419677734375e+01,2.503522109985351562e+01,3.220565795898437500e+01
1.044000029563903809e+00,2.000000000000000000e+00,-3.159729194641113281e+01,2.286395072937011719e+00,4.009449005126953125e+01,9.568254852294921875e+01,8.445824432373046875e+01,1.347745971679687500e+02,-8.717473983764648438e+00,-3.180610847473144531e+01,-1.837992401123046875e+02,3.643177032470703125e+01,2.505188179016113281e+01,3.220134353637695312e+01
1.047999978065490723e+00,2.000000000000000000e+00,-3.164954566955566406e+01,2.323163032531738281e+00,4.005092239379882812e+01,9.569029998779296875e+01,8.445792388916015625e+01,1.347639617919921875e+02,-8.767577171325683594e+00,-3.180033302307128906e+01,-1.837946929931640625e+02,3.643242645263671875e+01,2.506854057312011719e+01,3.219702911376953125e+01
1.052000045776367188e+00,2.000000000000000000e+00,-3.170178985595703125e+01,2.359922409057617188e+00,4.000736618041992188e+01,9.569805145263671875e+01,8.445761108398437500e+01,1.347533569335937500e+02,-8.817668914794921875e+00,-3.179455757141113281e+01,-1.837901458740234375e+02,3.643308639526367188e+01,2.508519554138183594e+01,3.219272232055664062e+01
1.054999947547912598e+00,2.000000000000000000e+00,-3.175402069091796875e+01,2.396673917770385742e+00,3.996382141113281250e+01,9.570580291748046875e+01,8.445729064941406250e+01,1.347427368164062500e+02,-8.867750167846679688e+00,-3.178878593444824219e+01,-1.837855987548828125e+02,3.643374252319335938e+01,2.510184478759765625e+01,3.218841171264648438e+01
1.059999942779541016e+00,2.000000000000000000e+00,-3.180624198913574219e+01,2.433417081832885742e+00,3.992028045654296875e+01,9.571355438232421875e+01,8.445697784423828125e+01,1.347321166992187500e+02,-8.917819976806640625e+00,-3.178301811218261719e+01,-1.837810516357421875e+02,3.643439865112304688e+01,2.511849212646484375e+01,3.218410110473632812e+01
1.064000010490417480e+00,2.000000000000000000e+00,-3.185844802856445312e+01,2.470152378082275391e+00,3.987675094604492188e+01,9.572129821777343750e+01,8.445665740966796875e+01,1.347215118408203125e+02,-8.967879295349121094e+00,-3.177725028991699219e+01,-1.837765045166015625e+02,3.643505477905273438e+01,2.513513565063476562e+01,3.217979431152343750e+01
1.067999958992004395e+00,2.000000000000000000e+00,-3.191064453125000000e+01,2.506879568099975586e+00,3.983323287963867188e+01,9.572904205322265625e+01,8.445634460449218750e+01,1.347109069824218750e+02,-9.017927169799804688e+00,-3.177148246765136719e+01,-1.837719726562500000e+02,3.643571472167968750e+01,2.515177536010742188e+01,3.217548751831054688e+01
1.072000026702880859e+00,2.000000000000000000e+00,-3.196282958984375000e+01,2.543598651885986328e+00,3.978972244262695312e+01,9.573678588867187500e+01,8.445602416992187500e+01,1.347002868652343750e+02,-9.067963600158691406e+00,-3.176571464538574219e+01,-1.837674102783203125e+02,3.643636703491210938e+01,2.516841316223144531e+01,3.217118072509765625e+01
1.075999975204467773e+00,2.000000000000000000e+00,-3.201500320434570312e+01,2.580309629440307617e+00,3.974622344970703125e+01,9.574452972412109375e+01,8.445570373535156250e+01,1.346896972656250000e+02,-9.117989540100097656e+00,-3.175995063781738281e+01,-1.837628631591796875e+02,3.643702316284179688e+01,2.518504524230957031e+01,3.216687393188476562e+01
1.080000042915344238e+00,2.000000000000000000e+00,-3.206716537475585938e+01,2.617012739181518555e+00,3.970273208618164062e+01,9.575226593017578125e+01,8.445538330078125000e+01,1.346790924072265625e+02,-9.168004035949707031e+00,-3.175418472290039062e+01,-1.837583312988281250e+02,3.643767929077148438e+01,2.520167350769042969e+01,3.216257095336914062e+01
1.083999991416931152e+00,2.000000000000000000e+00,-3.211931610107421875e+01,2.653707504272460938e+00,3.965925216674804688e+01,9.576000213623046875e+01,8.445507049560546875e+01,1.346684875488281250e+02,-9.218008041381835938e+00,-3.174842453002929688e+01,-1.837537841796875000e+02,3.643833541870117188e+01,2.521829795837402344e+01,3.215826797485351562e+01
1.088000059127807617e+00,2.000000000000000000e+00,-3.217145538330078125e+01,2.690394163131713867e+00,3.961577987670898438e+01,9.576774597167968750e+01,8.445475006103515625e+01,1.346578979492187500e+02,-9.268000602722167969e+00,-3.174266242980957031e+01,-1.837492523193359375e+02,3.643899154663085938e+01,2.523492050170898438e+01,3.215396499633789062e+01
1.090999960899353027e+00,2.000000000000000000e+00,-3.222358322143554688e+01,2.727072715759277344e+00,3.957231903076171875e+01,9.577547454833984375e+01,8.445443725585937500e+01,1.346473083496093750e+02,-9.317982673645019531e+00,-3.173690032958984375e+01,-1.837447204589843750e+02,3.643964767456054688e+01,2.525153732299804688e+01,3.214966583251953125e+01
1.095999956130981445e+00,2.000000000000000000e+00,-3.227569961547851562e+01,2.763743400573730469e+00,3.952886581420898438e+01,9.578320312500000000e+01,8.445412445068359375e+01,1.346367187500000000e+02,-9.367953300476074219e+00,-3.173114395141601562e+01,-1.837401733398437500e+02,3.644030380249023438e+01,2.526815223693847656e+01,3.214536285400390625e+01
1.100000023841857910e+00,2.000000000000000000e+00,-3.232780456542968750e+01,2.800405979156494141e+00,3.948542785644531250e+01,9.579093933105468750e+01,8.445380401611328125e+01,1.346261138916015625e+02,-9.417913436889648438e+00,-3.172538566589355469e+01,-1.837356262207031250e+02,3.644095993041992188e+01,2.528476333618164062e+01,3.214106369018554688e+01
1.103999972343444824e+00,2.000000000000000000e+00,-3.237989807128906250e+01,2.837060451507568359e+00,3.944199371337890625e+01,9.579866790771484375e+01,8.445348358154296875e+01,1.346155242919921875e+02,-9.467862129211425781e+00,-3.171962738037109375e+01,-1.837310943603515625e+02,3.644161224365234375e+01,2.530137062072753906e+01,3.213676834106445312e+01
1.108000040054321289e+00,2.000000000000000000e+00,-3.243198013305664062e+01,2.873706817626953125e+00,3.939857101440429688e+01,9.580639648437500000e+01,8.445316314697265625e+01,1.346049499511718750e+02,-9.517799377441406250e+00,-3.171387290954589844e+01,-1.837265625000000000e+02,3.644226455688476562e+01,2.531797218322753906e+01,3.213246917724609375e+01
1.111999988555908203e+00,2.000000000000000000e+00,-3.248404693603515625e+01,2.910345315933227539e+00,3.935515594482421875e+01,9.581411743164062500e+01,8.445285034179687500e+01,1.345943756103515625e+02,-9.567726135253906250e+00,-3.170811843872070312e+01,-1.837220306396484375e+02,3.644292068481445312e+01,2.533457183837890625e+01,3.212817382812500000e+01
1.116000056266784668e+00,2.000000000000000000e+00,-3.253610992431640625e+01,2.946975469589233398e+00,3.931175231933593750e+01,9.582184600830078125e+01,8.445253753662109375e+01,1.345837860107421875e+02,-9.617642402648925781e+00,-3.170236778259277344e+01,-1.837174987792968750e+02,3.644357681274414062e+01,2.535116958618164062e+01,3.212387466430664062e+01
