rpiRobotics/ARM-21-02-F-19-Robot-Motion-Program/data_performance_abb/curve_1/dual_arm/diffevo_pose3/grad_result/real_from_sim/sim_result/dual_iteration_1.csv
timestamp,cmd_num,J1,J2,J3,J4,J5,J6,J1_2,J2_2,J3_2,J4_2,J5_2,J6_2
0.000000000000000000e+00,-1.000000000000000000e+00,-1.955330085754394531e+01,-5.130955219268798828e+00,5.060737991333007812e+01,9.506036376953125000e+01,8.600814056396484375e+01,1.346143493652343750e+02,2.618297576904296875e+00,-3.297520065307617188e+01,-1.849802551269531250e+02,3.562008666992187500e+01,2.098140716552734375e+01,3.369622039794921875e+01
2.000000094994902611e-03,-1.000000000000000000e+00,-1.955330085754394531e+01,-5.130955219268798828e+00,5.060737991333007812e+01,9.506036376953125000e+01,8.600814056396484375e+01,1.346143493652343750e+02,2.618297576904296875e+00,-3.297520065307617188e+01,-1.849802551269531250e+02,3.562008666992187500e+01,2.098140716552734375e+01,3.369622039794921875e+01
6.000000052154064178e-03,-1.000000000000000000e+00,-1.955330085754394531e+01,-5.130955219268798828e+00,5.060737991333007812e+01,9.506036376953125000e+01,8.600814056396484375e+01,1.346143493652343750e+02,2.618297576904296875e+00,-3.297520065307617188e+01,-1.849802551269531250e+02,3.562008666992187500e+01,2.098140716552734375e+01,3.369622039794921875e+01
8.000000379979610443e-03,-1.000000000000000000e+00,-1.955330085754394531e+01,-5.130955219268798828e+00,5.060737991333007812e+01,9.506036376953125000e+01,8.600814056396484375e+01,1.346143493652343750e+02,2.618297576904296875e+00,-3.297520065307617188e+01,-1.849802551269531250e+02,3.562008666992187500e+01,2.098140716552734375e+01,3.369622039794921875e+01
1.099999994039535522e-02,-1.000000000000000000e+00,-1.955330085754394531e+01,-5.130955219268798828e+00,5.060737991333007812e+01,9.506036376953125000e+01,8.600814056396484375e+01,1.346143493652343750e+02,2.618297576904296875e+00,-3.297520065307617188e+01,-1.849802551269531250e+02,3.562008666992187500e+01,2.098140716552734375e+01,3.369622039794921875e+01
1.600000075995922089e-02,-1.000000000000000000e+00,-1.955330085754394531e+01,-5.130955219268798828e+00,5.060737991333007812e+01,9.506036376953125000e+01,8.600814056396484375e+01,1.346143493652343750e+02,2.618297576904296875e+00,-3.297520065307617188e+01,-1.849802551269531250e+02,3.562008666992187500e+01,2.098140716552734375e+01,3.369622039794921875e+01
1.999999955296516418e-02,-1.000000000000000000e+00,-1.955330085754394531e+01,-5.130955219268798828e+00,5.060737991333007812e+01,9.506036376953125000e+01,8.600814056396484375e+01,1.346143493652343750e+02,2.618297576904296875e+00,-3.297520065307617188e+01,-1.849802551269531250e+02,3.562008666992187500e+01,2.098140716552734375e+01,3.369622039794921875e+01
2.400000020861625671e-02,-1.000000000000000000e+00,-1.955330085754394531e+01,-5.130955219268798828e+00,5.060737991333007812e+01,9.506036376953125000e+01,8.600814056396484375e+01,1.346143493652343750e+02,2.618297576904296875e+00,-3.297520065307617188e+01,-1.849802551269531250e+02,3.562008666992187500e+01,2.098140716552734375e+01,3.369622039794921875e+01
2.800000086426734924e-02,2.000000000000000000e+00,-1.955330085754394531e+01,-5.130955219268798828e+00,5.060737991333007812e+01,9.506036376953125000e+01,8.600814056396484375e+01,1.346143493652343750e+02,2.618297576904296875e+00,-3.297520065307617188e+01,-1.849802551269531250e+02,3.562008666992187500e+01,2.098140716552734375e+01,3.369622039794921875e+01
3.400000184774398804e-02,2.000000000000000000e+00,-1.955330085754394531e+01,-5.130955219268798828e+00,5.060737991333007812e+01,9.506036376953125000e+01,8.600814056396484375e+01,1.346143493652343750e+02,2.618297576904296875e+00,-3.297520065307617188e+01,-1.849802551269531250e+02,3.562008666992187500e+01,2.098140716552734375e+01,3.369622039794921875e+01
3.799999877810478210e-02,2.000000000000000000e+00,-1.955330085754394531e+01,-5.130955219268798828e+00,5.060737991333007812e+01,9.506036376953125000e+01,8.600814056396484375e+01,1.346143493652343750e+02,2.618297576904296875e+00,-3.297520065307617188e+01,-1.849802551269531250e+02,3.562008666992187500e+01,2.098140716552734375e+01,3.369622039794921875e+01
3.999999910593032837e-02,2.000000000000000000e+00,-1.955330085754394531e+01,-5.130955219268798828e+00,5.060737991333007812e+01,9.506036376953125000e+01,8.600814056396484375e+01,1.346143493652343750e+02,2.618297576904296875e+00,-3.297520065307617188e+01,-1.849802551269531250e+02,3.562008666992187500e+01,2.098140716552734375e+01,3.369622039794921875e+01
4.600000008940696716e-02,2.000000000000000000e+00,-1.955330085754394531e+01,-5.130955219268798828e+00,5.060737991333007812e+01,9.506036376953125000e+01,8.600814056396484375e+01,1.346143493652343750e+02,2.618297576904296875e+00,-3.297520065307617188e+01,-1.849802551269531250e+02,3.562008666992187500e+01,2.098140716552734375e+01,3.369622039794921875e+01
4.800000041723251343e-02,2.000000000000000000e+00,-1.955330085754394531e+01,-5.130955219268798828e+00,5.060737991333007812e+01,9.506036376953125000e+01,8.600814056396484375e+01,1.346143493652343750e+02,2.618297576904296875e+00,-3.297520065307617188e+01,-1.849802551269531250e+02,3.562008666992187500e+01,2.098140716552734375e+01,3.369622039794921875e+01
5.200000107288360596e-02,2.000000000000000000e+00,-1.955330085754394531e+01,-5.130955219268798828e+00,5.060737991333007812e+01,9.506036376953125000e+01,8.600814056396484375e+01,1.346143493652343750e+02,2.618297576904296875e+00,-3.297520065307617188e+01,-1.849802551269531250e+02,3.562008666992187500e+01,2.098140716552734375e+01,3.369622039794921875e+01
5.600000172853469849e-02,2.000000000000000000e+00,-1.955330085754394531e+01,-5.130955219268798828e+00,5.060737991333007812e+01,9.506036376953125000e+01,8.600814056396484375e+01,1.346143493652343750e+02,2.618297576904296875e+00,-3.297520065307617188e+01,-1.849802551269531250e+02,3.562008666992187500e+01,2.098140716552734375e+01,3.369622039794921875e+01
5.999999865889549255e-02,2.000000000000000000e+00,-1.955330085754394531e+01,-5.130955219268798828e+00,5.060737991333007812e+01,9.506036376953125000e+01,8.600814056396484375e+01,1.346143493652343750e+02,2.618297576904296875e+00,-3.297520065307617188e+01,-1.849802551269531250e+02,3.562008666992187500e+01,2.098140716552734375e+01,3.369622039794921875e+01
6.400000303983688354e-02,2.000000000000000000e+00,-1.955330085754394531e+01,-5.130955219268798828e+00,5.060737991333007812e+01,9.506036376953125000e+01,8.600814056396484375e+01,1.346143493652343750e+02,2.618297576904296875e+00,-3.297520065307617188e+01,-1.849802551269531250e+02,3.562008666992187500e+01,2.098140716552734375e+01,3.369622039794921875e+01
6.800000369548797607e-02,2.000000000000000000e+00,-1.955330085754394531e+01,-5.130955219268798828e+00,5.060737991333007812e+01,9.506036376953125000e+01,8.600814056396484375e+01,1.346143493652343750e+02,2.618297576904296875e+00,-3.297520065307617188e+01,-1.849802551269531250e+02,3.562008666992187500e+01,2.098140716552734375e+01,3.369622039794921875e+01
7.199999690055847168e-02,2.000000000000000000e+00,-1.955336761474609375e+01,-5.130931377410888672e+00,5.060736465454101562e+01,9.506036376953125000e+01,8.600814056396484375e+01,1.346143493652343750e+02,2.618297576904296875e+00,-3.297520065307617188e+01,-1.849802551269531250e+02,3.562008666992187500e+01,2.098140716552734375e+01,3.369622039794921875e+01
7.599999755620956421e-02,2.000000000000000000e+00,-1.955374526977539062e+01,-5.130781650543212891e+00,5.060727691650390625e+01,9.506036376953125000e+01,8.600813293457031250e+01,1.346143493652343750e+02,2.618297576904296875e+00,-3.297520065307617188e+01,-1.849802551269531250e+02,3.562008666992187500e+01,2.098140716552734375e+01,3.369622039794921875e+01
7.999999821186065674e-02,2.000000000000000000e+00,-1.955482292175292969e+01,-5.130317687988281250e+00,5.060699462890625000e+01,9.506037139892578125e+01,8.600811004638671875e+01,1.346143493652343750e+02,2.618297576904296875e+00,-3.297520065307617188e+01,-1.849802551269531250e+02,3.562008666992187500e+01,2.098140716552734375e+01,3.369622039794921875e+01
8.399999886751174927e-02,2.000000000000000000e+00,-1.955695915222167969e+01,-5.129317283630371094e+00,5.060637283325195312e+01,9.506039428710937500e+01,8.600805664062500000e+01,1.346143493652343750e+02,2.618271112442016602e+00,-3.297519683837890625e+01,-1.849802551269531250e+02,3.562008666992187500e+01,2.098140907287597656e+01,3.369622039794921875e+01
8.799999952316284180e-02,2.000000000000000000e+00,-1.956037902832031250e+01,-5.127591609954833984e+00,5.060523223876953125e+01,9.506044769287109375e+01,8.600797271728515625e+01,1.346143035888671875e+02,2.618096828460693359e+00,-3.297518920898437500e+01,-1.849802246093750000e+02,3.562009048461914062e+01,2.098142623901367188e+01,3.369621658325195312e+01
9.200000017881393433e-02,2.000000000000000000e+00,-1.956524085998535156e+01,-5.124979019165039062e+00,5.060339736938476562e+01,9.506056213378906250e+01,8.600782775878906250e+01,1.346142120361328125e+02,2.617522001266479492e+00,-3.297515487670898438e+01,-1.849801330566406250e+02,3.562009811401367188e+01,2.098148536682128906e+01,3.369620895385742188e+01
9.600000083446502686e-02,2.000000000000000000e+00,-1.957168960571289062e+01,-5.121328830718994141e+00,5.060065078735351562e+01,9.506074523925781250e+01,8.600760650634765625e+01,1.346140594482421875e+02,2.616203308105468750e+00,-3.297508239746093750e+01,-1.849799346923828125e+02,3.562012863159179688e+01,2.098164558410644531e+01,3.369617462158203125e+01
1.000000014901161194e-01,2.000000000000000000e+00,-1.957975387573242188e+01,-5.116544246673583984e+00,5.059677505493164062e+01,9.506105041503906250e+01,8.600730133056640625e+01,1.346138000488281250e+02,2.613764524459838867e+00,-3.297492218017578125e+01,-1.849795989990234375e+02,3.562019729614257812e+01,2.098200035095214844e+01,3.369609451293945312e+01
1.040000021457672119e-01,2.000000000000000000e+00,-1.958935737609863281e+01,-5.110596656799316406e+00,5.059156036376953125e+01,9.506150817871093750e+01,8.600689697265625000e+01,1.346133728027343750e+02,2.609789848327636719e+00,-3.297463989257812500e+01,-1.849790496826171875e+02,3.562032699584960938e+01,2.098267745971679688e+01,3.369590759277343750e+01
1.080000028014183044e-01,2.000000000000000000e+00,-1.960052490234375000e+01,-5.103448867797851562e+00,5.058477783203125000e+01,9.506217193603515625e+01,8.600637817382812500e+01,1.346127471923828125e+02,2.603819847106933594e+00,-3.297417831420898438e+01,-1.849782409667968750e+02,3.562055206298828125e+01,2.098386001586914062e+01,3.369556045532226562e+01
1.120000034570693970e-01,2.000000000000000000e+00,-1.961351585388183594e+01,-5.094966411590576172e+00,5.057615280151367188e+01,9.506307220458984375e+01,8.600571441650390625e+01,1.346118621826171875e+02,2.595471382141113281e+00,-3.297348785400390625e+01,-1.849771728515625000e+02,3.562091064453125000e+01,2.098575401306152344e+01,3.369496154785156250e+01
1.159999966621398926e-01,2.000000000000000000e+00,-1.962875175476074219e+01,-5.084927558898925781e+00,5.056536483764648438e+01,9.506426239013671875e+01,8.600489807128906250e+01,1.346107025146484375e+02,2.584522962570190430e+00,-3.297250366210937500e+01,-1.849758605957031250e+02,3.562143325805664062e+01,2.098858451843261719e+01,3.369401931762695312e+01
1.199999973177909851e-01,2.000000000000000000e+00,-1.964659881591796875e+01,-5.073132038116455078e+00,5.055212020874023438e+01,9.506578063964843750e+01,8.600389099121093750e+01,1.346092071533203125e+02,2.570815801620483398e+00,-3.297118377685546875e+01,-1.849742584228515625e+02,3.562217330932617188e+01,2.099255371093750000e+01,3.369264984130859375e+01
1.239999979734420776e-01,2.000000000000000000e+00,-1.966721153259277344e+01,-5.059504508972167969e+00,5.053621673583984375e+01,9.506765747070312500e+01,8.600269317626953125e+01,1.346073455810546875e+02,2.554116010665893555e+00,-3.296948242187500000e+01,-1.849724121093750000e+02,3.562315368652343750e+01,2.099785041809082031e+01,3.369077301025390625e+01
1.280000060796737671e-01,2.000000000000000000e+00,-1.969055366516113281e+01,-5.044086456298828125e+00,5.051754379272460938e+01,9.506991577148437500e+01,8.600128173828125000e+01,1.346050872802734375e+02,2.534138202667236328e+00,-3.296736526489257812e+01,-1.849702911376953125e+02,3.562439727783203125e+01,2.100460624694824219e+01,3.368833923339843750e+01
1.309999972581863403e-01,2.000000000000000000e+00,-1.971652793884277344e+01,-5.026955604553222656e+00,5.049605560302734375e+01,9.507258605957031250e+01,8.599967193603515625e+01,1.346024017333984375e+02,2.510687112808227539e+00,-3.296481323242187500e+01,-1.849678802490234375e+02,3.562592697143554688e+01,2.101288986206054688e+01,3.368532180786132812e+01
1.360000073909759521e-01,2.000000000000000000e+00,-1.974505996704101562e+01,-5.008163928985595703e+00,5.047174453735351562e+01,9.507567596435546875e+01,8.599785614013671875e+01,1.345992889404296875e+02,2.483678579330444336e+00,-3.296181869506835938e+01,-1.849651489257812500e+02,3.562773132324218750e+01,2.102270698547363281e+01,3.368172073364257812e+01
1.389999985694885254e-01,2.000000000000000000e+00,-1.977606773376464844e+01,-4.987762451171875000e+00,5.044465255737304688e+01,9.507916259765625000e+01,8.599583435058593750e+01,1.345957489013671875e+02,2.453083515167236328e+00,-3.295839309692382812e+01,-1.849620819091796875e+02,3.562981033325195312e+01,2.103400611877441406e+01,3.367756271362304688e+01
1.439999938011169434e-01,2.000000000000000000e+00,-1.980945777893066406e+01,-4.965798377990722656e+00,5.041488647460937500e+01,9.508305358886718750e+01,8.599361419677734375e+01,1.345918121337890625e+02,2.418958902359008789e+00,-3.295455932617187500e+01,-1.849586791992187500e+02,3.563214492797851562e+01,2.104668998718261719e+01,3.367288970947265625e+01
1.480000019073486328e-01,2.000000000000000000e+00,-1.984524726867675781e+01,-4.942240238189697266e+00,5.038256835937500000e+01,9.508730316162109375e+01,8.599121093750000000e+01,1.345874938964843750e+02,2.381528139114379883e+00,-3.295035552978515625e+01,-1.849549713134765625e+02,3.563470458984375000e+01,2.106062316894531250e+01,3.366775894165039062e+01
1.519999951124191284e-01,2.000000000000000000e+00,-1.988356399536132812e+01,-4.916980743408203125e+00,5.034780502319335938e+01,9.509188079833984375e+01,8.598861694335937500e+01,1.345828552246093750e+02,2.341188669204711914e+00,-3.294582748413085938e+01,-1.849509582519531250e+02,3.563746643066406250e+01,2.107564163208007812e+01,3.366222381591796875e+01
1.560000032186508179e-01,2.000000000000000000e+00,-1.992447090148925781e+01,-4.889955520629882812e+00,5.031076812744140625e+01,9.509675598144531250e+01,8.598587036132812500e+01,1.345779113769531250e+02,2.298384189605712891e+00,-3.294102478027343750e+01,-1.849466857910156250e+02,3.564039611816406250e+01,2.109156990051269531e+01,3.365635299682617188e+01
1.599999964237213135e-01,2.000000000000000000e+00,-1.996780204772949219e+01,-4.861258983612060547e+00,5.027170944213867188e+01,9.510186767578125000e+01,8.598295593261718750e+01,1.345727386474609375e+02,2.253483057022094727e+00,-3.293600082397460938e+01,-1.849422149658203125e+02,3.564345932006835938e+01,2.110823059082031250e+01,3.365021896362304688e+01
1.640000045299530029e-01,2.000000000000000000e+00,-2.001318359375000000e+01,-4.831106662750244141e+00,5.023094940185546875e+01,9.510718536376953125e+01,8.597991943359375000e+01,1.345673370361328125e+02,2.206788778305053711e+00,-3.293080520629882812e+01,-1.849375305175781250e+02,3.564662551879882812e+01,2.112545204162597656e+01,3.364388656616210938e+01
1.679999977350234985e-01,2.000000000000000000e+00,-2.006023406982421875e+01,-4.799721717834472656e+00,5.018879318237304688e+01,9.511266326904296875e+01,8.597677612304687500e+01,1.345617980957031250e+02,2.158606290817260742e+00,-3.292546844482421875e+01,-1.849326629638671875e+02,3.564986419677734375e+01,2.114308357238769531e+01,3.363741683959960938e+01
1.720000058412551880e-01,2.000000000000000000e+00,-2.010869026184082031e+01,-4.767279624938964844e+00,5.014550399780273438e+01,9.511826324462890625e+01,8.597354888916015625e+01,1.345561370849609375e+02,2.109261274337768555e+00,-3.292002868652343750e+01,-1.849276580810546875e+02,3.565315628051757812e+01,2.116098594665527344e+01,3.363085937500000000e+01
1.759999990463256836e-01,2.000000000000000000e+00,-2.015840911865234375e+01,-4.733927249908447266e+00,5.010131072998046875e+01,9.512395477294921875e+01,8.597025299072265625e+01,1.345503845214843750e+02,2.059048414230346680e+00,-3.291453170776367188e+01,-1.849225311279296875e+02,3.565648269653320312e+01,2.117906188964843750e+01,3.362424850463867188e+01
1.800000071525573730e-01,2.000000000000000000e+00,-2.020928192138671875e+01,-4.699806690216064453e+00,5.005641174316406250e+01,9.512971496582031250e+01,8.596689605712890625e+01,1.345445709228515625e+02,2.008207559585571289e+00,-3.290898895263671875e+01,-1.849173126220703125e+02,3.565982818603515625e+01,2.119722938537597656e+01,3.361761856079101562e+01
1.840000003576278687e-01,2.000000000000000000e+00,-2.026117134094238281e+01,-4.665055274963378906e+00,5.001099014282226562e+01,9.513551330566406250e+01,8.596350860595703125e+01,1.345387115478515625e+02,1.956959962844848633e+00,-3.290341949462890625e+01,-1.849120330810546875e+02,3.566317749023437500e+01,2.121544456481933594e+01,3.361097717285156250e+01
1.879999935626983643e-01,2.000000000000000000e+00,-2.031396675109863281e+01,-4.629784107208251953e+00,4.996517944335937500e+01,9.514134979248046875e+01,8.596007537841796875e+01,1.345328369140625000e+02,1.905507922172546387e+00,-3.289783859252929688e+01,-1.849067230224609375e+02,3.566653442382812500e+01,2.123367691040039062e+01,3.360433197021484375e+01
1.920000016689300537e-01,2.000000000000000000e+00,-2.036757087707519531e+01,-4.594099044799804688e+00,4.991909408569335938e+01,9.514718627929687500e+01,8.595663452148437500e+01,1.345269470214843750e+02,1.853994250297546387e+00,-3.289225387573242188e+01,-1.849013977050781250e+02,3.566989135742187500e+01,2.125190925598144531e+01,3.359769439697265625e+01
1.959999948740005493e-01,2.000000000000000000e+00,-2.042180061340332031e+01,-4.558129787445068359e+00,4.987282943725585938e+01,9.515303802490234375e+01,8.595317077636718750e+01,1.345210571289062500e+02,1.802480697631835938e+00,-3.288667297363281250e+01,-1.848960723876953125e+02,3.567324829101562500e+01,2.127013969421386719e+01,3.359105300903320312e+01
2.000000029802322388e-01,2.000000000000000000e+00,-2.047638511657714844e+01,-4.522016525268554688e+00,4.982648849487304688e+01,9.515888977050781250e+01,8.594969940185546875e+01,1.345151672363281250e+02,1.750978708267211914e+00,-3.288108825683593750e+01,-1.848907470703125000e+02,3.567660522460937500e+01,2.128836631774902344e+01,3.358441162109375000e+01
2.039999961853027344e-01,2.000000000000000000e+00,-2.053108787536621094e+01,-4.485861301422119141e+00,4.978012847900390625e+01,9.516474151611328125e+01,8.594622802734375000e+01,1.345092773437500000e+02,1.699488282203674316e+00,-3.287550735473632812e+01,-1.848854217529296875e+02,3.567995834350585938e+01,2.130658721923828125e+01,3.357777786254882812e+01
2.080000042915344238e-01,2.000000000000000000e+00,-2.058579826354980469e+01,-4.449707508087158203e+00,4.973376846313476562e+01,9.517058563232421875e+01,8.594276428222656250e+01,1.345033874511718750e+02,1.648009896278381348e+00,-3.286992645263671875e+01,-1.848801116943359375e+02,3.568331146240234375e+01,2.132480621337890625e+01,3.357114028930664062e+01
2.119999974966049194e-01,2.000000000000000000e+00,-2.064049530029296875e+01,-4.413561344146728516e+00,4.968742752075195312e+01,9.517642974853515625e+01,8.593929290771484375e+01,1.344974975585937500e+02,1.596543550491333008e+00,-3.286434936523437500e+01,-1.848748016357421875e+02,3.568666839599609375e+01,2.134301757812500000e+01,3.356451034545898438e+01
2.160000056028366089e-01,2.000000000000000000e+00,-2.069517898559570312e+01,-4.377423763275146484e+00,4.964109039306640625e+01,9.518228149414062500e+01,8.593582916259765625e+01,1.344916381835937500e+02,1.545088887214660645e+00,-3.285876846313476562e+01,-1.848694610595703125e+02,3.569002151489257812e+01,2.136122703552246094e+01,3.355787658691406250e+01
2.199999988079071045e-01,2.000000000000000000e+00,-2.074985313415527344e+01,-4.341294765472412109e+00,4.959476852416992188e+01,9.518812561035156250e+01,8.593235778808593750e+01,1.344857482910156250e+02,1.493646144866943359e+00,-3.285319519042968750e+01,-1.848641510009765625e+02,3.569337081909179688e+01,2.137943267822265625e+01,3.355124664306640625e+01
2.240000069141387939e-01,2.000000000000000000e+00,-2.080451202392578125e+01,-4.305173873901367188e+00,4.954845809936523438e+01,9.519396972656250000e+01,8.592888641357421875e+01,1.344798736572265625e+02,1.442215442657470703e+00,-3.284761810302734375e+01,-1.848588409423828125e+02,3.569672393798828125e+01,2.139763450622558594e+01,3.354461669921875000e+01
2.280000001192092896e-01,2.000000000000000000e+00,-2.085916137695312500e+01,-4.269061565399169922e+00,4.950215530395507812e+01,9.519981384277343750e+01,8.592543029785156250e+01,1.344739837646484375e+02,1.390796780586242676e+00,-3.284204483032226562e+01,-1.848535308837890625e+02,3.570007324218750000e+01,2.141582870483398438e+01,3.353798675537109375e+01
2.319999933242797852e-01,2.000000000000000000e+00,-2.091379547119140625e+01,-4.232957839965820312e+00,4.945586395263671875e+01,9.520565032958984375e+01,8.592196655273437500e+01,1.344681091308593750e+02,1.339389920234680176e+00,-3.283647537231445312e+01,-1.848482055664062500e+02,3.570342254638671875e+01,2.143402099609375000e+01,3.353136444091796875e+01
2.360000014305114746e-01,2.000000000000000000e+00,-2.096841812133789062e+01,-4.196862220764160156e+00,4.940958404541015625e+01,9.521149444580078125e+01,8.591850280761718750e+01,1.344622344970703125e+02,1.287995100021362305e+00,-3.283090591430664062e+01,-1.848428955078125000e+02,3.570677185058593750e+01,2.145221138000488281e+01,3.352473831176757812e+01
2.399999946355819702e-01,2.000000000000000000e+00,-2.102302932739257812e+01,-4.160775184631347656e+00,4.936331558227539062e+01,9.521733093261718750e+01,8.591503906250000000e+01,1.344563446044921875e+02,1.236612319946289062e+00,-3.282533645629882812e+01,-1.848376007080078125e+02,3.571011734008789062e+01,2.147039413452148438e+01,3.351811599731445312e+01
2.440000027418136597e-01,2.000000000000000000e+00,-2.107762527465820312e+01,-4.124696254730224609e+00,4.931705856323242188e+01,9.522317504882812500e+01,8.591157531738281250e+01,1.344504699707031250e+02,1.185241341590881348e+00,-3.281976699829101562e+01,-1.848322906494140625e+02,3.571346664428710938e+01,2.148857307434082031e+01,3.351149368286132812e+01
2.479999959468841553e-01,2.000000000000000000e+00,-2.113220977783203125e+01,-4.088625431060791016e+00,4.927080535888671875e+01,9.522900390625000000e+01,8.590811157226562500e+01,1.344446105957031250e+02,1.133882284164428711e+00,-3.281420135498046875e+01,-1.848269653320312500e+02,3.571681594848632812e+01,2.150674819946289062e+01,3.350487136840820312e+01
2.520000040531158447e-01,2.000000000000000000e+00,-2.118678283691406250e+01,-4.052563667297363281e+00,4.922457122802734375e+01,9.523484039306640625e+01,8.590464782714843750e+01,1.344387359619140625e+02,1.082535147666931152e+00,-3.280863571166992188e+01,-1.848216705322265625e+02,3.572015762329101562e+01,2.152491950988769531e+01,3.349825286865234375e+01
2.560000121593475342e-01,2.000000000000000000e+00,-2.124134254455566406e+01,-4.016509532928466797e+00,4.917834091186523438e+01,9.524066925048828125e+01,8.590119171142578125e+01,1.344328613281250000e+02,1.031199932098388672e+00,-3.280307006835937500e+01,-1.848163757324218750e+02,3.572350692749023438e+01,2.154308700561523438e+01,3.349163818359375000e+01
2.599999904632568359e-01,2.000000000000000000e+00,-2.129588890075683594e+01,-3.980463981628417969e+00,4.913212585449218750e+01,9.524650573730468750e+01,8.589772796630859375e+01,1.344269866943359375e+02,9.798766374588012695e-01,-3.279750823974609375e+01,-1.848110504150390625e+02,3.572684860229492188e+01,2.156124877929687500e+01,3.348502349853515625e+01
2.639999985694885254e-01,2.000000000000000000e+00,-2.135042190551757812e+01,-3.944426536560058594e+00,4.908592224121093750e+01,9.525233459472656250e+01,8.589427185058593750e+01,1.344211273193359375e+02,9.285650849342346191e-01,-3.279194641113281250e+01,-1.848057556152343750e+02,3.573019027709960938e+01,2.157940673828125000e+01,3.347840881347656250e+01
2.680000066757202148e-01,2.000000000000000000e+00,-2.140494346618652344e+01,-3.908397436141967773e+00,4.903972625732421875e+01,9.525816345214843750e+01,8.589081573486328125e+01,1.344152526855468750e+02,8.772653937339782715e-01,-3.278638839721679688e+01,-1.848004608154296875e+02,3.573353576660156250e+01,2.159756278991699219e+01,3.347179794311523438e+01
2.720000147819519043e-01,2.000000000000000000e+00,-2.145945358276367188e+01,-3.872376680374145508e+00,4.899354553222656250e+01,9.526399230957031250e+01,8.588735961914062500e+01,1.344093933105468750e+02,8.259775042533874512e-01,-3.278082656860351562e+01,-1.847951507568359375e+02,3.573687362670898438e+01,2.161571121215820312e+01,3.346518325805664062e+01
2.759999930858612061e-01,2.000000000000000000e+00,-2.151395034790039062e+01,-3.836364030838012695e+00,4.894736862182617188e+01,9.526981353759765625e+01,8.588390350341796875e+01,1.344035339355468750e+02,7.747013568878173828e-01,-3.277526855468750000e+01,-1.847898559570312500e+02,3.574021530151367188e+01,2.163385772705078125e+01,3.345857620239257812e+01
2.800000011920928955e-01,2.000000000000000000e+00,-2.156843566894531250e+01,-3.800359964370727539e+00,4.890120697021484375e+01,9.527564239501953125e+01,8.588044738769531250e+01,1.343976745605468750e+02,7.234368920326232910e-01,-3.276971054077148438e+01,-1.847845611572265625e+02,3.574355697631835938e+01,2.165200042724609375e+01,3.345196914672851562e+01
2.840000092983245850e-01,2.000000000000000000e+00,-2.162290573120117188e+01,-3.764364004135131836e+00,4.885505676269531250e+01,9.528147125244140625e+01,8.587699127197265625e+01,1.343918151855468750e+02,6.721842288970947266e-01,-3.276416015625000000e+01,-1.847792510986328125e+02,3.574689483642578125e+01,2.167013740539550781e+01,3.344536209106445312e+01
2.879999876022338867e-01,2.000000000000000000e+00,-2.167736625671386719e+01,-3.728376150131225586e+00,4.880891418457031250e+01,9.528728485107421875e+01,8.587353515625000000e+01,1.343859558105468750e+02,6.209431886672973633e-01,-3.275860214233398438e+01,-1.847739715576171875e+02,3.575023651123046875e+01,2.168827056884765625e+01,3.343875885009765625e+01
2.919999957084655762e-01,2.000000000000000000e+00,-2.173181152343750000e+01,-3.692396879196166992e+00,4.876278305053710938e+01,9.529310607910156250e+01,8.587008666992187500e+01,1.343800964355468750e+02,5.697138309478759766e-01,-3.275304794311523438e+01,-1.847686614990234375e+02,3.575357055664062500e+01,2.170640182495117188e+01,3.343215560913085938e+01
2.960000038146972656e-01,2.000000000000000000e+00,-2.178624534606933594e+01,-3.656425714492797852e+00,4.871666336059570312e+01,9.529893493652343750e+01,8.586663055419921875e+01,1.343742370605468750e+02,5.184960961341857910e-01,-3.274749755859375000e+01,-1.847633819580078125e+02,3.575691223144531250e+01,2.172452545166015625e+01,3.342555236816406250e+01
3.000000119209289551e-01,2.000000000000000000e+00,-2.184066772460937500e+01,-3.620462656021118164e+00,4.867055130004882812e+01,9.530474853515625000e+01,8.586318206787109375e+01,1.343683776855468750e+02,4.672900736331939697e-01,-3.274195098876953125e+01,-1.847580871582031250e+02,3.576024627685546875e+01,2.174264717102050781e+01,3.341895294189453125e+01
3.039999902248382568e-01,2.000000000000000000e+00,-2.189507675170898438e+01,-3.584507703781127930e+00,4.862445068359375000e+01,9.531056213378906250e+01,8.585973358154296875e+01,1.343625335693359375e+02,4.160956442356109619e-01,-3.273640060424804688e+01,-1.847527923583984375e+02,3.576358032226562500e+01,2.176076507568359375e+01,3.341235351562500000e+01
3.079999983310699463e-01,2.000000000000000000e+00,-2.194947433471679688e+01,-3.548560857772827148e+00,4.857836151123046875e+01,9.531638336181640625e+01,8.585628509521484375e+01,1.343566589355468750e+02,3.649128675460815430e-01,-3.273085021972656250e+01,-1.847475128173828125e+02,3.576691818237304688e+01,2.177887725830078125e+01,3.340575408935546875e+01
3.120000064373016357e-01,2.000000000000000000e+00,-2.200385856628417969e+01,-3.512622356414794922e+00,4.853228378295898438e+01,9.532219696044921875e+01,8.585283660888671875e+01,1.343508148193359375e+02,3.137417137622833252e-01,-3.272530364990234375e+01,-1.847422180175781250e+02,3.577025222778320312e+01,2.179698562622070312e+01,3.339916229248046875e+01
3.160000145435333252e-01,2.000000000000000000e+00,-2.205823135375976562e+01,-3.476691961288452148e+00,4.848621749877929688e+01,9.532801055908203125e+01,8.584938812255859375e+01,1.343449707031250000e+02,2.625822126865386963e-01,-3.271975708007812500e+01,-1.847369384765625000e+02,3.577358245849609375e+01,2.181509017944335938e+01,3.339256668090820312e+01
3.199999928474426270e-01,2.000000000000000000e+00,-2.211259078979492188e+01,-3.440769672393798828e+00,4.844015502929687500e+01,9.533382415771484375e+01,8.584593963623046875e+01,1.343391265869140625e+02,2.114343643188476562e-01,-3.271421432495117188e+01,-1.847316436767578125e+02,3.577691650390625000e+01,2.183319091796875000e+01,3.338597488403320312e+01
3.240000009536743164e-01,2.000000000000000000e+00,-2.216693878173828125e+01,-3.404855728149414062e+00,4.839411163330078125e+01,9.533963012695312500e+01,8.584249114990234375e+01,1.343332824707031250e+02,1.602981239557266235e-01,-3.270867156982421875e+01,-1.847263641357421875e+02,3.578025054931640625e+01,2.185128784179687500e+01,3.337937927246093750e+01
3.280000090599060059e-01,2.000000000000000000e+00,-2.222127342224121094e+01,-3.368949890136718750e+00,4.834807205200195312e+01,9.534543609619140625e+01,8.583904266357421875e+01,1.343274383544921875e+02,1.091735213994979858e-01,-3.270312881469726562e+01,-1.847210693359375000e+02,3.578358078002929688e+01,2.186937904357910156e+01,3.337279129028320312e+01
3.319999873638153076e-01,2.000000000000000000e+00,-2.227559471130371094e+01,-3.333052158355712891e+00,4.830204772949218750e+01,9.535124206542968750e+01,8.583560180664062500e+01,1.343215789794921875e+02,5.806052312254905701e-02,-3.269758987426757812e+01,-1.847157897949218750e+02,3.578691482543945312e+01,2.188746833801269531e+01,3.336620712280273438e+01
3.359999954700469971e-01,2.000000000000000000e+00,-2.232990646362304688e+01,-3.297162771224975586e+00,4.825603103637695312e+01,9.535704803466796875e+01,8.583216094970703125e+01,1.343157348632812500e+02,6.959152873605489731e-03,-3.269205093383789062e+01,-1.847105102539062500e+02,3.579024124145507812e+01,2.190555191040039062e+01,3.335961914062500000e+01
3.400000035762786865e-01,2.000000000000000000e+00,-2.238420295715332031e+01,-3.261281251907348633e+00,4.821002578735351562e+01,9.536285400390625000e+01,8.582871246337890625e+01,1.343098907470703125e+02,-4.413060471415519714e-02,-3.268651580810546875e+01,-1.847052307128906250e+02,3.579356765747070312e+01,2.192363166809082031e+01,3.335303497314453125e+01
3.440000116825103760e-01,2.000000000000000000e+00,-2.243848991394042969e+01,-3.225408077239990234e+00,4.816402816772460938e+01,9.536865997314453125e+01,8.582527160644531250e+01,1.343040618896484375e+02,-9.520874917507171631e-02,-3.268098068237304688e+01,-1.846999511718750000e+02,3.579689788818359375e+01,2.194170761108398438e+01,3.334645080566406250e+01
3.479999899864196777e-01,2.000000000000000000e+00,-2.249276351928710938e+01,-3.189543008804321289e+00,4.811804580688476562e+01,9.537446594238281250e+01,8.582182312011718750e+01,1.342982177734375000e+02,-1.462752968072891235e-01,-3.267544555664062500e+01,-1.846946716308593750e+02,3.580022430419921875e+01,2.195978164672851562e+01,3.333986663818359375e+01
3.519999980926513672e-01,2.000000000000000000e+00,-2.254702568054199219e+01,-3.153686046600341797e+00,4.807207107543945312e+01,9.538026428222656250e+01,8.581838989257812500e+01,1.342923736572265625e+02,-1.973302215337753296e-01,-3.266990661621093750e+01,-1.846893920898437500e+02,3.580355072021484375e+01,2.197784805297851562e+01,3.333328628540039062e+01
3.560000061988830566e-01,2.000000000000000000e+00,-2.260127449035644531e+01,-3.117837190628051758e+00,4.802610778808593750e+01,9.538606262207031250e+01,8.581494903564453125e+01,1.342865447998046875e+02,-2.483735680580139160e-01,-3.266437530517578125e+01,-1.846841278076171875e+02,3.580687713623046875e+01,2.199591064453125000e+01,3.332670593261718750e+01
3.600000143051147461e-01,2.000000000000000000e+00,-2.265550804138183594e+01,-3.081996440887451172e+00,4.798015213012695312e+01,9.539186096191406250e+01,8.581150817871093750e+01,1.342807006835937500e+02,-2.994053065776824951e-01,-3.265884780883789062e+01,-1.846788482666015625e+02,3.581020355224609375e+01,2.201397132873535156e+01,3.332012939453125000e+01
3.639999926090240479e-01,2.000000000000000000e+00,-2.270973396301269531e+01,-3.046164035797119141e+00,4.793421173095703125e+01,9.539765930175781250e+01,8.580806732177734375e+01,1.342748718261718750e+02,-3.504254519939422607e-01,-3.265331268310546875e+01,-1.846735839843750000e+02,3.581352615356445312e+01,2.203202629089355469e+01,3.331355285644531250e+01
3.680000007152557373e-01,2.000000000000000000e+00,-2.276394462585449219e+01,-3.010339736938476562e+00,4.788827896118164062e+01,9.540345764160156250e+01,8.580463409423828125e+01,1.342690277099609375e+02,-4.014340043067932129e-01,-3.264778518676757812e+01,-1.846683044433593750e+02,3.581684875488281250e+01,2.205007743835449219e+01,3.330697631835937500e+01
3.720000088214874268e-01,2.000000000000000000e+00,-2.281814384460449219e+01,-2.974523544311523438e+00,4.784235763549804688e+01,9.540925598144531250e+01,8.580119323730468750e+01,1.342631988525390625e+02,-4.524309933185577393e-01,-3.264226150512695312e+01,-1.846630249023437500e+02,3.582017135620117188e+01,2.206812477111816406e+01,3.330040359497070312e+01
3.759999871253967285e-01,2.000000000000000000e+00,-2.287233161926269531e+01,-2.938715457916259766e+00,4.779644393920898438e+01,9.541504669189453125e+01,8.579776000976562500e+01,1.342573852539062500e+02,-5.034163594245910645e-01,-3.263673400878906250e+01,-1.846577606201171875e+02,3.582349395751953125e+01,2.208616828918457031e+01,3.329383087158203125e+01
3.799999952316284180e-01,2.000000000000000000e+00,-2.292650604248046875e+01,-2.902915477752685547e+00,4.775054550170898438e+01,9.542083740234375000e+01,8.579431915283203125e+01,1.342515563964843750e+02,-5.543901920318603516e-01,-3.263121032714843750e+01,-1.846524963378906250e+02,3.582682037353515625e+01,2.210420608520507812e+01,3.328726196289062500e+01
3.840000033378601074e-01,2.000000000000000000e+00,-2.298066902160644531e+01,-2.867123603820800781e+00,4.770465469360351562e+01,9.542662811279296875e+01,8.579088592529296875e+01,1.342457122802734375e+02,-6.053524017333984375e-01,-3.262568283081054688e+01,-1.846472320556640625e+02,3.583013916015625000e+01,2.212224197387695312e+01,3.328069305419921875e+01
3.880000114440917969e-01,2.000000000000000000e+00,-2.303482055664062500e+01,-2.831339836120605469e+00,4.765877151489257812e+01,9.543241882324218750e+01,8.578746032714843750e+01,1.342398986816406250e+02,-6.563030481338500977e-01,-3.262015914916992188e+01,-1.846419677734375000e+02,3.583345794677734375e+01,2.214027214050292969e+01,3.327412796020507812e+01
3.919999897480010986e-01,2.000000000000000000e+00,-2.308895874023437500e+01,-2.795564174652099609e+00,4.761290359497070312e+01,9.543820953369140625e+01,8.578401947021484375e+01,1.342340698242187500e+02,-7.072421312332153320e-01,-3.261463928222656250e+01,-1.846366882324218750e+02,3.583677673339843750e+01,2.215829849243164062e+01,3.326755905151367188e+01
3.959999978542327881e-01,2.000000000000000000e+00,-2.314308357238769531e+01,-2.759796857833862305e+00,4.756704330444335938e+01,9.544399261474609375e+01,8.578058624267578125e+01,1.342282409667968750e+02,-7.581697106361389160e-01,-3.260911941528320312e+01,-1.846314392089843750e+02,3.584009552001953125e+01,2.217632102966308594e+01,3.326099777221679688e+01
4.000000059604644775e-01,2.000000000000000000e+00,-2.319719505310058594e+01,-2.724037647247314453e+00,4.752119445800781250e+01,9.544977569580078125e+01,8.577716064453125000e+01,1.342224273681640625e+02,-8.090856671333312988e-01,-3.260359954833984375e+01,-1.846261749267578125e+02,3.584341430664062500e+01,2.219433975219726562e+01,3.325443267822265625e+01
4.040000140666961670e-01,2.000000000000000000e+00,-2.325129699707031250e+01,-2.688286304473876953e+00,4.747535705566406250e+01,9.545555877685546875e+01,8.577372741699218750e+01,1.342166137695312500e+02,-8.599900603294372559e-01,-3.259808349609375000e+01,-1.846209106445312500e+02,3.584672927856445312e+01,2.221235466003417969e+01,3.324787139892578125e+01
4.079999923706054688e-01,2.000000000000000000e+00,-2.330538558959960938e+01,-2.652543306350708008e+00,4.742952728271484375e+01,9.546134185791015625e+01,8.577029418945312500e+01,1.342107849121093750e+02,-9.108828902244567871e-01,-3.259256744384765625e+01,-1.846156616210937500e+02,3.585004425048828125e+01,2.223036575317382812e+01,3.324131011962890625e+01
4.120000004768371582e-01,2.000000000000000000e+00,-2.335946273803710938e+01,-2.616808176040649414e+00,4.738370895385742188e+01,9.546712493896484375e+01,8.576686096191406250e+01,1.342049713134765625e+02,-9.617641568183898926e-01,-3.258705139160156250e+01,-1.846103973388671875e+02,3.585335922241210938e+01,2.224837112426757812e+01,3.323475646972656250e+01
4.160000085830688477e-01,2.000000000000000000e+00,-2.341352653503417969e+01,-2.581081390380859375e+00,4.733790206909179688e+01,9.547290802001953125e+01,8.576343536376953125e+01,1.341991424560546875e+02,-1.012633919715881348e+00,-3.258153915405273438e+01,-1.846051330566406250e+02,3.585667800903320312e+01,2.226637268066406250e+01,3.322819900512695312e+01
4.199999868869781494e-01,2.000000000000000000e+00,-2.346757888793945312e+01,-2.545362710952758789e+00,4.729210662841796875e+01,9.547868347167968750e+01,8.576000976562500000e+01,1.341933288574218750e+02,-1.063492178916931152e+00,-3.257602310180664062e+01,-1.845998840332031250e+02,3.585998916625976562e+01,2.228437232971191406e+01,3.322164154052734375e+01
4.239999949932098389e-01,2.000000000000000000e+00,-2.352161788940429688e+01,-2.509651899337768555e+00,4.724632263183593750e+01,9.548445892333984375e+01,8.575658416748046875e+01,1.341875152587890625e+02,-1.114338755607604980e+00,-3.257051467895507812e+01,-1.845946197509765625e+02,3.586330032348632812e+01,2.230236625671386719e+01,3.321508789062500000e+01
4.280000030994415283e-01,2.000000000000000000e+00,-2.357564735412597656e+01,-2.473949432373046875e+00,4.720054626464843750e+01,9.549024200439453125e+01,8.575315856933593750e+01,1.341817016601562500e+02,-1.165173888206481934e+00,-3.256500244140625000e+01,-1.845893707275390625e+02,3.586661529541015625e+01,2.232035446166992188e+01,3.320853424072265625e+01
4.320000112056732178e-01,2.000000000000000000e+00,-2.362966156005859375e+01,-2.438254833221435547e+00,4.715478134155273438e+01,9.549600982666015625e+01,8.574973297119140625e+01,1.341758880615234375e+02,-1.215997457504272461e+00,-3.255949401855468750e+01,-1.845841217041015625e+02,3.586992645263671875e+01,2.233834075927734375e+01,3.320198440551757812e+01
4.359999895095825195e-01,2.000000000000000000e+00,-2.368366432189941406e+01,-2.402568578720092773e+00,4.710902404785156250e+01,9.550178527832031250e+01,8.574630737304687500e+01,1.341700744628906250e+02,-1.266809582710266113e+00,-3.255398559570312500e+01,-1.845788726806640625e+02,3.587323760986328125e+01,2.235632324218750000e+01,3.319543457031250000e+01
4.399999976158142090e-01,2.000000000000000000e+00,-2.373765563964843750e+01,-2.366890192031860352e+00,4.706327819824218750e+01,9.550756072998046875e+01,8.574288177490234375e+01,1.341642761230468750e+02,-1.317610144615173340e+00,-3.254848098754882812e+01,-1.845736236572265625e+02,3.587654876708984375e+01,2.237430000305175781e+01,3.318888854980468750e+01
4.440000057220458984e-01,2.000000000000000000e+00,-2.379163360595703125e+01,-2.331219911575317383e+00,4.701754379272460938e+01,9.551332855224609375e+01,8.573946380615234375e+01,1.341584625244140625e+02,-1.368399143218994141e+00,-3.254297637939453125e+01,-1.845683593750000000e+02,3.587985992431640625e+01,2.239227294921875000e+01,3.318233871459960938e+01
4.480000138282775879e-01,2.000000000000000000e+00,-2.384560012817382812e+01,-2.295557975769042969e+00,4.697182083129882812e+01,9.551909637451171875e+01,8.573603820800781250e+01,1.341526641845703125e+02,-1.419176578521728516e+00,-3.253747177124023438e+01,-1.845631256103515625e+02,3.588316345214843750e+01,2.241024398803710938e+01,3.317579269409179688e+01
4.519999921321868896e-01,2.000000000000000000e+00,-2.389955329895019531e+01,-2.259903907775878906e+00,4.692610549926757812e+01,9.552487182617187500e+01,8.573262023925781250e+01,1.341468505859375000e+02,-1.469942688941955566e+00,-3.253197097778320312e+01,-1.845578765869140625e+02,3.588647460937500000e+01,2.242820930480957031e+01,3.316925048828125000e+01
4.560000002384185791e-01,2.000000000000000000e+00,-2.395349502563476562e+01,-2.224257946014404297e+00,4.688040161132812500e+01,9.553063201904296875e+01,8.572919464111328125e+01,1.341410522460937500e+02,-1.520697116851806641e+00,-3.252646636962890625e+01,-1.845526275634765625e+02,3.588977813720703125e+01,2.244617080688476562e+01,3.316270828247070312e+01
4.600000083446502686e-01,2.000000000000000000e+00,-2.400742530822753906e+01,-2.188620090484619141e+00,4.683470535278320312e+01,9.553639984130859375e+01,8.572577667236328125e+01,1.341352386474609375e+02,-1.571440100669860840e+00,-3.252096939086914062e+01,-1.845473785400390625e+02,3.589308547973632812e+01,2.246412658691406250e+01,3.315616989135742188e+01
4.639999866485595703e-01,2.000000000000000000e+00,-2.406134033203125000e+01,-2.152990579605102539e+00,4.678902816772460938e+01,9.554216003417968750e+01,8.572235870361328125e+01,1.341294403076171875e+02,-1.622171521186828613e+00,-3.251547241210937500e+01,-1.845421447753906250e+02,3.589638900756835938e+01,2.248208045959472656e+01,3.314963150024414062e+01
4.679999947547912598e-01,2.000000000000000000e+00,-2.411524581909179688e+01,-2.117368698120117188e+00,4.674335479736328125e+01,9.554792785644531250e+01,8.571893310546875000e+01,1.341236419677734375e+02,-1.672891497611999512e+00,-3.250997161865234375e+01,-1.845369110107421875e+02,3.589969635009765625e+01,2.250003051757812500e+01,3.314309310913085938e+01
4.720000028610229492e-01,2.000000000000000000e+00,-2.416913986206054688e+01,-2.081755161285400391e+00,4.669768905639648438e+01,9.555368804931640625e+01,8.571552276611328125e+01,1.341178436279296875e+02,-1.723599910736083984e+00,-3.250447463989257812e+01,-1.845316619873046875e+02,3.590300369262695312e+01,2.251797485351562500e+01,3.313655853271484375e+01
4.760000109672546387e-01,2.000000000000000000e+00,-2.422302055358886719e+01,-2.046149730682373047e+00,4.665203857421875000e+01,9.555944824218750000e+01,8.571209716796875000e+01,1.341120452880859375e+02,-1.774296879768371582e+00,-3.249898147583007812e+01,-1.845264282226562500e+02,3.590630340576171875e+01,2.253591537475585938e+01,3.313002014160156250e+01
4.799999892711639404e-01,2.000000000000000000e+00,-2.427688789367675781e+01,-2.010552167892456055e+00,4.660639572143554688e+01,9.556520843505859375e+01,8.570868682861328125e+01,1.341062622070312500e+02,-1.824982404708862305e+00,-3.249348831176757812e+01,-1.845211791992187500e+02,3.590960693359375000e+01,2.255385398864746094e+01,3.312348937988281250e+01
4.839999973773956299e-01,2.000000000000000000e+00,-2.433074378967285156e+01,-1.974962711334228516e+00,4.656076431274414062e+01,9.557096862792968750e+01,8.570526885986328125e+01,1.341004486083984375e+02,-1.875656366348266602e+00,-3.248799514770507812e+01,-1.845159454345703125e+02,3.591291046142578125e+01,2.257178688049316406e+01,3.311695861816406250e+01
4.880000054836273193e-01,2.000000000000000000e+00,-2.438458824157714844e+01,-1.939381480216979980e+00,4.651514434814453125e+01,9.557672119140625000e+01,8.570185089111328125e+01,1.340946655273437500e+02,-1.926318883895874023e+00,-3.248250198364257812e+01,-1.845107116699218750e+02,3.591621017456054688e+01,2.258971595764160156e+01,3.311042404174804688e+01
4.920000135898590088e-01,2.000000000000000000e+00,-2.443842124938964844e+01,-1.903808116912841797e+00,4.646953582763671875e+01,9.558247375488281250e+01,8.569844818115234375e+01,1.340888671875000000e+02,-1.976969838142395020e+00,-3.247701263427734375e+01,-1.845054779052734375e+02,3.591950988769531250e+01,2.260763931274414062e+01,3.310389709472656250e+01
4.959999918937683105e-01,2.000000000000000000e+00,-2.449224090576171875e+01,-1.868242859840393066e+00,4.642393493652343750e+01,9.558823394775390625e+01,8.569503021240234375e+01,1.340830688476562500e+02,-2.027609348297119141e+00,-3.247152709960937500e+01,-1.845002441406250000e+02,3.592280960083007812e+01,2.262556076049804688e+01,3.309737014770507812e+01
5.000000000000000000e-01,2.000000000000000000e+00,-2.454604721069335938e+01,-1.832685828208923340e+00,4.637834548950195312e+01,9.559398651123046875e+01,8.569161224365234375e+01,1.340773010253906250e+02,-2.078237533569335938e+00,-3.246603775024414062e+01,-1.844950103759765625e+02,3.592610931396484375e+01,2.264347839355468750e+01,3.309084701538085938e+01
5.040000081062316895e-01,2.000000000000000000e+00,-2.459984397888183594e+01,-1.797136783599853516e+00,4.633276748657226562e+01,9.559973144531250000e+01,8.568820953369140625e+01,1.340715026855468750e+02,-2.128854036331176758e+00,-3.246054840087890625e+01,-1.844897766113281250e+02,3.592940902709960938e+01,2.266139030456542969e+01,3.308432006835937500e+01
5.080000162124633789e-01,2.000000000000000000e+00,-2.465362548828125000e+01,-1.761595726013183594e+00,4.628719711303710938e+01,9.560548400878906250e+01,8.568479156494140625e+01,1.340657196044921875e+02,-2.179459095001220703e+00,-3.245506668090820312e+01,-1.844845428466796875e+02,3.593270492553710938e+01,2.267929840087890625e+01,3.307779693603515625e+01
5.120000243186950684e-01,2.000000000000000000e+00,-2.470739746093750000e+01,-1.726062655448913574e+00,4.624163818359375000e+01,9.561123657226562500e+01,8.568138122558593750e+01,1.340599365234375000e+02,-2.230052947998046875e+00,-3.244958114624023438e+01,-1.844793090820312500e+02,3.593600082397460938e+01,2.269720458984375000e+01,3.307127761840820312e+01
5.159999728202819824e-01,2.000000000000000000e+00,-2.476115608215332031e+01,-1.690537691116333008e+00,4.619609069824218750e+01,9.561698150634765625e+01,8.567797851562500000e+01,1.340541381835937500e+02,-2.280634880065917969e+00,-3.244409942626953125e+01,-1.844740905761718750e+02,3.593929290771484375e+01,2.271510314941406250e+01,3.306475830078125000e+01
5.199999809265136719e-01,2.000000000000000000e+00,-2.481490135192871094e+01,-1.655020833015441895e+00,4.615055084228515625e+01,9.562272644042968750e+01,8.567456817626953125e+01,1.340483703613281250e+02,-2.331205844879150391e+00,-3.243861770629882812e+01,-1.844688568115234375e+02,3.594258880615234375e+01,2.273300170898437500e+01,3.305823898315429688e+01
5.239999890327453613e-01,2.000000000000000000e+00,-2.486863708496093750e+01,-1.619511961936950684e+00,4.610502243041992188e+01,9.562847900390625000e+01,8.567115783691406250e+01,1.340425872802734375e+02,-2.381765127182006836e+00,-3.243313598632812500e+01,-1.844636383056640625e+02,3.594588470458984375e+01,2.275089645385742188e+01,3.305172348022460938e+01
5.279999971389770508e-01,2.000000000000000000e+00,-2.492235755920410156e+01,-1.584011197090148926e+00,4.605950546264648438e+01,9.563421630859375000e+01,8.566774749755859375e+01,1.340368041992187500e+02,-2.432312965393066406e+00,-3.242765808105468750e+01,-1.844584197998046875e+02,3.594917678833007812e+01,2.276878356933593750e+01,3.304520797729492188e+01
5.320000052452087402e-01,2.000000000000000000e+00,-2.497606849670410156e+01,-1.548518419265747070e+00,4.601399612426757812e+01,9.563995361328125000e+01,8.566435241699218750e+01,1.340310363769531250e+02,-2.482849359512329102e+00,-3.242218017578125000e+01,-1.844532012939453125e+02,3.595247268676757812e+01,2.278666877746582031e+01,3.303869247436523438e+01
5.360000133514404297e-01,2.000000000000000000e+00,-2.502976799011230469e+01,-1.513033628463745117e+00,4.596850204467773438e+01,9.564569854736328125e+01,8.566094207763671875e+01,1.340252532958984375e+02,-2.533374309539794922e+00,-3.241670227050781250e+01,-1.844479827880859375e+02,3.595576477050781250e+01,2.280455017089843750e+01,3.303217697143554688e+01
5.400000214576721191e-01,2.000000000000000000e+00,-2.508345413208007812e+01,-1.477556943893432617e+00,4.592301559448242188e+01,9.565143585205078125e+01,8.565753936767578125e+01,1.340194702148437500e+02,-2.583887815475463867e+00,-3.241122817993164062e+01,-1.844427642822265625e+02,3.595905303955078125e+01,2.282242584228515625e+01,3.302566909790039062e+01
5.440000295639038086e-01,2.000000000000000000e+00,-2.513712692260742188e+01,-1.442088246345520020e+00,4.587753677368164062e+01,9.565717315673828125e+01,8.565412902832031250e+01,1.340137023925781250e+02,-2.634389877319335938e+00,-3.240575408935546875e+01,-1.844375305175781250e+02,3.596234512329101562e+01,2.284029769897460938e+01,3.301916122436523438e+01
5.479999780654907227e-01,2.000000000000000000e+00,-2.519078826904296875e+01,-1.406627655029296875e+00,4.583207321166992188e+01,9.566291046142578125e+01,8.565073394775390625e+01,1.340079193115234375e+02,-2.684880495071411133e+00,-3.240028381347656250e+01,-1.844323120117187500e+02,3.596563720703125000e+01,2.285816574096679688e+01,3.301264953613281250e+01
5.519999861717224121e-01,2.000000000000000000e+00,-2.524443817138671875e+01,-1.371175050735473633e+00,4.578661727905273438e+01,9.566864776611328125e+01,8.564733123779296875e+01,1.340021514892578125e+02,-2.735359907150268555e+00,-3.239480972290039062e+01,-1.844271087646484375e+02,3.596892547607421875e+01,2.287602996826171875e+01,3.300614547729492188e+01
5.559999942779541016e-01,2.000000000000000000e+00,-2.529807472229003906e+01,-1.335730433464050293e+00,4.574117279052734375e+01,9.567438507080078125e+01,8.564392852783203125e+01,1.339963684082031250e+02,-2.785827875137329102e+00,-3.238934326171875000e+01,-1.844218902587890625e+02,3.597221374511718750e+01,2.289388847351074219e+01,3.299963760375976562e+01
5.600000023841857910e-01,2.000000000000000000e+00,-2.535169982910156250e+01,-1.300293803215026855e+00,4.569573593139648438e+01,9.568012237548828125e+01,8.564052581787109375e+01,1.339906158447265625e+02,-2.836284160614013672e+00,-3.238386917114257812e+01,-1.844166717529296875e+02,3.597550201416015625e+01,2.291174507141113281e+01,3.299313735961914062e+01
5.640000104904174805e-01,2.000000000000000000e+00,-2.540531349182128906e+01,-1.264865279197692871e+00,4.565031051635742188e+01,9.568585205078125000e+01,8.563712310791015625e+01,1.339848480224609375e+02,-2.886729001998901367e+00,-3.237840270996093750e+01,-1.844114532470703125e+02,3.597878646850585938e+01,2.292959785461425781e+01,3.298663330078125000e+01
5.680000185966491699e-01,2.000000000000000000e+00,-2.545891380310058594e+01,-1.229444622993469238e+00,4.560489654541015625e+01,9.569158172607421875e+01,8.563372039794921875e+01,1.339790649414062500e+02,-2.937162637710571289e+00,-3.237293624877929688e+01,-1.844062500000000000e+02,3.598207473754882812e+01,2.294744491577148438e+01,3.298013305664062500e+01
5.720000267028808594e-01,2.000000000000000000e+00,-2.551250457763671875e+01,-1.194032073020935059e+00,4.555949401855468750e+01,9.569731140136718750e+01,8.563032531738281250e+01,1.339732971191406250e+02,-2.987584829330444336e+00,-3.236746978759765625e+01,-1.844010314941406250e+02,3.598535919189453125e+01,2.296528816223144531e+01,3.297363281250000000e+01
5.759999752044677734e-01,2.000000000000000000e+00,-2.556608009338378906e+01,-1.158627629280090332e+00,4.551409912109375000e+01,9.570303344726562500e+01,8.562693023681640625e+01,1.339675292968750000e+02,-3.037995576858520508e+00,-3.236200714111328125e+01,-1.843958282470703125e+02,3.598864364624023438e+01,2.298312950134277344e+01,3.296713256835937500e+01
5.799999833106994629e-01,2.000000000000000000e+00,-2.561964416503906250e+01,-1.123231053352355957e+00,4.546871185302734375e+01,9.570876312255859375e+01,8.562353515625000000e+01,1.339617767333984375e+02,-3.088394880294799805e+00,-3.235654449462890625e+01,-1.843906097412109375e+02,3.599192810058593750e+01,2.300096511840820312e+01,3.296063995361328125e+01
5.839999914169311523e-01,2.000000000000000000e+00,-2.567319488525390625e+01,-1.087842583656311035e+00,4.542333984375000000e+01,9.571448516845703125e+01,8.562014007568359375e+01,1.339560241699218750e+02,-3.138782978057861328e+00,-3.235108184814453125e+01,-1.843853912353515625e+02,3.599520874023437500e+01,2.301879692077636719e+01,3.295414352416992188e+01
5.879999995231628418e-01,2.000000000000000000e+00,-2.572673606872558594e+01,-1.052462100982666016e+00,4.537797927856445312e+01,9.572021484375000000e+01,8.561674499511718750e+01,1.339502563476562500e+02,-3.189159393310546875e+00,-3.234562301635742188e+01,-1.843801879882812500e+02,3.599849700927734375e+01,2.303662300109863281e+01,3.294765090942382812e+01
5.920000076293945312e-01,2.000000000000000000e+00,-2.578026390075683594e+01,-1.017089605331420898e+00,4.533262634277343750e+01,9.572593688964843750e+01,8.561334991455078125e+01,1.339444885253906250e+02,-3.239524602890014648e+00,-3.234016418457031250e+01,-1.843749847412109375e+02,3.600177764892578125e+01,2.305444717407226562e+01,3.294115829467773438e+01
5.960000157356262207e-01,2.000000000000000000e+00,-2.583378028869628906e+01,-9.817249774932861328e-01,4.528728485107421875e+01,9.573165893554687500e+01,8.560995483398437500e+01,1.339387359619140625e+02,-3.289878368377685547e+00,-3.233470535278320312e+01,-1.843697814941406250e+02,3.600505447387695312e+01,2.307226753234863281e+01,3.293466949462890625e+01
6.000000238418579102e-01,2.000000000000000000e+00,-2.588728523254394531e+01,-9.463685154914855957e-01,4.524195098876953125e+01,9.573737335205078125e+01,8.560655975341796875e+01,1.339329833984375000e+02,-3.340220928192138672e+00,-3.232925033569335938e+01,-1.843645782470703125e+02,3.600833892822265625e+01,2.309008407592773438e+01,3.292818069458007812e+01
6.039999723434448242e-01,2.000000000000000000e+00,-2.594077682495117188e+01,-9.110199213027954102e-01,4.519662475585937500e+01,9.574309539794921875e+01,8.560317230224609375e+01,1.339272308349609375e+02,-3.390551805496215820e+00,-3.232379150390625000e+01,-1.843593902587890625e+02,3.601161575317382812e+01,2.310789489746093750e+01,3.292169189453125000e+01
6.079999804496765137e-01,2.000000000000000000e+00,-2.599425697326660156e+01,-8.756794333457946777e-01,4.515131378173828125e+01,9.574881744384765625e+01,8.559977722167968750e+01,1.339214782714843750e+02,-3.440871238708496094e+00,-3.231833648681640625e+01,-1.843541870117187500e+02,3.601489639282226562e+01,2.312569999694824219e+01,3.291520690917968750e+01
6.119999885559082031e-01,2.000000000000000000e+00,-2.604772377014160156e+01,-8.403468132019042969e-01,4.510601425170898438e+01,9.575452423095703125e+01,8.559638977050781250e+01,1.339157257080078125e+02,-3.491179466247558594e+00,-3.231288909912109375e+01,-1.843489837646484375e+02,3.601817321777343750e+01,2.314350509643554688e+01,3.290872192382812500e+01
6.159999966621398926e-01,2.000000000000000000e+00,-2.610118103027343750e+01,-8.050221800804138184e-01,4.506072235107421875e+01,9.576024627685546875e+01,8.559299468994140625e+01,1.339099731445312500e+02,-3.541476488113403320e+00,-3.230743408203125000e+01,-1.843437957763671875e+02,3.602145004272460938e+01,2.316130447387695312e+01,3.290224075317382812e+01
6.200000047683715820e-01,2.000000000000000000e+00,-2.615462303161621094e+01,-7.697054743766784668e-01,4.501544189453125000e+01,9.576596069335937500e+01,8.558960723876953125e+01,1.339042205810546875e+02,-3.591762065887451172e+00,-3.230198287963867188e+01,-1.843385772705078125e+02,3.602472686767578125e+01,2.317910003662109375e+01,3.289575958251953125e+01
6.240000128746032715e-01,2.000000000000000000e+00,-2.620805549621582031e+01,-7.343967556953430176e-01,4.497016906738281250e+01,9.577166748046875000e+01,8.558621978759765625e+01,1.338984680175781250e+02,-3.642036199569702148e+00,-3.229653549194335938e+01,-1.843333892822265625e+02,3.602799987792968750e+01,2.319688987731933594e+01,3.288927841186523438e+01
6.280000209808349609e-01,2.000000000000000000e+00,-2.626147651672363281e+01,-6.990958452224731445e-01,4.492490768432617188e+01,9.577738189697265625e+01,8.558283233642578125e+01,1.338927154541015625e+02,-3.692299127578735352e+00,-3.229108428955078125e+01,-1.843282012939453125e+02,3.603127670288085938e+01,2.321467781066894531e+01,3.288279724121093750e+01
6.320000290870666504e-01,2.000000000000000000e+00,-2.631488418579101562e+01,-6.638029217720031738e-01,4.487965774536132812e+01,9.578308868408203125e+01,8.557944488525390625e+01,1.338869628906250000e+02,-3.742550611495971680e+00,-3.228563690185546875e+01,-1.843230133056640625e+02,3.603455352783203125e+01,2.323246192932128906e+01,3.287632369995117188e+01
6.359999775886535645e-01,2.000000000000000000e+00,-2.636828041076660156e+01,-6.285179257392883301e-01,4.483441925048828125e+01,9.578880310058593750e+01,8.557605743408203125e+01,1.338812255859375000e+02,-3.792790889739990234e+00,-3.228019332885742188e+01,-1.843178253173828125e+02,3.603782653808593750e+01,2.325024032592773438e+01,3.286984634399414062e+01
6.399999856948852539e-01,2.000000000000000000e+00,-2.642166328430175781e+01,-5.932407975196838379e-01,4.478918838500976562e+01,9.579450988769531250e+01,8.557267761230468750e+01,1.338754730224609375e+02,-3.843019962310791016e+00,-3.227474975585937500e+01,-1.843126220703125000e+02,3.604109954833984375e+01,2.326801681518554688e+01,3.286337280273437500e+01
6.439999938011169434e-01,2.000000000000000000e+00,-2.647503662109375000e+01,-5.579715371131896973e-01,4.474396514892578125e+01,9.580021667480468750e+01,8.556929016113281250e+01,1.338697357177734375e+02,-3.893238067626953125e+00,-3.226930618286132812e+01,-1.843074340820312500e+02,3.604436874389648438e+01,2.328578948974609375e+01,3.285689926147460938e+01
6.480000019073486328e-01,2.000000000000000000e+00,-2.652839660644531250e+01,-5.227101445198059082e-01,4.469875717163085938e+01,9.580591583251953125e+01,8.556590270996093750e+01,1.338639984130859375e+02,-3.943444728851318359e+00,-3.226386260986328125e+01,-1.843022460937500000e+02,3.604764175415039062e+01,2.330355644226074219e+01,3.285042572021484375e+01
6.520000100135803223e-01,2.000000000000000000e+00,-2.658174324035644531e+01,-4.874566197395324707e-01,4.465355300903320312e+01,9.581162261962890625e+01,8.556251525878906250e+01,1.338582611083984375e+02,-3.993640184402465820e+00,-3.225842285156250000e+01,-1.842970581054687500e+02,3.605091476440429688e+01,2.332131958007812500e+01,3.284395980834960938e+01
6.560000181198120117e-01,2.000000000000000000e+00,-2.663508033752441406e+01,-4.522109329700469971e-01,4.460836410522460938e+01,9.581732177734375000e+01,8.555913543701171875e+01,1.338525238037109375e+02,-4.043824672698974609e+00,-3.225298309326171875e+01,-1.842918701171875000e+02,3.605418014526367188e+01,2.333907699584960938e+01,3.283749008178710938e+01
6.600000262260437012e-01,2.000000000000000000e+00,-2.668840599060058594e+01,-4.169730544090270996e-01,4.456318283081054688e+01,9.582302856445312500e+01,8.555575561523437500e+01,1.338467864990234375e+02,-4.093997955322265625e+00,-3.224754714965820312e+01,-1.842866821289062500e+02,3.605744934082031250e+01,2.335683441162109375e+01,3.283102416992187500e+01
6.639999747276306152e-01,2.000000000000000000e+00,-2.674171829223632812e+01,-3.817430138587951660e-01,4.451801681518554688e+01,9.582872009277343750e+01,8.555237579345703125e+01,1.338410491943359375e+02,-4.144160270690917969e+00,-3.224211120605468750e+01,-1.842814941406250000e+02,3.606071853637695312e+01,2.337458610534667969e+01,3.282455825805664062e+01
6.679999828338623047e-01,2.000000000000000000e+00,-2.679501914978027344e+01,-3.465207815170288086e-01,4.447285461425781250e+01,9.583442687988281250e+01,8.554899597167968750e+01,1.338353118896484375e+02,-4.194310665130615234e+00,-3.223667144775390625e+01,-1.842763214111328125e+02,3.606398773193359375e+01,2.339233207702636719e+01,3.281809234619140625e+01
6.719999909400939941e-01,2.000000000000000000e+00,-2.684830856323242188e+01,-3.113062977790832520e-01,4.442770385742187500e+01,9.584012603759765625e+01,8.554561614990234375e+01,1.338295745849609375e+02,-4.244450569152832031e+00,-3.223123931884765625e+01,-1.842711486816406250e+02,3.606725311279296875e+01,2.341007804870605469e+01,3.281162643432617188e+01
6.759999990463256836e-01,2.000000000000000000e+00,-2.690158462524414062e+01,-2.760996520519256592e-01,4.438256454467773438e+01,9.584581756591796875e+01,8.554223632812500000e+01,1.338238372802734375e+02,-4.294579982757568359e+00,-3.222580718994140625e+01,-1.842659454345703125e+02,3.607051849365234375e+01,2.342781639099121094e+01,3.280516815185546875e+01
6.800000071525573730e-01,2.000000000000000000e+00,-2.695484924316406250e+01,-2.409007698297500610e-01,4.433743286132812500e+01,9.585150909423828125e+01,8.553885650634765625e+01,1.338181152343750000e+02,-4.344697952270507812e+00,-3.222037124633789062e+01,-1.842607727050781250e+02,3.607378768920898438e+01,2.344555282592773438e+01,3.279870986938476562e+01
6.840000152587890625e-01,2.000000000000000000e+00,-2.700810432434082031e+01,-2.057096511125564575e-01,4.429231262207031250e+01,9.585720825195312500e+01,8.553548431396484375e+01,1.338123779296875000e+02,-4.394804477691650391e+00,-3.221494293212890625e+01,-1.842555999755859375e+02,3.607705307006835938e+01,2.346328544616699219e+01,3.279225158691406250e+01
6.880000233650207520e-01,2.000000000000000000e+00,-2.706134605407714844e+01,-1.705262809991836548e-01,4.424720382690429688e+01,9.586289215087890625e+01,8.553210449218750000e+01,1.338066558837890625e+02,-4.444900512695312500e+00,-3.220951461791992188e+01,-1.842504272460937500e+02,3.608031463623046875e+01,2.348101425170898438e+01,3.278579330444335938e+01
6.919999718666076660e-01,2.000000000000000000e+00,-2.711457633972167969e+01,-1.353506594896316528e-01,4.420210266113281250e+01,9.586859130859375000e+01,8.552873229980468750e+01,1.338009338378906250e+02,-4.494985103607177734e+00,-3.220408248901367188e+01,-1.842452392578125000e+02,3.608358001708984375e+01,2.349873924255371094e+01,3.277933502197265625e+01
6.959999799728393555e-01,2.000000000000000000e+00,-2.716779518127441406e+01,-1.001827642321586609e-01,4.415700912475585938e+01,9.587428283691406250e+01,8.552535247802734375e+01,1.337952117919921875e+02,-4.545058727264404297e+00,-3.219865798950195312e+01,-1.842400665283203125e+02,3.608684158325195312e+01,2.351645851135253906e+01,3.277288436889648438e+01
6.999999880790710449e-01,2.000000000000000000e+00,-2.722100257873535156e+01,-6.502261757850646973e-02,4.411193084716796875e+01,9.587996673583984375e+01,8.552198028564453125e+01,1.337894897460937500e+02,-4.595121860504150391e+00,-3.219322967529296875e+01,-1.842349090576171875e+02,3.609010314941406250e+01,2.353417587280273438e+01,3.276642990112304688e+01
7.039999961853027344e-01,2.000000000000000000e+00,-2.727419662475585938e+01,-2.987019531428813934e-02,4.406685638427734375e+01,9.588565063476562500e+01,8.551860809326171875e+01,1.337837677001953125e+02,-4.645173549652099609e+00,-3.218780136108398438e+01,-1.842297210693359375e+02,3.609336471557617188e+01,2.355188751220703125e+01,3.275997924804687500e+01
7.080000042915344238e-01,2.000000000000000000e+00,-2.732738113403320312e+01,5.274489056318998337e-03,4.402180099487304688e+01,9.589133453369140625e+01,8.551523590087890625e+01,1.337780456542968750e+02,-4.695214271545410156e+00,-3.218238067626953125e+01,-1.842245483398437500e+02,3.609662628173828125e+01,2.356959724426269531e+01,3.275352859497070312e+01
7.120000123977661133e-01,2.000000000000000000e+00,-2.738055229187011719e+01,4.041144624352455139e-02,4.397674560546875000e+01,9.589702606201171875e+01,8.551186370849609375e+01,1.337723236083984375e+02,-4.745244026184082031e+00,-3.217695617675781250e+01,-1.842193908691406250e+02,3.609988784790039062e+01,2.358730125427246094e+01,3.274707794189453125e+01
7.160000205039978027e-01,2.000000000000000000e+00,-2.743371200561523438e+01,7.554066926240921021e-02,4.393170547485351562e+01,9.590270996093750000e+01,8.550849151611328125e+01,1.337665863037109375e+02,-4.795262813568115234e+00,-3.217153549194335938e+01,-1.842142028808593750e+02,3.610314559936523438e+01,2.360500335693359375e+01,3.274063110351562500e+01
7.200000286102294922e-01,2.000000000000000000e+00,-2.748686027526855469e+01,1.106621697545051575e-01,4.388667297363281250e+01,9.590839385986328125e+01,8.550512695312500000e+01,1.337608795166015625e+02,-4.845270633697509766e+00,-3.216611480712890625e+01,-1.842090454101562500e+02,3.610640335083007812e+01,2.362269973754882812e+01,3.273418807983398438e+01
7.239999771118164062e-01,2.000000000000000000e+00,-2.753999519348144531e+01,1.457759588956832886e-01,4.384165191650390625e+01,9.591407012939453125e+01,8.550174713134765625e+01,1.337551574707031250e+02,-4.895267486572265625e+00,-3.216069793701171875e+01,-1.842038726806640625e+02,3.610966110229492188e+01,2.364039230346679688e+01,3.272774124145507812e+01
7.279999852180480957e-01,2.000000000000000000e+00,-2.759312057495117188e+01,1.808820217847824097e-01,4.379664230346679688e+01,9.591974639892578125e+01,8.549838256835937500e+01,1.337494506835937500e+02,-4.945252895355224609e+00,-3.215527725219726562e+01,-1.841987152099609375e+02,3.611291885375976562e+01,2.365808105468750000e+01,3.272129821777343750e+01
7.319999933242797852e-01,2.000000000000000000e+00,-2.764623451232910156e+01,2.159803658723831177e-01,4.375164031982421875e+01,9.592542266845703125e+01,8.549501800537109375e+01,1.337437286376953125e+02,-4.995227813720703125e+00,-3.214986038208007812e+01,-1.841935577392578125e+02,3.611617279052734375e+01,2.367576789855957031e+01,3.271485900878906250e+01
7.360000014305114746e-01,2.000000000000000000e+00,-2.769933509826660156e+01,2.510710060596466064e-01,4.370664978027343750e+01,9.593110656738281250e+01,8.549164581298828125e+01,1.337380218505859375e+02,-5.045191764831542969e+00,-3.214444351196289062e+01,-1.841883850097656250e+02,3.611943054199218750e+01,2.369344902038574219e+01,3.270841598510742188e+01
7.400000095367431641e-01,2.000000000000000000e+00,-2.775242424011230469e+01,2.861539125442504883e-01,4.366166687011718750e+01,9.593678283691406250e+01,8.548828125000000000e+01,1.337322998046875000e+02,-5.095144271850585938e+00,-3.213903045654296875e+01,-1.841832275390625000e+02,3.612268447875976562e+01,2.371112632751464844e+01,3.270198059082031250e+01
7.440000176429748535e-01,2.000000000000000000e+00,-2.780550384521484375e+01,3.212291300296783447e-01,4.361669540405273438e+01,9.594245147705078125e+01,8.548491668701171875e+01,1.337265930175781250e+02,-5.145086288452148438e+00,-3.213361740112304688e+01,-1.841780548095703125e+02,3.612593460083007812e+01,2.372880172729492188e+01,3.269554138183593750e+01
7.480000257492065430e-01,2.000000000000000000e+00,-2.785857009887695312e+01,3.562966287136077881e-01,4.357173538208007812e+01,9.594812774658203125e+01,8.548154449462890625e+01,1.337208862304687500e+02,-5.195017337799072266e+00,-3.212820434570312500e+01,-1.841728973388671875e+02,3.612919235229492188e+01,2.374647140502929688e+01,3.268910598754882812e+01
7.519999742507934570e-01,2.000000000000000000e+00,-2.791162490844726562e+01,3.913564383983612061e-01,4.352678298950195312e+01,9.595380401611328125e+01,8.547818756103515625e+01,1.337151794433593750e+02,-5.244936943054199219e+00,-3.212279510498046875e+01,-1.841677398681640625e+02,3.613244628906250000e+01,2.376413536071777344e+01,3.268267059326171875e+01
7.559999823570251465e-01,2.000000000000000000e+00,-2.796466827392578125e+01,4.264085590839385986e-01,4.348183822631835938e+01,9.595947265625000000e+01,8.547481536865234375e+01,1.337094573974609375e+02,-5.294846057891845703e+00,-3.211738586425781250e+01,-1.841625823974609375e+02,3.613569641113281250e+01,2.378179931640625000e+01,3.267623519897460938e+01
7.599999904632568359e-01,2.000000000000000000e+00,-2.801770019531250000e+01,4.614529609680175781e-01,4.343690490722656250e+01,9.596514129638671875e+01,8.547145843505859375e+01,1.337037506103515625e+02,-5.344743728637695312e+00,-3.211197662353515625e+01,-1.841574249267578125e+02,3.613894653320312500e+01,2.379945564270019531e+01,3.266980743408203125e+01
7.639999985694885254e-01,2.000000000000000000e+00,-2.807072067260742188e+01,4.964896440505981445e-01,4.339198303222656250e+01,9.597080993652343750e+01,8.546810150146484375e+01,1.336980590820312500e+02,-5.394631385803222656e+00,-3.210656738281250000e+01,-1.841522674560546875e+02,3.614220046997070312e+01,2.381711006164550781e+01,3.266337585449218750e+01
7.680000066757202148e-01,2.000000000000000000e+00,-2.812372779846191406e+01,5.315186381340026855e-01,4.334707260131835938e+01,9.597647857666015625e+01,8.546472930908203125e+01,1.336923522949218750e+02,-5.444507122039794922e+00,-3.210116195678710938e+01,-1.841471099853515625e+02,3.614544677734375000e+01,2.383476066589355469e+01,3.265694808959960938e+01
7.720000147819519043e-01,2.000000000000000000e+00,-2.817672538757324219e+01,5.665399432182312012e-01,4.330216979980468750e+01,9.598213958740234375e+01,8.546137237548828125e+01,1.336866455078125000e+02,-5.494371891021728516e+00,-3.209576034545898438e+01,-1.841419525146484375e+02,3.614869689941406250e+01,2.385240936279296875e+01,3.265052032470703125e+01
7.760000228881835938e-01,2.000000000000000000e+00,-2.822970962524414062e+01,6.015536785125732422e-01,4.325727462768554688e+01,9.598780822753906250e+01,8.545800781250000000e+01,1.336809387207031250e+02,-5.544226169586181641e+00,-3.209035491943359375e+01,-1.841368103027343750e+02,3.615194702148437500e+01,2.387005233764648438e+01,3.264409255981445312e+01
7.799999713897705078e-01,2.000000000000000000e+00,-2.828268241882324219e+01,6.365596055984497070e-01,4.321239471435546875e+01,9.599347686767578125e+01,8.545465850830078125e+01,1.336752471923828125e+02,-5.594069480895996094e+00,-3.208495330810546875e+01,-1.841316528320312500e+02,3.615519332885742188e+01,2.388768959045410156e+01,3.263766860961914062e+01
7.839999794960021973e-01,2.000000000000000000e+00,-2.833564376831054688e+01,6.715578436851501465e-01,4.316751861572265625e+01,9.599913787841796875e+01,8.545129394531250000e+01,1.336695556640625000e+02,-5.643901824951171875e+00,-3.207955169677734375e+01,-1.841265106201171875e+02,3.615843963623046875e+01,2.390532493591308594e+01,3.263124465942382812e+01
7.879999876022338867e-01,2.000000000000000000e+00,-2.838859558105468750e+01,7.065484523773193359e-01,4.312265777587890625e+01,9.600479125976562500e+01,8.544793701171875000e+01,1.336638488769531250e+02,-5.693723201751708984e+00,-3.207415390014648438e+01,-1.841213531494140625e+02,3.616168594360351562e+01,2.392295646667480469e+01,3.262482452392578125e+01
7.919999957084655762e-01,2.000000000000000000e+00,-2.844153213500976562e+01,7.415313124656677246e-01,4.307780456542968750e+01,9.601045227050781250e+01,8.544458007812500000e+01,1.336581573486328125e+02,-5.743533611297607422e+00,-3.206875228881835938e+01,-1.841162109375000000e+02,3.616493225097656250e+01,2.394058418273925781e+01,3.261840438842773438e+01
7.960000038146972656e-01,2.000000000000000000e+00,-2.849446105957031250e+01,7.765066027641296387e-01,4.303296279907226562e+01,9.601611328125000000e+01,8.544122314453125000e+01,1.336524658203125000e+02,-5.793333053588867188e+00,-3.206335449218750000e+01,-1.841110534667968750e+02,3.616817855834960938e+01,2.395820617675781250e+01,3.261198425292968750e+01
8.000000119209289551e-01,2.000000000000000000e+00,-2.854737472534179688e+01,8.114742040634155273e-01,4.298812484741210938e+01,9.602177429199218750e+01,8.543786621093750000e+01,1.336467590332031250e+02,-5.843121528625488281e+00,-3.205795669555664062e+01,-1.841059265136718750e+02,3.617142105102539062e+01,2.397582626342773438e+01,3.260556793212890625e+01
8.040000200271606445e-01,2.000000000000000000e+00,-2.860027885437011719e+01,8.464340567588806152e-01,4.294330215454101562e+01,9.602742767333984375e+01,8.543451690673828125e+01,1.336410827636718750e+02,-5.892899036407470703e+00,-3.205256271362304688e+01,-1.841007690429687500e+02,3.617466354370117188e+01,2.399344253540039062e+01,3.259915161132812500e+01
8.080000281333923340e-01,2.000000000000000000e+00,-2.865316963195800781e+01,8.813862800598144531e-01,4.289849090576171875e+01,9.603308105468750000e+01,8.543115997314453125e+01,1.336353912353515625e+02,-5.942666053771972656e+00,-3.204716873168945312e+01,-1.840956420898437500e+02,3.617790603637695312e+01,2.401105308532714844e+01,3.259273910522460938e+01
8.119999766349792480e-01,2.000000000000000000e+00,-2.870605278015136719e+01,9.163308143615722656e-01,4.285368347167968750e+01,9.603873443603515625e+01,8.542780303955078125e+01,1.336296997070312500e+02,-5.992421627044677734e+00,-3.204177474975585938e+01,-1.840904846191406250e+02,3.618114852905273438e+01,2.402866172790527344e+01,3.258632278442382812e+01
8.159999847412109375e-01,2.000000000000000000e+00,-2.875892257690429688e+01,9.512677788734436035e-01,4.280889129638671875e+01,9.604438781738281250e+01,8.542445373535156250e+01,1.336240081787109375e+02,-6.042166709899902344e+00,-3.203638076782226562e+01,-1.840853424072265625e+02,3.618439102172851562e+01,2.404626464843750000e+01,3.257991027832031250e+01
8.199999928474426270e-01,2.000000000000000000e+00,-2.881177711486816406e+01,9.861970543861389160e-01,4.276410675048828125e+01,9.605003356933593750e+01,8.542109680175781250e+01,1.336183166503906250e+02,-6.091900348663330078e+00,-3.203099060058593750e+01,-1.840802154541015625e+02,3.618762969970703125e+01,2.406386756896972656e+01,3.257350158691406250e+01
8.240000009536743164e-01,2.000000000000000000e+00,-2.886462211608886719e+01,1.021118640899658203e+00,4.271932983398437500e+01,9.605568695068359375e+01,8.541774749755859375e+01,1.336126403808593750e+02,-6.141623973846435547e+00,-3.202560424804687500e+01,-1.840750579833984375e+02,3.619087219238281250e+01,2.408146286010742188e+01,3.256709289550781250e+01
8.280000090599060059e-01,2.000000000000000000e+00,-2.891745758056640625e+01,1.056032538414001465e+00,4.267456436157226562e+01,9.606134033203125000e+01,8.541439819335937500e+01,1.336069488525390625e+02,-6.191336154937744141e+00,-3.202021408081054688e+01,-1.840699310302734375e+02,3.619410705566406250e+01,2.409905624389648438e+01,3.256068420410156250e+01
8.320000171661376953e-01,2.000000000000000000e+00,-2.897028160095214844e+01,1.090938806533813477e+00,4.262981033325195312e+01,9.606697845458984375e+01,8.541104888916015625e+01,1.336012573242187500e+02,-6.241037368774414062e+00,-3.201482772827148438e+01,-1.840647888183593750e+02,3.619734954833984375e+01,2.411664390563964844e+01,3.255427551269531250e+01
8.360000252723693848e-01,2.000000000000000000e+00,-2.902309226989746094e+01,1.125837445259094238e+00,4.258506393432617188e+01,9.607263183593750000e+01,8.540769958496093750e+01,1.335955810546875000e+02,-6.290727615356445312e+00,-3.200943756103515625e+01,-1.840596466064453125e+02,3.620058822631835938e+01,2.413422775268554688e+01,3.254787445068359375e+01
8.399999737739562988e-01,2.000000000000000000e+00,-2.907588958740234375e+01,1.160728454589843750e+00,4.254032897949218750e+01,9.607827758789062500e+01,8.540435028076171875e+01,1.335899047851562500e+02,-6.340406894683837891e+00,-3.200405883789062500e+01,-1.840545349121093750e+02,3.620382308959960938e+01,2.415180778503417969e+01,3.254146957397460938e+01
8.439999818801879883e-01,2.000000000000000000e+00,-2.912867736816406250e+01,1.195611834526062012e+00,4.249560546875000000e+01,9.608391571044921875e+01,8.540100860595703125e+01,1.335842285156250000e+02,-6.390075683593750000e+00,-3.199867248535156250e+01,-1.840493927001953125e+02,3.620705795288085938e+01,2.416938591003417969e+01,3.253506851196289062e+01
8.479999899864196777e-01,2.000000000000000000e+00,-2.918145370483398438e+01,1.230487465858459473e+00,4.245088577270507812e+01,9.608956146240234375e+01,8.539765930175781250e+01,1.335785369873046875e+02,-6.439733505249023438e+00,-3.199328994750976562e+01,-1.840442504882812500e+02,3.621029663085937500e+01,2.418696022033691406e+01,3.252866744995117188e+01
8.519999980926513672e-01,2.000000000000000000e+00,-2.923422050476074219e+01,1.265355587005615234e+00,4.240617752075195312e+01,9.609519958496093750e+01,8.539430999755859375e+01,1.335728759765625000e+02,-6.489380359649658203e+00,-3.198790740966796875e+01,-1.840391387939453125e+02,3.621353149414062500e+01,2.420452880859375000e+01,3.252226638793945312e+01
8.560000061988830566e-01,2.000000000000000000e+00,-2.928697395324707031e+01,1.300216078758239746e+00,4.236148452758789062e+01,9.610084533691406250e+01,8.539096832275390625e+01,1.335671997070312500e+02,-6.539016723632812500e+00,-3.198252868652343750e+01,-1.840339965820312500e+02,3.621676254272460938e+01,2.422209548950195312e+01,3.251586914062500000e+01
8.600000143051147461e-01,2.000000000000000000e+00,-2.933971405029296875e+01,1.335068821907043457e+00,4.231679916381835938e+01,9.610647583007812500e+01,8.538761901855468750e+01,1.335615234375000000e+02,-6.588641643524169922e+00,-3.197714996337890625e+01,-1.840288696289062500e+02,3.621999740600585938e+01,2.423965644836425781e+01,3.250947570800781250e+01
8.640000224113464355e-01,2.000000000000000000e+00,-2.939244651794433594e+01,1.369913935661315918e+00,4.227212142944335938e+01,9.611211395263671875e+01,8.538427734375000000e+01,1.335558471679687500e+02,-6.638255596160888672e+00,-3.197177124023437500e+01,-1.840237426757812500e+02,3.622322845458984375e+01,2.425721359252929688e+01,3.250307846069335938e+01
8.679999709129333496e-01,2.000000000000000000e+00,-2.944516181945800781e+01,1.404751539230346680e+00,4.222745513916015625e+01,9.611775970458984375e+01,8.538092803955078125e+01,1.335501708984375000e+02,-6.687859058380126953e+00,-3.196639633178710938e+01,-1.840186157226562500e+02,3.622646331787109375e+01,2.427476692199707031e+01,3.249668502807617188e+01
8.719999790191650391e-01,2.000000000000000000e+00,-2.949786949157714844e+01,1.439581513404846191e+00,4.218279647827148438e+01,9.612339019775390625e+01,8.537759399414062500e+01,1.335444946289062500e+02,-6.737452030181884766e+00,-3.196101951599121094e+01,-1.840134887695312500e+02,3.622969436645507812e+01,2.429231834411621094e+01,3.249029159545898438e+01
8.759999871253967285e-01,2.000000000000000000e+00,-2.955056381225585938e+01,1.474403858184814453e+00,4.213814926147460938e+01,9.612902069091796875e+01,8.537425231933593750e+01,1.335388336181640625e+02,-6.787033557891845703e+00,-3.195564460754394531e+01,-1.840083770751953125e+02,3.623292541503906250e+01,2.430986404418945312e+01,3.248390197753906250e+01
8.799999952316284180e-01,2.000000000000000000e+00,-2.960324859619140625e+01,1.509218454360961914e+00,4.209350967407226562e+01,9.613465118408203125e+01,8.537090301513671875e+01,1.335331573486328125e+02,-6.836604595184326172e+00,-3.195027351379394531e+01,-1.840032501220703125e+02,3.623615646362304688e+01,2.432740783691406250e+01,3.247751235961914062e+01
8.840000033378601074e-01,2.000000000000000000e+00,-2.965592002868652344e+01,1.544025540351867676e+00,4.204888153076171875e+01,9.614028930664062500e+01,8.536756134033203125e+01,1.335274963378906250e+02,-6.886164188385009766e+00,-3.194490051269531250e+01,-1.839981231689453125e+02,3.623938369750976562e+01,2.434494590759277344e+01,3.247112274169921875e+01
8.880000114440917969e-01,2.000000000000000000e+00,-2.970858001708984375e+01,1.578824877738952637e+00,4.200426483154296875e+01,9.614591979980468750e+01,8.536422729492187500e+01,1.335218200683593750e+02,-6.935713768005371094e+00,-3.193952941894531250e+01,-1.839930114746093750e+02,3.624261474609375000e+01,2.436248016357421875e+01,3.246473693847656250e+01
8.920000195503234863e-01,2.000000000000000000e+00,-2.976123237609863281e+01,1.613616704940795898e+00,4.195965576171875000e+01,9.615154266357421875e+01,8.536089324951171875e+01,1.335161743164062500e+02,-6.985251903533935547e+00,-3.193416023254394531e+01,-1.839878845214843750e+02,3.624584197998046875e+01,2.438001251220703125e+01,3.245835494995117188e+01
8.960000276565551758e-01,2.000000000000000000e+00,-2.981386756896972656e+01,1.648401021957397461e+00,4.191505813598632812e+01,9.615717315673828125e+01,8.535755157470703125e+01,1.335104980468750000e+02,-7.034779548645019531e+00,-3.192879104614257812e+01,-1.839827575683593750e+02,3.624906921386718750e+01,2.439753913879394531e+01,3.245196914672851562e+01
8.999999761581420898e-01,2.000000000000000000e+00,-2.986649513244628906e+01,1.683177590370178223e+00,4.187047195434570312e+01,9.616280364990234375e+01,8.535420989990234375e+01,1.335048370361328125e+02,-7.084296226501464844e+00,-3.192342758178710938e+01,-1.839776458740234375e+02,3.625229263305664062e+01,2.441506195068359375e+01,3.244558334350585938e+01
9.039999842643737793e-01,2.000000000000000000e+00,-2.991911125183105469e+01,1.717946648597717285e+00,4.182588958740234375e+01,9.616841888427734375e+01,8.535087585449218750e+01,1.334991760253906250e+02,-7.133801937103271484e+00,-3.191805839538574219e+01,-1.839725341796875000e+02,3.625551986694335938e+01,2.443258094787597656e+01,3.243920516967773438e+01
9.079999923706054688e-01,2.000000000000000000e+00,-2.997171401977539062e+01,1.752708077430725098e+00,4.178131866455078125e+01,9.617404937744140625e+01,8.534754180908203125e+01,1.334935150146484375e+02,-7.183297157287597656e+00,-3.191269302368164062e+01,-1.839674224853515625e+02,3.625874328613281250e+01,2.445009613037109375e+01,3.243282699584960938e+01
9.120000004768371582e-01,2.000000000000000000e+00,-3.002430725097656250e+01,1.787461876869201660e+00,4.173675918579101562e+01,9.617967224121093750e+01,8.534420776367187500e+01,1.334878540039062500e+02,-7.232780933380126953e+00,-3.190733146667480469e+01,-1.839622955322265625e+02,3.626196670532226562e+01,2.446760940551757812e+01,3.242644500732421875e+01
9.160000085830688477e-01,2.000000000000000000e+00,-3.007688522338867188e+01,1.822208046913146973e+00,4.169221115112304688e+01,9.618529510498046875e+01,8.534087371826171875e+01,1.334821929931640625e+02,-7.282254695892333984e+00,-3.190196990966796875e+01,-1.839571838378906250e+02,3.626519012451171875e+01,2.448511695861816406e+01,3.242007064819335938e+01
9.200000166893005371e-01,2.000000000000000000e+00,-3.012945365905761719e+01,1.856946825981140137e+00,4.164767074584960938e+01,9.619091796875000000e+01,8.533753967285156250e+01,1.334765472412109375e+02,-7.331717014312744141e+00,-3.189660835266113281e+01,-1.839520721435546875e+02,3.626841354370117188e+01,2.450262069702148438e+01,3.241369628906250000e+01
9.240000247955322266e-01,2.000000000000000000e+00,-3.018201255798339844e+01,1.891677737236022949e+00,4.160314178466796875e+01,9.619652557373046875e+01,8.533420562744140625e+01,1.334708862304687500e+02,-7.381168842315673828e+00,-3.189124679565429688e+01,-1.839469757080078125e+02,3.627163696289062500e+01,2.452012062072753906e+01,3.240731811523437500e+01
9.279999732971191406e-01,2.000000000000000000e+00,-3.023455619812011719e+01,1.926401257514953613e+00,4.155861663818359375e+01,9.620214843750000000e+01,8.533087158203125000e+01,1.334652252197265625e+02,-7.430609703063964844e+00,-3.188588905334472656e+01,-1.839418640136718750e+02,3.627486038208007812e+01,2.453761863708496094e+01,3.240094757080078125e+01
9.319999814033508301e-01,2.000000000000000000e+00,-3.028709030151367188e+01,1.961117029190063477e+00,4.151411056518554688e+01,9.620776367187500000e+01,8.532753753662109375e+01,1.334595947265625000e+02,-7.480040073394775391e+00,-3.188052940368652344e+01,-1.839367523193359375e+02,3.627807998657226562e+01,2.455511093139648438e+01,3.239457702636718750e+01
9.359999895095825195e-01,2.000000000000000000e+00,-3.033961486816406250e+01,1.995825290679931641e+00,4.146960830688476562e+01,9.621337890625000000e+01,8.532420349121093750e+01,1.334539337158203125e+02,-7.529458999633789062e+00,-3.187517547607421875e+01,-1.839316406250000000e+02,3.628129959106445312e+01,2.457259941101074219e+01,3.238820648193359375e+01
9.399999976158142090e-01,2.000000000000000000e+00,-3.039212608337402344e+01,2.030526161193847656e+00,4.142511367797851562e+01,9.621899414062500000e+01,8.532087707519531250e+01,1.334482727050781250e+02,-7.578867435455322266e+00,-3.186981964111328125e+01,-1.839265289306640625e+02,3.628451919555664062e+01,2.459008407592773438e+01,3.238183975219726562e+01
9.440000057220458984e-01,2.000000000000000000e+00,-3.044462585449218750e+01,2.065219163894653320e+00,4.138063430786132812e+01,9.622460937500000000e+01,8.531754302978515625e+01,1.334426422119140625e+02,-7.628265380859375000e+00,-3.186446571350097656e+01,-1.839214172363281250e+02,3.628773498535156250e+01,2.460756492614746094e+01,3.237546920776367188e+01
9.480000138282775879e-01,2.000000000000000000e+00,-3.049711608886718750e+01,2.099904775619506836e+00,4.133616256713867188e+01,9.623022460937500000e+01,8.531422424316406250e+01,1.334369812011718750e+02,-7.677652835845947266e+00,-3.185910987854003906e+01,-1.839163208007812500e+02,3.629095458984375000e+01,2.462504386901855469e+01,3.236910247802734375e+01
9.520000219345092773e-01,2.000000000000000000e+00,-3.054959297180175781e+01,2.134582757949829102e+00,4.129169845581054688e+01,9.623583221435546875e+01,8.531089782714843750e+01,1.334313354492187500e+02,-7.727028846740722656e+00,-3.185375976562500000e+01,-1.839112243652343750e+02,3.629417037963867188e+01,2.464251708984375000e+01,3.236273956298828125e+01
9.559999704360961914e-01,2.000000000000000000e+00,-3.060205841064453125e+01,2.169253110885620117e+00,4.124724578857421875e+01,9.624143981933593750e+01,8.530757141113281250e+01,1.334257049560546875e+02,-7.776394367218017578e+00,-3.184840774536132812e+01,-1.839061279296875000e+02,3.629738616943359375e+01,2.465998649597167969e+01,3.235637664794921875e+01
9.599999785423278809e-01,2.000000000000000000e+00,-3.065451049804687500e+01,2.203915834426879883e+00,4.120280075073242188e+01,9.624704742431640625e+01,8.530424499511718750e+01,1.334200592041015625e+02,-7.825748920440673828e+00,-3.184305953979492188e+01,-1.839010162353515625e+02,3.630060577392578125e+01,2.467745399475097656e+01,3.235001754760742188e+01
9.639999866485595703e-01,2.000000000000000000e+00,-3.070695304870605469e+01,2.238571166992187500e+00,4.115836715698242188e+01,9.625265502929687500e+01,8.530091857910156250e+01,1.334144134521484375e+02,-7.875092983245849609e+00,-3.183771133422851562e+01,-1.838959197998046875e+02,3.630381774902343750e+01,2.469491386413574219e+01,3.234365463256835938e+01
9.679999947547912598e-01,2.000000000000000000e+00,-3.075938415527343750e+01,2.273218870162963867e+00,4.111394500732421875e+01,9.625826263427734375e+01,8.529759216308593750e+01,1.334087677001953125e+02,-7.924425601959228516e+00,-3.183236312866210938e+01,-1.838908233642578125e+02,3.630703735351562500e+01,2.471237182617187500e+01,3.233729553222656250e+01
9.720000028610229492e-01,2.000000000000000000e+00,-3.081180381774902344e+01,2.307858943939208984e+00,4.106953048706054688e+01,9.626386260986328125e+01,8.529426574707031250e+01,1.334031372070312500e+02,-7.973748207092285156e+00,-3.182701873779296875e+01,-1.838857269287109375e+02,3.631024932861328125e+01,2.472982788085937500e+01,3.233094024658203125e+01
9.760000109672546387e-01,2.000000000000000000e+00,-3.086421394348144531e+01,2.342491626739501953e+00,4.102512741088867188e+01,9.626947021484375000e+01,8.529094696044921875e+01,1.333974914550781250e+02,-8.023059844970703125e+00,-3.182167053222656250e+01,-1.838806152343750000e+02,3.631346130371093750e+01,2.474727821350097656e+01,3.232458496093750000e+01
9.800000190734863281e-01,2.000000000000000000e+00,-3.091660881042480469e+01,2.377116680145263672e+00,4.098073196411132812e+01,9.627507019042968750e+01,8.528762054443359375e+01,1.333918457031250000e+02,-8.072360992431640625e+00,-3.181632995605468750e+01,-1.838755187988281250e+02,3.631667327880859375e+01,2.476472663879394531e+01,3.231822967529296875e+01
9.840000271797180176e-01,2.000000000000000000e+00,-3.096899604797363281e+01,2.411734104156494141e+00,4.093634796142578125e+01,9.628067016601562500e+01,8.528429412841796875e+01,1.333862152099609375e+02,-8.121650695800781250e+00,-3.181098556518554688e+01,-1.838704376220703125e+02,3.631988525390625000e+01,2.478216934204101562e+01,3.231187820434570312e+01
9.879999756813049316e-01,2.000000000000000000e+00,-3.102136993408203125e+01,2.446344137191772461e+00,4.089197540283203125e+01,9.628627014160156250e+01,8.528097534179687500e+01,1.333805847167968750e+02,-8.170929908752441406e+00,-3.180564308166503906e+01,-1.838653411865234375e+02,3.632309722900390625e+01,2.479960823059082031e+01,3.230552291870117188e+01
9.919999837875366211e-01,2.000000000000000000e+00,-3.107373046875000000e+01,2.480946540832519531e+00,4.084761047363281250e+01,9.629186248779296875e+01,8.527764892578125000e+01,1.333749542236328125e+02,-8.220198631286621094e+00,-3.180030250549316406e+01,-1.838602600097656250e+02,3.632630538940429688e+01,2.481704330444335938e+01,3.229917144775390625e+01
9.959999918937683105e-01,2.000000000000000000e+00,-3.112608337402343750e+01,2.515541315078735352e+00,4.080324935913085938e+01,9.629746246337890625e+01,8.527433013916015625e+01,1.333693084716796875e+02,-8.269455909729003906e+00,-3.179496383666992188e+01,-1.838551635742187500e+02,3.632951736450195312e+01,2.483447456359863281e+01,3.229282379150390625e+01
1.000000000000000000e+00,2.000000000000000000e+00,-3.117842483520507812e+01,2.550128698348999023e+00,4.075890350341796875e+01,9.630306243896484375e+01,8.527101135253906250e+01,1.333636779785156250e+02,-8.318703651428222656e+00,-3.178962707519531250e+01,-1.838500823974609375e+02,3.633272552490234375e+01,2.485190391540527344e+01,3.228647613525390625e+01
1.003999948501586914e+00,2.000000000000000000e+00,-3.123074913024902344e+01,2.584708452224731445e+00,4.071456909179687500e+01,9.630865478515625000e+01,8.526769256591796875e+01,1.333580474853515625e+02,-8.367939949035644531e+00,-3.178428840637207031e+01,-1.838449859619140625e+02,3.633593368530273438e+01,2.486932754516601562e+01,3.228012847900390625e+01
1.008000016212463379e+00,2.000000000000000000e+00,-3.128306961059570312e+01,2.619280576705932617e+00,4.067024230957031250e+01,9.631424713134765625e+01,8.526438140869140625e+01,1.333524169921875000e+02,-8.417165756225585938e+00,-3.177895545959472656e+01,-1.838399047851562500e+02,3.633914184570312500e+01,2.488674736022949219e+01,3.227378463745117188e+01
1.011999964714050293e+00,2.000000000000000000e+00,-3.133537483215332031e+01,2.653845310211181641e+00,4.062592315673828125e+01,9.631983947753906250e+01,8.526106262207031250e+01,1.333468017578125000e+02,-8.466380119323730469e+00,-3.177362060546875000e+01,-1.838348236083984375e+02,3.634234619140625000e+01,2.490416526794433594e+01,3.226744079589843750e+01
1.016000032424926758e+00,2.000000000000000000e+00,-3.138766670227050781e+01,2.688402414321899414e+00,4.058161544799804688e+01,9.632543182373046875e+01,8.525775146484375000e+01,1.333411712646484375e+02,-8.515584945678710938e+00,-3.176828575134277344e+01,-1.838297271728515625e+02,3.634555435180664062e+01,2.492157554626464844e+01,3.226109695434570312e+01
1.019999980926513672e+00,2.000000000000000000e+00,-3.143995285034179688e+01,2.722952127456665039e+00,4.053731918334960938e+01,9.633102416992187500e+01,8.525443267822265625e+01,1.333355407714843750e+02,-8.564778327941894531e+00,-3.176295471191406250e+01,-1.838246459960937500e+02,3.634875869750976562e+01,2.493898582458496094e+01,3.225476074218750000e+01
1.024000048637390137e+00,2.000000000000000000e+00,-3.149222373962402344e+01,2.757494211196899414e+00,4.049303054809570312e+01,9.633660888671875000e+01,8.525111389160156250e+01,1.333299102783203125e+02,-8.613960266113281250e+00,-3.175762367248535156e+01,-1.838195648193359375e+02,3.635196304321289062e+01,2.495639228820800781e+01,3.224841690063476562e+01
1.026999950408935547e+00,2.000000000000000000e+00,-3.154448127746582031e+01,2.792028665542602539e+00,4.044875335693359375e+01,9.634219360351562500e+01,8.524780273437500000e+01,1.333242950439453125e+02,-8.663132667541503906e+00,-3.175229263305664062e+01,-1.838144836425781250e+02,3.635516738891601562e+01,2.497379112243652344e+01,3.224208068847656250e+01
1.031999945640563965e+00,2.000000000000000000e+00,-3.159673118591308594e+01,2.826555728912353516e+00,4.040448379516601562e+01,9.634778594970703125e+01,8.524448394775390625e+01,1.333186645507812500e+02,-8.712293624877929688e+00,-3.174696540832519531e+01,-1.838094024658203125e+02,3.635837173461914062e+01,2.499118995666503906e+01,3.223574447631835938e+01
1.036000013351440430e+00,2.000000000000000000e+00,-3.164896965026855469e+01,2.861075401306152344e+00,4.036022186279296875e+01,9.635336303710937500e+01,8.524117279052734375e+01,1.333130493164062500e+02,-8.761445045471191406e+00,-3.174163818359375000e+01,-1.838043060302734375e+02,3.636157226562500000e+01,2.500858306884765625e+01,3.222940826416015625e+01
1.039999961853027344e+00,2.000000000000000000e+00,-3.170119285583496094e+01,2.895587444305419922e+00,4.031597518920898438e+01,9.635894775390625000e+01,8.523786926269531250e+01,1.333074340820312500e+02,-8.810585021972656250e+00,-3.173631095886230469e+01,-1.837992248535156250e+02,3.636477279663085938e+01,2.502597427368164062e+01,3.222307586669921875e+01
1.044000029563903809e+00,2.000000000000000000e+00,-3.175341033935546875e+01,2.930091857910156250e+00,4.027173614501953125e+01,9.636453247070312500e+01,8.523455047607421875e+01,1.333018188476562500e+02,-8.859713554382324219e+00,-3.173098564147949219e+01,-1.837941589355468750e+02,3.636797332763671875e+01,2.504335975646972656e+01,3.221674346923828125e+01
1.047999978065490723e+00,2.000000000000000000e+00,-3.180561256408691406e+01,2.964589118957519531e+00,4.022750091552734375e+01,9.637010955810546875e+01,8.523123931884765625e+01,1.332962036132812500e+02,-8.908832550048828125e+00,-3.172566223144531250e+01,-1.837890777587890625e+02,3.637117767333984375e+01,2.506074142456054688e+01,3.221041107177734375e+01
1.052000045776367188e+00,2.000000000000000000e+00,-3.185780334472656250e+01,2.999078512191772461e+00,4.018328475952148438e+01,9.637569427490234375e+01,8.522792816162109375e+01,1.332905883789062500e+02,-8.957940101623535156e+00,-3.172033882141113281e+01,-1.837840118408203125e+02,3.637437438964843750e+01,2.507812118530273438e+01,3.220407867431640625e+01
1.054999947547912598e+00,2.000000000000000000e+00,-3.190998458862304688e+01,3.033560514450073242e+00,4.013907241821289062e+01,9.638127136230468750e+01,8.522462463378906250e+01,1.332849731445312500e+02,-9.007037162780761719e+00,-3.171501731872558594e+01,-1.837789306640625000e+02,3.637757492065429688e+01,2.509549522399902344e+01,3.219775009155273438e+01
1.059999942779541016e+00,2.000000000000000000e+00,-3.196215438842773438e+01,3.068034887313842773e+00,4.009487152099609375e+01,9.638684844970703125e+01,8.522131347656250000e+01,1.332793579101562500e+02,-9.056123733520507812e+00,-3.170969581604003906e+01,-1.837738647460937500e+02,3.638077545166015625e+01,2.511286544799804688e+01,3.219142532348632812e+01
1.064000010490417480e+00,2.000000000000000000e+00,-3.201430892944335938e+01,3.102502107620239258e+00,4.005067825317382812e+01,9.639242553710937500e+01,8.521800231933593750e+01,1.332737426757812500e+02,-9.105199813842773438e+00,-3.170438003540039062e+01,-1.837687988281250000e+02,3.638397216796875000e+01,2.513023376464843750e+01,3.218509674072265625e+01
1.067999958992004395e+00,2.000000000000000000e+00,-3.206645965576171875e+01,3.136961460113525391e+00,4.000649642944335938e+01,9.639800262451171875e+01,8.521469879150390625e+01,1.332681427001953125e+02,-9.154264450073242188e+00,-3.169905853271484375e+01,-1.837637176513671875e+02,3.638716888427734375e+01,2.514759826660156250e+01,3.217877578735351562e+01
1.072000026702880859e+00,2.000000000000000000e+00,-3.211859130859375000e+01,3.171413421630859375e+00,3.996232223510742188e+01,9.640357208251953125e+01,8.521139526367187500e+01,1.332625274658203125e+02,-9.203318595886230469e+00,-3.169374084472656250e+01,-1.837586517333984375e+02,3.639036560058593750e+01,2.516495704650878906e+01,3.217245101928710938e+01
1.075999975204467773e+00,2.000000000000000000e+00,-3.217071914672851562e+01,3.205857992172241211e+00,3.991815948486328125e+01,9.640914916992187500e+01,8.520808410644531250e+01,1.332569122314453125e+02,-9.252363204956054688e+00,-3.168842697143554688e+01,-1.837535858154296875e+02,3.639355850219726562e+01,2.518231391906738281e+01,3.216613006591796875e+01
1.080000042915344238e+00,2.000000000000000000e+00,-3.222282791137695312e+01,3.240294933319091797e+00,3.987400436401367188e+01,9.641471862792968750e+01,8.520478057861328125e+01,1.332513122558593750e+02,-9.301396369934082031e+00,-3.168311309814453125e+01,-1.837485046386718750e+02,3.639675521850585938e+01,2.519966506958007812e+01,3.215980911254882812e+01
1.083999991416931152e+00,2.000000000000000000e+00,-3.227492904663085938e+01,3.274724483489990234e+00,3.982986450195312500e+01,9.642028808593750000e+01,8.520148468017578125e+01,1.332457122802734375e+02,-9.350418090820312500e+00,-3.167779922485351562e+01,-1.837434387207031250e+02,3.639994812011718750e+01,2.521701431274414062e+01,3.215349197387695312e+01
1.088000059127807617e+00,2.000000000000000000e+00,-3.232701873779296875e+01,3.309146642684936523e+00,3.978572845458984375e+01,9.642585754394531250e+01,8.519817352294921875e+01,1.332400970458984375e+02,-9.399430274963378906e+00,-3.167248535156250000e+01,-1.837383880615234375e+02,3.640314483642578125e+01,2.523435783386230469e+01,3.214717483520507812e+01
1.090999960899353027e+00,2.000000000000000000e+00,-3.237909698486328125e+01,3.343561172485351562e+00,3.974160385131835938e+01,9.643142700195312500e+01,8.519486999511718750e+01,1.332344970703125000e+02,-9.448431015014648438e+00,-3.166717529296875000e+01,-1.837333221435546875e+02,3.640633773803710938e+01,2.525169944763183594e+01,3.214085769653320312e+01
1.095999956130981445e+00,2.000000000000000000e+00,-3.243116760253906250e+01,3.377968311309814453e+00,3.969748687744140625e+01,9.643698883056640625e+01,8.519157409667968750e+01,1.332288970947265625e+02,-9.497421264648437500e+00,-3.166186523437500000e+01,-1.837282562255859375e+02,3.640952682495117188e+01,2.526903724670410156e+01,3.213454437255859375e+01
1.100000023841857910e+00,2.000000000000000000e+00,-3.248321914672851562e+01,3.412367820739746094e+00,3.965338516235351562e+01,9.644255828857421875e+01,8.518827056884765625e+01,1.332232971191406250e+02,-9.546401977539062500e+00,-3.165655517578125000e+01,-1.837231903076171875e+02,3.641271972656250000e+01,2.528636932373046875e+01,3.212823104858398438e+01
1.103999972343444824e+00,2.000000000000000000e+00,-3.253526687622070312e+01,3.446759939193725586e+00,3.960928344726562500e+01,9.644812011718750000e+01,8.518496704101562500e+01,1.332176971435546875e+02,-9.595371246337890625e+00,-3.165124702453613281e+01,-1.837181243896484375e+02,3.641590881347656250e+01,2.530369949340820312e+01,3.212191772460937500e+01
1.108000040054321289e+00,2.000000000000000000e+00,-3.258729553222656250e+01,3.481144666671752930e+00,3.956520080566406250e+01,9.645368194580078125e+01,8.518166351318359375e+01,1.332120971679687500e+02,-9.644330024719238281e+00,-3.164594078063964844e+01,-1.837130737304687500e+02,3.641909790039062500e+01,2.532102394104003906e+01,3.211560821533203125e+01
1.111999988555908203e+00,2.000000000000000000e+00,-3.263932037353515625e+01,3.515522003173828125e+00,3.952112579345703125e+01,9.645924377441406250e+01,8.517836761474609375e+01,1.332064971923828125e+02,-9.693277359008789062e+00,-3.164063644409179688e+01,-1.837080078125000000e+02,3.642228698730468750e+01,2.533834838867187500e+01,3.210929870605468750e+01
1.116000056266784668e+00,2.000000000000000000e+00,-3.269132995605468750e+01,3.549891710281372070e+00,3.947705459594726562e+01,9.646480560302734375e+01,8.517507171630859375e+01,1.332008972167968750e+02,-9.742215156555175781e+00,-3.163533210754394531e+01,-1.837029571533203125e+02,3.642547607421875000e+01,2.535566520690917969e+01,3.210299301147460938e+01
1.118999958038330078e+00,2.000000000000000000e+00,-3.274332809448242188e+01,3.584253549575805664e+00,3.943299865722656250e+01,9.647036743164062500e+01,8.517177581787109375e+01,1.331952972412109375e+02,-9.791141510009765625e+00,-3.163002967834472656e+01,-1.836979064941406250e+02,3.642866516113281250e+01,2.537298011779785156e+01,3.209668350219726562e+01
