rpiRobotics/ARM-21-02-F-19-Robot-Motion-Program/data_performance_abb/curve_1/dual_arm/diffevo_pose3/grad_result/real_from_sim/sim_result/dual_iteration_3.csv
timestamp,cmd_num,J1,J2,J3,J4,J5,J6,J1_2,J2_2,J3_2,J4_2,J5_2,J6_2
0.000000000000000000e+00,-1.000000000000000000e+00,-1.951986503601074219e+01,-5.460222244262695312e+00,5.054670333862304688e+01,9.477376556396484375e+01,8.563959503173828125e+01,1.352748107910156250e+02,2.770590066909790039e+00,-3.302407073974609375e+01,-1.849753723144531250e+02,3.590027236938476562e+01,2.108725547790527344e+01,3.349644088745117188e+01
2.000000094994902611e-03,-1.000000000000000000e+00,-1.951986503601074219e+01,-5.460222244262695312e+00,5.054670333862304688e+01,9.477376556396484375e+01,8.563959503173828125e+01,1.352748107910156250e+02,2.770590066909790039e+00,-3.302407073974609375e+01,-1.849753723144531250e+02,3.590027236938476562e+01,2.108725547790527344e+01,3.349644088745117188e+01
6.000000052154064178e-03,-1.000000000000000000e+00,-1.951986503601074219e+01,-5.460222244262695312e+00,5.054670333862304688e+01,9.477376556396484375e+01,8.563959503173828125e+01,1.352748107910156250e+02,2.770590066909790039e+00,-3.302407073974609375e+01,-1.849753723144531250e+02,3.590027236938476562e+01,2.108725547790527344e+01,3.349644088745117188e+01
8.000000379979610443e-03,-1.000000000000000000e+00,-1.951986503601074219e+01,-5.460222244262695312e+00,5.054670333862304688e+01,9.477376556396484375e+01,8.563959503173828125e+01,1.352748107910156250e+02,2.770590066909790039e+00,-3.302407073974609375e+01,-1.849753723144531250e+02,3.590027236938476562e+01,2.108725547790527344e+01,3.349644088745117188e+01
1.099999994039535522e-02,-1.000000000000000000e+00,-1.951986503601074219e+01,-5.460222244262695312e+00,5.054670333862304688e+01,9.477376556396484375e+01,8.563959503173828125e+01,1.352748107910156250e+02,2.770590066909790039e+00,-3.302407073974609375e+01,-1.849753723144531250e+02,3.590027236938476562e+01,2.108725547790527344e+01,3.349644088745117188e+01
1.600000075995922089e-02,-1.000000000000000000e+00,-1.951986503601074219e+01,-5.460222244262695312e+00,5.054670333862304688e+01,9.477376556396484375e+01,8.563959503173828125e+01,1.352748107910156250e+02,2.770590066909790039e+00,-3.302407073974609375e+01,-1.849753723144531250e+02,3.590027236938476562e+01,2.108725547790527344e+01,3.349644088745117188e+01
1.999999955296516418e-02,-1.000000000000000000e+00,-1.951986503601074219e+01,-5.460222244262695312e+00,5.054670333862304688e+01,9.477376556396484375e+01,8.563959503173828125e+01,1.352748107910156250e+02,2.770590066909790039e+00,-3.302407073974609375e+01,-1.849753723144531250e+02,3.590027236938476562e+01,2.108725547790527344e+01,3.349644088745117188e+01
2.400000020861625671e-02,-1.000000000000000000e+00,-1.951986503601074219e+01,-5.460222244262695312e+00,5.054670333862304688e+01,9.477376556396484375e+01,8.563959503173828125e+01,1.352748107910156250e+02,2.770590066909790039e+00,-3.302407073974609375e+01,-1.849753723144531250e+02,3.590027236938476562e+01,2.108725547790527344e+01,3.349644088745117188e+01
2.800000086426734924e-02,-1.000000000000000000e+00,-1.951986503601074219e+01,-5.460222244262695312e+00,5.054670333862304688e+01,9.477376556396484375e+01,8.563959503173828125e+01,1.352748107910156250e+02,2.770590066909790039e+00,-3.302407073974609375e+01,-1.849753723144531250e+02,3.590027236938476562e+01,2.108725547790527344e+01,3.349644088745117188e+01
3.200000151991844177e-02,2.000000000000000000e+00,-1.951986503601074219e+01,-5.460222244262695312e+00,5.054670333862304688e+01,9.477376556396484375e+01,8.563959503173828125e+01,1.352748107910156250e+02,2.770590066909790039e+00,-3.302407073974609375e+01,-1.849753723144531250e+02,3.590027236938476562e+01,2.108725547790527344e+01,3.349644088745117188e+01
3.599999845027923584e-02,2.000000000000000000e+00,-1.951986503601074219e+01,-5.460222244262695312e+00,5.054670333862304688e+01,9.477376556396484375e+01,8.563959503173828125e+01,1.352748107910156250e+02,2.770590066909790039e+00,-3.302407073974609375e+01,-1.849753723144531250e+02,3.590027236938476562e+01,2.108725547790527344e+01,3.349644088745117188e+01
4.199999943375587463e-02,2.000000000000000000e+00,-1.951986503601074219e+01,-5.460222244262695312e+00,5.054670333862304688e+01,9.477376556396484375e+01,8.563959503173828125e+01,1.352748107910156250e+02,2.770590066909790039e+00,-3.302407073974609375e+01,-1.849753723144531250e+02,3.590027236938476562e+01,2.108725547790527344e+01,3.349644088745117188e+01
4.399999976158142090e-02,2.000000000000000000e+00,-1.951986503601074219e+01,-5.460222244262695312e+00,5.054670333862304688e+01,9.477376556396484375e+01,8.563959503173828125e+01,1.352748107910156250e+02,2.770590066909790039e+00,-3.302407073974609375e+01,-1.849753723144531250e+02,3.590027236938476562e+01,2.108725547790527344e+01,3.349644088745117188e+01
4.800000041723251343e-02,2.000000000000000000e+00,-1.951986503601074219e+01,-5.460222244262695312e+00,5.054670333862304688e+01,9.477376556396484375e+01,8.563959503173828125e+01,1.352748107910156250e+02,2.770590066909790039e+00,-3.302407073974609375e+01,-1.849753723144531250e+02,3.590027236938476562e+01,2.108725547790527344e+01,3.349644088745117188e+01
5.200000107288360596e-02,2.000000000000000000e+00,-1.951986503601074219e+01,-5.460222244262695312e+00,5.054670333862304688e+01,9.477376556396484375e+01,8.563959503173828125e+01,1.352748107910156250e+02,2.770590066909790039e+00,-3.302407073974609375e+01,-1.849753723144531250e+02,3.590027236938476562e+01,2.108725547790527344e+01,3.349644088745117188e+01
5.600000172853469849e-02,2.000000000000000000e+00,-1.951986503601074219e+01,-5.460222244262695312e+00,5.054670333862304688e+01,9.477376556396484375e+01,8.563959503173828125e+01,1.352748107910156250e+02,2.770590066909790039e+00,-3.302407073974609375e+01,-1.849753723144531250e+02,3.590027236938476562e+01,2.108725547790527344e+01,3.349644088745117188e+01
5.999999865889549255e-02,2.000000000000000000e+00,-1.951986503601074219e+01,-5.460222244262695312e+00,5.054670333862304688e+01,9.477376556396484375e+01,8.563959503173828125e+01,1.352748107910156250e+02,2.770590066909790039e+00,-3.302407073974609375e+01,-1.849753723144531250e+02,3.590027236938476562e+01,2.108725547790527344e+01,3.349644088745117188e+01
6.400000303983688354e-02,2.000000000000000000e+00,-1.951986503601074219e+01,-5.460222244262695312e+00,5.054670333862304688e+01,9.477376556396484375e+01,8.563959503173828125e+01,1.352748107910156250e+02,2.770590066909790039e+00,-3.302407073974609375e+01,-1.849753723144531250e+02,3.590027236938476562e+01,2.108725547790527344e+01,3.349644088745117188e+01
6.800000369548797607e-02,2.000000000000000000e+00,-1.951986503601074219e+01,-5.460222244262695312e+00,5.054670333862304688e+01,9.477376556396484375e+01,8.563959503173828125e+01,1.352748107910156250e+02,2.770590066909790039e+00,-3.302407073974609375e+01,-1.849753723144531250e+02,3.590027236938476562e+01,2.108725547790527344e+01,3.349644088745117188e+01
7.199999690055847168e-02,2.000000000000000000e+00,-1.951986503601074219e+01,-5.460222244262695312e+00,5.054670333862304688e+01,9.477376556396484375e+01,8.563959503173828125e+01,1.352748107910156250e+02,2.770590066909790039e+00,-3.302407073974609375e+01,-1.849753723144531250e+02,3.590027236938476562e+01,2.108725547790527344e+01,3.349644088745117188e+01
7.599999755620956421e-02,2.000000000000000000e+00,-1.951993370056152344e+01,-5.460197448730468750e+00,5.054668807983398438e+01,9.477376556396484375e+01,8.563959503173828125e+01,1.352748107910156250e+02,2.770590066909790039e+00,-3.302407073974609375e+01,-1.849753723144531250e+02,3.590027236938476562e+01,2.108725547790527344e+01,3.349644088745117188e+01
7.999999821186065674e-02,2.000000000000000000e+00,-1.952031135559082031e+01,-5.460044384002685547e+00,5.054660034179687500e+01,9.477376556396484375e+01,8.563958740234375000e+01,1.352748107910156250e+02,2.770590066909790039e+00,-3.302407073974609375e+01,-1.849753723144531250e+02,3.590027236938476562e+01,2.108725547790527344e+01,3.349644088745117188e+01
8.399999886751174927e-02,2.000000000000000000e+00,-1.952138900756835938e+01,-5.459567546844482422e+00,5.054632186889648438e+01,9.477378082275390625e+01,8.563957214355468750e+01,1.352747955322265625e+02,2.770590066909790039e+00,-3.302407073974609375e+01,-1.849753723144531250e+02,3.590027236938476562e+01,2.108725547790527344e+01,3.349644088745117188e+01
8.799999952316284180e-02,2.000000000000000000e+00,-1.952353096008300781e+01,-5.458540439605712891e+00,5.054569244384765625e+01,9.477380371093750000e+01,8.563951873779296875e+01,1.352747802734375000e+02,2.770563125610351562e+00,-3.302407073974609375e+01,-1.849753570556640625e+02,3.590027236938476562e+01,2.108725738525390625e+01,3.349644088745117188e+01
9.200000017881393433e-02,2.000000000000000000e+00,-1.952696037292480469e+01,-5.456768989562988281e+00,5.054455566406250000e+01,9.477386474609375000e+01,8.563943481445312500e+01,1.352747344970703125e+02,2.770386695861816406e+00,-3.302405929565429688e+01,-1.849753417968750000e+02,3.590027618408203125e+01,2.108727264404296875e+01,3.349643707275390625e+01
9.600000083446502686e-02,2.000000000000000000e+00,-1.953183555603027344e+01,-5.454087257385253906e+00,5.054271697998046875e+01,9.477397918701171875e+01,8.563928985595703125e+01,1.352746276855468750e+02,2.769804716110229492e+00,-3.302402496337890625e+01,-1.849752502441406250e+02,3.590028762817382812e+01,2.108733367919921875e+01,3.349642944335937500e+01
1.000000014901161194e-01,2.000000000000000000e+00,-1.953830528259277344e+01,-5.450341224670410156e+00,5.053996658325195312e+01,9.477417755126953125e+01,8.563909149169921875e+01,1.352744445800781250e+02,2.768468141555786133e+00,-3.302394866943359375e+01,-1.849750671386718750e+02,3.590031433105468750e+01,2.108749389648437500e+01,3.349640274047851562e+01
1.040000021457672119e-01,2.000000000000000000e+00,-1.954639434814453125e+01,-5.445433616638183594e+00,5.053608703613281250e+01,9.477450561523437500e+01,8.563881683349609375e+01,1.352741088867187500e+02,2.765997648239135742e+00,-3.302378463745117188e+01,-1.849747009277343750e+02,3.590036773681640625e+01,2.108784294128417969e+01,3.349633026123046875e+01
1.080000028014183044e-01,2.000000000000000000e+00,-1.955603027343750000e+01,-5.439337253570556641e+00,5.053086853027343750e+01,9.477500152587890625e+01,8.563846588134765625e+01,1.352735900878906250e+02,2.761970758438110352e+00,-3.302349090576171875e+01,-1.849741668701171875e+02,3.590046691894531250e+01,2.108851623535156250e+01,3.349617004394531250e+01
1.120000034570693970e-01,2.000000000000000000e+00,-1.956723213195800781e+01,-5.432016849517822266e+00,5.052407836914062500e+01,9.477571868896484375e+01,8.563802337646484375e+01,1.352728271484375000e+02,2.755922555923461914e+00,-3.302301406860351562e+01,-1.849733734130859375e+02,3.590062713623046875e+01,2.108968544006347656e+01,3.349586486816406250e+01
1.159999966621398926e-01,2.000000000000000000e+00,-1.958025741577148438e+01,-5.423336982727050781e+00,5.051544952392578125e+01,9.477670288085937500e+01,8.563747406005859375e+01,1.352717590332031250e+02,2.747464895248413086e+00,-3.302230072021484375e+01,-1.849723052978515625e+02,3.590088272094726562e+01,2.109155845642089844e+01,3.349534225463867188e+01
1.199999973177909851e-01,2.000000000000000000e+00,-1.959552955627441406e+01,-5.413071155548095703e+00,5.050465011596679688e+01,9.477799987792968750e+01,8.563681030273437500e+01,1.352703399658203125e+02,2.736375570297241211e+00,-3.302128601074218750e+01,-1.849709930419921875e+02,3.590124893188476562e+01,2.109434700012207031e+01,3.349452590942382812e+01
1.239999979734420776e-01,2.000000000000000000e+00,-1.961341094970703125e+01,-5.401014804840087891e+00,5.049139785766601562e+01,9.477965545654296875e+01,8.563600158691406250e+01,1.352685089111328125e+02,2.722496032714843750e+00,-3.301992797851562500e+01,-1.849694213867187500e+02,3.590175628662109375e+01,2.109825706481933594e+01,3.349332809448242188e+01
1.280000060796737671e-01,2.000000000000000000e+00,-1.963405609130859375e+01,-5.387091636657714844e+00,5.047548675537109375e+01,9.478170013427734375e+01,8.563504791259765625e+01,1.352662353515625000e+02,2.705592155456542969e+00,-3.301817703247070312e+01,-1.849676055908203125e+02,3.590242004394531250e+01,2.110346794128417969e+01,3.349169158935546875e+01
1.309999972581863403e-01,2.000000000000000000e+00,-1.965743637084960938e+01,-5.371344089508056641e+00,5.045681381225585938e+01,9.478417205810546875e+01,8.563394927978515625e+01,1.352634735107421875e+02,2.685377597808837891e+00,-3.301599884033203125e+01,-1.849655303955078125e+02,3.590325164794921875e+01,2.111010932922363281e+01,3.348957061767578125e+01
1.360000073909759521e-01,2.000000000000000000e+00,-1.968345069885253906e+01,-5.353852272033691406e+00,5.043532180786132812e+01,9.478708648681640625e+01,8.563269042968750000e+01,1.352601928710937500e+02,2.661656856536865234e+00,-3.301337051391601562e+01,-1.849631500244140625e+02,3.590427017211914062e+01,2.111824798583984375e+01,3.348694610595703125e+01
1.389999985694885254e-01,2.000000000000000000e+00,-1.971202087402343750e+01,-5.334670543670654297e+00,5.041101074218750000e+01,9.479045104980468750e+01,8.563130187988281250e+01,1.352563934326171875e+02,2.634347200393676758e+00,-3.301029205322265625e+01,-1.849604797363281250e+02,3.590546798706054688e+01,2.112788963317871094e+01,3.348381042480468750e+01
1.439999938011169434e-01,2.000000000000000000e+00,-1.974306488037109375e+01,-5.313850402832031250e+00,5.038392257690429688e+01,9.479427337646484375e+01,8.562975311279296875e+01,1.352520751953125000e+02,2.603419065475463867e+00,-3.300677108764648438e+01,-1.849575042724609375e+02,3.590684509277343750e+01,2.113897895812988281e+01,3.348019027709960938e+01
1.480000019073486328e-01,2.000000000000000000e+00,-1.977648735046386719e+01,-5.291442871093750000e+00,5.035417175292968750e+01,9.479851531982421875e+01,8.562806701660156250e+01,1.352472534179687500e+02,2.568928956985473633e+00,-3.300283432006835938e+01,-1.849542083740234375e+02,3.590838623046875000e+01,2.115142250061035156e+01,3.347612762451171875e+01
1.519999951124191284e-01,2.000000000000000000e+00,-1.981230354309082031e+01,-5.267416477203369141e+00,5.032186508178710938e+01,9.480315399169921875e+01,8.562625122070312500e+01,1.352419891357421875e+02,2.531103849411010742e+00,-3.299851226806640625e+01,-1.849505767822265625e+02,3.591007995605468750e+01,2.116508674621582031e+01,3.347166061401367188e+01
1.560000032186508179e-01,2.000000000000000000e+00,-1.985064315795898438e+01,-5.241657733917236328e+00,5.028713226318359375e+01,9.480815887451171875e+01,8.562429809570312500e+01,1.352363128662109375e+02,2.490346193313598633e+00,-3.299386215209960938e+01,-1.849466552734375000e+02,3.591190338134765625e+01,2.117981147766113281e+01,3.346684646606445312e+01
1.599999964237213135e-01,2.000000000000000000e+00,-1.989157295227050781e+01,-5.214100837707519531e+00,5.025012969970703125e+01,9.481346893310546875e+01,8.562221527099609375e+01,1.352302856445312500e+02,2.447105407714843750e+00,-3.298893356323242188e+01,-1.849425048828125000e+02,3.591383361816406250e+01,2.119541931152343750e+01,3.346174621582031250e+01
1.640000045299530029e-01,2.000000000000000000e+00,-1.993492317199707031e+01,-5.184838771820068359e+00,5.021111679077148438e+01,9.481904602050781250e+01,8.562001037597656250e+01,1.352239685058593750e+02,2.401754617691040039e+00,-3.298377609252929688e+01,-1.849381561279296875e+02,3.591585540771484375e+01,2.121174240112304688e+01,3.345641708374023438e+01
1.679999977350234985e-01,2.000000000000000000e+00,-1.998032569885253906e+01,-5.154093265533447266e+00,5.017040634155273438e+01,9.482484436035156250e+01,8.561770629882812500e+01,1.352174072265625000e+02,2.354602336883544922e+00,-3.297843933105468750e+01,-1.849335937500000000e+02,3.591794586181640625e+01,2.122861099243164062e+01,3.345091629028320312e+01
1.720000058412551880e-01,2.000000000000000000e+00,-2.002739906311035156e+01,-5.122089862823486328e+00,5.012830734252929688e+01,9.483081054687500000e+01,8.561531829833984375e+01,1.352106475830078125e+02,2.305956840515136719e+00,-3.297296524047851562e+01,-1.849288482666015625e+02,3.592008972167968750e+01,2.124587821960449219e+01,3.344529724121093750e+01
1.759999990463256836e-01,2.000000000000000000e+00,-2.007587814331054688e+01,-5.089009761810302734e+00,5.008507919311523438e+01,9.483692169189453125e+01,8.561285400390625000e+01,1.352037353515625000e+02,2.256146192550659180e+00,-3.296738815307617188e+01,-1.849239654541015625e+02,3.592227172851562500e+01,2.126341438293457031e+01,3.343960571289062500e+01
1.800000071525573730e-01,2.000000000000000000e+00,-2.012561798095703125e+01,-5.055003643035888672e+00,5.004095840454101562e+01,9.484312438964843750e+01,8.561034393310546875e+01,1.351967315673828125e+02,2.205466508865356445e+00,-3.296174240112304688e+01,-1.849189758300781250e+02,3.592447280883789062e+01,2.128111457824707031e+01,3.343386840820312500e+01
1.840000003576278687e-01,2.000000000000000000e+00,-2.017650222778320312e+01,-5.020217895507812500e+00,4.999613952636718750e+01,9.484940338134765625e+01,8.560778045654296875e+01,1.351896362304687500e+02,2.154157876968383789e+00,-3.295605468750000000e+01,-1.849138793945312500e+02,3.592668914794921875e+01,2.129890823364257812e+01,3.342811203002929688e+01
1.879999935626983643e-01,2.000000000000000000e+00,-2.022839927673339844e+01,-4.984790802001953125e+00,4.995079803466796875e+01,9.485572052001953125e+01,8.560517883300781250e+01,1.351824951171875000e+02,2.102441549301147461e+00,-3.295034408569335938e+01,-1.849087219238281250e+02,3.592891311645507812e+01,2.131674957275390625e+01,3.342234420776367188e+01
1.920000016689300537e-01,2.000000000000000000e+00,-2.028119850158691406e+01,-4.948837757110595703e+00,4.990507125854492188e+01,9.486207580566406250e+01,8.560255432128906250e+01,1.351753387451171875e+02,2.050520181655883789e+00,-3.294461822509765625e+01,-1.849035491943359375e+02,3.593114089965820312e+01,2.133460617065429688e+01,3.341657638549804688e+01
1.959999948740005493e-01,2.000000000000000000e+00,-2.033479881286621094e+01,-4.912464618682861328e+00,4.985907363891601562e+01,9.486843872070312500e+01,8.559990692138671875e+01,1.351681671142578125e+02,1.998537063598632812e+00,-3.293888854980468750e+01,-1.848983612060546875e+02,3.593336868286132812e+01,2.135246467590332031e+01,3.341080856323242188e+01
2.000000029802322388e-01,2.000000000000000000e+00,-2.038901901245117188e+01,-4.875802993774414062e+00,4.981290054321289062e+01,9.487480926513671875e+01,8.559724426269531250e+01,1.351609802246093750e+02,1.946554183959960938e+00,-3.293316268920898438e+01,-1.848931579589843750e+02,3.593559646606445312e+01,2.137031936645507812e+01,3.340504455566406250e+01
2.039999961853027344e-01,2.000000000000000000e+00,-2.044359397888183594e+01,-4.838994979858398438e+00,4.976665115356445312e+01,9.488118743896484375e+01,8.559458160400390625e+01,1.351538085937500000e+02,1.894582867622375488e+00,-3.292743301391601562e+01,-1.848879699707031250e+02,3.593782806396484375e+01,2.138817024230957031e+01,3.339928436279296875e+01
2.080000042915344238e-01,2.000000000000000000e+00,-2.049828338623046875e+01,-4.802144050598144531e+00,4.972037887573242188e+01,9.488755798339843750e+01,8.559191131591796875e+01,1.351466369628906250e+02,1.842623472213745117e+00,-3.292170715332031250e+01,-1.848827667236328125e+02,3.594005203247070312e+01,2.140601730346679688e+01,3.339352035522460938e+01
2.119999974966049194e-01,2.000000000000000000e+00,-2.055298233032226562e+01,-4.765294075012207031e+00,4.967411804199218750e+01,9.489392852783203125e+01,8.558924102783203125e+01,1.351394500732421875e+02,1.790675997734069824e+00,-3.291598129272460938e+01,-1.848775787353515625e+02,3.594227981567382812e+01,2.142386245727539062e+01,3.338775634765625000e+01
2.160000056028366089e-01,2.000000000000000000e+00,-2.060766792297363281e+01,-4.728452682495117188e+00,4.962786483764648438e+01,9.490029907226562500e+01,8.558657073974609375e+01,1.351322784423828125e+02,1.738740682601928711e+00,-3.291025924682617188e+01,-1.848723907470703125e+02,3.594450378417968750e+01,2.144169998168945312e+01,3.338199996948242188e+01
2.199999988079071045e-01,2.000000000000000000e+00,-2.066234207153320312e+01,-4.691619396209716797e+00,4.958161926269531250e+01,9.490666961669921875e+01,8.558390045166015625e+01,1.351251068115234375e+02,1.686817407608032227e+00,-3.290454101562500000e+01,-1.848672027587890625e+02,3.594672775268554688e+01,2.145953369140625000e+01,3.337624359130859375e+01
2.240000069141387939e-01,2.000000000000000000e+00,-2.071700286865234375e+01,-4.654794692993164062e+00,4.953539276123046875e+01,9.491303253173828125e+01,8.558122253417968750e+01,1.351179351806640625e+02,1.634906172752380371e+00,-3.289881896972656250e+01,-1.848620300292968750e+02,3.594895553588867188e+01,2.147736358642578125e+01,3.337048339843750000e+01
2.280000001192092896e-01,2.000000000000000000e+00,-2.077165031433105469e+01,-4.617979049682617188e+00,4.948916625976562500e+01,9.491940307617187500e+01,8.557855224609375000e+01,1.351107788085937500e+02,1.583006978034973145e+00,-3.289309692382812500e+01,-1.848568267822265625e+02,3.595117950439453125e+01,2.149519157409667969e+01,3.336473083496093750e+01
2.319999933242797852e-01,2.000000000000000000e+00,-2.082628440856933594e+01,-4.581171512603759766e+00,4.944295883178710938e+01,9.492575836181640625e+01,8.557588958740234375e+01,1.351036071777343750e+02,1.531119704246520996e+00,-3.288738250732421875e+01,-1.848516540527343750e+02,3.595340347290039062e+01,2.151301383972167969e+01,3.335897445678710938e+01
2.360000014305114746e-01,2.000000000000000000e+00,-2.088090896606445312e+01,-4.544372558593750000e+00,4.939675903320312500e+01,9.493212127685546875e+01,8.557321929931640625e+01,1.350964355468750000e+02,1.479244709014892578e+00,-3.288166427612304688e+01,-1.848464660644531250e+02,3.595562744140625000e+01,2.153083038330078125e+01,3.335322189331054688e+01
2.399999946355819702e-01,2.000000000000000000e+00,-2.093552017211914062e+01,-4.507582664489746094e+00,4.935057067871093750e+01,9.493848419189453125e+01,8.557055664062500000e+01,1.350892791748046875e+02,1.427381753921508789e+00,-3.287594985961914062e+01,-1.848412933349609375e+02,3.595784759521484375e+01,2.154864692687988281e+01,3.334746932983398438e+01
2.440000027418136597e-01,2.000000000000000000e+00,-2.099011802673339844e+01,-4.470800876617431641e+00,4.930439376831054688e+01,9.494483947753906250e+01,8.556789398193359375e+01,1.350821075439453125e+02,1.375530838966369629e+00,-3.287023544311523438e+01,-1.848360900878906250e+02,3.596007156372070312e+01,2.156645584106445312e+01,3.334172058105468750e+01
2.479999959468841553e-01,2.000000000000000000e+00,-2.104470252990722656e+01,-4.434027194976806641e+00,4.925822448730468750e+01,9.495120239257812500e+01,8.556522369384765625e+01,1.350749359130859375e+02,1.323691964149475098e+00,-3.286452484130859375e+01,-1.848309173583984375e+02,3.596229171752929688e+01,2.158426094055175781e+01,3.333597183227539062e+01
2.520000040531158447e-01,2.000000000000000000e+00,-2.109927558898925781e+01,-4.397262573242187500e+00,4.921207046508789062e+01,9.495755767822265625e+01,8.556256103515625000e+01,1.350677795410156250e+02,1.271865248680114746e+00,-3.285881042480468750e+01,-1.848257446289062500e+02,3.596451568603515625e+01,2.160206413269042969e+01,3.333022308349609375e+01
2.560000121593475342e-01,2.000000000000000000e+00,-2.115383529663085938e+01,-4.360506534576416016e+00,4.916592025756835938e+01,9.496391296386718750e+01,8.555989837646484375e+01,1.350606384277343750e+02,1.220050454139709473e+00,-3.285310363769531250e+01,-1.848205566406250000e+02,3.596673583984375000e+01,2.161985969543457031e+01,3.332447814941406250e+01
2.599999904632568359e-01,2.000000000000000000e+00,-2.120838356018066406e+01,-4.323758602142333984e+00,4.911978912353515625e+01,9.497026062011718750e+01,8.555722808837890625e+01,1.350534820556640625e+02,1.168247699737548828e+00,-3.284739303588867188e+01,-1.848153839111328125e+02,3.596895599365234375e+01,2.163765335083007812e+01,3.331873321533203125e+01
2.639999985694885254e-01,2.000000000000000000e+00,-2.126291847229003906e+01,-4.287019729614257812e+00,4.907366180419921875e+01,9.497661590576171875e+01,8.555456542968750000e+01,1.350463256835937500e+02,1.116456866264343262e+00,-3.284168624877929688e+01,-1.848102111816406250e+02,3.597117614746093750e+01,2.165544319152832031e+01,3.331299209594726562e+01
2.680000066757202148e-01,2.000000000000000000e+00,-2.131744003295898438e+01,-4.250288486480712891e+00,4.902754974365234375e+01,9.498297119140625000e+01,8.555191040039062500e+01,1.350391693115234375e+02,1.064678072929382324e+00,-3.283597946166992188e+01,-1.848050384521484375e+02,3.597339630126953125e+01,2.167322731018066406e+01,3.330724716186523438e+01
2.720000147819519043e-01,2.000000000000000000e+00,-2.137195014953613281e+01,-4.213565826416015625e+00,4.898144531250000000e+01,9.498931884765625000e+01,8.554924774169921875e+01,1.350320281982421875e+02,1.012911200523376465e+00,-3.283027648925781250e+01,-1.847998657226562500e+02,3.597561264038085938e+01,2.169100761413574219e+01,3.330150604248046875e+01
2.759999930858612061e-01,2.000000000000000000e+00,-2.142644882202148438e+01,-4.176851749420166016e+00,4.893535232543945312e+01,9.499566650390625000e+01,8.554658508300781250e+01,1.350248718261718750e+02,9.611561894416809082e-01,-3.282457351684570312e+01,-1.847946929931640625e+02,3.597782897949218750e+01,2.170878410339355469e+01,3.329576873779296875e+01
2.800000011920928955e-01,2.000000000000000000e+00,-2.148093414306640625e+01,-4.140146732330322266e+00,4.888927078247070312e+01,9.500201416015625000e+01,8.554393005371093750e+01,1.350177307128906250e+02,9.094130396842956543e-01,-3.281887054443359375e+01,-1.847895202636718750e+02,3.598004913330078125e+01,2.172655677795410156e+01,3.329002761840820312e+01
2.840000092983245850e-01,2.000000000000000000e+00,-2.153540611267089844e+01,-4.103449821472167969e+00,4.884320068359375000e+01,9.500835418701171875e+01,8.554125976562500000e+01,1.350105743408203125e+02,8.576817512512207031e-01,-3.281317138671875000e+01,-1.847843475341796875e+02,3.598226547241210938e+01,2.174432563781738281e+01,3.328429031372070312e+01
2.879999876022338867e-01,2.000000000000000000e+00,-2.158986473083496094e+01,-4.066761016845703125e+00,4.879713821411132812e+01,9.501470184326171875e+01,8.553860473632812500e+01,1.350034484863281250e+02,8.059623241424560547e-01,-3.280747222900390625e+01,-1.847791900634765625e+02,3.598448181152343750e+01,2.176209068298339844e+01,3.327855682373046875e+01
2.919999957084655762e-01,2.000000000000000000e+00,-2.164431190490722656e+01,-4.030080795288085938e+00,4.875108718872070312e+01,9.502104187011718750e+01,8.553594970703125000e+01,1.349963073730468750e+02,7.542546987533569336e-01,-3.280177688598632812e+01,-1.847740173339843750e+02,3.598669815063476562e+01,2.177985191345214844e+01,3.327282333374023438e+01
2.960000038146972656e-01,2.000000000000000000e+00,-2.169874572753906250e+01,-3.993408918380737305e+00,4.870504760742187500e+01,9.502738189697265625e+01,8.553329467773437500e+01,1.349891510009765625e+02,7.025588154792785645e-01,-3.279607391357421875e+01,-1.847688598632812500e+02,3.598891448974609375e+01,2.179760742187500000e+01,3.326708984375000000e+01
3.000000119209289551e-01,2.000000000000000000e+00,-2.175317001342773438e+01,-3.956745386123657227e+00,4.865901947021484375e+01,9.503372192382812500e+01,8.553063201904296875e+01,1.349820098876953125e+02,6.508747339248657227e-01,-3.279038238525390625e+01,-1.847637023925781250e+02,3.599113082885742188e+01,2.181535911560058594e+01,3.326136016845703125e+01
3.039999902248382568e-01,2.000000000000000000e+00,-2.180757904052734375e+01,-3.920090198516845703e+00,4.861300277709960938e+01,9.504006195068359375e+01,8.552797698974609375e+01,1.349748840332031250e+02,5.992023944854736328e-01,-3.278468704223632812e+01,-1.847585296630859375e+02,3.599334716796875000e+01,2.183310890197753906e+01,3.325562667846679688e+01
3.079999983310699463e-01,2.000000000000000000e+00,-2.186197662353515625e+01,-3.883443593978881836e+00,4.856698989868164062e+01,9.504639434814453125e+01,8.552532196044921875e+01,1.349677429199218750e+02,5.475418567657470703e-01,-3.277899551391601562e+01,-1.847533721923828125e+02,3.599556350708007812e+01,2.185085296630859375e+01,3.324989700317382812e+01
3.120000064373016357e-01,2.000000000000000000e+00,-2.191636085510253906e+01,-3.846805334091186523e+00,4.852099227905273438e+01,9.505273437500000000e+01,8.552266693115234375e+01,1.349606018066406250e+02,4.958930313587188721e-01,-3.277330398559570312e+01,-1.847481994628906250e+02,3.599777603149414062e+01,2.186859321594238281e+01,3.324417114257812500e+01
3.160000145435333252e-01,2.000000000000000000e+00,-2.197073364257812500e+01,-3.810174942016601562e+00,4.847500228881835938e+01,9.505906677246093750e+01,8.552000427246093750e+01,1.349534759521484375e+02,4.442560076713562012e-01,-3.276761245727539062e+01,-1.847430419921875000e+02,3.599998855590820312e+01,2.188632965087890625e+01,3.323844146728515625e+01
3.199999928474426270e-01,2.000000000000000000e+00,-2.202509307861328125e+01,-3.773553609848022461e+00,4.842903137207031250e+01,9.506539154052734375e+01,8.551735687255859375e+01,1.349463500976562500e+02,3.926306962966918945e-01,-3.276192474365234375e+01,-1.847378845214843750e+02,3.600220108032226562e+01,2.190406227111816406e+01,3.323271942138671875e+01
3.240000009536743164e-01,2.000000000000000000e+00,-2.207944107055664062e+01,-3.736939907073974609e+00,4.838306427001953125e+01,9.507172393798828125e+01,8.551470184326171875e+01,1.349392089843750000e+02,3.410171568393707275e-01,-3.275623703002929688e+01,-1.847327270507812500e+02,3.600441360473632812e+01,2.192178916931152344e+01,3.322699737548828125e+01
3.280000090599060059e-01,2.000000000000000000e+00,-2.213377571105957031e+01,-3.700334787368774414e+00,4.833710479736328125e+01,9.507804870605468750e+01,8.551204681396484375e+01,1.349320983886718750e+02,2.894153594970703125e-01,-3.275054931640625000e+01,-1.847275848388671875e+02,3.600662231445312500e+01,2.193951416015625000e+01,3.322127151489257812e+01
3.319999873638153076e-01,2.000000000000000000e+00,-2.218810081481933594e+01,-3.663738250732421875e+00,4.829116058349609375e+01,9.508438110351562500e+01,8.550939941406250000e+01,1.349249725341796875e+02,2.378253191709518433e-01,-3.274486541748046875e+01,-1.847224121093750000e+02,3.600883483886718750e+01,2.195723533630371094e+01,3.321555328369140625e+01
3.359999954700469971e-01,2.000000000000000000e+00,-2.224241065979003906e+01,-3.627149820327758789e+00,4.824522781372070312e+01,9.509070587158203125e+01,8.550674438476562500e+01,1.349178314208984375e+02,1.862470209598541260e-01,-3.273918533325195312e+01,-1.847172698974609375e+02,3.601104736328125000e+01,2.197495079040527344e+01,3.320983123779296875e+01
3.400000035762786865e-01,2.000000000000000000e+00,-2.229670906066894531e+01,-3.590569972991943359e+00,4.819929885864257812e+01,9.509703063964843750e+01,8.550408935546875000e+01,1.349107208251953125e+02,1.346804499626159668e-01,-3.273350143432617188e+01,-1.847121124267578125e+02,3.601325607299804688e+01,2.199266242980957031e+01,3.320411300659179688e+01
3.440000116825103760e-01,2.000000000000000000e+00,-2.235099601745605469e+01,-3.553997993469238281e+00,4.815338516235351562e+01,9.510334777832031250e+01,8.550144195556640625e+01,1.349035949707031250e+02,8.312561362981796265e-02,-3.272781753540039062e+01,-1.847069702148437500e+02,3.601546478271484375e+01,2.201037025451660156e+01,3.319839477539062500e+01
3.479999899864196777e-01,2.000000000000000000e+00,-2.240526771545410156e+01,-3.517434597015380859e+00,4.810748291015625000e+01,9.510967254638671875e+01,8.549879455566406250e+01,1.348964691162109375e+02,3.158249706029891968e-02,-3.272213745117187500e+01,-1.847018127441406250e+02,3.601767349243164062e+01,2.202807426452636719e+01,3.319268035888671875e+01
3.519999980926513672e-01,2.000000000000000000e+00,-2.245952987670898438e+01,-3.480879545211791992e+00,4.806158828735351562e+01,9.511598968505859375e+01,8.549613952636718750e+01,1.348893585205078125e+02,-1.994888670742511749e-02,-3.271646118164062500e+01,-1.846966705322265625e+02,3.601988220214843750e+01,2.204577445983886719e+01,3.318696594238281250e+01
3.560000061988830566e-01,2.000000000000000000e+00,-2.251377868652343750e+01,-3.444332838058471680e+00,4.801570510864257812e+01,9.512231445312500000e+01,8.549349212646484375e+01,1.348822326660156250e+02,-7.146855443716049194e-02,-3.271078491210937500e+01,-1.846915130615234375e+02,3.602209091186523438e+01,2.206347084045410156e+01,3.318125152587890625e+01
3.600000143051147461e-01,2.000000000000000000e+00,-2.256801605224609375e+01,-3.407794237136840820e+00,4.796983337402343750e+01,9.512863159179687500e+01,8.549085235595703125e+01,1.348751373291015625e+02,-1.229764893651008606e-01,-3.270510864257812500e+01,-1.846863708496093750e+02,3.602429962158203125e+01,2.208116340637207031e+01,3.317554092407226562e+01
3.639999926090240479e-01,2.000000000000000000e+00,-2.262223815917968750e+01,-3.371263980865478516e+00,4.792397308349609375e+01,9.513494873046875000e+01,8.548819732666015625e+01,1.348680114746093750e+02,-1.744727343320846558e-01,-3.269943237304687500e+01,-1.846812286376953125e+02,3.602650451660156250e+01,2.209885025024414062e+01,3.316982650756835938e+01
3.680000007152557373e-01,2.000000000000000000e+00,-2.267645263671875000e+01,-3.334742069244384766e+00,4.787811660766601562e+01,9.514126586914062500e+01,8.548554992675781250e+01,1.348609008789062500e+02,-2.259572297334671021e-01,-3.269375991821289062e+01,-1.846760711669921875e+02,3.602871322631835938e+01,2.211653518676757812e+01,3.316411972045898438e+01
3.720000088214874268e-01,2.000000000000000000e+00,-2.273065185546875000e+01,-3.298228502273559570e+00,4.783227539062500000e+01,9.514757537841796875e+01,8.548290252685546875e+01,1.348537902832031250e+02,-2.774300277233123779e-01,-3.268808746337890625e+01,-1.846709289550781250e+02,3.603091812133789062e+01,2.213421440124511719e+01,3.315840911865234375e+01
3.759999871253967285e-01,2.000000000000000000e+00,-2.278483772277832031e+01,-3.261723279953002930e+00,4.778644561767578125e+01,9.515388488769531250e+01,8.548026275634765625e+01,1.348466949462890625e+02,-3.288911283016204834e-01,-3.268241500854492188e+01,-1.846657867431640625e+02,3.603312301635742188e+01,2.215188980102539062e+01,3.315270233154296875e+01
3.799999952316284180e-01,2.000000000000000000e+00,-2.283901405334472656e+01,-3.225226402282714844e+00,4.774062728881835938e+01,9.516019439697265625e+01,8.547761535644531250e+01,1.348395690917968750e+02,-3.803405463695526123e-01,-3.267674636840820312e+01,-1.846606597900390625e+02,3.603533172607421875e+01,2.216956329345703125e+01,3.314699554443359375e+01
3.840000033378601074e-01,2.000000000000000000e+00,-2.289317512512207031e+01,-3.188737630844116211e+00,4.769481658935546875e+01,9.516650390625000000e+01,8.547496795654296875e+01,1.348324737548828125e+02,-4.317782521247863770e-01,-3.267108154296875000e+01,-1.846555023193359375e+02,3.603753662109375000e+01,2.218722915649414062e+01,3.314129257202148438e+01
3.880000114440917969e-01,2.000000000000000000e+00,-2.294732475280761719e+01,-3.152257442474365234e+00,4.764901733398437500e+01,9.517281341552734375e+01,8.547232818603515625e+01,1.348253631591796875e+02,-4.832043051719665527e-01,-3.266540908813476562e+01,-1.846503753662109375e+02,3.603973770141601562e+01,2.220489311218261719e+01,3.313558959960937500e+01
3.919999897480010986e-01,2.000000000000000000e+00,-2.300146484375000000e+01,-3.115785360336303711e+00,4.760322570800781250e+01,9.517911529541015625e+01,8.546968078613281250e+01,1.348182678222656250e+02,-5.346186161041259766e-01,-3.265974426269531250e+01,-1.846452331542968750e+02,3.604194259643554688e+01,2.222255325317382812e+01,3.312988662719726562e+01
3.959999978542327881e-01,2.000000000000000000e+00,-2.305558967590332031e+01,-3.079321384429931641e+00,4.755744934082031250e+01,9.518542480468750000e+01,8.546704101562500000e+01,1.348111724853515625e+02,-5.860212445259094238e-01,-3.265408325195312500e+01,-1.846400909423828125e+02,3.604414367675781250e+01,2.224020957946777344e+01,3.312418746948242188e+01
4.000000059604644775e-01,2.000000000000000000e+00,-2.310970306396484375e+01,-3.042865991592407227e+00,4.751168060302734375e+01,9.519172668457031250e+01,8.546439361572265625e+01,1.348040771484375000e+02,-6.374121904373168945e-01,-3.264841842651367188e+01,-1.846349639892578125e+02,3.604634857177734375e+01,2.225786209106445312e+01,3.311848831176757812e+01
4.040000140666961670e-01,2.000000000000000000e+00,-2.316380500793457031e+01,-3.006418704986572266e+00,4.746592330932617188e+01,9.519802093505859375e+01,8.546175384521484375e+01,1.347969818115234375e+02,-6.887914538383483887e-01,-3.264275360107421875e+01,-1.846298217773437500e+02,3.604854965209960938e+01,2.227550888061523438e+01,3.311279296875000000e+01
4.079999923706054688e-01,2.000000000000000000e+00,-2.321789360046386719e+01,-2.969979763031005859e+00,4.742017364501953125e+01,9.520433044433593750e+01,8.545911407470703125e+01,1.347898712158203125e+02,-7.401590347290039062e-01,-3.263709640502929688e+01,-1.846246948242187500e+02,3.605075454711914062e+01,2.229315376281738281e+01,3.310709381103515625e+01
4.120000004768371582e-01,2.000000000000000000e+00,-2.327196884155273438e+01,-2.933549165725708008e+00,4.737443923950195312e+01,9.521062469482421875e+01,8.545647430419921875e+01,1.347827911376953125e+02,-7.915149927139282227e-01,-3.263143920898437500e+01,-1.846195678710937500e+02,3.605295181274414062e+01,2.231079292297363281e+01,3.310139846801757812e+01
4.160000085830688477e-01,2.000000000000000000e+00,-2.332603454589843750e+01,-2.897126913070678711e+00,4.732870864868164062e+01,9.521691894531250000e+01,8.545383453369140625e+01,1.347756958007812500e+02,-8.428592085838317871e-01,-3.262577819824218750e+01,-1.846144256591796875e+02,3.605515670776367188e+01,2.232842826843261719e+01,3.309570693969726562e+01
4.199999868869781494e-01,2.000000000000000000e+00,-2.338008689880371094e+01,-2.860712766647338867e+00,4.728299713134765625e+01,9.522322082519531250e+01,8.545119476318359375e+01,1.347686157226562500e+02,-8.941918611526489258e-01,-3.262012481689453125e+01,-1.846092987060546875e+02,3.605735397338867188e+01,2.234605979919433594e+01,3.309001159667968750e+01
4.239999949932098389e-01,2.000000000000000000e+00,-2.343412399291992188e+01,-2.824306964874267578e+00,4.723728942871093750e+01,9.522950744628906250e+01,8.544855499267578125e+01,1.347615203857421875e+02,-9.455127120018005371e-01,-3.261446762084960938e+01,-1.846041870117187500e+02,3.605955505371093750e+01,2.236368751525878906e+01,3.308432388305664062e+01
4.280000030994415283e-01,2.000000000000000000e+00,-2.348815345764160156e+01,-2.787909269332885742e+00,4.719158935546875000e+01,9.523580932617187500e+01,8.544592285156250000e+01,1.347544250488281250e+02,-9.968220591545104980e-01,-3.260881423950195312e+01,-1.845990447998046875e+02,3.606175231933593750e+01,2.238131141662597656e+01,3.307862854003906250e+01
4.320000112056732178e-01,2.000000000000000000e+00,-2.354216766357421875e+01,-2.751519918441772461e+00,4.714590835571289062e+01,9.524209594726562500e+01,8.544328308105468750e+01,1.347473449707031250e+02,-1.048119664192199707e+00,-3.260316085815429688e+01,-1.845939178466796875e+02,3.606395339965820312e+01,2.239893150329589844e+01,3.307294464111328125e+01
4.359999895095825195e-01,2.000000000000000000e+00,-2.359617042541503906e+01,-2.715138912200927734e+00,4.710023498535156250e+01,9.524839019775390625e+01,8.544065093994140625e+01,1.347402648925781250e+02,-1.099405646324157715e+00,-3.259750747680664062e+01,-1.845888061523437500e+02,3.606615066528320312e+01,2.241654586791992188e+01,3.306725311279296875e+01
4.399999976158142090e-01,2.000000000000000000e+00,-2.365016174316406250e+01,-2.678766250610351562e+00,4.705456542968750000e+01,9.525467681884765625e+01,8.543801116943359375e+01,1.347331695556640625e+02,-1.150679945945739746e+00,-3.259186172485351562e+01,-1.845836791992187500e+02,3.606834793090820312e+01,2.243416023254394531e+01,3.306156921386718750e+01
4.440000057220458984e-01,2.000000000000000000e+00,-2.370413970947265625e+01,-2.642401695251464844e+00,4.700891494750976562e+01,9.526096343994140625e+01,8.543537139892578125e+01,1.347261047363281250e+02,-1.201942563056945801e+00,-3.258620834350585938e+01,-1.845785522460937500e+02,3.607054519653320312e+01,2.245176696777343750e+01,3.305588531494140625e+01
4.480000138282775879e-01,2.000000000000000000e+00,-2.375810623168945312e+01,-2.606045484542846680e+00,4.696327209472656250e+01,9.526725006103515625e+01,8.543273925781250000e+01,1.347190246582031250e+02,-1.253193616867065430e+00,-3.258056259155273438e+01,-1.845734405517578125e+02,3.607274246215820312e+01,2.246937179565429688e+01,3.305020141601562500e+01
4.519999921321868896e-01,2.000000000000000000e+00,-2.381205940246582031e+01,-2.569697618484497070e+00,4.691763687133789062e+01,9.527352905273437500e+01,8.543009948730468750e+01,1.347119445800781250e+02,-1.304432988166809082e+00,-3.257491302490234375e+01,-1.845683135986328125e+02,3.607493972778320312e+01,2.248697090148925781e+01,3.304451751708984375e+01
4.560000002384185791e-01,2.000000000000000000e+00,-2.386600112915039062e+01,-2.533357858657836914e+00,4.687201309204101562e+01,9.527981567382812500e+01,8.542747497558593750e+01,1.347048645019531250e+02,-1.355660796165466309e+00,-3.256926727294921875e+01,-1.845631866455078125e+02,3.607713317871093750e+01,2.250456428527832031e+01,3.303883743286132812e+01
4.600000083446502686e-01,2.000000000000000000e+00,-2.391993141174316406e+01,-2.497026205062866211e+00,4.682640075683593750e+01,9.528610229492187500e+01,8.542483520507812500e+01,1.346977996826171875e+02,-1.406876921653747559e+00,-3.256362915039062500e+01,-1.845580749511718750e+02,3.607932662963867188e+01,2.252215766906738281e+01,3.303315734863281250e+01
4.639999866485595703e-01,2.000000000000000000e+00,-2.397384834289550781e+01,-2.460703134536743164e+00,4.678079986572265625e+01,9.529237365722656250e+01,8.542220306396484375e+01,1.346907196044921875e+02,-1.458081364631652832e+00,-3.255798721313476562e+01,-1.845529632568359375e+02,3.608152389526367188e+01,2.253974533081054688e+01,3.302747726440429688e+01
4.679999947547912598e-01,2.000000000000000000e+00,-2.402775192260742188e+01,-2.424388170242309570e+00,4.673520660400390625e+01,9.529866027832031250e+01,8.541957092285156250e+01,1.346836395263671875e+02,-1.509274244308471680e+00,-3.255234527587890625e+01,-1.845478515625000000e+02,3.608371734619140625e+01,2.255732917785644531e+01,3.302180480957031250e+01
4.720000028610229492e-01,2.000000000000000000e+00,-2.408164596557617188e+01,-2.388081312179565430e+00,4.668962478637695312e+01,9.530493927001953125e+01,8.541693878173828125e+01,1.346765747070312500e+02,-1.560455560684204102e+00,-3.254670333862304688e+01,-1.845427246093750000e+02,3.608591079711914062e+01,2.257490921020507812e+01,3.301612854003906250e+01
4.760000109672546387e-01,2.000000000000000000e+00,-2.413552474975585938e+01,-2.351782798767089844e+00,4.664405059814453125e+01,9.531120300292968750e+01,8.541430664062500000e+01,1.346695098876953125e+02,-1.611625194549560547e+00,-3.254106521606445312e+01,-1.845376129150390625e+02,3.608810424804687500e+01,2.259248542785644531e+01,3.301045227050781250e+01
4.799999892711639404e-01,2.000000000000000000e+00,-2.418939399719238281e+01,-2.315492391586303711e+00,4.659849166870117188e+01,9.531748199462890625e+01,8.541168212890625000e+01,1.346624450683593750e+02,-1.662783265113830566e+00,-3.253542709350585938e+01,-1.845325012207031250e+02,3.609029769897460938e+01,2.261005592346191406e+01,3.300477981567382812e+01
4.839999973773956299e-01,2.000000000000000000e+00,-2.424324989318847656e+01,-2.279210567474365234e+00,4.655294036865234375e+01,9.532375335693359375e+01,8.540904998779296875e+01,1.346553802490234375e+02,-1.713929533958435059e+00,-3.252978897094726562e+01,-1.845274047851562500e+02,3.609248733520507812e+01,2.262762451171875000e+01,3.299910736083984375e+01
4.880000054836273193e-01,2.000000000000000000e+00,-2.429709434509277344e+01,-2.242936611175537109e+00,4.650740051269531250e+01,9.533003234863281250e+01,8.540641784667968750e+01,1.346483154296875000e+02,-1.765064477920532227e+00,-3.252415466308593750e+01,-1.845222930908203125e+02,3.609468078613281250e+01,2.264518928527832031e+01,3.299343490600585938e+01
4.920000135898590088e-01,2.000000000000000000e+00,-2.435092353820800781e+01,-2.206670999526977539e+00,4.646187210083007812e+01,9.533630371093750000e+01,8.540379333496093750e+01,1.346412506103515625e+02,-1.816187620162963867e+00,-3.251852035522460938e+01,-1.845171813964843750e+02,3.609687423706054688e+01,2.266274642944335938e+01,3.298776626586914062e+01
4.959999918937683105e-01,2.000000000000000000e+00,-2.440474510192871094e+01,-2.170413732528686523e+00,4.641635131835937500e+01,9.534256744384765625e+01,8.540116119384765625e+01,1.346341857910156250e+02,-1.867299199104309082e+00,-3.251288986206054688e+01,-1.845120697021484375e+02,3.609906387329101562e+01,2.268030166625976562e+01,3.298209762573242188e+01
5.000000000000000000e-01,2.000000000000000000e+00,-2.445855140686035156e+01,-2.134164571762084961e+00,4.637084579467773438e+01,9.534883117675781250e+01,8.539853668212890625e+01,1.346271209716796875e+02,-1.918399333953857422e+00,-3.250725936889648438e+01,-1.845069580078125000e+02,3.610125350952148438e+01,2.269785499572753906e+01,3.297642898559570312e+01
5.040000081062316895e-01,2.000000000000000000e+00,-2.451234626770019531e+01,-2.097923517227172852e+00,4.632534408569335938e+01,9.535509490966796875e+01,8.539591217041015625e+01,1.346200866699218750e+02,-1.969487786293029785e+00,-3.250162887573242188e+01,-1.845018463134765625e+02,3.610344314575195312e+01,2.271540260314941406e+01,3.297076416015625000e+01
5.080000162124633789e-01,2.000000000000000000e+00,-2.456612777709960938e+01,-2.061690807342529297e+00,4.627985763549804688e+01,9.536136627197265625e+01,8.539328765869140625e+01,1.346130218505859375e+02,-2.020564556121826172e+00,-3.249600219726562500e+01,-1.844967651367187500e+02,3.610563278198242188e+01,2.273294639587402344e+01,3.296510314941406250e+01
5.120000243186950684e-01,2.000000000000000000e+00,-2.461989784240722656e+01,-2.025466442108154297e+00,4.623437881469726562e+01,9.536762237548828125e+01,8.539065551757812500e+01,1.346059722900390625e+02,-2.071630001068115234e+00,-3.249037170410156250e+01,-1.844916534423828125e+02,3.610781860351562500e+01,2.275048637390136719e+01,3.295943832397460938e+01
5.159999728202819824e-01,2.000000000000000000e+00,-2.467365646362304688e+01,-1.989250183105468750e+00,4.618890762329101562e+01,9.537388610839843750e+01,8.538803100585937500e+01,1.345989227294921875e+02,-2.122683525085449219e+00,-3.248474884033203125e+01,-1.844865570068359375e+02,3.611000823974609375e+01,2.276802253723144531e+01,3.295377349853515625e+01
5.199999809265136719e-01,2.000000000000000000e+00,-2.472740364074707031e+01,-1.953042268753051758e+00,4.614345169067382812e+01,9.538014984130859375e+01,8.538541412353515625e+01,1.345918731689453125e+02,-2.173725605010986328e+00,-3.247912597656250000e+01,-1.844814605712890625e+02,3.611219787597656250e+01,2.278555488586425781e+01,3.294811630249023438e+01
5.239999890327453613e-01,2.000000000000000000e+00,-2.478113746643066406e+01,-1.916842222213745117e+00,4.609800338745117188e+01,9.538640594482421875e+01,8.538278961181640625e+01,1.345848236083984375e+02,-2.224756240844726562e+00,-3.247349929809570312e+01,-1.844763488769531250e+02,3.611438369750976562e+01,2.280308151245117188e+01,3.294245529174804688e+01
5.279999971389770508e-01,2.000000000000000000e+00,-2.483485984802246094e+01,-1.880650758743286133e+00,4.605256652832031250e+01,9.539266204833984375e+01,8.538016510009765625e+01,1.345777740478515625e+02,-2.275775194168090820e+00,-3.246787643432617188e+01,-1.844712524414062500e+02,3.611657333374023438e+01,2.282060623168945312e+01,3.293679809570312500e+01
5.320000052452087402e-01,2.000000000000000000e+00,-2.488856887817382812e+01,-1.844467163085937500e+00,4.600714111328125000e+01,9.539891815185546875e+01,8.537754058837890625e+01,1.345707244873046875e+02,-2.326782464981079102e+00,-3.246225738525390625e+01,-1.844661560058593750e+02,3.611875915527343750e+01,2.283812713623046875e+01,3.293114089965820312e+01
5.360000133514404297e-01,2.000000000000000000e+00,-2.494226646423339844e+01,-1.808291912078857422e+00,4.596172332763671875e+01,9.540517425537109375e+01,8.537492370605468750e+01,1.345636901855468750e+02,-2.377778530120849609e+00,-3.245663452148437500e+01,-1.844610595703125000e+02,3.612094497680664062e+01,2.285564422607421875e+01,3.292548751831054688e+01
5.400000214576721191e-01,2.000000000000000000e+00,-2.499595260620117188e+01,-1.772125005722045898e+00,4.591631698608398438e+01,9.541142272949218750e+01,8.537229919433593750e+01,1.345566406250000000e+02,-2.428762674331665039e+00,-3.245101928710937500e+01,-1.844559631347656250e+02,3.612313079833984375e+01,2.287315559387207031e+01,3.291983032226562500e+01
5.440000295639038086e-01,2.000000000000000000e+00,-2.504962539672851562e+01,-1.735966086387634277e+00,4.587092208862304688e+01,9.541767883300781250e+01,8.536967468261718750e+01,1.345496063232421875e+02,-2.479735374450683594e+00,-3.244540405273437500e+01,-1.844508666992187500e+02,3.612531280517578125e+01,2.289066505432128906e+01,3.291418075561523438e+01
5.479999780654907227e-01,2.000000000000000000e+00,-2.510328674316406250e+01,-1.699815511703491211e+00,4.582553482055664062e+01,9.542393493652343750e+01,8.536705780029296875e+01,1.345425567626953125e+02,-2.530696630477905273e+00,-3.243978500366210938e+01,-1.844457702636718750e+02,3.612749862670898438e+01,2.290816879272460938e+01,3.290852737426757812e+01
5.519999861717224121e-01,2.000000000000000000e+00,-2.515693664550781250e+01,-1.663673043251037598e+00,4.578015899658203125e+01,9.543018341064453125e+01,8.536443328857421875e+01,1.345355224609375000e+02,-2.581646203994750977e+00,-3.243416976928710938e+01,-1.844406890869140625e+02,3.612968063354492188e+01,2.292567253112792969e+01,3.290287780761718750e+01
5.559999942779541016e-01,2.000000000000000000e+00,-2.521057128906250000e+01,-1.627538800239562988e+00,4.573479843139648438e+01,9.543642425537109375e+01,8.536181640625000000e+01,1.345284881591796875e+02,-2.632584095001220703e+00,-3.242856216430664062e+01,-1.844356079101562500e+02,3.613186645507812500e+01,2.294316673278808594e+01,3.289722824096679688e+01
5.600000023841857910e-01,2.000000000000000000e+00,-2.526419639587402344e+01,-1.591412782669067383e+00,4.568944168090820312e+01,9.544267272949218750e+01,8.535919952392578125e+01,1.345214538574218750e+02,-2.683510780334472656e+00,-3.242294692993164062e+01,-1.844305114746093750e+02,3.613404846191406250e+01,2.296066093444824219e+01,3.289158248901367188e+01
5.640000104904174805e-01,2.000000000000000000e+00,-2.531781005859375000e+01,-1.555294871330261230e+00,4.564409637451171875e+01,9.544891357421875000e+01,8.535658264160156250e+01,1.345144195556640625e+02,-2.734425783157348633e+00,-3.241733551025390625e+01,-1.844254302978515625e+02,3.613623046875000000e+01,2.297814941406250000e+01,3.288593292236328125e+01
5.680000185966491699e-01,2.000000000000000000e+00,-2.537141036987304688e+01,-1.519185185432434082e+00,4.559876251220703125e+01,9.545516204833984375e+01,8.535396575927734375e+01,1.345074005126953125e+02,-2.785329103469848633e+00,-3.241172790527343750e+01,-1.844203491210937500e+02,3.613841247558593750e+01,2.299563407897949219e+01,3.288028717041015625e+01
5.720000267028808594e-01,2.000000000000000000e+00,-2.542499923706054688e+01,-1.483083605766296387e+00,4.555344009399414062e+01,9.546140289306640625e+01,8.535134887695312500e+01,1.345003662109375000e+02,-2.836221218109130859e+00,-3.240612030029296875e+01,-1.844152526855468750e+02,3.614059066772460938e+01,2.301311492919921875e+01,3.287464523315429688e+01
5.759999752044677734e-01,2.000000000000000000e+00,-2.547857475280761719e+01,-1.446990370750427246e+00,4.550812530517578125e+01,9.546764373779296875e+01,8.534873199462890625e+01,1.344933319091796875e+02,-2.887101650238037109e+00,-3.240051269531250000e+01,-1.844101715087890625e+02,3.614277267456054688e+01,2.303059005737304688e+01,3.286900329589843750e+01
5.799999833106994629e-01,2.000000000000000000e+00,-2.553213882446289062e+01,-1.410905122756958008e+00,4.546282196044921875e+01,9.547388458251953125e+01,8.534611511230468750e+01,1.344862976074218750e+02,-2.937970399856567383e+00,-3.239490890502929688e+01,-1.844050903320312500e+02,3.614495468139648438e+01,2.304806327819824219e+01,3.286336517333984375e+01
5.839999914169311523e-01,2.000000000000000000e+00,-2.558568954467773438e+01,-1.374828100204467773e+00,4.541752624511718750e+01,9.548011779785156250e+01,8.534349822998046875e+01,1.344792785644531250e+02,-2.988827943801879883e+00,-3.238930130004882812e+01,-1.843999938964843750e+02,3.614713287353515625e+01,2.306553268432617188e+01,3.285772323608398438e+01
5.879999995231628418e-01,2.000000000000000000e+00,-2.563922882080078125e+01,-1.338759303092956543e+00,4.537224197387695312e+01,9.548635101318359375e+01,8.534088897705078125e+01,1.344722595214843750e+02,-3.039673805236816406e+00,-3.238370132446289062e+01,-1.843949127197265625e+02,3.614931106567382812e+01,2.308299636840820312e+01,3.285208511352539062e+01
5.920000076293945312e-01,2.000000000000000000e+00,-2.569275665283203125e+01,-1.302698612213134766e+00,4.532697296142578125e+01,9.549259185791015625e+01,8.533827972412109375e+01,1.344652404785156250e+02,-3.090507984161376953e+00,-3.237809753417968750e+01,-1.843898315429687500e+02,3.615149307250976562e+01,2.310045623779296875e+01,3.284644317626953125e+01
5.960000157356262207e-01,2.000000000000000000e+00,-2.574627113342285156e+01,-1.266646146774291992e+00,4.528170776367187500e+01,9.549882507324218750e+01,8.533566284179687500e+01,1.344582214355468750e+02,-3.141330718994140625e+00,-3.237249755859375000e+01,-1.843847656250000000e+02,3.615367126464843750e+01,2.311791419982910156e+01,3.284080886840820312e+01
6.000000238418579102e-01,2.000000000000000000e+00,-2.579977607727050781e+01,-1.230601787567138672e+00,4.523645782470703125e+01,9.550505065917968750e+01,8.533305358886718750e+01,1.344512023925781250e+02,-3.192142009735107422e+00,-3.236689758300781250e+01,-1.843796844482421875e+02,3.615584564208984375e+01,2.313536643981933594e+01,3.283517456054687500e+01
6.039999723434448242e-01,2.000000000000000000e+00,-2.585326766967773438e+01,-1.194565653800964355e+00,4.519121551513671875e+01,9.551128387451171875e+01,8.533043670654296875e+01,1.344441833496093750e+02,-3.242942094802856445e+00,-3.236130142211914062e+01,-1.843746032714843750e+02,3.615802383422851562e+01,2.315281486511230469e+01,3.282954025268554688e+01
6.079999804496765137e-01,2.000000000000000000e+00,-2.590674591064453125e+01,-1.158537507057189941e+00,4.514598464965820312e+01,9.551750946044921875e+01,8.532782745361328125e+01,1.344371643066406250e+02,-3.293730258941650391e+00,-3.235570144653320312e+01,-1.843695373535156250e+02,3.616019821166992188e+01,2.317025947570800781e+01,3.282390975952148438e+01
6.119999885559082031e-01,2.000000000000000000e+00,-2.596021270751953125e+01,-1.122517585754394531e+00,4.510076522827148438e+01,9.552374267578125000e+01,8.532521820068359375e+01,1.344301605224609375e+02,-3.344507217407226562e+00,-3.235010910034179688e+01,-1.843644714355468750e+02,3.616238021850585938e+01,2.318770027160644531e+01,3.281827545166015625e+01
6.159999966621398926e-01,2.000000000000000000e+00,-2.601366615295410156e+01,-1.086505770683288574e+00,4.505555343627929688e+01,9.552996826171875000e+01,8.532260894775390625e+01,1.344231414794921875e+02,-3.395272493362426758e+00,-3.234451675415039062e+01,-1.843593902587890625e+02,3.616455459594726562e+01,2.320513725280761719e+01,3.281264877319335938e+01
6.200000047683715820e-01,2.000000000000000000e+00,-2.606711196899414062e+01,-1.050502061843872070e+00,4.501034927368164062e+01,9.553619384765625000e+01,8.531999969482421875e+01,1.344161224365234375e+02,-3.446026325225830078e+00,-3.233892059326171875e+01,-1.843543243408203125e+02,3.616672897338867188e+01,2.322257041931152344e+01,3.280702209472656250e+01
6.240000128746032715e-01,2.000000000000000000e+00,-2.612054252624511719e+01,-1.014506459236145020e+00,4.496516036987304688e+01,9.554241180419921875e+01,8.531739044189453125e+01,1.344091186523437500e+02,-3.496768712997436523e+00,-3.233333206176757812e+01,-1.843492584228515625e+02,3.616890335083007812e+01,2.323999977111816406e+01,3.280139160156250000e+01
6.280000209808349609e-01,2.000000000000000000e+00,-2.617396163940429688e+01,-9.785189628601074219e-01,4.491997909545898438e+01,9.554863739013671875e+01,8.531478118896484375e+01,1.344021148681640625e+02,-3.547499656677246094e+00,-3.232773971557617188e+01,-1.843441925048828125e+02,3.617107772827148438e+01,2.325742530822753906e+01,3.279576873779296875e+01
6.320000290870666504e-01,2.000000000000000000e+00,-2.622736740112304688e+01,-9.425395131111145020e-01,4.487480926513671875e+01,9.555486297607421875e+01,8.531217193603515625e+01,1.343951110839843750e+02,-3.598219156265258789e+00,-3.232215118408203125e+01,-1.843391113281250000e+02,3.617325210571289062e+01,2.327484512329101562e+01,3.279014205932617188e+01
6.359999775886535645e-01,2.000000000000000000e+00,-2.628076362609863281e+01,-9.065681099891662598e-01,4.482964706420898438e+01,9.556107330322265625e+01,8.530956268310546875e+01,1.343880920410156250e+02,-3.648927450180053711e+00,-3.231656265258789062e+01,-1.843340454101562500e+02,3.617542648315429688e+01,2.329226303100585938e+01,3.278451919555664062e+01
6.399999856948852539e-01,2.000000000000000000e+00,-2.633414649963378906e+01,-8.706048727035522461e-01,4.478450012207031250e+01,9.556729888916015625e+01,8.530696105957031250e+01,1.343811035156250000e+02,-3.699624061584472656e+00,-3.231097412109375000e+01,-1.843289794921875000e+02,3.617760086059570312e+01,2.330967521667480469e+01,3.277889633178710938e+01
6.439999938011169434e-01,2.000000000000000000e+00,-2.638751792907714844e+01,-8.346496820449829102e-01,4.473935699462890625e+01,9.557351684570312500e+01,8.530435180664062500e+01,1.343740997314453125e+02,-3.750309705734252930e+00,-3.230539321899414062e+01,-1.843239135742187500e+02,3.617977142333984375e+01,2.332708549499511719e+01,3.277327728271484375e+01
6.480000019073486328e-01,2.000000000000000000e+00,-2.644087600708007812e+01,-7.987024784088134766e-01,4.469422912597656250e+01,9.557972717285156250e+01,8.530175018310546875e+01,1.343670959472656250e+02,-3.800983667373657227e+00,-3.229980468750000000e+01,-1.843188629150390625e+02,3.618194580078125000e+01,2.334449005126953125e+01,3.276765441894531250e+01
6.520000100135803223e-01,2.000000000000000000e+00,-2.649422454833984375e+01,-7.627633810043334961e-01,4.464910888671875000e+01,9.558593750000000000e+01,8.529914093017578125e+01,1.343601074218750000e+02,-3.851646661758422852e+00,-3.229422378540039062e+01,-1.843137969970703125e+02,3.618411636352539062e+01,2.336189270019531250e+01,3.276203918457031250e+01
6.560000181198120117e-01,2.000000000000000000e+00,-2.654755973815917969e+01,-7.268322110176086426e-01,4.460399627685546875e+01,9.559215545654296875e+01,8.529653930664062500e+01,1.343531188964843750e+02,-3.902297973632812500e+00,-3.228863906860351562e+01,-1.843087158203125000e+02,3.618628311157226562e+01,2.337928962707519531e+01,3.275642013549804688e+01
6.600000262260437012e-01,2.000000000000000000e+00,-2.660088157653808594e+01,-6.909090280532836914e-01,4.455889892578125000e+01,9.559835815429687500e+01,8.529393768310546875e+01,1.343461151123046875e+02,-3.952938318252563477e+00,-3.228306198120117188e+01,-1.843036651611328125e+02,3.618845748901367188e+01,2.339668273925781250e+01,3.275080490112304688e+01
6.639999747276306152e-01,2.000000000000000000e+00,-2.665419578552246094e+01,-6.549938321113586426e-01,4.451380920410156250e+01,9.560456848144531250e+01,8.529133605957031250e+01,1.343391265869140625e+02,-4.003567218780517578e+00,-3.227748489379882812e+01,-1.842986145019531250e+02,3.619062423706054688e+01,2.341407394409179688e+01,3.274518966674804688e+01
6.679999828338623047e-01,2.000000000000000000e+00,-2.670749473571777344e+01,-6.190866231918334961e-01,4.446873092651367188e+01,9.561077880859375000e+01,8.528872680664062500e+01,1.343321380615234375e+02,-4.054185390472412109e+00,-3.227190399169921875e+01,-1.842935485839843750e+02,3.619279861450195312e+01,2.343146133422851562e+01,3.273957824707031250e+01
6.719999909400939941e-01,2.000000000000000000e+00,-2.676078224182128906e+01,-5.831874012947082520e-01,4.442365646362304688e+01,9.561698913574218750e+01,8.528612518310546875e+01,1.343251342773437500e+02,-4.104791641235351562e+00,-3.226632690429687500e+01,-1.842884979248046875e+02,3.619496536254882812e+01,2.344884300231933594e+01,3.273396682739257812e+01
6.759999990463256836e-01,2.000000000000000000e+00,-2.681406021118164062e+01,-5.472961068153381348e-01,4.437859725952148438e+01,9.562319946289062500e+01,8.528352355957031250e+01,1.343181457519531250e+02,-4.155387401580810547e+00,-3.226075363159179688e+01,-1.842834320068359375e+02,3.619713592529296875e+01,2.346622085571289062e+01,3.272835540771484375e+01
6.800000071525573730e-01,2.000000000000000000e+00,-2.686732292175292969e+01,-5.114127397537231445e-01,4.433354949951171875e+01,9.562939453125000000e+01,8.528092193603515625e+01,1.343111572265625000e+02,-4.205971717834472656e+00,-3.225518035888671875e+01,-1.842783813476562500e+02,3.619930267333984375e+01,2.348359680175781250e+01,3.272274398803710938e+01
6.840000152587890625e-01,2.000000000000000000e+00,-2.692057609558105469e+01,-4.755373597145080566e-01,4.428850936889648438e+01,9.563559722900390625e+01,8.527832031250000000e+01,1.343041839599609375e+02,-4.256544589996337891e+00,-3.224960708618164062e+01,-1.842733306884765625e+02,3.620146942138671875e+01,2.350096702575683594e+01,3.271713638305664062e+01
6.880000233650207520e-01,2.000000000000000000e+00,-2.697381591796875000e+01,-4.396698474884033203e-01,4.424347686767578125e+01,9.564179992675781250e+01,8.527572631835937500e+01,1.342971954345703125e+02,-4.307106494903564453e+00,-3.224403381347656250e+01,-1.842682800292968750e+02,3.620363616943359375e+01,2.351833343505859375e+01,3.271152877807617188e+01
6.919999718666076660e-01,2.000000000000000000e+00,-2.702704429626464844e+01,-4.038102626800537109e-01,4.419845962524414062e+01,9.564800262451171875e+01,8.527312469482421875e+01,1.342902069091796875e+02,-4.357657432556152344e+00,-3.223846435546875000e+01,-1.842632293701171875e+02,3.620580291748046875e+01,2.353569602966308594e+01,3.270592117309570312e+01
6.959999799728393555e-01,2.000000000000000000e+00,-2.708026313781738281e+01,-3.679585754871368408e-01,4.415344619750976562e+01,9.565419769287109375e+01,8.527053070068359375e+01,1.342832336425781250e+02,-4.408197402954101562e+00,-3.223289108276367188e+01,-1.842581787109375000e+02,3.620796966552734375e+01,2.355305671691894531e+01,3.270031738281250000e+01
6.999999880790710449e-01,2.000000000000000000e+00,-2.713346862792968750e+01,-3.321147859096527100e-01,4.410844802856445312e+01,9.566040039062500000e+01,8.526792907714843750e+01,1.342762451171875000e+02,-4.458725929260253906e+00,-3.222732543945312500e+01,-1.842531280517578125e+02,3.621013641357421875e+01,2.357041358947753906e+01,3.269471359252929688e+01
7.039999961853027344e-01,2.000000000000000000e+00,-2.718666076660156250e+01,-2.962788939476013184e-01,4.406345748901367188e+01,9.566659545898437500e+01,8.526532745361328125e+01,1.342692871093750000e+02,-4.509243011474609375e+00,-3.222175979614257812e+01,-1.842480773925781250e+02,3.621229934692382812e+01,2.358776283264160156e+01,3.268910980224609375e+01
7.080000042915344238e-01,2.000000000000000000e+00,-2.723984336853027344e+01,-2.604508697986602783e-01,4.401847457885742188e+01,9.567279052734375000e+01,8.526273345947265625e+01,1.342622985839843750e+02,-4.559749603271484375e+00,-3.221619415283203125e+01,-1.842430267333984375e+02,3.621446609497070312e+01,2.360511207580566406e+01,3.268350982666015625e+01
7.120000123977661133e-01,2.000000000000000000e+00,-2.729301452636718750e+01,-2.246307581663131714e-01,4.397350692749023438e+01,9.567897796630859375e+01,8.526013946533203125e+01,1.342553253173828125e+02,-4.610244750976562500e+00,-3.221062850952148438e+01,-1.842379913330078125e+02,3.621662902832031250e+01,2.362245559692382812e+01,3.267790985107421875e+01
7.160000205039978027e-01,2.000000000000000000e+00,-2.734617233276367188e+01,-1.888185292482376099e-01,4.392854309082031250e+01,9.568517303466796875e+01,8.525754547119140625e+01,1.342483520507812500e+02,-4.660728931427001953e+00,-3.220506668090820312e+01,-1.842329559326171875e+02,3.621879196166992188e+01,2.363979530334472656e+01,3.267231369018554688e+01
7.200000286102294922e-01,2.000000000000000000e+00,-2.739931869506835938e+01,-1.530141979455947876e-01,4.388359451293945312e+01,9.569136047363281250e+01,8.525495147705078125e+01,1.342413787841796875e+02,-4.711202144622802734e+00,-3.219950485229492188e+01,-1.842279052734375000e+02,3.622095489501953125e+01,2.365713310241699219e+01,3.266671371459960938e+01
7.239999771118164062e-01,2.000000000000000000e+00,-2.745245552062988281e+01,-1.172177344560623169e-01,4.383864974975585938e+01,9.569754791259765625e+01,8.525234985351562500e+01,1.342344055175781250e+02,-4.761663913726806641e+00,-3.219394302368164062e+01,-1.842228546142578125e+02,3.622312164306640625e+01,2.367446517944335938e+01,3.266111755371093750e+01
7.279999852180480957e-01,2.000000000000000000e+00,-2.750557899475097656e+01,-8.142916113138198853e-02,4.379372024536132812e+01,9.570373535156250000e+01,8.524975585937500000e+01,1.342274322509765625e+02,-4.812114715576171875e+00,-3.218838500976562500e+01,-1.842178192138671875e+02,3.622528076171875000e+01,2.369179344177246094e+01,3.265552520751953125e+01
7.319999933242797852e-01,2.000000000000000000e+00,-2.755868911743164062e+01,-4.564846679568290710e-02,4.374879837036132812e+01,9.570992279052734375e+01,8.524716949462890625e+01,1.342204742431640625e+02,-4.862554073333740234e+00,-3.218282318115234375e+01,-1.842127685546875000e+02,3.622744369506835938e+01,2.370911788940429688e+01,3.264992904663085938e+01
7.360000014305114746e-01,2.000000000000000000e+00,-2.761178970336914062e+01,-9.875643998384475708e-03,4.370388793945312500e+01,9.571611022949218750e+01,8.524457550048828125e+01,1.342135009765625000e+02,-4.912982940673828125e+00,-3.217726898193359375e+01,-1.842077484130859375e+02,3.622960662841796875e+01,2.372644042968750000e+01,3.264433670043945312e+01
7.400000095367431641e-01,2.000000000000000000e+00,-2.766487884521484375e+01,2.588930539786815643e-02,4.365898513793945312e+01,9.572229766845703125e+01,8.524198150634765625e+01,1.342065429687500000e+02,-4.963400363922119141e+00,-3.217171096801757812e+01,-1.842026977539062500e+02,3.623176574707031250e+01,2.374375724792480469e+01,3.263874435424804688e+01
7.440000176429748535e-01,2.000000000000000000e+00,-2.771795463562011719e+01,6.164638698101043701e-02,4.361409378051757812e+01,9.572847747802734375e+01,8.523938751220703125e+01,1.341995849609375000e+02,-5.013806819915771484e+00,-3.216615676879882812e+01,-1.841976623535156250e+02,3.623392486572265625e+01,2.376107025146484375e+01,3.263315582275390625e+01
7.480000257492065430e-01,2.000000000000000000e+00,-2.777102088928222656e+01,9.739559888839721680e-02,4.356921386718750000e+01,9.573465728759765625e+01,8.523680114746093750e+01,1.341926116943359375e+02,-5.064201831817626953e+00,-3.216060638427734375e+01,-1.841926269531250000e+02,3.623608779907226562e+01,2.377838134765625000e+01,3.262756729125976562e+01
7.519999742507934570e-01,2.000000000000000000e+00,-2.782407379150390625e+01,1.331369429826736450e-01,4.352434158325195312e+01,9.574083709716796875e+01,8.523421478271484375e+01,1.341856689453125000e+02,-5.114586353302001953e+00,-3.215505218505859375e+01,-1.841875915527343750e+02,3.623824691772460938e+01,2.379568862915039062e+01,3.262198257446289062e+01
7.559999823570251465e-01,2.000000000000000000e+00,-2.787711524963378906e+01,1.688704341650009155e-01,4.347948074340820312e+01,9.574701690673828125e+01,8.523161315917968750e+01,1.341786956787109375e+02,-5.164959430694580078e+00,-3.214950180053710938e+01,-1.841825561523437500e+02,3.624040222167968750e+01,2.381298828125000000e+01,3.261639404296875000e+01
7.599999904632568359e-01,2.000000000000000000e+00,-2.793014717102050781e+01,2.045960575342178345e-01,4.343462753295898438e+01,9.575318908691406250e+01,8.522902679443359375e+01,1.341717529296875000e+02,-5.215321063995361328e+00,-3.214395141601562500e+01,-1.841775360107421875e+02,3.624256134033203125e+01,2.383028793334960938e+01,3.261080932617187500e+01
7.639999985694885254e-01,2.000000000000000000e+00,-2.798316383361816406e+01,2.403138279914855957e-01,4.338978958129882812e+01,9.575936889648437500e+01,8.522644042968750000e+01,1.341647949218750000e+02,-5.265672206878662109e+00,-3.213840484619140625e+01,-1.841725006103515625e+02,3.624472045898437500e+01,2.384758186340332031e+01,3.260522842407226562e+01
7.680000066757202148e-01,2.000000000000000000e+00,-2.803617095947265625e+01,2.760237455368041992e-01,4.334495544433593750e+01,9.576553344726562500e+01,8.522385406494140625e+01,1.341578369140625000e+02,-5.316011905670166016e+00,-3.213285827636718750e+01,-1.841674804687500000e+02,3.624687957763671875e+01,2.386487197875976562e+01,3.259964370727539062e+01
7.720000147819519043e-01,2.000000000000000000e+00,-2.808916664123535156e+01,3.117257952690124512e-01,4.330013275146484375e+01,9.577171325683593750e+01,8.522126007080078125e+01,1.341508789062500000e+02,-5.366340637207031250e+00,-3.212731170654296875e+01,-1.841624298095703125e+02,3.624903869628906250e+01,2.388216018676757812e+01,3.259406280517578125e+01
7.760000228881835938e-01,2.000000000000000000e+00,-2.814215087890625000e+01,3.474200367927551270e-01,4.325531768798828125e+01,9.577788543701171875e+01,8.521868133544921875e+01,1.341439361572265625e+02,-5.416658401489257812e+00,-3.212176513671875000e+01,-1.841574096679687500e+02,3.625119018554687500e+01,2.389944267272949219e+01,3.258848190307617188e+01
7.799999713897705078e-01,2.000000000000000000e+00,-2.819512176513671875e+01,3.831064105033874512e-01,4.321051788330078125e+01,9.578404998779296875e+01,8.521609497070312500e+01,1.341369934082031250e+02,-5.466965198516845703e+00,-3.211622238159179688e+01,-1.841523742675781250e+02,3.625334930419921875e+01,2.391672134399414062e+01,3.258290100097656250e+01
7.839999794960021973e-01,2.000000000000000000e+00,-2.824808120727539062e+01,4.187849462032318115e-01,4.316572189331054688e+01,9.579022216796875000e+01,8.521350097656250000e+01,1.341300354003906250e+02,-5.517261028289794922e+00,-3.211067962646484375e+01,-1.841473541259765625e+02,3.625550460815429688e+01,2.393399810791015625e+01,3.257732391357421875e+01
7.879999876022338867e-01,2.000000000000000000e+00,-2.830103111267089844e+01,4.544556140899658203e-01,4.312094116210937500e+01,9.579638671875000000e+01,8.521092224121093750e+01,1.341231079101562500e+02,-5.567544937133789062e+00,-3.210513687133789062e+01,-1.841423339843750000e+02,3.625765991210937500e+01,2.395126914978027344e+01,3.257174682617187500e+01
7.919999957084655762e-01,2.000000000000000000e+00,-2.835396575927734375e+01,4.901184737682342529e-01,4.307616806030273438e+01,9.580255889892578125e+01,8.520833587646484375e+01,1.341161499023437500e+02,-5.617818832397460938e+00,-3.209959793090820312e+01,-1.841373138427734375e+02,3.625981521606445312e+01,2.396853828430175781e+01,3.256616973876953125e+01
7.960000038146972656e-01,2.000000000000000000e+00,-2.840689277648925781e+01,5.257735252380371094e-01,4.303140640258789062e+01,9.580871582031250000e+01,8.520574951171875000e+01,1.341092071533203125e+02,-5.668081283569335938e+00,-3.209405899047851562e+01,-1.841322784423828125e+02,3.626197052001953125e+01,2.398580169677734375e+01,3.256059646606445312e+01
8.000000119209289551e-01,2.000000000000000000e+00,-2.845980453491210938e+01,5.614206790924072266e-01,4.298664855957031250e+01,9.581488800048828125e+01,8.520317077636718750e+01,1.341022644042968750e+02,-5.718332767486572266e+00,-3.208852386474609375e+01,-1.841272735595703125e+02,3.626412200927734375e+01,2.400306320190429688e+01,3.255502319335937500e+01
8.040000200271606445e-01,2.000000000000000000e+00,-2.851270866394042969e+01,5.970600247383117676e-01,4.294190597534179688e+01,9.582104492187500000e+01,8.520058441162109375e+01,1.340953369140625000e+02,-5.768572807312011719e+00,-3.208298873901367188e+01,-1.841222381591796875e+02,3.626627731323242188e+01,2.402031898498535156e+01,3.254945373535156250e+01
8.080000281333923340e-01,2.000000000000000000e+00,-2.856559753417968750e+01,6.326915621757507324e-01,4.289717483520507812e+01,9.582720947265625000e+01,8.519800567626953125e+01,1.340883941650390625e+02,-5.818802356719970703e+00,-3.207744979858398438e+01,-1.841172332763671875e+02,3.626842880249023438e+01,2.403757286071777344e+01,3.254388427734375000e+01
8.119999766349792480e-01,2.000000000000000000e+00,-2.861847686767578125e+01,6.683152914047241211e-01,4.285245132446289062e+01,9.583336639404296875e+01,8.519541931152343750e+01,1.340814514160156250e+02,-5.869020462036132812e+00,-3.207191848754882812e+01,-1.841121978759765625e+02,3.627058410644531250e+01,2.405481910705566406e+01,3.253831481933593750e+01
8.159999847412109375e-01,2.000000000000000000e+00,-2.867134475708007812e+01,7.039311528205871582e-01,4.280773162841796875e+01,9.583952331542968750e+01,8.519284057617187500e+01,1.340745239257812500e+02,-5.919228076934814453e+00,-3.206638336181640625e+01,-1.841071929931640625e+02,3.627273559570312500e+01,2.407206535339355469e+01,3.253274917602539062e+01
8.199999928474426270e-01,2.000000000000000000e+00,-2.872420120239257812e+01,7.395392060279846191e-01,4.276303100585937500e+01,9.584568023681640625e+01,8.519026184082031250e+01,1.340675811767578125e+02,-5.969424247741699219e+00,-3.206085205078125000e+01,-1.841021728515625000e+02,3.627488708496093750e+01,2.408930778503417969e+01,3.252717971801757812e+01
8.240000009536743164e-01,2.000000000000000000e+00,-2.877704238891601562e+01,7.751394510269165039e-01,4.271833419799804688e+01,9.585183715820312500e+01,8.518767547607421875e+01,1.340606536865234375e+02,-6.019609928131103516e+00,-3.205532073974609375e+01,-1.840971679687500000e+02,3.627703857421875000e+01,2.410654449462890625e+01,3.252161407470703125e+01
8.280000090599060059e-01,2.000000000000000000e+00,-2.882987785339355469e+01,8.107318878173828125e-01,4.267364883422851562e+01,9.585799407958984375e+01,8.518509674072265625e+01,1.340537261962890625e+02,-6.069783687591552734e+00,-3.204979324340820312e+01,-1.840921478271484375e+02,3.627918624877929688e+01,2.412377929687500000e+01,3.251605224609375000e+01
8.320000171661376953e-01,2.000000000000000000e+00,-2.888269805908203125e+01,8.463165163993835449e-01,4.262897491455078125e+01,9.586413574218750000e+01,8.518251800537109375e+01,1.340467987060546875e+02,-6.119946956634521484e+00,-3.204426574707031250e+01,-1.840871429443359375e+02,3.628133773803710938e+01,2.414100837707519531e+01,3.251048660278320312e+01
8.360000252723693848e-01,2.000000000000000000e+00,-2.893550682067871094e+01,8.818933367729187012e-01,4.258431243896484375e+01,9.587029266357421875e+01,8.517993927001953125e+01,1.340398712158203125e+02,-6.170099258422851562e+00,-3.203874206542968750e+01,-1.840821228027343750e+02,3.628348541259765625e+01,2.415823364257812500e+01,3.250492477416992188e+01
8.399999737739562988e-01,2.000000000000000000e+00,-2.898830413818359375e+01,9.174622893333435059e-01,4.253965377807617188e+01,9.587644195556640625e+01,8.517736053466796875e+01,1.340329437255859375e+02,-6.220240592956542969e+00,-3.203321456909179688e+01,-1.840771179199218750e+02,3.628563690185546875e+01,2.417545890808105469e+01,3.249936676025390625e+01
8.439999818801879883e-01,2.000000000000000000e+00,-2.904109001159667969e+01,9.530235528945922852e-01,4.249501037597656250e+01,9.588258361816406250e+01,8.517478179931640625e+01,1.340260162353515625e+02,-6.270370483398437500e+00,-3.202769088745117188e+01,-1.840721130371093750e+02,3.628778457641601562e+01,2.419267463684082031e+01,3.249380493164062500e+01
8.479999899864196777e-01,2.000000000000000000e+00,-2.909386444091796875e+01,9.885769486427307129e-01,4.245037460327148438e+01,9.588873291015625000e+01,8.517221069335937500e+01,1.340190887451171875e+02,-6.320489883422851562e+00,-3.202216720581054688e+01,-1.840670928955078125e+02,3.628993225097656250e+01,2.420989036560058594e+01,3.248825073242187500e+01
8.519999980926513672e-01,2.000000000000000000e+00,-2.914662742614746094e+01,1.024122476577758789e+00,4.240575027465820312e+01,9.589488220214843750e+01,8.516963195800781250e+01,1.340121765136718750e+02,-6.370598316192626953e+00,-3.201664352416992188e+01,-1.840620880126953125e+02,3.629207992553710938e+01,2.422710227966308594e+01,3.248269271850585938e+01
8.560000061988830566e-01,2.000000000000000000e+00,-2.919937705993652344e+01,1.059660315513610840e+00,4.236112976074218750e+01,9.590102386474609375e+01,8.516706085205078125e+01,1.340052490234375000e+02,-6.420695304870605469e+00,-3.201112747192382812e+01,-1.840570831298828125e+02,3.629422378540039062e+01,2.424431037902832031e+01,3.247713851928710938e+01
8.600000143051147461e-01,2.000000000000000000e+00,-2.925211906433105469e+01,1.095190405845642090e+00,4.231652450561523438e+01,9.590716552734375000e+01,8.516448211669921875e+01,1.339983367919921875e+02,-6.470781803131103516e+00,-3.200560379028320312e+01,-1.840520782470703125e+02,3.629637527465820312e+01,2.426151275634765625e+01,3.247158050537109375e+01
8.640000224113464355e-01,2.000000000000000000e+00,-2.930484580993652344e+01,1.130712628364562988e+00,4.227192687988281250e+01,9.591330718994140625e+01,8.516191101074218750e+01,1.339914093017578125e+02,-6.520856857299804688e+00,-3.200008773803710938e+01,-1.840470733642578125e+02,3.629852294921875000e+01,2.427871322631835938e+01,3.246602630615234375e+01
8.679999709129333496e-01,2.000000000000000000e+00,-2.935756301879882812e+01,1.166227102279663086e+00,4.222734069824218750e+01,9.591944885253906250e+01,8.515933227539062500e+01,1.339844970703125000e+02,-6.570921421051025391e+00,-3.199456977844238281e+01,-1.840420684814453125e+02,3.630066680908203125e+01,2.429590797424316406e+01,3.246047592163085938e+01
8.719999790191650391e-01,2.000000000000000000e+00,-2.941026878356933594e+01,1.201733708381652832e+00,4.218276214599609375e+01,9.592559051513671875e+01,8.515675354003906250e+01,1.339775848388671875e+02,-6.620974540710449219e+00,-3.198905563354492188e+01,-1.840370788574218750e+02,3.630281066894531250e+01,2.431310272216796875e+01,3.245492553710937500e+01
8.759999871253967285e-01,2.000000000000000000e+00,-2.946296119689941406e+01,1.237232565879821777e+00,4.213819503784179688e+01,9.593173217773437500e+01,8.515419006347656250e+01,1.339706726074218750e+02,-6.671016693115234375e+00,-3.198353958129882812e+01,-1.840320739746093750e+02,3.630495452880859375e+01,2.433028984069824219e+01,3.244937515258789062e+01
8.799999952316284180e-01,2.000000000000000000e+00,-2.951564216613769531e+01,1.272723674774169922e+00,4.209363937377929688e+01,9.593786621093750000e+01,8.515161132812500000e+01,1.339637603759765625e+02,-6.721048355102539062e+00,-3.197802734375000000e+01,-1.840270690917968750e+02,3.630710220336914062e+01,2.434747505187988281e+01,3.244382476806640625e+01
8.840000033378601074e-01,2.000000000000000000e+00,-2.956831359863281250e+01,1.308206915855407715e+00,4.204909133911132812e+01,9.594399261474609375e+01,8.514904022216796875e+01,1.339568481445312500e+02,-6.771069049835205078e+00,-3.197251510620117188e+01,-1.840220794677734375e+02,3.630924606323242188e+01,2.436465644836425781e+01,3.243827819824218750e+01
8.880000114440917969e-01,2.000000000000000000e+00,-2.962097358703613281e+01,1.343682527542114258e+00,4.200455474853515625e+01,9.595012664794921875e+01,8.514646911621093750e+01,1.339499511718750000e+02,-6.821078300476074219e+00,-3.196700286865234375e+01,-1.840170745849609375e+02,3.631138610839843750e+01,2.438183212280273438e+01,3.243273544311523438e+01
8.920000195503234863e-01,2.000000000000000000e+00,-2.967362022399902344e+01,1.379150271415710449e+00,4.196002578735351562e+01,9.595626068115234375e+01,8.514390563964843750e+01,1.339430389404296875e+02,-6.871077060699462891e+00,-3.196149444580078125e+01,-1.840120849609375000e+02,3.631352996826171875e+01,2.439900779724121094e+01,3.242719268798828125e+01
8.960000276565551758e-01,2.000000000000000000e+00,-2.972625350952148438e+01,1.414610266685485840e+00,4.191550445556640625e+01,9.596239471435546875e+01,8.514132690429687500e+01,1.339361419677734375e+02,-6.921063899993896484e+00,-3.195598602294921875e+01,-1.840070953369140625e+02,3.631567382812500000e+01,2.441617584228515625e+01,3.242164611816406250e+01
8.999999761581420898e-01,2.000000000000000000e+00,-2.977888107299804688e+01,1.450062632560729980e+00,4.187099838256835938e+01,9.596852111816406250e+01,8.513876342773437500e+01,1.339292297363281250e+02,-6.971041202545166016e+00,-3.195047760009765625e+01,-1.840020904541015625e+02,3.631781768798828125e+01,2.443334197998046875e+01,3.241610336303710938e+01
9.039999842643737793e-01,2.000000000000000000e+00,-2.983149337768554688e+01,1.485507011413574219e+00,4.182649612426757812e+01,9.597464752197265625e+01,8.513619232177734375e+01,1.339223327636718750e+02,-7.021006584167480469e+00,-3.194497299194335938e+01,-1.839971008300781250e+02,3.631995773315429688e+01,2.445050430297851562e+01,3.241056442260742188e+01
9.079999923706054688e-01,2.000000000000000000e+00,-2.988409233093261719e+01,1.520943760871887207e+00,4.178200912475585938e+01,9.598077392578125000e+01,8.513362121582031250e+01,1.339154357910156250e+02,-7.070960998535156250e+00,-3.193946838378906250e+01,-1.839921112060546875e+02,3.632209777832031250e+01,2.446766281127929688e+01,3.240502166748046875e+01
9.120000004768371582e-01,2.000000000000000000e+00,-2.993668174743652344e+01,1.556372761726379395e+00,4.173752975463867188e+01,9.598690032958984375e+01,8.513105773925781250e+01,1.339085388183593750e+02,-7.120904922485351562e+00,-3.193396568298339844e+01,-1.839871215820312500e+02,3.632423782348632812e+01,2.448481750488281250e+01,3.239948272705078125e+01
9.160000085830688477e-01,2.000000000000000000e+00,-2.998926162719726562e+01,1.591794013977050781e+00,4.169305801391601562e+01,9.599302673339843750e+01,8.512848663330078125e+01,1.339016418457031250e+02,-7.170837879180908203e+00,-3.192846107482910156e+01,-1.839821319580078125e+02,3.632637786865234375e+01,2.450196838378906250e+01,3.239394378662109375e+01
9.200000166893005371e-01,2.000000000000000000e+00,-3.004183006286621094e+01,1.627207398414611816e+00,4.164860153198242188e+01,9.599915313720703125e+01,8.512591552734375000e+01,1.338947448730468750e+02,-7.220759868621826172e+00,-3.192296218872070312e+01,-1.839771423339843750e+02,3.632852172851562500e+01,2.451911544799804688e+01,3.238840866088867188e+01
9.240000247955322266e-01,2.000000000000000000e+00,-3.009438323974609375e+01,1.662613153457641602e+00,4.160415267944335938e+01,9.600527191162109375e+01,8.512335968017578125e+01,1.338878631591796875e+02,-7.270670890808105469e+00,-3.191746139526367188e+01,-1.839721527099609375e+02,3.633065795898437500e+01,2.453625869750976562e+01,3.238287734985351562e+01
9.279999732971191406e-01,2.000000000000000000e+00,-3.014692497253417969e+01,1.698011040687561035e+00,4.155971145629882812e+01,9.601139068603515625e+01,8.512078857421875000e+01,1.338809509277343750e+02,-7.320571422576904297e+00,-3.191196250915527344e+01,-1.839671783447265625e+02,3.633279418945312500e+01,2.455339813232421875e+01,3.237734222412109375e+01
9.319999814033508301e-01,2.000000000000000000e+00,-3.019945907592773438e+01,1.733401298522949219e+00,4.151528167724609375e+01,9.601750946044921875e+01,8.511822509765625000e+01,1.338740692138671875e+02,-7.370459556579589844e+00,-3.190646362304687500e+01,-1.839621887207031250e+02,3.633493423461914062e+01,2.457053565979003906e+01,3.237180709838867188e+01
9.359999895095825195e-01,2.000000000000000000e+00,-3.025197982788085938e+01,1.768783688545227051e+00,4.147085571289062500e+01,9.602362823486328125e+01,8.511566162109375000e+01,1.338671722412109375e+02,-7.420338153839111328e+00,-3.190096855163574219e+01,-1.839571990966796875e+02,3.633707046508789062e+01,2.458766746520996094e+01,3.236627578735351562e+01
9.399999976158142090e-01,2.000000000000000000e+00,-3.030448722839355469e+01,1.804158449172973633e+00,4.142644500732421875e+01,9.602973937988281250e+01,8.511309814453125000e+01,1.338602905273437500e+02,-7.470205307006835938e+00,-3.189547348022460938e+01,-1.839522094726562500e+02,3.633921051025390625e+01,2.460479545593261719e+01,3.236074829101562500e+01
9.440000057220458984e-01,2.000000000000000000e+00,-3.035698699951171875e+01,1.839525341987609863e+00,4.138204193115234375e+01,9.603586578369140625e+01,8.511052703857421875e+01,1.338534088134765625e+02,-7.520062446594238281e+00,-3.188998031616210938e+01,-1.839472351074218750e+02,3.634134674072265625e+01,2.462191963195800781e+01,3.235521697998046875e+01
9.480000138282775879e-01,2.000000000000000000e+00,-3.040947532653808594e+01,1.874884605407714844e+00,4.133765029907226562e+01,9.604197692871093750e+01,8.510797119140625000e+01,1.338465270996093750e+02,-7.569907188415527344e+00,-3.188448715209960938e+01,-1.839422607421875000e+02,3.634348297119140625e+01,2.463904190063476562e+01,3.234969329833984375e+01
9.520000219345092773e-01,2.000000000000000000e+00,-3.046194648742675781e+01,1.910236120223999023e+00,4.129327011108398438e+01,9.604808807373046875e+01,8.510540771484375000e+01,1.338396301269531250e+02,-7.619741916656494141e+00,-3.187899589538574219e+01,-1.839372711181640625e+02,3.634561920166015625e+01,2.465615844726562500e+01,3.234416198730468750e+01
9.559999704360961914e-01,2.000000000000000000e+00,-3.051441001892089844e+01,1.945580005645751953e+00,4.124889755249023438e+01,9.605419158935546875e+01,8.510284423828125000e+01,1.338327484130859375e+02,-7.669565677642822266e+00,-3.187350463867187500e+01,-1.839322967529296875e+02,3.634775543212890625e+01,2.467327117919921875e+01,3.233863830566406250e+01
9.599999785423278809e-01,2.000000000000000000e+00,-3.056686210632324219e+01,1.980916023254394531e+00,4.120453262329101562e+01,9.606031036376953125e+01,8.510028839111328125e+01,1.338258819580078125e+02,-7.719378948211669922e+00,-3.186801719665527344e+01,-1.839273223876953125e+02,3.634989166259765625e+01,2.469038200378417969e+01,3.233311462402343750e+01
9.639999866485595703e-01,2.000000000000000000e+00,-3.061930465698242188e+01,2.016244649887084961e+00,4.116018295288085938e+01,9.606641387939453125e+01,8.509772491455078125e+01,1.338190002441406250e+02,-7.769180774688720703e+00,-3.186252975463867188e+01,-1.839223327636718750e+02,3.635202407836914062e+01,2.470748710632324219e+01,3.232759475708007812e+01
9.679999947547912598e-01,2.000000000000000000e+00,-3.067173385620117188e+01,2.051565170288085938e+00,4.111583709716796875e+01,9.607251739501953125e+01,8.509516143798828125e+01,1.338121185302734375e+02,-7.818971633911132812e+00,-3.185704040527343750e+01,-1.839173736572265625e+02,3.635416030883789062e+01,2.472459030151367188e+01,3.232207107543945312e+01
9.720000028610229492e-01,2.000000000000000000e+00,-3.072414779663085938e+01,2.086878061294555664e+00,4.107150268554687500e+01,9.607862854003906250e+01,8.509260559082031250e+01,1.338052368164062500e+02,-7.868752002716064453e+00,-3.185155677795410156e+01,-1.839123992919921875e+02,3.635629272460937500e+01,2.474168777465820312e+01,3.231654739379882812e+01
9.760000109672546387e-01,2.000000000000000000e+00,-3.077655601501464844e+01,2.122183084487915039e+00,4.102717590332031250e+01,9.608473205566406250e+01,8.509004974365234375e+01,1.337983703613281250e+02,-7.918520927429199219e+00,-3.184607124328613281e+01,-1.839074249267578125e+02,3.635842514038085938e+01,2.475878334045410156e+01,3.231103134155273438e+01
9.800000190734863281e-01,2.000000000000000000e+00,-3.082895088195800781e+01,2.157480716705322266e+00,4.098286437988281250e+01,9.609082794189453125e+01,8.508748626708984375e+01,1.337914886474609375e+02,-7.968279838562011719e+00,-3.184058761596679688e+01,-1.839024505615234375e+02,3.636055755615234375e+01,2.477587509155273438e+01,3.230551147460937500e+01
9.840000271797180176e-01,2.000000000000000000e+00,-3.088133049011230469e+01,2.192770242691040039e+00,4.093856048583984375e+01,9.609693145751953125e+01,8.508493041992187500e+01,1.337846221923828125e+02,-8.018027305603027344e+00,-3.183510589599609375e+01,-1.838974761962890625e+02,3.636268997192382812e+01,2.479296112060546875e+01,3.229999542236328125e+01
9.879999756813049316e-01,2.000000000000000000e+00,-3.093370437622070312e+01,2.228052616119384766e+00,4.089426422119140625e+01,9.610302734375000000e+01,8.508237457275390625e+01,1.337777557373046875e+02,-8.067764282226562500e+00,-3.182962417602539062e+01,-1.838925018310546875e+02,3.636482238769531250e+01,2.481004524230957031e+01,3.229447937011718750e+01
9.919999837875366211e-01,2.000000000000000000e+00,-3.098606491088867188e+01,2.263326883316040039e+00,4.084997940063476562e+01,9.610913085937500000e+01,8.507981872558593750e+01,1.337708892822265625e+02,-8.117489814758300781e+00,-3.182414627075195312e+01,-1.838875274658203125e+02,3.636695480346679688e+01,2.482712554931640625e+01,3.228896331787109375e+01
9.959999918937683105e-01,2.000000000000000000e+00,-3.103841209411621094e+01,2.298593521118164062e+00,4.080570602416992188e+01,9.611522674560546875e+01,8.507726287841796875e+01,1.337640228271484375e+02,-8.167204856872558594e+00,-3.181866455078125000e+01,-1.838825683593750000e+02,3.636908340454101562e+01,2.484420013427734375e+01,3.228345108032226562e+01
1.000000000000000000e+00,2.000000000000000000e+00,-3.109075164794921875e+01,2.333852291107177734e+00,4.076144027709960938e+01,9.612133026123046875e+01,8.507470703125000000e+01,1.337571563720703125e+02,-8.216908454895019531e+00,-3.181319046020507812e+01,-1.838775939941406250e+02,3.637121582031250000e+01,2.486127471923828125e+01,3.227794265747070312e+01
1.003999948501586914e+00,2.000000000000000000e+00,-3.114307785034179688e+01,2.369103908538818359e+00,4.071718215942382812e+01,9.612741851806640625e+01,8.507215118408203125e+01,1.337502746582031250e+02,-8.266601562500000000e+00,-3.180771255493164062e+01,-1.838726348876953125e+02,3.637334823608398438e+01,2.487834358215332031e+01,3.227243041992187500e+01
1.008000016212463379e+00,2.000000000000000000e+00,-3.119539070129394531e+01,2.404347419738769531e+00,4.067293167114257812e+01,9.613351440429687500e+01,8.506959533691406250e+01,1.337434234619140625e+02,-8.316285133361816406e+00,-3.180223846435546875e+01,-1.838676757812500000e+02,3.637547302246093750e+01,2.489540672302246094e+01,3.226692199707031250e+01
1.011999964714050293e+00,2.000000000000000000e+00,-3.124769592285156250e+01,2.439583301544189453e+00,4.062869644165039062e+01,9.613960266113281250e+01,8.506703948974609375e+01,1.337365722656250000e+02,-8.365956306457519531e+00,-3.179676437377929688e+01,-1.838627166748046875e+02,3.637760162353515625e+01,2.491246795654296875e+01,3.226141357421875000e+01
1.016000032424926758e+00,2.000000000000000000e+00,-3.129998397827148438e+01,2.474811553955078125e+00,4.058446884155273438e+01,9.614569854736328125e+01,8.506449127197265625e+01,1.337297058105468750e+02,-8.415616989135742188e+00,-3.179129409790039062e+01,-1.838577575683593750e+02,3.637973403930664062e+01,2.492952537536621094e+01,3.225590515136718750e+01
1.019999980926513672e+00,2.000000000000000000e+00,-3.135226631164550781e+01,2.510031700134277344e+00,4.054025268554687500e+01,9.615178680419921875e+01,8.506193542480468750e+01,1.337228546142578125e+02,-8.465266227722167969e+00,-3.178582191467285156e+01,-1.838527984619140625e+02,3.638185882568359375e+01,2.494657897949218750e+01,3.225039672851562500e+01
1.024000048637390137e+00,2.000000000000000000e+00,-3.140453338623046875e+01,2.545244693756103516e+00,4.049604415893554688e+01,9.615787506103515625e+01,8.505938720703125000e+01,1.337159881591796875e+02,-8.514905929565429688e+00,-3.178035163879394531e+01,-1.838478240966796875e+02,3.638398742675781250e+01,2.496362876892089844e+01,3.224489212036132812e+01
1.026999950408935547e+00,2.000000000000000000e+00,-3.145679092407226562e+01,2.580449819564819336e+00,4.045184326171875000e+01,9.616396331787109375e+01,8.505683135986328125e+01,1.337091369628906250e+02,-8.564534187316894531e+00,-3.177488327026367188e+01,-1.838428649902343750e+02,3.638611602783203125e+01,2.498067665100097656e+01,3.223938751220703125e+01
1.031999945640563965e+00,2.000000000000000000e+00,-3.150903892517089844e+01,2.615647315979003906e+00,4.040765762329101562e+01,9.617005157470703125e+01,8.505428314208984375e+01,1.337022857666015625e+02,-8.614151954650878906e+00,-3.176941680908203125e+01,-1.838379058837890625e+02,3.638824081420898438e+01,2.499771881103515625e+01,3.223388671875000000e+01
1.036000013351440430e+00,2.000000000000000000e+00,-3.156127357482910156e+01,2.650836944580078125e+00,4.036347961425781250e+01,9.617613220214843750e+01,8.505172729492187500e+01,1.336954345703125000e+02,-8.663758277893066406e+00,-3.176394844055175781e+01,-1.838329620361328125e+02,3.639036560058593750e+01,2.501475715637207031e+01,3.222838592529296875e+01
1.039999961853027344e+00,2.000000000000000000e+00,-3.161349678039550781e+01,2.686019420623779297e+00,4.031930541992187500e+01,9.618221282958984375e+01,8.504917907714843750e+01,1.336885833740234375e+02,-8.713354110717773438e+00,-3.175848388671875000e+01,-1.838280029296875000e+02,3.639249038696289062e+01,2.503179168701171875e+01,3.222288513183593750e+01
1.044000029563903809e+00,2.000000000000000000e+00,-3.166570663452148438e+01,2.721193790435791016e+00,4.027514648437500000e+01,9.618829345703125000e+01,8.504663085937500000e+01,1.336817321777343750e+02,-8.762939453125000000e+00,-3.175302124023437500e+01,-1.838230438232421875e+02,3.639461898803710938e+01,2.504882431030273438e+01,3.221738433837890625e+01
1.047999978065490723e+00,2.000000000000000000e+00,-3.171791076660156250e+01,2.756360530853271484e+00,4.023099517822265625e+01,9.619437408447265625e+01,8.504409027099609375e+01,1.336748962402343750e+02,-8.812513351440429688e+00,-3.174755668640136719e+01,-1.838180999755859375e+02,3.639674377441406250e+01,2.506585121154785156e+01,3.221189117431640625e+01
1.052000045776367188e+00,2.000000000000000000e+00,-3.177009963989257812e+01,2.791519403457641602e+00,4.018685531616210938e+01,9.620045471191406250e+01,8.504153442382812500e+01,1.336680297851562500e+02,-8.862076759338378906e+00,-3.174209594726562500e+01,-1.838131408691406250e+02,3.639886856079101562e+01,2.508287620544433594e+01,3.220639038085937500e+01
1.054999947547912598e+00,2.000000000000000000e+00,-3.182227516174316406e+01,2.826671123504638672e+00,4.014272689819335938e+01,9.620652770996093750e+01,8.503898620605468750e+01,1.336611938476562500e+02,-8.911628723144531250e+00,-3.173663520812988281e+01,-1.838081970214843750e+02,3.640099334716796875e+01,2.509989547729492188e+01,3.220089721679687500e+01
1.059999942779541016e+00,2.000000000000000000e+00,-3.187444114685058594e+01,2.861814737319946289e+00,4.009860229492187500e+01,9.621260833740234375e+01,8.503644561767578125e+01,1.336543426513671875e+02,-8.961171150207519531e+00,-3.173117446899414062e+01,-1.838032379150390625e+02,3.640311431884765625e+01,2.511691284179687500e+01,3.219540023803710938e+01
1.064000010490417480e+00,2.000000000000000000e+00,-3.192659568786621094e+01,2.896950960159301758e+00,4.005448913574218750e+01,9.621868133544921875e+01,8.503389739990234375e+01,1.336475219726562500e+02,-9.010701179504394531e+00,-3.172571754455566406e+01,-1.837982940673828125e+02,3.640523529052734375e+01,2.513392448425292969e+01,3.218991088867187500e+01
1.067999958992004395e+00,2.000000000000000000e+00,-3.197874069213867188e+01,2.932079553604125977e+00,4.001038742065429688e+01,9.622475433349609375e+01,8.503134918212890625e+01,1.336406707763671875e+02,-9.060221672058105469e+00,-3.172025871276855469e+01,-1.837933502197265625e+02,3.640736007690429688e+01,2.515093421936035156e+01,3.218441772460937500e+01
1.072000026702880859e+00,2.000000000000000000e+00,-3.203087234497070312e+01,2.967200279235839844e+00,3.996629714965820312e+01,9.623082733154296875e+01,8.502880096435546875e+01,1.336338348388671875e+02,-9.109731674194335938e+00,-3.171480560302734375e+01,-1.837883911132812500e+02,3.640948104858398438e+01,2.516794013977050781e+01,3.217892837524414062e+01
1.075999975204467773e+00,2.000000000000000000e+00,-3.208299255371093750e+01,3.002313375473022461e+00,3.992221450805664062e+01,9.623689270019531250e+01,8.502626037597656250e+01,1.336269989013671875e+02,-9.159230232238769531e+00,-3.170934867858886719e+01,-1.837834472656250000e+02,3.641160202026367188e+01,2.518494224548339844e+01,3.217343902587890625e+01
1.080000042915344238e+00,2.000000000000000000e+00,-3.213510513305664062e+01,3.037418842315673828e+00,3.987814331054687500e+01,9.624296569824218750e+01,8.502371215820312500e+01,1.336201477050781250e+02,-9.208718299865722656e+00,-3.170389747619628906e+01,-1.837784881591796875e+02,3.641372680664062500e+01,2.520194053649902344e+01,3.216794967651367188e+01
1.083999991416931152e+00,2.000000000000000000e+00,-3.218720245361328125e+01,3.072516918182373047e+00,3.983407592773437500e+01,9.624903869628906250e+01,8.502117156982421875e+01,1.336133270263671875e+02,-9.258194923400878906e+00,-3.169844436645507812e+01,-1.837735443115234375e+02,3.641584777832031250e+01,2.521893310546875000e+01,3.216246414184570312e+01
1.088000059127807617e+00,2.000000000000000000e+00,-3.223928833007812500e+01,3.107606887817382812e+00,3.979002380371093750e+01,9.625510406494140625e+01,8.501862335205078125e+01,1.336064910888671875e+02,-9.307661056518554688e+00,-3.169299316406250000e+01,-1.837686157226562500e+02,3.641796493530273438e+01,2.523592567443847656e+01,3.215697860717773438e+01
1.090999960899353027e+00,2.000000000000000000e+00,-3.229136276245117188e+01,3.142689704895019531e+00,3.974597930908203125e+01,9.626116943359375000e+01,8.501608276367187500e+01,1.335996704101562500e+02,-9.357116699218750000e+00,-3.168754196166992188e+01,-1.837636718750000000e+02,3.642008590698242188e+01,2.525291252136230469e+01,3.215149307250976562e+01
1.095999956130981445e+00,2.000000000000000000e+00,-3.234342956542968750e+01,3.177764654159545898e+00,3.970194244384765625e+01,9.626723480224609375e+01,8.501354217529296875e+01,1.335928344726562500e+02,-9.406561851501464844e+00,-3.168209648132324219e+01,-1.837587280273437500e+02,3.642220687866210938e+01,2.526989555358886719e+01,3.214600753784179688e+01
1.100000023841857910e+00,2.000000000000000000e+00,-3.239548110961914062e+01,3.212831974029541016e+00,3.965791702270507812e+01,9.627329254150390625e+01,8.501100158691406250e+01,1.335859985351562500e+02,-9.455995559692382812e+00,-3.167664909362792969e+01,-1.837537994384765625e+02,3.642432403564453125e+01,2.528687477111816406e+01,3.214052963256835938e+01
1.103999972343444824e+00,2.000000000000000000e+00,-3.244752120971679688e+01,3.247891664505004883e+00,3.961390304565429688e+01,9.627935791015625000e+01,8.500846099853515625e+01,1.335791778564453125e+02,-9.505418777465820312e+00,-3.167120170593261719e+01,-1.837488555908203125e+02,3.642644119262695312e+01,2.530385208129882812e+01,3.213504791259765625e+01
1.108000040054321289e+00,2.000000000000000000e+00,-3.249955368041992188e+01,3.282943725585937500e+00,3.956989669799804688e+01,9.628541564941406250e+01,8.500592041015625000e+01,1.335723571777343750e+02,-9.554831504821777344e+00,-3.166575431823730469e+01,-1.837439270019531250e+02,3.642855834960937500e+01,2.532082366943359375e+01,3.212956619262695312e+01
1.111999988555908203e+00,2.000000000000000000e+00,-3.255157089233398438e+01,3.317988157272338867e+00,3.952589797973632812e+01,9.629147338867187500e+01,8.500337982177734375e+01,1.335655212402343750e+02,-9.604232788085937500e+00,-3.166031074523925781e+01,-1.837389831542968750e+02,3.643067550659179688e+01,2.533779144287109375e+01,3.212408828735351562e+01
1.116000056266784668e+00,2.000000000000000000e+00,-3.260358047485351562e+01,3.353024959564208984e+00,3.948191070556640625e+01,9.629753112792968750e+01,8.500083923339843750e+01,1.335587158203125000e+02,-9.653623580932617188e+00,-3.165487098693847656e+01,-1.837340393066406250e+02,3.643279266357421875e+01,2.535475730895996094e+01,3.211861038208007812e+01
1.118999958038330078e+00,2.000000000000000000e+00,-3.265557479858398438e+01,3.388054132461547852e+00,3.943793106079101562e+01,9.630358886718750000e+01,8.499829864501953125e+01,1.335518798828125000e+02,-9.703004837036132812e+00,-3.164942741394042969e+01,-1.837291107177734375e+02,3.643490982055664062e+01,2.537171745300292969e+01,3.211313629150390625e+01
