rpiRobotics/ARM-21-02-F-19-Robot-Motion-Program/data_performance_abb/curve_1/dual_arm/diffevo_pose3/grad_result/real_from_sim/sim_result/dual_iteration_5.csv
timestamp,cmd_num,J1,J2,J3,J4,J5,J6,J1_2,J2_2,J3_2,J4_2,J5_2,J6_2
0.000000000000000000e+00,-1.000000000000000000e+00,-1.947834396362304688e+01,-5.799133300781250000e+00,5.043825912475585938e+01,9.443093109130859375e+01,8.519931030273437500e+01,1.360501098632812500e+02,2.875952243804931641e+00,-3.308913421630859375e+01,-1.849182739257812500e+02,3.612692260742187500e+01,2.114251136779785156e+01,3.332301712036132812e+01
2.000000094994902611e-03,-1.000000000000000000e+00,-1.947834396362304688e+01,-5.799133300781250000e+00,5.043825912475585938e+01,9.443093109130859375e+01,8.519931030273437500e+01,1.360501098632812500e+02,2.875952243804931641e+00,-3.308913421630859375e+01,-1.849182739257812500e+02,3.612692260742187500e+01,2.114251136779785156e+01,3.332301712036132812e+01
6.000000052154064178e-03,-1.000000000000000000e+00,-1.947834396362304688e+01,-5.799133300781250000e+00,5.043825912475585938e+01,9.443093109130859375e+01,8.519931030273437500e+01,1.360501098632812500e+02,2.875952243804931641e+00,-3.308913421630859375e+01,-1.849182739257812500e+02,3.612692260742187500e+01,2.114251136779785156e+01,3.332301712036132812e+01
8.000000379979610443e-03,-1.000000000000000000e+00,-1.947834396362304688e+01,-5.799133300781250000e+00,5.043825912475585938e+01,9.443093109130859375e+01,8.519931030273437500e+01,1.360501098632812500e+02,2.875952243804931641e+00,-3.308913421630859375e+01,-1.849182739257812500e+02,3.612692260742187500e+01,2.114251136779785156e+01,3.332301712036132812e+01
1.099999994039535522e-02,-1.000000000000000000e+00,-1.947834396362304688e+01,-5.799133300781250000e+00,5.043825912475585938e+01,9.443093109130859375e+01,8.519931030273437500e+01,1.360501098632812500e+02,2.875952243804931641e+00,-3.308913421630859375e+01,-1.849182739257812500e+02,3.612692260742187500e+01,2.114251136779785156e+01,3.332301712036132812e+01
1.600000075995922089e-02,-1.000000000000000000e+00,-1.947834396362304688e+01,-5.799133300781250000e+00,5.043825912475585938e+01,9.443093109130859375e+01,8.519931030273437500e+01,1.360501098632812500e+02,2.875952243804931641e+00,-3.308913421630859375e+01,-1.849182739257812500e+02,3.612692260742187500e+01,2.114251136779785156e+01,3.332301712036132812e+01
1.999999955296516418e-02,-1.000000000000000000e+00,-1.947834396362304688e+01,-5.799133300781250000e+00,5.043825912475585938e+01,9.443093109130859375e+01,8.519931030273437500e+01,1.360501098632812500e+02,2.875952243804931641e+00,-3.308913421630859375e+01,-1.849182739257812500e+02,3.612692260742187500e+01,2.114251136779785156e+01,3.332301712036132812e+01
2.400000020861625671e-02,-1.000000000000000000e+00,-1.947834396362304688e+01,-5.799133300781250000e+00,5.043825912475585938e+01,9.443093109130859375e+01,8.519931030273437500e+01,1.360501098632812500e+02,2.875952243804931641e+00,-3.308913421630859375e+01,-1.849182739257812500e+02,3.612692260742187500e+01,2.114251136779785156e+01,3.332301712036132812e+01
2.800000086426734924e-02,2.000000000000000000e+00,-1.947834396362304688e+01,-5.799133300781250000e+00,5.043825912475585938e+01,9.443093109130859375e+01,8.519931030273437500e+01,1.360501098632812500e+02,2.875952243804931641e+00,-3.308913421630859375e+01,-1.849182739257812500e+02,3.612692260742187500e+01,2.114251136779785156e+01,3.332301712036132812e+01
3.400000184774398804e-02,2.000000000000000000e+00,-1.947834396362304688e+01,-5.799133300781250000e+00,5.043825912475585938e+01,9.443093109130859375e+01,8.519931030273437500e+01,1.360501098632812500e+02,2.875952243804931641e+00,-3.308913421630859375e+01,-1.849182739257812500e+02,3.612692260742187500e+01,2.114251136779785156e+01,3.332301712036132812e+01
3.799999877810478210e-02,2.000000000000000000e+00,-1.947834396362304688e+01,-5.799133300781250000e+00,5.043825912475585938e+01,9.443093109130859375e+01,8.519931030273437500e+01,1.360501098632812500e+02,2.875952243804931641e+00,-3.308913421630859375e+01,-1.849182739257812500e+02,3.612692260742187500e+01,2.114251136779785156e+01,3.332301712036132812e+01
3.999999910593032837e-02,2.000000000000000000e+00,-1.947834396362304688e+01,-5.799133300781250000e+00,5.043825912475585938e+01,9.443093109130859375e+01,8.519931030273437500e+01,1.360501098632812500e+02,2.875952243804931641e+00,-3.308913421630859375e+01,-1.849182739257812500e+02,3.612692260742187500e+01,2.114251136779785156e+01,3.332301712036132812e+01
4.600000008940696716e-02,2.000000000000000000e+00,-1.947834396362304688e+01,-5.799133300781250000e+00,5.043825912475585938e+01,9.443093109130859375e+01,8.519931030273437500e+01,1.360501098632812500e+02,2.875952243804931641e+00,-3.308913421630859375e+01,-1.849182739257812500e+02,3.612692260742187500e+01,2.114251136779785156e+01,3.332301712036132812e+01
4.800000041723251343e-02,2.000000000000000000e+00,-1.947834396362304688e+01,-5.799133300781250000e+00,5.043825912475585938e+01,9.443093109130859375e+01,8.519931030273437500e+01,1.360501098632812500e+02,2.875952243804931641e+00,-3.308913421630859375e+01,-1.849182739257812500e+02,3.612692260742187500e+01,2.114251136779785156e+01,3.332301712036132812e+01
5.200000107288360596e-02,2.000000000000000000e+00,-1.947834396362304688e+01,-5.799133300781250000e+00,5.043825912475585938e+01,9.443093109130859375e+01,8.519931030273437500e+01,1.360501098632812500e+02,2.875952243804931641e+00,-3.308913421630859375e+01,-1.849182739257812500e+02,3.612692260742187500e+01,2.114251136779785156e+01,3.332301712036132812e+01
5.600000172853469849e-02,2.000000000000000000e+00,-1.947834396362304688e+01,-5.799133300781250000e+00,5.043825912475585938e+01,9.443093109130859375e+01,8.519931030273437500e+01,1.360501098632812500e+02,2.875952243804931641e+00,-3.308913421630859375e+01,-1.849182739257812500e+02,3.612692260742187500e+01,2.114251136779785156e+01,3.332301712036132812e+01
5.999999865889549255e-02,2.000000000000000000e+00,-1.947834396362304688e+01,-5.799133300781250000e+00,5.043825912475585938e+01,9.443093109130859375e+01,8.519931030273437500e+01,1.360501098632812500e+02,2.875952243804931641e+00,-3.308913421630859375e+01,-1.849182739257812500e+02,3.612692260742187500e+01,2.114251136779785156e+01,3.332301712036132812e+01
6.400000303983688354e-02,2.000000000000000000e+00,-1.947834396362304688e+01,-5.799133300781250000e+00,5.043825912475585938e+01,9.443093109130859375e+01,8.519931030273437500e+01,1.360501098632812500e+02,2.875952243804931641e+00,-3.308913421630859375e+01,-1.849182739257812500e+02,3.612692260742187500e+01,2.114251136779785156e+01,3.332301712036132812e+01
6.800000369548797607e-02,2.000000000000000000e+00,-1.947834396362304688e+01,-5.799133300781250000e+00,5.043825912475585938e+01,9.443093109130859375e+01,8.519931030273437500e+01,1.360501098632812500e+02,2.875952243804931641e+00,-3.308913421630859375e+01,-1.849182739257812500e+02,3.612692260742187500e+01,2.114251136779785156e+01,3.332301712036132812e+01
7.199999690055847168e-02,2.000000000000000000e+00,-1.947841072082519531e+01,-5.799107551574707031e+00,5.043824768066406250e+01,9.443093109130859375e+01,8.519931030273437500e+01,1.360501098632812500e+02,2.875952243804931641e+00,-3.308913421630859375e+01,-1.849182739257812500e+02,3.612692260742187500e+01,2.114251136779785156e+01,3.332301712036132812e+01
7.599999755620956421e-02,2.000000000000000000e+00,-1.947879028320312500e+01,-5.798950672149658203e+00,5.043815612792968750e+01,9.443093109130859375e+01,8.519930267333984375e+01,1.360501098632812500e+02,2.875952243804931641e+00,-3.308913421630859375e+01,-1.849182739257812500e+02,3.612692260742187500e+01,2.114251136779785156e+01,3.332301712036132812e+01
7.999999821186065674e-02,2.000000000000000000e+00,-1.947986984252929688e+01,-5.798461914062500000e+00,5.043788146972656250e+01,9.443093872070312500e+01,8.519927978515625000e+01,1.360501098632812500e+02,2.875952243804931641e+00,-3.308913421630859375e+01,-1.849182739257812500e+02,3.612692260742187500e+01,2.114251136779785156e+01,3.332301712036132812e+01
8.399999886751174927e-02,2.000000000000000000e+00,-1.948201560974121094e+01,-5.797408580780029297e+00,5.043725585937500000e+01,9.443096923828125000e+01,8.519922637939453125e+01,1.360500946044921875e+02,2.875925064086914062e+00,-3.308913040161132812e+01,-1.849182739257812500e+02,3.612692260742187500e+01,2.114251327514648438e+01,3.332301712036132812e+01
8.799999952316284180e-02,2.000000000000000000e+00,-1.948545074462890625e+01,-5.795592308044433594e+00,5.043611907958984375e+01,9.443103790283203125e+01,8.519914245605468750e+01,1.360500335693359375e+02,2.875747442245483398e+00,-3.308912658691406250e+01,-1.849182434082031250e+02,3.612692642211914062e+01,2.114253044128417969e+01,3.332301712036132812e+01
9.200000017881393433e-02,2.000000000000000000e+00,-1.949034118652343750e+01,-5.792843818664550781e+00,5.043428802490234375e+01,9.443115997314453125e+01,8.519901275634765625e+01,1.360499114990234375e+02,2.875160694122314453e+00,-3.308909225463867188e+01,-1.849181518554687500e+02,3.612693786621093750e+01,2.114258956909179688e+01,3.332300949096679688e+01
9.600000083446502686e-02,2.000000000000000000e+00,-1.949682998657226562e+01,-5.789006233215332031e+00,5.043154525756835938e+01,9.443137359619140625e+01,8.519883728027343750e+01,1.360496826171875000e+02,2.873814105987548828e+00,-3.308900451660156250e+01,-1.849179687500000000e+02,3.612695693969726562e+01,2.114274978637695312e+01,3.332298278808593750e+01
1.000000014901161194e-01,2.000000000000000000e+00,-1.950494384765625000e+01,-5.783980369567871094e+00,5.042767715454101562e+01,9.443173980712890625e+01,8.519860076904296875e+01,1.360492706298828125e+02,2.871324300765991211e+00,-3.308883285522460938e+01,-1.849176177978515625e+02,3.612700653076171875e+01,2.114310264587402344e+01,3.332291412353515625e+01
1.040000021457672119e-01,2.000000000000000000e+00,-1.951461219787597656e+01,-5.777740955352783203e+00,5.042247009277343750e+01,9.443228149414062500e+01,8.519831085205078125e+01,1.360486450195312500e+02,2.867266178131103516e+00,-3.308853530883789062e+01,-1.849170684814453125e+02,3.612708282470703125e+01,2.114377212524414062e+01,3.332276916503906250e+01
1.080000028014183044e-01,2.000000000000000000e+00,-1.952584648132324219e+01,-5.770255088806152344e+00,5.041569900512695312e+01,9.443307495117187500e+01,8.519795989990234375e+01,1.360476989746093750e+02,2.861171722412109375e+00,-3.308804702758789062e+01,-1.849162902832031250e+02,3.612721633911132812e+01,2.114493942260742188e+01,3.332248687744140625e+01
1.120000034570693970e-01,2.000000000000000000e+00,-1.953890800476074219e+01,-5.761384963989257812e+00,5.040709686279296875e+01,9.443416595458984375e+01,8.519754028320312500e+01,1.360464019775390625e+02,2.852650642395019531e+00,-3.308730316162109375e+01,-1.849152374267578125e+02,3.612741851806640625e+01,2.114680290222167969e+01,3.332201004028320312e+01
1.159999966621398926e-01,2.000000000000000000e+00,-1.955421829223632812e+01,-5.750900745391845703e+00,5.039633178710937500e+01,9.443560028076171875e+01,8.519705200195312500e+01,1.360446472167968750e+02,2.841480493545532227e+00,-3.308626174926757812e+01,-1.849139404296875000e+02,3.612770080566406250e+01,2.114958000183105469e+01,3.332125473022460938e+01
1.199999973177909851e-01,2.000000000000000000e+00,-1.957214164733886719e+01,-5.738594532012939453e+00,5.038312530517578125e+01,9.443742370605468750e+01,8.519647216796875000e+01,1.360424041748046875e+02,2.827504634857177734e+00,-3.308486175537109375e+01,-1.849123992919921875e+02,3.612808609008789062e+01,2.115347099304199219e+01,3.332015228271484375e+01
1.239999979734420776e-01,2.000000000000000000e+00,-1.959283065795898438e+01,-5.724387168884277344e+00,5.036727523803710938e+01,9.443970489501953125e+01,8.519581604003906250e+01,1.360396270751953125e+02,2.810488224029541016e+00,-3.308306121826171875e+01,-1.849106445312500000e+02,3.612857818603515625e+01,2.115865325927734375e+01,3.331864547729492188e+01
1.280000060796737671e-01,2.000000000000000000e+00,-1.961625671386718750e+01,-5.708323955535888672e+00,5.034866714477539062e+01,9.444244384765625000e+01,8.519506072998046875e+01,1.360362548828125000e+02,2.790146112442016602e+00,-3.308081817626953125e+01,-1.849086151123046875e+02,3.612919616699218750e+01,2.116525650024414062e+01,3.331669235229492188e+01
1.309999972581863403e-01,2.000000000000000000e+00,-1.964232063293457031e+01,-5.690486907958984375e+00,5.032725906372070312e+01,9.444567871093750000e+01,8.519422912597656250e+01,1.360322418212890625e+02,2.766283750534057617e+00,-3.307811737060546875e+01,-1.849063262939453125e+02,3.612994384765625000e+01,2.117334556579589844e+01,3.331427383422851562e+01
1.360000073909759521e-01,2.000000000000000000e+00,-1.967094421386718750e+01,-5.670931816101074219e+00,5.030303955078125000e+01,9.444941711425781250e+01,8.519331359863281250e+01,1.360276031494140625e+02,2.738818883895874023e+00,-3.307495117187500000e+01,-1.849037475585937500e+02,3.613082122802734375e+01,2.118292236328125000e+01,3.331138610839843750e+01
1.389999985694885254e-01,2.000000000000000000e+00,-1.970204162597656250e+01,-5.649713039398193359e+00,5.027605819702148438e+01,9.445365142822265625e+01,8.519232177734375000e+01,1.360223388671875000e+02,2.707720756530761719e+00,-3.307133865356445312e+01,-1.849008636474609375e+02,3.613182830810546875e+01,2.119393539428710938e+01,3.330805206298828125e+01
1.439999938011169434e-01,2.000000000000000000e+00,-1.973551368713378906e+01,-5.626883029937744141e+00,5.024642944335937500e+01,9.445835876464843750e+01,8.519125366210937500e+01,1.360164642333984375e+02,2.673046827316284180e+00,-3.306729507446289062e+01,-1.848976440429687500e+02,3.613294982910156250e+01,2.120628738403320312e+01,3.330431365966796875e+01
1.480000019073486328e-01,2.000000000000000000e+00,-1.977138137817382812e+01,-5.602409362792968750e+00,5.021426773071289062e+01,9.446350860595703125e+01,8.519011688232421875e+01,1.360100402832031250e+02,2.635024785995483398e+00,-3.306286239624023438e+01,-1.848941497802734375e+02,3.613418579101562500e+01,2.121984672546386719e+01,3.330020523071289062e+01
1.519999951124191284e-01,2.000000000000000000e+00,-1.980976867675781250e+01,-5.576174259185791016e+00,5.017968750000000000e+01,9.446905517578125000e+01,8.518888854980468750e+01,1.360031127929687500e+02,2.594060182571411133e+00,-3.305809020996093750e+01,-1.848903656005859375e+02,3.613551712036132812e+01,2.123445510864257812e+01,3.329578018188476562e+01
1.560000032186508179e-01,2.000000000000000000e+00,-1.985074615478515625e+01,-5.548109054565429688e+00,5.014285278320312500e+01,9.447496032714843750e+01,8.518758392333984375e+01,1.359957580566406250e+02,2.550605535507202148e+00,-3.305303192138671875e+01,-1.848863525390625000e+02,3.613692474365234375e+01,2.124993705749511719e+01,3.329109191894531250e+01
1.599999964237213135e-01,2.000000000000000000e+00,-1.989414787292480469e+01,-5.518306732177734375e+00,5.010402297973632812e+01,9.448114776611328125e+01,8.518618774414062500e+01,1.359880371093750000e+02,2.505036354064941406e+00,-3.304774093627929688e+01,-1.848821258544921875e+02,3.613839721679687500e+01,2.126612281799316406e+01,3.328619384765625000e+01
1.640000045299530029e-01,2.000000000000000000e+00,-1.993960571289062500e+01,-5.486992359161376953e+00,5.006351089477539062e+01,9.448757171630859375e+01,8.518473052978515625e+01,1.359800415039062500e+02,2.457664012908935547e+00,-3.304226684570312500e+01,-1.848777160644531250e+02,3.613992309570312500e+01,2.128284835815429688e+01,3.328113937377929688e+01
1.679999977350234985e-01,2.000000000000000000e+00,-1.998673439025878906e+01,-5.454397201538085938e+00,5.002161788940429688e+01,9.449419403076171875e+01,8.518321228027343750e+01,1.359718017578125000e+02,2.408798694610595703e+00,-3.303664779663085938e+01,-1.848731231689453125e+02,3.614149093627929688e+01,2.129996871948242188e+01,3.327597427368164062e+01
1.720000058412551880e-01,2.000000000000000000e+00,-2.003526878356933594e+01,-5.420704364776611328e+00,4.997860717773437500e+01,9.450096130371093750e+01,8.518164062500000000e+01,1.359633789062500000e+02,2.358769416809082031e+00,-3.303093338012695312e+01,-1.848684082031250000e+02,3.614308547973632812e+01,2.131735229492187500e+01,3.327074432373046875e+01
1.759999990463256836e-01,2.000000000000000000e+00,-2.008506393432617188e+01,-5.386069774627685547e+00,4.993470764160156250e+01,9.450784301757812500e+01,8.518002319335937500e+01,1.359548187255859375e+02,2.307871818542480469e+00,-3.302514266967773438e+01,-1.848635711669921875e+02,3.614469528198242188e+01,2.133489990234375000e+01,3.326546859741210938e+01
1.800000071525573730e-01,2.000000000000000000e+00,-2.013600158691406250e+01,-5.350643157958984375e+00,4.989012145996093750e+01,9.451480102539062500e+01,8.517836761474609375e+01,1.359461669921875000e+02,2.256345748901367188e+00,-3.301930999755859375e+01,-1.848586273193359375e+02,3.614631652832031250e+01,2.135254096984863281e+01,3.326018142700195312e+01
1.840000003576278687e-01,2.000000000000000000e+00,-2.018795013427734375e+01,-5.314565658569335938e+00,4.984501647949218750e+01,9.452180480957031250e+01,8.517668151855468750e+01,1.359374694824218750e+02,2.204412698745727539e+00,-3.301345062255859375e+01,-1.848536529541015625e+02,3.614794921875000000e+01,2.137022590637207031e+01,3.325488281250000000e+01
1.879999935626983643e-01,2.000000000000000000e+00,-2.024079132080078125e+01,-5.277953624725341797e+00,4.979953002929687500e+01,9.452883911132812500e+01,8.517497253417968750e+01,1.359287414550781250e+02,2.152274370193481445e+00,-3.300757598876953125e+01,-1.848486175537109375e+02,3.614958190917968750e+01,2.138792800903320312e+01,3.324958801269531250e+01
1.920000016689300537e-01,2.000000000000000000e+00,-2.029443168640136719e+01,-5.240914344787597656e+00,4.975378036499023438e+01,9.453588867187500000e+01,8.517324829101562500e+01,1.359199981689453125e+02,2.100074291229248047e+00,-3.300170135498046875e+01,-1.848435974121093750e+02,3.615121841430664062e+01,2.140563392639160156e+01,3.324428939819335938e+01
1.959999948740005493e-01,2.000000000000000000e+00,-2.034869003295898438e+01,-5.203582763671875000e+00,4.970785140991210938e+01,9.454295349121093750e+01,8.517150115966796875e+01,1.359112396240234375e+02,2.047874689102172852e+00,-3.299582672119140625e+01,-1.848385467529296875e+02,3.615285110473632812e+01,2.142333412170410156e+01,3.323899459838867188e+01
2.000000029802322388e-01,2.000000000000000000e+00,-2.040329933166503906e+01,-5.166100978851318359e+00,4.966184997558593750e+01,9.455001068115234375e+01,8.516974639892578125e+01,1.359024963378906250e+02,1.995686769485473633e+00,-3.298995590209960938e+01,-1.848335266113281250e+02,3.615448379516601562e+01,2.144103050231933594e+01,3.323369979858398438e+01
2.039999961853027344e-01,2.000000000000000000e+00,-2.045802307128906250e+01,-5.128576755523681641e+00,4.961582565307617188e+01,9.455706787109375000e+01,8.516799926757812500e+01,1.358937530517578125e+02,1.943510770797729492e+00,-3.298408126831054688e+01,-1.848284912109375000e+02,3.615612030029296875e+01,2.145872306823730469e+01,3.322840499877929688e+01
2.080000042915344238e-01,2.000000000000000000e+00,-2.051275634765625000e+01,-5.091053009033203125e+00,4.956981277465820312e+01,9.456412506103515625e+01,8.516624450683593750e+01,1.358850097656250000e+02,1.891346693038940430e+00,-3.297821044921875000e+01,-1.848234558105468750e+02,3.615775299072265625e+01,2.147641181945800781e+01,3.322311401367187500e+01
2.119999974966049194e-01,2.000000000000000000e+00,-2.056747627258300781e+01,-5.053537845611572266e+00,4.952380752563476562e+01,9.457118225097656250e+01,8.516448974609375000e+01,1.358762664794921875e+02,1.839194893836975098e+00,-3.297233963012695312e+01,-1.848184356689453125e+02,3.615938568115234375e+01,2.149409675598144531e+01,3.321781921386718750e+01
2.160000056028366089e-01,2.000000000000000000e+00,-2.062218284606933594e+01,-5.016031265258789062e+00,4.947781372070312500e+01,9.457823944091796875e+01,8.516274261474609375e+01,1.358675231933593750e+02,1.787055253982543945e+00,-3.296647262573242188e+01,-1.848134002685546875e+02,3.616101455688476562e+01,2.151177597045898438e+01,3.321252822875976562e+01
2.199999988079071045e-01,2.000000000000000000e+00,-2.067687797546386719e+01,-4.978533267974853516e+00,4.943182754516601562e+01,9.458529663085937500e+01,8.516099548339843750e+01,1.358587799072265625e+02,1.734927654266357422e+00,-3.296060562133789062e+01,-1.848083801269531250e+02,3.616264724731445312e+01,2.152945327758789062e+01,3.320724105834960938e+01
2.240000069141387939e-01,2.000000000000000000e+00,-2.073156166076660156e+01,-4.941044807434082031e+00,4.938585281372070312e+01,9.459234619140625000e+01,8.515923309326171875e+01,1.358500366210937500e+02,1.682812213897705078e+00,-3.295473861694335938e+01,-1.848033447265625000e+02,3.616427993774414062e+01,2.154712486267089844e+01,3.320195770263671875e+01
2.280000001192092896e-01,2.000000000000000000e+00,-2.078623199462890625e+01,-4.903564453125000000e+00,4.933988952636718750e+01,9.459938812255859375e+01,8.515748596191406250e+01,1.358412933349609375e+02,1.630709052085876465e+00,-3.294887542724609375e+01,-1.847983245849609375e+02,3.616590881347656250e+01,2.156479263305664062e+01,3.319667053222656250e+01
2.319999933242797852e-01,2.000000000000000000e+00,-2.084088897705078125e+01,-4.866092681884765625e+00,4.929394149780273438e+01,9.460643768310546875e+01,8.515573883056640625e+01,1.358325653076171875e+02,1.578618049621582031e+00,-3.294300842285156250e+01,-1.847933044433593750e+02,3.616754150390625000e+01,2.158245658874511719e+01,3.319138336181640625e+01
2.360000014305114746e-01,2.000000000000000000e+00,-2.089553260803222656e+01,-4.828629970550537109e+00,4.924800109863281250e+01,9.461348724365234375e+01,8.515398406982421875e+01,1.358238372802734375e+02,1.526539087295532227e+00,-3.293714904785156250e+01,-1.847882843017578125e+02,3.616917037963867188e+01,2.160011672973632812e+01,3.318610000610351562e+01
2.399999946355819702e-01,2.000000000000000000e+00,-2.095016479492187500e+01,-4.791176319122314453e+00,4.920206832885742188e+01,9.462052917480468750e+01,8.515223693847656250e+01,1.358150939941406250e+02,1.474472403526306152e+00,-3.293128967285156250e+01,-1.847832641601562500e+02,3.617080307006835938e+01,2.161777305603027344e+01,3.318081665039062500e+01
2.440000027418136597e-01,2.000000000000000000e+00,-2.100478363037109375e+01,-4.753731250762939453e+00,4.915614700317382812e+01,9.462757110595703125e+01,8.515048980712890625e+01,1.358063659667968750e+02,1.422417879104614258e+00,-3.292543029785156250e+01,-1.847782440185546875e+02,3.617243194580078125e+01,2.163542366027832031e+01,3.317553710937500000e+01
2.479999959468841553e-01,2.000000000000000000e+00,-2.105939102172851562e+01,-4.716294288635253906e+00,4.911023712158203125e+01,9.463461303710937500e+01,8.514873504638671875e+01,1.357976379394531250e+02,1.370375394821166992e+00,-3.291957092285156250e+01,-1.847732238769531250e+02,3.617406082153320312e+01,2.165307044982910156e+01,3.317025375366210938e+01
2.520000040531158447e-01,2.000000000000000000e+00,-2.111398506164550781e+01,-4.678866386413574219e+00,4.906433868408203125e+01,9.464165496826171875e+01,8.514698791503906250e+01,1.357889099121093750e+02,1.318345069885253906e+00,-3.291371536254882812e+01,-1.847682037353515625e+02,3.617568969726562500e+01,2.167071533203125000e+01,3.316497802734375000e+01
2.560000121593475342e-01,2.000000000000000000e+00,-2.116856575012207031e+01,-4.641447067260742188e+00,4.901845550537109375e+01,9.464868927001953125e+01,8.514524078369140625e+01,1.357801818847656250e+02,1.266326785087585449e+00,-3.290786361694335938e+01,-1.847631835937500000e+02,3.617731857299804688e+01,2.168835449218750000e+01,3.315969848632812500e+01
2.599999904632568359e-01,2.000000000000000000e+00,-2.122313499450683594e+01,-4.604035854339599609e+00,4.897257614135742188e+01,9.465572357177734375e+01,8.514349365234375000e+01,1.357714691162109375e+02,1.214320659637451172e+00,-3.290200805664062500e+01,-1.847581787109375000e+02,3.617894744873046875e+01,2.170598793029785156e+01,3.315442276000976562e+01
2.639999985694885254e-01,2.000000000000000000e+00,-2.127769088745117188e+01,-4.566634178161621094e+00,4.892670822143554688e+01,9.466276550292968750e+01,8.514175415039062500e+01,1.357627563476562500e+02,1.162326455116271973e+00,-3.289615631103515625e+01,-1.847531585693359375e+02,3.618057632446289062e+01,2.172361946105957031e+01,3.314914703369140625e+01
2.680000066757202148e-01,2.000000000000000000e+00,-2.133223533630371094e+01,-4.529240608215332031e+00,4.888085556030273438e+01,9.466979980468750000e+01,8.513999938964843750e+01,1.357540435791015625e+02,1.110344409942626953e+00,-3.289030456542968750e+01,-1.847481536865234375e+02,3.618220520019531250e+01,2.174124717712402344e+01,3.314387130737304688e+01
2.720000147819519043e-01,2.000000000000000000e+00,-2.138676452636718750e+01,-4.491856098175048828e+00,4.883501052856445312e+01,9.467683410644531250e+01,8.513825225830078125e+01,1.357453308105468750e+02,1.058374166488647461e+00,-3.288445663452148438e+01,-1.847431335449218750e+02,3.618383026123046875e+01,2.175886917114257812e+01,3.313859939575195312e+01
2.759999930858612061e-01,2.000000000000000000e+00,-2.144128417968750000e+01,-4.454480171203613281e+00,4.878917694091796875e+01,9.468386077880859375e+01,8.513651275634765625e+01,1.357366180419921875e+02,1.006416082382202148e+00,-3.287860870361328125e+01,-1.847381286621093750e+02,3.618545532226562500e+01,2.177648735046386719e+01,3.313333129882812500e+01
2.800000011920928955e-01,2.000000000000000000e+00,-2.149578857421875000e+01,-4.417112350463867188e+00,4.874334716796875000e+01,9.469088745117187500e+01,8.513476562500000000e+01,1.357278900146484375e+02,9.544698596000671387e-01,-3.287276077270507812e+01,-1.847331085205078125e+02,3.618708419799804688e+01,2.179410171508789062e+01,3.312805557250976562e+01
2.840000092983245850e-01,2.000000000000000000e+00,-2.155028152465820312e+01,-4.379753589630126953e+00,4.869753646850585938e+01,9.469791412353515625e+01,8.513302612304687500e+01,1.357191925048828125e+02,9.025355577468872070e-01,-3.286691665649414062e+01,-1.847281036376953125e+02,3.618870925903320312e+01,2.181171226501464844e+01,3.312279129028320312e+01
2.879999876022338867e-01,2.000000000000000000e+00,-2.160476303100585938e+01,-4.342402935028076172e+00,4.865173339843750000e+01,9.470494079589843750e+01,8.513127136230468750e+01,1.357104797363281250e+02,8.506131172180175781e-01,-3.286107254028320312e+01,-1.847230987548828125e+02,3.619033432006835938e+01,2.182932090759277344e+01,3.311752319335937500e+01
2.919999957084655762e-01,2.000000000000000000e+00,-2.165922927856445312e+01,-4.305060863494873047e+00,4.860593795776367188e+01,9.471196746826171875e+01,8.512953186035156250e+01,1.357017822265625000e+02,7.987025380134582520e-01,-3.285522842407226562e+01,-1.847180938720703125e+02,3.619195556640625000e+01,2.184692192077636719e+01,3.311225509643554688e+01
2.960000038146972656e-01,2.000000000000000000e+00,-2.171368598937988281e+01,-4.267727851867675781e+00,4.856015777587890625e+01,9.471898651123046875e+01,8.512778472900390625e+01,1.356930694580078125e+02,7.468038201332092285e-01,-3.284938430786132812e+01,-1.847130889892578125e+02,3.619358444213867188e+01,2.186452102661132812e+01,3.310699081420898438e+01
3.000000119209289551e-01,2.000000000000000000e+00,-2.176812934875488281e+01,-4.230403423309326172e+00,4.851438522338867188e+01,9.472600555419921875e+01,8.512604522705078125e+01,1.356843719482421875e+02,6.949169635772705078e-01,-3.284354400634765625e+01,-1.847080841064453125e+02,3.619520950317382812e+01,2.188211631774902344e+01,3.310172271728515625e+01
3.039999902248382568e-01,2.000000000000000000e+00,-2.182255935668945312e+01,-4.193087100982666016e+00,4.846862411499023438e+01,9.473302459716796875e+01,8.512429809570312500e+01,1.356756744384765625e+02,6.430419087409973145e-01,-3.283770751953125000e+01,-1.847030792236328125e+02,3.619683074951171875e+01,2.189970588684082031e+01,3.309646224975585938e+01
3.079999983310699463e-01,2.000000000000000000e+00,-2.187697601318359375e+01,-4.155779361724853516e+00,4.842287445068359375e+01,9.474003601074218750e+01,8.512255859375000000e+01,1.356669769287109375e+02,5.911788344383239746e-01,-3.283187103271484375e+01,-1.846980895996093750e+02,3.619845581054687500e+01,2.191729354858398438e+01,3.309120178222656250e+01
3.120000064373016357e-01,2.000000000000000000e+00,-2.193138313293457031e+01,-4.118480205535888672e+00,4.837713241577148438e+01,9.474706268310546875e+01,8.512081909179687500e+01,1.356582794189453125e+02,5.393275022506713867e-01,-3.282603454589843750e+01,-1.846930847167968750e+02,3.620007705688476562e+01,2.193487548828125000e+01,3.308593750000000000e+01
3.160000145435333252e-01,2.000000000000000000e+00,-2.198577690124511719e+01,-4.081190109252929688e+00,4.833140182495117188e+01,9.475406646728515625e+01,8.511907196044921875e+01,1.356495971679687500e+02,4.874880015850067139e-01,-3.282020187377929688e+01,-1.846880798339843750e+02,3.620170211791992188e+01,2.195245361328125000e+01,3.308068084716796875e+01
3.199999928474426270e-01,2.000000000000000000e+00,-2.204015731811523438e+01,-4.043908119201660156e+00,4.828568649291992188e+01,9.476108551025390625e+01,8.511733245849609375e+01,1.356408996582031250e+02,4.356603622436523438e-01,-3.281436538696289062e+01,-1.846830902099609375e+02,3.620332717895507812e+01,2.197002983093261719e+01,3.307542037963867188e+01
3.240000009536743164e-01,2.000000000000000000e+00,-2.209452438354492188e+01,-4.006634235382080078e+00,4.823997879028320312e+01,9.476809692382812500e+01,8.511559295654296875e+01,1.356322021484375000e+02,3.838445842266082764e-01,-3.280853271484375000e+01,-1.846780853271484375e+02,3.620494842529296875e+01,2.198759841918945312e+01,3.307016372680664062e+01
3.280000090599060059e-01,2.000000000000000000e+00,-2.214888191223144531e+01,-3.969369173049926758e+00,4.819427490234375000e+01,9.477510833740234375e+01,8.511385345458984375e+01,1.356235198974609375e+02,3.320406079292297363e-01,-3.280270385742187500e+01,-1.846730804443359375e+02,3.620656585693359375e+01,2.200516510009765625e+01,3.306490707397460938e+01
3.319999873638153076e-01,2.000000000000000000e+00,-2.220322418212890625e+01,-3.932112693786621094e+00,4.814859008789062500e+01,9.478211212158203125e+01,8.511210632324218750e+01,1.356148376464843750e+02,2.802484631538391113e-01,-3.279687500000000000e+01,-1.846681060791015625e+02,3.620818710327148438e+01,2.202272796630859375e+01,3.305965423583984375e+01
3.359999954700469971e-01,2.000000000000000000e+00,-2.225755500793457031e+01,-3.894864559173583984e+00,4.810291290283203125e+01,9.478911590576171875e+01,8.511036682128906250e+01,1.356061553955078125e+02,2.284681499004364014e-01,-3.279104614257812500e+01,-1.846631011962890625e+02,3.620981216430664062e+01,2.204028701782226562e+01,3.305440139770507812e+01
3.400000035762786865e-01,2.000000000000000000e+00,-2.231187438964843750e+01,-3.857625246047973633e+00,4.805724334716796875e+01,9.479611968994140625e+01,8.510863494873046875e+01,1.355974731445312500e+02,1.766996383666992188e-01,-3.278521728515625000e+01,-1.846581115722656250e+02,3.621143341064453125e+01,2.205784225463867188e+01,3.304914855957031250e+01
3.440000116825103760e-01,2.000000000000000000e+00,-2.236618041992187500e+01,-3.820394277572631836e+00,4.801158523559570312e+01,9.480312347412109375e+01,8.510688781738281250e+01,1.355887908935546875e+02,1.249429583549499512e-01,-3.277939224243164062e+01,-1.846531219482421875e+02,3.621305084228515625e+01,2.207539176940917969e+01,3.304389572143554688e+01
3.479999899864196777e-01,2.000000000000000000e+00,-2.242047500610351562e+01,-3.783171892166137695e+00,4.796593856811523438e+01,9.481011962890625000e+01,8.510515594482421875e+01,1.355801239013671875e+02,7.319808751344680786e-02,-3.277357101440429688e+01,-1.846481323242187500e+02,3.621467208862304688e+01,2.209293937683105469e+01,3.303864669799804688e+01
3.519999980926513672e-01,2.000000000000000000e+00,-2.247475624084472656e+01,-3.745957612991333008e+00,4.792030334472656250e+01,9.481712341308593750e+01,8.510341644287109375e+01,1.355714416503906250e+02,2.146502211689949036e-02,-3.276774597167968750e+01,-1.846431427001953125e+02,3.621629333496093750e+01,2.211048126220703125e+01,3.303339767456054688e+01
3.560000061988830566e-01,2.000000000000000000e+00,-2.252902603149414062e+01,-3.708752155303955078e+00,4.787467956542968750e+01,9.482412719726562500e+01,8.510167694091796875e+01,1.355627746582031250e+02,-3.025623410940170288e-02,-3.276192474365234375e+01,-1.846381530761718750e+02,3.621791076660156250e+01,2.212801933288574219e+01,3.302814865112304688e+01
3.600000143051147461e-01,2.000000000000000000e+00,-2.258328056335449219e+01,-3.671555042266845703e+00,4.782906341552734375e+01,9.483111572265625000e+01,8.509993743896484375e+01,1.355540924072265625e+02,-8.196568489074707031e-02,-3.275610733032226562e+01,-1.846331634521484375e+02,3.621953201293945312e+01,2.214555358886718750e+01,3.302290344238281250e+01
3.639999926090240479e-01,2.000000000000000000e+00,-2.263752746582031250e+01,-3.634366273880004883e+00,4.778345870971679688e+01,9.483811187744140625e+01,8.509820556640625000e+01,1.355454406738281250e+02,-1.336633414030075073e-01,-3.275028610229492188e+01,-1.846281890869140625e+02,3.622114944458007812e+01,2.216308403015136719e+01,3.301765823364257812e+01
3.680000007152557373e-01,2.000000000000000000e+00,-2.269175910949707031e+01,-3.597186565399169922e+00,4.773786163330078125e+01,9.484510803222656250e+01,8.509646606445312500e+01,1.355367584228515625e+02,-1.853492110967636108e-01,-3.274446868896484375e+01,-1.846231994628906250e+02,3.622276306152343750e+01,2.218061065673828125e+01,3.301241683959960938e+01
3.720000088214874268e-01,2.000000000000000000e+00,-2.274597740173339844e+01,-3.560014724731445312e+00,4.769227981567382812e+01,9.485209655761718750e+01,8.509472656250000000e+01,1.355280914306640625e+02,-2.370232790708541870e-01,-3.273865509033203125e+01,-1.846182098388671875e+02,3.622438430786132812e+01,2.219813156127929688e+01,3.300717163085937500e+01
3.759999871253967285e-01,2.000000000000000000e+00,-2.280018615722656250e+01,-3.522851705551147461e+00,4.764670562744140625e+01,9.485909271240234375e+01,8.509298706054687500e+01,1.355194396972656250e+02,-2.886855602264404297e-01,-3.273283767700195312e+01,-1.846132202148437500e+02,3.622600173950195312e+01,2.221565246582031250e+01,3.300193023681640625e+01
3.799999952316284180e-01,2.000000000000000000e+00,-2.285437965393066406e+01,-3.485697031021118164e+00,4.760114288330078125e+01,9.486607360839843750e+01,8.509125518798828125e+01,1.355107574462890625e+02,-3.403360545635223389e-01,-3.272702407836914062e+01,-1.846082611083984375e+02,3.622761917114257812e+01,2.223316574096679688e+01,3.299668884277343750e+01
3.840000033378601074e-01,2.000000000000000000e+00,-2.290856170654296875e+01,-3.448550701141357422e+00,4.755558776855468750e+01,9.487306213378906250e+01,8.508952331542968750e+01,1.355021209716796875e+02,-3.919747769832611084e-01,-3.272121429443359375e+01,-1.846032714843750000e+02,3.622923660278320312e+01,2.225067710876464844e+01,3.299145126342773438e+01
3.880000114440917969e-01,2.000000000000000000e+00,-2.296273231506347656e+01,-3.411413192749023438e+00,4.751004791259765625e+01,9.488005065917968750e+01,8.508778381347656250e+01,1.354934539794921875e+02,-4.436017274856567383e-01,-3.271540451049804688e+01,-1.845982971191406250e+02,3.623085021972656250e+01,2.226818275451660156e+01,3.298621368408203125e+01
3.919999897480010986e-01,2.000000000000000000e+00,-2.301689147949218750e+01,-3.374284029006958008e+00,4.746451568603515625e+01,9.488703155517578125e+01,8.508605194091796875e+01,1.354848022460937500e+02,-4.952169060707092285e-01,-3.270959472656250000e+01,-1.845933074951171875e+02,3.623246765136718750e+01,2.228568458557128906e+01,3.298097610473632812e+01
3.959999978542327881e-01,2.000000000000000000e+00,-2.307103538513183594e+01,-3.337163209915161133e+00,4.741899490356445312e+01,9.489401245117187500e+01,8.508432006835937500e+01,1.354761505126953125e+02,-5.468202829360961914e-01,-3.270378494262695312e+01,-1.845883331298828125e+02,3.623408126831054688e+01,2.230318450927734375e+01,3.297574234008789062e+01
4.000000059604644775e-01,2.000000000000000000e+00,-2.312516975402832031e+01,-3.300050973892211914e+00,4.737348175048828125e+01,9.490099334716796875e+01,8.508258819580078125e+01,1.354674835205078125e+02,-5.984119176864624023e-01,-3.269797897338867188e+01,-1.845833587646484375e+02,3.623569869995117188e+01,2.232067680358886719e+01,3.297050476074218750e+01
4.040000140666961670e-01,2.000000000000000000e+00,-2.317929077148437500e+01,-3.262947082519531250e+00,4.732798385620117188e+01,9.490797424316406250e+01,8.508085632324218750e+01,1.354588470458984375e+02,-6.499918103218078613e-01,-3.269217681884765625e+01,-1.845783996582031250e+02,3.623731231689453125e+01,2.233816719055175781e+01,3.296527481079101562e+01
4.079999923706054688e-01,2.000000000000000000e+00,-2.323339843750000000e+01,-3.225851535797119141e+00,4.728248977661132812e+01,9.491494750976562500e+01,8.507911682128906250e+01,1.354501953125000000e+02,-7.015599012374877930e-01,-3.268637084960937500e+01,-1.845734252929687500e+02,3.623892974853515625e+01,2.235565567016601562e+01,3.296004104614257812e+01
4.120000004768371582e-01,2.000000000000000000e+00,-2.328749465942382812e+01,-3.188764810562133789e+00,4.723701095581054688e+01,9.492192840576171875e+01,8.507739257812500000e+01,1.354415435791015625e+02,-7.531162500381469727e-01,-3.268056869506835938e+01,-1.845684509277343750e+02,3.624053955078125000e+01,2.237313652038574219e+01,3.295481109619140625e+01
4.160000085830688477e-01,2.000000000000000000e+00,-2.334157943725585938e+01,-3.151686191558837891e+00,4.719154357910156250e+01,9.492890167236328125e+01,8.507565307617187500e+01,1.354329071044921875e+02,-8.046608567237854004e-01,-3.267476654052734375e+01,-1.845634765625000000e+02,3.624215698242187500e+01,2.239061737060546875e+01,3.294958114624023438e+01
4.199999868869781494e-01,2.000000000000000000e+00,-2.339565086364746094e+01,-3.114616155624389648e+00,4.714608001708984375e+01,9.493587493896484375e+01,8.507392120361328125e+01,1.354242706298828125e+02,-8.561937212944030762e-01,-3.266896438598632812e+01,-1.845585021972656250e+02,3.624376678466796875e+01,2.240809059143066406e+01,3.294435119628906250e+01
4.239999949932098389e-01,2.000000000000000000e+00,-2.344970893859863281e+01,-3.077554464340209961e+00,4.710063171386718750e+01,9.494284057617187500e+01,8.507218933105468750e+01,1.354156341552734375e+02,-9.077148437500000000e-01,-3.266316604614257812e+01,-1.845535278320312500e+02,3.624538421630859375e+01,2.242556190490722656e+01,3.293912506103515625e+01
4.280000030994415283e-01,2.000000000000000000e+00,-2.350375556945800781e+01,-3.040501356124877930e+00,4.705519485473632812e+01,9.494981384277343750e+01,8.507046508789062500e+01,1.354069824218750000e+02,-9.592242240905761719e-01,-3.265736770629882812e+01,-1.845485687255859375e+02,3.624699401855468750e+01,2.244302940368652344e+01,3.293389892578125000e+01
4.320000112056732178e-01,2.000000000000000000e+00,-2.355779075622558594e+01,-3.003456830978393555e+00,4.700976562500000000e+01,9.495677947998046875e+01,8.506873321533203125e+01,1.353983459472656250e+02,-1.010721802711486816e+00,-3.265157318115234375e+01,-1.845435943603515625e+02,3.624860763549804688e+01,2.246048927307128906e+01,3.292867279052734375e+01
4.359999895095825195e-01,2.000000000000000000e+00,-2.361181259155273438e+01,-2.966420650482177734e+00,4.696434783935546875e+01,9.496374511718750000e+01,8.506700134277343750e+01,1.353897247314453125e+02,-1.062207818031311035e+00,-3.264577865600585938e+01,-1.845386352539062500e+02,3.625021743774414062e+01,2.247794914245605469e+01,3.292345046997070312e+01
4.399999976158142090e-01,2.000000000000000000e+00,-2.366582107543945312e+01,-2.929392814636230469e+00,4.691894149780273438e+01,9.497071075439453125e+01,8.506527709960937500e+01,1.353810882568359375e+02,-1.113681912422180176e+00,-3.263998031616210938e+01,-1.845336608886718750e+02,3.625183105468750000e+01,2.249540328979492188e+01,3.291822814941406250e+01
4.440000057220458984e-01,2.000000000000000000e+00,-2.371982002258300781e+01,-2.892373323440551758e+00,4.687354278564453125e+01,9.497767639160156250e+01,8.506354522705078125e+01,1.353724517822265625e+02,-1.165144324302673340e+00,-3.263418960571289062e+01,-1.845287170410156250e+02,3.625344085693359375e+01,2.251285552978515625e+01,3.291300582885742188e+01
4.480000138282775879e-01,2.000000000000000000e+00,-2.377380561828613281e+01,-2.855362653732299805e+00,4.682815551757812500e+01,9.498463439941406250e+01,8.506181335449218750e+01,1.353638305664062500e+02,-1.216595053672790527e+00,-3.262840270996093750e+01,-1.845237579345703125e+02,3.625505065917968750e+01,2.253030204772949219e+01,3.290778732299804688e+01
4.519999921321868896e-01,2.000000000000000000e+00,-2.382777786254882812e+01,-2.818360090255737305e+00,4.678277969360351562e+01,9.499159240722656250e+01,8.506008148193359375e+01,1.353551940917968750e+02,-1.268033981323242188e+00,-3.262260818481445312e+01,-1.845187988281250000e+02,3.625666427612304688e+01,2.254774475097656250e+01,3.290256881713867188e+01
4.560000002384185791e-01,2.000000000000000000e+00,-2.388174057006835938e+01,-2.781365871429443359e+00,4.673741531372070312e+01,9.499855804443359375e+01,8.505835723876953125e+01,1.353465728759765625e+02,-1.319461345672607422e+00,-3.261682128906250000e+01,-1.845138397216796875e+02,3.625827026367187500e+01,2.256518363952636719e+01,3.289735031127929688e+01
4.600000083446502686e-01,2.000000000000000000e+00,-2.393568801879882812e+01,-2.744380235671997070e+00,4.669205856323242188e+01,9.500550842285156250e+01,8.505662536621093750e+01,1.353379669189453125e+02,-1.370876908302307129e+00,-3.261103439331054688e+01,-1.845088806152343750e+02,3.625988006591796875e+01,2.258261680603027344e+01,3.289213180541992188e+01
4.639999866485595703e-01,2.000000000000000000e+00,-2.398962402343750000e+01,-2.707402944564819336e+00,4.664671325683593750e+01,9.501245880126953125e+01,8.505490875244140625e+01,1.353293457031250000e+02,-1.422280788421630859e+00,-3.260525131225585938e+01,-1.845039215087890625e+02,3.626149368286132812e+01,2.260004806518554688e+01,3.288691711425781250e+01
4.679999947547912598e-01,2.000000000000000000e+00,-2.404354667663574219e+01,-2.670433998107910156e+00,4.660137557983398438e+01,9.501941680908203125e+01,8.505317687988281250e+01,1.353207244873046875e+02,-1.473672986030578613e+00,-3.259946441650390625e+01,-1.844989624023437500e+02,3.626309967041015625e+01,2.261747550964355469e+01,3.288170242309570312e+01
4.720000028610229492e-01,2.000000000000000000e+00,-2.409745979309082031e+01,-2.633473873138427734e+00,4.655605316162109375e+01,9.502636718750000000e+01,8.505145263671875000e+01,1.353121032714843750e+02,-1.525053381919860840e+00,-3.259368515014648438e+01,-1.844940032958984375e+02,3.626470947265625000e+01,2.263489913940429688e+01,3.287649154663085938e+01
4.760000109672546387e-01,2.000000000000000000e+00,-2.415135765075683594e+01,-2.596521854400634766e+00,4.651073837280273438e+01,9.503331756591796875e+01,8.504972076416015625e+01,1.353034973144531250e+02,-1.576422214508056641e+00,-3.258790206909179688e+01,-1.844890441894531250e+02,3.626631546020507812e+01,2.265231704711914062e+01,3.287128067016601562e+01
4.799999892711639404e-01,2.000000000000000000e+00,-2.420524406433105469e+01,-2.559578180313110352e+00,4.646543121337890625e+01,9.504026794433593750e+01,8.504799652099609375e+01,1.352948760986328125e+02,-1.627779245376586914e+00,-3.258211898803710938e+01,-1.844841003417968750e+02,3.626792526245117188e+01,2.266973304748535156e+01,3.286606979370117188e+01
4.839999973773956299e-01,2.000000000000000000e+00,-2.425911903381347656e+01,-2.522643089294433594e+00,4.642013931274414062e+01,9.504721069335937500e+01,8.504627227783203125e+01,1.352862701416015625e+02,-1.679124593734741211e+00,-3.257634353637695312e+01,-1.844791412353515625e+02,3.626953125000000000e+01,2.268714332580566406e+01,3.286085891723632812e+01
4.880000054836273193e-01,2.000000000000000000e+00,-2.431298255920410156e+01,-2.485716342926025391e+00,4.637485504150390625e+01,9.505416107177734375e+01,8.504454040527343750e+01,1.352776641845703125e+02,-1.730458378791809082e+00,-3.257056427001953125e+01,-1.844741973876953125e+02,3.627114105224609375e+01,2.270454978942871094e+01,3.285565185546875000e+01
4.920000135898590088e-01,2.000000000000000000e+00,-2.436683273315429688e+01,-2.448797941207885742e+00,4.632957839965820312e+01,9.506110382080078125e+01,8.504282379150390625e+01,1.352690582275390625e+02,-1.781780242919921875e+00,-3.256478881835937500e+01,-1.844692382812500000e+02,3.627274322509765625e+01,2.272195243835449219e+01,3.285044479370117188e+01
4.959999918937683105e-01,2.000000000000000000e+00,-2.442067146301269531e+01,-2.411887884140014648e+00,4.628431701660156250e+01,9.506804656982421875e+01,8.504109954833984375e+01,1.352604522705078125e+02,-1.833090662956237793e+00,-3.255901336669921875e+01,-1.844642944335937500e+02,3.627435302734375000e+01,2.273935317993164062e+01,3.284523773193359375e+01
5.000000000000000000e-01,2.000000000000000000e+00,-2.447449684143066406e+01,-2.374986410140991211e+00,4.623906326293945312e+01,9.507498168945312500e+01,8.503937530517578125e+01,1.352518463134765625e+02,-1.884389281272888184e+00,-3.255323791503906250e+01,-1.844593353271484375e+02,3.627595901489257812e+01,2.275674819946289062e+01,3.284003448486328125e+01
5.040000081062316895e-01,2.000000000000000000e+00,-2.452831077575683594e+01,-2.338093280792236328e+00,4.619382476806640625e+01,9.508192443847656250e+01,8.503765106201171875e+01,1.352432556152343750e+02,-1.935676217079162598e+00,-3.254746627807617188e+01,-1.844543914794921875e+02,3.627756500244140625e+01,2.277413940429687500e+01,3.283483123779296875e+01
5.080000162124633789e-01,2.000000000000000000e+00,-2.458211326599121094e+01,-2.301208496093750000e+00,4.614859008789062500e+01,9.508886718750000000e+01,8.503593444824218750e+01,1.352346496582031250e+02,-1.986951589584350586e+00,-3.254169464111328125e+01,-1.844494476318359375e+02,3.627916717529296875e+01,2.279152488708496094e+01,3.282962799072265625e+01
5.120000243186950684e-01,2.000000000000000000e+00,-2.463590049743652344e+01,-2.264332056045532227e+00,4.610336685180664062e+01,9.509580230712890625e+01,8.503420257568359375e+01,1.352260589599609375e+02,-2.038215160369873047e+00,-3.253592300415039062e+01,-1.844445037841796875e+02,3.628077316284179688e+01,2.280891036987304688e+01,3.282442855834960938e+01
5.159999728202819824e-01,2.000000000000000000e+00,-2.468967819213867188e+01,-2.227464199066162109e+00,4.605815505981445312e+01,9.510273742675781250e+01,8.503247833251953125e+01,1.352174682617187500e+02,-2.089467048645019531e+00,-3.253015518188476562e+01,-1.844395751953125000e+02,3.628237915039062500e+01,2.282629013061523438e+01,3.281922531127929688e+01
5.199999809265136719e-01,2.000000000000000000e+00,-2.474344253540039062e+01,-2.190604448318481445e+00,4.601295471191406250e+01,9.510966491699218750e+01,8.503076171875000000e+01,1.352088623046875000e+02,-2.140707492828369141e+00,-3.252438735961914062e+01,-1.844346313476562500e+02,3.628398513793945312e+01,2.284366416931152344e+01,3.281402969360351562e+01
5.239999890327453613e-01,2.000000000000000000e+00,-2.479719543457031250e+01,-2.153753280639648438e+00,4.596776580810546875e+01,9.511660003662109375e+01,8.502903747558593750e+01,1.352002716064453125e+02,-2.191936254501342773e+00,-3.251862335205078125e+01,-1.844296875000000000e+02,3.628558349609375000e+01,2.286103630065917969e+01,3.280883026123046875e+01
5.279999971389770508e-01,2.000000000000000000e+00,-2.485093498229980469e+01,-2.116910457611083984e+00,4.592258453369140625e+01,9.512352752685546875e+01,8.502732086181640625e+01,1.351916809082031250e+02,-2.243153333663940430e+00,-3.251285934448242188e+01,-1.844247589111328125e+02,3.628718948364257812e+01,2.287840270996093750e+01,3.280363464355468750e+01
5.320000052452087402e-01,2.000000000000000000e+00,-2.490466308593750000e+01,-2.080075979232788086e+00,4.587741088867187500e+01,9.513046264648437500e+01,8.502559661865234375e+01,1.351831054687500000e+02,-2.294358491897583008e+00,-3.250709533691406250e+01,-1.844198150634765625e+02,3.628879165649414062e+01,2.289576530456542969e+01,3.279843902587890625e+01
5.360000133514404297e-01,2.000000000000000000e+00,-2.495837974548339844e+01,-2.043250083923339844e+00,4.583225250244140625e+01,9.513738250732421875e+01,8.502388000488281250e+01,1.351745147705078125e+02,-2.345552206039428711e+00,-3.250133132934570312e+01,-1.844148712158203125e+02,3.629039764404296875e+01,2.291312599182128906e+01,3.279324340820312500e+01
5.400000214576721191e-01,2.000000000000000000e+00,-2.501208305358886719e+01,-2.006432294845581055e+00,4.578710174560546875e+01,9.514430236816406250e+01,8.502216339111328125e+01,1.351659393310546875e+02,-2.396734237670898438e+00,-3.249557113647460938e+01,-1.844099426269531250e+02,3.629199981689453125e+01,2.293048286437988281e+01,3.278805160522460938e+01
5.440000295639038086e-01,2.000000000000000000e+00,-2.506577301025390625e+01,-1.969622969627380371e+00,4.574196243286132812e+01,9.515122985839843750e+01,8.502043914794921875e+01,1.351573486328125000e+02,-2.447904825210571289e+00,-3.248981475830078125e+01,-1.844049987792968750e+02,3.629360198974609375e+01,2.294783401489257812e+01,3.278285980224609375e+01
5.479999780654907227e-01,2.000000000000000000e+00,-2.511945343017578125e+01,-1.932821869850158691e+00,4.569683074951171875e+01,9.515815734863281250e+01,8.501872253417968750e+01,1.351487731933593750e+02,-2.499063491821289062e+00,-3.248405456542968750e+01,-1.844000701904296875e+02,3.629520034790039062e+01,2.296518135070800781e+01,3.277766799926757812e+01
5.519999861717224121e-01,2.000000000000000000e+00,-2.517312049865722656e+01,-1.896029353141784668e+00,4.565171432495117188e+01,9.516507720947265625e+01,8.501700592041015625e+01,1.351401977539062500e+02,-2.550210714340209961e+00,-3.247829818725585938e+01,-1.843951416015625000e+02,3.629680252075195312e+01,2.298252487182617188e+01,3.277248001098632812e+01
5.559999942779541016e-01,2.000000000000000000e+00,-2.522677421569824219e+01,-1.859245181083679199e+00,4.560660552978515625e+01,9.517199707031250000e+01,8.501528167724609375e+01,1.351316223144531250e+02,-2.601346254348754883e+00,-3.247254180908203125e+01,-1.843902130126953125e+02,3.629840087890625000e+01,2.299986457824707031e+01,3.276729202270507812e+01
5.600000023841857910e-01,2.000000000000000000e+00,-2.528041648864746094e+01,-1.822469353675842285e+00,4.556150436401367188e+01,9.517890930175781250e+01,8.501357269287109375e+01,1.351230621337890625e+02,-2.652470350265502930e+00,-3.246678924560546875e+01,-1.843852691650390625e+02,3.630000305175781250e+01,2.301720237731933594e+01,3.276210403442382812e+01
5.640000104904174805e-01,2.000000000000000000e+00,-2.533404731750488281e+01,-1.785701751708984375e+00,4.551641845703125000e+01,9.518582153320312500e+01,8.501184844970703125e+01,1.351144714355468750e+02,-2.703582525253295898e+00,-3.246103286743164062e+01,-1.843803405761718750e+02,3.630160522460937500e+01,2.303453445434570312e+01,3.275691986083984375e+01
5.680000185966491699e-01,2.000000000000000000e+00,-2.538766670227050781e+01,-1.748942494392395020e+00,4.547134017944335938e+01,9.519273376464843750e+01,8.501013183593750000e+01,1.351059112548828125e+02,-2.754683256149291992e+00,-3.245528411865234375e+01,-1.843754272460937500e+02,3.630320358276367188e+01,2.305186271667480469e+01,3.275173568725585938e+01
5.720000267028808594e-01,2.000000000000000000e+00,-2.544127273559570312e+01,-1.712191700935363770e+00,4.542626953125000000e+01,9.519964599609375000e+01,8.500841522216796875e+01,1.350973510742187500e+02,-2.805772304534912109e+00,-3.244953155517578125e+01,-1.843704986572265625e+02,3.630480194091796875e+01,2.306918716430664062e+01,3.274655151367187500e+01
5.759999752044677734e-01,2.000000000000000000e+00,-2.549486732482910156e+01,-1.675449252128601074e+00,4.538121032714843750e+01,9.520655822753906250e+01,8.500669860839843750e+01,1.350887756347656250e+02,-2.856849908828735352e+00,-3.244378662109375000e+01,-1.843655700683593750e+02,3.630640411376953125e+01,2.308650970458984375e+01,3.274137115478515625e+01
5.799999833106994629e-01,2.000000000000000000e+00,-2.554844665527343750e+01,-1.638715147972106934e+00,4.533616638183593750e+01,9.521347045898437500e+01,8.500498199462890625e+01,1.350802154541015625e+02,-2.907915830612182617e+00,-3.243803787231445312e+01,-1.843606414794921875e+02,3.630800247192382812e+01,2.310382652282714844e+01,3.273618698120117188e+01
5.839999914169311523e-01,2.000000000000000000e+00,-2.560201835632324219e+01,-1.601989388465881348e+00,4.529113006591796875e+01,9.522037506103515625e+01,8.500327301025390625e+01,1.350716552734375000e+02,-2.958970069885253906e+00,-3.243228912353515625e+01,-1.843557128906250000e+02,3.630960083007812500e+01,2.312113761901855469e+01,3.273100662231445312e+01
5.879999995231628418e-01,2.000000000000000000e+00,-2.565557479858398438e+01,-1.565271854400634766e+00,4.524610137939453125e+01,9.522728729248046875e+01,8.500155639648437500e+01,1.350630798339843750e+02,-3.010012865066528320e+00,-3.242654418945312500e+01,-1.843507995605468750e+02,3.631119918823242188e+01,2.313844680786132812e+01,3.272583007812500000e+01
5.920000076293945312e-01,2.000000000000000000e+00,-2.570912170410156250e+01,-1.528562784194946289e+00,4.520108413696289062e+01,9.523419189453125000e+01,8.499983978271484375e+01,1.350545349121093750e+02,-3.061043977737426758e+00,-3.242080307006835938e+01,-1.843458862304687500e+02,3.631279754638671875e+01,2.315575218200683594e+01,3.272065353393554688e+01
5.960000157356262207e-01,2.000000000000000000e+00,-2.576265335083007812e+01,-1.491862058639526367e+00,4.515607833862304688e+01,9.524109649658203125e+01,8.499812316894531250e+01,1.350459899902343750e+02,-3.112063169479370117e+00,-3.241506195068359375e+01,-1.843409576416015625e+02,3.631439208984375000e+01,2.317305374145507812e+01,3.271547698974609375e+01
6.000000238418579102e-01,2.000000000000000000e+00,-2.581617355346679688e+01,-1.455169916152954102e+00,4.511108016967773438e+01,9.524799346923828125e+01,8.499641418457031250e+01,1.350374298095703125e+02,-3.163071393966674805e+00,-3.240932083129882812e+01,-1.843360443115234375e+02,3.631599044799804688e+01,2.319034767150878906e+01,3.271030044555664062e+01
6.039999723434448242e-01,2.000000000000000000e+00,-2.586968421936035156e+01,-1.418485879898071289e+00,4.506609344482421875e+01,9.525489044189453125e+01,8.499469757080078125e+01,1.350288848876953125e+02,-3.214067697525024414e+00,-3.240357971191406250e+01,-1.843311309814453125e+02,3.631758499145507812e+01,2.320764160156250000e+01,3.270512771606445312e+01
6.079999804496765137e-01,2.000000000000000000e+00,-2.592318153381347656e+01,-1.381810188293457031e+00,4.502112197875976562e+01,9.526178741455078125e+01,8.499298095703125000e+01,1.350203247070312500e+02,-3.265052318572998047e+00,-3.239784240722656250e+01,-1.843262023925781250e+02,3.631918334960937500e+01,2.322492980957031250e+01,3.269995498657226562e+01
6.119999885559082031e-01,2.000000000000000000e+00,-2.597666549682617188e+01,-1.345142722129821777e+00,4.497615432739257812e+01,9.526869201660156250e+01,8.499127197265625000e+01,1.350117797851562500e+02,-3.316025495529174805e+00,-3.239210510253906250e+01,-1.843212890625000000e+02,3.632077789306640625e+01,2.324221611022949219e+01,3.269478225708007812e+01
6.159999966621398926e-01,2.000000000000000000e+00,-2.603013610839843750e+01,-1.308483362197875977e+00,4.493119812011718750e+01,9.527558135986328125e+01,8.498956298828125000e+01,1.350032196044921875e+02,-3.366986989974975586e+00,-3.238636779785156250e+01,-1.843163757324218750e+02,3.632237243652343750e+01,2.325949668884277344e+01,3.268960952758789062e+01
6.200000047683715820e-01,2.000000000000000000e+00,-2.608359718322753906e+01,-1.271832227706909180e+00,4.488625335693359375e+01,9.528247833251953125e+01,8.498784637451171875e+01,1.349946899414062500e+02,-3.417937278747558594e+00,-3.238063430786132812e+01,-1.843114624023437500e+02,3.632396697998046875e+01,2.327677345275878906e+01,3.268444442749023438e+01
6.240000128746032715e-01,2.000000000000000000e+00,-2.613704681396484375e+01,-1.235189557075500488e+00,4.484131622314453125e+01,9.528936767578125000e+01,8.498612976074218750e+01,1.349861450195312500e+02,-3.468875646591186523e+00,-3.237490081787109375e+01,-1.843065490722656250e+02,3.632556152343750000e+01,2.329404640197753906e+01,3.267927551269531250e+01
6.280000209808349609e-01,2.000000000000000000e+00,-2.619048118591308594e+01,-1.198555111885070801e+00,4.479639434814453125e+01,9.529626464843750000e+01,8.498442840576171875e+01,1.349776000976562500e+02,-3.519802808761596680e+00,-3.236916732788085938e+01,-1.843016357421875000e+02,3.632715606689453125e+01,2.331131553649902344e+01,3.267411041259765625e+01
6.320000290870666504e-01,2.000000000000000000e+00,-2.624390792846679688e+01,-1.161928892135620117e+00,4.475148010253906250e+01,9.530314636230468750e+01,8.498271179199218750e+01,1.349690551757812500e+02,-3.570718288421630859e+00,-3.236343765258789062e+01,-1.842967224121093750e+02,3.632875061035156250e+01,2.332857894897460938e+01,3.266894149780273438e+01
6.359999775886535645e-01,2.000000000000000000e+00,-2.629731941223144531e+01,-1.125310778617858887e+00,4.470657348632812500e+01,9.531003570556640625e+01,8.498100280761718750e+01,1.349605407714843750e+02,-3.621622562408447266e+00,-3.235770797729492188e+01,-1.842918090820312500e+02,3.633034515380859375e+01,2.334584045410156250e+01,3.266378021240234375e+01
6.399999856948852539e-01,2.000000000000000000e+00,-2.635071945190429688e+01,-1.088701128959655762e+00,4.466167831420898438e+01,9.531692504882812500e+01,8.497928619384765625e+01,1.349519958496093750e+02,-3.672515392303466797e+00,-3.235198211669921875e+01,-1.842869110107421875e+02,3.633193969726562500e+01,2.336310005187988281e+01,3.265861511230468750e+01
6.439999938011169434e-01,2.000000000000000000e+00,-2.640410804748535156e+01,-1.052099466323852539e+00,4.461679458618164062e+01,9.532380676269531250e+01,8.497757720947265625e+01,1.349434661865234375e+02,-3.723396539688110352e+00,-3.234625244140625000e+01,-1.842819976806640625e+02,3.633353424072265625e+01,2.338035202026367188e+01,3.265345001220703125e+01
6.480000019073486328e-01,2.000000000000000000e+00,-2.645748519897460938e+01,-1.015506148338317871e+00,4.457191467285156250e+01,9.533068847656250000e+01,8.497587585449218750e+01,1.349349365234375000e+02,-3.774266481399536133e+00,-3.234052658081054688e+01,-1.842770996093750000e+02,3.633512496948242188e+01,2.339760208129882812e+01,3.264829254150390625e+01
6.520000100135803223e-01,2.000000000000000000e+00,-2.651085090637207031e+01,-9.789209961891174316e-01,4.452705383300781250e+01,9.533757019042968750e+01,8.497416687011718750e+01,1.349264068603515625e+02,-3.825125455856323242e+00,-3.233480072021484375e+01,-1.842722015380859375e+02,3.633671569824218750e+01,2.341484832763671875e+01,3.264313125610351562e+01
6.560000181198120117e-01,2.000000000000000000e+00,-2.656420326232910156e+01,-9.423439502716064453e-01,4.448219680786132812e+01,9.534445190429687500e+01,8.497245788574218750e+01,1.349178771972656250e+02,-3.875972747802734375e+00,-3.232907867431640625e+01,-1.842672882080078125e+02,3.633830642700195312e+01,2.343208885192871094e+01,3.263796997070312500e+01
6.600000262260437012e-01,2.000000000000000000e+00,-2.661754226684570312e+01,-9.057750701904296875e-01,4.443735504150390625e+01,9.535132598876953125e+01,8.497074127197265625e+01,1.349093475341796875e+02,-3.926808595657348633e+00,-3.232335662841796875e+01,-1.842623901367187500e+02,3.633989715576171875e+01,2.344932937622070312e+01,3.263281250000000000e+01
6.639999747276306152e-01,2.000000000000000000e+00,-2.667087364196777344e+01,-8.692142963409423828e-01,4.439251708984375000e+01,9.535820770263671875e+01,8.496903991699218750e+01,1.349008331298828125e+02,-3.977633237838745117e+00,-3.231763839721679688e+01,-1.842574768066406250e+02,3.634149169921875000e+01,2.346656227111816406e+01,3.262765884399414062e+01
6.679999828338623047e-01,2.000000000000000000e+00,-2.672418975830078125e+01,-8.326616883277893066e-01,4.434769439697265625e+01,9.536507415771484375e+01,8.496733093261718750e+01,1.348923187255859375e+02,-4.028446674346923828e+00,-3.231191635131835938e+01,-1.842525787353515625e+02,3.634308242797851562e+01,2.348379325866699219e+01,3.262250137329101562e+01
6.719999909400939941e-01,2.000000000000000000e+00,-2.677749443054199219e+01,-7.961171865463256836e-01,4.430287933349609375e+01,9.537195587158203125e+01,8.496562957763671875e+01,1.348837890625000000e+02,-4.079248905181884766e+00,-3.230620193481445312e+01,-1.842476806640625000e+02,3.634467315673828125e+01,2.350102043151855469e+01,3.261734771728515625e+01
6.759999990463256836e-01,2.000000000000000000e+00,-2.683078765869140625e+01,-7.595807909965515137e-01,4.425807189941406250e+01,9.537882232666015625e+01,8.496392059326171875e+01,1.348752746582031250e+02,-4.130040168762207031e+00,-3.230048370361328125e+01,-1.842427825927734375e+02,3.634626007080078125e+01,2.351824378967285156e+01,3.261219406127929688e+01
6.800000071525573730e-01,2.000000000000000000e+00,-2.688406944274902344e+01,-7.230525612831115723e-01,4.421327972412109375e+01,9.538569641113281250e+01,8.496221160888671875e+01,1.348667602539062500e+02,-4.180819511413574219e+00,-3.229476547241210938e+01,-1.842378997802734375e+02,3.634785461425781250e+01,2.353546333312988281e+01,3.260704421997070312e+01
6.840000152587890625e-01,2.000000000000000000e+00,-2.693733978271484375e+01,-6.865323185920715332e-01,4.416849517822265625e+01,9.539256286621093750e+01,8.496050262451171875e+01,1.348582458496093750e+02,-4.231587886810302734e+00,-3.228905487060546875e+01,-1.842329864501953125e+02,3.634944152832031250e+01,2.355267906188964844e+01,3.260189056396484375e+01
6.880000233650207520e-01,2.000000000000000000e+00,-2.699059677124023438e+01,-6.500201821327209473e-01,4.412371826171875000e+01,9.539942932128906250e+01,8.495880126953125000e+01,1.348497314453125000e+02,-4.282345294952392578e+00,-3.228334045410156250e+01,-1.842281036376953125e+02,3.635103225708007812e+01,2.356988906860351562e+01,3.259674072265625000e+01
6.919999718666076660e-01,2.000000000000000000e+00,-2.704384231567382812e+01,-6.135161519050598145e-01,4.407895278930664062e+01,9.540629577636718750e+01,8.495709991455078125e+01,1.348412322998046875e+02,-4.333091259002685547e+00,-3.227762985229492188e+01,-1.842232055664062500e+02,3.635261917114257812e+01,2.358709716796875000e+01,3.259159469604492188e+01
6.959999799728393555e-01,2.000000000000000000e+00,-2.709707641601562500e+01,-5.770201683044433594e-01,4.403419494628906250e+01,9.541316223144531250e+01,8.495539093017578125e+01,1.348327178955078125e+02,-4.383826255798339844e+00,-3.227191925048828125e+01,-1.842183227539062500e+02,3.635420989990234375e+01,2.360430145263671875e+01,3.258644866943359375e+01
6.999999880790710449e-01,2.000000000000000000e+00,-2.715029907226562500e+01,-5.405322909355163574e-01,4.398945236206054688e+01,9.542002868652343750e+01,8.495368957519531250e+01,1.348242034912109375e+02,-4.434549808502197266e+00,-3.226620864868164062e+01,-1.842134246826171875e+02,3.635579681396484375e+01,2.362150001525878906e+01,3.258129882812500000e+01
7.039999961853027344e-01,2.000000000000000000e+00,-2.720351028442382812e+01,-5.040524005889892578e-01,4.394471740722656250e+01,9.542688751220703125e+01,8.495198059082031250e+01,1.348157043457031250e+02,-4.485262393951416016e+00,-3.226050186157226562e+01,-1.842085418701171875e+02,3.635738372802734375e+01,2.363869667053222656e+01,3.257615280151367188e+01
7.080000042915344238e-01,2.000000000000000000e+00,-2.725670814514160156e+01,-4.675805568695068359e-01,4.389999008178710938e+01,9.543374633789062500e+01,8.495027923583984375e+01,1.348072052001953125e+02,-4.535963058471679688e+00,-3.225479507446289062e+01,-1.842036437988281250e+02,3.635897064208984375e+01,2.365589141845703125e+01,3.257101058959960938e+01
7.120000123977661133e-01,2.000000000000000000e+00,-2.730989456176757812e+01,-4.311168491840362549e-01,4.385527420043945312e+01,9.544060516357421875e+01,8.494857025146484375e+01,1.347987060546875000e+02,-4.586653709411621094e+00,-3.224909210205078125e+01,-1.841987609863281250e+02,3.636055755615234375e+01,2.367307853698730469e+01,3.256586837768554688e+01
7.160000205039978027e-01,2.000000000000000000e+00,-2.736307144165039062e+01,-3.946611583232879639e-01,4.381056976318359375e+01,9.544746398925781250e+01,8.494686889648437500e+01,1.347902069091796875e+02,-4.637332439422607422e+00,-3.224338531494140625e+01,-1.841938629150390625e+02,3.636214447021484375e+01,2.369026374816894531e+01,3.256072616577148438e+01
7.200000286102294922e-01,2.000000000000000000e+00,-2.741623497009277344e+01,-3.582135438919067383e-01,4.376587295532226562e+01,9.545432281494140625e+01,8.494517517089843750e+01,1.347817077636718750e+02,-4.687999725341796875e+00,-3.223768234252929688e+01,-1.841889801025390625e+02,3.636373138427734375e+01,2.370744514465332031e+01,3.255558395385742188e+01
7.239999771118164062e-01,2.000000000000000000e+00,-2.746938705444335938e+01,-3.217739462852478027e-01,4.372118377685546875e+01,9.546116638183593750e+01,8.494347381591796875e+01,1.347732086181640625e+02,-4.738656520843505859e+00,-3.223197937011718750e+01,-1.841840972900390625e+02,3.636531829833984375e+01,2.372462272644042969e+01,3.255044555664062500e+01
7.279999852180480957e-01,2.000000000000000000e+00,-2.752252769470214844e+01,-2.853424251079559326e-01,4.367650985717773438e+01,9.546801757812500000e+01,8.494176483154296875e+01,1.347647247314453125e+02,-4.789301395416259766e+00,-3.222628021240234375e+01,-1.841792144775390625e+02,3.636690139770507812e+01,2.374179649353027344e+01,3.254530715942382812e+01
7.319999933242797852e-01,2.000000000000000000e+00,-2.757565689086914062e+01,-2.489189356565475464e-01,4.363184356689453125e+01,9.547486877441406250e+01,8.494006347656250000e+01,1.347562255859375000e+02,-4.839935302734375000e+00,-3.222058105468750000e+01,-1.841743316650390625e+02,3.636848831176757812e+01,2.375896453857421875e+01,3.254016876220703125e+01
7.360000014305114746e-01,2.000000000000000000e+00,-2.762877273559570312e+01,-2.125034779310226440e-01,4.358718872070312500e+01,9.548171997070312500e+01,8.493836212158203125e+01,1.347477569580078125e+02,-4.890558242797851562e+00,-3.221488571166992188e+01,-1.841694488525390625e+02,3.637007141113281250e+01,2.377613067626953125e+01,3.253503417968750000e+01
7.400000095367431641e-01,2.000000000000000000e+00,-2.768187713623046875e+01,-1.760960668325424194e-01,4.354253768920898438e+01,9.548857116699218750e+01,8.493666076660156250e+01,1.347392578125000000e+02,-4.941169738769531250e+00,-3.220918655395507812e+01,-1.841645660400390625e+02,3.637165451049804688e+01,2.379329299926757812e+01,3.252989959716796875e+01
7.440000176429748535e-01,2.000000000000000000e+00,-2.773497009277343750e+01,-1.396967023611068726e-01,4.349790191650390625e+01,9.549541473388671875e+01,8.493495941162109375e+01,1.347307739257812500e+02,-4.991770267486572266e+00,-3.220349121093750000e+01,-1.841596832275390625e+02,3.637324142456054688e+01,2.381045341491699219e+01,3.252476501464843750e+01
7.480000257492065430e-01,2.000000000000000000e+00,-2.778805351257324219e+01,-1.033053547143936157e-01,4.345327377319335938e+01,9.550225830078125000e+01,8.493326568603515625e+01,1.347222900390625000e+02,-5.042359828948974609e+00,-3.219779968261718750e+01,-1.841548156738281250e+02,3.637482452392578125e+01,2.382760620117187500e+01,3.251963043212890625e+01
7.519999742507934570e-01,2.000000000000000000e+00,-2.784112167358398438e+01,-6.692205369472503662e-02,4.340865707397460938e+01,9.550910186767578125e+01,8.493156433105468750e+01,1.347138061523437500e+02,-5.092937946319580078e+00,-3.219210433959960938e+01,-1.841499328613281250e+02,3.637640762329101562e+01,2.384475708007812500e+01,3.251449966430664062e+01
7.559999823570251465e-01,2.000000000000000000e+00,-2.789418029785156250e+01,-3.054677136242389679e-02,4.336405181884765625e+01,9.551594543457031250e+01,8.492986297607421875e+01,1.347053375244140625e+02,-5.143505096435546875e+00,-3.218641662597656250e+01,-1.841450653076171875e+02,3.637799072265625000e+01,2.386190414428710938e+01,3.250936889648437500e+01
7.599999904632568359e-01,2.000000000000000000e+00,-2.794722747802734375e+01,5.820482037961483002e-03,4.331945419311523438e+01,9.552278900146484375e+01,8.492816162109375000e+01,1.346968536376953125e+02,-5.194060802459716797e+00,-3.218072509765625000e+01,-1.841401824951171875e+02,3.637957382202148438e+01,2.387904930114746094e+01,3.250424194335937500e+01
7.639999985694885254e-01,2.000000000000000000e+00,-2.800026130676269531e+01,4.217971488833427429e-02,4.327486801147460938e+01,9.552962493896484375e+01,8.492646789550781250e+01,1.346883697509765625e+02,-5.244605541229248047e+00,-3.217503738403320312e+01,-1.841352996826171875e+02,3.638115692138671875e+01,2.389618682861328125e+01,3.249911117553710938e+01
7.680000066757202148e-01,2.000000000000000000e+00,-2.805328369140625000e+01,7.853092253208160400e-02,4.323028564453125000e+01,9.553646087646484375e+01,8.492476654052734375e+01,1.346799011230468750e+02,-5.295139312744140625e+00,-3.216934967041015625e+01,-1.841304321289062500e+02,3.638273620605468750e+01,2.391332244873046875e+01,3.249398803710937500e+01
7.720000147819519043e-01,2.000000000000000000e+00,-2.810629653930664062e+01,1.148741245269775391e-01,4.318571853637695312e+01,9.554329681396484375e+01,8.492307281494140625e+01,1.346714324951171875e+02,-5.345661640167236328e+00,-3.216366195678710938e+01,-1.841255645751953125e+02,3.638431930541992188e+01,2.393045425415039062e+01,3.248886108398437500e+01
7.760000228881835938e-01,2.000000000000000000e+00,-2.815929603576660156e+01,1.512093096971511841e-01,4.314116287231445312e+01,9.555013275146484375e+01,8.492137908935546875e+01,1.346629638671875000e+02,-5.396172523498535156e+00,-3.215797424316406250e+01,-1.841206817626953125e+02,3.638589859008789062e+01,2.394758224487304688e+01,3.248373413085937500e+01
7.799999713897705078e-01,2.000000000000000000e+00,-2.821228408813476562e+01,1.875364631414413452e-01,4.309661102294921875e+01,9.555696105957031250e+01,8.491967773437500000e+01,1.346544952392578125e+02,-5.446672916412353516e+00,-3.215229415893554688e+01,-1.841158142089843750e+02,3.638748168945312500e+01,2.396470832824707031e+01,3.247861099243164062e+01
7.839999794960021973e-01,2.000000000000000000e+00,-2.826525878906250000e+01,2.238556444644927979e-01,4.305207443237304688e+01,9.556379699707031250e+01,8.491798400878906250e+01,1.346460266113281250e+02,-5.497162342071533203e+00,-3.214661026000976562e+01,-1.841109466552734375e+02,3.638906097412109375e+01,2.398182678222656250e+01,3.247348785400390625e+01
7.879999876022338867e-01,2.000000000000000000e+00,-2.831822395324707031e+01,2.601667940616607666e-01,4.300754547119140625e+01,9.557062530517578125e+01,8.491629028320312500e+01,1.346375579833984375e+02,-5.547639846801757812e+00,-3.214092636108398438e+01,-1.841060791015625000e+02,3.639064407348632812e+01,2.399894523620605469e+01,3.246836853027343750e+01
7.919999957084655762e-01,2.000000000000000000e+00,-2.837117958068847656e+01,2.964699268341064453e-01,4.296302795410156250e+01,9.557745361328125000e+01,8.491458892822265625e+01,1.346290893554687500e+02,-5.598106861114501953e+00,-3.213524627685546875e+01,-1.841012115478515625e+02,3.639222335815429688e+01,2.401605796813964844e+01,3.246324920654296875e+01
7.960000038146972656e-01,2.000000000000000000e+00,-2.842411994934082031e+01,3.327650725841522217e-01,4.291851425170898438e+01,9.558428192138671875e+01,8.491289520263671875e+01,1.346206359863281250e+02,-5.648562431335449219e+00,-3.212957000732421875e+01,-1.840963439941406250e+02,3.639380264282226562e+01,2.403316688537597656e+01,3.245812988281250000e+01
8.000000119209289551e-01,2.000000000000000000e+00,-2.847704887390136719e+01,3.690522313117980957e-01,4.287401580810546875e+01,9.559111022949218750e+01,8.491120147705078125e+01,1.346121673583984375e+02,-5.699006557464599609e+00,-3.212389373779296875e+01,-1.840914764404296875e+02,3.639538192749023438e+01,2.405027198791503906e+01,3.245301055908203125e+01
8.040000200271606445e-01,2.000000000000000000e+00,-2.852996635437011719e+01,4.053314030170440674e-01,4.282952880859375000e+01,9.559793090820312500e+01,8.490950775146484375e+01,1.346037139892578125e+02,-5.749439716339111328e+00,-3.211821365356445312e+01,-1.840866241455078125e+02,3.639696121215820312e+01,2.406737327575683594e+01,3.244789505004882812e+01
8.080000281333923340e-01,2.000000000000000000e+00,-2.858287429809570312e+01,4.416025578975677490e-01,4.278504943847656250e+01,9.560475158691406250e+01,8.490781402587890625e+01,1.345952606201171875e+02,-5.799862384796142578e+00,-3.211254119873046875e+01,-1.840817565917968750e+02,3.639854049682617188e+01,2.408447265625000000e+01,3.244277572631835938e+01
8.119999766349792480e-01,2.000000000000000000e+00,-2.863576889038085938e+01,4.778656959533691406e-01,4.274057769775390625e+01,9.561157226562500000e+01,8.490612030029296875e+01,1.345868072509765625e+02,-5.850273609161376953e+00,-3.210686492919921875e+01,-1.840768890380859375e+02,3.640011596679687500e+01,2.410156822204589844e+01,3.243766021728515625e+01
8.159999847412109375e-01,2.000000000000000000e+00,-2.868865013122558594e+01,5.141208767890930176e-01,4.269611740112304688e+01,9.561839294433593750e+01,8.490442657470703125e+01,1.345783538818359375e+02,-5.900673389434814453e+00,-3.210119247436523438e+01,-1.840720367431640625e+02,3.640169525146484375e+01,2.411865615844726562e+01,3.243254852294921875e+01
8.199999928474426270e-01,2.000000000000000000e+00,-2.874152183532714844e+01,5.503681302070617676e-01,4.265166473388671875e+01,9.562521362304687500e+01,8.490272521972656250e+01,1.345699005126953125e+02,-5.951062202453613281e+00,-3.209552001953125000e+01,-1.840671844482421875e+02,3.640327453613281250e+01,2.413574409484863281e+01,3.242743682861328125e+01
8.240000009536743164e-01,2.000000000000000000e+00,-2.879438018798828125e+01,5.866073369979858398e-01,4.260722732543945312e+01,9.563202667236328125e+01,8.490103149414062500e+01,1.345614624023437500e+02,-6.001440525054931641e+00,-3.208985137939453125e+01,-1.840623168945312500e+02,3.640485000610351562e+01,2.415282630920410156e+01,3.242232513427734375e+01
8.280000090599060059e-01,2.000000000000000000e+00,-2.884722900390625000e+01,6.228385567665100098e-01,4.256279373168945312e+01,9.563883972167968750e+01,8.489934539794921875e+01,1.345530242919921875e+02,-6.051807403564453125e+00,-3.208418273925781250e+01,-1.840574645996093750e+02,3.640642929077148438e+01,2.416990470886230469e+01,3.241721725463867188e+01
8.320000171661376953e-01,2.000000000000000000e+00,-2.890006828308105469e+01,6.590618491172790527e-01,4.251837539672851562e+01,9.564565277099609375e+01,8.489765167236328125e+01,1.345445709228515625e+02,-6.102162837982177734e+00,-3.207851791381835938e+01,-1.840525970458984375e+02,3.640800094604492188e+01,2.418698120117187500e+01,3.241210556030273438e+01
8.360000252723693848e-01,2.000000000000000000e+00,-2.895289230346679688e+01,6.952771544456481934e-01,4.247396469116210938e+01,9.565246582031250000e+01,8.489595794677734375e+01,1.345361175537109375e+02,-6.152507305145263672e+00,-3.207284927368164062e+01,-1.840477600097656250e+02,3.640958023071289062e+01,2.420405197143554688e+01,3.240699768066406250e+01
8.399999737739562988e-01,2.000000000000000000e+00,-2.900570297241210938e+01,7.314844727516174316e-01,4.242956161499023438e+01,9.565927124023437500e+01,8.489426422119140625e+01,1.345276794433593750e+02,-6.202841281890869141e+00,-3.206718063354492188e+01,-1.840428924560546875e+02,3.641115570068359375e+01,2.422112083435058594e+01,3.240189361572265625e+01
8.439999818801879883e-01,2.000000000000000000e+00,-2.905850410461425781e+01,7.676838040351867676e-01,4.238516998291015625e+01,9.566608428955078125e+01,8.489257812500000000e+01,1.345192565917968750e+02,-6.253163337707519531e+00,-3.206151962280273438e+01,-1.840380401611328125e+02,3.641273117065429688e+01,2.423818588256835938e+01,3.239678573608398438e+01
8.479999899864196777e-01,2.000000000000000000e+00,-2.911129379272460938e+01,8.038751482963562012e-01,4.234078979492187500e+01,9.567288970947265625e+01,8.489088439941406250e+01,1.345108032226562500e+02,-6.303474903106689453e+00,-3.205585861206054688e+01,-1.840331878662109375e+02,3.641430664062500000e+01,2.425524520874023438e+01,3.239168167114257812e+01
8.519999980926513672e-01,2.000000000000000000e+00,-2.916407394409179688e+01,8.400586247444152832e-01,4.229641723632812500e+01,9.567969512939453125e+01,8.488919830322265625e+01,1.345023803710937500e+02,-6.353775024414062500e+00,-3.205019378662109375e+01,-1.840283508300781250e+02,3.641588211059570312e+01,2.427230262756347656e+01,3.238657760620117188e+01
8.560000061988830566e-01,2.000000000000000000e+00,-2.921684074401855469e+01,8.762341141700744629e-01,4.225205612182617188e+01,9.568650054931640625e+01,8.488751220703125000e+01,1.344939422607421875e+02,-6.404064178466796875e+00,-3.204453659057617188e+01,-1.840234985351562500e+02,3.641745758056640625e+01,2.428935432434082031e+01,3.238147735595703125e+01
8.600000143051147461e-01,2.000000000000000000e+00,-2.926959419250488281e+01,9.124015569686889648e-01,4.220770263671875000e+01,9.569329833984375000e+01,8.488581848144531250e+01,1.344855041503906250e+02,-6.454342365264892578e+00,-3.203887939453125000e+01,-1.840186462402343750e+02,3.641902923583984375e+01,2.430640411376953125e+01,3.237637329101562500e+01
8.640000224113464355e-01,2.000000000000000000e+00,-2.932234001159667969e+01,9.485610723495483398e-01,4.216336059570312500e+01,9.570010375976562500e+01,8.488413238525390625e+01,1.344770812988281250e+02,-6.504609584808349609e+00,-3.203321838378906250e+01,-1.840137939453125000e+02,3.642060470581054688e+01,2.432345008850097656e+01,3.237127685546875000e+01
8.679999709129333496e-01,2.000000000000000000e+00,-2.937506866455078125e+01,9.847127795219421387e-01,4.211902618408203125e+01,9.570690917968750000e+01,8.488244628906250000e+01,1.344686584472656250e+02,-6.554865837097167969e+00,-3.202756500244140625e+01,-1.840089416503906250e+02,3.642217636108398438e+01,2.434049034118652344e+01,3.236617660522460938e+01
8.719999790191650391e-01,2.000000000000000000e+00,-2.942779159545898438e+01,1.020856380462646484e+00,4.207470321655273438e+01,9.571369934082031250e+01,8.488075256347656250e+01,1.344602203369140625e+02,-6.605110645294189453e+00,-3.202190780639648438e+01,-1.840040893554687500e+02,3.642374801635742188e+01,2.435752868652343750e+01,3.236107635498046875e+01
8.759999871253967285e-01,2.000000000000000000e+00,-2.948050117492675781e+01,1.056992173194885254e+00,4.203038787841796875e+01,9.572049713134765625e+01,8.487905883789062500e+01,1.344518127441406250e+02,-6.655344486236572266e+00,-3.201625442504882812e+01,-1.839992675781250000e+02,3.642531967163085938e+01,2.437456321716308594e+01,3.235598373413085938e+01
8.799999952316284180e-01,2.000000000000000000e+00,-2.953319549560546875e+01,1.093119978904724121e+00,4.198608398437500000e+01,9.572729492187500000e+01,8.487737274169921875e+01,1.344433898925781250e+02,-6.705567836761474609e+00,-3.201060104370117188e+01,-1.839944152832031250e+02,3.642689514160156250e+01,2.439159202575683594e+01,3.235088729858398438e+01
8.840000033378601074e-01,2.000000000000000000e+00,-2.958588409423828125e+01,1.129239678382873535e+00,4.194179153442382812e+01,9.573409271240234375e+01,8.487568664550781250e+01,1.344349670410156250e+02,-6.755779266357421875e+00,-3.200494766235351562e+01,-1.839895782470703125e+02,3.642846679687500000e+01,2.440862083435058594e+01,3.234579086303710938e+01
8.880000114440917969e-01,2.000000000000000000e+00,-2.963855743408203125e+01,1.165351629257202148e+00,4.189750671386718750e+01,9.574088287353515625e+01,8.487400054931640625e+01,1.344265594482421875e+02,-6.805980682373046875e+00,-3.199930000305175781e+01,-1.839847259521484375e+02,3.643003845214843750e+01,2.442564392089843750e+01,3.234069824218750000e+01
8.920000195503234863e-01,2.000000000000000000e+00,-2.969121932983398438e+01,1.201455593109130859e+00,4.185322952270507812e+01,9.574767303466796875e+01,8.487231445312500000e+01,1.344181213378906250e+02,-6.856170177459716797e+00,-3.199364852905273438e+01,-1.839798889160156250e+02,3.643160629272460938e+01,2.444266128540039062e+01,3.233560562133789062e+01
8.960000276565551758e-01,2.000000000000000000e+00,-2.974386978149414062e+01,1.237551569938659668e+00,4.180896759033203125e+01,9.575445556640625000e+01,8.487063598632812500e+01,1.344097137451171875e+02,-6.906348705291748047e+00,-3.198800277709960938e+01,-1.839750518798828125e+02,3.643317794799804688e+01,2.445967864990234375e+01,3.233051681518554688e+01
8.999999761581420898e-01,2.000000000000000000e+00,-2.979650878906250000e+01,1.273639678955078125e+00,4.176471328735351562e+01,9.576124572753906250e+01,8.486894989013671875e+01,1.344013061523437500e+02,-6.956516742706298828e+00,-3.198235511779785156e+01,-1.839702148437500000e+02,3.643474960327148438e+01,2.447668838500976562e+01,3.232542419433593750e+01
9.039999842643737793e-01,2.000000000000000000e+00,-2.984913635253906250e+01,1.309719800949096680e+00,4.172046661376953125e+01,9.576803588867187500e+01,8.486725616455078125e+01,1.343928985595703125e+02,-7.006673336029052734e+00,-3.197670936584472656e+01,-1.839653778076171875e+02,3.643632125854492188e+01,2.449369812011718750e+01,3.232033538818359375e+01
9.079999923706054688e-01,2.000000000000000000e+00,-2.990175247192382812e+01,1.345792055130004883e+00,4.167623138427734375e+01,9.577481842041015625e+01,8.486557006835937500e+01,1.343844757080078125e+02,-7.056818962097167969e+00,-3.197106742858886719e+01,-1.839605407714843750e+02,3.643789291381835938e+01,2.451070022583007812e+01,3.231524658203125000e+01
9.120000004768371582e-01,2.000000000000000000e+00,-2.995435905456542969e+01,1.381856322288513184e+00,4.163200378417968750e+01,9.578160095214843750e+01,8.486389160156250000e+01,1.343760833740234375e+02,-7.106953620910644531e+00,-3.196542167663574219e+01,-1.839557037353515625e+02,3.643946075439453125e+01,2.452770042419433594e+01,3.231016159057617188e+01
9.160000085830688477e-01,2.000000000000000000e+00,-3.000695037841796875e+01,1.417912840843200684e+00,4.158778762817382812e+01,9.578838348388671875e+01,8.486220550537109375e+01,1.343676757812500000e+02,-7.157077312469482422e+00,-3.195977973937988281e+01,-1.839508819580078125e+02,3.644102859497070312e+01,2.454469871520996094e+01,3.230507659912109375e+01
9.200000166893005371e-01,2.000000000000000000e+00,-3.005953216552734375e+01,1.453961253166198730e+00,4.154358291625976562e+01,9.579516601562500000e+01,8.486052703857421875e+01,1.343592681884765625e+02,-7.207190036773681641e+00,-3.195414161682128906e+01,-1.839460449218750000e+02,3.644259643554687500e+01,2.456169128417968750e+01,3.229999160766601562e+01
9.240000247955322266e-01,2.000000000000000000e+00,-3.011210250854492188e+01,1.490001797676086426e+00,4.149938201904296875e+01,9.580194091796875000e+01,8.485884094238281250e+01,1.343508605957031250e+02,-7.257292270660400391e+00,-3.194849967956542969e+01,-1.839412078857421875e+02,3.644416809082031250e+01,2.457868003845214844e+01,3.229491043090820312e+01
9.279999732971191406e-01,2.000000000000000000e+00,-3.016465950012207031e+01,1.526034474372863770e+00,4.145519638061523438e+01,9.580871582031250000e+01,8.485715484619140625e+01,1.343424682617187500e+02,-7.307383060455322266e+00,-3.194286537170410156e+01,-1.839363861083984375e+02,3.644573593139648438e+01,2.459566497802734375e+01,3.228982543945312500e+01
9.319999814033508301e-01,2.000000000000000000e+00,-3.021720886230468750e+01,1.562059283256530762e+00,4.141102218627929688e+01,9.581549072265625000e+01,8.485546875000000000e+01,1.343340759277343750e+02,-7.357462882995605469e+00,-3.193722724914550781e+01,-1.839315490722656250e+02,3.644730377197265625e+01,2.461264801025390625e+01,3.228474807739257812e+01
9.359999895095825195e-01,2.000000000000000000e+00,-3.026974296569824219e+01,1.598075985908508301e+00,4.136685180664062500e+01,9.582226562500000000e+01,8.485379028320312500e+01,1.343256683349609375e+02,-7.407531261444091797e+00,-3.193159294128417969e+01,-1.839267272949218750e+02,3.644887161254882812e+01,2.462962722778320312e+01,3.227966690063476562e+01
9.399999976158142090e-01,2.000000000000000000e+00,-3.032226753234863281e+01,1.634084939956665039e+00,4.132269287109375000e+01,9.582904052734375000e+01,8.485211181640625000e+01,1.343172760009765625e+02,-7.457589149475097656e+00,-3.192595672607421875e+01,-1.839218902587890625e+02,3.645043945312500000e+01,2.464659881591796875e+01,3.227458572387695312e+01
9.440000057220458984e-01,2.000000000000000000e+00,-3.037477684020996094e+01,1.670086026191711426e+00,4.127854537963867188e+01,9.583581542968750000e+01,8.485043334960937500e+01,1.343088836669921875e+02,-7.507635593414306641e+00,-3.192032623291015625e+01,-1.839170684814453125e+02,3.645200347900390625e+01,2.466357040405273438e+01,3.226950836181640625e+01
9.480000138282775879e-01,2.000000000000000000e+00,-3.042727661132812500e+01,1.706079244613647461e+00,4.123440551757812500e+01,9.584258270263671875e+01,8.484873962402343750e+01,1.343004913330078125e+02,-7.557671070098876953e+00,-3.191469383239746094e+01,-1.839122467041015625e+02,3.645357131958007812e+01,2.468053627014160156e+01,3.226443481445312500e+01
9.520000219345092773e-01,2.000000000000000000e+00,-3.047976684570312500e+01,1.742064476013183594e+00,4.119027709960937500e+01,9.584934997558593750e+01,8.484706115722656250e+01,1.342921142578125000e+02,-7.607696056365966797e+00,-3.190906333923339844e+01,-1.839074249267578125e+02,3.645513916015625000e+01,2.469750213623046875e+01,3.225935745239257812e+01
9.559999704360961914e-01,2.000000000000000000e+00,-3.053224754333496094e+01,1.778041839599609375e+00,4.114615631103515625e+01,9.585611724853515625e+01,8.484538269042968750e+01,1.342837219238281250e+02,-7.657710075378417969e+00,-3.190343475341796875e+01,-1.839026031494140625e+02,3.645670318603515625e+01,2.471446037292480469e+01,3.225428390502929688e+01
9.599999785423278809e-01,2.000000000000000000e+00,-3.058471298217773438e+01,1.814011216163635254e+00,4.110204696655273438e+01,9.586288452148437500e+01,8.484370422363281250e+01,1.342753295898437500e+02,-7.707713127136230469e+00,-3.189780616760253906e+01,-1.838977813720703125e+02,3.645827102661132812e+01,2.473141670227050781e+01,3.224921035766601562e+01
9.639999866485595703e-01,2.000000000000000000e+00,-3.063716506958007812e+01,1.849972724914550781e+00,4.105794906616210938e+01,9.586965179443359375e+01,8.484202575683593750e+01,1.342669525146484375e+02,-7.757705211639404297e+00,-3.189217948913574219e+01,-1.838929595947265625e+02,3.645983505249023438e+01,2.474836730957031250e+01,3.224413681030273438e+01
9.679999947547912598e-01,2.000000000000000000e+00,-3.068961143493652344e+01,1.885926723480224609e+00,4.101385498046875000e+01,9.587641143798828125e+01,8.484033966064453125e+01,1.342585754394531250e+02,-7.807685852050781250e+00,-3.188655471801757812e+01,-1.838881378173828125e+02,3.646139907836914062e+01,2.476531600952148438e+01,3.223906707763671875e+01
9.720000028610229492e-01,2.000000000000000000e+00,-3.074204254150390625e+01,1.921872496604919434e+00,4.096977615356445312e+01,9.588317108154296875e+01,8.483866882324218750e+01,1.342501983642578125e+02,-7.857655525207519531e+00,-3.188092994689941406e+01,-1.838833160400390625e+02,3.646296310424804688e+01,2.478226089477539062e+01,3.223399734497070312e+01
9.760000109672546387e-01,2.000000000000000000e+00,-3.079446220397949219e+01,1.957810401916503906e+00,4.092570495605468750e+01,9.588993072509765625e+01,8.483699035644531250e+01,1.342418060302734375e+02,-7.907614707946777344e+00,-3.187530517578125000e+01,-1.838784942626953125e+02,3.646452713012695312e+01,2.479920196533203125e+01,3.222892761230468750e+01
9.800000190734863281e-01,2.000000000000000000e+00,-3.084687042236328125e+01,1.993740320205688477e+00,4.088164520263671875e+01,9.589669036865234375e+01,8.483531188964843750e+01,1.342334289550781250e+02,-7.957562446594238281e+00,-3.186968421936035156e+01,-1.838736877441406250e+02,3.646609115600585938e+01,2.481613922119140625e+01,3.222385787963867188e+01
9.840000271797180176e-01,2.000000000000000000e+00,-3.089926719665527344e+01,2.029662609100341797e+00,4.083759307861328125e+01,9.590344238281250000e+01,8.483362579345703125e+01,1.342250671386718750e+02,-8.007499694824218750e+00,-3.186406135559082031e+01,-1.838688659667968750e+02,3.646765518188476562e+01,2.483307266235351562e+01,3.221879577636718750e+01
9.879999756813049316e-01,2.000000000000000000e+00,-3.095165443420410156e+01,2.065576791763305664e+00,4.079355239868164062e+01,9.591020202636718750e+01,8.483195495605468750e+01,1.342166900634765625e+02,-8.057425498962402344e+00,-3.185844421386718750e+01,-1.838640441894531250e+02,3.646921920776367188e+01,2.485000228881835938e+01,3.221372985839843750e+01
9.919999837875366211e-01,2.000000000000000000e+00,-3.100402832031250000e+01,2.101483345031738281e+00,4.074951553344726562e+01,9.591695404052734375e+01,8.483027648925781250e+01,1.342083282470703125e+02,-8.107341766357421875e+00,-3.185282707214355469e+01,-1.838592376708984375e+02,3.647077941894531250e+01,2.486692810058593750e+01,3.220866394042968750e+01
9.959999918937683105e-01,2.000000000000000000e+00,-3.105638885498046875e+01,2.137382030487060547e+00,4.070549392700195312e+01,9.592370605468750000e+01,8.482859802246093750e+01,1.341999511718750000e+02,-8.157245635986328125e+00,-3.184720802307128906e+01,-1.838544158935546875e+02,3.647234344482421875e+01,2.488385200500488281e+01,3.220360183715820312e+01
1.000000000000000000e+00,2.000000000000000000e+00,-3.110874176025390625e+01,2.173272848129272461e+00,4.066148376464843750e+01,9.593045806884765625e+01,8.482691955566406250e+01,1.341915740966796875e+02,-8.207139015197753906e+00,-3.184159469604492188e+01,-1.838496093750000000e+02,3.647390365600585938e+01,2.490077018737792969e+01,3.219853973388671875e+01
1.003999948501586914e+00,2.000000000000000000e+00,-3.116108131408691406e+01,2.209155559539794922e+00,4.061747741699218750e+01,9.593721008300781250e+01,8.482524871826171875e+01,1.341832275390625000e+02,-8.257021903991699219e+00,-3.183597946166992188e+01,-1.838448028564453125e+02,3.647546386718750000e+01,2.491768455505371094e+01,3.219347763061523438e+01
1.008000016212463379e+00,2.000000000000000000e+00,-3.121341133117675781e+01,2.245030641555786133e+00,4.057348251342773438e+01,9.594395446777343750e+01,8.482357025146484375e+01,1.341748657226562500e+02,-8.306893348693847656e+00,-3.183036613464355469e+01,-1.838399963378906250e+02,3.647702407836914062e+01,2.493459701538085938e+01,3.218841934204101562e+01
1.011999964714050293e+00,2.000000000000000000e+00,-3.126572799682617188e+01,2.280897617340087891e+00,4.052949905395507812e+01,9.595070648193359375e+01,8.482189178466796875e+01,1.341665039062500000e+02,-8.356753349304199219e+00,-3.182475471496582031e+01,-1.838351898193359375e+02,3.647858810424804688e+01,2.495150184631347656e+01,3.218336105346679688e+01
1.016000032424926758e+00,2.000000000000000000e+00,-3.131803321838378906e+01,2.316756963729858398e+00,4.048552322387695312e+01,9.595744323730468750e+01,8.482022094726562500e+01,1.341581420898437500e+02,-8.406603813171386719e+00,-3.181914329528808594e+01,-1.838303833007812500e+02,3.648014831542968750e+01,2.496840667724609375e+01,3.217830276489257812e+01
1.019999980926513672e+00,2.000000000000000000e+00,-3.137032890319824219e+01,2.352608442306518555e+00,4.044156265258789062e+01,9.596418762207031250e+01,8.481855010986328125e+01,1.341497802734375000e+02,-8.456441879272460938e+00,-3.181353187561035156e+01,-1.838255615234375000e+02,3.648170852661132812e+01,2.498530769348144531e+01,3.217324447631835938e+01
1.024000048637390137e+00,2.000000000000000000e+00,-3.142260932922363281e+01,2.388452053070068359e+00,4.039760589599609375e+01,9.597092437744140625e+01,8.481687164306640625e+01,1.341414184570312500e+02,-8.506269454956054688e+00,-3.180792427062988281e+01,-1.838207550048828125e+02,3.648326873779296875e+01,2.500220298767089844e+01,3.216819000244140625e+01
1.026999950408935547e+00,2.000000000000000000e+00,-3.147488212585449219e+01,2.424288034439086914e+00,4.035366058349609375e+01,9.597766876220703125e+01,8.481520080566406250e+01,1.341330718994140625e+02,-8.556087493896484375e+00,-3.180231666564941406e+01,-1.838159637451171875e+02,3.648482894897460938e+01,2.501909637451171875e+01,3.216313552856445312e+01
1.031999945640563965e+00,2.000000000000000000e+00,-3.152713966369628906e+01,2.460115909576416016e+00,4.030972290039062500e+01,9.598441314697265625e+01,8.481352996826171875e+01,1.341247100830078125e+02,-8.605893135070800781e+00,-3.179671287536621094e+01,-1.838111572265625000e+02,3.648638534545898438e+01,2.503598594665527344e+01,3.215808105468750000e+01
1.036000013351440430e+00,2.000000000000000000e+00,-3.157938957214355469e+01,2.495935916900634766e+00,4.026579666137695312e+01,9.599114227294921875e+01,8.481185150146484375e+01,1.341163635253906250e+02,-8.655689239501953125e+00,-3.179110908508300781e+01,-1.838063507080078125e+02,3.648794555664062500e+01,2.505287170410156250e+01,3.215303039550781250e+01
1.039999961853027344e+00,2.000000000000000000e+00,-3.163162422180175781e+01,2.531748056411743164e+00,4.022187805175781250e+01,9.599787902832031250e+01,8.481018066406250000e+01,1.341080169677734375e+02,-8.705472946166992188e+00,-3.178550529479980469e+01,-1.838015594482421875e+02,3.648950576782226562e+01,2.506975173950195312e+01,3.214797973632812500e+01
1.044000029563903809e+00,2.000000000000000000e+00,-3.168385124206542969e+01,2.567552566528320312e+00,4.017797088623046875e+01,9.600461578369140625e+01,8.480850982666015625e+01,1.340996704101562500e+02,-8.755246162414550781e+00,-3.177990341186523438e+01,-1.837967529296875000e+02,3.649106597900390625e+01,2.508662986755371094e+01,3.214292907714843750e+01
1.047999978065490723e+00,2.000000000000000000e+00,-3.173606491088867188e+01,2.603349208831787109e+00,4.013407135009765625e+01,9.601135253906250000e+01,8.480683135986328125e+01,1.340913238525390625e+02,-8.805008888244628906e+00,-3.177430343627929688e+01,-1.837919464111328125e+02,3.649262237548828125e+01,2.510350418090820312e+01,3.213788223266601562e+01
1.052000045776367188e+00,2.000000000000000000e+00,-3.178826713562011719e+01,2.639138221740722656e+00,4.009018325805664062e+01,9.601808166503906250e+01,8.480516052246093750e+01,1.340829772949218750e+02,-8.854761123657226562e+00,-3.176870346069335938e+01,-1.837871551513671875e+02,3.649417877197265625e+01,2.512037658691406250e+01,3.213283538818359375e+01
1.054999947547912598e+00,2.000000000000000000e+00,-3.184045982360839844e+01,2.674918889999389648e+00,4.004630661010742188e+01,9.602481079101562500e+01,8.480348968505859375e+01,1.340746459960937500e+02,-8.904501914978027344e+00,-3.176310539245605469e+01,-1.837823638916015625e+02,3.649573516845703125e+01,2.513724136352539062e+01,3.212778472900390625e+01
1.059999942779541016e+00,2.000000000000000000e+00,-3.189263916015625000e+01,2.710692167282104492e+00,4.000243759155273438e+01,9.603153991699218750e+01,8.480181884765625000e+01,1.340662994384765625e+02,-8.954231262207031250e+00,-3.175750732421875000e+01,-1.837775726318359375e+02,3.649729537963867188e+01,2.515410423278808594e+01,3.212274169921875000e+01
1.064000010490417480e+00,2.000000000000000000e+00,-3.194480895996093750e+01,2.746457576751708984e+00,3.995857620239257812e+01,9.603826904296875000e+01,8.480014801025390625e+01,1.340579681396484375e+02,-9.003950119018554688e+00,-3.175191116333007812e+01,-1.837727661132812500e+02,3.649885177612304688e+01,2.517096519470214844e+01,3.211769866943359375e+01
1.067999958992004395e+00,2.000000000000000000e+00,-3.199696350097656250e+01,2.782215118408203125e+00,3.991472625732421875e+01,9.604499053955078125e+01,8.479847717285156250e+01,1.340496368408203125e+02,-9.053658485412597656e+00,-3.174631690979003906e+01,-1.837679748535156250e+02,3.650040435791015625e+01,2.518782043457031250e+01,3.211265563964843750e+01
1.072000026702880859e+00,2.000000000000000000e+00,-3.204911041259765625e+01,2.817964792251586914e+00,3.987088775634765625e+01,9.605171203613281250e+01,8.479680633544921875e+01,1.340413055419921875e+02,-9.103355407714843750e+00,-3.174072265625000000e+01,-1.837631835937500000e+02,3.650196075439453125e+01,2.520467185974121094e+01,3.210760879516601562e+01
1.075999975204467773e+00,2.000000000000000000e+00,-3.210124588012695312e+01,2.853706598281860352e+00,3.982706069946289062e+01,9.605843353271484375e+01,8.479514312744140625e+01,1.340329742431640625e+02,-9.153041839599609375e+00,-3.173512840270996094e+01,-1.837583923339843750e+02,3.650351715087890625e+01,2.522152137756347656e+01,3.210256958007812500e+01
1.080000042915344238e+00,2.000000000000000000e+00,-3.215336608886718750e+01,2.889440774917602539e+00,3.978323745727539062e+01,9.606515502929687500e+01,8.479347229003906250e+01,1.340246429443359375e+02,-9.202717781066894531e+00,-3.172953796386718750e+01,-1.837536010742187500e+02,3.650507354736328125e+01,2.523836517333984375e+01,3.209752655029296875e+01
1.083999991416931152e+00,2.000000000000000000e+00,-3.220547866821289062e+01,2.925166845321655273e+00,3.973942565917968750e+01,9.607187652587890625e+01,8.479180145263671875e+01,1.340163116455078125e+02,-9.252382278442382812e+00,-3.172394752502441406e+01,-1.837488098144531250e+02,3.650662612915039062e+01,2.525520706176757812e+01,3.209249114990234375e+01
1.088000059127807617e+00,2.000000000000000000e+00,-3.225757598876953125e+01,2.960885286331176758e+00,3.969562149047851562e+01,9.607859802246093750e+01,8.479013061523437500e+01,1.340079803466796875e+02,-9.302036285400390625e+00,-3.171836090087890625e+01,-1.837440338134765625e+02,3.650818252563476562e+01,2.527204322814941406e+01,3.208745574951171875e+01
1.090999960899353027e+00,2.000000000000000000e+00,-3.230966567993164062e+01,2.996596097946166992e+00,3.965182876586914062e+01,9.608531188964843750e+01,8.478846740722656250e+01,1.339996490478515625e+02,-9.351678848266601562e+00,-3.171277427673339844e+01,-1.837392425537109375e+02,3.650973510742187500e+01,2.528887748718261719e+01,3.208241653442382812e+01
1.095999956130981445e+00,2.000000000000000000e+00,-3.236174392700195312e+01,3.032299041748046875e+00,3.960804748535156250e+01,9.609202575683593750e+01,8.478679656982421875e+01,1.339913330078125000e+02,-9.401311874389648438e+00,-3.170718574523925781e+01,-1.837344512939453125e+02,3.651128768920898438e+01,2.530570793151855469e+01,3.207738113403320312e+01
1.100000023841857910e+00,2.000000000000000000e+00,-3.241381072998046875e+01,3.067994117736816406e+00,3.956427383422851562e+01,9.609873962402343750e+01,8.478512573242187500e+01,1.339830169677734375e+02,-9.450932502746582031e+00,-3.170159912109375000e+01,-1.837296600341796875e+02,3.651284408569335938e+01,2.532253456115722656e+01,3.207234573364257812e+01
1.103999972343444824e+00,2.000000000000000000e+00,-3.246586227416992188e+01,3.103681325912475586e+00,3.952051162719726562e+01,9.610545349121093750e+01,8.478346252441406250e+01,1.339747009277343750e+02,-9.500543594360351562e+00,-3.169601631164550781e+01,-1.837248840332031250e+02,3.651439666748046875e+01,2.533935737609863281e+01,3.206731033325195312e+01
1.108000040054321289e+00,2.000000000000000000e+00,-3.251791000366210938e+01,3.139360666275024414e+00,3.947675704956054688e+01,9.611216735839843750e+01,8.478179168701171875e+01,1.339663696289062500e+02,-9.550143241882324219e+00,-3.169043540954589844e+01,-1.837200927734375000e+02,3.651594924926757812e+01,2.535617637634277344e+01,3.206228256225585938e+01
1.111999988555908203e+00,2.000000000000000000e+00,-3.256993865966796875e+01,3.175032377243041992e+00,3.943301010131835938e+01,9.611887359619140625e+01,8.478012847900390625e+01,1.339580535888671875e+02,-9.599732398986816406e+00,-3.168485260009765625e+01,-1.837153167724609375e+02,3.651750183105468750e+01,2.537299156188964844e+01,3.205725097656250000e+01
1.116000056266784668e+00,2.000000000000000000e+00,-3.262195968627929688e+01,3.210696220397949219e+00,3.938927841186523438e+01,9.612558746337890625e+01,8.477845764160156250e+01,1.339497528076171875e+02,-9.649311065673828125e+00,-3.167927169799804688e+01,-1.837105407714843750e+02,3.651905441284179688e+01,2.538980293273925781e+01,3.205221939086914062e+01
