rpiRobotics/ARM-21-02-F-19-Robot-Motion-Program/data_performance_abb/curve_1/dual_arm/diffevo_pose3/grad_result/real_from_sim/sim_result/dual_iteration_2.csv
timestamp,cmd_num,J1,J2,J3,J4,J5,J6,J1_2,J2_2,J3_2,J4_2,J5_2,J6_2
0.000000000000000000e+00,-1.000000000000000000e+00,-1.954332733154296875e+01,-5.253690719604492188e+00,5.059105682373046875e+01,9.495616912841796875e+01,8.587746429443359375e+01,1.348501892089843750e+02,2.680714368820190430e+00,-3.298408508300781250e+01,-1.849897918701171875e+02,3.573461151123046875e+01,2.102507400512695312e+01,3.361467742919921875e+01
2.000000094994902611e-03,-1.000000000000000000e+00,-1.954332733154296875e+01,-5.253690719604492188e+00,5.059105682373046875e+01,9.495616912841796875e+01,8.587746429443359375e+01,1.348501892089843750e+02,2.680714368820190430e+00,-3.298408508300781250e+01,-1.849897918701171875e+02,3.573461151123046875e+01,2.102507400512695312e+01,3.361467742919921875e+01
6.000000052154064178e-03,-1.000000000000000000e+00,-1.954332733154296875e+01,-5.253690719604492188e+00,5.059105682373046875e+01,9.495616912841796875e+01,8.587746429443359375e+01,1.348501892089843750e+02,2.680714368820190430e+00,-3.298408508300781250e+01,-1.849897918701171875e+02,3.573461151123046875e+01,2.102507400512695312e+01,3.361467742919921875e+01
8.000000379979610443e-03,-1.000000000000000000e+00,-1.954332733154296875e+01,-5.253690719604492188e+00,5.059105682373046875e+01,9.495616912841796875e+01,8.587746429443359375e+01,1.348501892089843750e+02,2.680714368820190430e+00,-3.298408508300781250e+01,-1.849897918701171875e+02,3.573461151123046875e+01,2.102507400512695312e+01,3.361467742919921875e+01
1.099999994039535522e-02,-1.000000000000000000e+00,-1.954332733154296875e+01,-5.253690719604492188e+00,5.059105682373046875e+01,9.495616912841796875e+01,8.587746429443359375e+01,1.348501892089843750e+02,2.680714368820190430e+00,-3.298408508300781250e+01,-1.849897918701171875e+02,3.573461151123046875e+01,2.102507400512695312e+01,3.361467742919921875e+01
1.600000075995922089e-02,-1.000000000000000000e+00,-1.954332733154296875e+01,-5.253690719604492188e+00,5.059105682373046875e+01,9.495616912841796875e+01,8.587746429443359375e+01,1.348501892089843750e+02,2.680714368820190430e+00,-3.298408508300781250e+01,-1.849897918701171875e+02,3.573461151123046875e+01,2.102507400512695312e+01,3.361467742919921875e+01
1.999999955296516418e-02,-1.000000000000000000e+00,-1.954332733154296875e+01,-5.253690719604492188e+00,5.059105682373046875e+01,9.495616912841796875e+01,8.587746429443359375e+01,1.348501892089843750e+02,2.680714368820190430e+00,-3.298408508300781250e+01,-1.849897918701171875e+02,3.573461151123046875e+01,2.102507400512695312e+01,3.361467742919921875e+01
2.400000020861625671e-02,-1.000000000000000000e+00,-1.954332733154296875e+01,-5.253690719604492188e+00,5.059105682373046875e+01,9.495616912841796875e+01,8.587746429443359375e+01,1.348501892089843750e+02,2.680714368820190430e+00,-3.298408508300781250e+01,-1.849897918701171875e+02,3.573461151123046875e+01,2.102507400512695312e+01,3.361467742919921875e+01
2.800000086426734924e-02,-1.000000000000000000e+00,-1.954332733154296875e+01,-5.253690719604492188e+00,5.059105682373046875e+01,9.495616912841796875e+01,8.587746429443359375e+01,1.348501892089843750e+02,2.680714368820190430e+00,-3.298408508300781250e+01,-1.849897918701171875e+02,3.573461151123046875e+01,2.102507400512695312e+01,3.361467742919921875e+01
3.200000151991844177e-02,2.000000000000000000e+00,-1.954332733154296875e+01,-5.253690719604492188e+00,5.059105682373046875e+01,9.495616912841796875e+01,8.587746429443359375e+01,1.348501892089843750e+02,2.680714368820190430e+00,-3.298408508300781250e+01,-1.849897918701171875e+02,3.573461151123046875e+01,2.102507400512695312e+01,3.361467742919921875e+01
3.599999845027923584e-02,2.000000000000000000e+00,-1.954332733154296875e+01,-5.253690719604492188e+00,5.059105682373046875e+01,9.495616912841796875e+01,8.587746429443359375e+01,1.348501892089843750e+02,2.680714368820190430e+00,-3.298408508300781250e+01,-1.849897918701171875e+02,3.573461151123046875e+01,2.102507400512695312e+01,3.361467742919921875e+01
4.199999943375587463e-02,2.000000000000000000e+00,-1.954332733154296875e+01,-5.253690719604492188e+00,5.059105682373046875e+01,9.495616912841796875e+01,8.587746429443359375e+01,1.348501892089843750e+02,2.680714368820190430e+00,-3.298408508300781250e+01,-1.849897918701171875e+02,3.573461151123046875e+01,2.102507400512695312e+01,3.361467742919921875e+01
4.399999976158142090e-02,2.000000000000000000e+00,-1.954332733154296875e+01,-5.253690719604492188e+00,5.059105682373046875e+01,9.495616912841796875e+01,8.587746429443359375e+01,1.348501892089843750e+02,2.680714368820190430e+00,-3.298408508300781250e+01,-1.849897918701171875e+02,3.573461151123046875e+01,2.102507400512695312e+01,3.361467742919921875e+01
4.800000041723251343e-02,2.000000000000000000e+00,-1.954332733154296875e+01,-5.253690719604492188e+00,5.059105682373046875e+01,9.495616912841796875e+01,8.587746429443359375e+01,1.348501892089843750e+02,2.680714368820190430e+00,-3.298408508300781250e+01,-1.849897918701171875e+02,3.573461151123046875e+01,2.102507400512695312e+01,3.361467742919921875e+01
5.200000107288360596e-02,2.000000000000000000e+00,-1.954332733154296875e+01,-5.253690719604492188e+00,5.059105682373046875e+01,9.495616912841796875e+01,8.587746429443359375e+01,1.348501892089843750e+02,2.680714368820190430e+00,-3.298408508300781250e+01,-1.849897918701171875e+02,3.573461151123046875e+01,2.102507400512695312e+01,3.361467742919921875e+01
5.600000172853469849e-02,2.000000000000000000e+00,-1.954332733154296875e+01,-5.253690719604492188e+00,5.059105682373046875e+01,9.495616912841796875e+01,8.587746429443359375e+01,1.348501892089843750e+02,2.680714368820190430e+00,-3.298408508300781250e+01,-1.849897918701171875e+02,3.573461151123046875e+01,2.102507400512695312e+01,3.361467742919921875e+01
5.999999865889549255e-02,2.000000000000000000e+00,-1.954332733154296875e+01,-5.253690719604492188e+00,5.059105682373046875e+01,9.495616912841796875e+01,8.587746429443359375e+01,1.348501892089843750e+02,2.680714368820190430e+00,-3.298408508300781250e+01,-1.849897918701171875e+02,3.573461151123046875e+01,2.102507400512695312e+01,3.361467742919921875e+01
6.400000303983688354e-02,2.000000000000000000e+00,-1.954332733154296875e+01,-5.253690719604492188e+00,5.059105682373046875e+01,9.495616912841796875e+01,8.587746429443359375e+01,1.348501892089843750e+02,2.680714368820190430e+00,-3.298408508300781250e+01,-1.849897918701171875e+02,3.573461151123046875e+01,2.102507400512695312e+01,3.361467742919921875e+01
6.800000369548797607e-02,2.000000000000000000e+00,-1.954332733154296875e+01,-5.253690719604492188e+00,5.059105682373046875e+01,9.495616912841796875e+01,8.587746429443359375e+01,1.348501892089843750e+02,2.680714368820190430e+00,-3.298408508300781250e+01,-1.849897918701171875e+02,3.573461151123046875e+01,2.102507400512695312e+01,3.361467742919921875e+01
7.199999690055847168e-02,2.000000000000000000e+00,-1.954332733154296875e+01,-5.253690719604492188e+00,5.059105682373046875e+01,9.495616912841796875e+01,8.587746429443359375e+01,1.348501892089843750e+02,2.680714368820190430e+00,-3.298408508300781250e+01,-1.849897918701171875e+02,3.573461151123046875e+01,2.102507400512695312e+01,3.361467742919921875e+01
7.599999755620956421e-02,2.000000000000000000e+00,-1.954339599609375000e+01,-5.253665924072265625e+00,5.059104156494140625e+01,9.495617675781250000e+01,8.587746429443359375e+01,1.348501892089843750e+02,2.680714368820190430e+00,-3.298408508300781250e+01,-1.849897918701171875e+02,3.573461151123046875e+01,2.102507400512695312e+01,3.361467742919921875e+01
7.999999821186065674e-02,2.000000000000000000e+00,-1.954377365112304688e+01,-5.253515243530273438e+00,5.059095382690429688e+01,9.495617675781250000e+01,8.587745666503906250e+01,1.348501892089843750e+02,2.680714368820190430e+00,-3.298408508300781250e+01,-1.849897918701171875e+02,3.573461151123046875e+01,2.102507400512695312e+01,3.361467742919921875e+01
8.399999886751174927e-02,2.000000000000000000e+00,-1.954485130310058594e+01,-5.253046035766601562e+00,5.059067535400390625e+01,9.495617675781250000e+01,8.587744140625000000e+01,1.348501739501953125e+02,2.680714368820190430e+00,-3.298408508300781250e+01,-1.849897918701171875e+02,3.573461151123046875e+01,2.102507400512695312e+01,3.361467742919921875e+01
8.799999952316284180e-02,2.000000000000000000e+00,-1.954699134826660156e+01,-5.252035140991210938e+00,5.059004592895507812e+01,9.495620727539062500e+01,8.587738037109375000e+01,1.348501586914062500e+02,2.680687427520751953e+00,-3.298408508300781250e+01,-1.849897918701171875e+02,3.573461151123046875e+01,2.102507781982421875e+01,3.361467742919921875e+01
9.200000017881393433e-02,2.000000000000000000e+00,-1.955041503906250000e+01,-5.250290870666503906e+00,5.058890533447265625e+01,9.495626068115234375e+01,8.587729644775390625e+01,1.348501129150390625e+02,2.680512189865112305e+00,-3.298407363891601562e+01,-1.849897613525390625e+02,3.573461532592773438e+01,2.102509307861328125e+01,3.361467361450195312e+01
9.600000083446502686e-02,2.000000000000000000e+00,-1.955528259277343750e+01,-5.247650623321533203e+00,5.058707046508789062e+01,9.495637512207031250e+01,8.587715148925781250e+01,1.348500366210937500e+02,2.679933786392211914e+00,-3.298404312133789062e+01,-1.849896850585937500e+02,3.573462295532226562e+01,2.102515220642089844e+01,3.361466598510742188e+01
1.000000014901161194e-01,2.000000000000000000e+00,-1.956173896789550781e+01,-5.243962287902832031e+00,5.058432006835937500e+01,9.495656585693359375e+01,8.587693786621093750e+01,1.348498535156250000e+02,2.678606510162353516e+00,-3.298396301269531250e+01,-1.849894866943359375e+02,3.573465347290039062e+01,2.102531433105468750e+01,3.361463546752929688e+01
1.040000021457672119e-01,2.000000000000000000e+00,-1.956981277465820312e+01,-5.239128112792968750e+00,5.058043670654296875e+01,9.495687866210937500e+01,8.587664794921875000e+01,1.348495788574218750e+02,2.676151514053344727e+00,-3.298380279541015625e+01,-1.849891357421875000e+02,3.573471450805664062e+01,2.102566528320312500e+01,3.361456298828125000e+01
1.080000028014183044e-01,2.000000000000000000e+00,-1.957942962646484375e+01,-5.233120441436767578e+00,5.057521438598632812e+01,9.495735168457031250e+01,8.587626647949218750e+01,1.348491210937500000e+02,2.672151088714599609e+00,-3.298352050781250000e+01,-1.849885864257812500e+02,3.573482513427734375e+01,2.102634048461914062e+01,3.361439132690429688e+01
1.120000034570693970e-01,2.000000000000000000e+00,-1.959061050415039062e+01,-5.225903511047363281e+00,5.056842803955078125e+01,9.495803070068359375e+01,8.587577056884765625e+01,1.348484344482421875e+02,2.666141986846923828e+00,-3.298305511474609375e+01,-1.849877929687500000e+02,3.573501586914062500e+01,2.102751541137695312e+01,3.361406707763671875e+01
1.159999966621398926e-01,2.000000000000000000e+00,-1.960361289978027344e+01,-5.217341899871826172e+00,5.055978775024414062e+01,9.495896148681640625e+01,8.587515258789062500e+01,1.348475036621093750e+02,2.657738924026489258e+00,-3.298235702514648438e+01,-1.849867248535156250e+02,3.573531723022460938e+01,2.102939796447753906e+01,3.361351013183593750e+01
1.199999973177909851e-01,2.000000000000000000e+00,-1.961886405944824219e+01,-5.207211494445800781e+00,5.054898834228515625e+01,9.496018218994140625e+01,8.587438201904296875e+01,1.348462524414062500e+02,2.646719217300415039e+00,-3.298136138916015625e+01,-1.849853820800781250e+02,3.573575973510742188e+01,2.103220558166503906e+01,3.361263656616210938e+01
1.239999979734420776e-01,2.000000000000000000e+00,-1.963672065734863281e+01,-5.195311546325683594e+00,5.053572845458984375e+01,9.496174621582031250e+01,8.587345886230468750e+01,1.348446350097656250e+02,2.632924795150756836e+00,-3.298003005981445312e+01,-1.849838256835937500e+02,3.573637008666992188e+01,2.103614234924316406e+01,3.361136245727539062e+01
1.280000060796737671e-01,2.000000000000000000e+00,-1.965734481811523438e+01,-5.181564807891845703e+00,5.051980209350585938e+01,9.496367645263671875e+01,8.587235260009765625e+01,1.348426361083984375e+02,2.616120815277099609e+00,-3.297831344604492188e+01,-1.849819946289062500e+02,3.573717880249023438e+01,2.104139328002929688e+01,3.360961532592773438e+01
1.309999972581863403e-01,2.000000000000000000e+00,-1.968069839477539062e+01,-5.166014194488525391e+00,5.050111007690429688e+01,9.496601104736328125e+01,8.587104797363281250e+01,1.348402099609375000e+02,2.596021413803100586e+00,-3.297617340087890625e+01,-1.849798889160156250e+02,3.573820495605468750e+01,2.104808807373046875e+01,3.360735702514648438e+01
1.360000073909759521e-01,2.000000000000000000e+00,-1.970668411254882812e+01,-5.148737430572509766e+00,5.047960281372070312e+01,9.496875762939453125e+01,8.586957550048828125e+01,1.348373260498046875e+02,2.572430610656738281e+00,-3.297359085083007812e+01,-1.849774780273437500e+02,3.573945236206054688e+01,2.105629730224609375e+01,3.360455322265625000e+01
1.389999985694885254e-01,2.000000000000000000e+00,-1.973522758483886719e+01,-5.129788398742675781e+00,5.045526504516601562e+01,9.497193908691406250e+01,8.586791229248046875e+01,1.348339691162109375e+02,2.545265674591064453e+00,-3.297056961059570312e+01,-1.849747772216796875e+02,3.574093246459960938e+01,2.106602096557617188e+01,3.360120773315429688e+01
1.439999938011169434e-01,2.000000000000000000e+00,-1.976624488830566406e+01,-5.109217643737792969e+00,5.042814636230468750e+01,9.497554016113281250e+01,8.586606597900390625e+01,1.348301696777343750e+02,2.514496564865112305e+00,-3.296710968017578125e+01,-1.849717559814453125e+02,3.574263381958007812e+01,2.107721138000488281e+01,3.359734725952148438e+01
1.480000019073486328e-01,2.000000000000000000e+00,-1.979964256286621094e+01,-5.087074279785156250e+00,5.039835739135742188e+01,9.497954559326171875e+01,8.586404418945312500e+01,1.348259277343750000e+02,2.480180263519287109e+00,-3.296324539184570312e+01,-1.849683990478515625e+02,3.574453353881835938e+01,2.108976936340332031e+01,3.359300994873046875e+01
1.519999951124191284e-01,2.000000000000000000e+00,-1.983543395996093750e+01,-5.063327312469482422e+00,5.036601257324218750e+01,9.498392486572265625e+01,8.586185455322265625e+01,1.348212890625000000e+02,2.442542314529418945e+00,-3.295899963378906250e+01,-1.849647216796875000e+02,3.574662780761718750e+01,2.110356330871582031e+01,3.358824157714843750e+01
1.560000032186508179e-01,2.000000000000000000e+00,-1.987375450134277344e+01,-5.037865638732910156e+00,5.033123016357421875e+01,9.498864746093750000e+01,8.585950469970703125e+01,1.348162841796875000e+02,2.401982545852661133e+00,-3.295442962646484375e+01,-1.849607391357421875e+02,3.574888229370117188e+01,2.111842918395996094e+01,3.358310317993164062e+01
1.599999964237213135e-01,2.000000000000000000e+00,-1.991466140747070312e+01,-5.010625839233398438e+00,5.029417037963867188e+01,9.499365997314453125e+01,8.585699462890625000e+01,1.348109741210937500e+02,2.358947038650512695e+00,-3.294958496093750000e+01,-1.849565429687500000e+02,3.575127410888671875e+01,2.113419151306152344e+01,3.357765960693359375e+01
1.640000045299530029e-01,2.000000000000000000e+00,-1.995799255371093750e+01,-4.981701374053955078e+00,5.025509643554687500e+01,9.499892425537109375e+01,8.585435485839843750e+01,1.348053894042968750e+02,2.313807487487792969e+00,-3.294451522827148438e+01,-1.849521026611328125e+02,3.575377273559570312e+01,2.115067863464355469e+01,3.357196426391601562e+01
1.679999977350234985e-01,2.000000000000000000e+00,-2.000337409973144531e+01,-4.951309680938720703e+00,5.021431732177734375e+01,9.500439453125000000e+01,8.585158538818359375e+01,1.347996063232421875e+02,2.266869544982910156e+00,-3.293926620483398438e+01,-1.849474639892578125e+02,3.575635910034179688e+01,2.116771888732910156e+01,3.356608963012695312e+01
1.720000058412551880e-01,2.000000000000000000e+00,-2.005042266845703125e+01,-4.919675350189208984e+00,5.017214202880859375e+01,9.501003265380859375e+01,8.584871673583984375e+01,1.347936553955078125e+02,2.218439817428588867e+00,-3.293388366699218750e+01,-1.849426574707031250e+02,3.575901031494140625e+01,2.118516349792480469e+01,3.356008529663085938e+01
1.759999990463256836e-01,2.000000000000000000e+00,-2.009887886047363281e+01,-4.886975765228271484e+00,5.012883758544921875e+01,9.501580047607421875e+01,8.584577941894531250e+01,1.347875518798828125e+02,2.168845415115356445e+00,-3.292840194702148438e+01,-1.849377136230468750e+02,3.576169967651367188e+01,2.120287704467773438e+01,3.355400085449218750e+01
1.800000071525573730e-01,2.000000000000000000e+00,-2.014859580993652344e+01,-4.853360176086425781e+00,5.008462905883789062e+01,9.502166748046875000e+01,8.584276580810546875e+01,1.347813720703125000e+02,2.118381977081298828e+00,-3.292285537719726562e+01,-1.849326477050781250e+02,3.576441955566406250e+01,2.122075843811035156e+01,3.354787063598632812e+01
1.840000003576278687e-01,2.000000000000000000e+00,-2.019946289062500000e+01,-4.818971633911132812e+00,5.003972625732421875e+01,9.502759552001953125e+01,8.583970642089843750e+01,1.347751312255859375e+02,2.067289590835571289e+00,-3.291726303100585938e+01,-1.849274902343750000e+02,3.576715087890625000e+01,2.123873710632324219e+01,3.354172134399414062e+01
1.879999935626983643e-01,2.000000000000000000e+00,-2.025134468078613281e+01,-4.783948421478271484e+00,4.999429321289062500e+01,9.503356933593750000e+01,8.583660888671875000e+01,1.347688293457031250e+02,2.015789747238159180e+00,-3.291164779663085938e+01,-1.849222564697265625e+02,3.576989364624023438e+01,2.125675964355468750e+01,3.353556060791015625e+01
1.920000016689300537e-01,2.000000000000000000e+00,-2.030413055419921875e+01,-4.748403549194335938e+00,4.994847869873046875e+01,9.503956604003906250e+01,8.583348083496093750e+01,1.347624969482421875e+02,1.964084744453430176e+00,-3.290601730346679688e+01,-1.849170074462890625e+02,3.577264022827148438e+01,2.127479743957519531e+01,3.352939987182617188e+01
1.959999948740005493e-01,2.000000000000000000e+00,-2.035772323608398438e+01,-4.712441921234130859e+00,4.990238189697265625e+01,9.504557800292968750e+01,8.583032989501953125e+01,1.347561798095703125e+02,1.912318110466003418e+00,-3.290038299560546875e+01,-1.849117279052734375e+02,3.577538681030273438e+01,2.129283905029296875e+01,3.352323532104492188e+01
2.000000029802322388e-01,2.000000000000000000e+00,-2.041193771362304688e+01,-4.676195144653320312e+00,4.985611724853515625e+01,9.505159759521484375e+01,8.582717132568359375e+01,1.347498474121093750e+02,1.860551834106445312e+00,-3.289475250244140625e+01,-1.849064788818359375e+02,3.577813339233398438e+01,2.131087684631347656e+01,3.351707839965820312e+01
2.039999961853027344e-01,2.000000000000000000e+00,-2.046650695800781250e+01,-4.639802932739257812e+00,4.980976486206054688e+01,9.505762481689453125e+01,8.582398986816406250e+01,1.347435150146484375e+02,1.808797001838684082e+00,-3.288911819458007812e+01,-1.849011993408203125e+02,3.578087997436523438e+01,2.132891082763671875e+01,3.351092147827148438e+01
2.080000042915344238e-01,2.000000000000000000e+00,-2.052119255065917969e+01,-4.603368759155273438e+00,4.976340103149414062e+01,9.506364440917968750e+01,8.582081604003906250e+01,1.347371826171875000e+02,1.757053971290588379e+00,-3.288349151611328125e+01,-1.848959350585937500e+02,3.578362274169921875e+01,2.134694099426269531e+01,3.350476074218750000e+01
2.119999974966049194e-01,2.000000000000000000e+00,-2.057588577270507812e+01,-4.566935539245605469e+00,4.971704101562500000e+01,9.506966400146484375e+01,8.581764984130859375e+01,1.347308654785156250e+02,1.705322980880737305e+00,-3.287786483764648438e+01,-1.848906707763671875e+02,3.578636932373046875e+01,2.136496543884277344e+01,3.349860382080078125e+01
2.160000056028366089e-01,2.000000000000000000e+00,-2.063056755065917969e+01,-4.530510425567626953e+00,4.967068862915039062e+01,9.507568359375000000e+01,8.581446838378906250e+01,1.347245330810546875e+02,1.653603911399841309e+00,-3.287223434448242188e+01,-1.848854064941406250e+02,3.578911590576171875e+01,2.138298416137695312e+01,3.349245071411132812e+01
2.199999988079071045e-01,2.000000000000000000e+00,-2.068523597717285156e+01,-4.494093894958496094e+00,4.962435150146484375e+01,9.508169555664062500e+01,8.581130218505859375e+01,1.347182006835937500e+02,1.601896762847900391e+00,-3.286661148071289062e+01,-1.848801574707031250e+02,3.579185867309570312e+01,2.140100288391113281e+01,3.348630142211914062e+01
2.240000069141387939e-01,2.000000000000000000e+00,-2.073989105224609375e+01,-4.457685470581054688e+00,4.957802200317382812e+01,9.508771514892578125e+01,8.580812835693359375e+01,1.347118835449218750e+02,1.550201654434204102e+00,-3.286098480224609375e+01,-1.848748931884765625e+02,3.579460144042968750e+01,2.141901588439941406e+01,3.348014831542968750e+01
2.280000001192092896e-01,2.000000000000000000e+00,-2.079453659057617188e+01,-4.421285629272460938e+00,4.953170394897460938e+01,9.509373474121093750e+01,8.580495452880859375e+01,1.347055664062500000e+02,1.498518466949462891e+00,-3.285536193847656250e+01,-1.848696289062500000e+02,3.579734420776367188e+01,2.143702316284179688e+01,3.347399902343750000e+01
2.319999933242797852e-01,2.000000000000000000e+00,-2.084916877746582031e+01,-4.384894371032714844e+00,4.948539733886718750e+01,9.509974670410156250e+01,8.580178833007812500e+01,1.346992340087890625e+02,1.446847319602966309e+00,-3.284973907470703125e+01,-1.848643798828125000e+02,3.580008697509765625e+01,2.145502853393554688e+01,3.346785354614257812e+01
2.360000014305114746e-01,2.000000000000000000e+00,-2.090378761291503906e+01,-4.348511695861816406e+00,4.943909835815429688e+01,9.510575103759765625e+01,8.579861450195312500e+01,1.346929168701171875e+02,1.395188212394714355e+00,-3.284412384033203125e+01,-1.848591156005859375e+02,3.580282592773437500e+01,2.147302818298339844e+01,3.346170425415039062e+01
2.399999946355819702e-01,2.000000000000000000e+00,-2.095839309692382812e+01,-4.312137126922607422e+00,4.939281463623046875e+01,9.511176300048828125e+01,8.579544830322265625e+01,1.346865997314453125e+02,1.343541264533996582e+00,-3.283850097656250000e+01,-1.848538513183593750e+02,3.580556488037109375e+01,2.149102401733398438e+01,3.345555877685546875e+01
2.440000027418136597e-01,2.000000000000000000e+00,-2.101298713684082031e+01,-4.275771617889404297e+00,4.934653854370117188e+01,9.511777496337890625e+01,8.579228210449218750e+01,1.346802825927734375e+02,1.291906118392944336e+00,-3.283288192749023438e+01,-1.848486022949218750e+02,3.580830383300781250e+01,2.150901603698730469e+01,3.344941329956054688e+01
2.479999959468841553e-01,2.000000000000000000e+00,-2.106756591796875000e+01,-4.239413738250732422e+00,4.930027389526367188e+01,9.512378692626953125e+01,8.578911590576171875e+01,1.346739654541015625e+02,1.240283131599426270e+00,-3.282727050781250000e+01,-1.848433532714843750e+02,3.581104278564453125e+01,2.152700233459472656e+01,3.344327163696289062e+01
2.520000040531158447e-01,2.000000000000000000e+00,-2.112213706970214844e+01,-4.203064441680908203e+00,4.925402069091796875e+01,9.512979125976562500e+01,8.578594970703125000e+01,1.346676635742187500e+02,1.188672065734863281e+00,-3.282165145874023438e+01,-1.848381042480468750e+02,3.581378173828125000e+01,2.154498672485351562e+01,3.343712997436523438e+01
2.560000121593475342e-01,2.000000000000000000e+00,-2.117669105529785156e+01,-4.166723728179931641e+00,4.920778274536132812e+01,9.513579559326171875e+01,8.578278350830078125e+01,1.346613464355468750e+02,1.137072920799255371e+00,-3.281604003906250000e+01,-1.848328399658203125e+02,3.581652069091796875e+01,2.156296539306640625e+01,3.343098831176757812e+01
2.599999904632568359e-01,2.000000000000000000e+00,-2.123123550415039062e+01,-4.130391120910644531e+00,4.916154861450195312e+01,9.514179992675781250e+01,8.577961730957031250e+01,1.346550292968750000e+02,1.085485816001892090e+00,-3.281042480468750000e+01,-1.848275909423828125e+02,3.581925582885742188e+01,2.158094024658203125e+01,3.342485427856445312e+01
2.639999985694885254e-01,2.000000000000000000e+00,-2.128576660156250000e+01,-4.094067096710205078e+00,4.911532592773437500e+01,9.514780426025390625e+01,8.577645111083984375e+01,1.346487274169921875e+02,1.033910512924194336e+00,-3.280481338500976562e+01,-1.848223571777343750e+02,3.582199478149414062e+01,2.159891128540039062e+01,3.341871643066406250e+01
2.680000066757202148e-01,2.000000000000000000e+00,-2.134028434753417969e+01,-4.057751178741455078e+00,4.906911849975585938e+01,9.515380859375000000e+01,8.577329254150390625e+01,1.346424102783203125e+02,9.823471903800964355e-01,-3.279920578002929688e+01,-1.848171081542968750e+02,3.582473373413085938e+01,2.161687850952148438e+01,3.341258239746093750e+01
2.720000147819519043e-01,2.000000000000000000e+00,-2.139478874206542969e+01,-4.021444320678710938e+00,4.902291488647460938e+01,9.515980529785156250e+01,8.577012634277343750e+01,1.346361083984375000e+02,9.307956695556640625e-01,-3.279359817504882812e+01,-1.848118591308593750e+02,3.582746887207031250e+01,2.163484191894531250e+01,3.340644454956054688e+01
2.759999930858612061e-01,2.000000000000000000e+00,-2.144928169250488281e+01,-3.985145092010498047e+00,4.897672653198242188e+01,9.516580200195312500e+01,8.576696777343750000e+01,1.346298065185546875e+02,8.792560100555419922e-01,-3.278799057006835938e+01,-1.848066101074218750e+02,3.583020401000976562e+01,2.165279960632324219e+01,3.340031433105468750e+01
2.800000011920928955e-01,2.000000000000000000e+00,-2.150376319885253906e+01,-3.948854684829711914e+00,4.893054580688476562e+01,9.517179870605468750e+01,8.576380157470703125e+01,1.346234893798828125e+02,8.277281522750854492e-01,-3.278238296508789062e+01,-1.848013763427734375e+02,3.583293533325195312e+01,2.167075347900390625e+01,3.339418029785156250e+01
2.840000092983245850e-01,2.000000000000000000e+00,-2.155823135375976562e+01,-3.912572383880615234e+00,4.888438034057617188e+01,9.517779541015625000e+01,8.576064300537109375e+01,1.346172027587890625e+02,7.762121558189392090e-01,-3.277677536010742188e+01,-1.847961273193359375e+02,3.583567047119140625e+01,2.168870353698730469e+01,3.338805007934570312e+01
2.879999876022338867e-01,2.000000000000000000e+00,-2.161268615722656250e+01,-3.876297950744628906e+00,4.883822250366210938e+01,9.518379211425781250e+01,8.575748443603515625e+01,1.346109008789062500e+02,7.247079014778137207e-01,-3.277117538452148438e+01,-1.847908935546875000e+02,3.583840179443359375e+01,2.170664978027343750e+01,3.338192367553710938e+01
2.919999957084655762e-01,2.000000000000000000e+00,-2.166712951660156250e+01,-3.840032339096069336e+00,4.879207611083984375e+01,9.518978118896484375e+01,8.575432586669921875e+01,1.346045989990234375e+02,6.732153892517089844e-01,-3.276557159423828125e+01,-1.847856445312500000e+02,3.584113311767578125e+01,2.172459220886230469e+01,3.337579727172851562e+01
2.960000038146972656e-01,2.000000000000000000e+00,-2.172155952453613281e+01,-3.803775072097778320e+00,4.874593734741210938e+01,9.519577026367187500e+01,8.575116729736328125e+01,1.345983123779296875e+02,6.217344999313354492e-01,-3.275997161865234375e+01,-1.847804107666015625e+02,3.584386825561523438e+01,2.174252891540527344e+01,3.336967086791992188e+01
3.000000119209289551e-01,2.000000000000000000e+00,-2.177597618103027344e+01,-3.767525911331176758e+00,4.869981384277343750e+01,9.520175933837890625e+01,8.574800872802734375e+01,1.345920104980468750e+02,5.702654123306274414e-01,-3.275437164306640625e+01,-1.847751770019531250e+02,3.584659576416015625e+01,2.176046371459960938e+01,3.336354827880859375e+01
3.039999902248382568e-01,2.000000000000000000e+00,-2.183038330078125000e+01,-3.731285095214843750e+00,4.865369415283203125e+01,9.520774841308593750e+01,8.574485015869140625e+01,1.345857086181640625e+02,5.188080668449401855e-01,-3.274877166748046875e+01,-1.847699432373046875e+02,3.584932708740234375e+01,2.177839279174804688e+01,3.335742568969726562e+01
3.079999983310699463e-01,2.000000000000000000e+00,-2.188477706909179688e+01,-3.695052623748779297e+00,4.860758972167968750e+01,9.521372985839843750e+01,8.574169158935546875e+01,1.345794067382812500e+02,4.673623740673065186e-01,-3.274317550659179688e+01,-1.847647094726562500e+02,3.585205459594726562e+01,2.179631805419921875e+01,3.335130691528320312e+01
3.120000064373016357e-01,2.000000000000000000e+00,-2.193915748596191406e+01,-3.658828258514404297e+00,4.856149673461914062e+01,9.521972656250000000e+01,8.573854064941406250e+01,1.345731353759765625e+02,4.159283638000488281e-01,-3.273758316040039062e+01,-1.847594757080078125e+02,3.585478591918945312e+01,2.181424140930175781e+01,3.334518051147460938e+01
3.160000145435333252e-01,2.000000000000000000e+00,-2.199352455139160156e+01,-3.622611999511718750e+00,4.851541519165039062e+01,9.522570800781250000e+01,8.573538208007812500e+01,1.345668334960937500e+02,3.645060658454895020e-01,-3.273198318481445312e+01,-1.847542419433593750e+02,3.585751342773437500e+01,2.183215904235839844e+01,3.333906555175781250e+01
3.199999928474426270e-01,2.000000000000000000e+00,-2.204788208007812500e+01,-3.586403846740722656e+00,4.846933746337890625e+01,9.523168945312500000e+01,8.573223114013671875e+01,1.345605468750000000e+02,3.130954504013061523e-01,-3.272639465332031250e+01,-1.847490081787109375e+02,3.586024093627929688e+01,2.185007286071777344e+01,3.333295059204101562e+01
3.240000009536743164e-01,2.000000000000000000e+00,-2.210222434997558594e+01,-3.550204277038574219e+00,4.842327499389648438e+01,9.523767089843750000e+01,8.572908020019531250e+01,1.345542449951171875e+02,2.616965472698211670e-01,-3.272079849243164062e+01,-1.847437744140625000e+02,3.586297225952148438e+01,2.186798095703125000e+01,3.332683181762695312e+01
3.280000090599060059e-01,2.000000000000000000e+00,-2.215655708312988281e+01,-3.514012813568115234e+00,4.837722396850585938e+01,9.524365234375000000e+01,8.572592163085937500e+01,1.345479736328125000e+02,2.103093117475509644e-01,-3.271520996093750000e+01,-1.847385406494140625e+02,3.586569595336914062e+01,2.188588714599609375e+01,3.332071685791015625e+01
3.319999873638153076e-01,2.000000000000000000e+00,-2.221087646484375000e+01,-3.477829456329345703e+00,4.833118057250976562e+01,9.524963378906250000e+01,8.572277832031250000e+01,1.345416870117187500e+02,1.589337736368179321e-01,-3.270961761474609375e+01,-1.847333221435546875e+02,3.586841964721679688e+01,2.190378761291503906e+01,3.331460189819335938e+01
3.359999954700469971e-01,2.000000000000000000e+00,-2.226518249511718750e+01,-3.441654443740844727e+00,4.828514862060546875e+01,9.525560760498046875e+01,8.571961975097656250e+01,1.345354003906250000e+02,1.075698956847190857e-01,-3.270403289794921875e+01,-1.847281036376953125e+02,3.587114715576171875e+01,2.192168617248535156e+01,3.330849456787109375e+01
3.400000035762786865e-01,2.000000000000000000e+00,-2.231947517395019531e+01,-3.405487775802612305e+00,4.823913192749023438e+01,9.526158142089843750e+01,8.571646881103515625e+01,1.345291137695312500e+02,5.621770769357681274e-02,-3.269844436645507812e+01,-1.847228698730468750e+02,3.587387084960937500e+01,2.193957901000976562e+01,3.330238342285156250e+01
3.440000116825103760e-01,2.000000000000000000e+00,-2.237375831604003906e+01,-3.369329214096069336e+00,4.819311904907226562e+01,9.526756286621093750e+01,8.571332550048828125e+01,1.345228271484375000e+02,4.877182655036449432e-03,-3.269285964965820312e+01,-1.847176513671875000e+02,3.587659835815429688e+01,2.195746612548828125e+01,3.329627609252929688e+01
3.479999899864196777e-01,2.000000000000000000e+00,-2.242802810668945312e+01,-3.333178997039794922e+00,4.814711761474609375e+01,9.527352905273437500e+01,8.571017456054687500e+01,1.345165557861328125e+02,-4.645166918635368347e-02,-3.268727493286132812e+01,-1.847124176025390625e+02,3.587931823730468750e+01,2.197535133361816406e+01,3.329016494750976562e+01
3.519999980926513672e-01,2.000000000000000000e+00,-2.248228454589843750e+01,-3.297036647796630859e+00,4.810112762451171875e+01,9.527950286865234375e+01,8.570702362060546875e+01,1.345102844238281250e+02,-9.776886552572250366e-02,-3.268169021606445312e+01,-1.847071990966796875e+02,3.588204574584960938e+01,2.199323272705078125e+01,3.328405761718750000e+01
3.560000061988830566e-01,2.000000000000000000e+00,-2.253652954101562500e+01,-3.260902881622314453e+00,4.805514907836914062e+01,9.528547668457031250e+01,8.570387268066406250e+01,1.345040130615234375e+02,-1.490743905305862427e-01,-3.267610931396484375e+01,-1.847019805908203125e+02,3.588476562500000000e+01,2.201111030578613281e+01,3.327795410156250000e+01
3.600000143051147461e-01,2.000000000000000000e+00,-2.259076309204101562e+01,-3.224777221679687500e+00,4.800917816162109375e+01,9.529145050048828125e+01,8.570072937011718750e+01,1.344977264404296875e+02,-2.003682553768157959e-01,-3.267052841186523438e+01,-1.846967620849609375e+02,3.588748931884765625e+01,2.202898216247558594e+01,3.327185440063476562e+01
3.639999926090240479e-01,2.000000000000000000e+00,-2.264498329162597656e+01,-3.188659667968750000e+00,4.796322250366210938e+01,9.529740905761718750e+01,8.569758605957031250e+01,1.344914550781250000e+02,-2.516504824161529541e-01,-3.266495132446289062e+01,-1.846915435791015625e+02,3.589020538330078125e+01,2.204685211181640625e+01,3.326575088500976562e+01
3.680000007152557373e-01,2.000000000000000000e+00,-2.269919204711914062e+01,-3.152550220489501953e+00,4.791727066040039062e+01,9.530338287353515625e+01,8.569443511962890625e+01,1.344851837158203125e+02,-3.029210567474365234e-01,-3.265937423706054688e+01,-1.846863250732421875e+02,3.589292907714843750e+01,2.206471633911132812e+01,3.325964736938476562e+01
3.720000088214874268e-01,2.000000000000000000e+00,-2.275338745117187500e+01,-3.116449356079101562e+00,4.787133407592773438e+01,9.530934143066406250e+01,8.569129180908203125e+01,1.344789123535156250e+02,-3.541799783706665039e-01,-3.265379714965820312e+01,-1.846811065673828125e+02,3.589564514160156250e+01,2.208257675170898438e+01,3.325354766845703125e+01
3.759999871253967285e-01,2.000000000000000000e+00,-2.280756950378417969e+01,-3.080356121063232422e+00,4.782540893554687500e+01,9.531531524658203125e+01,8.568815612792968750e+01,1.344726409912109375e+02,-4.054272174835205078e-01,-3.264822006225585938e+01,-1.846758880615234375e+02,3.589836883544921875e+01,2.210043334960937500e+01,3.324745178222656250e+01
3.799999952316284180e-01,2.000000000000000000e+00,-2.286174201965332031e+01,-3.044271707534790039e+00,4.777948760986328125e+01,9.532127380371093750e+01,8.568500518798828125e+01,1.344663696289062500e+02,-4.566628634929656982e-01,-3.264264678955078125e+01,-1.846706848144531250e+02,3.590108489990234375e+01,2.211828613281250000e+01,3.324135589599609375e+01
3.840000033378601074e-01,2.000000000000000000e+00,-2.291589927673339844e+01,-3.008195161819458008e+00,4.773358535766601562e+01,9.532723236083984375e+01,8.568186187744140625e+01,1.344600982666015625e+02,-5.078868865966796875e-01,-3.263707351684570312e+01,-1.846654663085937500e+02,3.590380477905273438e+01,2.213613510131835938e+01,3.323526000976562500e+01
3.880000114440917969e-01,2.000000000000000000e+00,-2.297004508972167969e+01,-2.972126722335815430e+00,4.768768692016601562e+01,9.533319091796875000e+01,8.567871856689453125e+01,1.344538421630859375e+02,-5.590992569923400879e-01,-3.263150024414062500e+01,-1.846602630615234375e+02,3.590652084350585938e+01,2.215398025512695312e+01,3.322916793823242188e+01
3.919999897480010986e-01,2.000000000000000000e+00,-2.302417945861816406e+01,-2.936066865921020508e+00,4.764180374145507812e+01,9.533914947509765625e+01,8.567557525634765625e+01,1.344475708007812500e+02,-6.103000044822692871e-01,-3.262593078613281250e+01,-1.846550445556640625e+02,3.590923690795898438e+01,2.217181968688964844e+01,3.322307586669921875e+01
3.959999978542327881e-01,2.000000000000000000e+00,-2.307830238342285156e+01,-2.900014638900756836e+00,4.759592819213867188e+01,9.534510803222656250e+01,8.567244720458984375e+01,1.344413146972656250e+02,-6.614891290664672852e-01,-3.262036132812500000e+01,-1.846498413085937500e+02,3.591195297241210938e+01,2.218965530395507812e+01,3.321698379516601562e+01
4.000000059604644775e-01,2.000000000000000000e+00,-2.313241195678710938e+01,-2.863970994949340820e+00,4.755006408691406250e+01,9.535105895996093750e+01,8.566930389404296875e+01,1.344350433349609375e+02,-7.126665711402893066e-01,-3.261479187011718750e+01,-1.846446380615234375e+02,3.591466903686523438e+01,2.220748710632324219e+01,3.321089553833007812e+01
4.040000140666961670e-01,2.000000000000000000e+00,-2.318650817871093750e+01,-2.827935457229614258e+00,4.750420761108398438e+01,9.535701751708984375e+01,8.566616058349609375e+01,1.344287872314453125e+02,-7.638324499130249023e-01,-3.260922622680664062e+01,-1.846394195556640625e+02,3.591738510131835938e+01,2.222531700134277344e+01,3.320480346679687500e+01
4.079999923706054688e-01,2.000000000000000000e+00,-2.324059295654296875e+01,-2.791908025741577148e+00,4.745836257934570312e+01,9.536297607421875000e+01,8.566302490234375000e+01,1.344225311279296875e+02,-8.149867057800292969e-01,-3.260366058349609375e+01,-1.846342163085937500e+02,3.592009735107421875e+01,2.224314117431640625e+01,3.319871902465820312e+01
4.120000004768371582e-01,2.000000000000000000e+00,-2.329466629028320312e+01,-2.755888700485229492e+00,4.741252899169921875e+01,9.536891937255859375e+01,8.565988159179687500e+01,1.344162750244140625e+02,-8.661293387413024902e-01,-3.259809494018554688e+01,-1.846290130615234375e+02,3.592281341552734375e+01,2.226096153259277344e+01,3.319263458251953125e+01
4.160000085830688477e-01,2.000000000000000000e+00,-2.334872627258300781e+01,-2.719877719879150391e+00,4.736670684814453125e+01,9.537487792968750000e+01,8.565674591064453125e+01,1.344100189208984375e+02,-9.172603487968444824e-01,-3.259253311157226562e+01,-1.846238098144531250e+02,3.592552566528320312e+01,2.227877616882324219e+01,3.318655014038085938e+01
4.199999868869781494e-01,2.000000000000000000e+00,-2.340277671813964844e+01,-2.683874845504760742e+00,4.732089614868164062e+01,9.538082885742187500e+01,8.565361022949218750e+01,1.344037628173828125e+02,-9.683798551559448242e-01,-3.258697128295898438e+01,-1.846186065673828125e+02,3.592823791503906250e+01,2.229658889770507812e+01,3.318046951293945312e+01
4.239999949932098389e-01,2.000000000000000000e+00,-2.345681190490722656e+01,-2.647880077362060547e+00,4.727509307861328125e+01,9.538677215576171875e+01,8.565047454833984375e+01,1.343975219726562500e+02,-1.019487738609313965e+00,-3.258141326904296875e+01,-1.846134033203125000e+02,3.593094635009765625e+01,2.231439781188964844e+01,3.317438507080078125e+01
4.280000030994415283e-01,2.000000000000000000e+00,-2.351083564758300781e+01,-2.611893892288208008e+00,4.722930145263671875e+01,9.539271545410156250e+01,8.564733886718750000e+01,1.343912658691406250e+02,-1.070583939552307129e+00,-3.257585525512695312e+01,-1.846082153320312500e+02,3.593365859985351562e+01,2.233220100402832031e+01,3.316830825805664062e+01
4.320000112056732178e-01,2.000000000000000000e+00,-2.356484603881835938e+01,-2.575915336608886719e+00,4.718352127075195312e+01,9.539865875244140625e+01,8.564421081542968750e+01,1.343850250244140625e+02,-1.121668457984924316e+00,-3.257029342651367188e+01,-1.846030120849609375e+02,3.593637084960937500e+01,2.235000228881835938e+01,3.316222763061523438e+01
4.359999895095825195e-01,2.000000000000000000e+00,-2.361884498596191406e+01,-2.539945363998413086e+00,4.713774871826171875e+01,9.540460968017578125e+01,8.564107513427734375e+01,1.343787689208984375e+02,-1.172741532325744629e+00,-3.256473541259765625e+01,-1.845978240966796875e+02,3.593907928466796875e+01,2.236779785156250000e+01,3.315615081787109375e+01
4.399999976158142090e-01,2.000000000000000000e+00,-2.367283058166503906e+01,-2.503983020782470703e+00,4.709199142456054688e+01,9.541055297851562500e+01,8.563794708251953125e+01,1.343725280761718750e+02,-1.223803043365478516e+00,-3.255918502807617188e+01,-1.845926055908203125e+02,3.594179153442382812e+01,2.238558769226074219e+01,3.315007400512695312e+01
4.440000057220458984e-01,2.000000000000000000e+00,-2.372680664062500000e+01,-2.468029260635375977e+00,4.704623794555664062e+01,9.541648864746093750e+01,8.563481140136718750e+01,1.343662872314453125e+02,-1.274852871894836426e+00,-3.255362701416015625e+01,-1.845874176025390625e+02,3.594449996948242188e+01,2.240337562561035156e+01,3.314400100708007812e+01
4.480000138282775879e-01,2.000000000000000000e+00,-2.378076934814453125e+01,-2.432083606719970703e+00,4.700049972534179688e+01,9.542243194580078125e+01,8.563168334960937500e+01,1.343600463867187500e+02,-1.325891256332397461e+00,-3.254807662963867188e+01,-1.845822296142578125e+02,3.594720840454101562e+01,2.242115974426269531e+01,3.313792800903320312e+01
4.519999921321868896e-01,2.000000000000000000e+00,-2.383471870422363281e+01,-2.396145820617675781e+00,4.695476913452148438e+01,9.542836761474609375e+01,8.562854766845703125e+01,1.343537902832031250e+02,-1.376917958259582520e+00,-3.254252624511718750e+01,-1.845770416259765625e+02,3.594991683959960938e+01,2.243893814086914062e+01,3.313185501098632812e+01
4.560000002384185791e-01,2.000000000000000000e+00,-2.388865661621093750e+01,-2.360216617584228516e+00,4.690904998779296875e+01,9.543430328369140625e+01,8.562541961669921875e+01,1.343475494384765625e+02,-1.427933096885681152e+00,-3.253697204589843750e+01,-1.845718536376953125e+02,3.595262145996093750e+01,2.245671653747558594e+01,3.312578582763671875e+01
4.600000083446502686e-01,2.000000000000000000e+00,-2.394258308410644531e+01,-2.324295282363891602e+00,4.686333847045898438e+01,9.544023895263671875e+01,8.562229156494140625e+01,1.343413085937500000e+02,-1.478936672210693359e+00,-3.253142547607421875e+01,-1.845666503906250000e+02,3.595532989501953125e+01,2.247448730468750000e+01,3.311971664428710938e+01
4.639999866485595703e-01,2.000000000000000000e+00,-2.399649620056152344e+01,-2.288382053375244141e+00,4.681764221191406250e+01,9.544617462158203125e+01,8.561916351318359375e+01,1.343350830078125000e+02,-1.529928684234619141e+00,-3.252587509155273438e+01,-1.845614624023437500e+02,3.595803451538085938e+01,2.249225616455078125e+01,3.311364746093750000e+01
4.679999947547912598e-01,2.000000000000000000e+00,-2.405039787292480469e+01,-2.252477169036865234e+00,4.677195358276367188e+01,9.545211029052734375e+01,8.561603546142578125e+01,1.343288421630859375e+02,-1.580909252166748047e+00,-3.252033233642578125e+01,-1.845562744140625000e+02,3.596073913574218750e+01,2.251001930236816406e+01,3.310758209228515625e+01
4.720000028610229492e-01,2.000000000000000000e+00,-2.410428619384765625e+01,-2.216580390930175781e+00,4.672627639770507812e+01,9.545803833007812500e+01,8.561290740966796875e+01,1.343226165771484375e+02,-1.631878137588500977e+00,-3.251478576660156250e+01,-1.845511016845703125e+02,3.596344375610351562e+01,2.252777671813964844e+01,3.310151672363281250e+01
4.760000109672546387e-01,2.000000000000000000e+00,-2.415816497802734375e+01,-2.180691480636596680e+00,4.668060684204101562e+01,9.546397399902343750e+01,8.560978698730468750e+01,1.343163757324218750e+02,-1.682835340499877930e+00,-3.250924301147460938e+01,-1.845459136962890625e+02,3.596614837646484375e+01,2.254553413391113281e+01,3.309545516967773438e+01
4.799999892711639404e-01,2.000000000000000000e+00,-2.421202850341796875e+01,-2.144811153411865234e+00,4.663495254516601562e+01,9.546990203857421875e+01,8.560665130615234375e+01,1.343101348876953125e+02,-1.733781218528747559e+00,-3.250370025634765625e+01,-1.845407257080078125e+02,3.596884918212890625e+01,2.256328392028808594e+01,3.308939361572265625e+01
4.839999973773956299e-01,2.000000000000000000e+00,-2.426588058471679688e+01,-2.108938455581665039e+00,4.658930587768554688e+01,9.547583007812500000e+01,8.560353088378906250e+01,1.343039093017578125e+02,-1.784715414047241211e+00,-3.249815750122070312e+01,-1.845355377197265625e+02,3.597155380249023438e+01,2.258103179931640625e+01,3.308333206176757812e+01
4.880000054836273193e-01,2.000000000000000000e+00,-2.431972122192382812e+01,-2.073074340820312500e+00,4.654367065429687500e+01,9.548175048828125000e+01,8.560040283203125000e+01,1.342976837158203125e+02,-1.835638165473937988e+00,-3.249261856079101562e+01,-1.845303649902343750e+02,3.597425460815429688e+01,2.259877586364746094e+01,3.307727432250976562e+01
4.920000135898590088e-01,2.000000000000000000e+00,-2.437354850769042969e+01,-2.037218093872070312e+00,4.649804306030273438e+01,9.548767852783203125e+01,8.559728240966796875e+01,1.342914581298828125e+02,-1.886549234390258789e+00,-3.248707962036132812e+01,-1.845251922607421875e+02,3.597695541381835938e+01,2.261651611328125000e+01,3.307121658325195312e+01
4.959999918937683105e-01,2.000000000000000000e+00,-2.442736434936523438e+01,-2.001370191574096680e+00,4.645242691040039062e+01,9.549359893798828125e+01,8.559416198730468750e+01,1.342852172851562500e+02,-1.937448978424072266e+00,-3.248153686523437500e+01,-1.845200042724609375e+02,3.597965621948242188e+01,2.263425254821777344e+01,3.306515884399414062e+01
5.000000000000000000e-01,2.000000000000000000e+00,-2.448116683959960938e+01,-1.965530157089233398e+00,4.640682220458984375e+01,9.549951934814453125e+01,8.559104156494140625e+01,1.342789916992187500e+02,-1.988337039947509766e+00,-3.247600173950195312e+01,-1.845148315429687500e+02,3.598235702514648438e+01,2.265198326110839844e+01,3.305910110473632812e+01
5.040000081062316895e-01,2.000000000000000000e+00,-2.453495979309082031e+01,-1.929698348045349121e+00,4.636122894287109375e+01,9.550543975830078125e+01,8.558792114257812500e+01,1.342727813720703125e+02,-2.039213657379150391e+00,-3.247046661376953125e+01,-1.845096588134765625e+02,3.598505783081054688e+01,2.266971015930175781e+01,3.305305099487304688e+01
5.080000162124633789e-01,2.000000000000000000e+00,-2.458873939514160156e+01,-1.893874645233154297e+00,4.631564331054687500e+01,9.551136779785156250e+01,8.558480072021484375e+01,1.342665557861328125e+02,-2.090078353881835938e+00,-3.246493530273437500e+01,-1.845044708251953125e+02,3.598775482177734375e+01,2.268743324279785156e+01,3.304700088500976562e+01
5.120000243186950684e-01,2.000000000000000000e+00,-2.464250564575195312e+01,-1.858059048652648926e+00,4.627006912231445312e+01,9.551728057861328125e+01,8.558168029785156250e+01,1.342603302001953125e+02,-2.140932083129882812e+00,-3.245940017700195312e+01,-1.844992980957031250e+02,3.599045181274414062e+01,2.270515251159667969e+01,3.304094696044921875e+01
5.159999728202819824e-01,2.000000000000000000e+00,-2.469626045227050781e+01,-1.822251558303833008e+00,4.622450256347656250e+01,9.552320098876953125e+01,8.557855224609375000e+01,1.342541046142578125e+02,-2.191773891448974609e+00,-3.245386886596679688e+01,-1.844941253662109375e+02,3.599315261840820312e+01,2.272286796569824219e+01,3.303489685058593750e+01
5.199999809265136719e-01,2.000000000000000000e+00,-2.475000381469726562e+01,-1.786452174186706543e+00,4.617895126342773438e+01,9.552911376953125000e+01,8.557543945312500000e+01,1.342478942871093750e+02,-2.242604494094848633e+00,-3.244834136962890625e+01,-1.844889526367187500e+02,3.599584960937500000e+01,2.274057960510253906e+01,3.302884674072265625e+01
5.239999890327453613e-01,2.000000000000000000e+00,-2.480373573303222656e+01,-1.750661015510559082e+00,4.613340759277343750e+01,9.553502655029296875e+01,8.557231903076171875e+01,1.342416687011718750e+02,-2.293423414230346680e+00,-3.244281005859375000e+01,-1.844837799072265625e+02,3.599854278564453125e+01,2.275828552246093750e+01,3.302280426025390625e+01
5.279999971389770508e-01,2.000000000000000000e+00,-2.485745239257812500e+01,-1.714877843856811523e+00,4.608787155151367188e+01,9.554093933105468750e+01,8.556920623779296875e+01,1.342354583740234375e+02,-2.344230890274047852e+00,-3.243728256225585938e+01,-1.844786224365234375e+02,3.600123977661132812e+01,2.277598953247070312e+01,3.301675415039062500e+01
5.320000052452087402e-01,2.000000000000000000e+00,-2.491115760803222656e+01,-1.679102778434753418e+00,4.604235076904296875e+01,9.554685211181640625e+01,8.556609344482421875e+01,1.342292480468750000e+02,-2.395026683807373047e+00,-3.243175506591796875e+01,-1.844734344482421875e+02,3.600393676757812500e+01,2.279368972778320312e+01,3.301071548461914062e+01
5.360000133514404297e-01,2.000000000000000000e+00,-2.496485328674316406e+01,-1.643335819244384766e+00,4.599683761596679688e+01,9.555276489257812500e+01,8.556297302246093750e+01,1.342230224609375000e+02,-2.445811271667480469e+00,-3.242623138427734375e+01,-1.844682769775390625e+02,3.600662994384765625e+01,2.281138610839843750e+01,3.300466918945312500e+01
5.400000214576721191e-01,2.000000000000000000e+00,-2.501853561401367188e+01,-1.607576966285705566e+00,4.595133590698242188e+01,9.555867004394531250e+01,8.555985260009765625e+01,1.342168273925781250e+02,-2.496584177017211914e+00,-3.242070770263671875e+01,-1.844631195068359375e+02,3.600932312011718750e+01,2.282907676696777344e+01,3.299862670898437500e+01
5.440000295639038086e-01,2.000000000000000000e+00,-2.507220649719238281e+01,-1.571826219558715820e+00,4.590584564208984375e+01,9.556458282470703125e+01,8.555674743652343750e+01,1.342106170654296875e+02,-2.547345876693725586e+00,-3.241518402099609375e+01,-1.844579467773437500e+02,3.601202011108398438e+01,2.284676361083984375e+01,3.299259185791015625e+01
5.479999780654907227e-01,2.000000000000000000e+00,-2.512586402893066406e+01,-1.536083579063415527e+00,4.586036300659179688e+01,9.557048797607421875e+01,8.555363464355468750e+01,1.342044067382812500e+02,-2.598095893859863281e+00,-3.240966415405273438e+01,-1.844527740478515625e+02,3.601470947265625000e+01,2.286445045471191406e+01,3.298654937744140625e+01
5.519999861717224121e-01,2.000000000000000000e+00,-2.517950820922851562e+01,-1.500349044799804688e+00,4.581489181518554688e+01,9.557638549804687500e+01,8.555051422119140625e+01,1.341981964111328125e+02,-2.648833990097045898e+00,-3.240414428710937500e+01,-1.844476165771484375e+02,3.601740264892578125e+01,2.288212966918945312e+01,3.298051071166992188e+01
5.559999942779541016e-01,2.000000000000000000e+00,-2.523314285278320312e+01,-1.464622616767883301e+00,4.576942825317382812e+01,9.558229827880859375e+01,8.554740142822265625e+01,1.341919860839843750e+02,-2.699561119079589844e+00,-3.239862442016601562e+01,-1.844424591064453125e+02,3.602009201049804688e+01,2.289980506896972656e+01,3.297447586059570312e+01
5.600000023841857910e-01,2.000000000000000000e+00,-2.528676414489746094e+01,-1.428904056549072266e+00,4.572397613525390625e+01,9.558819580078125000e+01,8.554429626464843750e+01,1.341857910156250000e+02,-2.750276565551757812e+00,-3.239310836791992188e+01,-1.844373016357421875e+02,3.602278518676757812e+01,2.291747665405273438e+01,3.296844100952148438e+01
5.640000104904174805e-01,2.000000000000000000e+00,-2.534037208557128906e+01,-1.393193840980529785e+00,4.567853927612304688e+01,9.559410095214843750e+01,8.554118347167968750e+01,1.341795806884765625e+02,-2.800980567932128906e+00,-3.238758850097656250e+01,-1.844321289062500000e+02,3.602547454833984375e+01,2.293514633178710938e+01,3.296240615844726562e+01
5.680000185966491699e-01,2.000000000000000000e+00,-2.539396858215332031e+01,-1.357491612434387207e+00,4.563311004638671875e+01,9.559999084472656250e+01,8.553807067871093750e+01,1.341733856201171875e+02,-2.851673126220703125e+00,-3.238207244873046875e+01,-1.844269866943359375e+02,3.602816390991210938e+01,2.295280838012695312e+01,3.295637512207031250e+01
5.720000267028808594e-01,2.000000000000000000e+00,-2.544755554199218750e+01,-1.321797490119934082e+00,4.558768844604492188e+01,9.560589599609375000e+01,8.553496551513671875e+01,1.341671905517578125e+02,-2.902354240417480469e+00,-3.237656402587890625e+01,-1.844218139648437500e+02,3.603085327148437500e+01,2.297046852111816406e+01,3.295034408569335938e+01
5.759999752044677734e-01,2.000000000000000000e+00,-2.550112724304199219e+01,-1.286111354827880859e+00,4.554228210449218750e+01,9.561178588867187500e+01,8.553186035156250000e+01,1.341609802246093750e+02,-2.953023910522460938e+00,-3.237104797363281250e+01,-1.844166717529296875e+02,3.603354263305664062e+01,2.298812294006347656e+01,3.294431686401367188e+01
5.799999833106994629e-01,2.000000000000000000e+00,-2.555468940734863281e+01,-1.250433325767517090e+00,4.549687957763671875e+01,9.561768341064453125e+01,8.552874755859375000e+01,1.341547851562500000e+02,-3.003682136535644531e+00,-3.236553955078125000e+01,-1.844114990234375000e+02,3.603623199462890625e+01,2.300577545166015625e+01,3.293828964233398438e+01
5.839999914169311523e-01,2.000000000000000000e+00,-2.560823822021484375e+01,-1.214763402938842773e+00,4.545149230957031250e+01,9.562358093261718750e+01,8.552564239501953125e+01,1.341485900878906250e+02,-3.054328680038452148e+00,-3.236002731323242188e+01,-1.844063568115234375e+02,3.603891754150390625e+01,2.302342224121093750e+01,3.293226242065429688e+01
5.879999995231628418e-01,2.000000000000000000e+00,-2.566177368164062500e+01,-1.179101586341857910e+00,4.540611267089843750e+01,9.562947082519531250e+01,8.552253723144531250e+01,1.341423950195312500e+02,-3.104964017868041992e+00,-3.235451889038085938e+01,-1.844011993408203125e+02,3.604160308837890625e+01,2.304106521606445312e+01,3.292623901367187500e+01
5.920000076293945312e-01,2.000000000000000000e+00,-2.571529769897460938e+01,-1.143447756767272949e+00,4.536074447631835938e+01,9.563536834716796875e+01,8.551942443847656250e+01,1.341361999511718750e+02,-3.155587673187255859e+00,-3.234901046752929688e+01,-1.843960571289062500e+02,3.604429244995117188e+01,2.305870437622070312e+01,3.292021560668945312e+01
5.960000157356262207e-01,2.000000000000000000e+00,-2.576881027221679688e+01,-1.107801914215087891e+00,4.531538391113281250e+01,9.564125823974609375e+01,8.551632690429687500e+01,1.341300201416015625e+02,-3.206200122833251953e+00,-3.234350585937500000e+01,-1.843908996582031250e+02,3.604697418212890625e+01,2.307634162902832031e+01,3.291419219970703125e+01
6.000000238418579102e-01,2.000000000000000000e+00,-2.582231140136718750e+01,-1.072164297103881836e+00,4.527003860473632812e+01,9.564714050292968750e+01,8.551322174072265625e+01,1.341238250732421875e+02,-3.256801128387451172e+00,-3.233799743652343750e+01,-1.843857574462890625e+02,3.604965972900390625e+01,2.309397125244140625e+01,3.290817260742187500e+01
6.039999723434448242e-01,2.000000000000000000e+00,-2.587579727172851562e+01,-1.036534667015075684e+00,4.522470092773437500e+01,9.565303039550781250e+01,8.551011657714843750e+01,1.341176300048828125e+02,-3.307390451431274414e+00,-3.233249282836914062e+01,-1.843805999755859375e+02,3.605234527587890625e+01,2.311159896850585938e+01,3.290215301513671875e+01
6.079999804496765137e-01,2.000000000000000000e+00,-2.592927360534667969e+01,-1.000913143157958984e+00,4.517937469482421875e+01,9.565892028808593750e+01,8.550701141357421875e+01,1.341114501953125000e+02,-3.357968568801879883e+00,-3.232699203491210938e+01,-1.843754577636718750e+02,3.605502700805664062e+01,2.312922096252441406e+01,3.289613342285156250e+01
6.119999885559082031e-01,2.000000000000000000e+00,-2.598273849487304688e+01,-9.652995467185974121e-01,4.513405609130859375e+01,9.566480255126953125e+01,8.550390625000000000e+01,1.341052551269531250e+02,-3.408535003662109375e+00,-3.232149124145507812e+01,-1.843703155517578125e+02,3.605771255493164062e+01,2.314684295654296875e+01,3.289011764526367188e+01
6.159999966621398926e-01,2.000000000000000000e+00,-2.603619003295898438e+01,-9.296939969062805176e-01,4.508874893188476562e+01,9.567068481445312500e+01,8.550080871582031250e+01,1.340990753173828125e+02,-3.459090232849121094e+00,-3.231599044799804688e+01,-1.843651733398437500e+02,3.606039428710937500e+01,2.316445732116699219e+01,3.288410186767578125e+01
6.200000047683715820e-01,2.000000000000000000e+00,-2.608962821960449219e+01,-8.940965533256530762e-01,4.504345321655273438e+01,9.567656707763671875e+01,8.549770355224609375e+01,1.340928802490234375e+02,-3.509634017944335938e+00,-3.231048965454101562e+01,-1.843600311279296875e+02,3.606307983398437500e+01,2.318206787109375000e+01,3.287808990478515625e+01
6.240000128746032715e-01,2.000000000000000000e+00,-2.614305877685546875e+01,-8.585069775581359863e-01,4.499816513061523438e+01,9.568244934082031250e+01,8.549460601806640625e+01,1.340867156982421875e+02,-3.560166358947753906e+00,-3.230499267578125000e+01,-1.843548736572265625e+02,3.606575775146484375e+01,2.319967460632324219e+01,3.287207412719726562e+01
6.280000209808349609e-01,2.000000000000000000e+00,-2.619647407531738281e+01,-8.229255080223083496e-01,4.495288848876953125e+01,9.568833160400390625e+01,8.549150848388671875e+01,1.340805206298828125e+02,-3.610687255859375000e+00,-3.229949569702148438e+01,-1.843497467041015625e+02,3.606843948364257812e+01,2.321727943420410156e+01,3.286606597900390625e+01
6.320000290870666504e-01,2.000000000000000000e+00,-2.624987792968750000e+01,-7.873519062995910645e-01,4.490762329101562500e+01,9.569420623779296875e+01,8.548841094970703125e+01,1.340743408203125000e+02,-3.661196947097778320e+00,-3.229400253295898438e+01,-1.843446044921875000e+02,3.607111740112304688e+01,2.323487854003906250e+01,3.286005401611328125e+01
6.359999775886535645e-01,2.000000000000000000e+00,-2.630327033996582031e+01,-7.517864108085632324e-01,4.486236572265625000e+01,9.570008087158203125e+01,8.548531341552734375e+01,1.340681762695312500e+02,-3.711695194244384766e+00,-3.228850555419921875e+01,-1.843394622802734375e+02,3.607379913330078125e+01,2.325247383117675781e+01,3.285404205322265625e+01
6.399999856948852539e-01,2.000000000000000000e+00,-2.635664939880371094e+01,-7.162287831306457520e-01,4.481711959838867188e+01,9.570595550537109375e+01,8.548221588134765625e+01,1.340619964599609375e+02,-3.762182235717773438e+00,-3.228301620483398438e+01,-1.843343200683593750e+02,3.607647705078125000e+01,2.327006530761718750e+01,3.284803771972656250e+01
6.439999938011169434e-01,2.000000000000000000e+00,-2.641001701354980469e+01,-6.806791424751281738e-01,4.477188491821289062e+01,9.571183013916015625e+01,8.547911834716796875e+01,1.340558166503906250e+02,-3.812657833099365234e+00,-3.227752304077148438e+01,-1.843291931152343750e+02,3.607915496826171875e+01,2.328765296936035156e+01,3.284203338623046875e+01
6.480000019073486328e-01,2.000000000000000000e+00,-2.646337318420410156e+01,-6.451374888420104980e-01,4.472665786743164062e+01,9.571770477294921875e+01,8.547602081298828125e+01,1.340496520996093750e+02,-3.863122224807739258e+00,-3.227203369140625000e+01,-1.843240509033203125e+02,3.608183288574218750e+01,2.330523681640625000e+01,3.283602523803710938e+01
6.520000100135803223e-01,2.000000000000000000e+00,-2.651671981811523438e+01,-6.096037030220031738e-01,4.468144607543945312e+01,9.572357940673828125e+01,8.547292327880859375e+01,1.340434722900390625e+02,-3.913575172424316406e+00,-3.226654434204101562e+01,-1.843189239501953125e+02,3.608451080322265625e+01,2.332281684875488281e+01,3.283002471923828125e+01
6.560000181198120117e-01,2.000000000000000000e+00,-2.657005119323730469e+01,-5.740778446197509766e-01,4.463623809814453125e+01,9.572944641113281250e+01,8.546983337402343750e+01,1.340373077392578125e+02,-3.964016914367675781e+00,-3.226105499267578125e+01,-1.843137969970703125e+02,3.608718490600585938e+01,2.334039306640625000e+01,3.282402038574218750e+01
6.600000262260437012e-01,2.000000000000000000e+00,-2.662337303161621094e+01,-5.385599136352539062e-01,4.459104537963867188e+01,9.573531341552734375e+01,8.546673583984375000e+01,1.340311431884765625e+02,-4.014447689056396484e+00,-3.225556945800781250e+01,-1.843086547851562500e+02,3.608986282348632812e+01,2.335796546936035156e+01,3.281801986694335938e+01
6.639999747276306152e-01,2.000000000000000000e+00,-2.667667961120605469e+01,-5.030497908592224121e-01,4.454585647583007812e+01,9.574118804931640625e+01,8.546364593505859375e+01,1.340249633789062500e+02,-4.064867019653320312e+00,-3.225008392333984375e+01,-1.843035278320312500e+02,3.609253692626953125e+01,2.337553405761718750e+01,3.281201934814453125e+01
6.679999828338623047e-01,2.000000000000000000e+00,-2.672997856140136719e+01,-4.675475955009460449e-01,4.450067901611328125e+01,9.574704742431640625e+01,8.546054840087890625e+01,1.340187988281250000e+02,-4.115275859832763672e+00,-3.224459838867187500e+01,-1.842984008789062500e+02,3.609521102905273438e+01,2.339309692382812500e+01,3.280602264404296875e+01
6.719999909400939941e-01,2.000000000000000000e+00,-2.678326225280761719e+01,-4.320532381534576416e-01,4.445551681518554688e+01,9.575291442871093750e+01,8.545745849609375000e+01,1.340126342773437500e+02,-4.165672779083251953e+00,-3.223911666870117188e+01,-1.842932739257812500e+02,3.609788513183593750e+01,2.341065788269042969e+01,3.280002593994140625e+01
6.759999990463256836e-01,2.000000000000000000e+00,-2.683653640747070312e+01,-3.965667784214019775e-01,4.441036224365234375e+01,9.575878143310546875e+01,8.545436859130859375e+01,1.340064697265625000e+02,-4.216058731079101562e+00,-3.223363494873046875e+01,-1.842881317138671875e+02,3.610055923461914062e+01,2.342821502685546875e+01,3.279403305053710938e+01
6.800000071525573730e-01,2.000000000000000000e+00,-2.688979721069335938e+01,-3.610881567001342773e-01,4.436521530151367188e+01,9.576464080810546875e+01,8.545127868652343750e+01,1.340003051757812500e+02,-4.266433715820312500e+00,-3.222815322875976562e+01,-1.842830200195312500e+02,3.610323333740234375e+01,2.344576644897460938e+01,3.278803634643554688e+01
6.840000152587890625e-01,2.000000000000000000e+00,-2.694304656982421875e+01,-3.256173431873321533e-01,4.432007980346679688e+01,9.577050018310546875e+01,8.544818878173828125e+01,1.339941406250000000e+02,-4.316797733306884766e+00,-3.222267532348632812e+01,-1.842778930664062500e+02,3.610590362548828125e+01,2.346331596374511719e+01,3.278204727172851562e+01
6.880000233650207520e-01,2.000000000000000000e+00,-2.699628448486328125e+01,-2.901543676853179932e-01,4.427495193481445312e+01,9.577635955810546875e+01,8.544509887695312500e+01,1.339879913330078125e+02,-4.367150306701660156e+00,-3.221719741821289062e+01,-1.842727661132812500e+02,3.610857772827148438e+01,2.348085975646972656e+01,3.277605438232421875e+01
6.919999718666076660e-01,2.000000000000000000e+00,-2.704950904846191406e+01,-2.546992003917694092e-01,4.422983551025390625e+01,9.578222656250000000e+01,8.544201660156250000e+01,1.339818267822265625e+02,-4.417492389678955078e+00,-3.221171951293945312e+01,-1.842676391601562500e+02,3.611124801635742188e+01,2.349840164184570312e+01,3.277006149291992188e+01
6.959999799728393555e-01,2.000000000000000000e+00,-2.710272598266601562e+01,-2.192518562078475952e-01,4.418473434448242188e+01,9.578807830810546875e+01,8.543891906738281250e+01,1.339756622314453125e+02,-4.467823028564453125e+00,-3.220624160766601562e+01,-1.842625274658203125e+02,3.611391830444335938e+01,2.351593780517578125e+01,3.276407623291015625e+01
6.999999880790710449e-01,2.000000000000000000e+00,-2.715592765808105469e+01,-1.838122904300689697e-01,4.413963699340820312e+01,9.579393768310546875e+01,8.543582916259765625e+01,1.339695129394531250e+02,-4.518142223358154297e+00,-3.220076751708984375e+01,-1.842574005126953125e+02,3.611658859252929688e+01,2.353347206115722656e+01,3.275808715820312500e+01
7.039999961853027344e-01,2.000000000000000000e+00,-2.720911788940429688e+01,-1.483805179595947266e-01,4.409455108642578125e+01,9.579978942871093750e+01,8.543275451660156250e+01,1.339633636474609375e+02,-4.568450927734375000e+00,-3.219529724121093750e+01,-1.842522888183593750e+02,3.611925506591796875e+01,2.355100059509277344e+01,3.275210189819335938e+01
7.080000042915344238e-01,2.000000000000000000e+00,-2.726229667663574219e+01,-1.129565462470054626e-01,4.404947662353515625e+01,9.580564117431640625e+01,8.542966461181640625e+01,1.339572143554687500e+02,-4.618748664855957031e+00,-3.218982315063476562e+01,-1.842471618652343750e+02,3.612192535400390625e+01,2.356852722167968750e+01,3.274611663818359375e+01
7.120000123977661133e-01,2.000000000000000000e+00,-2.731546592712402344e+01,-7.754037529230117798e-02,4.400440979003906250e+01,9.581150054931640625e+01,8.542657470703125000e+01,1.339510650634765625e+02,-4.669034957885742188e+00,-3.218434906005859375e+01,-1.842420501708984375e+02,3.612459564208984375e+01,2.358604812622070312e+01,3.274013137817382812e+01
7.160000205039978027e-01,2.000000000000000000e+00,-2.736862182617187500e+01,-4.213199019432067871e-02,4.395935058593750000e+01,9.581734466552734375e+01,8.542350006103515625e+01,1.339449005126953125e+02,-4.719310283660888672e+00,-3.217888259887695312e+01,-1.842369384765625000e+02,3.612726211547851562e+01,2.360356712341308594e+01,3.273414993286132812e+01
7.200000286102294922e-01,2.000000000000000000e+00,-2.742176437377929688e+01,-6.731392815709114075e-03,4.391430664062500000e+01,9.582319641113281250e+01,8.542041015625000000e+01,1.339387512207031250e+02,-4.769574642181396484e+00,-3.217341232299804688e+01,-1.842318115234375000e+02,3.612992858886718750e+01,2.362108039855957031e+01,3.272816848754882812e+01
7.239999771118164062e-01,2.000000000000000000e+00,-2.747489738464355469e+01,2.866141870617866516e-02,4.386927032470703125e+01,9.582904052734375000e+01,8.541732788085937500e+01,1.339326019287109375e+02,-4.819827556610107422e+00,-3.216794586181640625e+01,-1.842266998291015625e+02,3.613259506225585938e+01,2.363859176635742188e+01,3.272219085693359375e+01
7.279999852180480957e-01,2.000000000000000000e+00,-2.752801895141601562e+01,6.404644995927810669e-02,4.382424163818359375e+01,9.583489227294921875e+01,8.541424560546875000e+01,1.339264526367187500e+02,-4.870069503784179688e+00,-3.216247940063476562e+01,-1.842216033935546875e+02,3.613526153564453125e+01,2.365609741210937500e+01,3.271621322631835938e+01
7.319999933242797852e-01,2.000000000000000000e+00,-2.758112716674804688e+01,9.942370653152465820e-02,4.377922439575195312e+01,9.584073638916015625e+01,8.541116333007812500e+01,1.339203186035156250e+02,-4.920300960540771484e+00,-3.215701675415039062e+01,-1.842164916992187500e+02,3.613792800903320312e+01,2.367359924316406250e+01,3.271023559570312500e+01
7.360000014305114746e-01,2.000000000000000000e+00,-2.763422584533691406e+01,1.347931772470474243e-01,4.373422241210937500e+01,9.584658050537109375e+01,8.540808105468750000e+01,1.339141845703125000e+02,-4.970520973205566406e+00,-3.215155029296875000e+01,-1.842113800048828125e+02,3.614059066772460938e+01,2.369109916687011719e+01,3.270426177978515625e+01
7.400000095367431641e-01,2.000000000000000000e+00,-2.768731117248535156e+01,1.701548695564270020e-01,4.368922424316406250e+01,9.585242462158203125e+01,8.540499877929687500e+01,1.339080352783203125e+02,-5.020730018615722656e+00,-3.214608764648437500e+01,-1.842062683105468750e+02,3.614325332641601562e+01,2.370859336853027344e+01,3.269828414916992188e+01
7.440000176429748535e-01,2.000000000000000000e+00,-2.774038505554199219e+01,2.055087983608245850e-01,4.364423751831054688e+01,9.585826110839843750e+01,8.540191650390625000e+01,1.339018859863281250e+02,-5.070928096771240234e+00,-3.214062500000000000e+01,-1.842011566162109375e+02,3.614591979980468750e+01,2.372608566284179688e+01,3.269231033325195312e+01
7.480000257492065430e-01,2.000000000000000000e+00,-2.779344749450683594e+01,2.408549636602401733e-01,4.359925842285156250e+01,9.586411285400390625e+01,8.539884185791015625e+01,1.338957519531250000e+02,-5.121114730834960938e+00,-3.213516616821289062e+01,-1.841960449218750000e+02,3.614858245849609375e+01,2.374357223510742188e+01,3.268634033203125000e+01
7.519999742507934570e-01,2.000000000000000000e+00,-2.784649658203125000e+01,2.761933505535125732e-01,4.355429458618164062e+01,9.586994934082031250e+01,8.539576721191406250e+01,1.338896179199218750e+02,-5.171290874481201172e+00,-3.212970733642578125e+01,-1.841909484863281250e+02,3.615124511718750000e+01,2.376105499267578125e+01,3.268037033081054688e+01
7.559999823570251465e-01,2.000000000000000000e+00,-2.789953613281250000e+01,3.115240037441253662e-01,4.350933456420898438e+01,9.587578582763671875e+01,8.539268493652343750e+01,1.338834686279296875e+02,-5.221456050872802734e+00,-3.212424850463867188e+01,-1.841858367919921875e+02,3.615390777587890625e+01,2.377853393554687500e+01,3.267440414428710938e+01
7.599999904632568359e-01,2.000000000000000000e+00,-2.795256423950195312e+01,3.468468487262725830e-01,4.346438598632812500e+01,9.588162231445312500e+01,8.538961029052734375e+01,1.338773345947265625e+02,-5.271609783172607422e+00,-3.211879348754882812e+01,-1.841807403564453125e+02,3.615656661987304688e+01,2.379601097106933594e+01,3.266843414306640625e+01
7.639999985694885254e-01,2.000000000000000000e+00,-2.800558090209960938e+01,3.821619749069213867e-01,4.341944885253906250e+01,9.588745880126953125e+01,8.538652801513671875e+01,1.338712005615234375e+02,-5.321752548217773438e+00,-3.211333847045898438e+01,-1.841756286621093750e+02,3.615922546386718750e+01,2.381348228454589844e+01,3.266246795654296875e+01
7.680000066757202148e-01,2.000000000000000000e+00,-2.805858421325683594e+01,4.174693226814270020e-01,4.337452316284179688e+01,9.589328765869140625e+01,8.538346099853515625e+01,1.338650665283203125e+02,-5.371884346008300781e+00,-3.210788345336914062e+01,-1.841705322265625000e+02,3.616188812255859375e+01,2.383094978332519531e+01,3.265650177001953125e+01
7.720000147819519043e-01,2.000000000000000000e+00,-2.811157608032226562e+01,4.527689218521118164e-01,4.332960510253906250e+01,9.589912414550781250e+01,8.538038635253906250e+01,1.338589324951171875e+02,-5.422005176544189453e+00,-3.210242843627929688e+01,-1.841654205322265625e+02,3.616454696655273438e+01,2.384841346740722656e+01,3.265053939819335938e+01
7.760000228881835938e-01,2.000000000000000000e+00,-2.816455650329589844e+01,4.880607724189758301e-01,4.328469467163085938e+01,9.590495300292968750e+01,8.537731170654296875e+01,1.338528137207031250e+02,-5.472115039825439453e+00,-3.209697723388671875e+01,-1.841603240966796875e+02,3.616720581054687500e+01,2.386587333679199219e+01,3.264457702636718750e+01
7.799999713897705078e-01,2.000000000000000000e+00,-2.821752738952636719e+01,5.233448743820190430e-01,4.323979568481445312e+01,9.591078948974609375e+01,8.537423706054687500e+01,1.338466796875000000e+02,-5.522213935852050781e+00,-3.209152984619140625e+01,-1.841552276611328125e+02,3.616986465454101562e+01,2.388333129882812500e+01,3.263861465454101562e+01
7.839999794960021973e-01,2.000000000000000000e+00,-2.827048492431640625e+01,5.586212277412414551e-01,4.319490814208984375e+01,9.591661071777343750e+01,8.537116241455078125e+01,1.338405456542968750e+02,-5.572301864624023438e+00,-3.208607864379882812e+01,-1.841501464843750000e+02,3.617252349853515625e+01,2.390078163146972656e+01,3.263265609741210938e+01
7.879999876022338867e-01,2.000000000000000000e+00,-2.832343101501464844e+01,5.938898921012878418e-01,4.315003204345703125e+01,9.592243957519531250e+01,8.536808776855468750e+01,1.338344268798828125e+02,-5.622378826141357422e+00,-3.208063125610351562e+01,-1.841450500488281250e+02,3.617517852783203125e+01,2.391823196411132812e+01,3.262669754028320312e+01
7.919999957084655762e-01,2.000000000000000000e+00,-2.837636375427246094e+01,6.291506886482238770e-01,4.310516357421875000e+01,9.592827606201171875e+01,8.536501312255859375e+01,1.338283081054687500e+02,-5.672444343566894531e+00,-3.207518386840820312e+01,-1.841399536132812500e+02,3.617783737182617188e+01,2.393567657470703125e+01,3.262073898315429688e+01
7.960000038146972656e-01,2.000000000000000000e+00,-2.842928886413574219e+01,6.644038558006286621e-01,4.306030654907226562e+01,9.593408966064453125e+01,8.536194610595703125e+01,1.338221740722656250e+02,-5.722499370574951172e+00,-3.206973648071289062e+01,-1.841348571777343750e+02,3.618049240112304688e+01,2.395311927795410156e+01,3.261478042602539062e+01
8.000000119209289551e-01,2.000000000000000000e+00,-2.848219871520996094e+01,6.996492743492126465e-01,4.301545715332031250e+01,9.593991851806640625e+01,8.535887908935546875e+01,1.338160552978515625e+02,-5.772543430328369141e+00,-3.206429290771484375e+01,-1.841297607421875000e+02,3.618314743041992188e+01,2.397055435180664062e+01,3.260882949829101562e+01
8.040000200271606445e-01,2.000000000000000000e+00,-2.853509712219238281e+01,7.348868846893310547e-01,4.297061538696289062e+01,9.594574737548828125e+01,8.535581207275390625e+01,1.338099365234375000e+02,-5.822576045989990234e+00,-3.205884933471679688e+01,-1.841246795654296875e+02,3.618580245971679688e+01,2.398798751831054688e+01,3.260287857055664062e+01
8.080000281333923340e-01,2.000000000000000000e+00,-2.858798599243164062e+01,7.701168656349182129e-01,4.292578887939453125e+01,9.595156097412109375e+01,8.535274505615234375e+01,1.338038177490234375e+02,-5.872598171234130859e+00,-3.205340957641601562e+01,-1.841195831298828125e+02,3.618845748901367188e+01,2.400541687011718750e+01,3.259692382812500000e+01
8.119999766349792480e-01,2.000000000000000000e+00,-2.864086151123046875e+01,8.053390979766845703e-01,4.288097000122070312e+01,9.595738220214843750e+01,8.534967041015625000e+01,1.337976989746093750e+02,-5.922608852386474609e+00,-3.204796600341796875e+01,-1.841145019531250000e+02,3.619110870361328125e+01,2.402284431457519531e+01,3.259097290039062500e+01
8.159999847412109375e-01,2.000000000000000000e+00,-2.869372749328613281e+01,8.405535817146301270e-01,4.283615875244140625e+01,9.596320343017578125e+01,8.534660339355468750e+01,1.337915802001953125e+02,-5.972609043121337891e+00,-3.204252624511718750e+01,-1.841094055175781250e+02,3.619376373291015625e+01,2.404026603698730469e+01,3.258502197265625000e+01
8.199999928474426270e-01,2.000000000000000000e+00,-2.874658012390136719e+01,8.757603168487548828e-01,4.279136276245117188e+01,9.596902465820312500e+01,8.534353637695312500e+01,1.337854766845703125e+02,-6.022598266601562500e+00,-3.203708648681640625e+01,-1.841043243408203125e+02,3.619641494750976562e+01,2.405768394470214844e+01,3.257907485961914062e+01
8.240000009536743164e-01,2.000000000000000000e+00,-2.879942131042480469e+01,9.109594225883483887e-01,4.274656677246093750e+01,9.597483825683593750e+01,8.534046936035156250e+01,1.337793579101562500e+02,-6.072576045989990234e+00,-3.203165054321289062e+01,-1.840992279052734375e+02,3.619906616210937500e+01,2.407509803771972656e+01,3.257312774658203125e+01
8.280000090599060059e-01,2.000000000000000000e+00,-2.885225296020507812e+01,9.461506605148315430e-01,4.270178985595703125e+01,9.598065185546875000e+01,8.533740234375000000e+01,1.337732391357421875e+02,-6.122543334960937500e+00,-3.202621459960937500e+01,-1.840941467285156250e+02,3.620171737670898438e+01,2.409250831604003906e+01,3.256718063354492188e+01
8.320000171661376953e-01,2.000000000000000000e+00,-2.890507125854492188e+01,9.813342690467834473e-01,4.265702056884765625e+01,9.598646545410156250e+01,8.533434295654296875e+01,1.337671203613281250e+02,-6.172499656677246094e+00,-3.202077865600585938e+01,-1.840890655517578125e+02,3.620436859130859375e+01,2.410991668701171875e+01,3.256124114990234375e+01
8.360000252723693848e-01,2.000000000000000000e+00,-2.895787811279296875e+01,1.016510128974914551e+00,4.261225891113281250e+01,9.599227905273437500e+01,8.533127593994140625e+01,1.337610168457031250e+02,-6.222444534301757812e+00,-3.201534271240234375e+01,-1.840839843750000000e+02,3.620701599121093750e+01,2.412731933593750000e+01,3.255529403686523438e+01
8.399999737739562988e-01,2.000000000000000000e+00,-2.901067161560058594e+01,1.051678419113159180e+00,4.256750869750976562e+01,9.599809265136718750e+01,8.532821655273437500e+01,1.337549133300781250e+02,-6.272378921508789062e+00,-3.200991058349609375e+01,-1.840789031982421875e+02,3.620966720581054688e+01,2.414471817016601562e+01,3.254935455322265625e+01
8.439999818801879883e-01,2.000000000000000000e+00,-2.906345558166503906e+01,1.086838960647583008e+00,4.252276611328125000e+01,9.600389862060546875e+01,8.532514953613281250e+01,1.337488098144531250e+02,-6.322302341461181641e+00,-3.200448226928710938e+01,-1.840738220214843750e+02,3.621231842041015625e+01,2.416211128234863281e+01,3.254341506958007812e+01
8.479999899864196777e-01,2.000000000000000000e+00,-2.911623001098632812e+01,1.121991634368896484e+00,4.247803497314453125e+01,9.600971221923828125e+01,8.532209014892578125e+01,1.337427062988281250e+02,-6.372214794158935547e+00,-3.199905014038085938e+01,-1.840687408447265625e+02,3.621496582031250000e+01,2.417950439453125000e+01,3.253747558593750000e+01
8.519999980926513672e-01,2.000000000000000000e+00,-2.916898918151855469e+01,1.157136797904968262e+00,4.243331527709960938e+01,9.601551818847656250e+01,8.531903076171875000e+01,1.337365875244140625e+02,-6.422116279602050781e+00,-3.199361991882324219e+01,-1.840636749267578125e+02,3.621761322021484375e+01,2.419689178466796875e+01,3.253153610229492188e+01
8.560000061988830566e-01,2.000000000000000000e+00,-2.922173881530761719e+01,1.192274212837219238e+00,4.238860702514648438e+01,9.602132415771484375e+01,8.531597137451171875e+01,1.337304840087890625e+02,-6.472006320953369141e+00,-3.198819351196289062e+01,-1.840585937500000000e+02,3.622026062011718750e+01,2.421427536010742188e+01,3.252560043334960938e+01
8.600000143051147461e-01,2.000000000000000000e+00,-2.927447509765625000e+01,1.227403879165649414e+00,4.234390258789062500e+01,9.602713012695312500e+01,8.531291198730468750e+01,1.337243804931640625e+02,-6.521885871887207031e+00,-3.198276710510253906e+01,-1.840535125732421875e+02,3.622290802001953125e+01,2.423165512084960938e+01,3.251966476440429688e+01
8.640000224113464355e-01,2.000000000000000000e+00,-2.932719993591308594e+01,1.262525916099548340e+00,4.229921340942382812e+01,9.603292846679687500e+01,8.530985260009765625e+01,1.337182922363281250e+02,-6.571754932403564453e+00,-3.197734069824218750e+01,-1.840484313964843750e+02,3.622555541992187500e+01,2.424903106689453125e+01,3.251373291015625000e+01
8.679999709129333496e-01,2.000000000000000000e+00,-2.937991523742675781e+01,1.297640204429626465e+00,4.225452804565429688e+01,9.603873443603515625e+01,8.530678558349609375e+01,1.337121887207031250e+02,-6.621612548828125000e+00,-3.197191810607910156e+01,-1.840433654785156250e+02,3.622819900512695312e+01,2.426640319824218750e+01,3.250780105590820312e+01
8.719999790191650391e-01,2.000000000000000000e+00,-2.943261718750000000e+01,1.332746744155883789e+00,4.220985412597656250e+01,9.604453277587890625e+01,8.530372619628906250e+01,1.337060852050781250e+02,-6.671459674835205078e+00,-3.196649551391601562e+01,-1.840382843017578125e+02,3.623084640502929688e+01,2.428377342224121094e+01,3.250186920166015625e+01
8.759999871253967285e-01,2.000000000000000000e+00,-2.948530960083007812e+01,1.367845773696899414e+00,4.216519546508789062e+01,9.605033874511718750e+01,8.530066680908203125e+01,1.336999969482421875e+02,-6.721295356750488281e+00,-3.196107101440429688e+01,-1.840332183837890625e+02,3.623348617553710938e+01,2.430113792419433594e+01,3.249593734741210938e+01
8.799999952316284180e-01,2.000000000000000000e+00,-2.953799057006835938e+01,1.402936935424804688e+00,4.212054061889648438e+01,9.605613708496093750e+01,8.529761505126953125e+01,1.336938934326171875e+02,-6.771120548248291016e+00,-3.195565223693847656e+01,-1.840281524658203125e+02,3.623612976074218750e+01,2.431849861145019531e+01,3.249000930786132812e+01
8.840000033378601074e-01,2.000000000000000000e+00,-2.959065818786621094e+01,1.438020586967468262e+00,4.207589721679687500e+01,9.606192779541015625e+01,8.529455566406250000e+01,1.336878051757812500e+02,-6.820934295654296875e+00,-3.195023155212402344e+01,-1.840230865478515625e+02,3.623877334594726562e+01,2.433585739135742188e+01,3.248408126831054688e+01
8.880000114440917969e-01,2.000000000000000000e+00,-2.964331436157226562e+01,1.473096489906311035e+00,4.203126525878906250e+01,9.606772613525390625e+01,8.529150390625000000e+01,1.336817016601562500e+02,-6.870738029479980469e+00,-3.194481277465820312e+01,-1.840180206298828125e+02,3.624141693115234375e+01,2.435320854187011719e+01,3.247815704345703125e+01
8.920000195503234863e-01,2.000000000000000000e+00,-2.969595909118652344e+01,1.508164644241333008e+00,4.198664093017578125e+01,9.607351684570312500e+01,8.528845214843750000e+01,1.336756134033203125e+02,-6.920529842376708984e+00,-3.193939590454101562e+01,-1.840129547119140625e+02,3.624405670166015625e+01,2.437055969238281250e+01,3.247223281860351562e+01
8.960000276565551758e-01,2.000000000000000000e+00,-2.974859237670898438e+01,1.543225288391113281e+00,4.194203186035156250e+01,9.607930755615234375e+01,8.528540039062500000e+01,1.336695404052734375e+02,-6.970311641693115234e+00,-3.193397903442382812e+01,-1.840078735351562500e+02,3.624670028686523438e+01,2.438790512084960938e+01,3.246630859375000000e+01
8.999999761581420898e-01,2.000000000000000000e+00,-2.980121612548828125e+01,1.578278183937072754e+00,4.189742660522460938e+01,9.608509826660156250e+01,8.528234100341796875e+01,1.336634368896484375e+02,-7.020081996917724609e+00,-3.192856407165527344e+01,-1.840028228759765625e+02,3.624934005737304688e+01,2.440524673461914062e+01,3.246038436889648438e+01
9.039999842643737793e-01,2.000000000000000000e+00,-2.985382461547851562e+01,1.613323330879211426e+00,4.185283279418945312e+01,9.609089660644531250e+01,8.527928924560546875e+01,1.336573486328125000e+02,-7.069841861724853516e+00,-3.192315101623535156e+01,-1.839977569580078125e+02,3.625197982788085938e+01,2.442258453369140625e+01,3.245446395874023438e+01
9.079999923706054688e-01,2.000000000000000000e+00,-2.990642356872558594e+01,1.648360967636108398e+00,4.180824661254882812e+01,9.609668731689453125e+01,8.527623748779296875e+01,1.336512756347656250e+02,-7.119590282440185547e+00,-3.191773796081542969e+01,-1.839926910400390625e+02,3.625461959838867188e+01,2.443992042541503906e+01,3.244854736328125000e+01
9.120000004768371582e-01,2.000000000000000000e+00,-2.995901298522949219e+01,1.683390855789184570e+00,4.176367187500000000e+01,9.610247039794921875e+01,8.527318572998046875e+01,1.336451721191406250e+02,-7.169328689575195312e+00,-3.191232872009277344e+01,-1.839876403808593750e+02,3.625725936889648438e+01,2.445725059509277344e+01,3.244262695312500000e+01
9.160000085830688477e-01,2.000000000000000000e+00,-3.001158905029296875e+01,1.718413114547729492e+00,4.171910858154296875e+01,9.610826110839843750e+01,8.527013397216796875e+01,1.336390991210937500e+02,-7.219055175781250000e+00,-3.190691757202148438e+01,-1.839825744628906250e+02,3.625989913940429688e+01,2.447457695007324219e+01,3.243671035766601562e+01
9.200000166893005371e-01,2.000000000000000000e+00,-3.006415367126464844e+01,1.753427624702453613e+00,4.167455291748046875e+01,9.611404418945312500e+01,8.526708221435546875e+01,1.336330261230468750e+02,-7.268771171569824219e+00,-3.190150833129882812e+01,-1.839775085449218750e+02,3.626253509521484375e+01,2.449189949035644531e+01,3.243079376220703125e+01
9.240000247955322266e-01,2.000000000000000000e+00,-3.011670494079589844e+01,1.788434624671936035e+00,4.163000869750976562e+01,9.611983489990234375e+01,8.526403045654296875e+01,1.336269378662109375e+02,-7.318477153778076172e+00,-3.189609909057617188e+01,-1.839724578857421875e+02,3.626517486572265625e+01,2.450921821594238281e+01,3.242488098144531250e+01
9.279999732971191406e-01,2.000000000000000000e+00,-3.016924667358398438e+01,1.823433876037597656e+00,4.158547210693359375e+01,9.612561035156250000e+01,8.526098632812500000e+01,1.336208648681640625e+02,-7.368170738220214844e+00,-3.189069366455078125e+01,-1.839674072265625000e+02,3.626781082153320312e+01,2.452653503417968750e+01,3.241896820068359375e+01
9.319999814033508301e-01,2.000000000000000000e+00,-3.022177696228027344e+01,1.858425498008728027e+00,4.154094314575195312e+01,9.613139343261718750e+01,8.525794219970703125e+01,1.336147918701171875e+02,-7.417854309082031250e+00,-3.188528633117675781e+01,-1.839623565673828125e+02,3.627044677734375000e+01,2.454384613037109375e+01,3.241305541992187500e+01
9.359999895095825195e-01,2.000000000000000000e+00,-3.027429389953613281e+01,1.893409371376037598e+00,4.149642944335937500e+01,9.613717651367187500e+01,8.525489044189453125e+01,1.336087036132812500e+02,-7.467526912689208984e+00,-3.187988471984863281e+01,-1.839572906494140625e+02,3.627308273315429688e+01,2.456115341186523438e+01,3.240714263916015625e+01
9.399999976158142090e-01,2.000000000000000000e+00,-3.032680130004882812e+01,1.928385734558105469e+00,4.145192337036132812e+01,9.614295959472656250e+01,8.525184631347656250e+01,1.336026306152343750e+02,-7.517189502716064453e+00,-3.187448120117187500e+01,-1.839522399902343750e+02,3.627571868896484375e+01,2.457845878601074219e+01,3.240123748779296875e+01
9.440000057220458984e-01,2.000000000000000000e+00,-3.037929916381835938e+01,1.963354587554931641e+00,4.140742874145507812e+01,9.614873504638671875e+01,8.524880218505859375e+01,1.335965423583984375e+02,-7.566840648651123047e+00,-3.186907958984375000e+01,-1.839471893310546875e+02,3.627835083007812500e+01,2.459575843811035156e+01,3.239532852172851562e+01
9.480000138282775879e-01,2.000000000000000000e+00,-3.043178176879882812e+01,1.998315453529357910e+00,4.136293792724609375e+01,9.615451049804687500e+01,8.524575805664062500e+01,1.335904846191406250e+02,-7.616480827331542969e+00,-3.186367607116699219e+01,-1.839421386718750000e+02,3.628098678588867188e+01,2.461305427551269531e+01,3.238942337036132812e+01
9.520000219345092773e-01,2.000000000000000000e+00,-3.048425483703613281e+01,2.033268928527832031e+00,4.131846237182617188e+01,9.616028594970703125e+01,8.524270629882812500e+01,1.335844116210937500e+02,-7.666109561920166016e+00,-3.185827636718750000e+01,-1.839370727539062500e+02,3.628361892700195312e+01,2.463034820556640625e+01,3.238351440429687500e+01
9.559999704360961914e-01,2.000000000000000000e+00,-3.053671836853027344e+01,2.068214893341064453e+00,4.127399826049804688e+01,9.616606140136718750e+01,8.523966217041015625e+01,1.335783386230468750e+02,-7.715728282928466797e+00,-3.185288047790527344e+01,-1.839320373535156250e+02,3.628625106811523438e+01,2.464763832092285156e+01,3.237761306762695312e+01
9.599999785423278809e-01,2.000000000000000000e+00,-3.058916664123535156e+01,2.103152990341186523e+00,4.122953414916992188e+01,9.617183685302734375e+01,8.523662567138671875e+01,1.335722808837890625e+02,-7.765336036682128906e+00,-3.184748268127441406e+01,-1.839269866943359375e+02,3.628888320922851562e+01,2.466492271423339844e+01,3.237170791625976562e+01
9.639999866485595703e-01,2.000000000000000000e+00,-3.064160537719726562e+01,2.138083457946777344e+00,4.118508911132812500e+01,9.617761230468750000e+01,8.523357391357421875e+01,1.335662078857421875e+02,-7.814932823181152344e+00,-3.184208679199218750e+01,-1.839219360351562500e+02,3.629151916503906250e+01,2.468220329284667969e+01,3.236580657958984375e+01
9.679999947547912598e-01,2.000000000000000000e+00,-3.069403457641601562e+01,2.173006296157836914e+00,4.114065170288085938e+01,9.618338012695312500e+01,8.523053741455078125e+01,1.335601501464843750e+02,-7.864519119262695312e+00,-3.183669281005859375e+01,-1.839168853759765625e+02,3.629414749145507812e+01,2.469948196411132812e+01,3.235990524291992188e+01
9.720000028610229492e-01,2.000000000000000000e+00,-3.074644851684570312e+01,2.207921743392944336e+00,4.109622192382812500e+01,9.618914794921875000e+01,8.522749328613281250e+01,1.335540771484375000e+02,-7.914093494415283203e+00,-3.183129692077636719e+01,-1.839118499755859375e+02,3.629677581787109375e+01,2.471675682067871094e+01,3.235400772094726562e+01
9.760000109672546387e-01,2.000000000000000000e+00,-3.079885292053222656e+01,2.242829322814941406e+00,4.105180358886718750e+01,9.619491577148437500e+01,8.522444915771484375e+01,1.335480194091796875e+02,-7.963658332824707031e+00,-3.182590484619140625e+01,-1.839068145751953125e+02,3.629940795898437500e+01,2.473402595520019531e+01,3.234811019897460938e+01
9.800000190734863281e-01,2.000000000000000000e+00,-3.085124397277832031e+01,2.277729272842407227e+00,4.100739288330078125e+01,9.620068359375000000e+01,8.522141265869140625e+01,1.335419464111328125e+02,-8.013211250305175781e+00,-3.182051658630371094e+01,-1.839017639160156250e+02,3.630203628540039062e+01,2.475129318237304688e+01,3.234221649169921875e+01
9.840000271797180176e-01,2.000000000000000000e+00,-3.090362548828125000e+01,2.312621831893920898e+00,4.096299362182617188e+01,9.620644378662109375e+01,8.521837615966796875e+01,1.335358886718750000e+02,-8.062753677368164062e+00,-3.181512451171875000e+01,-1.838967285156250000e+02,3.630466461181640625e+01,2.476855468750000000e+01,3.233632278442382812e+01
9.879999756813049316e-01,2.000000000000000000e+00,-3.095599555969238281e+01,2.347506523132324219e+00,4.091860580444335938e+01,9.621221160888671875e+01,8.521533203125000000e+01,1.335298309326171875e+02,-8.112285614013671875e+00,-3.180973434448242188e+01,-1.838916778564453125e+02,3.630729675292968750e+01,2.478581428527832031e+01,3.233042907714843750e+01
9.919999837875366211e-01,2.000000000000000000e+00,-3.100835609436035156e+01,2.382383823394775391e+00,4.087422180175781250e+01,9.621797943115234375e+01,8.521229553222656250e+01,1.335237731933593750e+02,-8.161807060241699219e+00,-3.180434989929199219e+01,-1.838866424560546875e+02,3.630992126464843750e+01,2.480306816101074219e+01,3.232453155517578125e+01
9.959999918937683105e-01,2.000000000000000000e+00,-3.106070137023925781e+01,2.417253494262695312e+00,4.082985305786132812e+01,9.622373962402343750e+01,8.520925903320312500e+01,1.335177154541015625e+02,-8.211318016052246094e+00,-3.179895973205566406e+01,-1.838816070556640625e+02,3.631254577636718750e+01,2.482032012939453125e+01,3.231864166259765625e+01
1.000000000000000000e+00,2.000000000000000000e+00,-3.111303901672363281e+01,2.452115535736083984e+00,4.078549194335937500e+01,9.622949981689453125e+01,8.520622253417968750e+01,1.335116577148437500e+02,-8.260816574096679688e+00,-3.179357528686523438e+01,-1.838765563964843750e+02,3.631517410278320312e+01,2.483756828308105469e+01,3.231275558471679688e+01
1.003999948501586914e+00,2.000000000000000000e+00,-3.116536140441894531e+01,2.486969947814941406e+00,4.074113845825195312e+01,9.623525238037109375e+01,8.520318603515625000e+01,1.335055999755859375e+02,-8.310305595397949219e+00,-3.178819274902343750e+01,-1.838715362548828125e+02,3.631779861450195312e+01,2.485481071472167969e+01,3.230686187744140625e+01
1.008000016212463379e+00,2.000000000000000000e+00,-3.121767425537109375e+01,2.521816730499267578e+00,4.069679641723632812e+01,9.624101257324218750e+01,8.520014953613281250e+01,1.334995422363281250e+02,-8.359784126281738281e+00,-3.178281021118164062e+01,-1.838665008544921875e+02,3.632042694091796875e+01,2.487205123901367188e+01,3.230097961425781250e+01
1.011999964714050293e+00,2.000000000000000000e+00,-3.126997566223144531e+01,2.556655883789062500e+00,4.065246582031250000e+01,9.624677276611328125e+01,8.519712066650390625e+01,1.334934997558593750e+02,-8.409250259399414062e+00,-3.177742767333984375e+01,-1.838614654541015625e+02,3.632305145263671875e+01,2.488928794860839844e+01,3.229508972167968750e+01
1.016000032424926758e+00,2.000000000000000000e+00,-3.132226371765136719e+01,2.591487646102905273e+00,4.060814666748046875e+01,9.625253295898437500e+01,8.519408416748046875e+01,1.334874420166015625e+02,-8.458706855773925781e+00,-3.177204513549804688e+01,-1.838564300537109375e+02,3.632567596435546875e+01,2.490652084350585938e+01,3.228920745849609375e+01
1.019999980926513672e+00,2.000000000000000000e+00,-3.137454223632812500e+01,2.626311540603637695e+00,4.056383132934570312e+01,9.625827789306640625e+01,8.519105529785156250e+01,1.334813995361328125e+02,-8.508152008056640625e+00,-3.176666641235351562e+01,-1.838513946533203125e+02,3.632829666137695312e+01,2.492374992370605469e+01,3.228332138061523438e+01
1.024000048637390137e+00,2.000000000000000000e+00,-3.142681121826171875e+01,2.661128044128417969e+00,4.051953125000000000e+01,9.626403808593750000e+01,8.518801116943359375e+01,1.334753570556640625e+02,-8.557587623596191406e+00,-3.176128768920898438e+01,-1.838463745117187500e+02,3.633092117309570312e+01,2.494097328186035156e+01,3.227744293212890625e+01
1.026999950408935547e+00,2.000000000000000000e+00,-3.147906494140625000e+01,2.695936918258666992e+00,4.047523880004882812e+01,9.626979064941406250e+01,8.518498992919921875e+01,1.334692993164062500e+02,-8.607011795043945312e+00,-3.175590896606445312e+01,-1.838413391113281250e+02,3.633354187011718750e+01,2.495819664001464844e+01,3.227156066894531250e+01
1.031999945640563965e+00,2.000000000000000000e+00,-3.153131294250488281e+01,2.730738162994384766e+00,4.043095397949218750e+01,9.627554321289062500e+01,8.518195343017578125e+01,1.334632568359375000e+02,-8.656424522399902344e+00,-3.175053405761718750e+01,-1.838363189697265625e+02,3.633616638183593750e+01,2.497541427612304688e+01,3.226568222045898438e+01
1.036000013351440430e+00,2.000000000000000000e+00,-3.158354377746582031e+01,2.765531778335571289e+00,4.038668060302734375e+01,9.628128814697265625e+01,8.517892456054687500e+01,1.334572143554687500e+02,-8.705827713012695312e+00,-3.174515914916992188e+01,-1.838312988281250000e+02,3.633878707885742188e+01,2.499262809753417969e+01,3.225980377197265625e+01
1.039999961853027344e+00,2.000000000000000000e+00,-3.163576698303222656e+01,2.800318002700805664e+00,4.034241485595703125e+01,9.628703308105468750e+01,8.517588806152343750e+01,1.334511718750000000e+02,-8.755219459533691406e+00,-3.173978614807128906e+01,-1.838262634277343750e+02,3.634140777587890625e+01,2.500983810424804688e+01,3.225392532348632812e+01
1.044000029563903809e+00,2.000000000000000000e+00,-3.168797683715820312e+01,2.835096597671508789e+00,4.029816055297851562e+01,9.629277801513671875e+01,8.517285919189453125e+01,1.334451293945312500e+02,-8.804599761962890625e+00,-3.173441505432128906e+01,-1.838212432861328125e+02,3.634402847290039062e+01,2.502704238891601562e+01,3.224804687500000000e+01
1.047999978065490723e+00,2.000000000000000000e+00,-3.174017715454101562e+01,2.869867563247680664e+00,4.025391387939453125e+01,9.629853057861328125e+01,8.516983032226562500e+01,1.334391021728515625e+02,-8.853970527648925781e+00,-3.172904396057128906e+01,-1.838162078857421875e+02,3.634664535522460938e+01,2.504424667358398438e+01,3.224217605590820312e+01
1.052000045776367188e+00,2.000000000000000000e+00,-3.179236221313476562e+01,2.904630899429321289e+00,4.020967864990234375e+01,9.630427551269531250e+01,8.516680145263671875e+01,1.334330596923828125e+02,-8.903329849243164062e+00,-3.172367095947265625e+01,-1.838111877441406250e+02,3.634926605224609375e+01,2.506144523620605469e+01,3.223630142211914062e+01
1.054999947547912598e+00,2.000000000000000000e+00,-3.184453773498535156e+01,2.939386606216430664e+00,4.016545486450195312e+01,9.631001281738281250e+01,8.516378021240234375e+01,1.334270172119140625e+02,-8.952678680419921875e+00,-3.171830177307128906e+01,-1.838061676025390625e+02,3.635188674926757812e+01,2.507863998413085938e+01,3.223043060302734375e+01
1.059999942779541016e+00,2.000000000000000000e+00,-3.189670372009277344e+01,2.974135160446166992e+00,4.012123870849609375e+01,9.631575775146484375e+01,8.516075134277343750e+01,1.334209899902343750e+02,-9.002017021179199219e+00,-3.171293449401855469e+01,-1.838011474609375000e+02,3.635450363159179688e+01,2.509583091735839844e+01,3.222455978393554688e+01
1.064000010490417480e+00,2.000000000000000000e+00,-3.194885635375976562e+01,3.008875846862792969e+00,4.007703018188476562e+01,9.632149505615234375e+01,8.515772247314453125e+01,1.334149475097656250e+02,-9.051343917846679688e+00,-3.170756912231445312e+01,-1.837961273193359375e+02,3.635712051391601562e+01,2.511301994323730469e+01,3.221868896484375000e+01
1.067999958992004395e+00,2.000000000000000000e+00,-3.200099563598632812e+01,3.043608903884887695e+00,4.003283691406250000e+01,9.632723999023437500e+01,8.515470123291015625e+01,1.334089050292968750e+02,-9.100660324096679688e+00,-3.170220375061035156e+01,-1.837911224365234375e+02,3.635973739624023438e+01,2.513020324707031250e+01,3.221282196044921875e+01
1.072000026702880859e+00,2.000000000000000000e+00,-3.205312728881835938e+01,3.078334569931030273e+00,3.998864746093750000e+01,9.633297729492187500e+01,8.515167236328125000e+01,1.334028778076171875e+02,-9.149966239929199219e+00,-3.169683837890625000e+01,-1.837860870361328125e+02,3.636235427856445312e+01,2.514738273620605469e+01,3.220695495605468750e+01
1.075999975204467773e+00,2.000000000000000000e+00,-3.210525131225585938e+01,3.113052606582641602e+00,3.994446945190429688e+01,9.633871459960937500e+01,8.514865112304687500e+01,1.333968505859375000e+02,-9.199260711669921875e+00,-3.169147682189941406e+01,-1.837810821533203125e+02,3.636496734619140625e+01,2.516455841064453125e+01,3.220109176635742188e+01
1.080000042915344238e+00,2.000000000000000000e+00,-3.215735626220703125e+01,3.147763013839721680e+00,3.990030288696289062e+01,9.634445190429687500e+01,8.514562225341796875e+01,1.333908233642578125e+02,-9.248545646667480469e+00,-3.168611526489257812e+01,-1.837760620117187500e+02,3.636758422851562500e+01,2.518173217773437500e+01,3.219522476196289062e+01
1.083999991416931152e+00,2.000000000000000000e+00,-3.220945358276367188e+01,3.182465791702270508e+00,3.985614013671875000e+01,9.635018157958984375e+01,8.514260864257812500e+01,1.333847961425781250e+02,-9.297820091247558594e+00,-3.168075370788574219e+01,-1.837710571289062500e+02,3.637019729614257812e+01,2.519890022277832031e+01,3.218936538696289062e+01
1.088000059127807617e+00,2.000000000000000000e+00,-3.226153945922851562e+01,3.217161178588867188e+00,3.981199645996093750e+01,9.635591125488281250e+01,8.513957977294921875e+01,1.333787689208984375e+02,-9.347082138061523438e+00,-3.167539215087890625e+01,-1.837660369873046875e+02,3.637281417846679688e+01,2.521606445312500000e+01,3.218349838256835938e+01
1.090999960899353027e+00,2.000000000000000000e+00,-3.231361007690429688e+01,3.251849174499511719e+00,3.976785659790039062e+01,9.636164855957031250e+01,8.513655853271484375e+01,1.333727569580078125e+02,-9.396333694458007812e+00,-3.167003440856933594e+01,-1.837610168457031250e+02,3.637542724609375000e+01,2.523322677612304688e+01,3.217763900756835938e+01
1.095999956130981445e+00,2.000000000000000000e+00,-3.236567306518554688e+01,3.286529541015625000e+00,3.972372436523437500e+01,9.636737823486328125e+01,8.513353729248046875e+01,1.333667297363281250e+02,-9.445576667785644531e+00,-3.166467857360839844e+01,-1.837560119628906250e+02,3.637804031372070312e+01,2.525038528442382812e+01,3.217177963256835938e+01
1.100000023841857910e+00,2.000000000000000000e+00,-3.241772842407226562e+01,3.321202278137207031e+00,3.967960357666015625e+01,9.637310791015625000e+01,8.513051605224609375e+01,1.333607025146484375e+02,-9.494806289672851562e+00,-3.165932083129882812e+01,-1.837510070800781250e+02,3.638064956665039062e+01,2.526753807067871094e+01,3.216592407226562500e+01
1.103999972343444824e+00,2.000000000000000000e+00,-3.246976852416992188e+01,3.355867385864257812e+00,3.963549423217773438e+01,9.637882995605468750e+01,8.512749481201171875e+01,1.333546752929687500e+02,-9.544026374816894531e+00,-3.165396499633789062e+01,-1.837460021972656250e+02,3.638326263427734375e+01,2.528468894958496094e+01,3.216006469726562500e+01
1.108000040054321289e+00,2.000000000000000000e+00,-3.252179718017578125e+01,3.390525102615356445e+00,3.959139251708984375e+01,9.638456726074218750e+01,8.512448120117187500e+01,1.333486480712890625e+02,-9.593235969543457031e+00,-3.164861488342285156e+01,-1.837409820556640625e+02,3.638587188720703125e+01,2.530183410644531250e+01,3.215421295166015625e+01
1.111999988555908203e+00,2.000000000000000000e+00,-3.257381439208984375e+01,3.425175428390502930e+00,3.954730224609375000e+01,9.639028930664062500e+01,8.512145996093750000e+01,1.333426361083984375e+02,-9.642435073852539062e+00,-3.164325904846191406e+01,-1.837359771728515625e+02,3.638848495483398438e+01,2.531897926330566406e+01,3.214835739135742188e+01
1.116000056266784668e+00,2.000000000000000000e+00,-3.262582015991210938e+01,3.459818124771118164e+00,3.950321960449218750e+01,9.639601135253906250e+01,8.511843872070312500e+01,1.333366241455078125e+02,-9.691622734069824219e+00,-3.163790702819824219e+01,-1.837309875488281250e+02,3.639109420776367188e+01,2.533611679077148438e+01,3.214250564575195312e+01
1.118999958038330078e+00,2.000000000000000000e+00,-3.267781448364257812e+01,3.494453191757202148e+00,3.945914840698242188e+01,9.640173339843750000e+01,8.511542510986328125e+01,1.333306121826171875e+02,-9.740799903869628906e+00,-3.163256072998046875e+01,-1.837259674072265625e+02,3.639370346069335938e+01,2.535325241088867188e+01,3.213665008544921875e+01
